JNU-Tangyin/eata/results/Batch4_SP500/Batch4_SP500-ADP.csv
Date,Action,Predicted_Q25,Predicted_Q75,Actual_Q25,Actual_Q75,RL_Reward
2010-12-14,0,0.0,0.0010788151390980726,-0.0014472658354054645,0.004769371174321093,0.9958459378866066
2010-12-16,0,0.0,0.0,-0.0014472658354054645,0.004665017413881994,0.9950435651379536
2010-12-20,1,4.4836872982931456e-05,4.5533114208300226e-05,-0.0017747758253799078,0.004665017413881994,0.9946925879202134
2010-12-22,-1,-1.1713142946546552e-05,-5.588488917583602e-06,-0.0017747758253799078,0.0056525946780716495,0.9943973428182463
2010-12-27,0,0.0,0.0,-0.0010862294771442303,0.007776509830465094,0.9942056021347631
2010-12-29,0,0.0,0.0,-0.00157153012424432,0.007776509830465094,0.9929063235570553
2010-12-31,0,0.0,0.0,-0.0016671557077887799,0.007776509830465094,0.9923180364677986
2011-01-04,0,0.0,0.0,-0.0002546202275247586,0.007776509830465094,0.9922769519642207
2011-01-06,0,0.0,0.0,-0.0002546202275247586,0.005034905003268083,0.9930156280229616
2011-01-10,0,0.0,0.0,-0.0002546202275247586,0.005034905003268083,0.9929693398666961
2011-01-12,0,0.0,0.0,-0.0020404308423502544,0.005034905003268083,0.9930976123170798
2011-01-14,0,0.0,0.0,-0.0002546202275247586,0.0045552053345185835,0.9936361137423256
2011-01-19,0,0.0,0.0,-0.0010114552872885095,0.004264335597688929,0.9938427366608228
2011-01-21,0,0.0,0.0,-0.00025227835325458367,0.004264335597688929,0.9938400036821934
2011-01-25,0,0.0,0.0,-0.0044887310195735755,0.0035868178146126204,0.9934108637280231
2011-01-27,0,0.0,0.0,-0.001811897569794398,0.003931205368712309,0.9940502992541661
2011-01-31,-1,-0.012247446321917576,-0.012015311885452618,-0.001811897569794398,0.005690296706645442,0.9860738668197128
2011-02-02,0,0.0,0.0,-0.001811897569794398,0.007116835885842519,0.9937589267245062
2011-02-04,0,0.0,0.0,-0.004456669815936164,0.007116835885842519,0.9937416125024877
2011-02-08,-1,-7.833569821433504e-05,-7.544076542416898e-05,-0.004456669815936164,0.00792929509729475,0.99308046316415
2011-02-10,1,0.00026544909911015873,0.0002991472377548729,-0.004456669815936164,0.007116835885842519,0.9933831415431338
2011-02-14,1,0.0014868543732164197,0.001526401632027259,-0.005508016131487034,0.007116835885842519,0.9922489268423196
2011-02-16,0,0.0,0.0,-0.007165673535957955,0.008015456530434104,0.9913017909579886
2011-02-18,0,0.0,0.0,-0.007165673535957955,0.009449606739308886,0.9906064220702372
2011-02-23,1,3.0374657456833344e-05,3.233350793583257e-05,-0.0054118325205748,0.009449606739308886,0.9914960598434336
2011-02-25,0,0.0,0.0,-0.0054118325205748,0.00858568467431943,0.9919842191986397
2011-03-01,-1,-0.00015832521686478537,-1.1455888118574022e-05,-0.004259980222019088,0.00858568467431943,0.9927130392673945
2011-03-03,0,0.0,0.0,-0.004259980222019088,0.006439248004853067,0.9931497892550596
2011-03-07,0,0.0,0.0,4.969404720605317e-05,0.007527838914544356,0.992929261645297
2011-03-09,0,0.0,0.0,-0.0013552689910368942,0.007527838914544356,0.9926145869431678
2011-03-11,1,0.00033062489122118936,0.00041601938535929515,-0.0013552689910368942,0.007527838914544356,0.9927114243536301
2011-03-15,0,0.0,0.0,-0.00044079468225503534,0.007527838914544356,0.9932163702253408
2011-03-17,0,0.0,0.0,-0.00038738986029507837,0.006591838283476648,0.9945683529992836
2011-03-21,0,0.0,0.0,-0.00044079468225503534,0.005332082657909003,0.995252618428668
2011-03-23,1,0.00023035395929111468,0.00029069192795182084,-0.00044079468225503534,0.00591609557302119,0.9945595346136519
2011-03-25,1,0.0001918264189421532,0.0002479494784711284,-0.00044079468225503534,0.00591609557302119,0.9944329226901236
2011-03-29,1,0.0005700228687002038,0.0005728174213206802,-0.0004311275774265175,0.007545079553434428,0.9938276771282656
2011-03-31,0,0.0,0.0,-0.0007514143681383044,0.006591838283476648,0.9940706368422532
2011-04-04,0,0.0,0.0,-0.0020247017458980667,0.004975347233635195,0.9941714558548368
2011-04-06,0,0.0,0.0,-0.002703811883993146,0.003542832729457549,0.99452426573869
2011-04-08,0,0.0,0.0,-0.0014266943179524225,0.004951154173920229,0.9947720364151903
2011-04-12,0,0.0,0.0,-0.0014266943179524225,0.004951154173920229,0.9946007924268272
2011-04-14,0,0.0,0.0,-0.002703811883993146,0.006182024731109546,0.993397284964247
2011-04-18,0,0.0,0.0,-0.002703811883993146,0.006182024731109546,0.9933668867680826
2011-04-20,1,0.0015218216724086485,0.0015693200832724067,-0.002703811883993146,0.006182024731109546,0.9941206028673404
2011-04-25,1,0.0011231740498875438,0.0011656756937615763,-0.005684128141623234,0.006182024731109546,0.993478853603589
2011-04-27,1,0.002190651984234874,0.002355497745993159,-0.005684128141623234,0.0031880344849699806,0.9938710780887814
2011-04-29,1,0.0017226264629186595,0.0018117574816844718,-0.005684128141623234,0.00575848200990239,0.9936703163726983
2011-05-03,1,0.0016916965170745803,0.0017635427246756549,-0.007114114511708361,0.00575848200990239,0.9927289910659894
2011-05-05,1,0.001200397758263052,0.0012021206102126032,-0.007114114511708361,0.00575848200990239,0.992504160947642
2011-05-09,1,0.0013689264990960988,0.0014059686345674113,-0.007114114511708361,0.004744640650301853,0.9923555740152001
2011-05-11,1,0.0011046573044647613,0.001109801579710714,-0.008424419252448474,0.004979799916419912,0.9922326654896091
2011-05-13,1,0.0009841213658579315,0.0010190214429577043,-0.008424419252448474,0.004979799916419912,0.9921041406004178
2011-05-17,1,0.0008067884712166987,0.0008623806612215676,-0.010489967380890648,0.004979799916419912,0.9916227801278923
2011-05-19,1,0.0007251974234028359,0.0007809252897740783,-0.010489967380890648,0.0033688585474663155,0.9918751799479699
2011-05-23,1,1.7810143396647903e-05,0.00021604573584986953,-0.004980458075969291,0.005650325322857547,0.9918947671594711
2011-05-25,0,-0.0001787739857525034,4.381826824373619e-05,-0.008897829489914353,0.005650325322857547,0.9914312594316793
2011-05-27,1,0.0005654033849471093,0.0006961113052903363,-0.010489967380890648,0.005004759783205799,0.9909306769701091
2011-06-01,1,0.000660189838720699,0.000760288888954501,-0.008897829489914353,0.006246263740509433,0.9916075115952488
2011-06-03,1,0.00017877570070463542,0.00034487314165465024,-0.0068446127034632945,0.007968805243133339,0.9915150112625318
2011-06-07,1,0.0001716317704383251,0.0003079288650715106,-0.0068446127034632945,0.007968805243133339,0.9912840886440679
2011-06-09,1,0.00013079801729696681,0.00026097501159688755,-0.0068446127034632945,0.008611428978395756,0.9905967318514053
2011-06-13,1,0.00017070316924384276,0.00029211677619424314,-0.0068446127034632945,0.007968805243133339,0.9913538930065585
2011-06-15,-1,-0.0005231814624638339,-0.00031753523572061694,-0.006558972991676869,0.007968805243133339,0.9918793922881792
2011-06-17,0,-0.00013058630425264285,2.8158158007523864e-05,-0.007735808046859407,0.007968805243133339,0.9912561332370309
2011-06-21,1,0.0002627606715845836,0.0003453379592306767,-0.008807313939625966,0.007968805243133339,0.990960064867279
2011-06-23,-1,-0.000534666441794061,-0.00033746971062636024,-0.007950394804266691,0.008611428978395756,0.9910998809606472
2011-06-27,0,-5.157678098942787e-05,7.01766388158009e-05,-0.005666833836495575,0.008611428978395756,0.99165375378136
2011-06-29,1,0.00021175522211806883,0.0002979405369797492,-0.009728309539262441,0.00465274636915111,0.9911438312021551
2011-07-01,1,0.0009088734161626659,0.0009142363812184937,-0.010783707103130953,0.0021674560270504174,0.9909873330078032
2011-07-06,1,0.00082353930682994,0.0008515804475719257,-0.011480989749752644,0.001434797328501145,0.9904416974542647
2011-07-08,1,0.0008393031597890084,0.0008607018811631129,-0.012294250144012881,0.001434797328501145,0.9895245156246575
2011-07-12,1,0.0002612937783043543,0.0003693970963223674,-0.014634428176648853,0.0021674560270504174,0.9864214309741037
2011-07-14,1,7.472543191518064e-05,0.0001596277900145665,-0.015360900137967528,0.005830717111524511,0.9827374995421174
2011-07-18,-1,-0.0005553413455762802,-0.0003338291598717414,-0.015360900137967528,0.011371545391740085,0.9825864310009806
2011-07-20,-1,-0.00024416157434837204,-7.415791620533744e-05,-0.015360900137967528,0.010247199506822463,0.983485679825311
2011-07-22,0,-4.9701936486643526e-05,0.00012451763047371099,-0.017418045707752072,0.0056262716321507445,0.9826376473781632
2011-07-26,1,3.880027277533565e-05,0.00017023002906030175,-0.017418045707752072,0.010247199506822463,0.9810447893629605
2011-07-28,-1,-0.0007107934463560591,-0.00047256175016563277,-0.01764161743307788,0.01032856824964031,0.9810968540767195
2011-08-01,-1,-0.001236651663864545,-0.0009603511642508495,-0.01764161743307788,0.013376047463644972,0.98050957680988
2011-08-03,-1,-0.0018600754807631724,-0.00153087163227458,-0.006185529889653877,0.013376047463644972,0.9807020946716516
2011-08-05,-1,-0.0026547922676147,-0.0022137553360520915,-0.00969970297383708,0.013376047463644972,0.9815343666284716
2011-08-09,-1,-0.0039158795748461955,-0.003302325295423585,-0.0081235050152426,0.013376047463644972,0.9836109806013039
2011-08-11,-1,-0.003365693904538178,-0.0028513177131380685,-0.0081235050152426,0.010839577696436634,0.9869092244129487
2011-08-15,-1,-0.002673728149250365,-0.0022394579152195757,-0.0081235050152426,0.011235852402297377,0.9871684029651665
2011-08-17,-1,-0.002374015521909267,-0.0019723479266392863,-0.0081235050152426,0.014898910397260722,0.9852862550170127
2011-08-19,0,0.0,0.0,-0.006591839535323988,0.014898910397260722,0.9867351332075963
2011-08-23,0,0.0,0.0,-0.0081235050152426,0.014564871581227204,0.9871490777250378
2011-08-25,-1,-0.002295611983122066,-0.002022040984540458,-0.009382056302062075,0.014564871581227204,0.9862243495594311
2011-08-29,-1,-0.0010313143319152134,-0.0009319728687840264,-0.009382056302062075,0.010454352603828154,0.98660707346786
2011-08-31,-1,-0.0008000744038992019,-0.0007138440417831572,-0.009382056302062075,0.010702360301147499,0.9864912832113544
2011-09-02,-1,-0.0018081026571802892,-0.0015940226076373923,-0.01133592313095813,0.010702360301147499,0.9863608385317926
2011-09-07,-1,-0.001195719794528541,-0.0010597170798854851,-0.010410771301972297,0.014982498505772114,0.9859922971307822
2011-09-09,-1,-0.002346229590905925,-0.0020652413793556205,-0.007889905126818647,0.014982498505772114,0.9861999032591975
2011-09-13,-1,-0.0012456834488005003,-0.001125324292788178,-0.007889905126818647,0.016551423361650892,0.98601288903484
2011-09-15,1,0.00015162194040038346,0.000212984977517819,-0.007889905126818647,0.01417448603269242,0.9870693228660841
2011-09-19,1,0.00046122388620757003,0.0005995828926613708,-0.010285532886490156,0.016437970115866014,0.9860402427328941
2011-09-21,-1,-0.00039795126344955244,-0.0003732756122303743,-0.009560473091056822,0.016437970115866014,0.986204188459108
2011-09-23,-1,-0.0014511980115586062,-0.0013557981364997875,-0.006705963076061331,0.016948381180844893,0.9868709157353927
2011-09-27,-1,-0.0010224088440004948,-0.0009579740925775553,-0.008376705858808672,0.016563586919224434,0.9872945708919663
2011-09-29,0,0.0,0.0,-0.011066641131328197,0.0176205556988218,0.985343201732653
2011-10-03,0,0.0,0.0,-0.005460506105700552,0.0176205556988218,0.9866179624696004
2011-10-05,0,0.0,0.0,-0.007587352885467407,0.014665662235991707,0.9865869637138202
2011-10-07,0,0.0,0.0,-0.010233681374496924,0.01690611426340119,0.9856729865693581
2011-10-11,1,0.0024622875870764396,0.0028113818115429227,-0.010233681374496924,0.01690611426340119,0.9861308563850776
2011-10-13,1,0.0026327223972886136,0.0029436287698809275,-0.011066641131328197,0.014665662235991707,0.9850566098080976
2011-10-17,1,0.0024746307563861263,0.002763347308735832,-0.010233681374496924,0.015325485418475329,0.9851089601018314
2011-10-19,1,0.0026596193067592528,0.0029985862791984718,-0.010279447218798223,0.016356136011757734,0.9842063467108558
2011-10-21,1,0.00355790007180246,0.004015444738270359,-0.012820772092508629,0.009779629870986066,0.9838552041490206
2011-10-25,1,0.0030023099351899835,0.003352275735429599,-0.014038934765781158,0.009779629870986066,0.9834337403946517
2011-10-27,1,0.0036832285793127685,0.0041020959307394855,-0.014038934765781158,0.005815755513353768,0.9850541554429549
2011-10-31,1,0.0027460002142588895,0.0030604277187992095,-0.014038934765781158,0.009779629870986066,0.9849799505905275
2011-11-02,1,0.0019515039765999394,0.0021810119132708713,-0.0106855014432224,0.016356136011757734,0.9843668499421219
2011-11-04,1,0.0020564028130527724,0.002260035025040869,-0.01068400554239917,0.01542268966403337,0.9850352775503718
2011-11-08,1,0.0025637498774583253,0.0028373680478879612,-0.01068400554239917,0.009868658999604017,0.9857010351615844
2011-11-10,1,0.0020691381105484253,0.00231256987986647,-0.010160510597275792,0.01542268966403337,0.9867724967580761
2011-11-14,1,0.0019423608025896807,0.0021483557704243556,-0.011257670726558661,0.009868658999604017,0.9870299585755828
2011-11-16,1,0.0015569905566120877,0.0017018902759585067,-0.009993232923520789,0.003103220278850383,0.9889058072453942
2011-11-18,1,0.0012084898624492289,0.0013326556823204771,-0.0072479677514438595,0.008754716299853115,0.9893903310678028
2011-11-22,1,0.0009384153323113516,0.001084617428907553,-0.005653090630202554,0.012057808568891356,0.9886157941608245
2011-11-25,1,0.000537100719105491,0.0006266246761663414,-0.004265750242154558,0.012057808568891356,0.9890136987068746
2011-11-29,1,0.0011655633386654948,0.0013506505518581647,-0.005653090630202554,0.009702379666992632,0.9895278023604095
2011-12-01,1,0.002483371066958035,0.0028207535561474055,-0.006285415135457031,0.009522174812387766,0.9910619558468073
2011-12-05,0,0.0,0.0,-0.006285415135457031,0.008570995889241958,0.9916671943743214
2011-12-07,0,0.0,0.0,-0.006285415135457031,0.008570995889241958,0.9913094816760863
2011-12-09,0,0.0,0.0,-0.005623429942233424,0.007597652434570309,0.9924695279916954
2011-12-13,1,0.0014973161927557019,0.0017717043871771144,-0.0017829754476109331,0.007597652434570309,0.9933658623539587
2011-12-15,0,0.0,0.0,-0.0009615289863581863,0.008570995889241958,0.9928176414112421
2011-12-19,0,0.0,0.0,-0.0003659085250399672,0.008570995889241958,0.9925311494760398
2011-12-21,0,0.0,0.0,-0.001309633113177922,0.007597652434570309,0.9944496256537274
2011-12-23,1,0.0032513385134560276,0.0036196218836742327,-0.001309633113177922,0.007147961729084066,0.9947839449062704
2011-12-28,1,0.002820542068415662,0.003072260278929164,-0.0019341100202161527,0.007147961729084066,0.9939411181662005
2011-12-30,1,0.0012063996442552216,0.0012642114648570898,-0.0019991930342493393,0.006576753386554383,0.9943516296138127
2012-01-04,1,0.001373173530600591,0.0014509376710986884,-0.0022308334203695645,0.004114178375796019,0.9945226619800144
2012-01-06,0,0.0,0.0,-0.0027309796027121403,0.004114178375796019,0.9941508507215379
2012-01-10,0,0.0,0.0,-0.004812857894829083,0.004114178375796019,0.9938638388781923
2012-01-12,1,0.0008262530206274589,0.0008596212200330467,-0.005538643825573861,0.003164852166659974,0.9934667944350006
2012-01-17,1,0.001779727490028063,0.0019366728585943362,-0.005538643825573861,0.003164852166659974,0.9935863623773924
2012-01-19,0,0.0,0.0,-0.007121915144604032,0.0008939648352437131,0.9947594838056548
2012-01-23,0,0.0,0.0,-0.007379438256211091,0.0014730285803327733,0.9942187914042777
2012-01-25,1,0.002241960565043628,0.0024886934784203027,-0.007379438256211091,0.0005090489566079248,0.9931815994998997
2012-01-27,1,0.0009110823827687923,0.0009360830189536491,-0.005538643825573861,0.0014730285803327733,0.9951876165336669
2012-01-31,1,0.0008310764453993693,0.0008597978099659045,-0.004812857894829083,0.0033458708318836504,0.9952142550345107
2012-02-02,1,0.00023547646232219342,0.00032123348666106863,-0.005538643825573861,0.004402029831137298,0.9947766978833551
2012-02-06,1,0.0006125848087361156,0.0006299553846102662,-0.005624484862776214,0.0017154952252105924,0.9950193117438046
2012-02-08,1,0.0008036555245306674,0.0008659756368582948,-0.004822569280291743,0.005561398852742288,0.9949718483552115
2012-02-10,1,0.0005294575975804037,0.0005518177270848724,-0.0019638741057684704,0.006163080439394613,0.9951797714213699
2012-02-14,1,0.00010336287819027922,0.00016589256357143724,-0.0019638741057684704,0.006163080439394613,0.9950933588358771
2012-02-16,-1,-0.0008025123380174814,-0.0005805858752122044,-0.0019638741057684704,0.006163080439394613,0.9949987024876534
2012-02-21,0,0.0,0.0,-0.0019638741057684704,0.005561398852742288,0.9954010541171204
2012-02-23,0,0.0,0.0,-0.0019638741057684704,0.005561398852742288,0.9954292706908031
2012-02-27,0,0.0,0.0,-0.0019638741057684704,0.006163080439394613,0.99499412587266
2012-02-29,0,0.0,0.0,-0.0020400374440552264,0.004514747186684738,0.995329746254016
2012-03-02,0,0.0,0.0,-0.0020400374440552264,0.003594765653544392,0.9956915299373359
2012-03-06,0,0.0,0.0,-0.0011359062342928567,0.004514747186684738,0.9956094941095839
2012-03-08,0,0.0,0.0,-0.0020400374440552264,0.003447512276445655,0.9957639061756591
2012-03-12,0,0.0,0.0,-0.005031503826317036,0.003041265162998834,0.9946371849258998
2012-03-14,1,0.00029053697375559275,0.00030713811362114525,-0.005031503826317036,0.0035801808820156798,0.9939331299219567
2012-03-16,1,0.00045889809534397654,0.0004875672892522134,-0.0057058256565487245,0.0038886266949767533,0.9936939549365515
2012-03-20,1,0.0003778200066899526,0.0003899468647990226,-0.007870362846458886,0.004538181999706323,0.9925311643418249
2012-03-22,0,0.0,0.0,-0.007870362846458886,0.006774073609746412,0.9922226703650615
2012-03-26,1,0.0006107426117466032,0.0006619110822733551,-0.008347222743902337,0.004538181999706323,0.9923366867499899
2012-03-28,0,0.0,0.0,-0.008347222743902337,0.006774073609746412,0.9918321135791908
2012-03-30,0,0.0,0.0,-0.008347222743902337,0.006774073609746412,0.9919678772754386
2012-04-03,0,0.0,0.0,-0.00877114174384128,0.005308975114002721,0.9918281311526078
2012-04-05,0,0.0,0.0,-0.008993623472965293,0.005308975114002721,0.9913017634344657
2012-04-10,0,0.0,0.0,-0.00770962685671798,0.005308975114002721,0.992679885341414
2012-04-12,1,0.04260709119445959,0.054263039360413975,-0.00790836438209773,0.0044585117707773335,0.9526296578541595
2012-04-16,0,0.0,0.0,-0.007437723458125663,0.0044585117707773335,0.9932343920765689
2012-04-18,0,0.0,0.0,-0.006032823708583619,0.004186295690903083,0.9943468360244456
2012-04-20,-1,-0.0013419399867535902,-0.001047017569163579,-0.00790836438209773,0.0036483542799008594,0.9937385931068684
2012-04-24,-1,-0.0013364989749410808,-0.0010570614689214648,-0.007437723458125663,0.0044585117707773335,0.9932991845710519
2012-04-26,0,0.0,0.0,-0.007437723458125663,0.004186295690903083,0.993516542611957
2012-04-30,0,0.0,0.0,-0.007938053845189672,0.004025338917238112,0.9932733765689309
2012-05-02,0,0.0,0.0,-0.007297654264900767,0.004025338917238112,0.9934000901812456
2012-05-04,0,0.0,0.0,-0.007297654264900767,0.004326759410770665,0.9926581947237972
2012-05-08,0,0.0,0.0,-0.007297654264900767,0.004961062876511872,0.9913138991792478
2012-05-10,0,0.0,0.0,-0.006938057564221959,0.0052494375600124835,0.9913833987707462
2012-05-14,-1,-0.0015433707083365397,-0.0012869805247202122,-0.007599247126585027,0.0067971225801341795,0.9908774998952572
2012-05-16,-1,-0.0008908580362857622,-0.0007648422828575063,-0.007599247126585027,0.009684172339609293,0.9900530754810608
2012-05-18,-1,-0.001537695374762284,-0.0013443875758421217,-0.006462626767888974,0.010327120577880988,0.9903641329734673
2012-05-22,-1,-0.0014220191925460495,-0.0012254009883608226,-0.006462626767888974,0.009684172339609293,0.990976399425823
2012-05-24,-1,-0.0012086021094804933,-0.001042081332670388,-0.006938057564221959,0.009684172339609293,0.9905723014207677
2012-05-29,-1,-0.0010680549747535046,-0.0009318497479394728,-0.006938057564221959,0.009684172339609293,0.9905026036896007
2012-05-31,-1,-0.0012214866756849292,-0.001076684799687615,-0.005712855182985107,0.010028498039340642,0.990279527634357
2012-06-04,0,0.0,0.0,-0.003540019608732423,0.010028498039340642,0.9908855825393487
2012-06-06,0,0.0,0.0,-0.003540019608732423,0.009684172339609293,0.9917234301419685
2012-06-08,0,0.0,0.0,-0.005712855182985107,0.008691723312066524,0.9912840647703138
2012-06-12,0,0.0,0.0,-0.003540019608732423,0.007134544135667149,0.9920892035494957
2012-06-14,0,0.0,0.0,-0.0020720283893409922,0.007112882610952553,0.9929081761054236
2012-06-18,0,0.0,0.0,-0.0028700928058582142,0.006527913512586919,0.9930635820760907
2012-06-20,0,0.0,0.0,-0.003525626725634462,0.0069256948063917126,0.9925209405745531
2012-06-22,0,0.0,0.0,-0.005669114242002808,0.0069256948063917126,0.9924932011622156
2012-06-26,0,0.0,0.0,-0.005024033720084864,0.0069256948063917126,0.9928226073399244
2012-06-28,0,0.0,0.0,-0.003364764176309028,0.00832788801708153,0.9916689250087413
2012-07-02,0,0.0,0.0,-0.005186526594026506,0.0069256948063917126,0.9922013136514606
2012-07-05,0,0.0,0.0,-0.006387354144687461,0.0037883580291233295,0.9921288693121547
2012-07-09,-1,-0.0003886357355352239,-0.0003736490981787288,-0.005186526594026506,0.0069256948063917126,0.9920349515274405
2012-07-11,1,0.0002674243259391933,0.00027890339844630747,-0.005186526594026506,0.007755333576409572,0.9914595210256146
2012-07-13,1,0.0005310134760829978,0.000582034708201778,-0.005715190047140238,0.00769102018085638,0.9912529868595125
2012-07-17,1,0.0005836454633913164,0.0006354350825514458,-0.006387354144687461,0.008704208995700135,0.9908073564079856
2012-07-19,0,0.0,0.0,-0.005945951327999966,0.008586865514580022,0.9913009551380902
2012-07-23,1,0.00043120934654725004,0.0004804579362964214,-0.004601168855191929,0.008586865514580022,0.9920341001797116
2012-07-25,1,0.00039967046374042944,0.00044760241049466583,-0.003570198256870648,0.008586865514580022,0.9921342955862534
2012-07-27,1,0.0011552921498420284,0.00128056602455907,-0.003570198256870648,0.007619440676088322,0.9934871605899673
2012-07-31,1,0.0006294118215448788,0.0007078442126928022,-0.002485265787720752,0.007619440676088322,0.994329527241976
2012-08-02,1,0.0004679851710208087,0.000523901950036472,-0.002485265787720752,0.007619440676088322,0.9946288225463786
2012-08-06,1,0.0008134318662054725,0.0009321028371194344,-0.0021790978296982425,0.005169741096920585,0.9957202427382904
2012-08-08,0,0.0,0.0,-0.0021790978296982425,0.0038826674354329135,0.9951429220200415
2012-08-10,0,0.0,0.0,-0.0021790978296982425,0.0018090825559869492,0.9955500867394758
2012-08-14,1,0.0011224441284047118,0.0012704911127141446,-0.002736666225938612,0.001542633740652363,0.9949202163805378
2012-08-16,1,0.0015244796024152423,0.0017417508174888926,-0.002736666225938612,0.0018090825559869492,0.9944667148654922
2012-08-20,1,0.001298918202886393,0.0014772589023202879,-0.0023520933407720195,0.0018090825559869492,0.9946325926551026
2012-08-22,1,0.001143912760232211,0.0012912791631965116,-0.0019331922075993128,0.002754663641958469,0.994852714871221
2012-08-24,1,0.0015084049909722078,0.0017262100689128068,-0.001902562279744288,0.002754663641958469,0.9950731026023176
2012-08-28,1,0.001277866873103306,0.0014546817336617507,-0.0034266944216642743,0.002754663641958469,0.9945103553107333
2012-08-30,1,0.0006938125794965521,0.0007507435588304822,-0.0022367088726373196,0.0037978817825551005,0.994657038485895
2012-09-04,1,0.0010919504800809819,0.0012291066709324934,-0.0027647096451869566,0.0037978817825551005,0.9945356157858135
2012-09-06,1,0.0014300119081107146,0.0016001030192283334,-0.0027647096451869566,0.0037978817825551005,0.9951028633948314
2012-09-10,1,0.0010940927802273667,0.0012139951837932446,-0.0027647096451869566,0.004458776892688701,0.9947836376932694
2012-09-12,1,0.0006057052946112495,0.0006720734367833379,-0.0031148309265627847,0.004458776892688701,0.9953535169314767
2012-09-14,1,0.0009980927245491513,0.0011054539031421409,-0.0031148309265627847,0.003375913383508479,0.9959639401154018
2012-09-18,1,0.0011328139836885957,0.001283456838157026,-0.0031148309265627847,0.004310248884429523,0.9953960950678651
2012-09-20,1,0.0011204225855482757,0.0012624856096103666,-0.0039780711287036585,0.004310248884429523,0.9953039655978257
2012-09-24,1,0.000983475635946163,0.0010840463769377518,-0.004892841872551374,0.004310248884429523,0.9946157786699706
2012-09-26,1,0.00027303971711104897,0.00029265178564080973,-0.004021391556052271,0.004310248884429523,0.9948082479662069
2012-09-28,1,0.0006479938631594126,0.0006838709180954641,-0.004021391556052271,0.0035680959947926544,0.9948771473353697
2012-10-02,1,0.0003207208798797524,0.0003386504474425829,-0.004892841872551374,0.0056727131286311095,0.9934108841586111
2012-10-04,1,0.00045895673745607803,0.00046626080096414454,-0.007346242534205414,0.0035680959947926544,0.991176185914205
2012-10-08,1,0.0004559990511348599,0.00047035918020627856,-0.00949045037134356,0.0035680959947926544,0.9903546360573745
2012-10-10,-1,-0.0004732672197192185,-0.0003209039802675681,-0.00949045037134356,0.0035680959947926544,0.9905158366308935
2012-10-12,-1,-0.0001921142780848188,-9.61242832778189e-05,-0.00949045037134356,0.003658621197966041,0.9903371869888105
2012-10-16,1,0.00023798872513965263,0.0002831221333689061,-0.012442549743462296,0.002364163572318892,0.9901681523651034
2012-10-18,0,-4.198609450105508e-05,4.46505980334285e-05,-0.012442549743462296,0.0029769618643180713,0.9900381892728986
2012-10-22,-1,-0.0006421365211496587,-0.0004674631658990791,-0.010259878395470774,0.003844386943941136,0.9904513132722849
2012-10-24,-1,-0.0010361758439340093,-0.0007996220045319171,-0.009701622172831117,0.006230010366556395,0.990040883218418
2012-10-26,-1,-0.00027838245756345005,-0.00018397388279650195,-0.009701622172831117,0.006823509562974157,0.9895630592806188
2012-11-01,1,0.00048254487665066786,0.0004925217069692324,-0.009701622172831117,0.007276868309724694,0.9904230245864494
2012-11-05,-1,-0.0010788734797836323,-0.000882914011419266,-0.005360926937101026,0.007276868309724694,0.9923879227498855
2012-11-07,-1,-0.0009013498062314968,-0.0007455626620761414,-0.003475469910933366,0.007276868309724694,0.9931572826492632
2012-11-09,-1,-0.0013160003097223297,-0.001116591336535122,-0.003172460803042644,0.007276868309724694,0.993691117567681
2012-11-13,0,0.0,0.0,-0.004300218197378821,0.008322242672850278,0.993077253236867
2012-11-15,0,0.0,0.0,-0.0033438382270167197,0.008322242672850278,0.9935861344697974
2012-11-19,0,0.0,0.0,-0.0033438382270167197,0.008432325014484963,0.9933452062676085
2012-11-21,0,0.0,0.0,-0.0033438382270167197,0.008432325014484963,0.9934620596774391
2012-11-26,0,0.0,0.0,-0.0033438382270167197,0.007276868309724694,0.9937455913326815
2012-11-28,0,0.0,0.0,-0.003757616383847468,0.005756565535485028,0.9939495389310954
2012-11-30,0,0.0,0.0,-0.0044518996134288585,0.005268180468350303,0.9936856467365276
2012-12-04,-1,-0.0008772849280125261,-0.0007318270349673205,-0.003757616383847468,0.006407529152647949,0.9927360332591876
2012-12-06,-1,-0.0003656195182842715,-0.0002917207880548414,-0.003916102468445357,0.006229724264918785,0.9929041317051917
2012-12-10,-1,-0.0005527104672563381,-0.00044374214951576257,-0.0037305808434998874,0.0065463053909733514,0.9927273119292699
2012-12-12,0,0.0,0.0,-0.003263973991803176,0.005454939327949287,0.9935415751646547
2012-12-14,0,0.0,0.0,-0.0037305808434998874,0.005454939327949287,0.9936180288978099
2012-12-18,0,0.0,0.0,-0.004052986314263894,0.0046689532826808796,0.9938110864271044
2012-12-20,1,0.0005142897974193912,0.0005879677762958451,-0.004052986314263894,0.005773482531578749,0.9935230670134391
2012-12-24,0,0.0,0.0,-0.004052986314263894,0.005773482531578749,0.9937850069520666
2012-12-27,0,0.0,0.0,-0.003960376631073454,0.005773482531578749,0.993938105110618
2012-12-31,-1,-0.00039557677945216245,-0.0003226837633035082,-0.003960376631073454,0.005773482531578749,0.9937177581698797
2013-01-03,1,0.0005339352304946608,0.0005960831703473151,-0.003960376631073454,0.005773482531578749,0.994039655914094
2013-01-07,1,0.00057510326742278,0.0006514449797966627,-0.00426691542319093,0.005773482531578749,0.9923949822023953
2013-01-09,1,0.0005857781080004918,0.0006646794881080475,-0.004719001625181798,0.004458926214449774,0.9921565023627806
2013-01-11,1,0.0008137607101049003,0.0009382037314487443,-0.005599106385095761,0.00611139169809401,0.9915333832069071
2013-01-15,0,0.0,0.0,-0.005599106385095761,0.00611139169809401,0.9916978705636683
2013-01-17,1,0.0008478075327643625,0.0009657299135819998,-0.0050000531645559305,0.007306223364741142,0.9917975357178296
2013-01-22,1,0.0011589032141691574,0.0013285476149690542,-0.0050000531645559305,0.005374863649239968,0.9919977200132479
2013-01-24,1,0.0008357377891027313,0.0009538830305965125,-0.005210436039736434,0.007306223364741142,0.9910643531500392
2013-01-28,1,0.0005762483746450035,0.0006434834277255638,-0.005210436039736434,0.007306223364741142,0.9909473875603558
2013-01-30,1,0.0006709211531502708,0.0007665125755324704,-0.004161513434805287,0.007306223364741142,0.9915394489970738
2013-02-01,1,0.001683649131716508,0.001946818524637144,-0.004161513434805287,0.005602746782341305,0.9926665722225563
2013-02-05,1,0.001992779208953286,0.002273706991306138,-0.004161513434805287,0.005602746782341305,0.9940248177779734
2013-02-07,0,0.0,0.0,-0.0037842056494389745,0.007306223364741142,0.9934570995796592
2013-02-11,0,0.0,0.0,-0.0008151578136173906,0.007978967971046108,0.9938034792052697
2013-02-13,1,0.0010141723605338868,0.0011520662160816398,-0.0008151578136173906,0.008243679908968574,0.993588789323374
2013-02-15,1,0.0013476492828051398,0.0015349287979344018,-0.003958353031333134,0.008243679908968574,0.9934967842077691
2013-02-20,1,0.0012238581182900843,0.0013985413574599671,-0.0037842056494389745,0.008243679908968574,0.9938227812872965
2013-02-22,1,0.0010695578620860875,0.0011986229877592506,-0.0037842056494389745,0.006170999277765465,0.9943059465040789
2013-02-26,1,0.0011862843254519325,0.0013518417143366674,-0.0026892130390401754,0.008243679908968574,0.9940292632713185
2013-02-28,1,0.0010245070456318902,0.0011544685837294611,-0.0020900763394604673,0.006343737132747233,0.9941743839304092
2013-03-04,1,0.0014301203618902222,0.0016226876305050417,-0.002763674759368946,0.00847536716568277,0.9938399308966361
2013-03-06,1,0.0015417023169995775,0.0017561370765473297,-0.002763674759368946,0.006343737132747233,0.9942070843915815
2013-03-08,0,0.0,0.0,-0.004369682320555963,0.00621262155298989,0.9936786523037202
2013-03-12,0,0.0,0.0,-0.004369682320555963,0.00621262155298989,0.9930888074794638
2013-03-14,0,0.0,0.0,-0.004369682320555963,0.006005012684652067,0.993409057047161
2013-03-18,1,0.002184643736781817,0.0024710220701356514,-0.0036144435274391394,0.007061047078439563,0.9924459913711561
2013-03-20,1,0.0018187981537359397,0.002034943212197161,-0.006066310420860321,0.007061047078439563,0.9917013259133695
2013-03-22,0,0.0,0.0,-0.0036144435274391394,0.008082020426410742,0.9919243711936555
2013-03-26,0,0.0,0.0,-0.0036144435274391394,0.008082020426410742,0.9918255866255862
2013-03-28,1,0.0030488485511150597,0.0034478426255924186,-0.0036144435274391394,0.008082020426410742,0.9923383045776201
2013-04-02,0,0.0,0.0,-0.0027781479936035886,0.007827779478890533,0.9921677064340815
2013-04-04,1,0.0022888106649693683,0.002438143730947248,-0.0027781479936035886,0.008327216410395343,0.9924775258969777
2013-04-08,0,0.0,0.0,-0.0027781479936035886,0.008718690652306196,0.9911569775241857
2013-04-10,0,0.0,0.0,-0.0027781479936035886,0.008327216410395343,0.9921393981869601
2013-04-12,1,0.0014591182579834377,0.0014835516289209108,-0.0016571601119500484,0.008718690652306196,0.9917704563532959
2013-04-16,1,0.00180684058124998,0.001884301322006109,-0.0010156975633158268,0.008718690652306196,0.9931323008763705
2013-04-18,1,0.0012685388747327984,0.0012748447672887141,-0.0006553636874476604,0.009566886697267976,0.9926168516477847
2013-04-22,1,0.0015562827390771471,0.0016010814220536874,-0.0016571601119500484,0.011094928869604968,0.9918517268000391
2013-04-24,1,0.0018908022352059303,0.001981792493336767,-0.003952336725807047,0.009001939878266082,0.9918213293683027
2013-04-26,1,0.00189376462240533,0.0020034515632195455,-0.005453106052270655,0.009001939878266082,0.991599787067767
2013-04-30,0,0.0,0.0,-0.0077776175223035135,0.00947603747589136,0.9914160711054055
2013-05-02,0,0.0,0.0,-0.008511967684922603,0.00947603747589136,0.9914192728428821
2013-05-06,0,0.0,0.0,-0.008808080816203455,0.00947603747589136,0.9921486836931901
2013-05-08,0,0.0,0.0,-0.01030917370977916,0.00947603747589136,0.9913851622265765
2013-05-10,1,0.0016145410833832002,0.0017058229874496785,-0.01030917370977916,0.00947603747589136,0.9912734446540005
2013-05-14,1,0.0020134825563825733,0.0021872477966849604,-0.010655526887821483,0.0031747889489737737,0.9903580884914206
2013-05-16,1,0.0018171357738767198,0.001957995240510182,-0.010370835599623405,0.0031747889489737737,0.9907275982301583
2013-05-20,1,0.0015646236035484957,0.001635248616064336,-0.00985945541037218,0.00940826400185064,0.9912003994228487
2013-05-22,1,0.001018908857792334,0.0010283367343827936,-0.00985945541037218,0.00940826400185064,0.9909388824856207
2013-05-24,1,0.0008154973308989968,0.0008460987850333773,-0.00985945541037218,0.00940826400185064,0.9908147820662856
2013-05-29,1,0.0009897912452780406,0.0010082711823723783,-0.00868980708175647,0.008092752073054455,0.9911314698502302
2013-05-31,1,0.00050674918764542,0.00055089944963625,-0.008119340914217737,0.008092752073054455,0.9915828106709559
2013-06-04,1,0.0005243285625708801,0.0005687143823414765,-0.007525416470751762,0.008693937897822576,0.9917717613982683
2013-06-06,1,0.00017852151612505834,0.0002609430340432624,-0.005114042716100633,0.008693937897822576,0.9921848889226377
2013-06-10,1,0.00021437067648150522,0.00030277956937274045,-0.005114042716100633,0.007698408011416698,0.9928130805714392
2013-06-12,-1,-0.0004679984824330748,-0.00029621265942026326,-0.0007722809497388416,0.008693937897822576,0.9930566990442607
2013-06-14,0,-4.143399146533237e-05,6.243414831820808e-05,-0.0008757320915397241,0.008693937897822576,0.9923392265147764
2013-06-18,1,0.0004764042008331629,0.0005328920203643446,-0.0017139067353520963,0.007297741592379579,0.9935684503798805
2013-06-20,-1,-0.0003799489738189726,-0.00021547572623392496,0.0002854470269961981,0.007297741592379579,0.9938790740311667
2013-06-24,-1,-0.0004158125386610887,-0.00024452833380609614,0.0002854470269961981,0.007297741592379579,0.9937834008804597
2013-06-26,1,0.0002057038863747429,0.0002797201880407516,-0.0007265574187830369,0.007000476789253763,0.9945307346109268
2013-06-28,1,0.0002063966443295166,0.00026368531556792004,-0.0007265574187830369,0.007000476789253763,0.9944265341196338
2013-07-02,1,0.0003380672767882093,0.00040924915327286086,-0.000727133251113731,0.003955262285970431,0.9952564932846661
2013-07-05,1,0.0003018706363944866,0.0003881927572954218,-0.003428053302932737,0.00329264495508075,0.9953135319168005
2013-07-09,1,0.00023420091062732772,0.0003287987547530488,-0.003428053302932737,0.003955262285970431,0.9950634881241273
2013-07-11,1,0.0006051701379777997,0.0006458801994640737,-0.003526710613318984,0.003955262285970431,0.99508276863238
2013-07-15,1,0.0006050237361338134,0.0006530534397506054,-0.003362077879466706,0.003955262285970431,0.9966197555378534
2013-07-17,1,0.00044425909436173193,0.000512625645586633,-0.003526710613318984,0.003955262285970431,0.9963881982895016
2013-07-19,1,0.000585363818845595,0.0006463205952573854,-0.0037329311473149546,0.0038589348179398045,0.9957754362419029
2013-07-23,1,0.00022257750071603418,0.00032758620659146615,-0.003526710613318984,0.0040064097136676205,0.9961871695120607
2013-07-25,1,0.00025838268017185144,0.00034284699428598515,-0.0035350048769168616,0.0043946060101947675,0.9956525410736762
2013-07-29,1,0.00010702004355600124,0.0002078490923549197,-0.003459253735610959,0.0041056236061028884,0.9958252700162624
2013-07-31,1,0.00016701028362965773,0.00023762952455364848,-0.0035350048769168616,0.0041056236061028884,0.9951011491219627
2013-08-02,1,0.000179649316679837,0.00023967986968775166,-0.003459253735610959,0.004734640426906278,0.9951184485496546
2013-08-06,1,0.0006792459188793115,0.0007044238415447982,-0.003459253735610959,0.004734640426906278,0.9949390235714715
2013-08-08,1,0.0002863710482850776,0.00033605742697877526,-0.002521213453756123,0.004787863603496441,0.9946546115381366
2013-08-12,1,0.0005015301292239024,0.0005337762430386422,-0.002521213453756123,0.005335932865703294,0.9944492519022822
2013-08-14,1,0.00013568329183751042,0.00021989421176985788,-0.0020248075837414553,0.005335932865703294,0.9945378772157443
2013-08-16,1,2.9817919835370703e-05,0.00011284443372090565,-0.0014008375093665787,0.005335932865703294,0.9953742174366748
2013-08-20,1,0.00017388491140618337,0.0002381637007819969,-0.0014008375093665787,0.005761286016992431,0.9952680003267625
2013-08-22,1,0.0001460544210992042,0.0002152222609965125,-0.0014008375093665787,0.004287401122595088,0.9958149926068955
2013-08-26,0,-1.8318051054334666e-05,9.149995001518299e-05,-0.0014008375093665787,0.004287401122595088,0.9951193194892473
2013-08-28,-1,-0.0009785835787310122,-0.0007475882175383652,-0.0014008375093665787,0.00518496183642123,0.9951492061048849
2013-08-30,-1,-0.00047877071459234737,-0.0003402620586207355,-0.0024662338837829747,0.004397651607532274,0.9952554909595039
2013-09-04,1,7.86324376357869e-05,0.0001559269522038686,-0.00262042103075632,0.0037524096045899245,0.9956242274547811
2013-09-06,1,0.00024234023702699486,0.0003100430122561723,-0.0031165092556179673,0.002638131006112831,0.9953742288308376
2013-09-10,-1,-0.0001806851347203662,-4.0932322841322124e-05,-0.005176289822342266,0.0011814833400469944,0.9951003990035245
2013-09-12,1,0.0002038680730737029,0.00027889759370518507,-0.005176289822342266,0.0006295139934578658,0.9941416874881013
2013-09-16,1,0.00024374193545319246,0.000295075284461228,-0.005176289822342266,0.004999097617881049,0.9935101677221342
2013-09-18,1,0.0005054817589348606,0.0005285967236124002,-0.006168577683726624,0.004999097617881049,0.9925013727953268
2013-09-20,1,0.0003498625782523553,0.00037759109854575276,-0.006168577683726624,0.005041391069307815,0.9925124315327728
2013-09-24,-1,-0.00012188947394886442,-4.1403922550797606e-05,-0.005176289822342266,0.006148933975129887,0.9927157451742359
2013-09-26,1,2.1932097606630467e-05,6.969485497846512e-05,-0.004613953613517775,0.006148933975129887,0.992854894601657
2013-09-30,-1,-0.0002371498395286748,-0.00015537778427214714,-0.0034061826493494668,0.006148933975129887,0.9930022369582023
2013-10-02,-1,-5.410363386020066e-05,-2.2550937070759617e-05,-0.005127496496070733,0.007402283945901191,0.991501262793194
2013-10-04,-1,-3.867973288448175e-05,-2.2688623125601204e-05,-0.00069947282411034,0.009176783728188932,0.9917456924012233
2013-10-08,-1,-0.0005954323133739785,-0.0005147173067656366,0.0011369616325168895,0.009176783728188932,0.9921471957943447
2013-10-10,1,0.0001902433644258595,0.0002056437623262802,0.000994594320521877,0.007402283945901191,0.9931792250995639
2013-10-14,1,0.00032112563344073656,0.0003367691516174875,-0.0008222574802022555,0.007402283945901191,0.9933236429874122
2013-10-16,1,0.0005544473048100075,0.000592856900123675,-0.00013199418640595802,0.007402283945901191,0.99425002933679
2013-10-18,1,0.0006061650133691809,0.0006438561432780974,-0.00013199418640595802,0.007402283945901191,0.9940174662290139
2013-10-22,1,0.0008237523107154738,0.000862233248653089,-0.00013199418640595802,0.007347996417799378,0.993376522415626
2013-10-24,1,0.0007212963807087568,0.0007540331049978673,-0.00013199418640595802,0.008996534975912317,0.9928980919281659
2013-10-28,1,0.000541858739568691,0.0005547781274054687,-0.00013199418640595802,0.008996534975912317,0.9927926844957329
2013-10-30,1,0.00014704885403357538,0.00019592965770225267,0.0001868145803883752,0.007358136390593812,0.994329069863515
2013-11-01,1,7.313415315423803e-05,0.00016227370113745357,-0.0012182400394201297,0.005208368690146786,0.9945037764753456
2013-11-05,1,0.0002340483167767605,0.00028946177239589103,-0.003431551435523084,0.007358136390593812,0.9935625267743585
2013-11-07,1,0.00045568926615207955,0.0004565157748286775,-0.003431551435523084,0.009078888198694665,0.9928942222459705
2013-11-11,1,0.00018493141138175299,0.0002499263453376784,-0.0057997382820690535,0.0074100696949928576,0.9927542362180979
2013-11-13,1,0.0004680585788708767,0.0005024210059090498,-0.006786148027005608,0.005208368690146786,0.9923567899741476
2013-11-15,1,0.0008810766790414196,0.0009156414523570498,-0.006786148027005608,0.003785099270316489,0.9923898039931303
2013-11-19,1,0.0014814890749305452,0.0015834598248805646,-0.006786148027005608,0.003785099270316489,0.9924126453221426
2013-11-21,1,0.0016532563312459463,0.0018012010544274282,-0.0057997382820690535,0.004847127169572989,0.9928669645404402
2013-11-25,1,0.0017486206680418779,0.0019202400924418456,-0.0057997382820690535,0.004847127169572989,0.9927408351743128
2013-11-27,1,0.0017717831496638023,0.0019460565958768724,-0.0057997382820690535,0.006520570919770768,0.9924980977767612
2013-12-02,1,0.001564655199000318,0.0017264872112730473,-0.004294167546135725,0.006520570919770768,0.9927759328608354
2013-12-04,1,0.001498109753265855,0.0016608488085699629,-0.004294167546135725,0.006520570919770768,0.9927691634296866
2013-12-06,1,0.001517954640636946,0.0016794391864603628,-0.004294167546135725,0.006520570919770768,0.9928121656913073
2013-12-10,1,0.0011473905506182958,0.0012723051928353716,-0.0035162082812091613,0.006520570919770768,0.9932317242567762
2013-12-12,1,0.0005911758951571011,0.0006310776001000294,-0.003475264690829117,0.006520570919770768,0.9930751709323199
2013-12-16,1,0.000630938143781437,0.000669326071845378,-0.003475264690829117,0.006654768640600061,0.9928937815306469
2013-12-18,1,0.0011465663474282614,0.0012479373809893004,-0.003478572413569453,0.004996577490487705,0.9940560302799696
2013-12-20,1,0.0012616727489682433,0.0013744018609330238,-0.003478572413569453,0.004397454597803826,0.9943131844603134
2013-12-24,1,0.0013282694400879836,0.0014286854088962641,-0.006841333099637313,0.004397454597803826,0.9922494131649903
2013-12-27,1,0.0016195531183477076,0.0017665602092312796,-0.007428710591136732,0.004397454597803826,0.9919443081809932
2013-12-31,1,0.0015451421565477372,0.0016799023352563679,-0.007717212476137674,0.005014543614025752,0.9915211089600229
2014-01-03,1,0.0014698116803559258,0.00160554112675584,-0.009640677054359318,0.0037077830350327086,0.990422001405166
2014-01-07,1,0.0011250238070305558,0.0012214012645800493,-0.010119630868532025,0.0037077830350327086,0.9901238808315179
2014-01-09,1,0.0009007655883683812,0.0009460530513885488,-0.010119630868532025,0.007474128877257602,0.9897681854119983
2014-01-13,1,0.0004495654843161982,0.0004589264773673061,-0.007132110637923683,0.007474128877257602,0.9903486109530786
2014-01-15,1,0.0007041235845576582,0.000727375812122322,-0.007132110637923683,0.008529649659611324,0.9900126131526013
2014-01-17,1,0.0005004471789041691,0.0005233021137051074,-0.007132110637923683,0.008529649659611324,0.9901318973968252
2014-01-22,1,0.00034058404924938116,0.00040077748764832347,-0.007132110637923683,0.008529649659611324,0.9898889031692601
2014-01-24,-1,-0.0009264385945172563,-0.0007192559668839241,-0.005932981669505643,0.008529649659611324,0.9912785612439406
2014-01-28,-1,-0.0009355115958490951,-0.0007304001352577158,-0.00480248999437412,0.008529649659611324,0.9914328974626659
2014-01-30,-1,-0.0005927474945174156,-0.0004510026848901361,-0.004150074728757021,0.007989407773007405,0.9920238321778172
2014-02-03,-1,-0.0014800271581117373,-0.0012558178431862342,-0.00043391206884921295,0.008529649659611324,0.9918014188032966
2014-02-05,-1,-0.0015846939603859668,-0.0013561631415321858,-0.00043391206884921295,0.007989407773007405,0.9926089398404019
2014-02-07,-1,-0.0011319188861087528,-0.0009553681530870324,-0.004150074728757021,0.005691125111165943,0.9932633762218935
2014-02-11,-1,-0.0011141076230291318,-0.0009466434263368114,-0.003985740989511268,0.005691125111165943,0.9934728872605159
2014-02-13,-1,-0.000607634439435398,-0.0004977442201436137,-0.004150074728757021,0.004876606109808105,0.9938605377623807
2014-02-18,-1,-0.0008170933658501484,-0.0006574343816794996,-0.004150074728757021,0.006475742216034501,0.9931175542105712
2014-02-20,-1,-0.0008670805011585401,-0.0006988508099398834,-0.004152651525801696,0.006475742216034501,0.9930966292200628
2014-02-24,-1,-0.0009317660791286535,-0.0007446845472612707,-0.00786390742338809,0.005585600153218904,0.9925731729549926
2014-02-26,-1,-0.0008700145310052863,-0.0006806999867939729,-0.00786390742338809,0.004584089395611021,0.992598281935043
2014-02-28,-1,-0.000932743938600706,-0.0007245812450360416,-0.00786390742338809,0.006218547321562721,0.9923532729648689
2014-03-04,-1,-0.0010517581945916573,-0.0008057607995353602,-0.006577680899979726,0.0045633825659908275,0.9937766869255091
2014-03-06,-1,-0.0009664628761478106,-0.0007511514182679638,-0.004906371805020945,0.0045633825659908275,0.9941253354266585
2014-03-10,-1,-0.000751203046520596,-0.0005763789274712567,-0.007323332943973037,0.0037461918229605828,0.9933981904292644
2014-03-12,-1,-0.0008346522084345829,-0.0006625337310506154,-0.007323332943973037,0.004080133361067396,0.9931750307262678
2014-03-14,-1,-0.0008072089280599742,-0.0006458087775858671,-0.007822952693141826,0.0038967993707870728,0.9926456787530105
2014-03-18,0,-2.873466907657443e-05,1.8028539019455844e-05,-0.007822952693141826,0.0038967993707870728,0.9926706754049202
2014-03-20,-1,-0.0003158106848496925,-0.0002327760466428042,-0.007323332943973037,0.0043416766136860005,0.9922982202885476
2014-03-24,-1,-0.0009729044141205251,-0.0008172824157297281,-0.004461833171525117,0.0043416766136860005,0.9929782937627801
2014-03-26,-1,-0.0013492092874226014,-0.001126972868574261,-0.0034227008510753143,0.004409613449430662,0.9930476642758472
2014-03-28,-1,-0.0008430943993053711,-0.0006986352175163983,-0.00471038385285622,0.004257639468275636,0.9931327077280425
2014-04-01,-1,-0.0005893277893273117,-0.0004792531991583674,-0.00471038385285622,0.005225577440394629,0.9920645133162784
2014-04-03,-1,-0.0007372330336834988,-0.0006045531322124334,-0.005084416022314787,0.005225577440394629,0.9921369909602502
2014-04-07,-1,-0.001352131557419034,-0.0011548014755450953,-0.0035473782408948365,0.005225577440394629,0.9925186205275215
2014-04-09,-1,-0.0009478396286851821,-0.0008111657149722167,-0.0035473782408948365,0.0056223919318931625,0.992524339282164
2014-04-11,-1,-0.0015344325109344793,-0.0013426192162262443,-0.0006506880030117541,0.007813710173484454,0.9927823118449511
2014-04-15,-1,-0.00048470895263843394,-0.0004557988103569903,-0.0015920122518538924,0.005073778668985355,0.99365291703932
2014-04-17,-1,-8.605651837297412e-05,-6.496489889008588e-05,-0.0035473782408948365,0.005073778668985355,0.9930516414807194
2014-04-22,0,-3.268632491669791e-05,4.6222871938522475e-07,-0.004840433184775098,0.005073778668985355,0.9929442951480719
2014-04-24,1,0.00010404716350692319,0.00016048471511433802,-0.004840433184775098,0.005073778668985355,0.9929057626538398
2014-04-28,-1,-0.00024656724112444376,-0.00024479665943215133,-0.0018632908744498065,0.006745673366965995,0.9926071864840202
2014-04-30,1,0.0005377973396854198,0.0006382991062082715,-0.004626526463369886,0.0053198575355232515,0.993683070683084
2014-05-02,1,0.0003723081560263082,0.0004584089429846105,-0.004179418084123209,0.0053198575355232515,0.993686409771316
2014-05-06,1,2.0315495896636828e-05,3.718029279662691e-05,-0.004179418084123209,0.0053198575355232515,0.9937355142630945
2014-05-08,1,7.17007570395669e-05,7.414367051329617e-05,-0.004179418084123209,0.006467399764586385,0.9935921154470183
2014-05-12,1,0.0004671873260196013,0.0005243227009591889,-0.005636370248837018,0.00510092810095681,0.9937311834654652
2014-05-14,1,0.00048777639746754313,0.0005843000997869867,-0.005636370248837018,0.00510092810095681,0.993538859727583
2014-05-16,1,0.0006031035654264551,0.0007270603314431533,-0.004179418084123209,0.00510092810095681,0.9946421064679667
2014-05-20,1,0.0004984557688831462,0.0006126016447573512,-0.004179418084123209,0.005166136299964708,0.9945722722701998
2014-05-22,1,0.0007678842060477551,0.0009259871078335289,-0.004179418084123209,0.00606939177467251,0.9941536612526107
2014-05-27,1,0.0011578454080887,0.001369407589994286,-0.004179418084123209,0.004920641027907178,0.994453872926422
2014-05-29,1,0.0012929182781052089,0.0015248004296961198,-0.0037105444356713884,0.00302711247314288,0.9949300675549628
2014-06-02,1,0.001238543898112893,0.0014652262524416908,-0.003094304527997927,0.004732478533885125,0.9948437258115933
2014-06-04,1,0.0011084642337746739,0.0013160174887336818,-0.002610981933673873,0.004920641027907178,0.9945822673323093
2014-06-06,1,0.0010860909652449838,0.0012599355477127525,-0.002610981933673873,0.004732478533885125,0.9949065628097822
2014-06-10,1,0.0011584066884363555,0.0013622592965651333,-0.0021517125807827683,0.004628548010741169,0.9954065813377957
2014-06-12,1,0.0008083534564040921,0.0009648708542296815,-0.0020222944924785454,0.004628548010741169,0.9960057211597949
2014-06-16,1,0.000998380085964661,0.0011872832845908725,-0.0019359947162025594,0.0031186516735318454,0.9962854977445991
2014-06-18,1,0.00031898685890899335,0.00035191756283798074,-0.0019359947162025594,0.0024575704299002778,0.9965210926546939
2014-06-20,1,0.0005678359407545845,0.0006386464791500803,-0.0019047369521525733,0.0024575704299002778,0.9964883866834989
2014-06-24,1,0.0004560141556132661,0.0005161372281595209,-0.0017901970330492603,0.0031186516735318454,0.9963409305139044
2014-06-26,0,-7.521018099190176e-05,4.225741010389504e-06,-0.0009281390089357575,0.004628548010741169,0.9960829556883676
2014-06-30,-1,-0.00015902431584654988,-6.920089857683203e-05,-0.001554776277527568,0.0031186516735318454,0.9959900905985726
2014-07-02,1,0.0004375823351808519,0.00044505641874142233,-0.001554776277527568,0.0028205829412865013,0.9960625064078897
2014-07-07,1,0.0003283575201655115,0.00034340213402334,-0.002083617703023956,0.002672707480253589,0.9960533342219355
2014-07-09,1,0.0006258502193466888,0.000678604418768829,-0.003994290835018472,0.002672707480253589,0.9955069676983501
2014-07-11,1,0.0005426201078440783,0.0005856697488380224,-0.0037183261142379634,0.002976495016244858,0.9949479311794319
2014-07-15,1,0.0005612363574544548,0.0006046950057622556,-0.0037183261142379634,0.002976495016244858,0.9949010329640792
2014-07-17,1,0.00040330228272872674,0.00042939048573509443,-0.002020462929149756,0.005400163222472237,0.9946837249214987
2014-07-21,1,0.000883714886877107,0.0009849385934214212,-0.002020462929149756,0.005400163222472237,0.9948048988610502
2014-07-23,1,0.00116601748190591,0.0013101972521192711,-0.002020462929149756,0.0037541210712440545,0.9951858367508966
2014-07-25,1,0.0017534675304676168,0.0019904510400648983,-0.0037183261142379634,0.003522386894243226,0.9951373866899483
2014-07-29,1,0.0012321040906652953,0.0013839162359351141,-0.002020462929149756,0.003522386894243226,0.9956181303622031
2014-07-31,1,0.0010824136392180272,0.0012174670794647948,-0.0018500745404720518,0.00307876051114449,0.9959535426454018
2014-08-04,1,0.0009343390955684819,0.0010378081800060269,-0.0015656522771240753,0.002991335280853125,0.9961253573958302
2014-08-06,1,0.0004980727125609985,0.0005392584407759818,-0.0010095286005473172,0.002991335280853125,0.9965821726029017
2014-08-08,1,0.0011648726372421787,0.0013277505942033466,-0.0010095286005473172,0.002991335280853125,0.9971428495312892
2014-08-12,1,0.0009573112369559799,0.001075661905731197,-0.0015397278944087,0.0028439722214175034,0.9968838984759179
2014-08-14,1,0.000906218975682335,0.0009694448386771914,-0.002064716769823411,0.0022195771556776495,0.9969926381778423
2014-08-18,1,0.0010523358321225247,0.0011251840130743836,-0.002064716769823411,0.0022195771556776495,0.9973515058284245
2014-08-20,1,0.0012644229344019443,0.0013825221478187464,-0.002064716769823411,0.0024226998218932934,0.9968470574453855
2014-08-22,1,0.0012641681732545554,0.0013947487110102623,-0.0023636615145341904,0.0017657459333465957,0.9964907196315095
2014-08-26,1,0.001247955512610747,0.0013673763924107788,-0.003143682189998275,0.0014354499172655958,0.9954759415527068
2014-08-28,1,0.0005689327552436841,0.0005828949835082796,-0.003987557147182651,0.0025848422063128396,0.994930406252091
2014-09-02,1,0.0007211945253704714,0.000738761790077954,-0.003987557147182651,0.002909626339117823,0.994802247119822
2014-09-04,1,0.00012035212938393553,0.0002317887244384808,-0.005104816317877313,0.003770378770919237,0.9932166546042834
2014-09-08,1,0.0005042936971195483,0.0005380456037985567,-0.005104816317877313,0.003770378770919237,0.9917538865804514
2014-09-10,1,0.0005552087193007665,0.0005646887667646707,-0.005121991024175393,0.006494468421087697,0.9905687808493282
2014-09-12,1,0.00021187821873976884,0.00026594634003899173,-0.00778560238214405,0.006494468421087697,0.9895723758142406
2014-09-16,1,0.00034556945657486667,0.0003830553738608866,-0.00950654340730096,0.00971201230246287,0.9888929378725836
2014-09-18,1,0.00033956812862392884,0.00040423946679302397,-0.0102885268240293,0.004842893398044295,0.9887155855987579
2014-09-22,1,0.00039769272123050473,0.0004075977831472421,-0.0102885268240293,0.010857196976627558,0.9882349362085899
2014-09-24,1,0.0005861906987675624,0.0005907947455850041,-0.0102885268240293,0.010857196976627558,0.9881920582716547
2014-09-26,-1,-0.00023615067613759526,-0.00012168015127038536,-0.00787396477368419,0.012008080377674148,0.988245117986535
2014-09-30,1,0.00012781874290284208,0.00018434439789744294,-0.00787396477368419,0.012008080377674148,0.9878602865969045
2014-10-02,1,0.00014085087888890443,0.00017393901198271933,-0.005116984017170622,0.01164807156218797,0.9885574620275226
2014-10-06,1,0.000756809115289425,0.000783629813673459,-0.00381540138123811,0.01164807156218797,0.9886980076884843
2014-10-08,1,0.0007998991241430483,0.0008203138573207179,-0.0022356545767544126,0.013371614116202466,0.9887557541805733
2014-10-10,-1,-0.0003756395426989146,-0.00024859836904876376,-0.0008892812288497263,0.013371614116202466,0.9893607953932645
2014-10-14,-1,-0.0002974777465368109,-0.0001887254081269643,-0.0008661583859640098,0.013371614116202466,0.989800728570545
2014-10-16,-1,-0.00049080195267387,-0.0003848966158363942,0.0028822858902642964,0.013371614116202466,0.9900418553096293
2014-10-20,1,0.00036756888156993443,0.00036904194834663025,0.0006741456824786041,0.01164807156218797,0.9911883077490716
2014-10-22,1,0.0007668769610994978,0.0008105508347128437,-0.0006320405715569724,0.010529280027439246,0.9921153639348994
2014-10-24,1,0.0012416520452066503,0.001333032373960822,-0.001240563067195276,0.009160152172538807,0.9930321629375201
2014-10-28,1,0.0017445096069900398,0.0019172920293893023,-0.0018342525186966063,0.008599377939079332,0.9930941142315176
2014-10-30,1,0.0022578259122688605,0.0024881020683762663,-0.0018342525186966063,0.007986407562332718,0.9935418829755457
2014-11-03,1,0.002918872764158603,0.0032031831981467296,-0.0022821720135625745,0.005934840938728873,0.994889807131572
2014-11-05,1,0.0037698580572231907,0.004169195069929335,-0.0022821720135625745,0.0042723281654503086,0.9956318369787919
2014-11-07,1,0.0035989338249107425,0.003968268628132837,-0.0027072321407678917,0.0033011777688537218,0.995523398899701
2014-11-11,1,0.0038091361870180316,0.004218224836164434,-0.0031488039340744783,0.0025255593642401226,0.994663320712861
2014-11-13,1,0.0034482284770975128,0.003797811144991927,-0.003352171853978891,0.002229461748904312,0.9935101991618281
2014-11-17,1,0.0029606279844875266,0.0032448511633453806,-0.0031488039340744783,0.0035511343520498438,0.9943006593462568
2014-11-19,1,0.0027205948132500934,0.0029653866540426286,-0.0028757811013601364,0.005162418079003206,0.9936572938200042
2014-11-21,1,0.002604544659935748,0.002852965213218821,-0.0031488039340744783,0.00612126466883094,0.992895820550266
2014-11-25,1,0.0025599429220468555,0.0027985373651104465,-0.003316587658019838,0.005162418079003206,0.9929012409125102
2014-11-28,1,0.0028646270578666297,0.0031371851058044683,-0.003859935149291209,0.0038006989019144137,0.9926834424512655
2014-12-02,1,0.0025948699677449546,0.0028203889092306682,-0.006837756816173083,0.0020722519943923473,0.992028888549498
2014-12-04,1,0.0026074002843989065,0.0028294414522751976,-0.006837756816173083,0.0020263461354583824,0.9917906272294988
2014-12-08,1,0.002297204890328782,0.002455894205783075,-0.008417225997936728,0.003942095165873601,0.9916075760084025
2014-12-10,1,0.001806618560233945,0.001920059435777497,-0.00744419244842392,0.0063707196695069745,0.9913383627638774
2014-12-12,1,0.0012492074752295961,0.0013015931183538462,-0.006428800931716228,0.004726207964499808,0.9924866774857968
2014-12-16,1,0.0014929793237604947,0.0015892012061030421,-0.006428800931716228,0.0027971760726085483,0.9921975662856898
2014-12-18,1,0.002155603372930213,0.0023123960532872552,-0.006428800931716228,0.0017988684775177228,0.9927680754718899
2014-12-22,1,0.001947465679653595,0.0020644002606499444,-0.00518252357138259,0.0017988684775177228,0.9925663498154963
2014-12-24,1,0.0015155988101451644,0.001569580433383646,-0.004831101952425188,0.0032607203614896923,0.9928935533896566
2014-12-29,1,0.0009710729524667308,0.0010101459910907104,-0.00744419244842392,0.0032607203614896923,0.992150897282361
2014-12-31,1,0.0004621325636552007,0.0005480602253270312,-0.005426974466109163,0.0032607203614896923,0.9920694521748107
2015-01-05,1,0.00026330603010203354,0.00038224523269319633,-0.005426974466109163,0.00914086815567872,0.9907656989984783
2015-01-07,1,0.0006174944740657202,0.0006762442611148045,-0.004831101952425188,0.010552308321218888,0.9904072069414425
2015-01-09,1,0.0010249409439987965,0.0010253498991491658,-0.004880074114630776,0.007709422886377639,0.9910618256307407
2015-01-13,1,0.0007550709036594315,0.0007844279092955763,-0.004862594650875729,0.007709422886377639,0.9911540292833309
2015-01-15,1,0.0003751630532062677,0.00045942457805830776,-0.004862594650875729,0.010790450330989064,0.9903412497746211
2015-01-20,1,0.000933418892538773,0.0009475193106292603,-0.005824512135211451,0.010790450330989064,0.9898825697621104
2015-01-22,1,0.0015252874960453673,0.0015745621695477142,-0.005824512135211451,0.010769529364793312,0.9909221787233313
2015-01-26,1,0.001169337591849413,0.0011701559542134025,-0.005824512135211451,0.010769529364793312,0.9909016504253663
2015-01-28,1,6.664757103124765e-05,0.0002010301187344345,-0.002242637957688638,0.010769529364793312,0.9916080137630278
2015-01-30,-1,-0.0007857320926571719,-0.000553911750127365,-0.0005321600853097234,0.010963575106614002,0.9916898549883872
2015-02-03,1,0.00027503124377261485,0.0003927156579586979,-0.0031803453421692432,0.007788803556301032,0.9916151486670166
2015-02-05,1,0.0006796204788884422,0.0007678679426505753,-0.005824512135211451,0.005615038725937502,0.9922527958605937
2015-02-09,1,1.2332122565479782e-05,0.00017389666811092183,-0.004098090574976237,0.006888959116355697,0.9914538992603589
2015-02-11,1,0.0003582422840593296,0.00046766373850047464,-0.004098090574976237,0.01000350473491139,0.9910120684044945
2015-02-13,1,0.0006453589612266605,0.0007500923406416505,-0.006588997648947146,0.006574518779751591,0.9909248498669585
2015-02-18,1,0.00032316396887985,0.000445388557198987,-0.006459666730202422,0.008587963821132114,0.9913104170757991
2015-02-20,1,0.00023827059393915345,0.000407930969023715,-0.006459666730202422,0.006107750622177555,0.9917049893733547
2015-02-24,1,0.000207203719652035,0.00038057828010329317,-0.006459666730202422,0.005482325051027029,0.9915113746342289
2015-02-26,-1,-0.0002862717562593343,-3.706929372041315e-05,-0.008257540384976203,0.005482325051027029,0.9904184219688731
2015-03-02,1,0.0006547370010913006,0.0007626850493631644,-0.008257540384976203,0.005482325051027029,0.9900939615520655
2015-03-04,-1,-0.0008807916087787455,-0.0006025996846898699,-0.005406591820842584,0.005482325051027029,0.9919911578354415
2015-03-06,-1,-0.0018987117471646138,-0.0014476729584660373,-0.004638100258653962,0.00785444020714947,0.9919612713962322
2015-03-10,-1,-0.002446939800125063,-0.0019235025810303416,-0.004458293150029561,0.00785444020714947,0.9927753090095023
2015-03-12,-1,-0.0021717714176681486,-0.0016638992603178531,-0.004458293150029561,0.005368865563773463,0.9935400504055003
2015-03-16,-1,-0.0015472271598524054,-0.0011432169057839054,-0.004458293150029561,0.004025142764869342,0.9943412026603536
2015-03-18,-1,-0.0013043760801120605,-0.0009505013246242375,-0.0044325569431799584,0.0029148885501452384,0.9948011103929238
2015-03-20,-1,-0.0010820112697561305,-0.0007862990280282421,-0.004458293150029561,0.0029148885501452384,0.9932556078149202
2015-03-24,-1,-0.0012646256882546635,-0.000966472742832257,-0.0044325569431799584,0.003613462184112571,0.9932330810034444
2015-03-26,-1,-0.0016772021780749246,-0.0013704128677034964,-0.0044325569431799584,0.004228624843116392,0.99383406806681
2015-03-30,-1,-0.0006381996233212424,-0.0004885007873318646,-0.0044325569431799584,0.004228624843116392,0.9940636464760382
2015-04-01,-1,-0.0002543951984268883,-0.0002018719349313329,-0.004453703244468413,0.004228624843116392,0.9937574513916474
2015-04-06,1,6.0305155299554e-05,7.765485946979966e-05,-0.004453703244468413,0.005409872812229177,0.9931713652413957
2015-04-08,1,0.00026732970199229314,0.00028211212739336544,-0.004539387287861508,0.004001283511314057,0.9931510373926222
2015-04-10,1,0.00013650448455158822,0.00014356164692865434,-0.004539387287861508,0.006702498055038498,0.9922262805591979
2015-04-14,-1,-0.00023637885092956225,-0.00018746561202545155,-0.004613251176317003,0.006702498055038498,0.9923264137161225
2015-04-16,-1,-0.0005218428085449888,-0.0004283293046126377,-0.005166636492480834,0.01050119974097704,0.9914352692149163
2015-04-20,-1,-0.0005716095700108298,-0.00047070067874151265,-0.00393706669612655,0.006702498055038498,0.9930192154833575
2015-04-22,-1,-0.0004238248617912958,-0.0003442373475509447,-0.005166636492480834,0.006702498055038498,0.9928271515634514
2015-04-24,-1,-0.00022979609491688825,-0.00019878281819090348,-0.005157263220604211,0.006702498055038498,0.9931538000704089
2015-04-28,1,6.834797810218631e-05,7.044136687978285e-05,-0.005166636492480834,0.005531525065693847,0.9926821721757996
2015-04-30,-1,-0.0004204341669442499,-0.0003711341975648091,-0.005166636492480834,0.005531525065693847,0.993123475245166
2015-05-04,1,0.00023741456485255557,0.0002604262537619906,-0.005166636492480834,0.002519089917631576,0.993889395370842
2015-05-06,-1,-0.000503421077173245,-0.00040648069131810945,-0.005166636492480834,0.002519089917631576,0.9938993004375513
2015-05-08,-1,-0.00019618409123500926,-9.88432465073049e-05,-0.00522683072080512,0.0009633895942938683,0.9944154492763844
2015-05-12,-1,-0.00029992451878728784,-0.00020047114738444652,-0.00522683072080512,0.001854026310869348,0.9939515764500385
2015-05-14,1,0.0008297916547758941,0.0009295964378663352,-0.005347922505916428,0.001854026310869348,0.994150642859333
2015-05-18,1,0.0005356659053120363,0.0005991134628088458,-0.0062679512688457685,0.0026910017547821935,0.9938296087860067
2015-05-20,1,0.00030329210878895087,0.0003188060048346986,-0.0062679512688457685,0.0026910017547821935,0.9935866466748169
2015-05-22,-1,-5.30807396961802e-05,-1.6303441487377007e-05,-0.0062679512688457685,0.0045628870321138375,0.9935333391009876
2015-05-27,-1,-0.000737375397199906,-0.0005904058806100907,-0.0062679512688457685,0.0026910017547821935,0.9938760265936505
2015-05-29,-1,-0.0009766636907663799,-0.000799284575631617,-0.005308790834839003,0.0026910017547821935,0.9940489702106798
2015-06-02,-1,-0.0008416868828916148,-0.0006880869142548873,-0.009039683001917083,0.0026910017547821935,0.9924835272555815
2015-06-04,-1,-0.001308827100457867,-0.0011184914640274021,-0.008558234018937688,0.0045628870321138375,0.9928720552749792
2015-06-08,-1,-0.0016594511571048722,-0.0014191199983226745,-0.005154960157860739,0.0045628870321138375,0.993148834164058
2015-06-10,-1,-0.0013025617011999074,-0.0010968232983392624,-0.00857819097098229,0.0045628870321138375,0.9929309290467905
2015-06-12,-1,-0.0012074535267045366,-0.0010418347845749282,-0.004612150594780306,0.00500356846803418,0.992876438232558
2015-06-16,-1,-0.0008574564660569802,-0.0007733862775713515,-0.0028664579711383305,0.0071044932279234795,0.9931113057750571
2015-06-18,-1,-0.00035315878956854803,-0.00031925371976185355,-0.004049053760627113,0.005383789877062927,0.9934373929151464
2015-06-22,-1,-0.0008355504832467506,-0.0007009707324713212,-0.006715112839499843,0.0034390019185108083,0.9933896569129209
2015-06-24,-1,-0.0018715155598370376,-0.001579090162030777,-0.006715112839499843,0.0037916501576544187,0.993375917364457
2015-06-26,-1,-0.0011522723123140667,-0.0010039795642000316,-0.008598565015911748,0.0037916501576544187,0.9929035039821535
2015-06-30,-1,-0.001963768402493911,-0.0017558025173907217,-0.0035406853552592678,0.007643343225319458,0.9926254514061762
2015-07-02,-1,-0.0016835085763574288,-0.0014849960614910166,-0.006909274513452168,0.0054986336286949235,0.9918801546176396
2015-07-07,-1,-0.0012097984716944827,-0.0010813217543618032,-0.006909274513452168,0.007198665655857509,0.9915181742788958
2015-07-09,-1,-0.0010775996642835585,-0.0009999985239200254,-0.006909274513452168,0.007198665655857509,0.9909185193729005
2015-07-13,-1,-0.0008600482181049334,-0.0007925846494575556,-0.006909274513452168,0.007198665655857509,0.9907917977099
2015-07-15,-1,-0.00018297566042775734,-0.000145091842941771,-0.006909274513452168,0.005415180686374271,0.9910329072753852
2015-07-17,-1,-0.0002289150917528344,-0.0001915538842228843,-0.005664792860351496,0.00803335069541012,0.9906885432326398
2015-07-21,-1,-0.0005589227293212042,-0.0005466678438659564,-0.003604763622930626,0.010849848198138693,0.9901129623975377
2015-07-23,-1,-0.00035088513354535956,-0.00030066938547908864,-0.003604763622930626,0.010849848198138693,0.989700936478386
2015-07-27,-1,-0.0018911678427327326,-0.0017054648568464738,-0.008073811127556356,0.010849848198138693,0.9863455163864635
2015-07-29,-1,-0.0002691670196830528,-0.00025353052506175776,-0.01932179850016757,0.008095434252518902,0.9835896929611496
2015-07-31,-1,-0.0014668054553475906,-0.0012986921573936543,-0.007185867615941229,0.008095434252518902,0.9844214344105874
2015-08-04,-1,-0.0007818983149638404,-0.0007245373941433255,-0.01932179850016757,0.0076711011471537124,0.9831894188296472
2015-08-06,-1,-0.000660772367560507,-0.0006293780083787571,-0.015634959706544545,0.0076711011471537124,0.9831592295227126
2015-08-10,-1,-8.898681396468533e-05,-4.331668768417312e-05,-0.018748622231985288,0.0076711011471537124,0.9818910268552694
2015-08-12,1,6.700303766646277e-06,5.8732993184155394e-05,-0.018748622231985288,0.0076711011471537124,0.9815039807885014
2015-08-14,1,0.00022184335801972712,0.0002890689313519998,-0.018748622231985288,0.005458976255616539,0.9817544692030913
2015-08-18,1,0.00027043516583589745,0.0003098631371382485,-0.018748622231985288,0.006693623116778383,0.981636091400369
2015-08-20,-1,-6.664940362155417e-05,-4.501400382268926e-05,-0.014939225556904377,0.006693623116778383,0.9824050925310789
2015-08-24,-1,-0.0008907593086429812,-0.0008062629398617178,-0.008839121561761507,0.009470904106644976,0.985217439472335
2015-08-26,-1,-0.001693493893400833,-0.001529448028591021,-0.007473348673363514,0.006693623116778383,0.9893849026544324
2015-08-28,-1,-0.0018414847668048963,-0.0016684367953636347,-0.008839121561761507,0.008916685511799074,0.9884528450319654
2015-09-01,-1,-0.0028670793609844513,-0.0025677749419168424,-0.005721566313681285,0.009601733097693743,0.9888052713227721
2015-09-03,-1,-0.002102190005999118,-0.0018883655531336187,-0.005721566313681285,0.008916685511799074,0.9900329137317613
2015-09-08,-1,-0.0017642990852905528,-0.0015875857249152297,-0.0036797833657336004,0.008916685511799074,0.9913602524878548
2015-09-10,-1,-0.001772790796122324,-0.0016012137800947134,-0.002293646607001816,0.012081255982579489,0.9902924420085116
2015-09-14,-1,-0.0018685409309208668,-0.0016904396866093058,0.00055472450809355,0.012081255982579489,0.9903437768566412
2015-09-16,-1,-0.0011648488617721896,-0.0010674165961770106,-0.002293646607001816,0.009601733097693743,0.9916151288851758
2015-09-18,-1,-0.0011664073941035195,-0.0010845251914118077,0.0009985622193203903,0.010127600365420476,0.9908432390863013
2015-09-22,-1,-0.0012051955212743577,-0.001098118995809127,0.001400916386868398,0.009222803592090085,0.9912923567902823
2015-09-24,-1,-0.0005816344243471844,-0.0005751999241012182,0.0011166750861126634,0.01098083553399208,0.9906268576352463
2015-09-28,-1,-0.0011964576558489036,-0.001110133126936184,0.0011166750861126634,0.01098083553399208,0.9910364805548898
2015-09-30,-1,-0.00017288706763424514,-0.00010691717982950664,0.00019864215624668948,0.009461331348236976,0.9913871518136608
2015-10-02,1,0.0003590156616048246,0.0004916712322959715,-0.0009621334733212949,0.009461331348236976,0.9912480659046992
2015-10-06,1,0.00040304371648419636,0.0005667101520098039,-0.0009233732070261134,0.008622659342920584,0.9920542166456922
2015-10-08,1,0.0012259253046104416,0.0014830827592322276,-0.0009233732070261134,0.0056305869259959005,0.9936128437999445
2015-10-12,1,0.0011175874110740988,0.0013563270034912646,-0.0034014211419418953,0.007145658399133321,0.9929367732140818
2015-10-14,1,0.0008842359082958225,0.0010854762613364479,-0.0007471965548358251,0.007145658399133321,0.9931798033345783
2015-10-16,1,0.001288118013414392,0.0015380208943594153,-0.005961507283084122,0.003268603303832959,0.9926915861908047
2015-10-20,1,0.0013547327704538717,0.0016069882319255748,-0.007943154302424017,0.003268603303832959,0.991755595141731
2015-10-22,1,0.0021454140005814477,0.0025084553722214,-0.007943154302424017,0.003268603303832959,0.9925416729458969
2015-10-26,1,0.0017071496090567758,0.0019829403212018168,-0.007943154302424017,0.003268603303832959,0.9927741016526308
2015-10-28,1,0.0012745537104049023,0.0014844235690867364,-0.007292851242222167,0.003268603303832959,0.9935565162837894
2015-10-30,1,0.0010978986681196169,0.0013066210912603415,-0.005540535286043086,0.0027989820010381273,0.99420453094261
2015-11-03,1,0.0009337097533044219,0.0011041081205123858,-0.007292851242222167,0.004205792201478745,0.9933617322045333
2015-11-05,1,0.0010402762608078787,0.001223209942646326,-0.007350982257209679,0.007194813836178045,0.9912884329741566
2015-11-09,1,0.0012127453899792196,0.0014413752363986693,-0.007350982257209679,0.004205792201478745,0.9913883611083859
2015-11-11,1,0.0012458126578093183,0.0014761620071903434,-0.007940891117122357,0.006278196264593527,0.9904064256551912
2015-11-13,1,0.0005303960886966109,0.0006444251903552895,-0.007350982257209679,0.007931058421262422,0.9898679740474551
2015-11-17,1,0.0007733880816511549,0.0009182857271941513,-0.007350982257209679,0.00897664897194924,0.9902071251302701
2015-11-19,1,0.0004652001819383161,0.0005309121343302916,-0.01108779960473128,0.00897664897194924,0.9888707257452841
2015-11-23,1,0.000763246591124513,0.0008760814187472794,-0.01108779960473128,0.008988816046406077,0.9884831190682235
2015-11-25,1,0.0006181759988407933,0.000722576894949271,-0.01108779960473128,0.010260089413746116,0.9885308542621775
2015-11-30,1,0.0004191021374755513,0.0004793843374786635,-0.01108779960473128,0.01029444457320271,0.988158504502053
2015-12-02,1,0.0006876402501291751,0.0007976218803915548,-0.01593472754621504,0.010260089413746116,0.9880418624668762
2015-12-04,1,0.0013388902820326647,0.0015548707602555632,-0.01593472754621504,0.008980938986237353,0.9886199341662278
2015-12-08,1,0.000827603066145749,0.0009649808982646276,-0.016604040524897515,0.008980938986237353,0.9871123588281665
2015-12-10,1,0.0005032643274185664,0.0005863504853383457,-0.016604040524897515,0.008980938986237353,0.9875114687830352
2015-12-14,1,0.00038175746685280954,0.0004419241536800413,-0.016604040524897515,0.008980938986237353,0.9875550057523262
2015-12-16,1,0.0005926201325407825,0.0006674673930210293,-0.016604040524897515,0.008980938986237353,0.986718491066616
2015-12-18,1,0.0002141733297607512,0.00029375781117958147,-0.012593941585812802,0.010270813392696539,0.9871549198108817
2015-12-22,1,0.00030319910302331816,0.00034077486378813267,-0.012593941585812802,0.012348629160114886,0.9862691181719243
2015-12-24,1,0.0004660688180014906,0.0005415431718787832,-0.01281817923156417,0.012348629160114886,0.9857597095461743
2015-12-29,1,0.0005883131593999641,0.0006719330321068111,-0.01281817923156417,0.010548533325893155,0.9860674071284103
2015-12-31,1,0.0003036100210108122,0.0003703654948408106,-0.012351329667593725,0.012462790250071264,0.9858333035975098
2016-01-05,0,-1.963005345966374e-05,1.2515070232442147e-05,-0.011506758600779132,0.012462790250071264,0.9869751308881528
2016-01-07,-1,-0.0005926909992884392,-0.0005661998295336131,-0.010044094499636709,0.012462790250071264,0.9877623661895089
2016-01-11,-1,-0.00034158172735506884,-0.00031980342358667763,-0.010044094499636709,0.012462790250071264,0.9880722544483332
2016-01-13,-1,-0.0009150131339621653,-0.0008423186854309052,-0.008163358886263102,0.01078359388100317,0.9895204116598729
2016-01-15,-1,-0.0008560323806048904,-0.0007607686728130698,-0.007271476357067859,0.01369400533981815,0.9890103971044237
2016-01-20,-1,-0.001074178362369265,-0.0009214023867385322,-0.005586043034408478,0.014501196990805832,0.9891533709643586
2016-01-22,-1,-0.0007913937301561242,-0.0006510365250511185,-0.005586043034408478,0.009860489144109932,0.9901399211534401
2016-01-26,-1,-0.0015699087242454874,-0.0012938209771742384,-0.005586043034408478,0.008388710020479764,0.9900517289269122
2016-01-28,-1,-0.0014667833170753826,-0.0012270294655125891,-0.005476155296721724,0.008388710020479764,0.9899414584624185
2016-02-01,-1,-0.0003929096766513336,-0.00028903450738730505,-0.007271476357067859,0.008388710020479764,0.9897664700538289
2016-02-03,-1,-0.0009408253298736496,-0.0007655015522517233,-0.007271476357067859,0.008388710020479764,0.9895669265387366
2016-02-05,-1,-0.0014591892383700284,-0.0012145945704285907,-0.005476155296721724,0.008260165154386035,0.9903865325874052
2016-02-09,-1,-0.0012850117046020837,-0.0010882329125393633,-0.0054338925648961915,0.008260165154386035,0.9902484628322142
2016-02-11,-1,-0.0013712688349556976,-0.0011530824987206274,-0.005208112279304502,0.011988506897647166,0.989222041247264
2016-02-16,-1,-0.0005189292638492856,-0.0004054338308433031,-0.005208112279304502,0.0076765642394244875,0.9914739190839317
2016-02-18,-1,-0.00041732558490860703,-0.0003215699575600171,-0.0037860831720987736,0.0076765642394244875,0.9917428731613976
2016-02-22,-1,-0.00037385883125863996,-0.0002568091440380852,-0.0037860831720987736,0.00520025964365407,0.9923465680528599
2016-02-24,0,-8.006081130019685e-06,3.8045593741722704e-05,-0.0033087219378281187,0.004706848835951416,0.9932288269468124
2016-02-26,1,1.7136906256437522e-05,4.0643965250033206e-05,-0.00438524733812773,0.003963881945181667,0.9933743018951905
2016-03-01,1,0.00034136254554936296,0.0003505135899296983,-0.003387411821800972,0.003963881945181667,0.9943211460983755
2016-03-03,1,0.0004190747238597421,0.0004868633502626123,-0.0024711346269246127,0.006168555268584914,0.994454837322798
2016-03-07,1,0.0004435414831437559,0.0005106214062618105,-0.003387411821800972,0.004663389106331891,0.9944998917770074
2016-03-09,1,0.00028437684984240205,0.00031999426909644796,-0.003387411821800972,0.006168555268584914,0.9937805996484006
2016-03-11,1,0.0009050639399822699,0.0010458674619167824,-0.003387411821800972,0.0059592180463405005,0.9946788878528207
2016-03-15,1,0.0008791795447064979,0.0010226949618725944,-0.003387411821800972,0.0059592180463405005,0.9945506115786519
2016-03-17,1,0.0015089861783358976,0.0017723693240831021,-0.003387411821800972,0.004819619250945421,0.9951416936894758
2016-03-21,1,0.0014467185209138499,0.0016953799989652633,-0.003387411821800972,0.005951715993076874,0.9951860268931029
2016-03-23,1,0.0011274442427796245,0.0013144156829479592,-0.005326176439682837,0.005951715993076874,0.9947115403700704
2016-03-28,1,0.0009132696153677849,0.001054090339062676,-0.003871580382636068,0.005951715993076874,0.9948802985301423
2016-03-30,1,0.0010482451262878907,0.0012046252104265525,-0.0024374165244433386,0.004819619250945421,0.9954772315482396
2016-04-01,1,0.0013995979492805086,0.0016048635881493432,-0.00684042943508063,0.003437028211513682,0.9948770037939497
2016-04-05,1,0.0011265939093410508,0.0012935102225371726,-0.006881020953915769,0.003871154135575444,0.9944319014434737
2016-04-07,1,0.0011647494143694531,0.0013393589347952693,-0.006881020953915769,0.003437028211513682,0.9941527635826557
2016-04-11,1,0.000785804976326579,0.0008809832921132079,-0.006857698213483154,0.003595889856040364,0.9945056347580894
2016-04-13,1,0.0010357131374877228,0.0011752793110884501,-0.007051461218855924,0.003595889856040364,0.9929016669063755
2016-04-15,1,0.0010064567253076076,0.001145257092976796,-0.007691574877527099,0.003595889856040364,0.9924382746567818
2016-04-19,1,0.0012132853908587945,0.001391440340155866,-0.008661447588995657,0.003595889856040364,0.9913864892137582
2016-04-21,1,0.0007844185044092327,0.0008918197611468342,-0.0078088119805753906,0.003595889856040364,0.9918745200136125
2016-04-25,1,0.0008446728931225036,0.0009575688022551699,-0.0078088119805753906,0.003725444571884417,0.9917574439482254
2016-04-27,1,0.0009958457153258918,0.0011358208513947584,-0.0078088119805753906,0.004063735347106384,0.9907040983161308
2016-04-29,1,0.0008544362671027395,0.0009976458663529131,-0.005763572704340911,0.00406441616194482,0.9915463666351328
2016-05-03,1,0.0007627003897405298,0.0008715184509773678,-0.0048903378001383165,0.003876217464711289,0.9921516464917439
2016-05-05,1,0.00012299768994046068,0.00013553913335674102,-0.0032739679086305432,0.003876217464711289,0.9929191176201002
2016-05-09,1,0.00023447286411302397,0.00025718185664831326,-0.006187235386063668,0.003876217464711289,0.992651658574504
2016-05-11,1,0.00024599453004845926,0.00028891484992256834,-0.0032739679086305432,0.003914921502499691,0.994036310132832
2016-05-13,-1,-0.00038721020949831754,-0.00031172187360629667,-0.0032739679086305432,0.003914921502499691,0.9941288100503181
2016-05-17,-1,-0.00014174178286140528,-0.00011869419487163639,-0.0023473141965518448,0.003876217464711289,0.9951926633636323
2016-05-19,-1,-6.292949984010063e-05,-5.232069945807318e-05,-0.0023473141965518448,0.003914921502499691,0.9951458346537279
2016-05-23,-1,-3.2773087451203234e-05,-2.9729362827043535e-05,-0.0008233248370340419,0.004052318790178868,0.9944916407851063
2016-05-25,1,9.94354455659144e-05,0.00010248649667497472,-0.002896579998410585,0.004052318790178868,0.9949387573946135
2016-05-27,0,-2.018025125991694e-06,2.8667616377352846e-05,-0.005905888826266372,0.004052318790178868,0.9928455721975099
2016-06-01,-1,-0.00035324852491913086,-0.0002531963940304913,-0.005905888826266372,0.004724021455887408,0.9911119905705708
2016-06-03,-1,-0.0005702549601933758,-0.00043772377512204375,-0.0050334159760336014,0.01033649268682681,0.9894443642416096
2016-06-07,-1,-0.000950433667089332,-0.0007570540606194137,-0.0005898822426698542,0.01033649268682681,0.9895474706346334
2016-06-09,-1,-0.0007417279849639128,-0.0005706273530724315,-0.0005898822426698542,0.010933209339858837,0.9895131392489199
2016-06-13,-1,-0.0010407431148463787,-0.0008241918565132769,-0.00022487250385104908,0.010933209339858837,0.9892195484542237
2016-06-15,-1,-0.0005735360343566004,-0.0004420635435641544,-0.0003153320037625356,0.010933209339858837,0.9894405689952005
2016-06-17,-1,-0.0006625347396982417,-0.000513881941924206,-0.0014195165565715276,0.010933209339858837,0.9897966008886054
2016-06-21,-1,-0.0004142950597950708,-0.0002880348556903285,-0.0014195165565715276,0.009777627953418508,0.9906078637284659
2016-06-23,1,0.00022474226244026892,0.00024419161552355676,-0.0014195165565715276,0.007713814931245554,0.9911440491652509
2016-06-27,-1,-0.0011273360070299244,-0.0009351837479283218,0.0002099338521790318,0.007713814931245554,0.9926738557056946
2016-06-29,-1,-0.0004357894487259615,-0.00030727705512140045,-0.0015726332094285938,0.005936112701526457,0.9929686259541044
2016-07-01,1,0.00026847874345067515,0.0003367377863577878,-0.0032280146600145347,0.0040485955408678075,0.9934214449735959
2016-07-06,1,0.00030505444956573655,0.00037950106767968865,-0.003938067624835922,0.0035839852062735955,0.9932383329415647
2016-07-08,1,0.0010445463614907379,0.001117661110093632,-0.003938067624835922,0.0035839852062735955,0.992916964420058
2016-07-12,1,0.0010087211006365357,0.0010842937949986445,-0.0036974903868923553,0.0035839852062735955,0.9930270671035534
2016-07-14,1,0.0012758581945888992,0.001409033844235985,-0.0036974903868923553,0.003920017022225275,0.9929739709216195
2016-07-18,1,0.0010745099109962255,0.001172539620511869,-0.0036974903868923553,0.003920017022225275,0.99298944325665
2016-07-20,1,0.001073352156975759,0.001164996662753374,-0.005983472555261607,0.0028752072412739508,0.9924626386953996
2016-07-22,1,0.001290239480810736,0.001429846940203305,-0.00433446813668458,0.0028752072412739508,0.9927284248632371
2016-07-26,1,0.0010814278054668879,0.0011697770460634355,-0.00433446813668458,0.002496187357119832,0.9930070425309878
2016-07-28,1,0.00012334800878775423,0.000154700658670028,-0.0030270352181206907,0.002496187357119832,0.9949588791745155
2016-08-01,-1,-0.0007348432666389694,-0.0005976816880324204,-0.0025657003943893785,0.002496187357119832,0.9963192991095734
2016-08-03,-1,-0.0006196151684241501,-0.0005193545464104031,-0.0023118310740776736,0.002454356137033463,0.9966645873045289
2016-08-05,-1,-0.00019899385929310348,-0.0001445391328930684,-0.0025657003943893785,0.0022845654688207744,0.9970684563519857
2016-08-09,1,8.669936719023715e-05,8.824754652012052e-05,-0.0025880739134729503,0.0013927297067671193,0.99719587326225
2016-08-11,1,0.00017023128795888066,0.00018286599358850435,-0.0030736066638513515,0.0010308518556452237,0.9955509405856546
2016-08-15,1,2.7397391793216944e-05,4.3129020583753614e-05,-0.0038622914183268843,0.0010308518556452237,0.994095662856396
2016-08-17,-1,-0.0002938843565977755,-0.00023630033216594123,-0.002819606708356493,0.0013927297067671193,0.9941413941342814
2016-08-19,1,1.1287890324546339e-05,2.130690622692358e-05,-0.0038622914183268843,0.0010308518556452237,0.99396497228268
2016-08-23,1,0.00021321341280234577,0.0002507793034346222,-0.0038622914183268843,0.003952567755570621,0.9927343976868953
2016-08-25,1,6.14159787297212e-05,6.643850585655222e-05,-0.005550997938891994,0.0071724903858083906,0.9920674380935575
2016-08-29,-1,-1.4182436497449065e-05,-1.0777792457369138e-05,-0.005550997938891994,0.008741506301242227,0.9916063277731423
2016-08-31,1,4.29357664246546e-05,4.298410871042791e-05,-0.006483800898964287,0.008741506301242227,0.9907548220110522
2016-09-02,1,0.0002784269288906233,0.0003207358490322574,-0.006933136990961463,0.008741506301242227,0.9904292647855198
2016-09-07,1,0.00019579510666063287,0.00022480049490313528,-0.006933136990961463,0.008741506301242227,0.9902942143256743
2016-09-09,-1,-0.000715761621940635,-0.000643757316376604,-0.005552645611072058,0.008741506301242227,0.9921228564124817
2016-09-13,-1,-0.0008574406860788876,-0.0007487448151453366,-0.005552645611072058,0.007048678673483775,0.9926770259704412
2016-09-15,-1,-0.00044543954002078867,-0.00039105290999743214,-0.005552645611072058,0.007048678673483775,0.9926401097451285
2016-09-19,-1,-0.0007449877056755708,-0.0006633275808094363,-0.004053308465000997,0.007937582011123339,0.992543541566862
2016-09-21,-1,-0.0002238593881391199,-0.00018034778747158677,-0.004053308465000997,0.005159039691646553,0.9937768601848519
2016-09-23,-1,-0.0003745580024917077,-0.0003200636495806822,-0.004053308465000997,0.004609494166986742,0.9942726013606431
2016-09-27,-1,-0.0006232100225786612,-0.0005020087971825521,-0.004053308465000997,0.004609494166986742,0.9942523825038294
2016-09-29,-1,-0.0010920456521352395,-0.0009273448219648521,-0.004053308465000997,0.004609494166986742,0.9947688752331832
2016-10-03,-1,-0.0010851176614665688,-0.0009118412594027923,-0.003570780290061976,0.004609494166986742,0.9953128235583883
2016-10-05,-1,-0.0012250769425210773,-0.0010220436471997745,-0.002513118376758956,0.004876038970433521,0.9939996289364162
2016-10-07,-1,-0.0013427554430400653,-0.001121670392052352,-0.003570780290061976,0.004876038970433521,0.9937232438075517
2016-10-11,-1,-0.0016986447196112673,-0.0014384132476624437,-0.0029846661836216183,0.006480724926658844,0.9935909017850012
2016-10-13,-1,-0.0012108117444069168,-0.0010090883624564902,-0.0029846661836216183,0.005844924250577945,0.9937944734942045
2016-10-17,-1,-0.0009710745757721445,-0.0008252143405202582,-0.002946966206388269,0.005844924250577945,0.9936993969944873
2016-10-19,-1,-0.0008277161432804821,-0.0007100426242443354,-0.002946966206388269,0.006776318884164473,0.9930410214016148
2016-10-21,-1,-0.0006792907224623233,-0.0005816073762269785,-0.0027567017439743035,0.009187809908434427,0.9927017213265125
2016-10-25,-1,-0.0008662312109696103,-0.0007361142402022764,-0.0027567017439743035,0.009187809908434427,0.9922173423737133
2016-10-27,-1,-0.0013017667309599315,-0.0011087130854754686,-0.0012625587983504396,0.009187809908434427,0.9921084125455601
2016-10-31,-1,-0.0009743780575327677,-0.0008367342533747986,-0.001891742487434356,0.009187809908434427,0.9921401582143451
2016-11-02,1,7.719384607745794e-05,0.00010466494077962471,-0.0027567017439743035,0.0085001447941309,0.9936452447220527
2016-11-04,-1,-0.0002965742292864284,-0.00023196791755908974,-0.0026384011807101754,0.00860197683735225,0.9933309710237774
2016-11-08,1,0.0001427035445243148,0.00015338585441827514,-0.0026384011807101754,0.00860197683735225,0.9937610743395825
2016-11-10,1,0.0004908968602515726,0.0005444245260473819,-0.001041351556422405,0.00860197683735225,0.9939584159774639
2016-11-14,1,0.0007039898488928697,0.0007987684379863028,-0.0007977038213416132,0.008403052523732394,0.99438048426261
2016-11-16,1,0.0005304849319119366,0.0005403098836922592,-0.0018726811307313174,0.008403052523732394,0.9940844319393364
2016-11-18,1,0.0010853629258450305,0.0012152429254966189,-0.0018726811307313174,0.008403052523732394,0.9937383519146109
2016-11-22,1,0.002179172117515375,0.0025128678583819586,-0.0018726811307313174,0.006892051431693635,0.994352960261502
2016-11-25,1,0.0021873615224935338,0.0025279979975326426,-0.0018726811307313174,0.006892051431693635,0.9943015158801992
2016-11-29,1,0.002380533556355434,0.0027629320583434595,-0.0018509360983788698,0.006892051431693635,0.9944144850412574
2016-12-01,1,0.001975689057713062,0.0022973443937469107,-0.0007977038213416132,0.006892051431693635,0.9947498560540162
2016-12-05,1,0.0021521261787996303,0.002506110866174579,9.898975049034328e-05,0.006517146765082838,0.9952102851821247
2016-12-07,1,0.002834457294768112,0.003272529845245678,-0.00017812010761262756,0.004499773740311473,0.9955294859174335
2016-12-09,1,0.002700404638985611,0.0031302140554271924,-0.002546222954972747,0.0037392399089912205,0.9951050350183007
2016-12-13,1,0.0027407962681884456,0.0031814608858222572,-0.002546222954972747,0.006111826077297374,0.9948815607833882
2016-12-15,1,0.00304439424350704,0.003528143499296979,-0.002546222954972747,0.004364666844382985,0.9950702879974589
2016-12-19,1,0.002729559862228481,0.0031033087457698902,-0.002546222954972747,0.0037392399089912205,0.9956917997542512
2016-12-21,1,0.0023117008357764948,0.0025898177644660464,-0.0034714989792506614,0.003335244798456755,0.9956957910404313
2016-12-23,1,0.002166828161776595,0.002412125080459631,-0.005418184412748192,0.0037392399089912205,0.9950614151893888
2016-12-28,1,0.002286418564307715,0.0025721684465968226,-0.0060375781075392996,0.002936955618417142,0.994617404278535
2016-12-30,1,0.0022527242876326124,0.002525388442748247,-0.0060375781075392996,0.002572753961703923,0.9945381346261515
2017-01-04,1,0.0020310455908322763,0.0022761533062633237,-0.00626182972786098,0.002572753961703923,0.9915318828501756
2017-01-06,1,0.0019982943385335045,0.002230580069624068,-0.00626182972786098,0.003394108885194609,0.9915349455619404
2017-01-10,1,0.0015032035322041022,0.001659938681017554,-0.005529516450800877,0.003686349794559807,0.9920111837800174
2017-01-12,1,0.0021954438846779516,0.0024508654112472667,-0.005529516450800877,0.0027195039527180376,0.9919871196464721
2017-01-17,1,0.0015412449735537838,0.0016978651942524741,-0.004404580705911387,0.006224971988772057,0.9919969879439131
2017-01-19,1,0.0014816872374026901,0.001629296699773889,-0.004404580705911387,0.006224971988772057,0.9921256411203324
2017-01-23,1,0.0011935390874415444,0.0012903964044251577,-0.0042506352754683886,0.006224971988772057,0.9922171057502936
2017-01-25,1,0.001287032157622445,0.0014005861520622112,-0.0034578480945398546,0.0080080169124328,0.991931331239771
2017-01-27,1,0.0011560581980964353,0.0012554067081705993,-0.002229942035194699,0.009312637572470733,0.9916869146331809
2017-01-31,1,0.0008798183225493115,0.0009425238128744818,-0.0018999942277541982,0.011117569363719666,0.991227732273646
2017-02-02,-1,-0.00046003949720150965,-0.00031141146087852484,-0.0018999942277541982,0.009312637572470733,0.9938175625021067
2017-02-06,-1,-0.0007172320566198302,-0.0005386895014493142,-0.0018999942277541982,0.009312637572470733,0.9937132303880533
2017-02-08,-1,-0.0004100130646371339,-0.0002903255219620108,-0.0029317584206152774,0.009312637572470733,0.9936334591756859
2017-02-10,-1,-0.0006569456972179207,-0.00047457689173810804,-0.0029317584206152774,0.009323381699144392,0.9935690529250503
2017-02-14,1,0.00045000470881583767,0.00045743197785319236,-0.003341970994937811,0.00782997931064476,0.9937105991477838
2017-02-16,1,1.541712053860166e-05,0.00010107092976681669,-0.004109605685912115,0.008967522615595906,0.9933194538140097
2017-02-21,0,-4.058150619721298e-05,3.434853530481251e-05,-0.004643143630799075,0.008967522615595906,0.9927027535804658
2017-02-23,1,0.000167195900802498,0.0002545661843422792,-0.004643143630799075,0.005756077364769107,0.9935395953034538
2017-02-27,1,7.748706641522802e-05,0.00017369222202685386,-0.004752366295106643,0.004587278796816605,0.9940519602396818
2017-03-01,1,0.0007578459877231223,0.0007724682193260879,-0.0055977795256283314,0.004175425688163446,0.9941151271359374
2017-03-03,1,0.00046803576553094983,0.0005223943323406736,-0.0055977795256283314,0.003773042990930304,0.9945230611611923
2017-03-07,0,-8.77067774949186e-05,4.8910419303489815e-05,-0.0055977795256283314,0.0029791278654813964,0.994531970619543
2017-03-09,0,-0.00011183752669542891,1.2906713194649904e-05,-0.004979496769016722,0.003879352269767103,0.9946166930755277
2017-03-13,1,3.098032893533037e-05,0.000150577138361604,-0.004979496769016722,0.0037775823474850362,0.9950538228403547
2017-03-15,0,-4.264624862332448e-05,9.078682781483034e-05,-0.004146013240681304,0.0025137962121001265,0.9957155439097897
2017-03-17,1,8.359669933357653e-05,0.00019293408338223029,-0.004979496769016722,0.0025137962121001265,0.9956594522425709
2017-03-21,-1,-0.0008011078188194558,-0.0005799439839415746,-0.0015989140888046458,0.0025137962121001265,0.9965440404063969
2017-03-23,-1,-0.0009292102961799231,-0.0006735667342884366,-0.002173621654464291,0.0025137962121001265,0.9962451446882855
2017-03-27,-1,-0.0010334702487617882,-0.0007726512729800652,-0.0014699800077679368,0.00442611824077087,0.9952104562738295
2017-03-29,-1,-0.000649206955521617,-0.0004868538960723814,-0.0013856122861278905,0.00442611824077087,0.9958174871035698
2017-03-31,-1,-0.00093908700491761,-0.0007142605564797469,-0.002173621654464291,0.00442611824077087,0.9954839607957672
2017-04-04,-1,-0.0010064810516416645,-0.0007832648344918938,-0.002173621654464291,0.00442611824077087,0.9929903670463733
2017-04-06,-1,-0.0008431388358162279,-0.0006576490694876193,-0.001920518489544152,0.004724592617158175,0.9923435760095075
2017-04-10,-1,-0.0008578521988656746,-0.0006640468857471215,-0.0037916734075030965,0.0044286289078033815,0.9911367762016502
2017-04-12,-1,-0.0006663543088330384,-0.0005155323205069231,-0.004720679703207296,0.0044286289078033815,0.9909384933430193
2017-04-17,-1,-0.0007186659478351105,-0.0005613149113086559,-0.0037063930568818023,0.0076089571778005845,0.990487009778495
2017-04-19,-1,-0.00042271705596581496,-0.0003268103812839609,-0.004720679703207296,0.0076089571778005845,0.9901116711594394
2017-04-21,-1,-0.00037401421756327495,-0.000281159832469971,-0.004720679703207296,0.0076089571778005845,0.9900463017993096
2017-04-25,1,0.0002459764372064714,0.0002651030301738835,-0.004720679703207296,0.0047874361652454275,0.990715818798769
2017-04-27,0,-4.362151981958715e-05,2.4627313067037456e-05,-0.004720679703207296,0.00762443684246929,0.9901227024139264
2017-05-01,-1,-0.0003371231092773947,-0.0002352204966449338,-0.0014301468153741555,0.00762443684246929,0.9903999036720761
2017-05-03,-1,-0.0009500311488876076,-0.0008092114204356405,0.0002732222315141432,0.008705331588763717,0.9923033492141076
2017-05-05,-1,-0.0008739561703537291,-0.0007368349982324696,-0.0014301468153741555,0.008309112859216556,0.9921338665088473
2017-05-09,-1,-0.0012561156748038182,-0.001072696027305569,-0.0014301468153741555,0.008309112859216556,0.9933161763758966
2017-05-11,-1,-0.0012458570170614885,-0.0010767707139289178,-0.0014113860926699183,0.008309112859216556,0.9932204242609517
2017-05-15,-1,-0.0004687697062405594,-0.0004041350781947931,-0.0014113860926699183,0.008309112859216556,0.9936089754094125
2017-05-17,-1,-0.0008396987154834269,-0.0007472430730791791,0.0001822755237872837,0.008583663222954256,0.9932259380525175
2017-05-19,-1,-0.00042922791266336547,-0.00038615932382583416,0.0001822755237872837,0.008583663222954256,0.9931319312845425
2017-05-23,-1,-0.0003028672760312553,-0.00027176461770434576,-0.0019054486013055727,0.008476692341097079,0.9928894721425303
2017-05-25,1,0.0001654411835014297,0.00019794938554966885,-0.005118732723743989,0.006561571719697798,0.9933204719297732
2017-05-30,1,0.00024049231224465515,0.0002873881923478594,-0.005838600143990163,0.007984906180599835,0.9927607251535296
2017-06-01,1,0.0005574559929577185,0.0006452188276787369,-0.0062020436006382405,0.006465388480365245,0.9924433532022878
2017-06-05,-1,-0.0001089060289772598,-9.549648883887211e-05,-0.005838600143990163,0.008188142623099416,0.9931289795547042
2017-06-07,1,0.0001313263130439726,0.00017477258241821073,-0.00606174730669435,0.009278826505299442,0.9922278541732619
2017-06-09,-1,-0.00014399242525939965,-0.00013470585762597557,-0.00606174730669435,0.010298480454108918,0.9911010499496463
2017-06-13,1,0.000195301218159558,0.00022951405872896527,-0.006301279766676131,0.009278826505299442,0.9908064480013667
2017-06-15,1,0.00031224391804184743,0.0003556260410354312,-0.007331813295894782,0.008380567459803038,0.9909586656183514
2017-06-19,1,0.0005176016990024705,0.0005922818734977863,-0.007331813295894782,0.0068327734727682485,0.9914452628910463
2017-06-21,1,0.00016226002874734636,0.00018258397807948724,-0.006276811996647634,0.008380567459803038,0.9913463241543773
2017-06-23,-1,-0.00013625336332071918,-0.00011193442620509418,-0.007331813295894782,0.010298480454108918,0.9908113761236379
2017-06-27,-1,-0.0005317576981622905,-0.00042952947044279247,-0.006662151456006432,0.011719033937114369,0.9900682937041557
2017-06-29,-1,-0.0007485441612802314,-0.0006038172844157881,-0.004389499625714911,0.01444398801089178,0.9859669745153163
2017-07-03,-1,-0.000649087707422909,-0.000497454501086426,-0.006662151456006432,0.01444398801089178,0.985005220136213
2017-07-06,-1,-0.00019289975485815532,-0.00010820481544472366,-0.010733798526418058,0.013329438481805185,0.9840032512578272
2017-07-10,1,0.00010167307680400593,0.00012587350923760175,-0.008852010916786272,0.012258120433068372,0.984946857241497
2017-07-12,-1,-0.00019071624583281074,-0.00013552071646854552,-0.008852010916786272,0.012258120433068372,0.9840327567105761
2017-07-14,-1,-0.0006790497485164961,-0.0005561385896048075,-0.007684035967960979,0.012258120433068372,0.9842360827515418
2017-07-18,-1,-0.0002005103401464129,-0.0001699668444102067,-0.007684035967960979,0.013329438481805185,0.9832984935276134
2017-07-20,1,0.0004501287756407723,0.0005147842611415073,-0.010733798526418058,0.012258120433068372,0.9812543906509014
2017-07-24,1,0.000888189863273689,0.0010461847755568782,-0.013465669362201633,0.011207247412875555,0.9813904377589826
2017-07-26,1,0.0016257661051955466,0.0018784968210684206,-0.013465669362201633,0.008715181613671664,0.9822511631261822
2017-07-28,1,0.0045181174482138205,0.0051439544479254425,-0.013465669362201633,0.008072048283035375,0.9859667120973424
2017-08-01,1,0.004047790790039314,0.0045924393300999025,-0.00847328584914747,0.007268531089768361,0.9873907762719284
2017-08-03,1,0.0029668780856709352,0.0033900568945818745,-0.0036253299186541563,0.007795813362464906,0.9899036731183377
2017-08-07,1,0.002997468992313952,0.0034201162089604704,-0.004959040103434671,0.008072048283035375,0.989585341430767
2017-08-09,1,0.0023991344059708193,0.0027481338830432234,-0.003009911945810847,0.008072048283035375,0.9908424152454033
2017-08-11,1,0.0017451045759022783,0.001969393169817199,-0.0043969784941081,0.008072048283035375,0.9905169622769043
2017-08-15,1,0.002563735639355354,0.0029013356388300268,-0.00517961898450924,0.007792037629274079,0.9910289550551182
2017-08-17,1,0.0005387821388725839,0.0005964513842355828,-0.004039013800944003,0.007792037629274079,0.9938593107460557
2017-08-21,-1,-0.00013709831510578946,-9.59192440293479e-05,-0.0028362246211319506,0.008055558172945001,0.9941325373946748
2017-08-23,1,0.00010744025213910578,0.00011652268973749342,-0.004039013800944003,0.007792037629274079,0.9943482534076724
2017-08-25,1,0.00021564002530949757,0.00022696314225003806,-0.004039013800944003,0.007792037629274079,0.9939754493166709
2017-08-29,1,0.00043927173364555086,0.0004585046011139231,-0.004775275486898532,0.008105140115550104,0.9933334703982799
2017-08-31,1,0.0007662645751949621,0.0008338688517637883,-0.005204408416579668,0.008105140115550104,0.9934962245862609
2017-09-05,1,0.0006785400407538875,0.000729542762693267,-0.004775275486898532,0.008220911626951108,0.9937005521597565
2017-09-07,1,0.0012853603381121723,0.0014123265869311814,-0.004775275486898532,0.00685646586690533,0.9935555793735986
2017-09-11,1,0.0008569229929154565,0.0009271967216421512,-0.002571588563180987,0.00685646586690533,0.9942174012890991
2017-09-13,1,0.0007803794902627636,0.0008486883781283251,-0.002571588563180987,0.00685646586690533,0.994070121093028
2017-09-15,1,0.0010455166530736713,0.001189630529083181,-0.0011328032734599033,0.00685646586690533,0.994157788355819
2017-09-19,1,0.0012320391828209787,0.0014007754090472149,-0.0018578844244824576,0.0062552825523877875,0.9940444985767156
2017-09-21,1,0.0007909653809285849,0.0008794719692147223,-0.00019810763875243378,0.0062552825523877875,0.9940438547997316
2017-09-25,1,0.000363593973386688,0.00045286785438769116,-0.00019810763875243378,0.007071670023226206,0.9937868082713719
2017-09-27,1,0.0009250342654451018,0.0009301560949193851,-0.0008519279899422773,0.0062552825523877875,0.9944425195445027
2017-09-29,1,0.00011752126881684475,0.00024985708081470685,-0.00019810763875243378,0.008137082650025704,0.9939160768969205
2017-10-03,1,0.00031656916006493044,0.0004430171323105201,-0.0019479349580785162,0.006767390823656077,0.9937516475272787
2017-10-05,1,0.0015671283434653398,0.0016271658934778547,-0.006465485963025454,0.006123170335145844,0.99413976731623
2017-10-09,1,0.0011039225501261233,0.0011362577521318183,-0.007656156405031074,0.006123170335145844,0.9928188599871791
2017-10-11,1,0.0010736338332933224,0.0010895864591310349,-0.007424333217493476,0.006767390823656077,0.9927866861574142
2017-10-13,1,0.0013604222464947005,0.001392997294286169,-0.007594081458262249,0.006767390823656077,0.9921999320132092
2017-10-17,1,0.001443255070884723,0.0015166873855493024,-0.007512736576539096,0.00656699522833018,0.9925899313223205
2017-10-19,1,0.0016705234471686595,0.0017756140536322642,-0.007921366482167933,0.005723293380493505,0.9920116578849486
2017-10-23,1,0.0026171236665454654,0.0028784721886735017,-0.007921366482167933,0.003497841671879519,0.9921298523233457
2017-10-25,1,0.0019291375548154415,0.002038215862691716,-0.007921366482167933,0.003497841671879519,0.992504193232073
