JNU-Tangyin/eata/results/Batch4_SP500/Batch4_SP500-NTAP.csv
Date,Action,Predicted_Q25,Predicted_Q75,Actual_Q25,Actual_Q75,RL_Reward
2010-12-14,0,0.0,0.00243473853620338,-0.00470634912818386,0.009192912734688412,0.9918791624258373
2010-12-16,0,0.0,0.0,-0.00470634912818386,0.009192912734688412,0.9915604248367962
2010-12-20,1,0.0013534187163431047,0.0014087158399884168,-0.0050984039409475304,0.00528325928149895,0.9913482641063665
2010-12-22,0,0.0,0.0,-0.005867353451991629,0.00528325928149895,0.9901930218386084
2010-12-27,0,0.0,0.0,-0.0069258665989498465,0.00473955703178881,0.9888062454809586
2010-12-29,0,0.0,0.0,-0.0069258665989498465,0.009192912734688412,0.9876031329587297
2010-12-31,0,0.0,0.0,-0.00806271859588939,0.01160375540958776,0.9860505868339151
2011-01-04,0,0.0,0.0,-0.00806271859588939,0.01160375540958776,0.9861456676421639
2011-01-06,0,0.0,0.0,-0.00806271859588939,0.013384527674654364,0.9860103805326874
2011-01-10,0,0.0,0.0,-0.00806271859588939,0.012431061461654559,0.9859712362559884
2011-01-12,0,0.0,0.0,-0.00806271859588939,0.012900988413911685,0.9855604377568005
2011-01-14,0,0.0,0.0,-0.010221423025879214,0.012412797689978588,0.9856949183649663
2011-01-19,-1,-0.0021116322177248976,-0.0014723507217824481,-0.010046114258947473,0.012412797689978588,0.9861159619348873
2011-01-21,-1,-0.002611008779680011,-0.0018701764544697829,-0.01707671290510068,0.012412797689978588,0.9829631345857264
2011-01-25,0,0.0,0.0,-0.02054617971524079,0.012412797689978588,0.982679938398978
2011-01-27,0,0.0,0.0,-0.02054617971524079,0.012412797689978588,0.9824030456020105
2011-01-31,0,0.0,0.0,-0.019828524419619797,0.011633300319302842,0.9824549606584871
2011-02-02,1,0.00025645951688850173,0.00033624799751295046,-0.019828524419619797,0.011633300319302842,0.9828732992843239
2011-02-04,1,0.001294202471762396,0.0014054174837529266,-0.019828524419619797,0.009522439948592198,0.9824588062947102
2011-02-08,0,0.0,0.0,-0.019828524419619797,0.008038889057865007,0.9829870928581156
2011-02-10,0,0.0,0.0,-0.020655688248373175,0.002270762508318276,0.9801700468580853
2011-02-14,0,0.0,0.0,-0.022893531300729415,0.0032512624821552506,0.9796973172272321
2011-02-16,0,0.0,0.0,-0.022893531300729415,0.004711036738011076,0.980256202502471
2011-02-18,1,0.006918002093207834,0.0069711180019285095,-0.018772972281573312,0.006252530951440665,0.9812940826878261
2011-02-23,-1,-0.0006671021437187248,-0.00028426050286450063,-0.01599688327724253,0.006252530951440665,0.9848439119908624
2011-02-25,0,0.0,0.0,-0.01599688327724253,0.006252530951440665,0.9850024682750066
2011-03-01,0,0.0,0.0,-0.011521955320076358,0.009208560268687136,0.9850684230052191
2011-03-03,-1,-0.002088878130970094,-0.0016627011954206087,-0.011521955320076358,0.004711036738011076,0.9869843168825302
2011-03-07,-1,-0.0007530197294431597,-0.0003181296439303525,-0.011699290681173662,0.004711036738011076,0.985349430429883
2011-03-09,-1,-0.00045222877904678275,-0.00017238702270825582,-0.011699290681173662,0.005945176918214898,0.9847608600417255
2011-03-11,-1,-0.0022867748091471166,-0.0017853344407567087,-0.005776275945780932,0.005945176918214898,0.9882235026919381
2011-03-15,-1,-0.002450638013300883,-0.001985339707173112,-0.003840884659652968,0.009156397195470527,0.9881803159148184
2011-03-17,0,0.0,0.0,-0.003840884659652968,0.013766100930856394,0.9881049300760206
2011-03-21,0,0.0,0.0,-0.005776275945780932,0.009156397195470527,0.989410309018076
2011-03-23,0,0.0,0.0,-0.005776275945780932,0.013766100930856394,0.9878727586466014
2011-03-25,0,0.0,0.0,-0.003816811907631165,0.01429948209292191,0.9863402712372014
2011-03-29,-1,-0.00181296245463303,-0.001618940006973974,-0.001305243290184422,0.01429948209292191,0.9867184373571548
2011-03-31,-1,-0.0026970629315587152,-0.0024311920572751516,-0.0029638355997829995,0.01429948209292191,0.9865816704106786
2011-04-04,-1,-0.003575219166644323,-0.003248655864374413,-0.0029638355997829995,0.01429948209292191,0.988042961979406
2011-04-06,0,0.0,0.0,-0.003901229748759975,0.009163022640562882,0.9898202715365654
2011-04-08,0,0.0,0.0,-0.003901229748759975,0.015059547200687896,0.9881488760894273
2011-04-12,-1,-0.002358030333943095,-0.0019180427600445878,-0.004751412066258275,0.016268428023085278,0.9882838091925582
2011-04-14,-1,-0.0018863549971630457,-0.0015321950926782137,-0.004751412066258275,0.00958537428017246,0.9889799221759404
2011-04-18,-1,-0.0026025766128731035,-0.002132084475674152,-0.00612421684979916,0.00958537428017246,0.9882425865732732
2011-04-20,-1,-0.0018297803501917172,-0.0014534389077040385,-0.004751412066258275,0.016259567944501216,0.9881857331175964
2011-04-25,1,0.00029520787216566274,0.0004348721084942079,-0.0074604538873939835,0.006601962383527957,0.9895716469540606
2011-04-27,1,0.0018813753450063813,0.0020584762535804514,-0.009344502556197372,0.0054810392554239746,0.988004922123892
2011-04-29,1,0.0010881737634390975,0.0011269453093605626,-0.009344502556197372,0.008994527526204022,0.9854566037301871
2011-05-03,1,0.0016455748522250472,0.0018356179543131043,-0.014191217343107139,0.007705770476866893,0.9840139801077488
2011-05-05,1,0.000760808811924643,0.0007851998013761072,-0.01567875610520954,0.007705770476866893,0.9835804181955466
2011-05-09,1,0.0016504174400810987,0.0017647434941211438,-0.016411665789299947,0.0050785392731995576,0.9834607323928066
2011-05-11,1,0.0021462211708753055,0.002328822775333539,-0.016411665789299947,0.004564202269399964,0.9835923570201316
2011-05-13,1,0.0026055316743298215,0.002910261818185101,-0.018289751647477082,0.004564202269399964,0.9821130466269853
2011-05-17,1,0.0011670774722631423,0.0012649862277114387,-0.018216824425536647,0.007278711928679321,0.9826813587471103
2011-05-19,1,0.0025087125851821334,0.0027797587659671857,-0.019279388858855374,0.004564202269399964,0.9828406661150433
2011-05-23,1,0.001134787895403536,0.0012057828571442764,-0.019279388858855374,0.00569355863692605,0.983444817186878
2011-05-25,1,0.0003445211318402757,0.00036655154066871505,-0.0143720830506852,0.008182627098956107,0.984264922782372
2011-05-27,1,0.003281574985245339,0.0037366336557477474,-0.019279388858855374,0.008182627098956107,0.9842214347632503
2011-06-01,1,0.0017653907065488313,0.002022014716742105,-0.015689228988378826,0.008182627098956107,0.9854732055564286
2011-06-03,1,0.0010974742363857354,0.0012945129962321253,-0.013667122949118773,0.015498905447710667,0.9827587073924181
2011-06-07,1,0.0004924787242143924,0.0006394733904053711,-0.009563928471507737,0.015498905447710667,0.9835690045307701
2011-06-09,1,0.0004103907713871892,0.0005705962529876088,-0.007929819912316748,0.015498905447710667,0.9836808348689018
2011-06-13,-1,-0.0013194197807300857,-0.0011973817994058807,-0.009063227138721583,0.015498905447710667,0.9836007304817508
2011-06-15,-1,-0.0006183740941804223,-0.0005170516362857555,-0.014425329215428119,0.008460228795882653,0.9831783281055506
2011-06-17,-1,-0.0025937455245777967,-0.002188275701885829,-0.011978705726965553,0.013322866957393306,0.9831459803498428
2011-06-21,-1,-0.000507838448106647,-0.0004065174830118488,-0.014425329215428119,0.013322866957393306,0.9811787125724432
2011-06-23,-1,-0.0005302823854870077,-0.000403870546720026,-0.014425329215428119,0.02166023121505355,0.9803293709612811
2011-06-27,-1,-0.0002654023077902133,-0.00025329219912304527,-0.014425329215428119,0.010937123617793199,0.9817490642249711
2011-06-29,-1,-0.0003623838069209482,-0.0003557047503195426,-0.014979926619847235,0.015182059879591028,0.97935312487792
2011-07-01,1,0.002443239656286107,0.0028741153060023016,-0.01916668919997071,0.007639152994017198,0.9808802256061943
2011-07-06,1,0.0023363805717456047,0.0028031197455960465,-0.025475485615115548,0.009079959769948562,0.9795322837427943
2011-07-08,1,0.0019966210660585697,0.002382526439057526,-0.029051183180296737,0.009054131747949808,0.975823995008921
2011-07-12,1,0.0008657012429440303,0.0010899242876194325,-0.031847494275617116,0.015182059879591028,0.9718581386368986
2011-07-14,0,0.0,0.0,-0.029667006786036478,0.02096125419008927,0.9713380304435021
2011-07-18,0,0.0,0.0,-0.029667006786036478,0.020769246574112832,0.9709792871968859
2011-07-20,0,0.0,0.0,-0.029625138603880923,0.018128096513437574,0.9712311685148354
2011-07-22,0,0.0,0.0,-0.03230241262023088,0.014328242422581511,0.9678854791748112
2011-07-26,0,0.0,0.0,-0.03230241262023088,0.018128096513437574,0.9665924158115318
2011-07-28,-1,-0.0045248244147387375,-0.0039942047992370215,-0.03084826861204409,0.018128096513437574,0.969270849229158
2011-08-01,-1,-0.0056632033106679145,-0.005006163947583181,-0.03084826861204409,0.020709764871411254,0.9692015357947705
2011-08-03,-1,-0.006812652648953241,-0.005970296436674998,-0.03084826861204409,0.018128096513437574,0.9706578735342499
2011-08-05,-1,-0.010684274517393028,-0.009350014886862643,-0.02929515198699704,0.018128096513437574,0.9723384723831733
2011-08-09,-1,-0.007795655332637679,-0.006830508304406887,-0.02088441048396291,0.018128096513437574,0.9762815304341577
2011-08-11,-1,-0.005864007337048304,-0.005215238225652906,-0.02326681658938365,0.008948094322096607,0.9779492262288302
2011-08-15,-1,-0.00404667623083566,-0.0035766469106730827,-0.02326681658938365,0.007988191201323954,0.9782996431649558
2011-08-17,-1,-0.006654685323582878,-0.005901311280588191,-0.011943743814104124,0.014468164716437162,0.9782672207371866
2011-08-19,-1,-0.007255701215453522,-0.006428288587566256,-0.011943743814104124,0.014468164716437162,0.9816231445608011
2011-08-23,-1,-0.005400789470187305,-0.004798434137739475,-0.016658027469455057,0.014468164716437162,0.9825230922492039
2011-08-25,-1,-0.007139802836078594,-0.006221158846082741,-0.016658027469455057,0.014468164716437162,0.9830305353747432
2011-08-29,-1,-0.006097889247333945,-0.00534367609475086,-0.016658027469455057,0.014468164716437162,0.9826545375460098
2011-08-31,-1,-0.004952854977349265,-0.004345451082668365,-0.02196581488807862,0.014468164716437162,0.9821752138977803
2011-09-02,-1,-0.006378397877563562,-0.00563325100328537,-0.02196581488807862,0.014468164716437162,0.982607475782691
2011-09-07,-1,-0.005233853042197592,-0.004634208926641556,-0.02196581488807862,0.01749931435708245,0.9806593847154802
2011-09-09,-1,-0.005162355297871223,-0.0045241768622420655,-0.012331135384485355,0.01831222586499025,0.9800325582332722
2011-09-13,-1,-0.004107470192760301,-0.0036728333929215862,-0.012331135384485355,0.02157354355707488,0.9799565017080581
2011-09-15,-1,-0.001800496745396978,-0.0017635856328446485,-0.012331135384485355,0.01831222586499025,0.9816373858480466
2011-09-19,-1,-0.002979152256618812,-0.002857284707474969,-0.012331135384485355,0.01831222586499025,0.9811937466561396
2011-09-21,-1,-0.003725442644679967,-0.0034870726174198877,-0.012331135384485355,0.02157354355707488,0.9804347249701894
2011-09-23,-1,-0.0035588308110468684,-0.0033541299873568516,-0.011538796034425857,0.02157354355707488,0.9802403212072256
2011-09-27,-1,-0.0026516888084198503,-0.002561768037805342,-0.0213424811682526,0.027113939776050634,0.9794607970604161
2011-09-29,-1,-0.0035205996221620893,-0.0033484726429535263,-0.011538796034425857,0.028174294647032874,0.9760641235530126
2011-10-03,-1,-0.004095761056352764,-0.003911216850346747,-0.008415372490308076,0.028174294647032874,0.9767590509699656
2011-10-05,-1,-0.0011487067251217226,-0.0009420530936862296,-0.016489442728015037,0.018013359767588524,0.9793887343338284
2011-10-07,-1,-0.000423847176151171,-0.00019642378408118283,-0.016489442728015037,0.01873427432703039,0.9781682044998926
2011-10-11,1,0.0015841620047616068,0.0021655750851481484,-0.016489442728015037,0.018394952284693823,0.9790273319863221
2011-10-13,1,0.0021591369240542982,0.0026730641958666434,-0.0213424811682526,0.018394952284693823,0.9772284087761456
2011-10-17,1,0.0009038077462821417,0.0011764577648548124,-0.016489442728015037,0.018394952284693823,0.9787723405402162
2011-10-19,1,0.0028254660731849663,0.003496843773099295,-0.016489442728015037,0.013616939775785576,0.9801901755065866
2011-10-21,1,0.001424408125125647,0.001905446054886176,-0.02532149940013132,0.013616939775785576,0.9751807638917243
2011-10-25,1,0.0009510332294905247,0.0013778219722373809,-0.01828216317094907,0.011264480923926082,0.9771034483510861
2011-10-27,1,0.0030323175944915364,0.0036859722000304094,-0.01828216317094907,0.00752457793881013,0.9797724934004444
2011-10-31,1,0.0029248316815649444,0.0035603460469685834,-0.018217036988663598,0.01074275389661755,0.9788101623237345
2011-11-02,1,0.0014990942837253066,0.0019355733733887768,-0.012637160879592296,0.011526319238764217,0.9792692263332722
2011-11-04,1,0.003350034905005575,0.004074841293547805,-0.012637160879592296,0.00752457793881013,0.9799319786070069
2011-11-08,1,0.003483268842142482,0.004221525192141359,-0.012637160879592296,0.00752457793881013,0.9800719409327205
2011-11-10,1,0.0025267124936383567,0.0032480193783524683,-0.012637160879592296,0.010485070533740034,0.9810194995829592
2011-11-14,1,0.0030663224325656333,0.0038149377595315557,-0.015405041046659837,0.01417110999935119,0.9789236565267072
2011-11-16,1,0.00046363752087013655,0.0009114992044008091,-0.017536046308007303,0.01417110999935119,0.9788902097766784
2011-11-18,-1,-0.001012295298239794,-0.0007778811625962711,-0.015479152371054494,0.01417110999935119,0.9835856904789776
2011-11-22,1,0.0025444384679742856,0.003128515758756321,-0.01589258974227577,0.022089462483946477,0.9811431506064827
2011-11-25,1,0.0011403880604693498,0.0017721906534831316,-0.01589258974227577,0.024445545320565303,0.9813232883373557
2011-11-29,1,0.002134699121575791,0.0028975038112182484,-0.01589258974227577,0.022061877996557816,0.982560285229511
2011-12-01,1,0.0027180093605037423,0.0035132172250200012,-0.01589258974227577,0.014257525922737746,0.9834187505603055
2011-12-05,1,0.0020936778164421513,0.002706731255716078,-0.017536046308007303,0.012453686948765393,0.9831105502810555
2011-12-07,1,0.0027403254530268375,0.0034226976630479353,-0.021348093590836906,0.015305055297891758,0.9816846332869454
2011-12-09,1,0.0029179993223856235,0.003604433509820709,-0.021348093590836906,0.012453686948765393,0.9830242708546167
2011-12-13,1,0.0023959344937408166,0.003038019551779837,-0.016991660267744086,0.010700725167686661,0.9840562496545057
2011-12-15,1,0.0010752702712011981,0.0015102271221570655,-0.013652971167088673,0.010700725167686661,0.9855415390266153
2011-12-19,1,0.001055333664919699,0.0011429933019068523,-0.01093255322091631,0.015305055297891758,0.9818452700958601
2011-12-21,0,0.0,0.0,-0.01093255322091631,0.012453686948765393,0.9830943476855316
2011-12-23,0,0.0,0.0,-0.01093255322091631,0.010757186802127476,0.9841266695449621
2011-12-28,0,0.0,0.0,-0.009610717141682247,0.010757186802127476,0.9842166337595245
2011-12-30,1,0.0003838155220881482,0.0004805091970977849,-0.009610717141682247,0.010757186802127476,0.9842218976840628
2012-01-04,1,0.0002979039244255476,0.0004209693928033402,-0.00845841634883326,0.010757186802127476,0.9842845384363972
2012-01-06,1,0.0006874821330240543,0.000924078724295861,-0.00845841634883326,0.010757186802127476,0.9849885954551139
2012-01-10,-1,-0.0001978524654560276,-0.00017263011882427567,-0.009508687470468718,0.010757186802127476,0.9842248954707449
2012-01-12,-1,-0.0024207187061387157,-0.0020534750262711865,-0.008193325142533653,0.014291719692185203,0.9816606919655778
2012-01-17,-1,-0.0021099687402278515,-0.0018508565837476651,-0.008193325142533653,0.014291719692185203,0.9814094316194394
2012-01-19,1,0.0006400584030616362,0.0006706378249233353,-0.008193325142533653,0.013315473858661183,0.9829673107722608
2012-01-23,1,0.0005540667835732892,0.0005936842030389548,-0.008193325142533653,0.019074860162409155,0.9827830231946535
2012-01-25,1,0.000986833837685338,0.001093816913917566,-0.00905568897902863,0.019074860162409155,0.9823987174172241
2012-01-27,-1,-0.00016161748139897734,-5.722278661456754e-05,-0.00905568897902863,0.019074860162409155,0.9824291157441065
2012-01-31,0,0.0,0.0,-0.01096529654022909,0.019074860162409155,0.9820073367723064
2012-02-02,0,0.0,0.0,-0.01096529654022909,0.01617490005940974,0.9835525039448307
2012-02-06,0,0.0,0.0,-0.013094325617871737,0.010853195818505853,0.9822543355700087
2012-02-08,0,0.0,0.0,-0.01280314117169827,0.01528172846733131,0.9822916586542053
2012-02-10,0,0.0,0.0,-0.010319791493700929,0.01528172846733131,0.9838445377398173
2012-02-14,0,0.0,0.0,-0.010319791493700929,0.016277812773462668,0.9830576621541358
2012-02-16,0,0.0,0.0,-0.010319791493700929,0.011859492702377279,0.9868911844093781
2012-02-21,0,0.0,0.0,-0.00884052063018591,0.01528172846733131,0.9862964612771206
2012-02-23,0,0.0,0.0,-0.010488377346712674,0.015398828852546913,0.9858174324668673
2012-02-27,0,0.0,0.0,-0.010488377346712674,0.015471897230266232,0.9850270113218657
2012-02-29,0,0.0,0.0,-0.010838464858567468,0.015471897230266232,0.9849378029043191
2012-03-02,0,0.0,0.0,-0.013944524615306767,0.015471897230266232,0.9847836982711449
2012-03-06,1,0.001640059529332339,0.0018111553877518888,-0.0067578761701063295,0.015471897230266232,0.9876919838155773
2012-03-08,1,0.002074201162494739,0.0022988570970625686,-0.013944524615306767,0.015471897230266232,0.9865958335428505
2012-03-12,1,0.002212324063975278,0.0024270676741012616,-0.01671510641540242,0.011907984611557596,0.9862035055300377
2012-03-14,1,0.0024409198451976833,0.0027011653533551647,-0.016921914912425992,0.009819085461657598,0.9865364308420065
2012-03-16,1,0.002472178083398395,0.00271507561367444,-0.017660660806519193,0.009371110634808342,0.9853459889198327
2012-03-20,0,0.0,0.0,-0.017660660806519193,0.007021375222424379,0.986543993948626
2012-03-22,0,0.0,0.0,-0.018097989815504673,0.0032425578638475804,0.986509554627698
2012-03-26,0,0.0,0.0,-0.018097989815504673,0.00042818507862500406,0.9876558550664463
2012-03-28,1,0.003417417455413317,0.003845426707416715,-0.018097989815504673,0.0026341980927582468,0.986612250197788
2012-03-30,0,0.0,0.0,-0.018097989815504673,0.002239735650367248,0.9878944855504951
2012-04-03,0,0.0,0.0,-0.020271044886171166,0.00042818507862500406,0.9846729483529
2012-04-05,0,0.0,0.0,-0.01999273606326822,0.00042818507862500406,0.9854823287831976
2012-04-10,0,0.0,0.0,-0.013340245562347874,0.00042818507862500406,0.9866167406295826
2012-04-12,0,0.0,0.0,-0.013340245562347874,-0.0005951320993999094,0.985315626437885
2012-04-16,-1,-0.0019962652943712137,-0.0015664823594502715,-0.011025419405561667,0.0009551804144922357,0.9865511312756547
2012-04-18,-1,-0.001556129464690889,-0.0011963687933615368,-0.015633058528573746,-0.0005951320993999094,0.9861637314811439
2012-04-20,-1,-0.003599391274855355,-0.0029501207122132125,-0.015633058528573746,-0.0005951320993999094,0.9861690505788276
2012-04-24,-1,-0.0030646739027613557,-0.002533435309411954,-0.015633058528573746,0.00036004831509232633,0.9851491181234262
2012-04-26,-1,-0.0017939939417333686,-0.0014722779427634271,-0.018146505037048965,-0.00394339441243402,0.980491041133427
2012-04-30,-1,-0.0021175811410690318,-0.0018191770267916244,-0.018146505037048965,-0.0013678428161444044,0.9789922144337833
2012-05-02,-1,-0.0015606971865220064,-0.0013363275471819061,-0.015633058528573746,-0.0013678428161444044,0.9822355581326839
2012-05-04,-1,-0.002249626065093374,-0.001960491043259133,-0.012787199429110076,0.0007562179457868846,0.9821843391155258
2012-05-08,-1,-0.0029959373699459313,-0.0026200801813449845,-0.012787199429110076,0.011461732374324376,0.9793096460137892
2012-05-10,-1,-0.006073218661322356,-0.0052514326492783,-0.015633058528573746,0.011461732374324376,0.980394199611014
2012-05-14,-1,-0.0065799394295254715,-0.005637982617038216,-0.0185975272864325,0.014341792639297479,0.9793711134067759
2012-05-16,-1,-0.007988077526446122,-0.006887127309039755,-0.014624806568558186,0.014341792639297479,0.9801023185045824
2012-05-18,-1,-0.008777396116889439,-0.007664391529121398,-0.011071105875842927,0.016862070630804415,0.9794342931818205
2012-05-22,-1,-0.008780248041603546,-0.007638175841382936,-0.011071105875842927,0.016862070630804415,0.9794507909418309
2012-05-24,-1,-0.009377163699313696,-0.00818966469426089,-0.0081531005836873,0.02059078229864328,0.9805383733356072
2012-05-29,-1,-0.008426460845589491,-0.007324812110207185,-0.011062514745690942,0.016862070630804415,0.9828999152258219
2012-05-31,-1,-0.008455466940318733,-0.0073383788458460195,-0.014599033178102228,0.02059078229864328,0.9811663059674133
2012-06-04,-1,-0.008134182434825428,-0.007047156938923733,-0.0225358722131643,0.020799625485173882,0.9780961059385599
2012-06-06,-1,-0.005606409742176785,-0.004772413808033208,-0.0225358722131643,0.008778229825249003,0.98183326161502
2012-06-08,-1,-0.008474882922693158,-0.007262341970671294,-0.021230035099154637,0.008778229825249003,0.9807746701198904
2012-06-12,-1,-0.006169554587635865,-0.005383445642571632,-0.014202359452100155,0.004135579069527549,0.9828592929121969
2012-06-14,-1,-0.006508934230975672,-0.005671828367356434,-0.015378699867228344,0.005661670425950644,0.9820838625942405
2012-06-18,-1,-0.004921774068705913,-0.004307436990209995,-0.015378699867228344,0.004135579069527549,0.9834671736737048
2012-06-20,-1,-0.004950233928430904,-0.00429468299027787,-0.015378699867228344,0.011241104100748198,0.9795109461686453
2012-06-22,-1,-0.005206465993997863,-0.004551079192895926,-0.014899440499296757,0.005661670425950644,0.9816407900559327
2012-06-26,-1,-0.004612254674000371,-0.004109176449759608,-0.014899440499296757,0.011309107421158968,0.980227257368247
2012-06-28,-1,-0.003847624525733169,-0.003466002100493767,-0.011368829667209434,0.02000475056248086,0.9804410638535941
2012-07-02,-1,-0.0032620466245737055,-0.002946002972269276,-0.011169215530033397,0.01100568678436072,0.9841778327042612
2012-07-05,-1,-0.002899356719703128,-0.0026346992486767653,-0.01390983864480289,0.01100568678436072,0.9835207092076014
2012-07-09,-1,-0.005336966637342774,-0.004761592763853827,-0.011169215530033397,0.02000475056248086,0.9843141944766104
2012-07-11,-1,-0.004228730913924509,-0.0039010747066864793,-0.012961636953725493,0.021459745024863183,0.9821070499830763
2012-07-13,-1,-0.003955205457794982,-0.0036798636272095562,-0.013084231686277346,0.021459745024863183,0.981281713926573
2012-07-17,-1,-0.003592521994039787,-0.003383135255449743,-0.014277622842458449,0.021459745024863183,0.9801988468133208
2012-07-19,-1,-0.0006047113064181866,-0.0004369360705475657,-0.014277622842458449,0.02000475056248086,0.9823778956660015
2012-07-23,-1,-0.0010448682242421173,-0.0009468168776521569,-0.013084231686277346,0.02000475056248086,0.9820532747827987
2012-07-25,1,0.00041128126498087686,0.0007374941091182611,-0.013084231686277346,0.01607178028914418,0.9832331274896117
2012-07-27,1,0.0010670877249411514,0.0013641131180032514,-0.013084231686277346,0.014219701743093444,0.9833692185460117
2012-07-31,1,0.0013297406891028083,0.0017119196081566161,-0.012707921966103502,0.014219701743093444,0.983798386461246
2012-08-02,1,0.0006593578311938109,0.0009965534752767891,-0.011582640794271078,0.014219701743093444,0.9839797175137622
2012-08-06,1,0.0014546317740415505,0.0019168843540585615,-0.011582640794271078,0.012071565568054915,0.9851270623689364
2012-08-08,1,0.0026859182968724396,0.0033428170638917136,-0.007780458312492397,0.012071565568054915,0.9866371830972867
2012-08-10,1,0.0032598170545302305,0.004086213183658255,-0.007780458312492397,0.010733866202195392,0.987353297587353
2012-08-14,1,0.0022603339073161404,0.002961978923431227,-0.00028081983211002603,0.010733866202195392,0.9891432127481768
2012-08-16,1,0.0045391501446849815,0.005604190096442217,-0.00028081983211002603,0.00851453516240371,0.9905192617731164
2012-08-20,1,0.0044274003788974114,0.005436239517102918,-0.00028081983211002603,0.007292512824590339,0.990816508447897
2012-08-22,1,0.004730421288365819,0.005763333693977187,-0.0031253229470243234,0.007380647959573319,0.9903130716952535
2012-08-24,1,0.006448005692648525,0.007746415246289857,-0.006473684372944389,0.007380647959573319,0.9895761523090271
2012-08-28,1,0.005765594471544823,0.006898621070210725,-0.013405494760997479,0.007380647959573319,0.9865840709367548
2012-08-30,1,0.004678083527833426,0.005593190385392065,-0.010691980686346143,0.007888502909930387,0.9874016522072407
2012-09-04,1,0.0047738414153010444,0.005653257998475738,-0.0120964465666803,0.007033298448044466,0.9866025812166962
2012-09-06,1,0.005228283391328354,0.00611177855734182,-0.01618451523128975,0.003825211624256084,0.9852252492057131
2012-09-10,1,0.0049750721361622695,0.005843493896224322,-0.014591951883276104,0.002417149025504984,0.9852611342675475
2012-09-12,1,0.0044552118250552955,0.005182735064937332,-0.01708597724589922,0.0019367251227135473,0.9834572481273159
2012-09-14,1,0.004967593281241646,0.005756945900044596,-0.01708597724589922,-0.0013632374087665195,0.9825798758194462
2012-09-18,1,0.004960491170984487,0.005788156458900679,-0.01708597724589922,0.0033400338376317366,0.9827984194687261
2012-09-20,1,0.0046855112664544235,0.005443572557789284,-0.01708597724589922,0.005246564409429754,0.983227088074001
2012-09-24,1,0.004751892882949962,0.0055372552857999024,-0.014591951883276104,0.0024602533975553605,0.9842342011168077
2012-09-26,1,0.0021807203687170054,0.002578713390010456,-0.014591951883276104,0.0024602533975553605,0.9861057076879706
2012-09-28,1,0.0017839060340991146,0.0020961543325834944,-0.014591951883276104,-0.0007959296357098707,0.9864576091581535
2012-10-02,1,0.0005701214104995268,0.0006349820448263675,-0.015999954633941826,-0.00016041944511053152,0.9840163527408283
2012-10-04,0,0.0,0.0,-0.013232918793359678,0.005438027532696309,0.9853666345736389
2012-10-08,0,0.0,0.0,-0.01325105758557023,0.006451713234106204,0.9851966218670166
2012-10-10,0,0.0,0.0,-0.01325105758557023,0.006451713234106204,0.9863483456500912
2012-10-12,0,0.0,0.0,-0.015927025525575747,0.006451713234106204,0.9851682700492481
2012-10-16,0,0.0,0.0,-0.015927025525575747,0.006451713234106204,0.9802841699863728
2012-10-18,0,0.0,0.0,-0.015927025525575747,0.006451713234106204,0.9799928521728624
2012-10-22,-1,-0.003114369781454753,-0.0026401021703835034,-0.015927025525575747,0.006451713234106204,0.9805788029115886
2012-10-24,-1,-0.004766572805189014,-0.004106397418955909,-0.01325105758557023,0.011693702639295875,0.981342853164058
2012-10-26,-1,-0.0035759431364532227,-0.0031643797625539646,-0.01325105758557023,0.011693702639295875,0.981332354884202
2012-11-01,0,0.0,0.0,-0.010001139465117527,0.010634215193625824,0.9843865026299558
2012-11-05,0,0.0,0.0,-0.006265470248692085,0.014315697321064004,0.9846337857658233
2012-11-07,-1,-0.0036680208150528066,-0.0031741410340662022,-0.005253408520096099,0.017641073551998038,0.9836173641651251
2012-11-09,-1,-0.003651280452690927,-0.0031892727232003247,-0.003406951507479011,0.017641073551998038,0.9830860541740007
2012-11-13,-1,-0.004528752421938145,-0.003969585715455895,-0.0018958815904805623,0.017641073551998038,0.9828230582270362
2012-11-15,-1,-0.001506465068359736,-0.001279139883641311,-0.003406951507479011,0.014043342749201593,0.9904810555637485
2012-11-19,0,0.0,0.0,-0.003406951507479011,0.014043342749201593,0.989881571319196
2012-11-21,0,0.0,0.0,-0.0018958815904805623,0.014043342749201593,0.9901676187342584
2012-11-26,-1,-0.00010861503466191115,-5.627906645921276e-05,-0.0039942484365880935,0.009645658393564335,0.9911109359343391
2012-11-28,1,0.00015453166621916552,0.00015906035914289136,-0.004671437664097049,0.009645658393564335,0.9908424787443925
2012-11-30,-1,-0.0008719695921571513,-0.0006595634720357579,-0.004917253299660349,0.009645658393564335,0.9900531018715899
2012-12-04,-1,-0.0010362209297661064,-0.0007783060550271088,-0.004917253299660349,0.010128600083456587,0.9895972655478382
2012-12-06,0,0.0,0.0,-0.006485594908514812,0.00640464535730061,0.9894537689573483
2012-12-10,0,0.0,0.0,-0.0077341517261636,0.0025344575605950577,0.9888908851078073
2012-12-12,1,0.0005771544748651023,0.0006352787437307314,-0.0070807788470252245,0.005949380848396404,0.988730766413919
2012-12-14,1,8.5506604071985e-05,0.00011824622407332641,-0.0070807788470252245,0.0066948025957875145,0.9886516959799635
2012-12-18,1,0.0015260194856993453,0.0017224913388975056,-0.0070807788470252245,0.007063619976155344,0.9890020367138606
2012-12-20,0,0.0,0.0,-0.005172771299195649,0.008543754097249083,0.988725375162363
2012-12-24,0,0.0,0.0,-0.004018905164936953,0.014321170505903088,0.988103662835998
2012-12-27,-1,-0.0001172146314714236,-7.500554946320831e-05,-0.003340928420017679,0.019313604015653973,0.987266397979601
2012-12-31,1,0.0003628613769718021,0.0004997190106349614,-0.003340928420017679,0.017525889375064052,0.9879450042248259
2013-01-03,1,0.0033480628294746215,0.003941283372605913,-0.004624175021243237,0.013630288599830426,0.9890142952294337
2013-01-07,1,0.0016395640088388147,0.0019441614630434998,-0.004624175021243237,0.013630288599830426,0.9888306842571555
2013-01-09,1,0.00015039114237088544,0.00018975972152033847,-0.002306847289941145,0.013630288599830426,0.9888493079892607
2013-01-11,1,0.0014074960385847327,0.0016989455484829516,-0.00512066720703596,0.00943467783655835,0.9898482317885962
2013-01-15,1,0.0016949961758556517,0.002028040150059221,-0.00512066720703596,0.011812624495630768,0.9899070542249765
2013-01-17,1,0.002706303034127588,0.003185350689952752,-0.00512066720703596,0.011812624495630768,0.9904639795250285
2013-01-22,1,0.0035180100894942595,0.004211210753579593,-0.011274168968000327,0.00920069918048902,0.9896729392316351
2013-01-24,1,0.004031784983273308,0.004775913720426501,-0.01297167822437036,0.0073103459068662195,0.9887557193504889
2013-01-28,1,0.004262969460544212,0.004991643274833408,-0.014891566480915611,0.006426382247690898,0.9880387687810884
2013-01-30,1,0.004512312654181718,0.005286282369258445,-0.015354444752041915,0.006426382247690898,0.9876519536765526
2013-02-01,1,0.005493038189835701,0.0064987448870805365,-0.015354444752041915,0.005570706179251004,0.9873774191060934
2013-02-05,1,0.00526635803652209,0.006220652676138479,-0.0119896095018879,0.007584932596470147,0.9879093684105231
2013-02-07,1,0.005390667624775223,0.006373355798486054,-0.0106801536342229,0.007584932596470147,0.9879443434425699
2013-02-11,1,0.00561098771766569,0.006640074238569721,-0.012236940848671312,0.011686326608303522,0.987133757192949
2013-02-13,1,0.005800100993116879,0.006855267822345901,-0.012236940848671312,0.010021932189384238,0.9873777550772821
2013-02-15,1,0.006304278832907429,0.007427258429980521,-0.01404969684232245,0.007030134456830385,0.9867957011486138
2013-02-20,1,0.004749503654961251,0.0056400980302143645,-0.01120809889807427,0.007030134456830385,0.9888169744439185
2013-02-22,1,0.004011851398521705,0.004545241982912571,-0.01073473767247933,0.007030134456830385,0.9895452965382965
2013-02-26,1,0.004417018700638934,0.005056978238891318,-0.010477488542232202,0.006758142225514532,0.9901398103452463
2013-02-28,1,0.0021184825847503524,0.002519592629752097,-0.00846992325052521,0.009946634193487486,0.9912931097953283
2013-03-04,-1,-0.00040615964885415233,-0.0002926982301657048,-0.007061767521945795,0.011783474926839514,0.9905812002820086
2013-03-06,0,0.0,0.0,-0.0075733362497342645,0.006758142225514532,0.9913978897615815
2013-03-08,0,0.0,0.0,-0.008228484862752333,0.006758142225514532,0.9909710011252728
2013-03-12,0,0.0,0.0,-0.008228484862752333,0.006186609745309058,0.991470969082607
2013-03-14,0,0.0,0.0,-0.008228484862752333,0.006186609745309058,0.9890698827581728
2013-03-18,0,0.0,0.0,-0.008228484862752333,0.008232036752871062,0.9872529867446513
2013-03-20,1,0.0010611389678028996,0.0013738027536952429,-0.01236954978446715,0.008232036752871062,0.9848882308022305
2013-03-22,-1,-0.0021823408263984302,-0.0016934910619142447,-0.016194045866786803,0.012193588737217952,0.9834827340983174
2013-03-26,0,0.0,0.0,-0.016194045866786803,0.014934955931505758,0.9824285967558758
2013-03-28,0,0.0,0.0,-0.016194045866786803,0.010002580334608487,0.9835011073817602
2013-04-02,-1,-0.001700246721703351,-0.001253859452988285,-0.016194045866786803,0.007911426223279665,0.984079903977644
2013-04-04,-1,-0.002205572474440869,-0.0016775143666219114,-0.017512847979829004,0.007911426223279665,0.9834707018433749
2013-04-08,0,0.0,0.0,-0.01721861788896347,0.018760576565489618,0.981311804867979
2013-04-10,0,0.0,0.0,-0.01245952091557359,0.018760576565489618,0.9819808226799108
2013-04-12,0,0.0,0.0,-0.01245952091557359,0.013042524597697168,0.9843805267146635
2013-04-16,0,0.0,0.0,-0.008879882910229344,0.010758021995407803,0.9863921258550322
2013-04-18,0,0.0,0.0,-0.003981132983154551,0.013449443055293105,0.9855837922170693
2013-04-22,-1,-0.001153273228032403,-0.0008379371317957366,-0.008296816594902456,0.011890523029765027,0.9869290542821508
2013-04-24,1,0.00013976215170245353,0.0003682094050995778,-0.008879882910229344,0.011890523029765027,0.9865972048673418
2013-04-26,0,0.0,0.0,-0.010827846659883572,0.011890523029765027,0.9855453547699679
2013-04-30,0,0.0,0.0,-0.010827846659883572,0.013449443055293105,0.9848340587733871
2013-05-02,1,0.0005215772183264642,0.0005432618000663573,-0.010827846659883572,0.013449443055293105,0.9853120135065712
2013-05-06,1,0.0008047721512012774,0.0008533215383407953,-0.010827846659883572,0.00870483484631017,0.98695088721173
2013-05-08,0,0.0,0.0,-0.010827846659883572,0.008969260138553991,0.9870155956385991
2013-05-10,0,0.0,0.0,-0.010827846659883572,0.008423523861122766,0.9870262311758372
2013-05-14,0,0.0,0.0,-0.010827846659883572,0.008423523861122766,0.9872702903900042
2013-05-16,0,0.0,0.0,-0.012102546976510968,0.005279915853779003,0.9900544781281004
2013-05-20,0,0.0,0.0,-0.009589272917495404,0.008423523861122766,0.9897782725878093
2013-05-22,0,0.0,0.0,-0.010421886441645593,0.007776293711194928,0.9900333301763173
2013-05-24,0,0.0,0.0,-0.009576115944372117,0.007776293711194928,0.9899470064409662
2013-05-29,0,0.0,0.0,-0.009576115944372117,0.007776293711194928,0.9910792857997643
2013-05-31,1,0.002700499924941007,0.002963702027826617,-0.00898087280295886,0.005368057617860277,0.9921000969374671
2013-06-04,1,0.0021880394724951248,0.0023439677587957708,-0.005775124006114682,0.008423523861122766,0.9921392901249816
2013-06-06,1,0.0025792185627991795,0.002828692025937523,-0.005775124006114682,0.009715676525055486,0.9919918634118557
2013-06-10,1,0.00276534703037855,0.0030419761203957984,-0.0068615401984512235,0.005877081458877167,0.9919189551082257
2013-06-12,1,0.0027849221026261138,0.003084965751829171,-0.0068615401984512235,0.007956053911622091,0.9918511593873401
2013-06-14,1,0.002571753361559935,0.0028574524354947036,-0.005103980393504343,0.010583217524309376,0.9916483635267715
2013-06-18,1,0.003614439584550935,0.004054585717835588,-0.005103980393504343,0.007956053911622091,0.9925981447400352
2013-06-20,1,0.002956639678338397,0.0033144712606090663,0.00020473133379248718,0.010417759602931771,0.9937006359247679
2013-06-24,1,0.002653128672230884,0.0029918159010149433,0.00020473133379248718,0.010417759602931771,0.9943503801316717
2013-06-26,1,0.0025344620242111135,0.0028321184423169294,0.00020473133379248718,0.009407456055397622,0.9942399840378384
2013-06-28,1,0.0023563549215403256,0.002621232744035012,-0.0008635366388663042,0.009407456055397622,0.993536219243602
2013-07-02,1,0.002361537718880249,0.0026024779680013325,-0.0008635366388663042,0.008605560500466507,0.9938383151905318
2013-07-05,1,0.0023714049935365947,0.002603040631812479,-0.0020508774107452672,0.008594325371175812,0.9936831526973596
2013-07-09,1,0.002266611273958066,0.0025123169126611,-0.001987042908413932,0.008766114013113214,0.9934258605561747
2013-07-11,1,0.0025399117530312204,0.002845980157046953,-0.001987042908413932,0.009267169405255543,0.9928773157948023
2013-07-15,1,0.0023436103406994017,0.0025512949666678234,-0.001987042908413932,0.008766114013113214,0.9937396375867726
2013-07-17,1,0.002127372403183695,0.0022743327014110564,-0.004382459834813134,0.008594325371175812,0.993849507880115
2013-07-19,1,0.0018156817693228359,0.001909893247435325,-0.004841228858683107,0.005490182075508104,0.9941030400347951
2013-07-23,1,0.0013029641909442675,0.0013120726707449345,-0.004841228858683107,0.005490182075508104,0.9941112397204377
2013-07-25,1,0.0014817470914520055,0.0015043113161680695,-0.005183194995549121,0.004899341182137142,0.9941284233747815
2013-07-29,1,0.0011390116808017935,0.0011452209694888778,-0.004496448547101807,0.004899341182137142,0.9948358597173056
2013-07-31,1,0.0009061847256604334,0.0009507343300725678,-0.005183194995549121,0.00423840682423636,0.9944877347488774
2013-08-02,1,0.000694988935446967,0.0007726410466741441,-0.004496448547101807,0.0040593985900951104,0.9949690936961095
2013-08-06,1,0.0009339343743640728,0.0009656517711710373,-0.0037640334691108846,0.0042822707900931935,0.9951300126132175
2013-08-08,1,0.001118698657455482,0.0011532575686262294,-0.0037640334691108846,0.00334263386265801,0.9960241958179572
2013-08-12,1,0.0006839496828410729,0.0007699562500961759,-0.0037640334691108846,0.0045719471669899096,0.9952379749073592
2013-08-14,1,0.0003684242110034739,0.0005145269345860113,-0.0026234015315905706,0.006168616139616841,0.9949668950462782
2013-08-16,1,0.00014062859243504054,0.0003240897018302846,-0.0026234015315905706,0.006168616139616841,0.9951103436766139
2013-08-20,1,9.473077644784516e-05,0.0002536716945537617,-0.0010839933172571183,0.006334951138569919,0.9951412583569459
2013-08-22,1,0.00012238108878347327,0.0002744038974607529,-0.0010839933172571183,0.006334951138569919,0.994108962968103
2013-08-26,1,0.000270189907032076,0.000418712743204404,-0.0010839933172571183,0.006334951138569919,0.9939339292347542
2013-08-28,-1,-0.0007878737835388667,-0.0004886751039251176,0.00035255128120417344,0.006930761057035554,0.9933956021127375
2013-08-30,-1,-0.0009959162878549058,-0.0006579202483880921,-0.0001700374228766283,0.006930761057035554,0.9929159312090254
2013-09-04,1,0.0006770397594745702,0.0007009593438708653,-0.0038431342696455973,0.0075556286924325505,0.9933635042707757
2013-09-06,1,0.0005737850984441576,0.0006178225220408653,-0.0049150960852288785,0.0075556286924325505,0.9924269303733624
2013-09-10,-1,-0.0006488489844802693,-0.00036063612648443697,-0.006900609460011007,0.005349183434524047,0.9925896882966755
2013-09-12,1,0.00021550550285214594,0.00033826011123573243,-0.006900609460011007,0.0041755966502769306,0.992683476595074
2013-09-16,-1,-0.00044112777297997694,-0.000238005776413845,-0.006900609460011007,0.0041755966502769306,0.9928831304123699
2013-09-18,-1,-0.0002646112846270915,-7.881596176588024e-05,-0.008406126866349516,0.00389620740916937,0.9918704911069907
2013-09-20,-1,-0.0009478375585909504,-0.000691416057058683,-0.006900609460011007,0.0041755966502769306,0.9924336095875885
2013-09-24,-1,-0.0011618684779475335,-0.0008271922800075138,-0.006900609460011007,0.004677577281370841,0.9915312187314722
2013-09-26,-1,-0.0005969453605104141,-0.0003859608725891744,-0.009398150281431115,0.004677577281370841,0.9897969046204986
2013-09-30,-1,-0.0007536655191128268,-0.0005170697478021111,-0.006900609460011007,0.005181304320885411,0.9899359970273399
2013-10-02,-1,-0.0009746779199404745,-0.000714481637841446,-0.010528522416857396,0.004677577281370841,0.9895345767519567
2013-10-04,-1,-0.0014660968116150235,-0.0011210216315371904,-0.006900609460011007,0.005181304320885411,0.9900103384106546
2013-10-08,1,0.00015113100961625345,0.00017851126086659526,-0.007282247948539487,0.005181304320885411,0.9898339553487008
2013-10-10,-1,-0.0005508375060159368,-0.00042207678966246537,-0.007282247948539487,0.0067557247603648625,0.9891554578493744
2013-10-14,-1,-0.0008090695574104918,-0.0005889920267311892,-0.007282247948539487,0.006980221034554212,0.9887854536811588
2013-10-16,-1,-0.0017952395451307,-0.0014687170020368273,-0.0038602190971324998,0.008333437489418755,0.9881317988775579
2013-10-18,-1,-0.0006854977412711978,-0.0005426350600663178,-0.005544544979812675,0.008333437489418755,0.9889237861654557
2013-10-22,-1,-0.001757252428957498,-0.0014770611452447316,-0.005544544979812675,0.008333437489418755,0.9891351244148998
2013-10-24,-1,-0.002410366824884322,-0.002051269488146477,-0.005412749304600473,0.008333437489418755,0.9909525397257897
2013-10-28,-1,-0.0020821973989695675,-0.0017681264054501581,-0.005412749304600473,0.008333437489418755,0.9910593620226902
2013-10-30,-1,-0.0029110026669766933,-0.0025135488372287924,-0.003643870189613741,0.008507683420801486,0.9911572390965532
2013-11-01,-1,-0.002415806493670918,-0.002068302214385761,-0.005412749304600473,0.008338209168904868,0.991579966225112
2013-11-05,-1,-0.0029043456874582405,-0.0024802528305966874,-0.0026207733670678885,0.008338209168904868,0.9917187961339173
2013-11-07,-1,-0.0003780537730404298,-0.0003134733221854861,-0.0026207733670678885,0.008338209168904868,0.9926488256246089
2013-11-11,-1,-0.0012475907860663702,-0.0010194359530178866,-0.005412749304600473,0.0067114747659477066,0.9925108114857548
2013-11-13,-1,-0.0009556087746569233,-0.0007544224135262939,-0.006130810164559443,0.003610966028857586,0.9922716546623205
2013-11-15,-1,-0.0010384773673292665,-0.0008033922612276516,-0.006130810164559443,0.00443156677057467,0.9923368879784995
2013-11-19,-1,-0.0018371727684364527,-0.0015069431404090513,-0.005764958266291625,0.00443156677057467,0.9930581775404986
2013-11-21,-1,-0.0015430065564591726,-0.0012675725871423025,-0.004283317978630481,0.005182909072782638,0.9924830096681905
2013-11-25,-1,-0.0014121936842084023,-0.001200804224881033,-0.004283317978630481,0.00443156677057467,0.9929313722294476
2013-11-27,-1,-0.0012062146472288375,-0.000975912698120242,-0.004283317978630481,0.00443156677057467,0.9930757664299651
2013-12-02,-1,-0.0011920603501968524,-0.0009988041308092474,-0.002960273508993102,0.005269883540855138,0.9927266744453214
2013-12-04,-1,-0.000773703775453912,-0.0006384466888112266,-0.002960273508993102,0.005269883540855138,0.9921606391674811
2013-12-06,-1,-0.0003103436564249757,-0.00025358326789720793,-0.003883962998337901,0.005269883540855138,0.9922356249668414
2013-12-10,-1,-9.847693654243884e-05,-8.76006014717297e-05,-0.003883962998337901,0.005860248510050549,0.992060558497279
2013-12-12,-1,-0.0016683485024552936,-0.0014773409582418428,-0.003883962998337901,0.005860248510050549,0.9932263065409396
2013-12-16,-1,-0.00048101782878356747,-0.00043198599308799337,-0.003883962998337901,0.007578433352143239,0.9890212771862033
2013-12-18,-1,-0.0011696172039098933,-0.0010075835365296764,-0.004668922304582068,0.010341881156812747,0.98766335465419
2013-12-20,-1,-0.0007998169727368532,-0.000693174708013909,-0.004668922304582068,0.010341881156812747,0.9874255354717185
2013-12-24,-1,-0.0007369953166972061,-0.0006404466185097758,-0.005686631208771538,0.010341881156812747,0.9851252492024571
2013-12-27,-1,-0.0002557986443520006,-0.0002265419483862483,-0.0059872743258837045,0.009828678301551277,0.985379043701215
2013-12-31,1,0.00036442787031743846,0.0004603738210171904,-0.007602139025511117,0.009828678301551277,0.984441942770706
2014-01-03,-1,-0.00022934563317437263,-0.0002267319769937243,-0.009521565049456901,0.009828678301551277,0.9839941054191987
2014-01-07,1,0.00027985126681113174,0.00035212663417525465,-0.010455380371521559,0.00891280973855134,0.9842594675953195
2014-01-09,-1,-3.9714669898891316e-05,-7.88875301310157e-06,-0.010232786624002971,0.009828678301551277,0.9835296446189383
2014-01-13,-1,-0.0009459642602486964,-0.0008520910013808374,-0.0066270830005323,0.010967473145074909,0.9834566155044632
2014-01-15,1,0.002654544127706644,0.003031178954548584,-0.014077848079477519,0.009169662417584424,0.9856191704951353
2014-01-17,1,0.0028403441387808283,0.0032533434035527976,-0.014077848079477519,0.00891280973855134,0.9863866156960803
2014-01-22,1,0.0027567574774638335,0.003120916127291263,-0.014077848079477519,0.005061435089356936,0.9863019529980572
2014-01-24,1,0.0013109686123792931,0.0014856360950080893,-0.010232786624002971,0.004114679473940615,0.9885062978507965
2014-01-28,1,0.0017605544655296516,0.002015333012102454,-0.010232786624002971,0.005982064197438627,0.9880161636382042
2014-01-30,1,0.0014412451379152654,0.0016592618576223663,-0.009296098490078487,0.005870584751865374,0.9889278026941449
2014-02-03,1,0.0006652288060661824,0.0008143194769129065,-0.008084805573452578,0.005870584751865374,0.9900015772900619
2014-02-05,1,0.0010220028437284907,0.001241154937647121,-0.008778789601833228,0.005870584751865374,0.9892776388194864
2014-02-07,1,0.0019821736163190898,0.0023143208933394917,-0.009217820017354328,0.002923833237348467,0.9886203733502965
2014-02-11,1,0.0025519320124299935,0.002985775007047744,-0.009380717518253274,-0.0011049520256497815,0.9880360379741097
2014-02-13,1,0.0007109060164742979,0.0008564155884248619,-0.009380717518253274,-0.0011049520256497815,0.9902480225103729
2014-02-18,1,0.0003047949067044567,0.00040657601087468165,-0.009352861926708745,0.004470606954519162,0.9899039043201361
2014-02-20,1,2.422427495266097e-05,9.544290172378478e-05,-0.009808675954008538,0.004470606954519162,0.9900187613310306
2014-02-24,1,0.00010609704131149319,0.00017506153563611585,-0.011377203452125692,0.005327384586814766,0.98809860990999
2014-02-26,1,0.00019379785364062122,0.0002705415764329962,-0.012057787255999588,0.005327384586814766,0.9876966525397888
2014-02-28,1,8.192748071533047e-05,0.00012948338832669462,-0.012759190459122195,0.002742766515664931,0.9876800281649607
2014-03-04,-1,-0.0004981118229311319,-0.000444145029893313,-0.012759190459122195,0.007209204563834646,0.9870402359920957
2014-03-06,-1,-0.0012133212331299683,-0.0010847464124044658,-0.011018420216623984,0.011698637832882934,0.9876647858006207
2014-03-10,-1,-0.0015168213028567616,-0.0013646036761647865,-0.011018420216623984,0.011698637832882934,0.9874819549368733
2014-03-12,-1,-0.0018754586959021484,-0.001631562433377541,-0.011018420216623984,0.014965933497018389,0.9865587670558171
2014-03-14,-1,-0.002528920585150422,-0.0022561380714659664,-0.011018420216623984,0.014965933497018389,0.9859449189459772
2014-03-18,-1,-0.002028282065638787,-0.001781272591943708,-0.011018420216623984,0.014965933497018389,0.9858080609707716
2014-03-20,-1,-0.0027329327741729883,-0.002367568478619923,-0.01201432848494129,0.014965933497018389,0.9850320010434105
2014-03-24,-1,-0.002908689103503074,-0.0025384977388818054,-0.011018420216623984,0.01395865704408878,0.9869895771473876
2014-03-26,-1,-0.0034625681406471615,-0.002984308788208198,-0.01058729711001199,0.007973650163271145,0.9878784469286169
2014-03-28,-1,-0.003346060282409278,-0.002909671809572513,-0.010881802175206689,0.007973650163271145,0.987268660047102
2014-04-01,-1,-0.002807812902229748,-0.002411433764401229,-0.010881802175206689,0.005925890110357777,0.9879387562971571
2014-04-03,-1,-0.0019875517972093616,-0.0017354241189768721,-0.010881802175206689,0.00538227277967075,0.9886822636476877
2014-04-07,-1,-0.0031708883738492803,-0.0027798230238074762,-0.010881802175206689,0.005925890110357777,0.9885689326541218
2014-04-09,-1,-0.0007708263516631242,-0.0007237530801858209,-0.014024863322411844,0.0047696357140858715,0.9886123576856115
2014-04-11,-1,-0.002312863117816994,-0.002079739092080872,-0.012008821817093143,0.00538227277967075,0.9893169372147003
2014-04-15,-1,-0.0017214422189075719,-0.0015295070883409125,-0.012008821817093143,0.0047696357140858715,0.9888336522015891
2014-04-17,-1,-0.002522842536017399,-0.0022384918123715992,-0.009578690084829682,0.0047696357140858715,0.9885279336375574
2014-04-22,-1,-0.0021195703880372485,-0.001888225192580903,-0.011788054129604023,0.0058718824344049965,0.9877099778316124
2014-04-24,-1,-0.0024094414180637373,-0.002166907712843651,-0.011788054129604023,0.008916564618197925,0.98468661266232
2014-04-28,-1,-0.0025527467818606355,-0.0022929046251407817,-0.010202070854414429,0.011733500932937508,0.9840056586282546
2014-04-30,-1,-0.0021218424596543065,-0.001910720124863354,-0.010202070854414429,0.011733500932937508,0.9841653658222601
2014-05-02,-1,-0.0020223427524295604,-0.0018327607778719167,-0.010202070854414429,0.01410883969664717,0.9834844448429476
2014-05-06,-1,-0.0024572151654192478,-0.0022250425497312284,-0.010202070854414429,0.01410883969664717,0.9835628961399798
2014-05-08,-1,-0.003688083183580039,-0.0032490429291831876,-0.009243038568048013,0.01410883969664717,0.9851866073670672
2014-05-12,-1,-0.0036500733835119117,-0.0032395698202453086,-0.008276261567800949,0.01410883969664717,0.9861473055326718
2014-05-14,-1,-0.00269953565860144,-0.0024032136939377627,-0.009243038568048013,0.0076772011319599705,0.9876771106059725
2014-05-16,-1,-0.0033854143628790807,-0.0030219190982317843,-0.008276261567800949,0.0076772011319599705,0.9886171139180269
2014-05-20,-1,-0.002799080917866188,-0.0025080324752749317,-0.004902918626561608,0.0076772011319599705,0.9887041594875255
2014-05-22,-1,-0.0003146233171650362,-0.00029716642555823375,-0.008276261567800949,0.004169257720406132,0.9915105859317099
2014-05-27,0,-3.733936522590646e-05,2.883949899056546e-05,-0.006942776050289316,0.004169257720406132,0.9928650390858395
2014-05-29,-1,-0.00019262083648859167,-0.00017413350388596703,-0.006942776050289316,0.0025125200609060075,0.9929984639793245
2014-06-02,1,0.0007102828580881229,0.0008729139665643358,-0.008117672501187227,0.0025125200609060075,0.9918132725027446
2014-06-04,-1,-0.00064326505247224,-0.0006077164399706309,-0.006228558040996102,0.0034328918748672207,0.9926473822153797
2014-06-06,-1,-0.0013900179850067794,-0.0012384005446250648,-0.006228558040996102,0.004417834449334729,0.9913444401138086
2014-06-10,1,0.0010469118931908314,0.0014132518319143418,-0.007031735666491253,0.004417834449334729,0.9910524370459197
2014-06-12,1,0.0009763355588899257,0.0013332438536754502,-0.006545781908268632,0.008364307949634803,0.9909814363187833
2014-06-16,1,0.001357902857371356,0.0017772392015856428,-0.007031735666491253,0.009528053086742564,0.9897705651983073
2014-06-18,1,0.001350285572810047,0.0016835768299026605,-0.007031735666491253,0.0070825228192578915,0.9902215456685606
2014-06-20,1,0.0008199340874084432,0.0011024756401704341,-0.006216886308622094,0.0070825228192578915,0.9907767413863177
2014-06-24,1,0.0012793873724853554,0.0016179372498273724,-0.006216886308622094,0.009528053086742564,0.9902038206913784
2014-06-26,1,0.0005727785530116687,0.0007768200078701229,-0.005294054251456617,0.009528053086742564,0.9902354734513706
2014-06-30,1,0.0012786368799295547,0.0015897611611526922,-0.0010233864195532995,0.008938426099585605,0.991858140426209
2014-07-02,1,0.002319960060737091,0.002824384762428808,-0.005294054251456617,0.008938426099585605,0.9917975543070934
2014-07-07,1,0.0020700250588222514,0.0025410933252354613,-0.005294054251456617,0.006557426691389119,0.992816237765516
2014-07-09,1,0.0014242308311739316,0.0017508578038584939,-0.00044819587652387564,0.006557426691389119,0.9934163587260126
2014-07-11,1,0.0018350787622884717,0.002191043613926146,-0.0031551306475556765,0.006557426691389119,0.9930529687376938
2014-07-15,1,0.0014523495324722767,0.0017426271885266716,-0.001217189620416386,0.006547139797324749,0.9938993872744931
2014-07-17,1,0.0015014137340297275,0.001806881717735447,1.2135756387603083e-07,0.008907565417392495,0.9918688523674584
2014-07-21,1,0.0016780037358782702,0.002020719214469557,-0.001217189620416386,0.008907565417392495,0.9918049383746453
2014-07-23,1,0.002196546171505673,0.002611241508841044,-0.0034460769129615277,0.006332495730336451,0.9922100212131431
2014-07-25,1,0.0021578475610434036,0.0025519547369589396,-0.0034460769129615277,0.006332495730336451,0.9922361393394772
2014-07-29,1,0.001976457347348387,0.0023122467948537275,-0.0034460769129615277,0.0056149733697804585,0.9924658970113767
2014-07-31,1,0.0018998892415261121,0.0021861572746235992,-0.0015603447454622175,0.0056149733697804585,0.9930192980702149
2014-08-04,1,0.0018347033018889921,0.002124550223640955,-0.0015603447454622175,0.004871551798701646,0.9933435861870012
2014-08-06,1,0.001348165821933467,0.0015136597762970747,-0.0016269283407672804,0.004871551798701646,0.9932393154570147
2014-08-08,1,0.0018718230774981137,0.0021466612842342145,-0.0011935214370942515,0.004871551798701646,0.9940552235034428
2014-08-12,1,0.0016937610306038972,0.00193156339311162,-0.0016269283407672804,0.0041949326320373514,0.9942159526667794
2014-08-14,1,0.0034991178436955535,0.003953039098253007,-0.0016269283407672804,0.0041949326320373514,0.9961713049168023
2014-08-18,1,0.002760438106635941,0.0031184341703255417,-0.0011935214370942515,0.004871551798701646,0.9966408323338505
2014-08-20,1,0.0026035990253472662,0.002927894447043973,0.0002336303152906305,0.005977445980444432,0.9968379191246288
2014-08-22,1,0.002919909584415313,0.0033235087405987006,-0.0002961338435502334,0.005977445980444432,0.9963494281262494
2014-08-26,1,0.0031990996925172275,0.0036348301551853905,-0.0002961338435502334,0.007168037782878028,0.9962063977621013
2014-08-28,1,0.0028152320395444614,0.0031316904978369374,-0.0015999701520873263,0.004825948909497688,0.9949382888883789
2014-09-02,1,0.0033351217488106167,0.003797066808063316,-0.0002961338435502334,0.007168037782878028,0.9945552183918022
2014-09-04,1,0.0024233503208376016,0.0026811677889280886,-0.0002961338435502334,0.007168037782878028,0.9930974423696395
2014-09-08,1,0.0029284064476349323,0.0032917556625352284,-0.0007115686214366262,0.006601404602877477,0.9924795903039948
2014-09-10,1,0.002383361855123321,0.0026233405687269527,-0.002304156174052149,0.007296194460608271,0.9910152042117831
2014-09-12,1,0.0026379126910389427,0.002919144807194156,-0.014626778412242409,0.006601404602877477,0.9894055509489451
2014-09-16,1,0.002554522496090912,0.0027881165589112495,-0.01665743569687273,0.006601404602877477,0.9884625743719571
2014-09-18,1,0.0025393908455524725,0.002753997047263753,-0.01665743569687273,0.006601404602877477,0.987896345387699
2014-09-22,1,0.002069318248944958,0.002247277988984703,-0.01665743569687273,0.007214995991533793,0.987801494522836
2014-09-24,1,0.0020254228681848008,0.002184139058667738,-0.01665743569687273,0.008529849636797367,0.9868742516518513
2014-09-26,1,0.0010020694330864612,0.0010194693036823291,-0.014626778412242409,0.01005389358724074,0.9871513629215652
2014-09-30,1,0.0008174684523549573,0.000895701847769053,-0.014626778412242409,0.01005389358724074,0.9866333164587775
2014-10-02,-1,-0.0003812521744089173,-0.00014181554564194222,-0.011411292907337823,0.0105507772060347,0.9875132546654912
2014-10-06,-1,-0.00040826847857048005,-0.00020226850726366176,-0.00805062996027085,0.012237376556932272,0.9872567668400676
2014-10-08,-1,-0.001352714247621787,-0.0009893898991625177,-0.0049343623136355996,0.012237376556932272,0.9887291918172917
2014-10-10,-1,-0.0023626046422420993,-0.0018991007988556714,-0.003212380705836049,0.012237376556932272,0.9889476652574156
2014-10-14,-1,-0.0010607669058358689,-0.0008632895775359173,-0.0030551667068970468,0.012237376556932272,0.9902303945367138
2014-10-16,-1,-0.0009466020084703347,-0.0007719548952457595,-0.0030551667068970468,0.012237376556932272,0.9896643532570834
2014-10-20,-1,-0.0007384379006221116,-0.0005987521523836694,-0.0015935474968490609,0.01619926887807716,0.9891404187035687
2014-10-22,1,0.00023170443197393707,0.0002386381628276591,-0.0030551667068970468,0.011850701881298085,0.9901329823926047
2014-10-24,1,0.0003502297503354118,0.00039113565639473905,-0.0030551667068970468,0.007063290786657487,0.9908679221578219
2014-10-28,1,0.0001222141251017477,0.00021395984729702204,-0.0021551723875596228,0.008004386543906719,0.9913760423024495
2014-10-30,1,0.0005738888171608577,0.0006046995597994767,-0.00352119848701155,0.006622120608567873,0.9917315216899472
2014-11-03,1,0.0005622000050796499,0.0006148051894074874,-0.004672321977462846,0.0031812391007446355,0.9920951713469358
2014-11-05,1,0.000567877322599503,0.0006135076272668278,-0.004672321977462846,0.004498619251418665,0.9909313343839443
2014-11-07,1,0.00017218220220978494,0.00023720306816762865,-0.004672321977462846,0.004498619251418665,0.9909550708060192
2014-11-11,-1,-0.00030334214854507333,-0.00013588150420158898,-0.008243569863194536,0.004498619251418665,0.9902111160983222
2014-11-13,-1,-0.0005234831229716022,-0.00035450386913481424,-0.008243569863194536,0.007262000822743919,0.9895683249843923
2014-11-17,-1,-0.00038925568386264536,-0.00021611022424551266,-0.008243569863194536,0.0043982140703942695,0.9909780609623691
2014-11-19,-1,-0.0005299432035611475,-0.0003528532451151421,-0.004839892908931422,0.007262000822743919,0.9888766720193173
2014-11-21,0,-9.299114842807555e-05,1.1779276946898584e-05,-0.004839892908931422,0.005652712810000352,0.9892922880888378
2014-11-25,1,0.0002925999196368777,0.0003670010995847983,-0.004839892908931422,0.0038378086454188536,0.9899997039375489
2014-11-28,-1,-0.0005857087791554845,-0.00038344155072720374,-0.007845280273808784,0.0038378086454188536,0.9897117542214425
2014-12-02,-1,-0.0003844074372946153,-0.00023733954012764594,-0.007115182870349163,0.0038378086454188536,0.9898033937409177
2014-12-04,0,-1.608746392396421e-05,0.00010626374964519466,-0.01097063772228254,0.002452772043840186,0.9895700094345196
2014-12-08,-1,-0.0007238495651703465,-0.0005064694051801976,-0.009301719671643258,0.0013424677363721644,0.9902347849593763
2014-12-10,-1,-0.0011527339504289478,-0.0008958099330323645,-0.00680224265462261,0.003079604287548437,0.9900976976564427
2014-12-12,-1,-0.0017198228813236093,-0.001419685295686572,-0.009301719671643258,0.0013724121591144635,0.9906524247093136
2014-12-16,-1,-0.0015256978558191043,-0.001247063958467058,-0.010966147485378063,0.0013724121591144635,0.9897928309466114
2014-12-18,1,0.00021772798925024612,0.0002802745170773964,-0.010966147485378063,0.00043286892734484793,0.9912099592604751
2014-12-22,1,0.00013541723319003367,0.00019723348185452327,-0.010966147485378063,0.00043286892734484793,0.9900077632292813
2014-12-24,-1,-0.00018710224138579495,-7.541556312332137e-05,-0.011582858709528254,0.00043286892734484793,0.9893525569266266
2014-12-29,-1,-0.0008249681043416046,-0.0006397182971062757,-0.011741329836815615,0.00043286892734484793,0.9894255115071792
2014-12-31,-1,-0.001026942397493822,-0.0008258402295620485,-0.011741329836815615,0.0010847561377763468,0.9896365048922847
2015-01-05,-1,-0.002238536376837101,-0.0018963859143347507,-0.010966147485378063,0.0037346922011496017,0.9894881489678456
2015-01-07,-1,-0.001142100836228382,-0.0010116483558414858,-0.010966147485378063,0.0037346922011496017,0.9893348619750364
2015-01-09,-1,-0.0007611687209360541,-0.0006478147283742036,-0.010966147485378063,0.0015022267447133996,0.9903094831833459
2015-01-13,-1,-0.0016856715421740885,-0.0014655072248167106,-0.007288585692411327,0.007873818620375304,0.9906653174554161
2015-01-15,-1,-0.0013757519276680799,-0.0012033080458877963,-0.005965931855521989,0.009896475176746857,0.9862934294750136
2015-01-20,-1,-0.0012078128019397203,-0.0010669008362166367,-0.007288585692411327,0.009896475176746857,0.9863750661098898
2015-01-22,1,8.420804427682148e-05,0.00011220187567541864,-0.007288585692411327,0.008967495415783136,0.987292684549323
2015-01-26,-1,-0.0009071844815915886,-0.0008079217444609548,-0.004212929649428426,0.008967495415783136,0.9875898896631967
2015-01-28,-1,-0.0013459763609726815,-0.0011923677091756734,-0.0012209392124043145,0.008967495415783136,0.988251372788598
2015-01-30,-1,-0.001091058159519685,-0.000978037660240118,-0.0008386899463236456,0.008967495415783136,0.9886598550207722
2015-02-03,-1,-0.00015150004425683132,-0.00014635168685375738,-0.004017047214610527,0.003575531813110791,0.9899259184292882
2015-02-05,-1,-0.0005945572187095833,-0.0005501103833062564,-0.002870299416368521,0.008304913802836796,0.9889697758263211
2015-02-09,-1,-0.00036999531963492446,-0.00035913237671198297,-0.006805653490790342,0.008304913802836796,0.9882055316441505
2015-02-11,1,0.00028585238676824743,0.0003712282839916327,-0.009519514223111338,0.002739221067898297,0.9888359226868852
2015-02-13,-1,-9.035205969395755e-05,-6.425786724067838e-05,-0.009519514223111338,0.002739221067898297,0.9928983669247253
2015-02-18,-1,-0.0005152151081949772,-0.0005015919188312561,-0.00936582854512339,0.006740779642219211,0.992216573460835
2015-02-20,-1,-0.0005299113993554324,-0.00048404863429367184,-0.010379763979268977,0.006740779642219211,0.9911813751012636
2015-02-24,-1,-0.0001750210814294669,-0.000151447079922522,-0.013319505823941983,0.0025429100203323137,0.9897245766319129
2015-02-26,-1,-0.0004668868609672423,-0.00042432879740979224,-0.013319505823941983,0.0015706666163365838,0.9895648716825922
2015-03-02,-1,-0.000562421198826219,-0.0004927415830819398,-0.013319505823941983,0.006706320405751256,0.9886878203264663
2015-03-04,-1,-0.0009169361404988226,-0.0008097933649460116,-0.01274550832153351,0.006706320405751256,0.9893752157414167
2015-03-06,-1,-0.0012007151309609662,-0.001024085369692901,-0.01274550832153351,0.008291490699324998,0.9897431562400041
2015-03-10,-1,-0.0012598807602917142,-0.0010801873074833602,-0.011295178155121039,0.008291490699324998,0.9903884559846653
2015-03-12,-1,-0.0014563980816237724,-0.0012573666345797668,-0.010834121121157192,0.008291490699324998,0.9906415154406409
2015-03-16,-1,-0.0014189081002454942,-0.0012225815874550563,-0.008222449452563646,0.008534709654908186,0.9911398683500909
2015-03-18,-1,-0.0009050314182277003,-0.0007908854199795471,-0.008184299986799875,0.008534709654908186,0.9905308684359052
2015-03-20,-1,-0.0006613904817834853,-0.0005930325777782594,-0.008184299986799875,0.0036901518302497917,0.9915302796733536
2015-03-24,-1,-0.0014732809079136297,-0.0013296787430428915,-0.0055450713215581095,0.00491097450775062,0.9932008389414817
2015-03-26,-1,-0.0009028580862903936,-0.0008413194587771499,-0.0055450713215581095,0.005107246575257247,0.9930496839155643
2015-03-30,-1,-0.0008021430420906932,-0.0007578933953677142,-0.004852933329910578,0.006473254039847177,0.9933367476417527
2015-04-01,-1,-0.0009044208144535874,-0.0008486379736170684,-0.005039893212820017,0.006473254039847177,0.9926928181964082
2015-04-06,-1,-0.0004995211750975873,-0.00046898054688158984,-0.005039893212820017,0.005679346690129788,0.9931889608154133
2015-04-08,-1,-0.0006472423168862332,-0.0006113477919410647,-0.008184299986799875,0.005679346690129788,0.9917536177343721
2015-04-10,-1,-0.0011592673919005245,-0.0010606137475307963,-0.006031775579804897,0.005679346690129788,0.9916367072383067
2015-04-14,-1,-0.0004040407475212661,-0.00039929752123501284,-0.010236624238885168,0.0051807689231535775,0.9914706920758665
2015-04-16,-1,-0.000554667761131823,-0.0005325300826523209,-0.0061949193804641195,0.005679346690129788,0.9915316139760585
2015-04-20,-1,-0.0005792188217491739,-0.0005637436507350206,-0.014596902089417062,0.005679346690129788,0.9905337577044089
2015-04-22,-1,-8.576225942569986e-05,-5.3082066211979995e-06,-0.014596902089417062,0.006473254039847177,0.9900764219278599
2015-04-24,-1,-0.00018693543926020725,-0.000144133382385257,-0.015102421622818536,0.008225503341485835,0.9835075364618011
2015-04-28,-1,-6.083862148122124e-05,-1.4535711675214564e-06,-0.015916897544014232,0.012258889018173864,0.982643840910267
2015-04-30,1,9.210256523442637e-05,0.00019763355307911046,-0.015916897544014232,0.012258889018173864,0.9831122247142491
2015-05-04,1,0.00021579090661641968,0.0003273653967637962,-0.015916897544014232,0.008606662230086874,0.9831051734415519
2015-05-06,-1,-0.0003323192439295487,-0.00030500527407001875,-0.009282456809831956,0.012998341319121903,0.9837238092444108
2015-05-08,-1,-0.0003792008924792547,-0.00037822802398310775,-0.015916897544014232,0.012998341319121903,0.9828850266766276
2015-05-12,-1,-0.0006782688958691335,-0.0006462966081266792,-0.009282456809831956,0.013501778151544038,0.9831704733049977
2015-05-14,1,0.00021256256360782026,0.00033293068316367185,-0.009282456809831956,0.008774474507560918,0.984315714303646
2015-05-18,-1,-0.00010007659363686961,-1.4390759630694369e-05,-0.003734081974044983,0.008774474507560918,0.9857615167858519
2015-05-20,1,0.00014989968789286604,0.00026935926368107057,-0.003734081974044983,0.0069586339737836254,0.9862595859863024
2015-05-22,-1,-0.0006148509479672108,-0.0006089393214500626,-0.0021069263463792958,0.0069586339737836254,0.9920770366940751
2015-05-27,-1,-0.0006651864653960081,-0.0006585491477695945,-0.0021069263463792958,0.005785033544019431,0.9914343002288808
2015-05-29,-1,-0.0007386494571041595,-0.0007057885259354904,-0.006250118326239626,0.004910505372359547,0.9909087791903753
2015-06-02,-1,-0.0007633812416142354,-0.000724475856132321,-0.006674226239507607,0.0046738653072469025,0.990383093011262
2015-06-04,-1,-0.0002617020971292907,-0.0002191474540879486,-0.006674226239507607,0.00429370433406134,0.9913202644159516
2015-06-08,-1,-0.0007057613639861683,-0.0006670398073544251,-0.006041006301682695,0.0046738653072469025,0.991727729418771
2015-06-10,-1,-0.0007009681723140365,-0.0006516141478988259,-0.00834797848420685,0.00429370433406134,0.9905869687932529
2015-06-12,-1,-0.0006398467736029197,-0.0005999729106736738,-0.00834797848420685,0.005267302909018775,0.9901162172736615
2015-06-16,-1,-0.00029629622354464074,-0.0002756377478005213,-0.00834797848420685,0.007164878169558358,0.9898403334283398
2015-06-18,-1,-0.0002792713295382887,-0.00027019360914804294,-0.00834797848420685,0.005576754924580018,0.9899322828671973
2015-06-22,-1,-0.00017928566245649992,-0.0001708224003876779,-0.00834797848420685,0.0030899082017589773,0.9904589965133882
2015-06-24,-1,-0.0006530898003366931,-0.000603329459930669,-0.006859411850247682,0.008042570265012886,0.9919202426861295
2015-06-26,-1,-0.0006060218811606353,-0.0005870579811979664,-0.006859411850247682,0.008042570265012886,0.9921769713434629
2015-06-30,-1,-0.0009398404960675879,-0.0008762452087786947,-0.006367565665656249,0.008042570265012886,0.993022873485853
2015-07-02,-1,-0.0009091696192201047,-0.0008545237740980917,-0.006859411850247682,0.008129233708785728,0.9915829047835866
2015-07-07,-1,-0.0006510797579783623,-0.000648887645165282,-0.008515979890511349,0.008042570265012886,0.9915239021841454
2015-07-09,-1,-0.002005820180429397,-0.0018444720920464223,-0.005978827876579958,0.008129233708785728,0.992588788909088
2015-07-13,-1,-0.0016350893609609362,-0.0015102407458875238,-0.005978827876579958,0.008042570265012886,0.9918440576824397
2015-07-15,-1,-0.0012871471779966727,-0.0012205303041080801,-0.007205457202085263,0.008123504459569612,0.9906226048022895
2015-07-17,-1,-0.001043901040988838,-0.001020699895292135,-0.009577171692069461,0.008123504459569612,0.9900366599690006
2015-07-21,-1,-0.0010420173055143472,-0.001024709512610484,-0.009577171692069461,0.008123504459569612,0.9896759251913391
2015-07-23,-1,-0.0005619578642022933,-0.0005257025815123554,-0.010219579420447461,0.005932028128483008,0.9880451308844169
2015-07-27,-1,-0.0009047589166414154,-0.0008718663029902058,-0.012280418655028002,0.005932028128483008,0.9875948699548537
2015-07-29,-1,-0.0005907469069787398,-0.0005753917079909579,-0.013669635461597069,0.009209018536640818,0.9840102143221924
2015-07-31,-1,-0.0005164582646615406,-0.0004836587767434674,-0.012646282170032396,0.009209018536640818,0.9839074769105693
2015-08-04,-1,-0.0008546433243888027,-0.0008333604009727871,-0.013082612959180132,0.009800672394382507,0.9827417422011506
2015-08-06,-1,-0.0007081656345782197,-0.0006963464529011036,-0.013082612959180132,0.010197881510105436,0.9828557575791317
2015-08-10,-1,-0.00017359468391517797,-0.0001121105233081784,-0.017014054411851505,0.010197881510105436,0.9822318746237306
2015-08-12,-1,-0.0003542127870804849,-0.0003062521546186384,-0.013082612959180132,0.010197881510105436,0.9829544948350254
2015-08-14,-1,-0.0007719807509501899,-0.0007337059388162978,-0.014577801677768435,0.010197881510105436,0.9827603744079458
2015-08-18,-1,-0.001081351928038108,-0.0010034486919120963,-0.014577801677768435,0.014686445091138266,0.9814662082974084
2015-08-20,-1,-0.0007346029499854174,-0.0006955314298227076,-0.015079306926418741,0.010197881510105436,0.9824667080570524
2015-08-24,-1,-0.0012510177214322335,-0.0011521455521559252,-0.015419212548376426,0.010197881510105436,0.9819410715398806
2015-08-26,-1,-0.00045449686057095644,-0.0004376406186464068,-0.012711661825803614,0.008287297161985036,0.9848120824591878
2015-08-28,1,0.00010122183015849395,0.000187608902132266,-0.014423280536825235,0.00718948174260123,0.9855125907221014
2015-09-01,-1,-0.0002602340247576931,-0.00022947398547660722,-0.012711661825803614,0.00718948174260123,0.9862624482891195
2015-09-03,1,1.182675943669622e-05,9.312942762982289e-05,-0.012711661825803614,0.00718948174260123,0.9851030120131221
2015-09-08,1,0.00039338515041778397,0.0005474803103149458,-0.012197783756882491,0.009345083401964348,0.9852829348254981
2015-09-10,1,0.00030153907649433867,0.00043713626069899974,-0.012197783756882491,0.01629620476950853,0.9848157629019573
2015-09-14,1,0.00030214923397994044,0.0004515229534675144,-0.008343600869148366,0.022706793815850237,0.9842302396056986
2015-09-16,1,0.001076633885335267,0.0013292423443548671,-0.008343600869148366,0.01629620476950853,0.9855139421343859
2015-09-18,1,0.0006940300313076187,0.0009132686104974413,-0.005633654570002785,0.01629620476950853,0.9868405223449713
2015-09-22,0,-7.829093329361043e-05,3.200790573477713e-05,-0.004393314784249478,0.01629620476950853,0.9883747812610411
2015-09-24,-1,-0.0002043766338001397,-9.202881109055146e-05,-0.0032486320880418078,0.022706793815850237,0.9873712798592573
2015-09-28,-1,-0.0007062526171240031,-0.000697232852723511,-0.0032486320880418078,0.022706793815850237,0.9854733104515382
2015-09-30,-1,-0.00021623735898301864,-0.00012692748143721977,0.00015020449515492935,0.021604852840350887,0.9857070511173796
2015-10-02,-1,-0.00013281845689688563,-5.6302446264822124e-05,0.00015020449515492935,0.015928891111008748,0.9867045561138746
2015-10-06,1,0.001107642025769365,0.0013852826299915848,0.00015020449515492935,0.011747622978996364,0.9889949110180961
2015-10-08,1,0.0013738099878088184,0.001650638871609469,-0.0032486320880418078,0.011191373187522608,0.9889032165536901
2015-10-12,1,0.002136435830369783,0.0025303255313904585,-0.0049942086093962565,0.009120414589426511,0.9898528420430539
2015-10-14,1,0.0025964491170448346,0.003007463661014679,-0.008978533256009526,0.007440554137326518,0.9876759734122001
2015-10-16,1,0.0026033682161278673,0.0030119837976987137,-0.0170325715161945,0.007440554137326518,0.986063773797949
2015-10-20,1,0.002650299249173095,0.0030825020509224663,-0.0170325715161945,0.007440554137326518,0.985921634485854
2015-10-22,1,0.0031149599982919804,0.0036044074403281806,-0.0170325715161945,0.006528373992339805,0.9869738348483281
2015-10-26,1,0.0023389518392620073,0.002748926511803479,-0.010767493895897748,0.0059696849754790875,0.9893971694647471
2015-10-28,1,0.002731474617419202,0.003159254298982833,-0.010767493895897748,0.0038369071596187545,0.9896661662226977
2015-10-30,1,0.00286833037187823,0.00333271830355116,-0.0103914294141212,0.0027372449963143433,0.9898996059969672
2015-11-03,1,0.0032179639342833554,0.0037252165718651056,-0.0103914294141212,-8.736895414597652e-05,0.9895278983272845
2015-11-05,1,0.0030041945300168277,0.003485558460850784,-0.007745314935139372,-8.736895414597652e-05,0.9903773235509018
2015-11-09,1,0.0030289814605974187,0.0035233080008566808,-0.009798028300689203,-8.736895414597652e-05,0.9899289759501256
2015-11-11,1,0.001984100359437417,0.002372361502813184,-0.006601922823091505,0.0023888058840830888,0.9916107286672826
2015-11-13,1,0.0005505487433167602,0.000689297439218359,-0.006601922823091505,0.0023888058840830888,0.991331804563702
2015-11-17,1,0.00022584378745232536,0.0002839141870539572,-0.006198877215153373,0.0023888058840830888,0.9912114818424751
2015-11-19,-1,-0.0004429870482817825,-0.00038241512514919037,-0.013633402819761047,0.0023888058840830888,0.989694611548457
2015-11-23,-1,-0.0004313111783439326,-0.00036959601057213196,-0.01623280038621926,0.0005810067469606381,0.9874539954332403
2015-11-25,-1,-0.0005341774035456286,-0.0004659227605394684,-0.01623280038621926,0.0037411020384530815,0.987257102094588
2015-11-30,-1,-0.0012100489792944182,-0.0010146831426814029,-0.01623280038621926,0.008521964468750493,0.9867245897633337
2015-12-02,-1,-0.0007305609833606579,-0.0006127943350719933,-0.01623280038621926,0.0037411020384530815,0.9866420343260407
2015-12-04,-1,-0.000346461046518377,-0.0002819730583157908,-0.02254303753552027,0.001995012295532651,0.9853173071081563
2015-12-08,-1,-0.0005560329838206182,-0.00046503588795206814,-0.025539386990607264,0.00047133518285733764,0.9825410397398925
2015-12-10,-1,-0.0014501205497300666,-0.0012446605627066832,-0.02405462807841807,0.0,0.9836405613139679
2015-12-14,-1,-0.002525728126998427,-0.002217253338557096,-0.02254303753552027,0.0,0.9853809476617693
2015-12-16,-1,-0.0024043569218013183,-0.002088575874680013,-0.02405462807841807,0.0,0.9826288833338165
2015-12-18,-1,-0.0035061930085551066,-0.0030698585676132814,-0.02485907250852767,0.0,0.9831900548780066
2015-12-22,-1,-0.004513950220913865,-0.003971379800650881,-0.02037461065049158,0.00047133518285733764,0.9849997388709909
2015-12-24,-1,-0.0043736958017904755,-0.0038285466179545126,-0.02037461065049158,0.00047133518285733764,0.9834292381944557
2015-12-29,-1,-0.003946422652867794,-0.003458141543747517,-0.02485907250852767,-0.0002789710336318509,0.9824028497661441
2015-12-31,-1,-0.0037406596805680484,-0.0033123339909310696,-0.02485907250852767,0.001873534479547145,0.9817342446464734
2016-01-05,-1,-0.0047930710517622805,-0.00422650760833728,-0.019390241700006187,0.007614973224591445,0.9814573312853743
2016-01-07,-1,-0.006601090597809413,-0.005819668081775778,-0.014250885895056967,0.01026237903923858,0.9831567848733007
2016-01-11,-1,-0.007044886625921797,-0.00619988998597744,-0.013760366651336911,0.01026237903923858,0.9831620905114999
2016-01-13,-1,-0.007983397119691201,-0.007055335165864086,-0.013760366651336911,0.01584908244622355,0.9815108845588442
2016-01-15,-1,-0.008804352601077712,-0.007747506322457056,-0.013542544880071663,0.01584908244622355,0.9811180911964703
2016-01-20,-1,-0.009164980042537936,-0.008107966768281641,-0.012977393803989963,0.017818310142398652,0.979917361475548
2016-01-22,-1,-0.008443059596472829,-0.007528311397330529,-0.012977393803989963,0.020178942453561777,0.9784015654447421
2016-01-26,-1,-0.008096202441827363,-0.007205973754776952,-0.013037794916440382,0.020178942453561777,0.9784270846486227
2016-01-28,-1,-0.00851329591757596,-0.007596907029170357,-0.013037794916440382,0.020178942453561777,0.9785879000678438
2016-02-01,-1,-0.007418417734675831,-0.006654612001822947,-0.013037794916440382,0.021828839691711104,0.9785814963147471
2016-02-03,-1,-0.0066303485518732636,-0.005962292192267718,-0.011562178787158376,0.019901380975301548,0.9792131041108942
2016-02-05,-1,-0.005845619278817962,-0.00526846565726021,-0.011562178787158376,0.021828839691711104,0.9789307165443606
2016-02-09,-1,-0.005641867519344455,-0.005157005287111962,-0.004800431164274192,0.021828839691711104,0.9776458420723475
2016-02-11,-1,-0.0063056228639807735,-0.00570801989705726,0.0037335770292178153,0.027593261985867163,0.9772991045033079
2016-02-16,-1,-0.004847536051619348,-0.004368583882562339,-0.011961339548304082,0.021828839691711104,0.9797727449746373
2016-02-18,-1,-0.003922928039403158,-0.003530314428174419,-0.011961339548304082,0.021808216274080663,0.9802752262050841
2016-02-22,-1,-0.0026052161219148606,-0.0023507486176353462,-0.014934285624338753,0.02035973890769187,0.981160969660524
2016-02-24,-1,-0.002084293586850404,-0.0019213918234976088,-0.014934285624338753,0.01833021760071842,0.981775400282476
2016-02-26,-1,-0.0015168997365517963,-0.0014405498027272908,-0.012489838311947141,0.015545983081603518,0.983160078434929
2016-03-01,0,-0.00012938431198974824,5.482359366631626e-05,-0.016547253883531746,0.015545983081603518,0.9829047735678694
2016-03-03,1,0.0010560288784064414,0.0014536481189345095,-0.016547253883531746,0.01879545000565222,0.9824339698209407
2016-03-07,1,0.00256348249221084,0.0032204479537888083,-0.016547253883531746,0.01500751039030301,0.9835842149370887
2016-03-09,1,0.002274695432100013,0.002927327874360242,-0.016547253883531746,0.01500751039030301,0.9837363824850374
2016-03-11,1,0.003352033714161828,0.004149630592027012,-0.016547253883531746,0.01359678860302093,0.9845492128559855
2016-03-15,1,0.0022357027872504445,0.002888251019290124,-0.012038805438565283,0.01500751039030301,0.9860697612024354
2016-03-17,1,0.003516669596424729,0.0043709190241966005,-0.017460025231238713,0.01236762674125308,0.9839619271906606
2016-03-21,1,0.003377648353684026,0.0041677702150055606,-0.01536075002864371,0.006989040663050586,0.9841218993320635
2016-03-23,1,0.0035731915075165183,0.004445276265384164,-0.013581465179927553,0.003953193039792442,0.985007841888572
2016-03-28,1,0.003862750411667335,0.004779629919273739,-0.013581465179927553,0.006931734838807353,0.9848445450143537
2016-03-30,1,0.00448075569997025,0.00551217443726848,-0.013203717054466796,0.006082247654473143,0.9867466069014657
2016-04-01,1,0.004893744540301355,0.005975332583191235,-0.014536417320272645,0.003972400966130341,0.9855167770033082
2016-04-05,1,0.004738129800424314,0.005806361413153814,-0.015032663236360235,0.003972400966130341,0.9848956387287726
2016-04-07,1,0.0031031911047958794,0.003864655552249095,-0.013886163617170457,0.003972400966130341,0.9869794084354294
2016-04-11,1,0.0032129272062176605,0.003941074888672952,-0.013886163617170457,0.0016538594024017993,0.9863373586902935
2016-04-13,1,0.0039430860001877024,0.004771919684743832,-0.013886163617170457,0.0016538594024017993,0.9857765727171166
2016-04-15,1,0.002307120125632516,0.0029104437150765695,-0.013581465179927553,0.0029791609761112715,0.9888612881763307
2016-04-19,1,0.0017510274201990507,0.0022909369444411055,-0.012929947347623713,0.008252599990071772,0.989735331148753
2016-04-21,1,0.0014457160160182626,0.0019390384812188572,-0.013252230501891024,0.008956469810846829,0.9892298235214761
2016-04-25,1,0.00206721304238646,0.002647174891390409,-0.013252230501891024,0.01124559351119352,0.9873506402146351
2016-04-27,1,0.002638102139677305,0.003318375112429476,-0.013252230501891024,0.01464347332805603,0.9863323923071567
2016-04-29,1,0.0015909221111666512,0.002128083290319175,-0.007754493489483554,0.015509643437916575,0.9867030825723664
2016-05-03,1,0.0010101441411400564,0.0014659919964923624,-0.005985649445749132,0.015509643437916575,0.9867415180522893
2016-05-05,1,0.0006080004072848326,0.0009668049161326488,-0.005985649445749132,0.015509643437916575,0.9867350017461675
2016-05-09,1,0.00031142114923624704,0.0005640825669072853,-0.003884555497644809,0.015509643437916575,0.9874547358024325
2016-05-11,1,0.0009297454208097344,0.0012829349378483204,-0.004779929136907514,0.013020298280042059,0.9883033195547098
2016-05-13,1,0.00012956272093551523,0.00030930822178638277,-0.006367823785831833,0.013020298280042059,0.9877004120302635
2016-05-17,1,0.00017744520173059504,0.00030218653556569956,-0.0070049060910417045,0.01070453516185553,0.9880703896071745
2016-05-19,1,0.0002004947917192008,0.00034938924289538433,-0.005520615647193337,0.013207056075484936,0.9886305017184839
2016-05-23,1,0.001965312262216949,0.0023736919777595207,-0.005520615647193337,0.009889594269318938,0.9905758121885588
2016-05-25,1,0.0026997779573119584,0.0031834321527070344,-0.005520615647193337,0.00879099990493493,0.9899851638313305
2016-05-27,1,0.0016065185907818036,0.0018665909367786295,-0.0070049060910417045,0.005168228087152845,0.9860354576208201
2016-06-01,1,0.00031075192732356663,0.0003392052255048245,-0.005520615647193337,0.009210887395661834,0.984283039201852
2016-06-03,-1,-0.00019325981007447266,-8.040437455368008e-05,-0.0070049060910417045,0.009210887395661834,0.9836892448206475
2016-06-07,-1,-0.0005218028302607789,-0.0003393396170361697,-0.010209910438157778,0.009210887395661834,0.9820262463365383
2016-06-09,-1,-0.0010461724229011442,-0.0007722497677258827,-0.0076682860222422895,0.01446732770026807,0.9807064029336581
2016-06-13,-1,-0.002493762346237914,-0.0019955623878634746,-0.0053901105761769205,0.01647878272481283,0.9796857678824175
2016-06-15,-1,-0.0024083845837246493,-0.001926978014175682,-0.006006696587690085,0.01647878272481283,0.9793504812410428
2016-06-17,-1,-0.0015807994447504146,-0.0012285715562379322,-0.006006696587690085,0.01500817385210244,0.979860348503122
2016-06-21,-1,-0.0016319319477218668,-0.0012339472621584757,-0.006006696587690085,0.014006714838328577,0.9801033709758917
2016-06-23,-1,-0.0006764597205229835,-0.0004081205838449692,-0.0058235176743224315,0.014006714838328577,0.9810004640155827
2016-06-27,-1,-0.004329957422081239,-0.0036446766308061416,-0.0016320331172469458,0.014006714838328577,0.984634463674832
2016-06-29,-1,-0.0019759278282187953,-0.0015943747424261184,-0.004339201650816364,0.013927519965256499,0.988593983004606
2016-07-01,-1,-0.002818706922808812,-0.002294722563645297,-0.0016320331172469458,0.013927519965256499,0.9883963297752107
2016-07-06,-1,-0.00404854972704242,-0.0033567502032179515,-0.0016320331172469458,0.013927519965256499,0.9883821297440509
2016-07-08,-1,-0.001709472368857396,-0.0013855787660946915,-0.0016320331172469458,0.012016623851439022,0.9895354197864695
2016-07-12,-1,-0.00037080675648404706,-0.00025248820917358355,-0.0007665523366086715,0.011580912192372474,0.9906565781806278
2016-07-14,1,0.0004548159149648047,0.0004989923373668049,-0.0007665523366086715,0.011580912192372474,0.9909035423387209
2016-07-18,1,0.0006874575771494021,0.0007637231789690459,-0.00048310655147216385,0.012201661488983747,0.9904228267923258
2016-07-20,1,0.0010773052596909068,0.0012120290812163842,-0.0011107439001995043,0.01211354327756791,0.9908594680101119
2016-07-22,1,0.0019433751268593835,0.0022184847494025896,-0.0011107439001995043,0.012201661488983747,0.9861889488155424
2016-07-26,1,0.002366858710886677,0.0027313891532786674,-0.0004738723202287147,0.012201661488983747,0.9866199412825392
2016-07-28,1,0.002540680598262668,0.0029783210426510822,-0.00018961373840681786,0.012201661488983747,0.9868454371791959
2016-08-01,1,0.002464729443458835,0.0028492175419545006,-0.00035672970715014033,0.012201661488983747,0.9871096871774675
2016-08-03,1,0.002532048690114152,0.0029831197430656947,-0.0016120918064294718,0.012201661488983747,0.9875884357163864
2016-08-05,1,0.0027494768031408267,0.003149973304072894,-0.0016120918064294718,0.01211354327756791,0.9884862763074264
2016-08-09,1,0.00369211830632727,0.004267837950959037,-0.0016120918064294718,0.011364285178589013,0.9889969344713763
2016-08-11,1,0.004271859378236435,0.004934068873757918,-0.0038053302563642536,0.010152225780401633,0.9879871072371811
2016-08-15,1,0.004658914374401099,0.005344034827527525,-0.005209562675869729,0.008507544565021655,0.9869091821757097
2016-08-17,1,0.004685237589675928,0.005376861379281966,-0.005209562675869729,0.010152225780401633,0.9864425120256403
2016-08-19,1,0.007912146998080155,0.009034861647893742,-0.006408691254233699,0.008507544565021655,0.9893626095624373
2016-08-23,1,0.008242527462248208,0.00942306500205728,-0.007427079899426156,0.010152225780401633,0.987808363835379
2016-08-25,1,0.00787881897160719,0.008982268723760314,-0.008548541230094601,0.010152225780401633,0.9877954352873576
2016-08-29,1,0.007278660504964488,0.008237111690600648,-0.009650215650215184,0.010152225780401633,0.9874351552761814
2016-08-31,1,0.006884144691417522,0.007808170798020769,-0.01114626652330675,0.010152225780401633,0.9874884528129045
2016-09-02,1,0.007253035399990533,0.008255353768036901,-0.011447400397973656,0.011738347891104346,0.9857309486522915
2016-09-07,1,0.006446734021544223,0.007233377829956898,-0.012172125674987946,0.008648529148330497,0.9850216428853495
2016-09-09,1,0.004904960565698196,0.005432380825761826,-0.011313415327681438,0.008648529148330497,0.9869598211876883
2016-09-13,1,0.0048314879481401,0.005315861824707476,-0.012172125674987946,0.005161235781220728,0.9872842357626617
2016-09-15,1,0.005078838421728546,0.005613313668560958,-0.012172125674987946,0.0030738842489001295,0.9872061460740649
2016-09-19,1,0.005410726020744457,0.005992969688814692,-0.012172125674987946,0.0008670883394252683,0.9872657943248092
2016-09-21,1,0.004496433385291126,0.004874528754436629,-0.010516001855786931,0.0013142458339712778,0.9895386416082593
2016-09-23,1,0.0037047809687591605,0.003923397176515686,-0.010516001855786931,0.0017527828576454508,0.9905851734193865
2016-09-27,1,0.0030334022377501387,0.003137922000495492,-0.007351172617381911,0.0017527828576454508,0.9916297456996548
2016-09-29,1,0.0023670599807378585,0.002386957784956771,-0.006025640168666139,0.0017527828576454508,0.9925642273970046
2016-10-03,1,0.002763051496206004,0.002845236329645888,-0.004690350222014616,0.0017527828576454508,0.9942119024350993
2016-10-05,1,0.0019095235427626293,0.0019647497848801283,-0.006025640168666139,0.0010376731516228291,0.9930651871267542
2016-10-07,1,0.0018267821749457555,0.001867332482289942,-0.007351172617381911,0.0010631286316248904,0.9903957472015791
2016-10-11,1,0.0007295761750650608,0.0008989341374865406,-0.006025640168666139,0.003986303474073817,0.9888484967423357
2016-10-13,1,0.0011859300915266712,0.0012360558137565572,-0.003931090736500274,0.005951518842099903,0.9877778680158938
2016-10-17,1,0.0011850420736245768,0.0012022033911305492,-0.0011772010132239203,0.009059834049935878,0.9865222427482063
2016-10-19,1,0.0011408365735041108,0.0011945092251461973,-0.002292044130735008,0.009059834049935878,0.98643743087237
2016-10-21,1,0.0008113278206686844,0.0008932901056220489,-0.002292044130735008,0.011864419063001142,0.9836269166425821
2016-10-25,1,0.0005768148013714557,0.0006996081251213994,-0.00448176520885414,0.011864419063001142,0.9831768004920068
2016-10-27,1,0.00026937553062485745,0.0004306760950958576,-0.005530253160292218,0.011864419063001142,0.9826515854609421
2016-10-31,1,7.946425740333932e-05,0.0002754642182156541,-0.006206605058835973,0.011864419063001142,0.9826063483441021
2016-11-02,-1,-0.0016660623354242472,-0.0012326331170897343,-0.004240345784462722,0.011864419063001142,0.9828986495667553
2016-11-04,-1,-0.003470526442958388,-0.0028203815999418955,-0.004240345784462722,0.012634138844501926,0.9839889550824005
2016-11-08,-1,-0.001558044156035217,-0.001153223015560726,-0.004240345784462722,0.01422944202369235,0.9863917917730923
2016-11-10,-1,-0.0007000497467641159,-0.0004077522469426093,-0.004921078000703922,0.012510572646717844,0.9876928875891778
2016-11-14,1,0.0007466259984681214,0.0008526121274218608,-0.006219746011928307,0.0049262927006461735,0.9889605810386994
2016-11-16,-1,-0.0017752820243386036,-0.0011943544435017613,-0.006219746011928307,0.008909164724421183,0.987607908524529
2016-11-18,1,0.0008815058640711697,0.0010715098288176944,-0.010251195569507878,0.0073535882941613215,0.9901409690876263
2016-11-22,1,0.00019899263461085274,0.0004878109128329313,-0.010476063498606494,0.0073535882941613215,0.9900605949546346
2016-11-25,-1,-0.000701730000800909,-0.0002653548113819039,-0.006627615450145024,0.005947337023908213,0.9904384407342859
2016-11-29,-1,-0.00045290031811342796,-9.231965871103146e-05,-0.012232538953465153,0.00796324859544806,0.989355666280729
2016-12-01,-1,-0.001188455313451427,-0.0007590365616170055,-0.011537088370326003,0.00796324859544806,0.9901540959620032
2016-12-05,-1,-0.001335037086415151,-0.0008899845346206541,-0.006581554095102828,0.00796324859544806,0.9909067332751885
2016-12-07,-1,-0.000616071082398347,-0.0002610845614527263,-0.00897375752061252,0.00445754227722847,0.9919112041554244
2016-12-09,-1,-0.0007125401291662556,-0.00035714266546171434,-0.00897375752061252,0.00445754227722847,0.992220933319984
2016-12-13,-1,-0.0009070881179268772,-0.0005527380474551209,-0.005742464263545733,0.005947337023908213,0.9923073876119282
2016-12-15,-1,-0.00028733753843421836,-5.562844819213581e-06,-0.008675443633074167,0.0036352605017003358,0.993081795463395
2016-12-19,-1,-0.0008631303670783193,-0.0004976375611541175,-0.005742464263545733,0.0036352605017003358,0.9933689318358436
2016-12-21,-1,-0.0011932222646068248,-0.000796517387675118,-0.005083562043049003,0.005362207244868691,0.993036057194812
2016-12-23,-1,-0.0018060981981500716,-0.0013023784656097065,-0.004709020883002018,0.00921623317692074,0.9908541627344915
2016-12-28,-1,-0.001828397257719291,-0.0013647888177105766,-0.004709020883002018,0.00921623317692074,0.9916027274697643
2016-12-30,-1,-0.0021035515082087983,-0.0016316539358197757,-0.003868794275818606,0.00921623317692074,0.9912014235449923
2017-01-04,-1,-0.001742472952360484,-0.0013255125483520635,-0.004709020883002018,0.008994227126895371,0.9914114158234189
2017-01-06,-1,-0.0018159417443208126,-0.001419587451995327,-0.0011114187270782972,0.008994227126895371,0.9914525364530511
2017-01-10,-1,-0.0019417042042220315,-0.001525456967180463,-0.0003269567943933961,0.011375811354596017,0.9906651267727947
2017-01-12,1,0.00043246224614657675,0.0004702180089360434,-0.0003269567943933961,0.009602864481932177,0.9917533240097824
2017-01-17,1,0.000349459015343617,0.0003857340328645456,0.0004054739936043992,0.009602864481932177,0.9921463363931162
2017-01-19,1,0.0004758710999557654,0.0005302661824644968,0.0004054739936043992,0.009602864481932177,0.990242146674859
2017-01-23,1,0.0006015536410278747,0.0006752775859383035,0.0004054739936043992,0.008780678403684196,0.990425927746401
2017-01-25,1,0.0012940814632506155,0.001440370930230836,0.0004054739936043992,0.00697758356748709,0.9926775127862647
2017-01-27,1,0.001226815483953668,0.001372309303474544,0.0008455399527507745,0.007913245786458285,0.992941653009953
2017-01-31,1,0.001611388879000175,0.0018232191136943485,0.0008455399527507745,0.008780678403684196,0.9918055117318673
2017-02-02,1,0.001205569145314825,0.0013234349423336272,0.0008455399527507745,0.009800818346040836,0.9906937426296301
2017-02-06,1,0.00126723167999166,0.0014081205765685877,-0.0001957538788828814,0.009800818346040836,0.9904163055273459
2017-02-08,1,0.0015672110417190026,0.001754591206251323,-0.004368401512673216,0.008780678403684196,0.9902300622849053
2017-02-10,1,0.0018347907152507347,0.002073150019791294,-0.004368401512673216,0.008039056975683875,0.9903553077423584
2017-02-14,1,0.001783286098030662,0.002014791028902367,-0.004368401512673216,0.008039056975683875,0.9904073860446074
2017-02-16,1,0.0021227626122000288,0.00239566134019343,-0.0038552876770349804,0.0063761650283794555,0.9928337605036844
2017-02-21,1,0.0019849698142771943,0.0022275318183001386,-0.0038552876770349804,0.004864667391935373,0.992174870741649
2017-02-23,1,0.0019956992169498393,0.00221716711255324,-0.0038552876770349804,0.004167355713886346,0.9922328845497421
2017-02-27,1,0.0022219376906909656,0.002489562529502301,-0.0038552876770349804,0.0025980250532561112,0.9922830426265494
2017-03-01,1,0.0027111340761392182,0.0030270720318595363,-0.0038552876770349804,0.0025980250532561112,0.9932795684434879
2017-03-03,1,0.002506369326048395,0.0027842583401818132,-0.0034371315232430495,0.0025980250532561112,0.9944404914220418
2017-03-07,1,0.0021244960193770113,0.002327530626493471,-0.0038552876770349804,0.0022956979004125013,0.9939975729495932
2017-03-09,1,0.0016484935464882527,0.001778432010880042,-0.0034371315232430495,0.003762967848272396,0.9946589448943897
2017-03-13,1,0.0013954982234695786,0.0014741449553181002,-0.005106708354396184,0.0022001556165800393,0.9941917025689724
2017-03-15,1,0.0014583403185507353,0.0015467754585096894,-0.006327718989792902,0.0020875622086803844,0.9931027761126826
2017-03-17,1,0.0013845281688233744,0.0014621631660530485,-0.006327718989792902,0.0033296453407409697,0.9928859066524354
2017-03-21,1,0.0008002466440545101,0.0008015236097062994,-0.005106708354396184,0.0033296453407409697,0.9943374585630661
2017-03-23,1,0.0005985167257433106,0.0006327446061023191,-0.006327718989792902,0.004278686475732837,0.9928891345013272
2017-03-27,1,0.0005146073982909697,0.0005577062274298872,-0.006327718989792902,0.0064477888641313805,0.9924258187849844
2017-03-29,1,0.00016230677370610241,0.00028540149496651234,-0.007406951088724066,0.003377061726353329,0.9926952543951362
2017-03-31,-1,-0.0006400332794015913,-0.00033488934488481775,-0.007406951088724066,0.003377061726353329,0.9927436084938718
2017-04-04,-1,-0.00032451376244144246,-0.0001206945601954191,-0.006327718989792902,0.003377061726353329,0.9933237953806585
2017-04-06,-1,-0.0001563074560653998,-1.2794534665097894e-05,-0.006253417577534608,0.004359415415703605,0.9930043804141192
2017-04-10,0,-7.278270485968556e-05,1.740075761622918e-05,-0.00269086243588217,0.004359415415703605,0.9937087140001285
2017-04-12,-1,-0.0005733118641218871,-0.00041164346771133234,-0.00269086243588217,0.007505973644047117,0.9941215812230387
2017-04-17,1,0.0002599515647036584,0.0002998004638536264,-0.003367853203894961,0.007551565227082153,0.9921034710930738
2017-04-19,0,-1.3154083114676955e-06,8.598025022966065e-05,-0.007054453536605947,0.007551565227082153,0.9905735650295573
2017-04-21,-1,-0.00038037316569130625,-0.00023998783716964837,-0.007054453536605947,0.004329126523105631,0.9913020386585253
2017-04-25,-1,-0.00012381115980459787,-3.933537909508187e-06,-0.00811760339658029,0.004329126523105631,0.990732696851318
2017-04-27,-1,-0.0010222200667802334,-0.0007448602824973204,-0.007054453536605947,0.007551565227082153,0.9895319697066143
2017-05-01,-1,-0.0007922868508119669,-0.0005376266356374003,-0.00827890595996267,0.006155691801233159,0.98896810207695
2017-05-03,-1,-0.0004286401992013531,-0.00026134157504962354,-0.009927713890075608,0.006155691801233159,0.9879197097151676
2017-05-05,-1,-0.00046787615978394095,-0.0002903850663590181,-0.011247226765300183,0.0035975789332981034,0.9879898057165375
2017-05-09,-1,-0.0008629773938329475,-0.0006149159452800841,-0.011247226765300183,0.006155691801233159,0.9870287819724025
2017-05-11,-1,-0.00046644037354073473,-0.0003083960053939073,-0.012249182733064476,0.007132715318883524,0.9862449299245374
2017-05-15,1,0.0005516227598348699,0.0006042435267066507,-0.01305259607280554,0.0035975789332981034,0.9877083551298866
2017-05-17,-1,-0.0007632103188312219,-0.0005337920603862997,-0.01305259607280554,0.003165931087474612,0.9883973404593244
2017-05-19,-1,-0.00164100383993769,-0.0013025636356174333,-0.012249182733064476,0.007132715318883524,0.9887371332417482
2017-05-23,-1,-0.0020020027793879918,-0.0016004614908925897,-0.011244929419027053,0.006573769464474937,0.9892746946973706
2017-05-25,-1,-0.0011749060913530767,-0.000839264097299327,-0.011244929419027053,0.009757248738753084,0.9894746664331392
2017-05-30,-1,-0.0015360960755600088,-0.0011693886952380272,-0.011244929419027053,0.01079696691257426,0.9893134044168838
2017-06-01,-1,-0.0026560049473793946,-0.0021360068252243855,-0.008481287888652905,0.011926259742647074,0.9891415745866625
2017-06-05,-1,-0.003321180140532604,-0.002721182838801712,-0.008749803745817594,0.011926259742647074,0.9891395505529188
2017-06-07,-1,-0.0028699623698283504,-0.0023437703702772284,-0.012050476990521117,0.01079696691257426,0.988426098263915
2017-06-09,-1,-0.002915600619366898,-0.00236807620729324,-0.008749803745817594,0.009494568129023313,0.989341443870148
2017-06-13,-1,-0.003422112221741715,-0.0028219675765549807,-0.005041221034792475,0.011926259742647074,0.9878729558112122
2017-06-15,-1,-0.004382508313545214,-0.0036761024736983597,-0.002399813221285306,0.014580664149282713,0.98389843318022
2017-06-19,-1,-0.0026784755034071957,-0.0022651454120888813,-0.002399813221285306,0.014580664149282713,0.9849972687065027
2017-06-21,-1,-0.002627624654424894,-0.002211528672676729,-0.001388044444303453,0.014580664149282713,0.9844960066870406
2017-06-23,-1,-0.0012603697239132702,-0.0010264025237879506,-0.001388044444303453,0.011141575525397102,0.9864179851927009
2017-06-27,-1,-0.0015512039988591218,-0.0012789117014521591,-0.0019159918425786927,0.010713663587484571,0.9872176645140627
2017-06-29,-1,-0.0011443014411278074,-0.0009221671868201403,-0.003644416894846815,0.009173583090518307,0.9878114962235239
2017-07-03,-1,-0.001319396188365055,-0.0011015994668070852,-0.0019159918425786927,0.009173583090518307,0.9880720801984362
2017-07-06,-1,-0.0021659356943685964,-0.001869866617103288,-0.0024755767254994922,0.009173583090518307,0.9890653280825493
2017-07-10,-1,-0.0018638361406806063,-0.001606603868683362,-0.0034014457982387567,0.009173583090518307,0.9894901686310291
2017-07-12,1,7.90360176179373e-05,9.491475352532862e-05,-0.004943813977333623,0.0034759786205141034,0.9911097269268907
2017-07-14,1,0.002998072330537619,0.003395894527521085,-0.008151656775883281,0.0031052336793074204,0.993015995896808
2017-07-18,1,0.003240725915962078,0.0036896341349109824,-0.008151656775883281,0.003142387688359644,0.9923705623674278
2017-07-20,1,0.003858519144418129,0.004401918696794632,-0.009279686293539723,0.0024241508069882097,0.9886834986972787
2017-07-24,1,0.00414130402595991,0.0047918125672868905,-0.01020115637945267,-0.0010529019232803183,0.9874422245961839
2017-07-26,1,0.0036959940032568984,0.004277456190343146,-0.01020115637945267,-0.0005814456085787513,0.987945551926692
2017-07-28,1,0.0030117653183365832,0.0034953547255415275,-0.007759017669585016,0.0007485091754806502,0.9892177817925464
2017-08-01,1,0.0027637647940113533,0.0031837321341233694,-0.008605471212355968,-0.0005814456085787513,0.9886441800934972
2017-08-03,1,0.0022805319931157877,0.0026355616574856096,-0.007239132582874484,0.003964375467388367,0.989356005108408
2017-08-07,1,0.00222989708312235,0.0025875030719128035,-0.008605471212355968,0.003964375467388367,0.9887096962392701
2017-08-09,1,0.00180704495250181,0.0021013875474342734,-0.007239132582874484,0.005018909998160102,0.9883134478965515
2017-08-11,1,0.0008105836307161088,0.0009220657825855564,-0.006553109184308334,0.006368001525139035,0.9887802581170683
2017-08-15,1,0.0011284382337673831,0.0012802989972969761,-0.006553109184308334,0.009007090073020864,0.988529254964757
2017-08-17,-1,-0.0006822625192066264,-0.0006042653091591303,-0.005585970340374381,0.009370102012139064,0.991642660594271
2017-08-21,-1,-0.0008199641847769532,-0.000754053615750837,-0.005496696229712102,0.009955313750586973,0.990532266359061
2017-08-23,-1,-0.0008425703879149178,-0.0007848743375711911,-0.004386158581664434,0.009955313750586973,0.9905419962272777
2017-08-25,-1,-0.0011940796383148199,-0.0010725414567795918,-0.002192644041159878,0.01161190243427887,0.9899000624901733
2017-08-29,-1,-0.0016552231154445419,-0.0014765564987655518,-0.0002444382854252565,0.013053991074659849,0.9883938679406727
2017-08-31,-1,-0.0013541574929945952,-0.0011875563520550056,-0.0016192587726879212,0.013053991074659849,0.9891946415818275
2017-09-05,-1,-0.0022286584787216874,-0.0019321766196355359,-0.0005674641350925698,0.013053991074659849,0.9887368676223148
2017-09-07,-1,-0.0015391057275268038,-0.0013289935057125264,0.0011227660603355914,0.010054955257185794,0.9901250373037319
2017-09-11,-1,-0.0008998503080888534,-0.0007631148911553856,-0.0005174002655322128,0.009386045758970781,0.991479986961406
2017-09-13,-1,-0.0003730743752367993,-0.00028714171347175984,-0.0020420391500114844,0.009353340145721787,0.9918274193328459
2017-09-15,1,0.0004221731989954298,0.00045035817448057185,-0.0022247648828115623,0.006329280068940788,0.9925028914584063
2017-09-19,1,0.0007940288376682303,0.0008604075863372374,-0.001885767856255046,0.006171932315906339,0.9939257110468404
2017-09-21,1,0.001008807648112273,0.0011194088523539991,-0.0022247648828115623,0.008391579232906598,0.9931928703980695
2017-09-25,1,0.001483389251808746,0.0016489464005132928,-0.0022247648828115623,0.007142206703024865,0.993772967894782
2017-09-27,1,0.0024347575477330096,0.00272796683710368,-0.0028791025705592185,0.004998535709357658,0.9938681182066039
2017-09-29,1,0.002065368855876472,0.0023047015326473934,-0.0028791025705592185,0.0058079240569572435,0.9933833770141725
2017-10-03,1,0.002368712735230619,0.0026414174164902755,-0.00459379168125224,0.0053219605050638325,0.9922221595618136
2017-10-05,1,0.0029026844227762797,0.003306642598599851,-0.006732937608684186,0.0053219605050638325,0.9917422963572508
2017-10-09,1,0.002252491205361054,0.0025186355145278335,-0.006732937608684186,0.007142206703024865,0.9914692991746736
2017-10-11,1,0.0013080723899113102,0.0014102710991191062,-0.006660337387267035,0.009238270470152235,0.9913314736069363
2017-10-13,1,0.001281934769432985,0.0013757391326003792,-0.006660337387267035,0.012995182976809886,0.990652093676444
