JNU-Tangyin/eata/results/Batch4_SP500/Batch4_SP500-HRL.csv
Date,Action,Predicted_Q25,Predicted_Q75,Actual_Q25,Actual_Q75,RL_Reward
2010-12-14,0,0.0,0.0,-0.004839920497248171,0.0033367964171577688,0.9958163264894473
2010-12-16,0,0.0,0.0,-0.002558504019252158,0.0030107458521832975,0.9956212277374353
2010-12-20,0,0.0,0.0,-0.004452757145933787,0.0026225526348584486,0.9953400958156932
2010-12-22,0,0.0,0.0,-0.0022388484968959674,0.0022101089664915523,0.9955768439178453
2010-12-27,0,0.0,0.0,-0.0022388484968959674,0.001381620305199804,0.9955873617088475
2010-12-29,1,0.0029035917895538993,0.003163891224678768,-0.004724170700387274,0.001381620305199804,0.993671835975352
2010-12-31,0,0.0,0.0,-0.0058513791683453215,0.001381620305199804,0.9943442999794593
2011-01-04,0,0.0,0.0,-0.005837339098173994,0.0023375602901773143,0.9943057841115671
2011-01-06,0,0.0,0.0,-0.0045088377795636115,0.006293232267267259,0.9939597768438548
2011-01-10,0,0.0,0.0,-0.0045088377795636115,0.008130140107829762,0.9937194070601869
2011-01-12,1,0.000979518434866594,0.0009846501572674596,-0.0045088377795636115,0.006280293922188696,0.994251073972932
2011-01-14,1,0.0007889806187000052,0.0008312586405633516,-0.0045088377795636115,0.008130140107829762,0.9937805932880932
2011-01-19,1,0.000574470484766637,0.0006513814614715732,-0.003027302234780896,0.008130140107829762,0.9938144794314775
2011-01-21,1,0.0003112614850214024,0.0004408075989648693,-0.003027302234780896,0.008724903384540496,0.9925220937084649
2011-01-25,1,0.0002492646532856905,0.00035428434106794603,-0.003027302234780896,0.010055852617580834,0.9911344144952613
2011-01-27,1,0.0006506091103056418,0.0006825367737579551,-0.0018734246210674837,0.011776735686971742,0.9913267670892574
2011-01-31,-1,-0.000448822623962873,-0.00026958666984473994,0.0004390946587852104,0.011776735686971742,0.9909362861469873
2011-02-02,0,0.0,0.0,0.0014565031009333004,0.012668558716382644,0.9906620994291626
2011-02-04,1,0.0006802663442017398,0.0007367881996957979,-0.0018734246210674837,0.011776735686971742,0.9913345427236682
2011-02-08,0,0.0,0.0,0.000344329233407491,0.012668558716382644,0.9903655873125946
2011-02-10,0,0.0,0.0,-0.0005584793452864199,0.012668558716382644,0.9898738452525726
2011-02-14,1,0.0007005838595772235,0.0007681651868466994,-0.00696169886080944,0.012668558716382644,0.9899378659738133
2011-02-16,1,0.0009403782167353492,0.0009684412066705886,-0.008045596713465476,0.012668558716382644,0.9897589234556389
2011-02-18,1,0.0022640583931369494,0.002403968177944688,-0.008045596713465476,0.010671017402403768,0.989914968671572
2011-02-23,1,0.004149402676755317,0.004485588806188676,-0.008045596713465476,0.009437729258015726,0.9907425851820201
2011-02-25,-1,-0.0004429039645221292,-0.00019389489225735406,-0.008045596713465476,0.009437729258015726,0.9900178159175991
2011-03-01,-1,-0.0002844659192884542,-8.453771790495421e-05,-0.007148074109019411,0.009264147232368599,0.9902580795128819
2011-03-03,1,0.00026763423744195986,0.0004153175515552484,-0.007148074109019411,0.008233309244960959,0.9907358777347695
2011-03-07,1,0.0035170166645638033,0.003714076925605688,-0.006919521826001977,0.009264147232368599,0.9906867910457781
2011-03-09,1,9.034904386253989e-05,0.0002772324377774037,-0.006919521826001977,0.006868759214238053,0.9915839706684456
2011-03-11,1,0.003959325730492057,0.004214311053921617,-0.005963126633810938,0.006073470097664943,0.990712094613474
2011-03-15,1,0.0004639141168938874,0.0006346074277991165,-0.00514436900100039,0.006073470097664943,0.99243376224603
2011-03-17,1,0.00019048828354037385,0.000386224776999729,-0.004785975908248489,0.009264147232368599,0.9918531174592762
2011-03-21,1,0.0014920974489941773,0.001527993750544403,-0.00514436900100039,0.005591115818081136,0.9920487006602787
2011-03-23,1,0.0005866474038019238,0.0007329923167329324,-0.004135386815908926,0.005735661655711332,0.9931739333763349
2011-03-25,1,0.001532758182633397,0.0015366345414665073,-0.0043354749993127955,0.0018681076244138558,0.9934530232944849
2011-03-29,1,0.0014612139321841784,0.0014801927995162193,-0.004017867388313433,0.005735661655711332,0.9932534231861878
2011-03-31,1,0.0009466329667410056,0.0010290532373970855,-0.003939508592499418,0.007353682918727999,0.9934512625821224
2011-04-04,1,0.00022309610468829926,0.0003983545590781631,-0.0025904600229032346,0.005864371050287927,0.9944617644876887
2011-04-06,0,-0.00011591404400889467,0.00010214494310244974,-0.004017867388313433,0.005864371050287927,0.9938314969919726
2011-04-08,-1,-0.0015299043399563117,-0.0011464330700175877,-0.0015826700029377414,0.005864371050287927,0.99340960732088
2011-04-12,-1,-0.001995823820135541,-0.0015442078712798752,-0.0015826700029377414,0.005864371050287927,0.9928643290696774
2011-04-14,1,0.0009270272912594958,0.0009685541547025008,-0.0015645311710857411,0.005864371050287927,0.9935756751034917
2011-04-18,1,0.0012565619841906426,0.0013020144639711221,-0.0015645311710857411,0.006045780374662866,0.9936619223526182
2011-04-20,1,0.0017762714345592977,0.0018803669199001021,-0.0015645311710857411,0.007897910891852815,0.9933796807622474
2011-04-25,1,0.0008039279999572013,0.0008418571244245682,-0.0022351366501735053,0.007897910891852815,0.9930774287279461
2011-04-27,1,0.002570789236075793,0.00280612204535423,-0.006343609211526997,0.005514990195304012,0.9916653703798164
2011-04-29,0,0.0,0.0,-0.006343609211526997,0.00528238924428399,0.9915979005871813
2011-05-03,0,0.0,0.0,-0.006343609211526997,0.006180510200358189,0.9910565241186854
2011-05-05,0,0.0,0.0,-0.006343609211526997,0.006180510200358189,0.9903579541642388
2011-05-09,1,0.002242344533205316,0.002429140993418364,-0.006343609211526997,0.006180510200358189,0.990487569818101
2011-05-11,0,0.0,0.0,-0.002541990653163943,0.008093245903648615,0.9902667637902468
2011-05-13,0,0.0,0.0,-0.006555846636669842,0.006180510200358189,0.9907286418289216
2011-05-17,0,0.0,0.0,-0.007960845373842822,0.006500875365572055,0.9901389257893248
2011-05-19,0,0.0,0.0,-0.007960845373842822,0.006544785228329522,0.9900350542492189
2011-05-23,0,0.0,0.0,-0.0045543791924301785,0.010898542080854235,0.989465606565939
2011-05-25,0,0.0,0.0,-0.0043282578292379486,0.010898542080854235,0.9912675740263304
2011-05-27,0,0.0,0.0,-0.0043282578292379486,0.006986154067931873,0.9917186217828449
2011-06-01,0,0.0,0.0,-0.0043282578292379486,0.0071557583829117526,0.9915579082653704
2011-06-03,0,0.0,0.0,-0.0013915106201139859,0.008284236522950506,0.9925882258919994
2011-06-07,0,-6.706350320466047e-05,0.00011067027182840353,-0.0008612199239287631,0.008284236522950506,0.9925109137109646
2011-06-09,1,0.00033508700987157646,0.00047502588832624434,-0.0011925569995290242,0.007773145294722346,0.9926241013438818
2011-06-13,0,-3.588806469052039e-05,0.00014637300003806817,-0.0011925569995290242,0.007773145294722346,0.9921952061509247
2011-06-15,-1,-0.00041173501565615,-0.00018477141028679935,-0.0006801891597341303,0.007034025385969046,0.9932611617771382
2011-06-17,0,-0.0001040927890742575,0.00011268397643194076,-0.0011925569995290242,0.006313001870531097,0.9934714564894956
2011-06-21,1,0.0005789067071273828,0.0007098462335593406,-0.004190500829135667,0.006313001870531097,0.9928797618387287
2011-06-23,-1,-0.0005749749146985999,-0.0002606336389183399,-0.0011731355145556798,0.007034025385969046,0.9924546766340292
2011-06-27,-1,-0.0005503774594976949,-0.00023903409201880095,-0.00454629596958998,0.007034025385969046,0.9922409668932984
2011-06-29,1,0.0003835643157824371,0.0005434080148480523,-0.008367270137233516,0.005590735052425881,0.9917009944743271
2011-07-01,1,0.0007680440486593544,0.0008759910528492185,-0.008738724800961247,0.004405781349139827,0.9911043316923109
2011-07-06,1,0.0007529860891312039,0.0008756518682637717,-0.009481910905984277,0.004405781349139827,0.990299329385747
2011-07-08,1,0.0007672350400994082,0.0009232982351856378,-0.009481910905984277,0.005590735052425881,0.9876231608349904
2011-07-12,1,0.0009477639532411447,0.0010990208467292792,-0.009481910905984277,0.0069716442871406254,0.9858553748570649
2011-07-14,1,0.0005183559081289383,0.0005812372924916996,-0.011253015496226917,0.012848418558429109,0.9842077649748312
2011-07-18,0,-0.00014595202343060086,1.804911998553899e-05,-0.011253015496226917,0.016815135166754334,0.9834758089684851
2011-07-20,1,0.000892046424182642,0.0009189762147872051,-0.011253015496226917,0.016214298671883478,0.9841085002940054
2011-07-22,1,0.0005691910353699729,0.0006102486666588552,-0.014491823608757178,0.01278685622115228,0.9834918051890682
2011-07-26,1,0.0006674112296801739,0.0006783695852260987,-0.014491823608757178,0.013419895677536639,0.9830579136325751
2011-07-28,-1,-0.00039798147939292233,-0.00023610494666459405,-0.014491823608757178,0.013419895677536639,0.9805692692589277
2011-08-01,-1,-0.0002820725079180511,-0.00013571945683766114,-0.014491823608757178,0.016630448154923844,0.979324193609133
2011-08-03,-1,-0.0002651268052339518,-0.00011171722397257757,-0.013903522206875987,0.016630448154923844,0.980233619219334
2011-08-05,-1,-0.0007565840076625941,-0.0005264898588821698,-0.009881951102415392,0.015703581596515515,0.982802171187406
2011-08-09,-1,-0.0014360760110234648,-0.001115658902846549,-0.009881951102415392,0.015703581596515515,0.9840547958430919
2011-08-11,-1,-0.0012138283073885188,-0.0009717699561140257,-0.009881951102415392,0.01327017743150626,0.9842801768032543
2011-08-15,-1,-0.0004680916206029203,-0.0003021518222751265,-0.009881951102415392,0.008287829629499319,0.9854976298563408
2011-08-17,1,0.00025919038651824977,0.0003088367842906507,-0.009881951102415392,0.01070843137444763,0.9851098429601328
2011-08-19,-1,-0.0005284646305777549,-0.00038668724687881945,-0.008802892710299836,0.01070843137444763,0.9855270171743716
2011-08-23,1,1.8785863856303606e-05,0.00011473052510950645,-0.009261284476316165,0.00828602368449947,0.9854608884433511
2011-08-25,-1,-0.0031313386995548767,-0.0027000024156667783,-0.009261284476316165,0.00828602368449947,0.9876158818015294
2011-08-29,-1,-0.001093633340319694,-0.0008679526743616154,-0.009261284476316165,0.00828602368449947,0.9886950435247226
2011-08-31,-1,-0.0018264306644304256,-0.0015524156401893073,-0.010458559715267317,0.010588924020640838,0.9860299392850046
2011-09-02,-1,-0.0027497753893101547,-0.0023398343511963487,-0.013724823622592,0.010588924020640838,0.9855938939679878
2011-09-07,-1,-0.002081852031500039,-0.0018048106634186369,-0.011277764951469177,0.010588924020640838,0.9855266044595683
2011-09-09,-1,-0.002744801335656919,-0.0023805903500663233,-0.007373961942565819,0.013689740801700042,0.9855102244210248
2011-09-13,-1,-0.002219328469082221,-0.00192693571647343,-0.007373961942565819,0.014767421292922397,0.9853531365380795
2011-09-15,-1,-0.0015009458652417609,-0.0012859135752250248,-0.007373961942565819,0.012411817547025106,0.9865297282762803
2011-09-19,-1,-0.0002522156718007322,-0.0001826863421888131,-0.008341633111854041,0.012411817547025106,0.9871270877384503
2011-09-21,-1,-0.0007268525571617447,-0.0006340775339388387,-0.008341633111854041,0.014767421292922397,0.9863551447379997
2011-09-23,-1,-0.0012046764199059891,-0.0010558361723739366,-0.0013939511362354284,0.01860492121181979,0.9852561115589653
2011-09-27,-1,-0.00022062242606209537,-0.00015040087091002397,-0.009988564852733299,0.014771151447794985,0.986123124998928
2011-09-29,-1,-0.0006628551086413045,-0.0005575689061262808,-0.007166635339860942,0.014771151447794985,0.9869694444915746
2011-10-03,-1,-0.002031528232614166,-0.0017697845719327658,-0.001942928383195181,0.014771151447794985,0.9867130032925071
2011-10-05,1,0.00044175927011208397,0.0005416401826323025,-0.009988564852733299,0.01367368018858852,0.9875838404447962
2011-10-07,0,0.0,0.0,-0.009988564852733299,0.01367368018858852,0.987664506858368
2011-10-11,0,0.0,0.0,-0.009988564852733299,0.010926914316530832,0.9878026508002667
2011-10-13,0,0.0,0.0,-0.013555138031983766,0.012870128922592797,0.985857970464927
2011-10-17,0,0.0,0.0,-0.01003014471600447,0.012870128922592797,0.985972208502526
2011-10-19,0,0.0,0.0,-0.009533666606086486,0.012870128922592797,0.9864888301839855
2011-10-21,1,0.0002823853347765912,0.00030485644470952896,-0.010529962843054592,0.010474881744191198,0.9878320520648118
2011-10-25,0,0.0,0.0,-0.010529962843054592,0.010474881744191198,0.9881841625907287
2011-10-27,0,0.0,0.0,-0.012444434086629642,0.010474881744191198,0.9883110864995189
2011-10-31,1,0.0014630147688814903,0.0016562958018310312,-0.010529962843054592,0.012870128922592797,0.9882587877943395
2011-11-02,1,0.0010625203096988423,0.0011965730995991517,-0.007082483660114565,0.012953087607061499,0.9883067764487112
2011-11-04,1,0.001252105600051253,0.00140967377959324,-0.010529962843054592,0.010474881744191198,0.9874797730761711
2011-11-08,1,0.0018685261930868583,0.0021349657056352386,-0.010529962843054592,0.012651481448078941,0.9872480033290876
2011-11-10,1,0.001673277689918339,0.0019456779233534174,-0.010529962843054592,0.013653242900538834,0.9879393073533244
2011-11-14,1,0.0015500514550141867,0.0017892099811399383,-0.012245048864662763,0.013653242900538834,0.9873068955937563
2011-11-16,1,0.0017107769244923785,0.00197867648907706,-0.011516761096502858,0.009893853153889274,0.9877195858047428
2011-11-18,1,0.0016305418552350777,0.0019137177202997132,-0.011516761096502858,0.009893853153889274,0.9879046276073921
2011-11-22,1,0.0014255712264273188,0.0017025974970489744,-0.009439833353735197,0.012414682539807882,0.9879107072796557
2011-11-25,1,0.0014948590287690243,0.001795640050810052,-0.0067366026721442695,0.010093666022817109,0.9893234519310466
2011-11-29,1,0.0018475025146284718,0.002177280025097648,-0.009383565924958575,0.00891196893672604,0.9895509408420534
2011-12-01,1,0.0021951055194067,0.0025483617319676426,-0.009383565924958575,0.007876914736145107,0.9906102695662032
2011-12-05,1,0.0016794651161791746,0.001971427092097297,-0.005820807262670512,0.007575483977422804,0.9920110894580451
2011-12-07,1,0.0018896643969737183,0.0022027163925279103,-0.007928971819166823,0.006663491095131597,0.9921863857097899
2011-12-09,1,0.002226445906612237,0.002603832292347449,-0.005459751359019232,0.006663491095131597,0.9931296357994155
2011-12-13,1,0.0018774617951438479,0.0022192825043173933,-0.0040165520762513755,0.006663491095131597,0.9941494422727448
2011-12-15,1,0.0016526478640715618,0.0019631157303016157,-0.0040165520762513755,0.006663491095131597,0.9940645589844811
2011-12-19,1,0.001197342958090734,0.0014115859793228532,-0.003759108055803062,0.006663491095131597,0.9945130081640327
2011-12-21,1,0.0014877017844380815,0.0017143916387448535,-0.003759108055803062,0.0054379342476741765,0.9950262672566812
2011-12-23,1,0.0016204455410389763,0.0018610410542428783,-0.003759108055803062,0.004641131439447771,0.9951918235374302
2011-12-28,1,0.000926156584683129,0.001060015034848035,-0.003759108055803062,0.004641131439447771,0.994750582073958
2011-12-30,1,0.0004339969946569241,0.0004844351950583589,-0.003759108055803062,0.004171846081258911,0.994685325434289
2012-01-04,1,0.00024028710468501914,0.0002554197923084037,-0.001963155938411591,0.004641131439447771,0.9946878340338091
2012-01-06,1,0.000649920709086033,0.0007745786881576057,-0.001963155938411591,0.0048797722192917775,0.9948026556290596
2012-01-10,1,0.0011773405742763776,0.001388137398382833,-0.001963155938411591,0.004171846081258911,0.9953817218741218
2012-01-12,1,0.00068425969083761,0.0007745006913318681,-0.0024787476836531314,0.004596540870563717,0.9944567612921456
2012-01-17,1,0.0009760697036682738,0.0011404249023466888,-0.0021457196219910714,0.0030990796006829593,0.995234965367358
2012-01-19,-1,-0.0006804841407882208,-0.00047843200089512196,-0.0021457196219910714,0.00443881413491524,0.9945759736636287
2012-01-23,1,0.0001289806940765276,0.00017070975923172212,-0.002406612055890523,0.0030990796006829593,0.994918823896358
2012-01-25,1,0.00031206521596176734,0.0003315671627470082,-0.004818851485404246,0.002521913282256129,0.9939222922413592
2012-01-27,-1,-0.0007048705077956105,-0.0005357380030364489,-0.004494025771202233,0.0034604581039153082,0.9939097805116819
2012-01-31,-1,-0.0009500707602422506,-0.000773056559587428,-0.004494025771202233,0.0034604581039153082,0.9942724818428139
2012-02-02,-1,-0.0011060143798808895,-0.000870002946839986,-0.004494025771202233,0.001980602379471452,0.9945467502018746
2012-02-06,-1,-0.0009242235108780926,-0.0007262786856837744,-0.004494025771202233,0.001980602379471452,0.9945289994918891
2012-02-08,-1,-0.00041768377322613765,-0.00032498802152757666,-0.004494025771202233,0.0030776173542838973,0.9941320912605763
2012-02-10,-1,-0.0006180634984067552,-0.0004951321442901115,-0.004019208902719145,0.0030776173542838973,0.9948903466009024
2012-02-14,-1,-0.0009888532171569674,-0.000764443515472803,-0.0040274112501791914,0.004286706398026334,0.9940904150505873
2012-02-16,-1,-0.0010635968626674817,-0.0008259369430045969,-0.0040274112501791914,0.0030776173542838973,0.9942524896627868
2012-02-21,-1,-0.0005621519116787327,-0.0004463120961402919,-0.0040274112501791914,0.004123354983816228,0.9941034265506395
2012-02-23,-1,-0.0017042740716136954,-0.0013962051661582666,-0.0012292664105592484,0.004123354983816228,0.9946575515275285
2012-02-27,-1,-0.0018027872294515016,-0.001450814713820962,-8.778290943268298e-05,0.004123354983816228,0.9947119276156379
2012-02-29,-1,-0.0013612008795820436,-0.001044663588817989,0.0010312469238922977,0.004123354983816228,0.9949357392465411
2012-03-02,-1,-0.0010119572649207175,-0.0008029692826382232,0.0010312469238922977,0.004123354983816228,0.9951205407562731
2012-03-06,-1,-0.0009509102198107347,-0.0007654841715519576,0.0010312469238922977,0.0037632206348613686,0.995406993604647
2012-03-08,-1,-0.00048252698061381616,-0.00035951389592796463,0.0007644948773139968,0.0031753993401251106,0.9955777979240141
2012-03-12,-1,-0.0005189449514027311,-0.00035635966450219073,-0.0021969038566532362,0.003062185138504626,0.9946831546798715
2012-03-14,-1,-0.0006273915791590787,-0.00046057099268013453,-0.0020723222557329415,0.0023181991457370456,0.9956063178537256
2012-03-16,1,8.044036520092417e-06,6.120807050358776e-05,-0.00435443129015425,0.003062185138504626,0.9951912257620615
2012-03-20,-1,-0.00026107494876807894,-0.0001703263887556305,-0.004776804488533695,0.003062185138504626,0.9947575761776344
2012-03-22,1,0.00034106852104723393,0.00035344568082103494,-0.004776804488533695,0.0031753993401251106,0.9944204632409064
2012-03-26,1,0.0004735606995807626,0.0004947348306869353,-0.005815909036348796,0.0031352007530933237,0.9940648976179498
2012-03-28,1,0.0006206703778065743,0.0006734951349489998,-0.005815909036348796,0.0053921596714020135,0.9933490515175873
2012-03-30,1,0.000870842917328475,0.0009559157039266614,-0.005815909036348796,0.0053921596714020135,0.993382544316229
2012-04-03,0,0.0,0.0,-0.005815909036348796,0.0053921596714020135,0.9934284871937175
2012-04-05,0,0.0,0.0,-0.005506123925045309,0.0053921596714020135,0.9937070864030821
2012-04-10,0,0.0,0.0,-0.0033802468573194554,0.005790738782386829,0.9944696150520479
2012-04-12,0,0.0,0.0,-0.002054591185906395,0.006435395552518475,0.9942378771103662
2012-04-16,0,0.0,0.0,-0.002054591185906395,0.006435395552518475,0.9945336847608057
2012-04-18,-1,-0.00036419945876268843,-0.000344620577145863,-0.0012034105010478777,0.007148381677295966,0.9944469493978918
2012-04-20,0,0.0,0.0,-0.002557541714946692,0.0063035622396393634,0.9945977101844377
2012-04-24,0,0.0,0.0,-0.0030667112728348,0.005747985828406514,0.9952500120227172
2012-04-26,0,0.0,0.0,-0.0030667112728348,0.006358614344416654,0.9952743257548062
2012-04-30,1,0.00025762371305561424,0.0002995204158091736,-0.0030667112728348,0.007148381677295966,0.9946568497452334
2012-05-02,1,0.00024706698644644953,0.0003138711610034185,-0.003387231391676855,0.007148381677295966,0.9943006579158908
2012-05-04,1,0.00014083746627065134,0.00019204537225620496,-0.003387231391676855,0.007148381677295966,0.9937093250676641
2012-05-08,1,0.00014278200752271259,0.0001557977426548095,-0.003888943865918073,0.007148381677295966,0.9934817273970287
2012-05-10,1,0.00033722701537984323,0.0003630690953652311,-0.003888943865918073,0.0071138607393905874,0.9934626664373165
2012-05-14,1,0.00018425170858328246,0.00019238199264399336,-0.003888943865918073,0.0071138607393905874,0.9935440195092269
2012-05-16,1,0.0010090605817634647,0.0011447069239806772,-0.003888943865918073,0.0042612430102382136,0.9938252153942237
2012-05-18,0,0.0,0.0,-0.0037199888439592163,0.007196289664938916,0.9933636299555536
2012-05-22,0,0.0,0.0,-0.003888943865918073,0.007196289664938916,0.9926546862412943
2012-05-24,0,0.0,0.0,-0.004589783734504164,0.005263856459689787,0.9926178908448509
2012-05-29,0,0.0,0.0,-0.004932585802997344,0.002184520575242403,0.9932409903943271
2012-05-31,1,0.00036364353026770613,0.00040490279255121905,-0.004003211222082467,0.006352937128253776,0.9927996906190131
2012-06-04,1,0.00038930802428613034,0.0004542814807004764,-0.0037199888439592163,0.007735699359263144,0.9921903673575155
2012-06-06,1,0.0011872776745118156,0.0013675442770675877,-0.003980474469331521,0.007196289664938916,0.9922889334743188
2012-06-08,1,0.0012839254391408157,0.0014698910899999269,-0.006158523663651698,0.0064425940607655136,0.9911108360448505
2012-06-12,0,0.0,0.0,-0.00934811483845505,0.0064425940607655136,0.9906031370432757
2012-06-14,0,0.0,0.0,-0.01269059233678197,0.007103765374042779,0.9897840539466376
2012-06-18,0,0.0,0.0,-0.01269059233678197,0.0054141132390369655,0.9904348947705165
2012-06-20,0,0.0,0.0,-0.00934811483845505,0.006322095697955063,0.9908259049492737
2012-06-22,0,0.0,0.0,-0.009346686916993247,0.006322095697955063,0.9907184383952921
2012-06-26,0,0.0,0.0,-0.009346686916993247,0.006322095697955063,0.9906874510886893
2012-06-28,1,0.0007260748854414573,0.0007916439292444967,-0.009346686916993247,0.005634503676796054,0.99058985184286
2012-07-02,1,0.0019149050149180563,0.0021406303172498654,-0.011206702200796906,-8.814449584074874e-05,0.9906676688276322
2012-07-05,1,0.0011221917850699316,0.0012300342033169506,-0.011206702200796906,-8.814449584074874e-05,0.9908743711242542
2012-07-09,-1,-0.00020555074543940777,-0.0001412837389791502,-0.009039452866004886,0.004256366210685306,0.9916391080616871
2012-07-11,-1,-0.0004977089726926822,-0.00041495719116276984,-0.008334735143533042,0.004705953988830731,0.9919632756042943
2012-07-13,1,0.00032462635178742965,0.00033774369640634,-0.006972866084925793,0.003382882602213609,0.9925924848227277
2012-07-17,-1,-0.00016159179775852433,-9.5079555184127e-05,-0.006912500575991011,0.004555319006826574,0.9926375273489157
2012-07-19,1,6.708113838502286e-05,8.903440840933864e-05,-0.006912500575991011,0.004369082734894704,0.9926587813087977
2012-07-23,-1,-0.0011567353868644644,-0.0009762516954827273,-0.006036327485195871,0.005822018267420091,0.9930079324692664
2012-07-25,-1,-0.00162972691211521,-0.001386911891475614,-0.006036327485195871,0.005822018267420091,0.9930170675288732
2012-07-27,-1,-0.0008791815068266448,-0.0007084880628670952,-0.006036327485195871,0.005822018267420091,0.9933020348343145
2012-07-31,-1,-0.001463607164976018,-0.0012466356959443233,-0.005049450123250251,0.005822018267420091,0.9935818550464086
2012-08-02,-1,-0.0020554874140394537,-0.001787110994364793,-0.0036012966633726493,0.005822018267420091,0.9937873290331871
2012-08-06,-1,-0.0018505785528041055,-0.001596467226153269,-0.0031626486871582362,0.006526499070429929,0.9943453820295792
2012-08-08,-1,-0.0010277641370178361,-0.0008784850949529899,-0.0036012966633726493,0.006526499070429929,0.9941339586601473
2012-08-10,-1,-0.0006653371258410915,-0.0005733464547441748,-0.0036012966633726493,0.006526499070429929,0.9942288548358048
2012-08-14,-1,-0.0004066092867601907,-0.0003517740257401289,-0.003583727858863024,0.0059677902546343186,0.994604109358878
2012-08-16,-1,-0.00012449300989546966,-0.00011848197881985284,-0.003583727858863024,0.0061329638925241,0.994498088600474
2012-08-20,1,4.984033123447073e-05,8.650504451828687e-05,-0.0020926690018692015,0.006117344555646688,0.9948419134983125
2012-08-22,1,3.822937910155236e-05,8.05539229313426e-05,-0.0014754082883431383,0.006117344555646688,0.9947354252572883
2012-08-24,1,0.0005775406110457018,0.0006864377069922987,-0.0025196044417438645,0.005056236508247217,0.995170979024213
2012-08-28,1,0.00032476727120671247,0.00037629267462210305,-0.002917474737483967,0.005056236508247217,0.9949433807900582
2012-08-30,-1,-0.000940992615834436,-0.000786322455413508,-8.576761620187381e-05,0.005333962617202804,0.9946065904989028
2012-09-04,-1,-0.00042271041423161605,-0.0003132791387112697,-8.576761620187381e-05,0.005333962617202804,0.99468376565601
2012-09-06,-1,-0.0005309151740432792,-0.00040122174588184994,-0.0024697205585821986,0.004882219543089953,0.9953173208360748
2012-09-10,-1,-0.00032274273173290283,-0.00022187068644582096,-0.004493802850649551,0.004882219543089953,0.9952459266943466
2012-09-12,-1,-0.00012845583035773301,-6.614752131592008e-05,-0.005909906320742789,0.004882219543089953,0.9948865320817382
2012-09-14,-1,-0.0005449553559176148,-0.00042077983663324736,-0.005909906320742789,0.004018904149018223,0.9948405968308073
2012-09-18,1,0.00027030221256976706,0.0002802697461033475,-0.005909906320742789,0.004882219543089953,0.9944542798300007
2012-09-20,1,0.0006232770129930003,0.0006950566424539205,-0.005909906320742789,0.00564720262058626,0.9941134354583341
2012-09-24,1,0.00038907836299366817,0.0004178281554138212,-0.005909906320742789,0.00564720262058626,0.9935149628884682
2012-09-26,-1,-0.0003313879018030112,-0.0002475359281580027,-0.005909906320742789,0.00564720262058626,0.99354650932886
2012-09-28,0,0.0,0.0,-0.005909906320742789,0.007326176405885802,0.9925174439134471
2012-10-02,0,0.0,0.0,-0.005909906320742789,0.006851310603496596,0.9921867581519898
2012-10-04,1,0.0003870913492450875,0.00043574113979173083,-0.006266120197379582,0.006851310603496596,0.9921597079604104
2012-10-08,1,0.0005154694679909456,0.0006044717034243542,-0.009905295658580745,0.007016178349569294,0.991643002204091
2012-10-10,1,8.840109997157308e-05,0.00010566069941983542,-0.006523315189022768,0.007016178349569294,0.9917754212030917
2012-10-12,-1,-0.00020531247073877614,-0.00017839753446674916,-0.00513879337419359,0.009817029781429521,0.9912397511337476
2012-10-16,1,0.0006428942096337428,0.0007487215129097634,-0.00513879337419359,0.009936342010801458,0.9917882256594913
2012-10-18,1,0.0009910971509938843,0.0011748737395746263,-0.002130393505706672,0.011197673088732103,0.9915832792533342
2012-10-22,1,0.0002949233811465375,0.00041429983687064876,-0.002130393505706672,0.011408646948918062,0.989827608186296
2012-10-24,-1,-0.0002605432166484424,-0.00023973634059771035,-0.0017192750644552147,0.011408646948918062,0.9895760495963871
2012-10-26,1,0.0005154951148393951,0.0006593671915847192,-0.0017192750644552147,0.011197673088732103,0.9908711747206398
2012-11-01,1,0.0013584290079609786,0.0016211486092389403,-0.0017192750644552147,0.009156692818321804,0.9919117763371835
2012-11-05,1,0.0010918782304269541,0.0013096767503084923,-0.0007372508123904072,0.009156692818321804,0.9923349423092456
2012-11-07,1,0.000813062787345366,0.00098585191210785,-0.00016512927105458047,0.009156692818321804,0.9930437719949098
2012-11-09,1,0.0010832783294631853,0.0013364702877075956,-0.00016512927105458047,0.009156692818321804,0.9930908939041951
2012-11-13,1,0.0015237633371402229,0.001806258452251903,-0.0004066029281808027,0.006711091001454625,0.9937423967347745
2012-11-15,1,0.0015269510499766447,0.0017779665350766722,-0.00048333665635288806,0.005776809210843488,0.9940598571154382
2012-11-19,1,0.0018799172359560401,0.002166850448379976,-0.00048333665635288806,0.005306064285478426,0.9944828051204246
2012-11-21,1,0.0013873771760466247,0.001647691823756764,-0.00048333665635288806,0.0048933082115670936,0.9966481334546995
2012-11-26,1,0.001585727822370784,0.0019168784391377235,-0.00048333665635288806,0.0043695479416493,0.996564558480009
2012-11-28,1,0.0016375914686870697,0.0019523441576126514,-0.001206971108047445,0.0037153155685858124,0.996012556952763
2012-11-30,0,0.0,0.0,-0.00145792041780784,0.0023377416153586334,0.9957035351907563
2012-12-04,0,0.0,0.0,-0.00145792041780784,0.005367373067798758,0.9926473924446854
2012-12-06,1,0.0006292794260350457,0.0008817206306396567,-0.002609986035328229,0.0076813595366574845,0.9910186550858967
2012-12-10,0,0.0,0.0,-0.00145792041780784,0.0076813595366574845,0.9906376754290641
2012-12-12,0,0.0,0.0,-0.00145792041780784,0.006703018059449095,0.9909751832944761
2012-12-14,0,0.0,0.0,-0.0019188481203476946,0.006703018059449095,0.9909299948461661
2012-12-18,0,0.0,0.0,-0.0019188481203476946,0.004971184499303619,0.9914944052544097
2012-12-20,0,0.0,0.0,-0.000978689692144505,0.005894451542127184,0.9912845174443671
2012-12-24,0,0.0,0.0,-0.0004350804569384342,0.007073589469973613,0.9913950617429876
2012-12-27,-1,-0.00019002661996331862,-4.110068413445419e-05,-0.0004350804569384342,0.007073589469973613,0.9916235273799201
2012-12-31,1,0.0006416146683810946,0.000685620420340122,-0.0015100673659983806,0.005894451542127184,0.9922893117923114
2013-01-03,1,0.0029759733087003216,0.0032695973900940885,-0.0035129811419093216,0.0055651437789841956,0.9936373666480389
2013-01-07,1,0.003342889031926469,0.003685743576656149,-0.0035129811419093216,0.0055651437789841956,0.994516029285893
2013-01-09,1,0.0035315118085235773,0.003896206991906582,-0.0035129811419093216,0.0036978363717364033,0.994431316520699
2013-01-11,1,0.0032767462394950064,0.0035984439215924896,-0.0038226847606855985,0.0056304801874151955,0.9943113940040298
2013-01-15,1,0.0031512322744245338,0.0034530796961510465,-0.0035664266509657103,0.005943028007824227,0.994459256852142
2013-01-17,1,0.0030123998252624025,0.003286353482007306,-0.0035664266509657103,0.005943028007824227,0.9946293415089273
2013-01-22,1,0.003748953796127598,0.004128384556307419,-0.004331342266744393,0.006177017559745478,0.9935006374728367
2013-01-24,1,0.003972079028998956,0.004372796372084974,-0.004331342266744393,0.0076202547256354275,0.9929311581995179
2013-01-28,0,0.0,0.0,-0.004382749867081582,0.00975065288644415,0.9917631854338553
2013-01-30,0,0.0,0.0,-0.0013954839011905092,0.009793895068141304,0.9915834515287447
2013-02-01,0,0.0,0.0,0.0008441386008068611,0.009793895068141304,0.9923812050124847
2013-02-05,0,0.0,0.0,0.0008441386008068611,0.009793895068141304,0.9929268898043897
2013-02-07,0,0.0,0.0,0.001202914465432021,0.009793895068141304,0.9925289603892303
2013-02-11,0,0.0,0.0,0.000973327018076755,0.009793895068141304,0.9930608010962506
2013-02-13,0,0.0,0.0,0.0008436223607518583,0.01110673744212083,0.991729249333744
2013-02-15,0,0.0,0.0,-0.0009785581834486443,0.01110673744212083,0.9913292488160423
2013-02-20,0,0.0,0.0,0.0008436223607518583,0.01110673744212083,0.9915296036863962
2013-02-22,0,0.0,0.0,-0.0009785581834486443,0.008137030810329106,0.99198944905541
2013-02-26,0,0.0,0.0,-0.0001297046573248967,0.008137030810329106,0.9927295767295063
2013-02-28,0,0.0,0.0,-0.0001297046573248967,0.008860941260197375,0.9918397287026586
2013-03-04,1,0.003944346822345418,0.004285142104488491,-0.0009785581834486443,0.007640507540090327,0.9922550318932181
2013-03-06,1,0.0036329145388904064,0.003920630067882432,-0.0021711836511905387,0.007640507540090327,0.9915384901500127
2013-03-08,1,0.003576973008785774,0.0038216471247824123,-0.007571181865592443,0.007640507540090327,0.9910614177855291
2013-03-12,1,0.003508494839976183,0.0037257473396556796,-0.007571181865592443,0.008634290995245701,0.9906652905751203
2013-03-14,1,0.0035792212548594075,0.003827746416277116,-0.004015300463766702,0.007640507540090327,0.9922403048182609
2013-03-18,1,0.0034121224376751236,0.0036327572592216345,-0.00445820361249575,0.008578563528060225,0.9914901274669856
2013-03-20,0,0.0,0.0,-0.005341536679925561,0.006878477459193176,0.9916931926497499
2013-03-22,0,0.0,0.0,-0.003778775237065725,0.007835109269558233,0.991960581037944
2013-03-26,0,0.0,0.0,-0.005341536679925561,0.007835109269558233,0.991015302076838
2013-03-28,0,0.0,0.0,-0.005667045914961824,0.0055863082145469105,0.9920314295961931
2013-04-02,0,0.0,0.0,-0.004263921547652974,0.0044376511511355285,0.9930015437402802
2013-04-04,1,0.003479060483580597,0.0035877606886705444,-0.003778775237065725,0.006790758111079299,0.9923061676291353
2013-04-08,0,0.0,0.0,-0.004263921547652974,0.005990218100494228,0.9924926652884242
2013-04-10,0,0.0,0.0,-0.005107939199859563,0.004818508941052014,0.9925157416820205
2013-04-12,0,0.0,0.0,-0.005107939199859563,0.005689458470303525,0.9924492814170378
2013-04-16,0,0.0,0.0,-0.004263921547652974,0.007955344052295501,0.9922555410730995
2013-04-18,0,0.0,0.0,-0.005107939199859563,0.007955344052295501,0.9920216970066271
2013-04-22,1,0.0016534682565787432,0.0016880731650753755,-0.005107939199859563,0.005689458470303525,0.9923660819391482
2013-04-24,1,0.00207836382460391,0.0021575388839745317,-0.004674172837454619,0.0042428110508171135,0.9935077320720057
2013-04-26,0,0.0,0.0,-0.005362165364155711,0.0056350227684552135,0.992352217137741
2013-04-30,0,0.0,0.0,-0.006796586386876888,0.0056350227684552135,0.9912431447446574
2013-05-02,1,0.0022637181194850894,0.002351487789900928,-0.0074872419510888365,0.004041930409083935,0.9908854388083093
2013-05-06,1,0.001073100616831111,0.001324015359790571,-0.00723386739207073,0.004041930409083935,0.9918571013916235
2013-05-08,1,0.0008072953363306929,0.0010870809350813828,-0.007834656537080204,0.0033510833938536918,0.9913446806169143
2013-05-10,1,0.0004747884727059233,0.0008131366712356621,-0.007834656537080204,0.0033510833938536918,0.9909523087379429
2013-05-14,1,0.0017612996794916526,0.0019326696529125855,-0.007834656537080204,0.0017606853321069642,0.991751593679504
2013-05-16,0,0.0,0.0,-0.005533202498336859,0.002490461841564055,0.9921196380086026
2013-05-20,0,0.0,0.0,-0.009890176221806463,0.00434488265759663,0.9900070695376706
2013-05-22,0,0.0,0.0,-0.017786627318805873,0.00434488265759663,0.9883789024592767
2013-05-24,0,0.0,0.0,-0.010503472082373306,0.004569642457088972,0.9895465468352654
2013-05-29,0,0.0,0.0,-0.007552044941617412,0.0075284558324829835,0.990014812057543
2013-05-31,0,0.0,0.0,-0.003800903694228647,0.0075284558324829835,0.9910183934799857
2013-06-04,-1,-0.0011384471935907774,-0.0008279997125686653,-0.005237867223166078,0.00786411491973687,0.9898011673516218
2013-06-06,0,0.0,0.0,-0.004430468335540124,0.008897467997788958,0.9897383372635471
2013-06-10,0,0.0,0.0,-0.004430468335540124,0.008897467997788958,0.9898341008088596
2013-06-12,-1,-0.0009472675425197484,-0.0007338582662547651,-0.002946189190918418,0.011404991821260983,0.9887741699277726
2013-06-14,-1,-0.0007575744296583188,-0.00044895172911221944,-0.002946189190918418,0.011404991821260983,0.988965004706916
2013-06-18,-1,-0.0009885552693243568,-0.0006663503081568861,-0.002673846180895295,0.009654796888680674,0.9907438764302329
2013-06-20,-1,-0.0022894151547743335,-0.0018052652423664985,0.0001342174622353539,0.009654796888680674,0.9915311523960438
2013-06-24,-1,-0.002267515225918005,-0.0017705481087779303,-0.0011170626268602198,0.009654796888680674,0.9919759768967126
2013-06-26,-1,-0.001595820375983038,-0.00119204386295533,-0.0017084222115614737,0.006837582509002255,0.9927273501831659
2013-06-28,-1,-0.0017479617589999526,-0.0013163599569845075,-0.0012727529662306396,0.009773691009232817,0.9916291156606849
2013-07-02,-1,-0.0015819839799375579,-0.0011860792999024974,-0.0012727529662306396,0.007269416294489815,0.9924188214632526
2013-07-05,-1,-0.0016312154504318384,-0.0012308041097490738,0.0001342174622353539,0.007269416294489815,0.9926889321996503
2013-07-09,-1,-0.0010470549024233894,-0.0007195263293864771,0.0001342174622353539,0.006223711290052876,0.9934177107270474
2013-07-11,-1,-0.00028506699330940006,-5.1805213501810994e-05,-0.0012727529662306396,0.005729303767527839,0.9944037741801086
2013-07-15,1,9.39760421835962e-05,0.00028304739764350355,-0.0012727529662306396,0.004686341921022454,0.9950018076551828
2013-07-17,1,0.0004333746624617426,0.0005405114815750431,-0.0012727529662306396,0.004992981196160403,0.9946709657233738
2013-07-19,1,0.0003522153887067929,0.000481326547969721,-0.0026377869256121876,0.004282685083813673,0.9941540709860768
2013-07-23,1,0.00042323897621650926,0.0005300185565837791,-0.0045277982868249175,0.005136925791322923,0.9937175702674497
2013-07-25,1,0.0004506272216574572,0.0005324441189976854,-0.004574520207373747,0.006757191058852479,0.9926656474458828
2013-07-29,1,0.0012530565557111412,0.0012653878266460088,-0.0064792364108922215,0.005136925791322923,0.9928186117853931
2013-07-31,1,0.0013784426065302096,0.001423360610356839,-0.008976304204416686,0.004282685083813673,0.992009046757826
2013-08-02,1,0.0017791190198009478,0.0018713899317824895,-0.008976304204416686,0.004282685083813673,0.9921818876155156
2013-08-06,1,0.0020038646209700776,0.0021431370144586567,-0.008976304204416686,0.005238571774634966,0.9913720210094725
2013-08-08,1,0.0017590318496259482,0.0018587473274165264,-0.008976304204416686,0.007688355295477599,0.9912043060565354
2013-08-12,1,0.002107936796882111,0.0022877206333257885,-0.008976304204416686,0.007688355295477599,0.991232124019248
2013-08-14,1,0.0019704442260494986,0.0021208015681116674,-0.007733228150763951,0.007358344518984749,0.9916519950527442
2013-08-16,1,0.001687960216196751,0.001817892213505647,-0.004888694792746667,0.008023873357709356,0.9922762483329132
2013-08-20,1,0.002042786203424344,0.002278062712072631,-0.003172254070715076,0.00857700182606602,0.9920581178075518
2013-08-22,1,0.0019200007183862095,0.0021161099504724704,-0.0035230245631034884,0.008023873357709356,0.9930001144789187
2013-08-26,1,0.0010612762950517204,0.0011157798670770778,-0.003915653476496489,0.008023873357709356,0.9931196205117249
2013-08-28,1,0.00012802284934145235,0.00019614043404689302,-0.0035230245631034884,0.008023873357709356,0.9936753893871586
2013-08-30,1,0.0006359162982331613,0.0006400655397056026,-0.004040770910737158,0.005360131885580296,0.9935639092700861
2013-09-04,1,0.0010829842532648114,0.0011565733147826957,-0.004193903979174185,0.005094034719438794,0.993995157733332
2013-09-06,1,0.0012719067014469823,0.0013730383503500528,-0.005377686587060001,0.005094034719438794,0.9936896565000957
2013-09-10,1,0.0012090736611960952,0.0012826694705602233,-0.006301870752404963,0.003982952810910246,0.9931997716388734
2013-09-12,1,0.0015077802401512403,0.0016363587029793146,-0.006301870752404963,0.0058708969388070395,0.9922753407907695
2013-09-16,1,0.0016827422335911515,0.0018472963294822531,-0.006301870752404963,0.005549513098949313,0.9921251209289281
2013-09-18,1,0.002270493314693609,0.0025082181281359164,-0.007462954398121254,0.005549513098949313,0.9917416233126913
2013-09-20,1,0.0019071390151022107,0.002099032645238294,-0.007473138219530728,0.005549513098949313,0.9919129964185902
2013-09-24,1,0.0016660764102399326,0.0018565186060951451,-0.006305265359541454,0.0059209606096155614,0.9920350706074406
2013-09-26,1,0.0010394018541287123,0.0011219342944722417,-0.005256763080247571,0.0059209606096155614,0.9925208086371566
2013-09-30,1,0.0005962839311638724,0.0006181752128598721,-0.004793491834215773,0.0059209606096155614,0.9929177474089489
2013-10-02,1,0.0006430263276758854,0.00067243032055626,-0.005256763080247571,0.0059366081233689135,0.9923905574572092
2013-10-04,1,0.0010456763403745627,0.0011952981970594233,-0.0050858180260166495,0.005549513098949313,0.9928259098541914
2013-10-08,1,0.0006175689828603511,0.0006993804031538408,-0.003928151271074604,0.006168187383854607,0.9928840871802967
2013-10-10,1,0.0015251095319982417,0.0017201639091463557,-0.0042771071888965066,0.006168187383854607,0.9928016552176074
2013-10-14,1,0.0015423680687937564,0.0017365375250380287,-0.005510766803220757,0.0063340460561137945,0.9926276592183991
2013-10-16,1,0.0013985332151984062,0.0015378266128412469,-0.0042771071888965066,0.0063340460561137945,0.99324799874617
2013-10-18,1,0.0009593832489258292,0.0010004828964543069,-0.003928151271074604,0.007667296207156385,0.9933724043875002
2013-10-22,1,0.0007822024409500739,0.000808667470579499,-0.004257232955540312,0.006265138383117615,0.9935919252088579
2013-10-24,1,0.0008611337902916205,0.0008796728472596322,-0.005510766803220757,0.007667296207156385,0.9918064136349909
2013-10-28,1,0.00010125788475113476,0.0002478473715569925,-0.00674416239753635,0.007667296207156385,0.9916040416459794
2013-10-30,1,0.00045119878961550925,0.0004714824877298363,-0.005510766803220757,0.007667296207156385,0.9896927700728578
2013-11-01,1,9.400545691431658e-05,0.0001620380786506295,-0.004503647516467439,0.00791607548601287,0.9892185953403122
2013-11-05,1,0.00039829344900878017,0.0004109338611980861,-0.0041245874495606,0.007709352467024332,0.9895345070245817
2013-11-07,-1,-0.000595461712995133,-0.0004550214305912054,-0.0041245874495606,0.008492735135834872,0.9891459592850735
2013-11-11,-1,-0.0018209963102410816,-0.0014588458437772606,-0.004618739361094814,0.008492735135834872,0.9884918227946262
2013-11-13,-1,-0.001309701396542789,-0.00102005255182259,-0.008337129579297834,0.005010249082020905,0.9887227706852108
2013-11-15,-1,-0.0007753286620797586,-0.0005679761224349329,-0.00885574784705226,0.003984487282623315,0.9887638179875776
2013-11-19,-1,-0.0012843016050452334,-0.0010161557436209239,-0.00885574784705226,0.006544240850575198,0.9883543020839152
2013-11-21,-1,-0.002030272570278642,-0.0016913408493905548,-0.006335685364546564,0.003984487282623315,0.9898978189459069
2013-11-25,-1,-0.00242558799698911,-0.0020429059628955526,-0.005369130596955651,0.003984487282623315,0.9901078207110937
2013-11-27,-1,-0.0006928544015791381,-0.0005369493546658426,-0.005369130596955651,0.003156465412163586,0.9933878199691917
2013-12-02,1,0.0002394410456835081,0.0002564912127506022,-0.005369130596955651,0.003156465412163586,0.9938142634428045
2013-12-04,1,0.0004895573845326647,0.0005271983308733096,-0.006335685364546564,0.0032108149617250826,0.9932158858148602
2013-12-06,1,0.0002683914943372539,0.0002730262996954277,-0.005369130596955651,0.0032108149617250826,0.9941866226452453
2013-12-10,-1,-0.0002430148283920176,-0.00019545878059257205,-0.005369130596955651,0.003742375817547855,0.9943645481305785
2013-12-12,-1,-0.0007772716959717606,-0.0006692393708196721,-0.0034220087513034472,0.006434480965089007,0.993930801819454
2013-12-16,-1,-0.001105911205313461,-0.0009533361235688558,-0.002681490948529165,0.006917357754619851,0.9929298251277493
2013-12-18,-1,-0.00010632267212145662,-9.885451647975648e-05,-0.0033934966466960042,0.006434480965089007,0.9928499323834908
2013-12-20,-1,-7.271266779999082e-05,-7.028503438690479e-05,-0.0016372198529568584,0.006434480965089007,0.9931634973371326
2013-12-24,1,0.00029208365194452305,0.0003647199942937834,-0.008181600598655976,0.006434480965089007,0.9924839581161896
2013-12-27,1,0.0004142787959878501,0.000518757146694949,-0.008181600598655976,0.006917357754619851,0.9919701476057988
2013-12-31,1,0.0006556992779931458,0.0007775181914031659,-0.009980843396508027,0.0072943247456005176,0.9900495243750427
2014-01-03,1,0.0005313348988793031,0.0006459864567413497,-0.009980843396508027,0.00826164076412726,0.9884040481402548
2014-01-07,1,0.0007401195486449741,0.00088863655108424,-0.009980843396508027,0.0072421123016435975,0.988612032218398
2014-01-09,1,0.0003210095501905169,0.00038288467208154255,-0.008181600598655976,0.00826164076412726,0.9887579383057334
2014-01-13,1,0.00026194023179093367,0.0003157014159040215,-0.007426964227152034,0.00826164076412726,0.9888495087305758
2014-01-15,1,0.0010479426888815712,0.0011974949842794404,-0.007426964227152034,0.00826164076412726,0.9897868202086404
2014-01-17,1,0.0003145925404553745,0.0003268517350538058,-0.0035543130079320655,0.008435197397780408,0.9904048176810151
2014-01-22,-1,-0.0002521661351235403,-0.0001482511623340672,-0.0035543130079320655,0.00849579665520377,0.9893815779838198
2014-01-24,-1,-0.0006678571130766091,-0.0005319601864618945,-0.001145966979219266,0.009045747425017143,0.9892472884239042
2014-01-28,0,-1.1613442195739429e-05,2.8160929249992006e-05,-0.0014090291362843107,0.009045747425017143,0.989915340093296
2014-01-30,-1,-0.000621434336755604,-0.0005227541901156381,-0.0010149223438080297,0.00849579665520377,0.9915102575580215
2014-02-03,-1,-0.0020386301555411048,-0.001783676246977394,-0.0010149223438080297,0.009045747425017143,0.9923432675341017
2014-02-05,-1,-0.00220402281682311,-0.001942944718549236,-0.0004855444240498446,0.009045747425017143,0.9917673856237756
2014-02-07,-1,-0.0014644871541042727,-0.001305751585334894,-0.000795123790456589,0.009016223368788523,0.9928531326228813
2014-02-11,-1,-0.00044929178163174657,-0.0004485881013647124,-0.000795123790456589,0.006573512435014542,0.9935020862335515
2014-02-13,-1,-0.00021147921770200403,-0.0001889235802631635,-0.000795123790456589,0.006430224848878778,0.9933600628335937
2014-02-18,-1,-0.00021835106996998395,-0.00021108974383972882,-0.000795123790456589,0.006360019286178524,0.9933382709609123
2014-02-20,1,0.0002529076990368485,0.0002853348975903206,-0.0026942238313285892,0.005337599442815639,0.9941387304643207
2014-02-24,1,0.00044140342512159834,0.0004707660165838227,-0.0026942238313285892,0.004529259655952073,0.9947501275950371
2014-02-26,1,0.00045693211043344945,0.0004898808706451368,-0.0026859261099876778,0.00601680159353485,0.9941391919161228
2014-02-28,1,0.0006226968946111031,0.00066652833025558,-0.0026859261099876778,0.005236545935729361,0.9943900006993679
2014-03-04,1,0.00044948479676305245,0.0004520447938563714,-0.0026859261099876778,0.005236545935729361,0.9941184061252346
2014-03-06,1,0.000657699165830131,0.0007309171810770394,-0.003592920775811591,0.005236545935729361,0.9943530472760056
2014-03-10,1,0.0007196322318272135,0.0008042009497367822,-0.007084611118630554,0.005236545935729361,0.9937737866720702
2014-03-12,1,0.0006794511902812839,0.0007641981487076152,-0.003592920775811591,0.00501445492738923,0.9942861160258336
2014-03-14,1,0.0005239772754058728,0.0005806586282031458,-0.006180160523878261,0.004261937331588235,0.9940542822282458
2014-03-18,1,0.0009118310467873518,0.0010327307078124193,-0.006180160523878261,0.004261937331588235,0.9936014109659078
2014-03-20,1,0.0008634294009537553,0.0009901035419067061,-0.004322388902814247,0.00501445492738923,0.9937586559847849
2014-03-24,1,0.0008173185932708932,0.0009274842293694606,-0.004322388902814247,0.00501445492738923,0.9937988238796129
2014-03-26,1,0.0013453436579911008,0.0015329393420476353,-0.006165694778999012,0.003235891198151062,0.9940007409554869
2014-03-28,1,0.0012792738381645393,0.0014404487959281957,-0.006165694778999012,0.003348435173438109,0.994009056127654
2014-04-01,1,0.001576037318164773,0.0017821095408953502,-0.006165694778999012,0.003348435173438109,0.9942969585620846
2014-04-03,1,0.0008717239770213038,0.0009517087003521879,-0.004322388902814247,0.004918715612187633,0.9946629209669722
2014-04-07,1,0.0006138369631036982,0.000660145649796888,-0.005546548969172137,0.003667581528176366,0.9946548311336801
2014-04-09,1,0.000690651299796042,0.0007680933012599036,-0.005546548969172137,0.006042814358954851,0.9939091544120656
2014-04-11,1,0.00017278962763810752,0.00020092969755031365,-0.0022050655268634886,0.006797457403921614,0.9942357035064265
2014-04-15,1,0.00019566304496531492,0.00020522769743300124,-0.002613118882316119,0.006797457403921614,0.993990900488487
2014-04-17,0,-1.2985115254508762e-06,4.533716865993688e-05,-0.002613118882316119,0.006042814358954851,0.9941091031581758
2014-04-22,-1,-0.00016920626657478203,-8.705223990835366e-05,-0.0057863436572318456,0.006042814358954851,0.993608156473984
2014-04-24,1,0.0006103587620694686,0.0006509113766064909,-0.009338482150127798,0.006042814358954851,0.9917668065409341
2014-04-28,1,0.0011128609991271506,0.001254451158880158,-0.009338482150127798,0.007558659645585084,0.9906416552981362
2014-04-30,1,0.0009795259475864045,0.0010997596971590474,-0.006265860872683564,0.00802378280394989,0.9903799166588672
2014-05-02,1,0.0011108809852507654,0.001242737071373107,-0.006265860872683564,0.009598008912891377,0.9903826523180288
2014-05-06,1,0.00029975191489286986,0.00030523671220191215,-0.0015465271013870578,0.009598008912891377,0.9906169285025754
2014-05-08,1,0.000670422515920937,0.0006794356097585913,-0.002876546482421482,0.008020993053685092,0.9913001243935197
2014-05-12,1,0.0009091471600274273,0.0009299559194408698,-0.004243042983987487,0.006456094208236621,0.9913280330430991
2014-05-14,1,0.0009900893643443125,0.0010454143651637032,-0.0052189664529771205,0.005062127390648865,0.9913149119375791
2014-05-16,1,0.0009713968256940523,0.0010135662525020796,-0.0052189664529771205,0.0057287088738997086,0.9911417801287685
2014-05-20,1,0.0006102338380232262,0.0006124689303303532,-0.004183836443286506,0.006456094208236621,0.991224423408984
2014-05-22,-1,-0.00143306155326178,-0.0011848737744515462,-0.002876546482421482,0.00819301833509449,0.9924183593230389
2014-05-27,1,5.427847853449165e-06,7.16764215845575e-05,-0.004183836443286506,0.0057287088738997086,0.9933876272408942
2014-05-29,1,0.0005635427915506585,0.0005793908532006478,-0.004613716576294672,0.005037025364895656,0.9942330937590461
2014-06-02,1,0.0011033525364317627,0.0011690796467187367,-0.004613716576294672,0.0057287088738997086,0.9940765626543524
2014-06-04,1,0.0011501799071554776,0.0012069535137811693,-0.0052189664529771205,0.0057287088738997086,0.9931351342815694
2014-06-06,1,0.0008783703658316083,0.0008855064264369164,-0.0052189664529771205,0.006095709898999645,0.9929292528916571
2014-06-10,1,0.0012708460611903366,0.0013989629325646276,-0.004613716576294672,0.005735536404860576,0.9932975256920415
2014-06-12,1,0.00027845594437676336,0.0003067607207392242,-0.003970806714275014,0.005735536404860576,0.994070949534824
2014-06-16,1,0.0003315367748307314,0.0003521237742842889,-0.0041930015731440375,0.005163910727236213,0.994190239656102
2014-06-18,1,0.0003308156107228652,0.00039108274296395995,-0.0049652678086814575,0.0029175856472950902,0.9942144990307266
2014-06-20,1,0.001104211559226696,0.001169462212995236,-0.006163356532841542,0.0013385056449451802,0.9934642006419948
2014-06-24,-1,-0.00015552629034543814,-3.300292106915391e-05,-0.0049652678086814575,0.0029557132006679115,0.9942352946668054
2014-06-26,-1,-0.0013951667416350919,-0.001048425742758058,-0.0049652678086814575,0.0029557132006679115,0.9945775507151534
2014-06-30,-1,-0.0010957484612562046,-0.0007615440165759188,-0.006280360220112258,0.00041385023916774605,0.9947858023835553
2014-07-02,-1,-0.0017521807063919817,-0.0013650798444591592,-0.0067952325912217495,0.00041385023916774605,0.9940703647449178
2014-07-07,-1,-0.0010288814840531731,-0.0007591939523213361,-0.0067952325912217495,-0.00010137767916093405,0.9939641163100734
2014-07-09,-1,-0.0010476305643123784,-0.0007914892645140077,-0.0067952325912217495,0.00041385023916774605,0.9932855109318494
2014-07-11,-1,-0.0010715228951006708,-0.0008248388152037549,-0.007779421121217844,0.0014069817544481176,0.9924311867046898
2014-07-15,-1,-0.0009105416693856511,-0.0007338821478144083,-0.007779421121217844,0.0058043594633387634,0.9919703777533073
2014-07-17,-1,-0.0010117467898711197,-0.0008540769633662219,-0.007779421121217844,0.008295729993441924,0.9917443465479732
2014-07-21,-1,-0.0009462709556504263,-0.0007954597300264088,-0.0067952325912217495,0.0066690448196934605,0.9923734535286304
2014-07-23,-1,-0.000844786175415608,-0.0007243710920793948,-0.00577914029698599,0.007580303125235763,0.9924985905139169
2014-07-25,-1,-0.0007393448226681646,-0.0006233403267293894,-0.00577914029698599,0.008295729993441924,0.9904266682989775
2014-07-29,-1,-0.001575411725651297,-0.0013465634071275403,-0.002047842235016474,0.008295729993441924,0.9905189730146983
2014-07-31,-1,-0.0032598491935039832,-0.0028394880173233817,0.00021019425277960606,0.008295729993441924,0.990549723111582
2014-08-04,-1,-0.003146706093465658,-0.002731809402055238,0.0004976510808538337,0.00765557632285909,0.9907165076181778
2014-08-06,-1,-0.0025331843422213233,-0.002187881871803114,0.0004976510808538337,0.0064556602628325155,0.991526131150692
2014-08-08,-1,-0.0020155311461690067,-0.0017499951122073548,0.0004976510808538337,0.00585689434795311,0.9924694286247768
2014-08-12,-1,-0.0015248710885506379,-0.0013096077188058989,0.0004940689505813965,0.0052767427264803195,0.9929566723749488
2014-08-14,-1,-0.0009442099538573175,-0.0008004308419837878,-0.0009066073982832637,0.004830699809747905,0.9932751338429484
2014-08-18,-1,-0.00039227282637401895,-0.0003470334455906609,0.0004940689505813965,0.004830699809747905,0.9931295307550534
2014-08-20,1,8.314878151718203e-05,0.00010446905363898704,-0.000976115692646863,0.004830699809747905,0.9931917499630349
2014-08-22,1,0.002044966699762461,0.0023484699018949525,-0.004644555271510861,0.004474692528227495,0.9949881310585512
2014-08-26,1,0.0018982735488750249,0.002153095484552764,-0.005131861382907294,0.004830699809747905,0.9941568402356591
2014-08-28,1,0.002093604608173527,0.0023564164112757366,-0.005889260794918526,0.004635262143616588,0.9934694610362432
2014-09-02,1,0.002192548767868806,0.002460763833222808,-0.005889260794918526,0.0058643970625995205,0.9927305058725755
2014-09-04,1,0.0016396110319157802,0.0017762535447235737,-0.0059302901289504115,0.008823740762462121,0.9923999022105439
2014-09-08,1,0.0017460928982388527,0.0019106974964307752,-0.006698319655679572,0.008823740762462121,0.9923403058396078
2014-09-10,1,0.001567781924736565,0.0017283839564753165,-0.006698319655679572,0.011129124940811128,0.9915372913438628
2014-09-12,1,0.0011535048350086996,0.0012617520331485272,-0.0059302901289504115,0.011129124940811128,0.9919825589917806
2014-09-16,1,0.0016153111971359039,0.0017657071234863956,-0.006457961449018655,0.010762459644843153,0.991911126329828
2014-09-18,1,0.001752651140585168,0.0019404700495022392,-0.007853893776515533,0.010762459644843153,0.9903811121027308
2014-09-22,1,0.0010436518886243855,0.0011132514015533403,-0.006807871237016891,0.011129124940811128,0.9896015963354564
2014-09-24,1,0.001429505223200687,0.001556779170997936,-0.006807871237016891,0.011129124940811128,0.9897466615350904
2014-09-26,1,0.0006716173749507538,0.0006798547599573897,-0.006457961449018655,0.011129124940811128,0.9903659142360136
2014-09-30,1,0.0019386215120269024,0.0021396209495526805,-0.006457961449018655,0.009384001877059626,0.9911147031921892
2014-10-02,1,0.002283179054097947,0.0025594441712930498,-0.0023554734686231597,0.006899842695813093,0.9917768349492863
2014-10-06,1,0.0020042669088041194,0.0022493361873389553,-0.0003806439443859909,0.009145383831719513,0.991858057937213
2014-10-08,1,0.002084689816138828,0.0023451274992628036,0.0005237398853394403,0.006899842695813093,0.9930873270911134
2014-10-10,1,0.002012875555780956,0.0022404462443959146,-0.0003806439443859909,0.006899842695813093,0.9928072103610767
2014-10-14,1,0.0011591631537847392,0.001163892769759891,8.997539593409538e-05,0.00607666463839812,0.9933006347557186
2014-10-16,1,0.0001334773250454579,0.0001847452832395022,0.0005971366702599537,0.006899842695813093,0.9945287601364862
2014-10-20,1,0.0017766528477840785,0.0019747027534064722,8.997539593409538e-05,0.006759147631062902,0.9953378748421832
2014-10-22,1,0.0027749826537656246,0.0031292400286117555,-4.759295801375631e-05,0.005501211132051271,0.9962116467253626
2014-10-24,1,0.002787149840091192,0.003151918145482208,-0.0005993929111238888,0.005501211132051271,0.995361919189861
2014-10-28,1,0.002906350263729682,0.003271943506792057,-0.002570508096746818,0.004369335149232415,0.9927599212093435
2014-10-30,1,0.0032217283709260916,0.003609223546694722,-0.002570508096746818,0.005700904434170064,0.9916134796923269
2014-11-03,1,0.003258677284643835,0.0036034086723323467,-0.003891293136324799,0.004369335149232415,0.9912565351175938
2014-11-05,1,0.0034365746684885323,0.0038020562746836316,-0.004528795708858273,0.0037809068086659702,0.9906172414926906
2014-11-07,1,0.0034301738491014887,0.0038173963563794605,-0.004528795708858273,0.005188405917017627,0.9909833028390745
2014-11-11,1,0.0038349005652718792,0.004308086705510321,-0.008519587618045216,0.0037353667538136577,0.9892497625196566
2014-11-13,1,0.0035601813853295247,0.0039497302804939365,-0.009862750127006319,0.0037353667538136577,0.988641010317319
2014-11-17,1,0.0032505659928070522,0.003581276746311328,-0.00984425042593564,0.002948410668581525,0.9887831172092789
2014-11-19,1,0.0035288957543154137,0.00392599097114428,-0.00984425042593564,0.005564284269613127,0.9874077617651118
2014-11-21,1,0.002297224300591447,0.0024891259608796805,-0.006417922158670973,0.007309273050335958,0.988269179507797
2014-11-25,1,0.0006776771529414377,0.0006839512437758099,-0.004528795708858273,0.007309273050335958,0.9906966845262826
2014-11-28,1,0.0017831613909996213,0.0019233894984420179,-0.004528795708858273,0.005273576368946718,0.9920182257506105
2014-12-02,1,0.0013738427151811351,0.001448230930967722,-0.006417922158670973,0.005273576368946718,0.9913237415727641
2014-12-04,1,0.0009200759065133728,0.0009241181797819448,-0.01203821616119999,0.005273576368946718,0.9902507348151002
2014-12-08,1,0.0008510535324037242,0.0008890564670029306,-0.01203821616119999,0.006437149348336732,0.9894130552931513
2014-12-10,-1,-0.00036976868042554883,-0.00018663924384052953,-0.008252185062164597,0.009252299289142433,0.9901682917264936
2014-12-12,-1,-0.0009332829912656236,-0.0006729900227447414,-0.008252185062164597,0.006937974912005028,0.9906472595075577
2014-12-16,-1,-0.0017881959197151042,-0.0014203030807781723,-0.007604292236217725,0.007877443842814545,0.9909601014578837
2014-12-18,-1,-0.0006102702584641551,-0.0003466867564921952,-0.007604292236217725,0.0074707336829152315,0.9917744706760536
2014-12-22,-1,-0.0008186725443373665,-0.00045060701704927454,-0.007604292236217725,0.009534645500449381,0.9910339931823788
2014-12-24,-1,-0.0009120618105557783,-0.0005310032675255993,-0.007604292236217725,0.009534645500449381,0.9911144616960493
2014-12-29,-1,-0.0007742394838932494,-0.00042897010681592544,-0.008252185062164597,0.009534645500449381,0.9905831392693784
2014-12-31,-1,-0.0016763205113095893,-0.0012290046381363059,-0.008252185062164597,0.009534645500449381,0.9903003146445624
2015-01-05,-1,-0.00284306537402003,-0.0022772306883183232,-0.007178086725847226,0.010371320040217133,0.9901456525653886
2015-01-07,-1,-0.0023083064034505746,-0.0018254664166862699,-0.006274296607034615,0.010371320040217133,0.9895679095498164
2015-01-09,-1,-0.0022782509688071407,-0.001797269617173945,-0.007294670199203728,0.010175095067801038,0.9898723481762812
2015-01-13,-1,-0.0026152078726300754,-0.002111138819685293,-0.006274296607034615,0.010381895119509647,0.9896616720027974
2015-01-15,-1,-0.0013617116792511196,-0.0011013993169287192,-0.006274296607034615,0.011589021793331405,0.9884618310261304
2015-01-20,-1,-0.0004603440451977108,-0.00030777538694292235,-0.006274296607034615,0.011173840615523671,0.9891886382099674
2015-01-22,1,0.0010063114591833174,0.0010549338828726336,-0.006274296607034615,0.010175095067801038,0.9893769917629128
2015-01-26,1,0.0006900391551031904,0.0007058052031927158,-0.0033056303366737643,0.010175095067801038,0.9896395794093971
2015-01-28,-1,-8.556138192712746e-05,-2.577597929143507e-06,-0.001414923225167767,0.010971523031120464,0.9896865446504389
2015-01-30,-1,-0.001047586658431994,-0.0008512251683695872,-0.0006882481946302183,0.010971523031120464,0.9906714025812817
2015-02-03,-1,-0.0004219796816922107,-0.00028201550252007404,-0.002152039374664232,0.00907780802851317,0.9915417038101423
2015-02-05,1,0.0006289465838687319,0.0006691660030087234,-0.002395746053407934,0.005442169138043665,0.9920239913359128
2015-02-09,1,0.00020970194250799848,0.0002671391874861642,-0.002152039374664232,0.00907780802851317,0.9910818999339005
2015-02-11,1,0.0007905035017260695,0.000808197058863122,-0.002152039374664232,0.009047407531207814,0.9905002670526709
2015-02-13,1,0.0016148763257327337,0.0017093005890922834,-0.0035934187320512956,0.007359521980872988,0.9908623128303536
2015-02-18,1,0.001876579144158873,0.002020854921483216,-0.006785421262889188,0.008688381455316791,0.990161532766055
2015-02-20,1,0.0026882718825320057,0.002910383062632425,-0.006785421262889188,0.008688381455316791,0.9904257471092699
2015-02-24,1,0.0028031995553052177,0.0030916062833388908,-0.007721956406124237,0.008688381455316791,0.990211418775363
2015-02-26,1,0.0031058307246922337,0.003439765288202684,-0.007721956406124237,0.004600029170633014,0.9906362432291118
2015-03-02,1,0.0028587742764420035,0.003148805630812777,-0.007721956406124237,0.008077248520057045,0.9905434680859929
2015-03-04,1,0.002400919874376964,0.002628696022139217,-0.008993809890986275,0.008077248520057045,0.9906773072833975
2015-03-06,1,0.0016671893597524114,0.0018051329583593173,-0.007209372424509867,0.008077248520057045,0.9914370193500867
2015-03-10,1,0.001371310405057461,0.001469667220171511,-0.0028658262586091577,0.007034642149741355,0.9930433003193468
2015-03-12,1,0.0002292120551916741,0.0003585382784743976,-0.002062306863093087,0.005944708632882058,0.9939990871760209
2015-03-16,1,0.0006220318303013541,0.0006452852538987082,-0.002062306863093087,0.005944708632882058,0.9938662832419347
2015-03-18,1,0.001232020708192822,0.001330089109853046,-0.002941275458499172,0.00469920261220972,0.9943878698263016
2015-03-20,1,0.0016038264320883018,0.0017448041788176627,-0.004726724286039169,0.004203340101422015,0.9941586991713912
2015-03-24,1,0.0014697237999616321,0.001606350062641234,-0.004726724286039169,0.004203340101422015,0.9935530749102544
2015-03-26,1,0.0016387043614695491,0.0018098038778518691,-0.0062282766249039286,0.004203340101422015,0.9932743934543119
2015-03-30,1,0.0022968832441437595,0.0025746328212671067,-0.0062282766249039286,0.004203340101422015,0.9932172199070588
2015-04-01,1,0.0022206326172205778,0.002501067310232044,-0.006076820677613311,0.003239796986961364,0.9930507543234323
2015-04-06,1,0.0025555245254359578,0.002871805178821546,-0.006076820677613311,0.003239796986961364,0.9922935856910172
2015-04-08,1,0.0028625401150382387,0.0032253622122346394,-0.008148522887461915,0.0009408223401232763,0.9913211144546562
2015-04-10,1,0.0027706322029976715,0.003135196508629545,-0.008148522887461915,0.004969278895111975,0.9914393235122482
2015-04-14,1,0.00274566621669565,0.0031052889700612448,-0.006076820677613311,0.002458148620216945,0.992085210220064
2015-04-16,1,0.0023241745817862707,0.0026316283106156023,-0.004519729021159731,0.004969278895111975,0.9925138712274836
2015-04-20,1,0.0012861955568823128,0.0014166731238031982,-0.004519729021159731,0.004969278895111975,0.9927863413978162
2015-04-22,-1,-0.0009466543405778948,-0.0007296582901007922,-0.003331547397092397,0.005892258998566582,0.9922203379150534
2015-04-24,-1,-0.0005161237320969977,-0.0004269646014093035,-0.005159811108679059,0.005892258998566582,0.9914160835578082
2015-04-28,-1,-0.000525714153058585,-0.0004212769437137663,-0.006083914950512373,0.008950053216702895,0.9899106822607256
2015-04-30,-1,-0.0013217271891055628,-0.0011595040983011177,-0.0065114004407038645,0.008950053216702895,0.9895094275858533
2015-05-04,-1,-0.00027392589020287973,-0.0002478020945506067,-0.0065114004407038645,0.004095287019644795,0.9903320136738682
2015-05-06,-1,-0.0014358170887296493,-0.001220732690455804,-0.0066924467379110685,0.004095287019644795,0.9904369077472274
2015-05-08,-1,-0.0011772678731359694,-0.0009744545985975213,-0.0066924467379110685,0.001558852489313896,0.9912467606714933
2015-05-12,-1,-0.0017127904334561495,-0.0014157357736458548,-0.0066924467379110685,0.002791484864598112,0.9907195567373752
2015-05-14,-1,-0.00045945429694109404,-0.00036910625825520695,-0.0066924467379110685,0.0012490604216148136,0.9911605499484315
2015-05-18,-1,-0.0008591307567581629,-0.0007512074185360925,-0.005435511753352352,0.001558852489313896,0.9916888041013685
2015-05-20,1,0.0005177677130818198,0.0005808725074761758,-0.005435511753352352,0.002901820715569794,0.9928898431403655
2015-05-22,-1,-0.00012197528740203172,-0.00010636874032040675,-0.004272199076620665,0.004620226937071448,0.9935764224623472
2015-05-27,1,0.00011387050675742795,0.00014434053141568263,-0.002950197283927693,0.004539733828457098,0.9950695454856264
2015-05-29,-1,-0.0014091547712348782,-0.0011475724545710023,-0.002382221743939731,0.004539733828457098,0.9960260149208074
2015-06-02,-1,-0.001434188570142943,-0.0011694962561185195,-0.0020419799104366013,0.004539733828457098,0.9949532356970935
2015-06-04,-1,-0.0017517654829207223,-0.001451844271691382,-0.0020367435603221413,0.005616820081764763,0.9948689791860782
2015-06-08,-1,-0.002141233100679589,-0.0017710102014205458,-0.002286757395387044,0.006070397116324469,0.9932892507296497
2015-06-10,-1,-0.0017385470741897585,-0.001426596217437447,-0.0028049936791124884,0.005616820081764763,0.9935195699575977
2015-06-12,-1,-0.0016272000235623202,-0.0013598778588690178,-0.002286757395387044,0.006070397116324469,0.9927238290595513
2015-06-16,-1,-0.000953767219176586,-0.0008219413360462846,-0.0027892846287691083,0.005828917790481418,0.9927020800223697
2015-06-18,-1,-0.0007690271534982379,-0.0006467510539096055,-0.005152472678366354,0.006269415375907827,0.9923086734371145
2015-06-22,-1,-0.0008595947572698646,-0.0006991607998943954,-0.007102990007464308,0.005469497849273313,0.99230064091397
2015-06-24,-1,-0.0011449835382444703,-0.000903995654521986,-0.007102990007464308,0.0052775629631692704,0.9923234994602739
2015-06-26,-1,-0.000952436613105319,-0.0007537421357556769,-0.007102990007464308,0.0052775629631692704,0.9923850930188132
2015-06-30,-1,-0.0012094860362379199,-0.0010359479345293404,-0.0035525414573067604,0.006350084582524326,0.9924067424985866
2015-07-02,-1,-0.0012983126642401202,-0.0010892180530206624,-0.0035525414573067604,0.006350084582524326,0.9925031145164283
2015-07-07,-1,-0.0007765601900525611,-0.0006519211540958229,-0.0022511623641324275,0.006350084582524326,0.9930667786305604
2015-07-09,-1,-0.0002449993870455538,-0.00022661719885683074,-0.0022511623641324275,0.008336075697365886,0.9929245348564838
2015-07-13,1,0.0002593171553118644,0.00032302013775861174,-0.0022511623641324275,0.008336075697365886,0.993318617005159
2015-07-15,1,0.0005295746260886513,0.0006714187269210143,-0.0022511623641324275,0.008336075697365886,0.9932471358559579
2015-07-17,1,0.00039488095836302844,0.0005171853479954333,-0.0022511623641324275,0.008514827841005967,0.9933628866588847
2015-07-21,1,0.0005361432343196559,0.0006980005635004827,-0.0022511623641324275,0.008514827841005967,0.9931653132636705
2015-07-23,1,0.0006518453942183416,0.0008211809980212539,-0.0022511623641324275,0.010778821651284153,0.9911019148357669
2015-07-27,1,0.0006076943814833326,0.0007554676019403024,-0.0064468585856969525,0.010778821651284153,0.9879478830760106
2015-07-29,1,0.0011126899304472093,0.0012121012237292644,-0.00706752459843851,0.010778821651284153,0.9872354045658582
2015-07-31,1,0.0011205985620457723,0.0012103066337459064,-0.00706752459843851,0.011776853198847465,0.9870523247164937
2015-08-04,1,0.0015327758687137358,0.001669329354687007,-0.008732038128731592,0.010778821651284153,0.9862729433427833
2015-08-06,1,0.0014036591088799843,0.0015072493362327413,-0.007246923511893496,0.011776853198847465,0.985976140989297
2015-08-10,1,0.0016179619792273756,0.0017585199168722188,-0.008569628025297534,0.012771790027105552,0.985024294243237
2015-08-12,1,0.0017451897718380753,0.0019188934865118023,-0.010376217684665283,0.012771790027105552,0.9846976209649588
2015-08-14,1,0.0017107342194100763,0.0018686522879089503,-0.010376217684665283,0.012771790027105552,0.984745624758715
2015-08-18,1,0.0013982865889802716,0.0015168433109538112,-0.008569628025297534,0.014010726197076636,0.984510178271932
2015-08-20,1,0.002948332321490991,0.0032892774227506437,-0.011907486429670731,0.012116303623299449,0.9851630997967252
2015-08-24,1,0.0014023992901059663,0.0015263595747008532,-0.009539438047065068,0.012116303623299449,0.9879734137829997
2015-08-26,1,0.001933092411649818,0.002143851124483633,-0.008838831203266053,0.010117387351800497,0.989348433913095
2015-08-28,1,0.0024112360176634074,0.002695770777048566,-0.010735031947628166,0.010117387351800497,0.9886431143794719
2015-09-01,1,0.001635896864619085,0.0018073727387055943,-0.008838831203266053,0.012116303623299449,0.9889499798326005
2015-09-03,1,0.0023006684368719614,0.0025580183114907334,-0.008838831203266053,0.012116303623299449,0.9893046536079714
2015-09-08,1,0.0025047052866876995,0.0027695403605351985,-0.010735031947628166,0.012116303623299449,0.9888092292462558
2015-09-10,1,0.0017499453537129404,0.001887904843509668,-0.00659682943244143,0.014000994309143807,0.9888663092806581
2015-09-14,1,0.0015994723492436741,0.0016839283027551878,-0.00377143595916411,0.015071558272242503,0.9888270365620342
2015-09-16,1,0.0019949809192439587,0.002115622943398357,-0.010735031947628166,0.015071558272242503,0.9884840632185068
2015-09-18,1,0.0012040683844095242,0.0012197390819195303,-0.0031048627857232875,0.015400478275277884,0.9889616819719925
2015-09-22,1,0.0005596209026815401,0.0006430982968204213,-0.0026545948346225557,0.015400478275277884,0.9889685412361932
2015-09-24,1,0.0012243792467914619,0.0012558819375479186,-0.0026545948346225557,0.015717735150037302,0.9880224944476479
2015-09-28,1,0.0011936702562263155,0.001195081799390121,-0.0032219579772843703,0.015400478275277884,0.9886246235797228
2015-09-30,1,0.002159464929996257,0.002305628235130224,-0.006329951033905138,0.015071558272242503,0.9891139716764442
2015-10-02,1,0.0022745487200453557,0.00242336560271089,-0.006329951033905138,0.012609508215835952,0.9896196649610384
2015-10-06,1,0.0024064559582397363,0.0025948127042330423,-0.0045658824219436366,0.01057536410148851,0.9915236774125358
2015-10-08,1,0.0025733679801565206,0.002751297403529752,-0.006329951033905138,0.007433962825625024,0.9916518768395843
2015-10-12,1,0.003647830546562484,0.004036739644258458,-0.007789470730872789,0.005871039462810313,0.9911210505409084
2015-10-14,1,0.0025567887874901325,0.002757234204164258,-0.0045658824219436366,0.0066583157005936896,0.9925828620041932
2015-10-16,1,0.00401380989499263,0.004432413001768402,-0.0064386668775705935,0.005871039462810313,0.9918626603533358
2015-10-20,1,0.0035693844302437713,0.003884191150736462,-0.005124866216709825,0.006004312747328788,0.9912211166702193
2015-10-22,1,0.004493940606049102,0.004906674927422258,-0.005124866216709825,0.005664174063452117,0.9919537225595108
2015-10-26,1,0.0037584930893512776,0.004048929515333262,-0.005124866216709825,0.0060377195025191,0.9919207808932768
2015-10-28,1,0.0035477154647134196,0.0037938527275097863,-0.003967432065447921,0.008324799832571603,0.9904573895005193
2015-10-30,1,0.0033088450993127324,0.0035454649507917274,-0.0029693418689218662,0.013090968699804048,0.9898127740059061
2015-11-03,1,0.0030232685616039547,0.003201584250734353,-0.0029693418689218662,0.013090968699804048,0.9895501472699582
2015-11-05,1,0.002754904051138563,0.002894497390017175,-0.0015635397421978636,0.016954729748011335,0.989086722006298
2015-11-09,1,0.0023335318316374245,0.0024276626219298745,-0.0013187792389134693,0.016954729748011335,0.989693305700254
2015-11-11,1,0.002643283881836234,0.0027868564741986533,-0.0019201988272128274,0.016954729748011335,0.9894189849072468
2015-11-13,1,0.00201448620687047,0.0020741685830985086,-0.000597934864604342,0.016954729748011335,0.9899741593726668
2015-11-17,1,0.0023446738044019255,0.002427775050499563,9.542665172166824e-05,0.016954729748011335,0.9902996950351723
2015-11-19,1,0.002314964735153862,0.002351692069764266,-0.0013187792389134693,0.016954729748011335,0.9900334372184093
2015-11-23,1,0.002391664234809942,0.0024447247931753545,-0.000597934864604342,0.013244141005210357,0.9904830173213485
2015-11-25,1,0.004636922477313388,0.004991615413318929,-0.0013187792389134693,0.008573922247394018,0.9924834503181345
2015-11-30,1,0.0049429921526046566,0.005314621569828524,-0.0007168212262759966,0.007198644044814066,0.9932829229612431
2015-12-02,1,0.0051457576338447535,0.0055644455594437295,-0.005108053134127475,0.006336443730335176,0.9922393514978602
2015-12-04,1,0.005611983167498999,0.0060658109492073,-0.007662250242888373,0.006336443730335176,0.9915350997952965
2015-12-08,1,0.005155399601661056,0.005531704873636679,-0.00888841217919834,0.006336443730335176,0.9908901986936433
2015-12-10,1,0.004424138995320577,0.004683203090326583,-0.007662250242888373,0.006336443730335176,0.991150354077339
2015-12-14,1,0.004415997784595085,0.004667631538173464,-0.00896453759232284,0.007260738040163199,0.9897148614219593
2015-12-16,1,0.00475791863358755,0.0050312757512898845,-0.009688569846777198,0.005355572720700904,0.9887775529168098
2015-12-18,1,0.004308696397277163,0.004554282872533698,-0.010544820510854968,0.0071548962179194,0.9886808138026415
2015-12-22,1,0.004626780870594649,0.004911706614013311,-0.011520658654844562,0.005355572720700904,0.9875034339073386
2015-12-24,1,0.004235247406219108,0.00449585948242129,-0.011520658654844562,0.0071548962179194,0.9873620069064555
2015-12-29,1,0.004162536996768633,0.004401870626773146,-0.011520658654844562,0.012021838479838738,0.9863260731164706
2015-12-31,1,0.0035597903305123833,0.0037192655012605437,-0.011520658654844562,0.019132956413197507,0.9857875391817138
2016-01-05,1,0.0035483867792756537,0.0036957512992704224,-0.013666367051669837,0.017718978211428614,0.9856938203512714
2016-01-07,1,0.002948254657916788,0.003016291331191473,-0.013666367051669837,0.017718978211428614,0.985563701962331
2016-01-11,1,0.002213134022371622,0.002269360370385746,-0.013666367051669837,0.019132956413197507,0.9840477492198709
2016-01-13,1,0.003288136061165754,0.0034467883644896252,-0.009882689688859208,0.018457654032703826,0.9855170320152475
2016-01-15,1,0.000893317475332926,0.0010940189276511234,-0.006643864516236837,0.020051631278077926,0.9835730151335237
2016-01-20,1,3.045963095326136e-05,0.00021884784849104618,-0.006643864516236837,0.020051631278077926,0.9830330597589919
2016-01-22,1,0.00034619038021579284,0.00047904270114008604,-0.004931639502131069,0.018457654032703826,0.9842526433302258
2016-01-26,0,-0.0002482680370492099,7.903100416184992e-06,-0.00358746622718784,0.018457654032703826,0.984561673320339
2016-01-28,1,0.0006854501551766699,0.000801439808836666,-0.005521191126248123,0.013896080925477028,0.9847755777790363
2016-02-01,1,0.0020762602706011052,0.002145460231491246,-0.008985692113596212,0.007911566251138496,0.9858389765585812
2016-02-03,1,0.0005776266412073601,0.0007271929566192304,-0.00358746622718784,0.012135272341457774,0.9860468377797837
2016-02-05,1,1.5971800825861937e-05,0.00022809585006502314,-0.00358746622718784,0.012135272341457774,0.9863793357367941
2016-02-09,1,0.001838377458913648,0.001870028044808277,-0.00358746622718784,0.0068299604298316385,0.9884103411948713
2016-02-11,1,0.0011825937319098355,0.0012885633505265279,-0.005751849214582013,0.0068299604298316385,0.9881127553435948
2016-02-16,1,0.002414962334869631,0.0024207531141789305,-0.004781900402968355,0.006283988687891997,0.9914680937155712
2016-02-18,1,0.0010143594319499366,0.0011582463846235578,-0.004530501859296566,0.0068299604298316385,0.9923828399041899
2016-02-22,1,0.0009001297368175014,0.0010661685426297412,-0.008041500859170317,0.006564270069843353,0.9922834261397523
2016-02-24,1,0.0017137997442785292,0.001743500497203741,-0.008041500859170317,0.005865154787635439,0.9926860427727535
2016-02-26,1,0.0010651205035471826,0.0011527593389393047,-0.008041500859170317,0.006564270069843353,0.9927803828151615
2016-03-01,1,0.0006758710436590902,0.0008353914419884573,-0.008041500859170317,0.006564270069843353,0.992726722432257
2016-03-03,1,0.001621560926977692,0.001643493316080416,-0.008580956110908193,0.005865154787635439,0.9922391027227405
2016-03-07,1,0.001216082102210389,0.0012648164820345828,-0.008580956110908193,0.005865154787635439,0.9910992779238789
2016-03-09,1,0.000994214833022364,0.001128804010191592,-0.009404649353175028,0.006574860235854989,0.9897728362591575
2016-03-11,1,0.0007856181830808219,0.0009233375834648076,-0.009743644632733334,0.006574860235854989,0.9890545703733405
2016-03-15,1,0.0009057258648366249,0.0010374073851393821,-0.012812073973177266,0.004512082789508015,0.9877755410442693
2016-03-17,1,0.0012827079772929025,0.0013090009188113953,-0.014621515256315339,0.0039213652660249915,0.9874269419591718
2016-03-21,1,0.0004517387580673455,0.0006031090743144846,-0.014621515256315339,0.0039213652660249915,0.9881426303158487
2016-03-23,1,0.0002260995944103855,0.00041297251667097093,-0.016825335431804193,0.00267005523530686,0.9864167887249405
2016-03-28,1,6.300062212856851e-05,0.00027822998463231314,-0.016825335431804193,0.00267005523530686,0.9869964962615966
2016-03-30,0,-2.589269002935355e-05,0.00020149026884296387,-0.016825335431804193,0.00567230713346676,0.9873674232555377
2016-04-01,-1,-0.0003612403203922859,-8.422672320621666e-05,-0.01636643962515083,0.004448797185686547,0.9885969443841387
2016-04-05,-1,-0.002397762545493424,-0.0018494195498098627,-0.014621515256315339,0.004450411346345984,0.9904814394886289
2016-04-07,-1,-0.0024273556584437786,-0.0018879440194632955,-0.014035629750524165,0.004410532662905598,0.991349017586571
2016-04-11,-1,-0.003955550798279083,-0.0031994526874913978,-0.012412040175518639,0.00567230713346676,0.9901125053196641
2016-04-13,-1,-0.00485854683953767,-0.004028351487456602,-0.004676696703370098,0.0065664487060214174,0.9904020795146816
2016-04-15,-1,-0.004902789088000925,-0.004094539125472255,-0.004676696703370098,0.0065664487060214174,0.9907036029899711
2016-04-19,-1,-0.004771303930933221,-0.003988799875321952,-0.005495025424473895,0.007109084011481554,0.9890735776811009
2016-04-21,-1,-0.005178384947754051,-0.004437425279762529,-0.004676696703370098,0.007109084011481554,0.9863575197654406
2016-04-25,-1,-0.004712375284789572,-0.004057108765544607,-0.005414843046185983,0.007037189621036408,0.9864140361046302
2016-04-27,-1,-0.00397716839222997,-0.0034193938158535277,-0.006022164192420654,0.005046772296143656,0.9876243705697065
2016-04-29,-1,-0.0034027613757510507,-0.002958720469171593,-0.006022164192420654,0.005528706286330554,0.9875219218827012
2016-05-03,-1,-0.0033347498447132825,-0.0029034336461967744,-0.00844166522346727,0.005528706286330554,0.9874097341318435
2016-05-05,-1,-0.0037622713102398054,-0.00326911863529928,-0.006022164192420654,0.007001639805735624,0.9875084293407421
2016-05-09,-1,-0.0021799865961058887,-0.0018943282439181303,-0.00844166522346727,0.005384698170435595,0.9882936408676051
2016-05-11,-1,-0.001488845418784154,-0.0013206087900610069,-0.00844166522346727,0.005843854066964849,0.987797753339427
2016-05-13,-1,-0.0018021560313420527,-0.001577464446573246,-0.009564048549688285,0.005147089012751469,0.9879908839380575
2016-05-17,-1,-0.0024020595569392506,-0.0021436382968987866,-0.006396291967827659,0.0014533671497440003,0.9901152118697834
2016-05-19,-1,-0.006591412724957083,-0.005834933008675692,-0.005076683271598103,0.005147089012751469,0.9919138527547772
2016-05-23,-1,-0.006671658797730011,-0.005925919360728794,-0.005076683271598103,0.008157106209073584,0.991847057207204
2016-05-25,-1,-0.007038078018117784,-0.006228312341857321,-0.005431946042391683,0.008157106209073584,0.9914591857814026
2016-05-27,-1,-0.006641226759195366,-0.005895079318617687,-0.005431946042391683,0.010661256473935787,0.9901608466495453
2016-06-01,-1,-0.007133549617642629,-0.006307586965971212,-0.005431946042391683,0.010661256473935787,0.9888777586338664
2016-06-03,-1,-0.006895610815156225,-0.00608594104253581,-0.007346376747890748,0.010683864363669433,0.9878320851759586
2016-06-07,-1,-0.006886556380250772,-0.006090858580471382,-0.005431946042391683,0.010917924176837332,0.9881662920903914
2016-06-09,-1,-0.007088038353823685,-0.006217160667238495,-0.005610499228514389,0.010390770688699105,0.9888284934866727
2016-06-13,-1,-0.0077166201984810966,-0.0067579728224525185,-0.005187780125204936,0.010390770688699105,0.9884517697412889
2016-06-15,-1,-0.007735036780239884,-0.006787534579268924,-0.005187780125204936,0.010390770688699105,0.987472951657905
2016-06-17,-1,-0.006516542261168094,-0.005737271152342287,-0.00561262454549965,0.008492290434708734,0.9888923380657559
2016-06-21,-1,-0.00581213107142785,-0.005157362856464516,-0.005187780125204936,0.008426671435844042,0.9889017759234517
2016-06-23,-1,-0.004935733786079481,-0.004470583713461343,-0.004385683051761222,0.008426671435844042,0.989234795060802
2016-06-27,-1,-0.003932524411314937,-0.0035427975370671567,-0.005187780125204936,0.007360985776459676,0.9915027716002983
2016-06-29,-1,-0.004582661988669277,-0.0040991384662357145,-0.005187780125204936,0.007360985776459676,0.9919466724134371
2016-07-01,-1,-0.002319892822273524,-0.0021925961158949696,-0.004385683051761222,0.007360985776459676,0.99312227153561
2016-07-06,-1,-0.001600418492599584,-0.001574136751655408,-0.005658268028467054,0.005808182844640953,0.9922635131364593
2016-07-08,1,0.00014867724902763396,0.00046640228895577043,-0.005658268028467054,0.005808182844640953,0.9927293793433895
2016-07-12,-1,-0.0007341107626805845,-0.0006070067809116292,-0.0031893684912297883,0.005808182844640953,0.9926520364847471
2016-07-14,1,2.962955678365031e-05,0.00027272749189345073,-0.0076091849690773814,0.005808182844640953,0.9927828461421563
2016-07-18,1,0.00037959656636217564,0.0007142206499227354,-0.0076091849690773814,0.005934405079737324,0.992529259941905
2016-07-20,1,0.0005110476500106243,0.0008305019943319659,-0.009260586873398015,0.004660029588365691,0.991971871791806
2016-07-22,1,0.0007310396067692316,0.0010915600385229323,-0.009260586873398015,0.008516654667960265,0.98903061385595
2016-07-26,1,0.0011200093628191971,0.0016030942846481612,-0.00933779897279921,0.012608403118700685,0.9880944009451366
2016-07-28,1,0.0010979333327098713,0.001551132691778613,-0.009769963409118367,0.01007834317764478,0.9881284024405794
2016-08-01,1,0.0025383326707730906,0.0032159786282357963,-0.01078123471559515,0.008919555262222998,0.9880024236267976
2016-08-03,1,0.0010247384296853859,0.0014910057437598023,-0.009769963409118367,0.010688283893488606,0.9888243055589365
2016-08-05,1,0.001786081407883448,0.0023891662469521097,-0.009769963409118367,0.010688283893488606,0.9887492851523181
2016-08-09,1,0.0020916937795151342,0.0027427888640746546,-0.01078123471559515,0.010688283893488606,0.9878868885742959
2016-08-11,1,0.002041539109102185,0.0026717893209060864,-0.013338622716521571,0.010688283893488606,0.985816459159306
2016-08-15,1,0.002572552827519999,0.003283062430906873,-0.013338622716521571,0.010688283893488606,0.9865201933464084
2016-08-17,1,0.0024582244853900838,0.003168553560851157,-0.011480158637252918,0.010688283893488606,0.9866872354426764
2016-08-19,1,0.005138578219604848,0.006218236279829323,-0.011480158637252918,0.007315559722254079,0.9882603379954122
2016-08-23,1,0.005560678859544142,0.006697251969156796,-0.01137816103835402,0.007315559722254079,0.9881331346730596
2016-08-25,1,0.004125567877846384,0.004991148861145731,-0.009656366572425587,0.009733303210447113,0.98947324776615
2016-08-29,1,0.004151284718854542,0.005022553928404557,-0.009724051683417624,0.009733303210447113,0.9888385979237336
2016-08-31,1,0.0035939791789610484,0.004340086661626249,-0.00953121672544589,0.007315559722254079,0.9891176410535218
2016-09-02,1,0.0031461699467432687,0.0037584560369605035,-0.00953121672544589,0.006739019296453882,0.9893891768478952
2016-09-07,1,0.00264053297861929,0.0031676436545892256,-0.00953121672544589,0.006739019296453882,0.9887191083387201
2016-09-09,1,0.0006396092997806369,0.0009058120841754666,-0.005332396520960143,0.009767554986158705,0.9907826179542414
2016-09-13,1,0.0004120253441044534,0.0005564814965741925,-0.005332396520960143,0.009618092114027947,0.990833329971917
2016-09-15,1,0.0006435431340832299,0.0008259282189142576,-0.005139483150308009,0.008554029320624355,0.9911766031379871
2016-09-19,1,0.0009500306237370443,0.001213249510178273,-0.0038427532249311392,0.008554029320624355,0.9916346959237746
2016-09-21,1,0.0018100196718362522,0.0021887392465778695,-0.0038427532249311392,0.006188458321436057,0.9928281161537482
2016-09-23,1,0.0023160262411743462,0.0027618986481784194,-0.00527810774559103,0.004148445734965174,0.9925702584207474
2016-09-27,1,0.0025325033347463307,0.002989088484780241,-0.0038427532249311392,0.004148445734965174,0.9941368651392825
2016-09-29,1,0.002948311468922823,0.0035497896504229796,-0.003482060621510521,0.004148445734965174,0.9943629123252391
2016-10-03,1,0.0033143809083754456,0.003981058931948864,-0.003482060621510521,0.007350770152942394,0.9940219316354154
2016-10-05,1,0.0022557754064522267,0.002780681512247268,-0.003482060621510521,0.007350770152942394,0.9947333784475599
2016-10-07,1,0.0023082067326864134,0.002777829648449987,-0.004196029935329175,0.005969678435468794,0.9932087748517194
2016-10-11,1,0.0004257536841808918,0.0004288698101892102,-0.004196029935329175,0.007350770152942394,0.9927144145032456
2016-10-13,1,0.00030816574657278927,0.00034931972356495953,-0.008143058783627567,0.005969678435468794,0.9896757424616611
2016-10-17,0,-4.4150498696662974e-05,5.100366459252076e-05,-0.008143058783627567,0.007350770152942394,0.9896747977338881
2016-10-19,0,-3.286737697384809e-05,5.4540612243654025e-05,-0.008143058783627567,0.007546734680685008,0.9892752784952544
2016-10-21,-1,-0.0007338015101077595,-0.0005422023494244421,-0.009156944481676426,0.007546734680685008,0.9888206951718912
2016-10-25,1,1.02846357345247e-05,0.00012969105094705932,-0.009906769638876847,0.008018142943308854,0.9872299371325544
2016-10-27,-1,-0.0008084307003209715,-0.0006200671944829027,-0.011120131512959146,0.00847791982547087,0.9856150061339269
2016-10-31,0,-5.492246988074675e-05,2.5565083330316595e-05,-0.014587678265601273,0.00847791982547087,0.9855030546169151
2016-11-02,-1,-0.0011126494519832543,-0.0008840124156162812,-0.017673193711130308,0.00847791982547087,0.9833682650505305
2016-11-04,-1,-0.0028879025525384745,-0.0024373966712062474,-0.015686027442842303,0.010577997461556082,0.9840563066347644
2016-11-08,-1,-0.001538883970650478,-0.0012809831174824646,-0.015686027442842303,0.010158693911459054,0.984151358032263
2016-11-10,-1,-0.004596646958054368,-0.003984778216650888,-0.014418675793834417,0.01050523911991553,0.9859136722815139
2016-11-14,-1,-0.004450668462255879,-0.003839213294780887,-0.014418675793834417,0.01050523911991553,0.9856991894154065
2016-11-16,-1,-0.002969894843225026,-0.002597077903335716,-0.015094848895516795,0.008491655278142706,0.986283262840584
2016-11-18,-1,-0.003396039528964075,-0.0029483145971361414,-0.015094848895516795,0.008491655278142706,0.9862194885041929
2016-11-22,-1,-0.0030294241913423024,-0.0026836513211505753,-0.014418675793834417,0.006968795681601218,0.9881158710487329
2016-11-25,-1,-0.0027491631319167776,-0.002456434074196396,-0.006131677277338594,0.006968795681601218,0.98886199756009
2016-11-29,-1,-0.0030166182899660447,-0.002695496548193058,-0.006131677277338594,0.006968795681601218,0.9887525736233914
2016-12-01,-1,-0.005571695245500465,-0.004942588735403406,-0.0013037772623298682,0.008491655278142706,0.9890983855756824
2016-12-05,-1,-0.00463586071886105,-0.004139656549155569,0.001296349760196392,0.009397886746862321,0.9888355341401226
2016-12-07,-1,-0.004515671614855027,-0.004031648592670792,0.0032676506174112983,0.008491655278142706,0.9893124780335562
2016-12-09,-1,-0.0036846689980794354,-0.003317288276827812,-0.005630847011042158,0.008371585121027428,0.9893592476033352
2016-12-13,-1,-0.0030734341913142087,-0.0027850394634833155,-0.005630847011042158,0.00862683543726921,0.9895678881584687
2016-12-15,-1,-0.003478937686503478,-0.003132873036994749,0.001296349760196392,0.009855080720349874,0.9887198210797408
2016-12-19,-1,-0.002981762232172992,-0.0027003926807490676,-0.0038183005955803747,0.009855080720349874,0.9893493781027491
2016-12-21,-1,-0.0023940582335915607,-0.0022254642014446963,-0.002892263948323129,0.009855080720349874,0.9896377951894377
2016-12-23,-1,-0.0025342701126972508,-0.0022863915743556395,-0.002892263948323129,0.009475164037381712,0.9899448363802921
2016-12-28,-1,-0.00272116045820517,-0.0024675718328473354,-0.002892263948323129,0.009475164037381712,0.9903969222378852
2016-12-30,-1,-0.0025905688337678145,-0.0023600984981311042,-0.0013810975305895913,0.00862683543726921,0.9910940026538586
2017-01-04,-1,-0.0015369375168477375,-0.0014294123700044612,-0.002892263948323129,0.005824874886017581,0.9917922703115326
2017-01-06,-1,-0.0008420916232984091,-0.0008294461683188256,-0.00558163894038762,0.004403209831786485,0.9921186344798466
2017-01-10,-1,-0.0023568656070444885,-0.0021548042474142863,-0.0013810975305895913,0.007111062273190292,0.9924462764862384
2017-01-12,-1,-0.0009253590334355014,-0.0008417176869986957,-0.0013810975305895913,0.007176422092541441,0.9928755102441685
2017-01-17,0,-4.8590221797011144e-05,0.00016566634762637178,-0.0013810975305895913,0.007040491437393327,0.9939625372942923
2017-01-19,-1,-0.00021020871625820556,-4.0534695874244893e-05,-0.0013810975305895913,0.00786844801919521,0.9930246462566485
2017-01-23,0,-0.00010494917103238553,7.934224023182167e-05,-0.0006870734201491904,0.00912568392048228,0.9927437766765098
2017-01-25,1,0.00033167343421726685,0.0005659769010804298,-0.007597895193605804,0.00786783570107507,0.9903724683386979
2017-01-27,1,0.0009511728703516884,0.0011479398901055658,-0.007597895193605804,0.00786783570107507,0.990115736624266
2017-01-31,1,0.00097283686104591,0.0011546807225619531,-0.007597895193605804,0.00912568392048228,0.9894520125739822
2017-02-02,-1,-7.198454795602949e-05,-2.77408276886965e-05,-0.003356250422759232,0.00786783570107507,0.990218098331174
2017-02-06,1,8.924788491948725e-05,9.23850096008551e-05,-0.0052089942709666135,0.00786783570107507,0.990106371159789
2017-02-08,1,0.0005892979591080015,0.0006582275024908428,-0.006298771060112744,0.006128228871075015,0.9905147917814937
2017-02-10,1,0.0010117212865676456,0.0011302863541170056,-0.006298771060112744,0.005484309265280625,0.9902940918601154
2017-02-14,1,0.0017017484785058217,0.0019438300689827819,-0.007146318815825663,0.005484309265280625,0.9891823435139414
2017-02-16,1,0.0016507485320190185,0.00190821886378867,-0.007146318815825663,0.0016329149873636922,0.9894928488300713
2017-02-21,1,0.0020996979369394667,0.0024351948448211036,-0.008599230737695255,0.0006403368690890779,0.9888476772039071
2017-02-23,1,0.00043200771023938373,0.0005301494369107014,-0.006021309519686944,0.0018560313433796526,0.9925810613455954
2017-02-27,0,-8.549980669287992e-06,4.004986397843378e-05,-0.0060375071451977454,0.0018560313433796526,0.9927299735657282
2017-03-01,1,7.995570399132504e-05,8.886296602334215e-05,-0.0060375071451977454,0.00501303228410054,0.9929594040728731
2017-03-03,1,0.0003821048598718308,0.00045788292611873466,-0.007766846116417857,0.005695352048799325,0.9921304293473804
2017-03-07,1,0.00014581810571176698,0.00020719730947910302,-0.0060375071451977454,0.005695352048799325,0.9925554699806844
2017-03-09,1,4.2550684713000306e-05,0.00010348378899158653,-0.0060375071451977454,0.005695352048799325,0.9927940681933424
2017-03-13,1,0.00041435482623472297,0.0005257941946103534,-0.0060375071451977454,0.004675617231901515,0.9933033569882276
2017-03-15,1,0.0008636416640353761,0.0010355703447123472,-0.004276071955998369,0.00262150159204648,0.9943251905820729
2017-03-17,1,0.00031995013697936627,0.00040555509694552104,-0.004276071955998369,0.004675617231901515,0.9942631479136225
2017-03-21,1,0.00013099855766860854,0.0002077994706573371,-0.004276071955998369,0.005695352048799325,0.9942702279078458
2017-03-23,1,0.0003260578593967656,0.00042518769412007353,-0.004276071955998369,0.004866148016934312,0.9943231096470531
2017-03-27,1,0.00014317891401745037,0.0002475202808179851,-0.0034682676366293934,0.007043409298674398,0.9941672735530338
2017-03-29,1,0.0002678624096524257,0.00035750604397740923,-0.003553241423694036,0.0052769077541810015,0.9939944314129867
2017-03-31,-1,-0.0002004540441525162,-0.0001703184345614086,-0.003553241423694036,0.004443116856682161,0.9947681516114232
2017-04-04,1,6.736405019355825e-05,0.00011326002236547797,-0.004118758667201439,0.004443116856682161,0.9946380045931713
2017-04-06,-1,-0.0010330861761456693,-0.0008379219821251706,-0.004118758667201439,0.004704256552163137,0.9946323244533594
2017-04-10,-1,-0.000900174804303669,-0.000732356094534365,-0.005359137740335812,0.004704256552163137,0.9945059245672531
2017-04-12,-1,-0.0006839489706980859,-0.000570362778239502,-0.005359137740335812,0.004704256552163137,0.9944406124021078
2017-04-17,-1,-0.0005847245854523154,-0.00047603302186197355,-0.0047530775596541005,0.003773907385949436,0.9951060163001915
2017-04-19,-1,-0.00032587880147026454,-0.00020155599813098153,-0.0047530775596541005,0.0030470556537555834,0.9953656380589418
2017-04-21,-1,-0.0001613763648740049,-5.9075078333685254e-05,-0.0047530775596541005,0.0030470556537555834,0.9945696463286414
2017-04-25,1,0.00041125951704031754,0.0004675895232457251,-0.0047530775596541005,0.002654200394121349,0.9950086183226458
2017-04-27,-1,-0.0011611144348231551,-0.0008275317060659445,-0.0047530775596541005,0.0030470556537555834,0.9924155853654975
2017-05-01,-1,-0.0010892460195072989,-0.000790721997818908,-0.003090865028973948,0.0037477534066531998,0.9924797142249713
2017-05-03,-1,-0.0014401897999779774,-0.0011018321198137564,-0.0009461251463554589,0.005036128398065833,0.9916031859677096
2017-05-05,-1,-0.0009717153876144649,-0.0007181437764017603,-0.0009461251463554589,0.005521694738179434,0.9916886317706063
2017-05-09,-1,-0.0008763417555220364,-0.0006599122906544613,-0.00044431699363418507,0.008732688724972335,0.9909757448114106
2017-05-11,-1,-0.0013930683361062072,-0.0010964942925406798,-7.547642550557403e-05,0.010170018892553015,0.9889122878166963
2017-05-15,-1,-0.0011040107002419476,-0.0008569431328424644,-0.0011552945014895364,0.010170018892553015,0.9893679618925096
2017-05-17,-1,-0.0015674820915445801,-0.0012613044446285213,-0.0011552945014895364,0.010170018892553015,0.9894090829256006
2017-05-19,-1,-0.00045800114321450865,-0.0003113561908120417,-0.0012227463973558078,0.010170018892553015,0.9893783025915446
2017-05-23,-1,-0.0002780060682770141,-0.00012903670166790034,-0.0019438167184239429,0.008732688724972335,0.9893330073276239
2017-05-25,-1,-0.0014093792161904367,-0.0011267770859155354,-0.0012227463973558078,0.011060924123677698,0.9909910874644585
2017-05-30,-1,-0.00048323445697211,-0.0003622781195843654,-0.00359393803921515,0.011060924123677698,0.9904621494912079
2017-06-01,1,0.0006461753644746544,0.0006854377134653788,-0.004832089938059378,0.010410365757490247,0.9910654118859938
2017-06-05,1,0.00020929179912822462,0.0002879022586262976,-0.004832089938059378,0.010410365757490247,0.9911317023378564
2017-06-07,1,0.001379520812341089,0.0014710087064382874,-0.012026647086718304,0.0024301511266617377,0.9906423828776699
2017-06-09,1,0.0018871805445562575,0.0021050587245359247,-0.012026647086718304,0.0017596288092273072,0.9914926313710725
2017-06-13,1,0.0016248339395536716,0.0017964347321375645,-0.012026647086718304,0.0020175700083240244,0.9916343108651217
2017-06-15,1,0.001446413578567912,0.0015890665563935182,-0.012026647086718304,0.0029921830171106916,0.9917832279981504
2017-06-19,1,0.0015276684993615582,0.001699388388637181,-0.011118895720428377,0.0029921830171106916,0.9922195302567969
2017-06-21,1,0.0008372792766117155,0.0008951037483270099,-0.008192489812686776,0.003855766753427081,0.9920332143605091
2017-06-23,1,0.0020156227665474222,0.002236683350478192,-0.008192489812686776,0.0029921830171106916,0.9928316253109085
2017-06-27,1,0.0011690997110816864,0.0012691921892472764,-0.006624458561205056,0.003855766753427081,0.9927802814615223
2017-06-29,1,0.0009152194544288794,0.000974367165413803,-0.005531596190209298,0.0055903072802002025,0.9924335881135298
2017-07-03,1,0.001412564298243797,0.0015738387721676152,-0.005531596190209298,0.005029067852155076,0.9925625356597594
2017-07-06,1,0.0008912541897826542,0.0010245027152836104,-0.004067380412217601,0.005029067852155076,0.9936993489599055
2017-07-10,1,0.0006938479853794849,0.000829637317335864,-0.004067380412217601,0.009184933184525335,0.9934376118495023
2017-07-12,1,0.0005806618094491836,0.0006870284759980586,-0.005531596190209298,0.009184933184525335,0.9928250440186165
2017-07-14,1,0.0010626093513411762,0.0012565304235804334,-0.005531596190209298,0.00943267940050188,0.9925492726330671
2017-07-18,1,3.758206375846694e-05,4.3659756989622255e-05,-0.005232871055973297,0.00943267940050188,0.992678709836208
2017-07-20,-1,-0.0002726603729165625,-0.00020395187498783464,-0.005232871055973297,0.009184933184525335,0.9926056733128207
2017-07-24,1,0.0005512983181800161,0.0006228901389998071,-0.005232871055973297,0.007446771813601996,0.9926308015254761
2017-07-26,1,0.001283846546765644,0.0014564363951313193,-0.005615679007422402,0.007446771813601996,0.9925418547535583
2017-07-28,1,0.0014632848297158592,0.0016051314079330136,-0.009092162587576133,0.004107557830520286,0.9892536744313818
2017-08-01,1,0.0009876943944921392,0.0010599665253457494,-0.010285023621546735,0.004107557830520286,0.9888162277667474
2017-08-03,1,0.0009430654069287718,0.0010322801050638272,-0.010285023621546735,0.004107557830520286,0.9887715497318138
2017-08-07,1,0.001520307375141693,0.0017165072940530884,-0.010285023621546735,0.0038732854990375016,0.9891269418828837
2017-08-09,1,0.0006104239505234205,0.0006505957215933259,-0.007649680086938077,0.006089845087371383,0.9894605705994635
2017-08-11,1,0.0007831264874756181,0.0008198946236674697,-0.007649680086938077,0.006089845087371383,0.9893517414477997
2017-08-15,1,0.0011579795418367998,0.0012561113757509536,-0.010285023621546735,0.005128378892617894,0.9893724252809234
2017-08-17,1,0.0004236593640636645,0.00045449789381201555,-0.010285023621546735,0.006089845087371383,0.9888686167479335
2017-08-21,1,0.0007002593275110372,0.000726302933771682,-0.010285023621546735,0.006542734896621877,0.988926567292895
2017-08-23,1,0.0006434528648039567,0.0006624850567520022,-0.009303722327226698,0.005128378892617894,0.9893262353751756
2017-08-25,-1,-0.0017221595853182032,-0.0014476876038745667,-0.007245337504339985,0.006470351017793286,0.9926278598986807
2017-08-29,-1,-0.002170599543585933,-0.001843353499420586,-0.007245337504339985,0.006470351017793286,0.9921529108844477
2017-08-31,-1,-0.0025014331614375785,-0.00213471918499397,-0.007245337504339985,0.009253169040874098,0.9907359681965034
2017-09-05,-1,-0.002640848971389745,-0.0022534406790879593,-0.0070427760416041235,0.009253169040874098,0.9910339551488488
2017-09-07,-1,-0.0016880413408641168,-0.001423629879119014,-0.0070427760416041235,0.00838706968233594,0.99216806263315
2017-09-11,-1,-0.001009542499029065,-0.0008300918824582682,-0.008090694579432421,0.006122441017759894,0.9924581393993227
2017-09-13,-1,-0.0013197693076042287,-0.0011137000723472398,-0.0070427760416041235,0.00838706968233594,0.9924315661609505
2017-09-15,-1,-0.0005808510095713243,-0.0005052432152353287,-0.005000717250225205,0.006122441017759894,0.9935383753524816
2017-09-19,-1,-0.0003645874141706973,-0.0002898381240724414,-0.0070427760416041235,0.003271614812948799,0.9936233673436943
2017-09-21,-1,-0.001123596628491289,-0.0009549194822491233,-0.005757594198383653,0.003271614812948799,0.9931358826001999
2017-09-25,-1,-0.0009187999370289417,-0.0007582409620912063,-0.00765491450779341,0.002871292357528863,0.9930696666904476
2017-09-27,-1,-0.0009720700772949739,-0.0008153397105935188,-0.005757594198383653,0.0018693478610881423,0.9935740802263641
2017-09-29,1,0.0001392227641022193,0.00017601737301157046,-0.005757594198383653,0.0015915508716230525,0.9944536446796426
2017-10-03,-1,-0.0005126875808643225,-0.0003886708189980692,-0.005939025129737261,0.0016497795168488206,0.9931490989575227
2017-10-05,-1,-0.0005943342962611135,-0.00048086547819243896,-0.005939025129737261,0.0018693478610881423,0.9926640385193717
2017-10-09,-1,-0.0013268219788563147,-0.0011089576702460373,-0.006415075374541915,0.0018693478610881423,0.9921126448547525
2017-10-11,-1,-0.000248470365174393,-0.00019258586942654852,-0.006415075374541915,0.002871292357528863,0.9907793763221394
2017-10-13,1,0.0001725353965100354,0.00019735482198336723,-0.006558336282756944,0.005342314320580926,0.9900975978133646
