JNU-Tangyin/eata/results/Batch4_SP500/Batch4_SP500-GPC.csv
Date,Action,Predicted_Q25,Predicted_Q75,Actual_Q25,Actual_Q75,RL_Reward
2010-12-14,0,0.0,0.0,-0.0020456954395159737,0.002844797460550668,0.995017343674686
2010-12-16,0,0.0,0.0,-0.0029033565833598406,0.0018161196989542703,0.9945936605937307
2010-12-20,0,0.0,0.0,-0.00306946812888329,0.0018161196989542703,0.9945256138678645
2010-12-22,0,0.0,0.0,-0.005392699411558371,0.0011728289691381416,0.9945527249029252
2010-12-27,0,0.0,0.0,-0.00306946812888329,0.0011728289691381416,0.9946094505314221
2010-12-29,0,0.0,0.0,-0.00306946812888329,0.002788813189479962,0.9939929759820312
2010-12-31,1,0.0016556056651477085,0.0018160773781713026,-0.005392699411558371,0.005514405795722105,0.9930710916147351
2011-01-04,1,0.0015968121521789866,0.0016573280347199851,-0.005392699411558371,0.005514405795722105,0.9926911628098084
2011-01-06,1,0.0009349631217106337,0.0009351200066599066,-0.00306946812888329,0.0069030305961893445,0.9930065462097991
2011-01-10,1,0.0025764794036493193,0.0027181869810095132,-0.00306946812888329,0.00927750303489322,0.9926404117037682
2011-01-12,1,0.001619515474514457,0.0016808832606711051,-0.003260128145821022,0.00927750303489322,0.9926161202468783
2011-01-14,1,0.00152728158190932,0.0015576688085360705,-0.0028355261950653624,0.00927750303489322,0.9926702010707745
2011-01-19,0,0.0,0.0,-0.0013705941212925072,0.00927750303489322,0.9925796761570165
2011-01-21,1,0.0004110004949682633,0.0005412138563691236,-0.0004323872857247597,0.010528346455964496,0.9920838986398327
2011-01-25,1,0.0005191817242259126,0.0006908602457842013,-0.004125578256290599,0.00927750303489322,0.9897069527792755
2011-01-27,1,0.0013855086523897947,0.0014285645818770485,-0.004125578256290599,0.01035950702981426,0.9898509101671019
2011-01-31,0,-0.00015300851619781002,0.00017012577199356708,-0.004125578256290599,0.01035950702981426,0.9896115185119825
2011-02-02,0,-4.126678321867241e-05,0.00025538867992824343,-0.0016488074083048233,0.010790760336231685,0.9898828602876242
2011-02-04,1,0.0006660313346990985,0.0008598003003382624,-0.006706577240600643,0.01035950702981426,0.9888885270446289
2011-02-08,1,0.0014793527589635036,0.0015806996716851045,-0.007038890345588506,0.007814998425367817,0.9886258793333554
2011-02-10,1,0.001826951967231579,0.0018441536060975522,-0.011005440420864505,0.007814998425367817,0.9882268346819404
2011-02-14,1,0.0015573905793711943,0.0016211559811929867,-0.011005440420864505,0.007814998425367817,0.9881006332452376
2011-02-16,1,0.0018392226319301512,0.001842422530488703,-0.01218354478198415,0.009453496254209864,0.987097139989955
2011-02-18,1,0.002747721211459605,0.0028735897797774147,-0.01218354478198415,0.010700288482320242,0.9866575144589279
2011-02-23,-1,-0.0007640450425672894,-0.00042598706358920146,-0.008914184031239294,0.010700288482320242,0.9899585432678886
2011-02-25,0,0.0,0.0,-0.008914184031239294,0.009531863826448656,0.9899124516579517
2011-03-01,-1,-0.0015835663351260654,-0.0011914608433781645,-0.007857132541580363,0.009531863826448656,0.990311353787271
2011-03-03,-1,-0.00038484755548550645,-0.0001374370286972951,-0.007857132541580363,0.007983525380477134,0.9911671214795771
2011-03-07,-1,-0.0017174494164046382,-0.001317436554475909,-0.005850198883277132,0.00855796239004668,0.9918091273174535
2011-03-09,-1,-0.0012535085130344075,-0.0009136216247612105,-0.0062399124753789136,0.00781483905418625,0.9927559974184054
2011-03-11,-1,-0.0005990989877685594,-0.0004353110976651596,-0.0062399124753789136,0.00781483905418625,0.9927382493394282
2011-03-15,-1,-0.001187686223052604,-0.000938158387645349,-0.005616619854976314,0.00855796239004668,0.9919350916205986
2011-03-17,-1,-0.0014741067292565124,-0.0011837036002545368,-0.005414975242170817,0.00781483905418625,0.9924224279684759
2011-03-21,-1,-0.00044264569405822157,-0.0002664344956828142,-0.005939372293577102,0.00692756300861484,0.9920960579064986
2011-03-23,-1,-0.0007549493481488391,-0.0005444909867928457,-0.005616619854976314,0.007590807376247434,0.9914110129063269
2011-03-25,-1,-0.0007094525409856568,-0.0005067952745354782,-0.005939372293577102,0.007590807376247434,0.9911791135537477
2011-03-29,-1,-0.0006502458271503334,-0.0004569721205544755,-0.005682601361069075,0.007782286379437282,0.9908645526864192
2011-03-31,1,7.033204931400155e-05,0.00016115906496592182,-0.005682601361069075,0.007782286379437282,0.9907722217380741
2011-04-04,1,0.00015513336701779382,0.0002658405074895356,-0.006437856993657194,0.006836262331182558,0.9910402896753696
2011-04-06,-1,-0.00022479769797387146,-7.041163451168174e-05,-0.005682601361069075,0.006836262331182558,0.9912683074008442
2011-04-08,-1,-0.0009213116239398965,-0.0006776469372188204,-0.005414975242170817,0.010320842381839893,0.9908752980104873
2011-04-12,-1,-0.0007434941248178336,-0.0005018388816061379,-0.005134084637542796,0.010320842381839893,0.9912060114046314
2011-04-14,-1,-0.0006017387771116096,-0.000386994941134176,-0.005324341221794728,0.011748151681675218,0.9907454548620399
2011-04-18,-1,-0.0024598137767118926,-0.002019603893380035,-0.00446632620656078,0.011748151681675218,0.992201789515494
2011-04-20,-1,-0.0012556896741101936,-0.0009906428676109717,-0.00446632620656078,0.010320842381839893,0.9930498446441381
2011-04-25,-1,-0.002119943641128435,-0.0017285574327884114,-0.004929165311546995,0.010320842381839893,0.9924976699336151
2011-04-27,-1,-0.000744056811868161,-0.000569889880890608,-0.005182249084956858,0.008090184402923088,0.9932364844725685
2011-04-29,1,9.89543285741439e-05,0.00013877946880656855,-0.005182249084956858,0.004239424382542623,0.9933731555706496
2011-05-03,1,3.1936095386316617e-05,6.58380781837309e-05,-0.005182249084956858,0.008090184402923088,0.991087497346828
2011-05-05,-1,-0.0004249991083228862,-0.0003217098540139499,-0.007581537270978338,0.008090184402923088,0.9905996573103422
2011-05-09,1,0.000522100526343808,0.0005379478184856643,-0.007925914381772307,0.002471620413611738,0.9908984663876628
2011-05-11,0,0.0,0.0,-0.008648521651766786,0.002471620413611738,0.9911003982144778
2011-05-13,0,0.0,0.0,-0.009941565265829134,0.002471620413611738,0.9909924194298876
2011-05-17,0,0.0,0.0,-0.009941565265829134,0.003478752110412569,0.9900609823296805
2011-05-19,0,0.0,0.0,-0.009941565265829134,0.004599061723141321,0.9898170015552502
2011-05-23,0,0.0,0.0,-0.00861357139271818,0.006373990593956163,0.9898512605416262
2011-05-25,-1,-0.00021605617161306483,-0.00016602377704118528,-0.00861357139271818,0.007685256166731133,0.989502666796482
2011-05-27,0,-7.846555521858588e-06,5.406728859100463e-06,-0.00861357139271818,0.009775695035228658,0.9888692501396992
2011-06-01,-1,-0.0014620237714355502,-0.0012507942614735116,-0.007925914381772307,0.009775695035228658,0.9906711236403093
2011-06-03,-1,-0.001498589068407588,-0.001323371707187449,-0.006141701343401105,0.011115470988883117,0.9898332772988252
2011-06-07,-1,-0.0021235522272035623,-0.0018561481317995337,9.960059033741484e-05,0.01252614554077403,0.9884809362187504
2011-06-09,-1,-0.0023516005307399855,-0.0020509875065704364,0.0010999116276799792,0.01252614554077403,0.988777516723988
2011-06-13,-1,-0.002904239773970542,-0.002535439180969564,-0.0021992645223422977,0.01252614554077403,0.9882641885966179
2011-06-15,-1,-0.002669486751120832,-0.0023153752722658923,-0.0021992645223422977,0.011115470988883117,0.9894800071953045
2011-06-17,-1,-0.0017064194770174716,-0.0014778536987376273,-0.003200903124683547,0.01252614554077403,0.98821027844148
2011-06-21,-1,-0.0005394683460652546,-0.00047267893645110723,-0.005451308506414126,0.013020338353044305,0.9884010965621307
2011-06-23,-1,-0.0004526746433798403,-0.0003889152435745182,-0.003200903124683547,0.013020338353044305,0.9890172245524286
2011-06-27,-1,-0.0003486472338724168,-0.0002981595262158549,-0.0034392836577032838,0.011485154809577465,0.988331145740854
2011-06-29,1,0.00034438833160657716,0.0004139197463403716,-0.006644038914544221,0.007289422678925572,0.9881474075340526
2011-07-01,1,0.0016436077905947976,0.00191904708331752,-0.011016575712532966,0.001085565604681005,0.9882469092037579
2011-07-06,1,0.0025152312546736187,0.0029057598269994827,-0.012502773380100089,-9.973306908752218e-05,0.9872983887469738
2011-07-08,1,0.002389551891740155,0.002757409357952628,-0.016967165282421107,-9.973306908752218e-05,0.985763001162749
2011-07-12,1,0.0015452343629452422,0.00177030160060198,-0.016967165282421107,0.001280338468802244,0.9825321946283171
2011-07-14,1,0.0015974431150330409,0.0018657662527110305,-0.02334810790226943,0.003979829650126152,0.9784090160103888
2011-07-18,1,0.0011524869525874773,0.001255555109248773,-0.02334810790226943,0.008660037277581936,0.9796911065032996
2011-07-20,0,0.0,0.0,-0.02334810790226943,0.00749755378859881,0.9805259741584171
2011-07-22,0,0.0,0.0,-0.030114897536954288,0.00749755378859881,0.9786049491040919
2011-07-26,0,0.0,0.0,-0.02334810790226943,0.014184181173412596,0.9769864179527308
2011-07-28,0,0.0,0.0,-0.01797708578896077,0.014184181173412596,0.9771354701888539
2011-08-01,-1,-0.0005256607667791038,-0.00042848029040603593,-0.01797708578896077,0.024116487909676635,0.975310701771459
2011-08-03,-1,-0.001457179807938453,-0.0012245110642738403,-0.011997416226913409,0.024116487909676635,0.9760286984582182
2011-08-05,-1,-0.002516833947793674,-0.0021568982267473756,-0.011997416226913409,0.024116487909676635,0.9757570961135792
2011-08-09,-1,-0.002606278564871254,-0.0022220572321298123,-0.01150517092226484,0.022338388006373305,0.9795257258202809
2011-08-11,-1,-0.0019475523348360078,-0.0016871517763229317,-0.01150517092226484,0.01801545393874339,0.9826670387259341
2011-08-15,-1,-0.001029123830440009,-0.0008664626190722403,-0.01150517092226484,0.019421769619022505,0.9830643833958056
2011-08-17,0,0.0,0.0,-0.01150517092226484,0.019421769619022505,0.9829837949706097
2011-08-19,0,0.0,0.0,-0.009527150274271208,0.019421769619022505,0.9836261457108544
2011-08-23,0,0.0,0.0,-0.012714547639157808,0.008992838709250467,0.9843886535317736
2011-08-25,0,0.0,0.0,-0.015677541361185227,0.01165337211512863,0.9831725189329835
2011-08-29,0,0.0,0.0,-0.015677541361185227,0.01165337211512863,0.9834341005017041
2011-08-31,1,0.0014239361574995212,0.0016111136394191148,-0.015677541361185227,0.015361675634219363,0.9823794164593787
2011-09-02,1,0.0007288645274669864,0.0008459787551914238,-0.026336006071721395,0.015361675634219363,0.9814470007087571
2011-09-07,0,0.0,0.0,-0.026336006071721395,0.016278068186388474,0.9810682940889138
2011-09-09,0,0.0,0.0,-0.016214313467453702,0.01790918039208958,0.9812879669815735
2011-09-13,-1,-8.90860235456919e-05,-6.922301370663427e-05,-0.016214313467453702,0.018434836265713066,0.9800825893670696
2011-09-15,0,0.0,0.0,-0.016214313467453702,0.018434836265713066,0.9803531936609403
2011-09-19,1,7.397588994590296e-05,7.585053210972737e-05,-0.014509431863487245,0.019225495133831323,0.9798239945286948
2011-09-21,-1,-0.0013796914954633368,-0.0012282328537423762,-0.010139635466735006,0.02171892351030029,0.979768407083195
2011-09-23,-1,-0.0018897992805836752,-0.001673016344713687,-0.009398378468529658,0.025423314078540718,0.980036261588662
2011-09-27,-1,-0.00044323086008549314,-0.00038561786018070823,-0.010139635466735006,0.02171892351030029,0.9807938496232881
2011-09-29,0,0.0,0.0,-0.009398378468529658,0.02209823907561011,0.9809790360809529
2011-10-03,0,0.0,0.0,-0.008762764511855436,0.02209823907561011,0.9827749541787706
2011-10-05,0,0.0,0.0,-0.009398378468529658,0.021932280484842227,0.9823593691684274
2011-10-07,0,0.0,0.0,-0.009144586654602034,0.025668314504768867,0.982135389051173
2011-10-11,0,0.0,0.0,-0.009144586654602034,0.020470839807140206,0.9838487545988402
2011-10-13,0,0.0,0.0,-0.01138554866421116,0.020470839807140206,0.9821524709505701
2011-10-17,0,0.0,0.0,-0.009742945327810299,0.019456346675307674,0.9828091917820903
2011-10-19,0,0.0,0.0,-0.011205696438841383,0.01640983525667647,0.9842442088168983
2011-10-21,0,0.0,0.0,-0.011205696438841383,0.012885501250532352,0.9851596802418338
2011-10-25,0,0.0,0.0,-0.011205696438841383,0.011116391124476363,0.985228999330749
2011-10-27,0,0.0,0.0,-0.014844636967948424,0.007810458687283353,0.9856845622307516
2011-10-31,0,0.0,0.0,-0.011205696438841383,0.011116391124476363,0.9853172649283294
2011-11-02,-1,-0.0030060334397923644,-0.002891326373581966,-0.009710844741635739,0.011116391124476363,0.9849905840488437
2011-11-04,-1,-0.0019176410171783784,-0.0019144959880864165,-0.009710844741635739,0.011116391124476363,0.9852708361371442
2011-11-08,-1,-0.0016609344979440967,-0.001631816458013167,-0.010898630166493794,0.011070288388010137,0.9851952420949357
2011-11-10,0,0.0,0.0,-0.010898630166493794,0.009497622891570181,0.9861490910355939
2011-11-14,1,0.001882109173431843,0.002076689327036343,-0.012945090516966337,0.008319957029574495,0.9866465914081234
2011-11-16,1,0.0016225248547609857,0.0017884465965862426,-0.012945090516966337,0.008319957029574495,0.98657244320795
2011-11-18,1,0.0013504291287034713,0.0015077188750595924,-0.012945090516966337,0.009497622891570181,0.9866409940251393
2011-11-22,0,0.0,0.0,-0.009677334295387028,0.011462540536077514,0.9863050456586013
2011-11-25,0,0.0,0.0,-0.007103958091272163,0.013612537310454536,0.9861742910361629
2011-11-29,0,0.0,0.0,-0.0078415300874091,0.011462540536077514,0.9869858830078886
2011-12-01,0,0.0,0.0,-0.009509786670126391,0.010118757278080147,0.9887942399896285
2011-12-05,0,0.0,0.0,-0.009509786670126391,0.009074649377298892,0.9895903008621099
2011-12-07,0,0.0,0.0,-0.0078415300874091,0.009074649377298892,0.990161452583823
2011-12-09,0,0.0,0.0,-0.004559226353330604,0.009408004169126356,0.990735375749042
2011-12-13,0,0.0,0.0,-0.0006440236937049065,0.009408004169126356,0.9913196721380135
2011-12-15,0,0.0,0.0,-0.0006440236937049065,0.009408004169126356,0.9919811085526362
2011-12-19,0,0.0,0.0,0.0007974432586776751,0.012309590439037604,0.9914141715382809
2011-12-21,0,0.0,0.0,-0.0006440236937049065,0.008557094898395411,0.9926880808877536
2011-12-23,0,0.0,0.0,-0.002164198595955786,0.006224955746069795,0.993659000975995
2011-12-28,0,0.0,0.0,-0.002164198595955786,0.005934289360766959,0.9939549355454432
2011-12-30,1,0.00028001823329369907,0.0004873971608936157,-0.002168761697059127,0.004564074598523477,0.9947374895889617
2012-01-04,0,0.0,0.0,-0.0036340677350650166,0.004564074598523477,0.9943971479533001
2012-01-06,1,0.0016183188814146779,0.0016669686318287883,-0.002254422646589984,0.00513661757901246,0.9948112015794119
2012-01-10,1,0.0019470144008793622,0.0020330212169122515,-0.002254422646589984,0.003676007897862979,0.995265059982076
2012-01-12,0,0.0,0.0,-0.002254422646589984,0.0037262613931657662,0.9948988482409369
2012-01-17,1,0.0019623917237779733,0.0020737796851113357,-0.0017444907132141948,0.0037262613931657662,0.995258648804312
2012-01-19,1,0.0024670396548952824,0.0026235042558621162,-0.002361254783530219,0.0031329178605958544,0.9945849055569149
2012-01-23,1,0.0027597552971100983,0.0030352859510734305,-0.002361254783530219,0.0031329178605958544,0.9936302293155831
2012-01-25,1,0.002998613757750097,0.003318515145094531,-0.00523118589890502,0.0027650712080964906,0.9923236465162257
2012-01-27,1,0.0023011838253164823,0.0024767751861959125,-0.004785714567748529,0.0027650712080964906,0.9927087705455617
2012-01-31,1,0.002073854614905466,0.002227140989236012,-0.002361254783530219,0.0031329178605958544,0.9932171427127079
2012-02-02,0,0.0,0.0,-0.002142829273247695,0.0031329178605958544,0.9937266386386006
2012-02-06,0,0.0,0.0,-0.004333736430289378,0.0017313935803621914,0.993702738927888
2012-02-08,0,0.0,0.0,-0.004333736430289378,0.0031329178605958544,0.9931267202595473
2012-02-10,0,0.0,0.0,-0.0049328398202461154,0.00031949613819786055,0.993196775473845
2012-02-14,-1,-0.00044257364503256646,-0.0003864930029579243,-0.0049328398202461154,0.003516611205422594,0.9925459652843078
2012-02-16,1,0.0002728325156116261,0.0006676561057129633,-0.00553798236905333,0.001745134669789501,0.99375804459628
2012-02-21,0,-0.00010105799884292226,1.2019435374721295e-05,-0.0040383979091404495,0.002454629431744894,0.9949589259334805
2012-02-23,-1,-0.00045110370747705514,-0.00029342601564347605,-0.00321704967251307,0.002454629431744894,0.9955372016339431
2012-02-27,0,0.0,0.0,-0.0040383979091404495,0.003516611205422594,0.9943683134594707
2012-02-29,0,0.0,0.0,-0.0040383979091404495,0.00475618971057819,0.994202436027755
2012-03-02,-1,-0.0009132813644104472,-0.0006587780444114018,-0.005079419402957187,0.004406651442318391,0.9942768399370818
2012-03-06,-1,-0.00048550502094101835,-0.00033278526723425826,-0.0040383979091404495,0.005298058950714979,0.9940301326474781
2012-03-08,-1,-0.00045603765710045723,-0.0002898200652494444,-0.005079419402957187,0.005298058950714979,0.993860026561698
2012-03-12,-1,-0.0007972675481946882,-0.0005780361266336613,-0.008353149470758763,0.005298058950714979,0.9917139816001564
2012-03-14,0,-0.00010768321498515323,1.224436763149438e-06,-0.008353149470758763,0.006427485605643987,0.9903565849791397
2012-03-16,1,8.90037239141981e-06,6.744090211357646e-05,-0.006977460572470333,0.007709446914703091,0.9905615706623258
2012-03-20,-1,-0.0002662325863094335,-0.00015322820969272758,-0.006977460572470333,0.008438129740988086,0.9898820073541391
2012-03-22,0,0.0,0.0,-0.006977460572470333,0.008438129740988086,0.9894865111327741
2012-03-26,-1,-0.0003045704052454569,-0.00021159256978864268,-0.006977460572470333,0.007709446914703091,0.9896951519360612
2012-03-28,0,0.0,0.0,-0.006977460572470333,0.009508135856568975,0.9888289740292462
2012-03-30,0,0.0,0.0,-0.010440501344406836,0.012950521423718473,0.987849794782792
2012-04-03,1,0.00010041898494426987,0.00015743310469712451,-0.010440501344406836,0.01403360655720087,0.9872365036733588
2012-04-05,0,0.0,0.0,-0.012245232971001146,0.01403360655720087,0.987010895411363
2012-04-10,0,0.0,0.0,-0.004173018168375488,0.01403360655720087,0.989059286225062
2012-04-12,-1,-0.00029464733632665206,-0.0002058200883549844,-0.009129084597132726,0.010359769549303594,0.9906672087847168
2012-04-16,0,0.0,0.0,-0.009932394728742085,0.010359769549303594,0.990341884233253
2012-04-18,0,0.0,0.0,-0.009932394728742085,0.007014813168512025,0.9905803007333654
2012-04-20,-1,-0.0013837897669117271,-0.0010111974696032449,-0.010944119778415555,0.007014813168512025,0.9891007621824125
2012-04-24,-1,-0.001535818893857253,-0.0011756479211436157,-0.009677331210805419,0.010359769549303594,0.9883421141586572
2012-04-26,1,0.0005422891925537705,0.0005780877565332261,-0.009677331210805419,0.006285510554411753,0.9891407437954425
2012-04-30,1,0.0010139124016320489,0.001077617385557105,-0.009129084597132726,0.006285510554411753,0.9894495517110403
2012-05-02,1,0.0013433155384231599,0.001410911401985805,-0.009677331210805419,0.006141778328577309,0.9895610767564805
2012-05-04,1,0.00039150814165015986,0.00045746440227776674,-0.009466326280357217,0.006141778328577309,0.9892798579266153
2012-05-08,1,7.648515712260935e-05,0.0002025358751444659,-0.01097840956912062,0.006285510554411753,0.9883154605522537
2012-05-10,-1,-0.00048401057289328337,-0.0002734188737278466,-0.01097840956912062,0.0067566791089054366,0.9881357026611204
2012-05-14,-1,-0.0011284465317463752,-0.0008370394006195344,-0.01097840956912062,0.007904765750981186,0.9877672037007484
2012-05-16,-1,-0.0004704454200225092,-0.0003177456741987095,-0.01174497650759435,0.007904765750981186,0.9877643685909338
2012-05-18,-1,-0.002158052979831107,-0.0018528638727571605,-0.007140620767742436,0.010645387758781865,0.98918671100284
2012-05-22,-1,-0.0011351677971552104,-0.0009452114938657676,-0.007140620767742436,0.010645387758781865,0.9903544430358956
2012-05-24,-1,-0.0012678637525296624,-0.001052921384728617,-0.01174497650759435,0.010746361290846749,0.9892598963917659
2012-05-29,-1,-0.0003790407152464306,-0.0002825482655188503,-0.011969260970143662,0.010553042920341593,0.9892955840463559
2012-05-31,-1,-0.000700453266177525,-0.0005730680259964989,-0.013260421312768304,0.010746361290846749,0.9879827620689549
2012-06-04,-1,-0.0014223565027909704,-0.0012399404233139118,-0.011867767982692207,0.010746361290846749,0.9889904213774161
2012-06-06,-1,-0.0014828080432262628,-0.0012985121963239093,-0.0055371189121040405,0.010746361290846749,0.9891316762916363
2012-06-08,-1,-0.0010134429990959768,-0.000883517486353686,-0.009270286502795136,0.010553042920341593,0.989199706970248
2012-06-12,-1,-0.0003687946128006078,-0.0003679237507712388,-0.009270286502795136,0.010207491440504958,0.9892054449881246
2012-06-14,-1,-0.0009343417950761794,-0.0008542607098311013,-0.008387770029829362,0.010746361290846749,0.9882366955274241
2012-06-18,-1,-0.00018859292512835734,-0.00017319394025065702,-0.008387770029829362,0.010207491440504958,0.9886607021623749
2012-06-20,1,0.00012996174122727693,0.00018560626026154137,-0.008387770029829362,0.011787779915158888,0.9871646472815568
2012-06-22,-1,-0.0004027691455956377,-0.00037528422637373907,-0.008387770029829362,0.01134125490325737,0.987965057039692
2012-06-26,-1,-0.0011822100324209686,-0.0010716455236000968,-0.008149973636384849,0.01134125490325737,0.9887824080527678
2012-06-28,-1,-0.0009246278228460649,-0.0008598105953208966,-0.007115186106405914,0.013838709998338734,0.9895004870897186
2012-07-02,-1,-0.000661226036954819,-0.000628416696200928,-0.007115186106405914,0.013838709998338734,0.9897113491238068
2012-07-05,1,0.00026689445199260995,0.0003682372071266633,-0.008149973636384849,0.008989000372701353,0.9901184920362336
2012-07-09,-1,-0.00026963115242822715,-0.0002433605704442361,-0.007115186106405914,0.013973496414309082,0.989314042766513
2012-07-11,-1,-0.0004721561904329178,-0.0004464231588025955,-0.005312118670496184,0.013973496414309082,0.9899042354621497
2012-07-13,1,0.0003861252828891922,0.0004890547523301057,-0.007115186106405914,0.00906874763950668,0.9909759162948333
2012-07-17,1,0.00015455551182342334,0.000181222882052392,-0.008104468093375896,0.00906874763950668,0.990837958697136
2012-07-19,1,0.0014688773524991787,0.0016668007129465212,-0.008104468093375896,0.0029725427601447786,0.9921704978103668
2012-07-23,1,0.0009963873348487243,0.0011448671349917725,-0.006668484473127772,0.0079674467897469,0.9922982695722982
2012-07-25,1,0.0007415412542087505,0.0008586889136484948,-0.005612550022573839,0.0079674467897469,0.9922820834319079
2012-07-27,1,0.0014633509184349617,0.00165971342966102,-0.005612550022573839,0.0013038572880717842,0.9931300944135649
2012-07-31,1,0.0013624335920261934,0.001566378934317343,-0.005612550022573839,0.0015385992637936513,0.9934260894101858
2012-08-02,1,0.0007669083099429785,0.0008824717829307587,-0.005612550022573839,0.0025702017352446024,0.9936781968671141
2012-08-06,1,0.0014240400959138347,0.0016600702680196824,-0.005612550022573839,0.0015385992637936513,0.9939337513258077
2012-08-08,1,0.0014541789535333824,0.0016689378441537277,-0.006898774466120606,0.0015385992637936513,0.9925284515124537
2012-08-10,1,0.0011487896008410424,0.0013232676871526242,-0.005612550022573839,0.002022266893260539,0.9930575019794908
2012-08-14,1,0.00048525788443779525,0.0005409508514110815,-0.005085699034183491,0.0028518293538372487,0.9935250721499691
2012-08-16,1,0.0008226866826029379,0.0009256200434715081,-0.005085699034183491,0.0028518293538372487,0.9934811072211335
2012-08-20,1,0.0011783279584474619,0.0013478945061187126,-0.005085699034183491,0.002387946310858614,0.9933350079314259
2012-08-22,1,0.0008192952551665618,0.0009365283650596389,-0.003309183389221299,0.0033301729561062005,0.9936008419485962
2012-08-24,1,0.0009338032154382694,0.0010870600493852836,-0.005406278595017808,0.0037005018749274965,0.9933011768732675
2012-08-28,1,0.0008279906750852692,0.0009664063800668596,-0.006814012288845402,0.0037005018749274965,0.9928547220086718
2012-08-30,-1,-0.00021032646581208594,-0.00012554561517955657,-0.006814012288845402,0.003171223310507598,0.9931221261194118
2012-09-04,-1,-0.000769069370672743,-0.0006244475650984953,-0.006574068957281495,0.003171223310507598,0.9938520348458719
2012-09-06,-1,-0.0003534710151159978,-0.00026884986672472664,-0.00434276917514724,0.003171223310507598,0.9942464588608114
2012-09-10,1,9.421143598271256e-05,9.88966150505999e-05,-0.00434276917514724,0.003171223310507598,0.9943413433386517
2012-09-12,-1,-0.00011070435884093729,-6.93015262790046e-05,-0.006814012288845402,0.0029819783985355858,0.9938015395647232
2012-09-14,-1,-0.00031177895848591403,-0.0001973750003385511,-0.006814012288845402,0.0012318593551984966,0.9943284704665479
2012-09-18,-1,-0.000694346703165269,-0.0005957325713880997,-0.006574068957281495,0.0029819783985355858,0.994656421196211
2012-09-20,-1,-0.00029238261191638686,-0.0002393646578285772,-0.006574068957281495,0.0012196592260687756,0.9949601104916173
2012-09-24,1,0.00013029375758160224,0.00018013820931201622,-0.006814012288845402,0.0007773748199837729,0.9946954301260251
2012-09-26,-1,-0.000886860810005924,-0.0007712323653576469,-0.005831267599705758,0.0012196592260687756,0.9943146258536298
2012-09-28,-1,-0.0010986834069238627,-0.0009627485593279656,-0.003996589145227866,0.0034166041789606572,0.9940906865370405
2012-10-02,-1,-0.0012188561450937195,-0.0010593042510788802,-0.0035892270250845832,0.00656820919074603,0.9924050655882559
2012-10-04,-1,-0.00047843279191041267,-0.00037720244718389846,-0.005981298778304693,0.005068033077513565,0.993024601989477
2012-10-08,-1,-0.0005866597118058567,-0.0004730124951426449,-0.008629568737002661,0.00656820919074603,0.9917062195179923
2012-10-10,-1,-0.0021456595547878037,-0.001781197076183274,-0.00635676065755934,0.00656820919074603,0.9913667280173799
2012-10-12,-1,-0.0015997495030301246,-0.0013458933095066208,-0.008589136160166934,0.00656820919074603,0.9910009311856801
2012-10-16,-1,-0.0011741591404420188,-0.0009706798221468435,-0.008885818377510395,0.005068033077513565,0.9911886050703949
2012-10-18,-1,-0.00059344707861368,-0.0005098914174497973,-0.008885818377510395,0.00656820919074603,0.9904859487274116
2012-10-22,-1,-0.0013419269688672345,-0.0011633978226619351,-0.008247525021379865,0.008492247752255332,0.9902784451043817
2012-10-24,-1,-0.0020780256345529894,-0.001772936086871788,-0.0071358730647339405,0.009130078832822639,0.990576586936386
2012-10-26,-1,-0.0017131005982293094,-0.001444846975418474,-0.0071358730647339405,0.011481801305560944,0.9903496712293789
2012-11-01,1,0.0005761965627269986,0.0006025732140979843,-0.0071358730647339405,0.009179258688951811,0.9915068152355362
2012-11-05,1,0.00018367522787073243,0.00021253163410323277,-0.006769415493380291,0.009179258688951811,0.9919741773793304
2012-11-07,1,0.0006396757438996008,0.0006415040359064633,-0.0064470182560905,0.00851281907298661,0.9928102167291185
2012-11-09,1,0.00028223739052744726,0.00029523530860906737,-0.006269548510426803,0.00851281907298661,0.9934066329253263
2012-11-13,-1,-0.0001269372397360007,-8.456712044955185e-05,-0.004102062349693796,0.00851281907298661,0.9938100579590683
2012-11-15,-1,-0.0006805971247915328,-0.0005559246858885031,-0.004102062349693796,0.00851281907298661,0.9938672047539449
2012-11-19,-1,-0.0006544826543753116,-0.0004797623633021231,-0.004102062349693796,0.00851281907298661,0.9937986817094622
2012-11-21,-1,-0.00045932774259361793,-0.00033371107032590937,-0.004102062349693796,0.00907863753430776,0.9937476160867295
2012-11-26,0,0.0,0.0,-0.0054601285076098785,0.006180984502432271,0.993705142415625
2012-11-28,0,0.0,0.0,-0.006269548510426803,0.005690144485529487,0.9937240160566513
2012-11-30,0,0.0,0.0,-0.0064470182560905,0.005348045329751588,0.9934511303338586
2012-12-04,0,0.0,0.0,-0.006269548510426803,0.005690144485529487,0.9923855797345771
2012-12-06,0,0.0,0.0,-0.006283729590243754,0.005690144485529487,0.9923936120242585
2012-12-10,0,0.0,0.0,-0.0054987135729475025,0.007214919007853179,0.9922560204067603
2012-12-12,1,0.0006406607085579191,0.00078140257656784,-0.006744064694719442,0.007214919007853179,0.9922064388159749
2012-12-14,1,2.8582477228535015e-05,5.0122627764718564e-05,-0.004992488332343577,0.007214919007853179,0.9921986840114607
2012-12-18,1,0.0005712532508601862,0.0006432865957818722,-0.005370458880787187,0.005668635895089218,0.9928491426243556
2012-12-20,1,0.001758010211801764,0.0020518500493041177,-0.005370458880787187,0.005567990400681456,0.9931786051434094
2012-12-24,1,0.0010391176306446545,0.001213522268288025,-0.0033004628319359,0.007214919007853179,0.9932268578812246
2012-12-27,1,0.0007775428530930668,0.0009017889148810941,-0.0032379854556070964,0.006505316235647165,0.9935094497908367
2012-12-31,1,0.001045787865022062,0.0012282410729561161,-0.0032379854556070964,0.006505316235647165,0.9931707669682415
2013-01-03,1,0.0022039708222267042,0.002566748926378155,-0.0032379854556070964,0.006996695424379343,0.9937533259671821
2013-01-07,1,0.0018874269643863301,0.002184519093949173,-0.0032379854556070964,0.008785732099104632,0.9935334774178693
2013-01-09,1,0.0018268804801867813,0.0020743679145528203,-0.0032379854556070964,0.006957296961819023,0.9939145010928244
2013-01-11,1,0.0016206903909024976,0.0018768842976641478,-0.0010029833433491148,0.006957296961819023,0.994282524971063
2013-01-15,1,0.0021635871347987687,0.0025033820157873404,-0.0010029833433491148,0.006957296961819023,0.9943797093023008
2013-01-17,1,0.0017330036907736383,0.0019926419578830787,-0.00010726108439101347,0.008855277552851213,0.9941855969449991
2013-01-22,1,0.00199948086415891,0.0022862056704569984,-0.0010029833433491148,0.006957296961819023,0.9927264906602709
2013-01-24,1,0.0021206497992639363,0.002416561899375506,-0.0015161684382519137,0.006957296961819023,0.9925161300063445
2013-01-28,1,0.0020270588230551323,0.0023048064466012594,-0.0015547537900327314,0.006957296961819023,0.9921763425801279
2013-01-30,1,0.0018498327458045885,0.0020525481165164874,0.0008651816451404245,0.007932089139299678,0.9926395770865627
2013-02-01,1,0.0027292944102394775,0.0030653116189533567,-0.0004240157635310906,0.007932089139299678,0.9930759603214965
2013-02-05,1,0.0026748001967791387,0.002994402772497263,-0.0004240157635310906,0.00804103305560658,0.9930743768621783
2013-02-07,1,0.002669819457185026,0.0029897883733829376,-0.0004240157635310906,0.009345266683701899,0.9925410118337107
2013-02-11,1,0.002936574801655001,0.0033024479554501908,0.0025524814177906707,0.010154973841426704,0.9922816687633542
2013-02-13,1,0.0028824909481864882,0.003204057969468069,0.0025524814177906707,0.010798697527166739,0.9919551060462931
2013-02-15,1,0.003327857967091152,0.0037246081852833146,-0.001899423916030388,0.010798697527166739,0.991646430849201
2013-02-20,1,0.0019513941191555046,0.002155426265000062,-0.0007781288833387181,0.011474158814247968,0.9925220820708544
2013-02-22,1,0.0019112373565022198,0.0020728602231659117,-0.0003037254649409384,0.010798697527166739,0.9931179424954751
2013-02-26,1,0.0015500359359830788,0.001653477603806912,-0.0003037254649409384,0.011474158814247968,0.992461852747951
2013-02-28,1,0.002147470075708725,0.0023209102858020424,-0.0003037254649409384,0.010798697527166739,0.9934113340954889
2013-03-04,1,0.0028007103490208653,0.0031078310902432583,-0.000659514776092887,0.010798697527166739,0.993215858264553
2013-03-06,1,0.0028597145076932782,0.0031589875344777574,-0.000659514776092887,0.010891081716345213,0.9924280150396602
2013-03-08,1,0.00285422945332453,0.0031140016699632163,-0.002803485326809633,0.010891081716345213,0.992194367839543
2013-03-12,1,0.003349415165758263,0.0036628497937034473,-0.005560351931668801,0.01065405073830419,0.9923103444066158
2013-03-14,1,0.003813556815195447,0.004208025101026435,-0.005560351931668801,0.008865014837086219,0.9921189890912123
2013-03-18,1,0.003165532240040375,0.0034784254072479977,-0.005560351931668801,0.008865014837086219,0.9913173775041041
2013-03-20,1,0.002965372397349218,0.003206053561402758,-0.006658758228719209,0.007547678395226606,0.9911609807648962
2013-03-22,1,0.0025868052064496262,0.00277023999690807,-0.010456941324377656,0.007394296885117308,0.9896151465291775
2013-03-26,1,0.0026652813948079257,0.0028775450972743652,-0.009747489360571699,0.007394296885117308,0.9900748768851987
2013-03-28,1,0.003037726887719404,0.003361623895153532,-0.009747489360571699,0.007986310370096518,0.989186147264749
2013-04-02,1,0.002740547476276398,0.0030039551291170994,-0.007167577020088765,0.007986310370096518,0.9897136680911353
2013-04-04,1,0.0024078121756314773,0.0026094240432811685,-0.007167577020088765,0.007986310370096518,0.98927645290355
2013-04-08,1,0.0021228055949566093,0.002253007382581492,-0.007167577020088765,0.009150206966120688,0.9894593350573513
2013-04-10,1,0.0017191134484532535,0.001763880869740783,-0.007167577020088765,0.013331372175738987,0.9892153415022984
2013-04-12,1,0.001318324594913498,0.0013339408297003456,-0.007167577020088765,0.013331372175738987,0.9892886596561853
2013-04-16,1,0.0008844368292488822,0.000935663889063024,-0.0058040900304448554,0.013451888086671384,0.9904652240427375
2013-04-18,1,0.0006306422387937984,0.0006982529553365775,-0.0034657486829758983,0.014945815802283428,0.9901409842069384
2013-04-22,-1,-0.0002756564693312816,-0.00010676020158651047,-0.0008870428806208309,0.01535815148112649,0.9906257018334016
2013-04-24,1,0.0004357653977501153,0.0004982731460665237,-0.0025172959925671783,0.01535815148112649,0.9904895180063045
2013-04-26,1,0.0007937985367987802,0.0007965777201237923,-0.0025172959925671783,0.014945815802283428,0.9912127417395478
2013-04-30,1,0.0011733079817969558,0.0012122904808522365,-0.0034657486829758983,0.013334946128725683,0.9903217837870112
2013-05-02,1,0.0007062585200543984,0.0007508342180571227,-0.005818457158477323,0.01271645431258927,0.9910600077714862
2013-05-06,1,0.0008362274790907754,0.0008831422411476,-0.0065484482544742656,0.007683792832968008,0.9911857361135313
2013-05-08,1,0.0006513999182419631,0.0007383150942262,-0.00744113413621547,0.0063729821863713326,0.9908467784254047
2013-05-10,1,0.0003382761593772856,0.00047980521122860213,-0.00744113413621547,0.008784022372799244,0.9899325481392781
2013-05-14,1,0.0009431894691399541,0.000982555301419576,-0.008192734102756151,0.0063729821863713326,0.9899130833861084
2013-05-16,1,0.0011952524128837913,0.0012098553466439806,-0.008192734102756151,0.0063729821863713326,0.9899809118865409
2013-05-20,1,0.0011851220420064216,0.0011980402899550106,-0.008192734102756151,0.0063729821863713326,0.9903552237394458
2013-05-22,1,0.0010331925838213073,0.0010740008938680532,-0.010874452665314343,0.005958235257780888,0.9894816310344403
2013-05-24,1,0.0008577146624466962,0.0009248496305661223,-0.010874452665314343,0.005958235257780888,0.9896233806891421
2013-05-29,1,0.00019171737166538173,0.0003131238502704847,-0.009192408369761122,0.006311587780954367,0.9902018823946287
2013-05-31,-1,-0.0005485263735285212,-0.00033672355387602125,-0.00781050702142878,0.008477000177265302,0.9905055010208988
2013-06-04,-1,-0.0008020104708692529,-0.0005502798112393945,-0.005380412499072224,0.010790667705511557,0.9877598126867037
2013-06-06,-1,-0.0012877518919209867,-0.0009618081173418644,-0.004480792690275145,0.011774619350274487,0.9882246660294636
2013-06-10,-1,-0.0005192440763640874,-0.00029679826042977163,-0.004480792690275145,0.009636338566869442,0.9897131451720148
2013-06-12,-1,-0.0012113249649899718,-0.000891624326548759,-0.00268066504640238,0.011774619350274487,0.9892428841066527
2013-06-14,-1,-0.0004694979143408805,-0.0002563326683201893,-0.004480792690275145,0.009636338566869442,0.9897149947137629
2013-06-18,0,-6.335574420095262e-05,9.808087279681768e-05,-0.004480792690275145,0.009636338566869442,0.990076652345977
2013-06-20,-1,-0.0016240056971553371,-0.001273285310907044,-0.00403963597177924,0.009636338566869442,0.9909797271156576
2013-06-24,-1,-0.0015481628802518355,-0.001217260655149334,-0.00403963597177924,0.009636338566869442,0.9908811011787052
2013-06-26,-1,-0.0011436730211086925,-0.000889120654018623,-0.00403963597177924,0.008683036048191267,0.9915538720469227
2013-06-28,-1,-0.00047148544874771727,-0.000293588113605417,-0.004527839733492602,0.003940922276524088,0.9920166771279237
2013-07-02,1,0.001284918954727453,0.0013130862796088192,-0.004527839733492602,0.0024177201572028167,0.9944950903436268
2013-07-05,1,0.0013473666426982722,0.0013901128500945297,-0.0041219304492508034,0.0029232972171923184,0.9938157179881105
2013-07-09,1,0.0010932271336968706,0.0011136583645166443,-0.005080519451791795,0.0029232972171923184,0.9931968038017333
2013-07-11,1,0.0015883600822921588,0.00168780539218852,-0.006197476067090453,0.0024177201572028167,0.9932593410837203
2013-07-15,1,0.00061879036560824,0.0006971503536899083,-0.006802364617691927,0.002218241175105394,0.9933008883222293
2013-07-17,1,0.0005819870681411155,0.0006521424887799636,-0.0070657728761072455,0.002218241175105394,0.9929099141171288
2013-07-19,0,-9.069955543738919e-05,7.576390816473787e-05,-0.00866570015893742,0.002218241175105394,0.9924431388943799
2013-07-23,-1,-0.0002474192086951735,-9.359627909969549e-05,-0.00866570015893742,0.0037274193192042343,0.9916916447977822
2013-07-25,1,0.0002060976572468198,0.00028710974757202275,-0.010340879153924438,0.0037274193192042343,0.991468143349094
2013-07-29,-1,-0.00016031597742708882,-3.86738971925952e-05,-0.010340879153924438,0.0037274193192042343,0.9919199302933064
2013-07-31,1,0.0001725987555251348,0.00023563678494883199,-0.011357957952125112,0.002698360688265315,0.9907536584841655
2013-08-02,1,0.0013520769535060179,0.001464599560517367,-0.011357957952125112,0.0006088490717320599,0.991456192375204
2013-08-06,1,0.0009342581517525898,0.0010149396828832299,-0.010340879153924438,0.00098625103915837,0.9924546862066732
2013-08-08,1,0.0004236133140947171,0.00043366929501430945,-0.010340879153924438,0.002698360688265315,0.9922862242085904
2013-08-12,1,0.0003220234840290318,0.00033100125506586365,-0.008096806365172557,0.004586198203568397,0.9915783098154312
2013-08-14,1,9.395604569246348e-05,0.00011592587703775247,-0.008025979924239228,0.004586198203568397,0.9916819488980442
2013-08-16,-1,-0.0008907300113160143,-0.0007548437657092513,-0.004153620267745876,0.004586198203568397,0.9928058217172886
2013-08-20,1,0.00016811890898586095,0.00017061455995703382,-0.004153620267745876,0.005461636721996093,0.9932538236517339
2013-08-22,-1,-9.843131812215463e-05,-6.1757296657782e-05,-0.004153620267745876,0.004726687487056607,0.9936020500716198
2013-08-26,-1,-0.0003133440138762599,-0.00024367612912841284,-0.004153620267745876,0.004726687487056607,0.993358856983367
2013-08-28,-1,-0.001018577443872992,-0.0008735935635957404,-0.0029550369969841865,0.004726687487056607,0.9943102833749975
2013-08-30,-1,-0.0010784208000687416,-0.0009260872980378651,-0.0029550369969841865,0.0059672482072911535,0.9940108970493913
2013-09-04,-1,-0.001048228489410716,-0.0008928435250994687,-0.0029550369969841865,0.0059672482072911535,0.9938719401149816
2013-09-06,-1,-0.0008664957183257014,-0.0007031545563165582,-0.0031842598034054126,0.0059672482072911535,0.9930568776561846
2013-09-10,-1,-0.0003301164842972531,-0.00020988057684526547,-0.005365269281469214,0.0024900606957719276,0.9931472149092831
2013-09-12,-1,-0.001433759339665509,-0.00112668704532303,-0.00422091700021283,0.00425235965796378,0.9922226075811535
2013-09-16,-1,-0.001265100321590233,-0.0010069770816652753,-0.0042265915268026024,0.00425235965796378,0.9920669343939035
2013-09-18,-1,-0.0002511499403129186,-0.00012469429595870948,-0.006207656697603779,0.0024900606957719276,0.992027509279318
2013-09-20,-1,-0.00027109876863441604,-0.00017770286993857643,-0.00961006258724266,0.004336503292794211,0.9904531508104105
2013-09-24,-1,-0.0005069899535951241,-0.0003820070070858911,-0.00961006258724266,0.004336503292794211,0.9902908331751157
2013-09-26,-1,-0.000394503205041292,-0.0002988290704346535,-0.00961006258724266,0.005764053739503779,0.9900554887918304
2013-09-30,-1,-9.837831061212078e-05,-4.317435592168228e-05,-0.00961006258724266,0.004184628168701322,0.9904164220487367
2013-10-02,0,-4.1713061972879816e-08,4.299315578905601e-05,-0.00961006258724266,0.005291474312631244,0.9901285987250125
2013-10-04,1,9.45596961080719e-05,0.0001050978013025347,-0.007511100851328632,0.003674377728843917,0.9917853375560469
2013-10-08,-1,-0.0008721869865573161,-0.0007588424040999415,-0.004206820501445531,0.005291474312631244,0.9919193951331374
2013-10-10,1,0.0003882387632361071,0.0004492000281910868,-0.005459757079404281,0.005291474312631244,0.9922342733897719
2013-10-14,1,0.0001960317358112884,0.00023933861914439,-0.004206820501445531,0.009308737634654465,0.9914839150320776
2013-10-16,1,9.768265672185792e-05,0.0001282652530614492,-0.0035534364583758487,0.006532841909592434,0.9923358641138336
2013-10-18,-1,-0.0005314983791712466,-0.0004476357041382254,-0.0012217173682493227,0.006532841909592434,0.9934849795638455
2013-10-22,-1,-0.0012008559036352767,-0.001008528823204804,-0.0035267852385717454,0.006532841909592434,0.9932425327853137
2013-10-24,-1,-0.0010886424117593889,-0.0008984105870617883,-0.0038937170182840883,0.006212137606812787,0.9931710419400404
2013-10-28,-1,-0.0011868989842731851,-0.000977992054396146,-0.00407848553956492,0.006212137606812787,0.993018063454539
2013-10-30,-1,-0.0008364034409347415,-0.000699010097482188,-0.0038937170182840883,0.006841205240232203,0.9931000283490274
2013-11-01,-1,-0.0011105883359948166,-0.0009204373646314961,-0.00407848553956492,0.009308737634654465,0.992434206195966
2013-11-05,-1,-0.0003112646476818189,-0.0002428753395420555,-0.004863977730448085,0.008154606198954785,0.9923815657519766
2013-11-07,-1,-0.0005421089500878328,-0.00046761463907657626,-0.004863977730448085,0.008154606198954785,0.9921852679132596
2013-11-11,-1,-0.0004304369848836231,-0.000303728821083478,-0.004863977730448085,0.006461130042504778,0.9927987356008466
2013-11-13,-1,-0.0004521107274031726,-0.0003181100530562697,-0.006538279853629816,0.006461130042504778,0.9920714389711215
2013-11-15,-1,-9.489472372369202e-05,-8.740342022546299e-06,-0.006538279853629816,0.005198154208076396,0.9925192122135975
2013-11-19,-1,-0.00011281662891402352,-5.596090277565301e-05,-0.006331236608118659,0.006461130042504778,0.9920659847545771
2013-11-21,1,0.0006869609026018265,0.0008173502725999011,-0.005090452035665402,0.006461130042504778,0.9925000705438464
2013-11-25,1,0.0006891077658415157,0.0008309205341207046,-0.005090452035665402,0.0068048877684976795,0.9923955410518503
2013-11-27,1,0.000762130360418145,0.0009023078266133322,-0.005090452035665402,0.0068048877684976795,0.9926321573843131
2013-12-02,1,0.001037634831278728,0.0012417942127073262,-0.0028379279149716094,0.005630091447200565,0.9934782727401177
2013-12-04,1,0.0007234662259644638,0.0008756563367471257,-0.0028379279149716094,0.004998681129294663,0.9937329516474269
2013-12-06,1,0.0009062344865050972,0.0010786720344560306,-0.002514540380624538,0.004998681129294663,0.9944593502974954
2013-12-10,1,0.0009578090386696014,0.001113517459448143,-0.002835121695254135,0.003849432636805359,0.9947035849310637
2013-12-12,1,0.0003083654128242716,0.0003615002141517176,-0.0023257990363519314,0.004998681129294663,0.9943723590089232
2013-12-16,1,0.00033722982382176827,0.0004049472011909824,-0.0019461503236205247,0.006732542907487526,0.9933798602839763
2013-12-18,1,0.0005710369471518716,0.0006557089143385316,-0.0019461503236205247,0.006732542907487526,0.9935023694579472
2013-12-20,1,0.0005881317828704776,0.0006841699297068338,-0.001385287894894983,0.006732542907487526,0.9934016710040849
2013-12-24,1,0.0012986104575572724,0.0015376873105552153,-0.003910344676578142,0.006411905314185775,0.9925015078779084
2013-12-27,1,0.001131763654855794,0.0013185608030738302,-0.003910344676578142,0.007063242129976391,0.9922599098755239
2013-12-31,1,0.0009422546680766693,0.0010892056309025422,-0.006142893894499333,0.00795031884214789,0.9907847557461494
2014-01-03,1,0.0006572610716646741,0.0007562439491488944,-0.006142893894499333,0.00795031884214789,0.9889352894276292
2014-01-07,1,0.0008120289212641421,0.0009137270352264619,-0.006142893894499333,0.007063242129976391,0.9896501722173647
2014-01-09,1,0.00018379518043921148,0.0002149990764526946,-0.006142893894499333,0.009517227054330682,0.9875154446480399
2014-01-13,1,6.886506442730037e-05,7.664832413880824e-05,-0.0006862613918297643,0.010485239618000958,0.9881405230156459
2014-01-15,1,0.0007168449659537005,0.0007842802202934739,-0.0006862613918297643,0.010264128534885775,0.9885990488195289
2014-01-17,1,0.0008327387901699353,0.0009097060394259256,0.0011157159250983829,0.011742595625936452,0.9880243971802491
2014-01-22,1,0.0006217267136868096,0.0006219443679438392,-0.0013918137642323957,0.011742595625936452,0.9872829082927765
2014-01-24,-1,-0.0004937848546746115,-0.0003567762676882244,0.0017777038035502236,0.011742595625936452,0.9879860309327149
2014-01-28,-1,-0.00015337241188514934,-5.567406839225667e-05,0.000300589021880747,0.011742595625936452,0.9882138482598984
2014-01-30,-1,-0.00020099935316036016,-0.00012682676299964767,0.000300589021880747,0.011955678105073989,0.9888084639355318
2014-02-03,-1,-0.0015239354429290464,-0.0013377427693172085,0.000300589021880747,0.011955678105073989,0.9898546492783176
2014-02-05,-1,-0.0011824222554094614,-0.0010224957774081366,-0.0038474585754687623,0.011955678105073989,0.9899717962506278
2014-02-07,-1,-5.738702664019287e-05,-2.2750633873856274e-05,-0.004274660490987802,0.011118491855080107,0.9916826217248248
2014-02-11,1,0.0006325954669102969,0.0007207450903187633,-0.004274660490987802,0.010067652218753779,0.9922867659756317
2014-02-13,1,0.0010335861672681047,0.0011618479075293825,-0.004985131314171062,0.005511813269484744,0.9924238991900154
2014-02-18,1,0.0014947328655457266,0.001676637099107201,-0.004985131314171062,0.00410441947232585,0.9936946322845965
2014-02-20,1,0.0015251781160505041,0.0017052598894621265,-0.004985131314171062,0.00394494719878709,0.9939104279297211
2014-02-24,1,0.001450801815924723,0.001627550348235356,-0.005794889391157165,0.00394494719878709,0.993442243881033
2014-02-26,1,0.0014874258379200041,0.0016728676578207132,-0.005794889391157165,0.0032992640279925203,0.9936359833336547
2014-02-28,1,0.001618543718216701,0.0018098920204587033,-0.005794889391157165,0.0032992640279925203,0.9936316132322497
2014-03-04,1,0.0010317177571408428,0.0010896299934540499,-0.004884403246322479,0.0032992640279925203,0.9939566800320014
2014-03-06,1,0.0011488805299518943,0.0012691933572568388,-0.0036388451237621402,0.00394494719878709,0.9941990018105998
2014-03-10,1,0.0008699016731214208,0.0009369894046411587,-0.004884403246322479,0.0032992640279925203,0.9931906330056022
2014-03-12,1,0.0009167751426474115,0.0009783372992992745,-0.004884403246322479,0.0047377430744129645,0.9921559169176991
2014-03-14,1,0.00018025921428842758,0.00024349319927895622,-0.0070014563636079715,0.0047377430744129645,0.9914969383503068
2014-03-18,1,0.00021069923138333085,0.0002776165101167655,-0.0070014563636079715,0.004680085752489298,0.9913631793554081
2014-03-20,1,1.3532497066414849e-05,8.761337481770146e-05,-0.004884403246322479,0.007811414447192428,0.9906900546973921
2014-03-24,-1,-0.0004712716452365806,-0.0003414614888588416,-0.005154919234416798,0.007963896394589652,0.9898518015241882
2014-03-26,-1,-0.0005111589127060837,-0.0003724934883140774,-0.006211187203635793,0.007963896394589652,0.98964417037238
2014-03-28,0,-7.230875112339296e-05,1.5420139546717048e-05,-0.00788070684442385,0.007963896394589652,0.9897010133439433
2014-04-01,1,0.0006658603457680111,0.0006858587584618369,-0.00788070684442385,0.007963896394589652,0.9899110030097277
2014-04-03,1,0.0005383587048270531,0.0005614847113632104,-0.01165927049601846,0.007963896394589652,0.9893752182310622
2014-04-07,-1,-8.995346263115784e-05,-4.019161544449988e-05,-0.00767277472832705,0.007963896394589652,0.9903543816837974
2014-04-09,1,0.0008917435125463156,0.000968171747375275,-0.00767277472832705,0.005369418030266216,0.991216595574975
2014-04-11,1,9.362152576940168e-05,0.0001021913001336878,-0.004906406862003645,0.006164734251659311,0.9920457906773089
2014-04-15,1,0.0002394046701877693,0.00025180484541870954,-0.005644490511020246,0.006164734251659311,0.9919049159196368
2014-04-17,1,0.0006998781350943605,0.0007427331660428225,-0.00645757312276475,0.006164734251659311,0.9923142225678121
2014-04-22,1,2.6243909053133048e-05,7.428552448669623e-05,-0.00645757312276475,0.005369418030266216,0.992802853185293
2014-04-24,1,0.0003164859237592756,0.00032303256309001993,-0.00645757312276475,0.006638050292544758,0.9924821459079901
2014-04-28,1,0.000533299193717554,0.000556549171964927,-0.005644490511020246,0.005142617702335771,0.9929437007694046
2014-04-30,1,0.0005404981139627606,0.0005450435163899116,-0.005644490511020246,0.004316416031990051,0.9932928818570318
2014-05-02,-1,-0.00013889371601274406,-7.060906679052961e-05,-0.004961738660478174,0.005363067962922812,0.9935989307733344
2014-05-06,-1,-0.00041671849225701657,-0.00033279384985387646,-0.004683396103364327,0.005363067962922812,0.9935770316145821
2014-05-08,-1,-0.0006153091556341705,-0.0004719236914005081,-0.004683396103364327,0.005784430600424808,0.9932810414665084
2014-05-12,-1,-0.0001778838401753626,-7.969655586479764e-05,-0.005177140352401325,0.0052836633318254665,0.993623364766672
2014-05-14,-1,-0.000372610828471539,-0.00027626470940973454,-0.005889685931075086,0.0052836633318254665,0.9934706734379084
2014-05-16,-1,-0.0003505506892868432,-0.0002482050596564348,-0.004977775344537305,0.004992070748306466,0.9941201148371741
2014-05-20,-1,-0.0009150872704648601,-0.000764668635130695,-0.0021243135699796955,0.00573176652505049,0.9939740089606995
2014-05-22,-1,-0.00029974581628452427,-0.00022791460848799942,-0.0028875262765381176,0.00573176652505049,0.9943916950532883
2014-05-27,-1,-4.760099672548976e-05,-2.7370808141232404e-06,-0.005634728232466784,0.00573176652505049,0.9942852059121164
2014-05-29,-1,-0.000316523948972966,-0.00022464753546183255,-0.005634728232466784,0.00573176652505049,0.9945905300500844
2014-06-02,1,0.00033380419883404574,0.0003341270747460064,-0.005634728232466784,0.00573176652505049,0.9944042863968645
2014-06-04,-1,-0.0003228826733335094,-0.00023549502772242446,-0.004018103352554078,0.00573176652505049,0.9948749907489173
2014-06-06,-1,-0.00022369924451913118,-0.0001168302451538136,-0.005523632401662822,0.005213942604302883,0.9945489396293608
2014-06-10,0,-1.7819206918429168e-05,1.57731374591749e-05,-0.005523632401662822,0.006846643584298535,0.9941531144920165
2014-06-12,-1,-0.0003755209834806055,-0.0003047309309601948,-0.004048500198883279,0.006846643584298535,0.9936352079512938
2014-06-16,1,2.2517620877934272e-05,3.148621235478437e-05,-0.005725918771454386,0.006846643584298535,0.9934137224858681
2014-06-18,-1,-8.89252216304906e-05,-1.0118511123543298e-05,-0.0061547255291123,0.0032735352917616783,0.9937349228677685
2014-06-20,1,0.0003280148502434391,0.00033859163291134504,-0.0061547255291123,0.0032735352917616783,0.9935341953001713
2014-06-24,-1,-0.0005401238624919344,-0.00040674301902814353,-0.007042976292441674,0.0032735352917616783,0.9929600686137106
2014-06-26,-1,-0.0016587203996872267,-0.0012969159243191378,-0.007042976292441674,0.0032735352917616783,0.9929306680805432
2014-06-30,-1,-0.000910401037798587,-0.0006616364249820011,-0.00710795292516676,0.002104026525327353,0.9932371569588688
2014-07-02,-1,-0.00029284795283895465,-0.00018338661268204654,-0.007651418421390071,0.002324940629788736,0.9917315684268103
2014-07-07,1,0.00019741425910859176,0.0002289904428517018,-0.007651418421390071,0.002324940629788736,0.9923213510917746
2014-07-09,1,0.0006113178567599001,0.0006668988088545731,-0.007192959429572223,0.002104026525327353,0.9928607120163832
2014-07-11,1,0.00043467459378619385,0.0004970738702488078,-0.007114412302289078,0.002104026525327353,0.9924635725850947
2014-07-15,1,0.0002363380818612782,0.00028492692083944605,-0.0068901566285023905,0.002104026525327353,0.9927138278865408
2014-07-17,-1,-5.329654261653267e-05,-5.2244429852499444e-05,-0.005936990877266539,0.003986498769532716,0.9922856616822032
2014-07-21,1,0.0002576030395651496,0.0003029736571674037,-0.005936990877266539,0.003986498769532716,0.9921810201239512
2014-07-23,1,4.9392965121832934e-05,9.294947527508802e-05,-0.0033323497016265885,0.006065984802431732,0.9928499828524191
2014-07-25,1,8.146567461677994e-05,0.000123477098279951,-0.0033323497016265885,0.006516525072528286,0.992619862422994
2014-07-29,-1,-0.0005926391889292506,-0.00053208291949151,-0.002593630862012212,0.006516525072528286,0.9926295171803423
2014-07-31,-1,-0.0012691037914206,-0.001123669380375212,-0.002593630862012212,0.006065984802431732,0.9939794676623718
2014-08-04,-1,-0.0006504339135042351,-0.0005909254589383537,-0.002564909721636442,0.00528842309465183,0.9941011735565459
2014-08-06,-1,-0.0011585714621219257,-0.0010088117738233655,-0.002869585625413089,0.00528842309465183,0.9937080925278305
2014-08-08,-1,-0.000334097862016416,-0.00029182414413384314,-0.002869585625413089,0.004880499400819287,0.9949129219698056
2014-08-12,-1,-0.0007869492010022663,-0.0006811290088074949,-0.004246377412956529,0.005251683096471692,0.9942065493824482
2014-08-14,-1,-0.0003417605404084222,-0.0002669302262569651,-0.004246377412956529,0.005251683096471692,0.994460053515818
2014-08-18,-1,-0.0001973850048866177,-0.00014091220818787046,-0.0033098653065857337,0.005251683096471692,0.9948252323679627
2014-08-20,1,0.0004464105654434524,0.0004950999623185236,-0.0033098653065857337,0.004963455477248895,0.9951523238362998
2014-08-22,1,0.0008249100459488019,0.0009504405983534256,-0.0042924722012175065,0.004481541456012308,0.9950558750581211
2014-08-26,1,0.0008047042782170187,0.0009383481077644796,-0.004349716862493808,0.0045502864876776315,0.9944564785143508
2014-08-28,1,0.0002957917416139219,0.0003043656817204971,-0.005528758922887677,0.005457918191467665,0.9935274719371318
2014-09-02,1,0.0007667845146649281,0.0008890760403261236,-0.005528758922887677,0.005457918191467665,0.993467139997647
2014-09-04,1,0.00021812774710775878,0.00022080470473177886,-0.005592692781653897,0.005998482002150745,0.9931016593546784
2014-09-08,1,0.000391255210804505,0.0004345495423607499,-0.004828516050111785,0.006665028539788258,0.9927075865669909
2014-09-10,1,0.000683754787531164,0.0007891587609938881,-0.004828516050111785,0.007942881797292183,0.9916539313692337
2014-09-12,1,0.000744356259413134,0.0008386877340675564,-0.007273085989865535,0.0070375367523902894,0.9912290293151858
2014-09-16,1,0.0009081327949136706,0.0010256948225695229,-0.011423572316454115,0.007288107537937606,0.9905491953116439
2014-09-18,1,0.0010539777126144104,0.0012030708226585668,-0.011423572316454115,0.008813217970057513,0.9903018168971608
2014-09-22,1,0.0008827256148188857,0.00101867781732316,-0.011423572316454115,0.009389519940658102,0.9901396275178067
2014-09-24,1,0.0007044716206107595,0.0007810927833454477,-0.006536403079069461,0.009389519940658102,0.9893920681518265
2014-09-26,1,0.00025949435917223674,0.0002683969257547337,-0.004170938188815967,0.009389519940658102,0.9902426951799838
2014-09-30,1,0.00013906747739168382,0.00015033563629623822,-0.001024283845838926,0.010184061169433056,0.9898889439201041
2014-10-02,1,0.0002390777024850571,0.0002649598774547363,-0.0007139304215764673,0.01099513978453884,0.990024244149539
2014-10-06,1,0.00018416310725273089,0.00018818888358528648,0.0002684010427885751,0.01099513978453884,0.9899453235851297
2014-10-08,1,0.000559415058782682,0.0006100140053671311,0.0005439938200369221,0.010184061169433056,0.9911186525975703
2014-10-10,-1,-0.0004350124114926586,-0.00033097169335337553,0.0005439938200369221,0.010184061169433056,0.9914849748953022
2014-10-14,-1,-0.0001884658820857474,-0.00013549915699102638,0.000681721991636184,0.009872401332101523,0.9924997708579991
2014-10-16,1,0.0005488266024026214,0.0006003580732227198,0.0005439938200369221,0.009872401332101523,0.9931348935021298
2014-10-20,1,0.0009087641779635595,0.0010047679180646932,0.0002684010427885751,0.00945197334828075,0.9934151286251393
2014-10-22,1,0.0018419974185773338,0.0020828308866418406,0.0005439938200369221,0.007660294962560208,0.9953374543911488
2014-10-24,1,0.001737706337150092,0.0019348197333257816,0.0005439938200369221,0.007995499039358606,0.9950506843810754
2014-10-28,1,0.0022371592657611616,0.0025243293775145045,0.000339260905354033,0.007285896953746735,0.9950983319407679
2014-10-30,1,0.002407404722389938,0.0026972214887297377,0.000681721991636184,0.007285896953746735,0.9955839826523782
2014-11-03,1,0.002468527796454777,0.0027405296026214118,0.00040296108547257706,0.007179731149561511,0.9955958724333845
2014-11-05,1,0.002914139002514254,0.003249770830406411,0.00040296108547257706,0.007179731149561511,0.9958423513675568
2014-11-07,1,0.0031262403724626694,0.0035173916249878257,-0.0013375553612763765,0.007179731149561511,0.9954719487488862
2014-11-11,1,0.0032243569873289975,0.003634814087955616,-0.004032384487814032,0.007179731149561511,0.9948953907488156
2014-11-13,1,0.0030081114622620944,0.0033587152638721507,-0.0049559145979645915,0.007179731149561511,0.9943880043989349
2014-11-17,1,0.00280197353743544,0.0031269337551410414,-0.0049559145979645915,0.007179731149561511,0.994320929094849
2014-11-19,1,0.003034603934297527,0.0034102552170886553,-0.0049559145979645915,0.007970132846786212,0.9933010970840445
2014-11-21,1,0.003253178683526635,0.0036478282290758443,-0.0049559145979645915,0.0077059157613256326,0.9934479190720537
2014-11-25,1,0.0033013201995864337,0.0037133755669462366,-0.004032384487814032,0.009264331640117201,0.9933853650055706
2014-11-28,1,0.003646187844816154,0.004102724964200347,-0.004032384487814032,0.007721964689554898,0.9936114963163142
2014-12-02,1,0.0032273877464912195,0.0035943468059559513,-0.004706632940002555,0.007211311105640451,0.9932757036703519
2014-12-04,1,0.0033634435956167146,0.0037270983455877137,-0.005473686658242128,0.005731644847714325,0.9929340546187432
2014-12-08,1,0.0023144405542484267,0.0025351054012859274,-0.006748708972417793,0.008086798663494078,0.9909706081810898
2014-12-10,1,0.0024368245162026993,0.0027124647475563262,-0.006748708972417793,0.008086798663494078,0.9905916398244804
2014-12-12,1,0.0019792929824534876,0.002124954631349555,-0.006764210657783536,0.005731644847714325,0.9892970013016366
2014-12-16,1,0.0021196233439786994,0.0022724135735400688,-0.007525655303942133,0.004498514182129682,0.988770822610802
2014-12-18,1,0.0024217142457183503,0.0025876120635865705,-0.007525655303942133,0.0039585044046727205,0.9889600202328752
2014-12-22,1,0.0022676900535173183,0.002385096966288391,-0.007525655303942133,0.003900911383952105,0.9888919139597582
2014-12-24,1,0.0023604149537784693,0.0024864928943819494,-0.007525655303942133,0.0031840960944019923,0.9893786782065037
2014-12-29,1,0.0023677454535448285,0.00248250322693089,-0.013190593868147978,0.002649308725097513,0.9876149680464786
2014-12-31,1,0.0020959323659573447,0.002194960662367271,-0.018434096077243493,0.002649308725097513,0.9872361588181487
2015-01-05,1,0.0014157253626720175,0.0014324693669790184,-0.018434096077243493,0.004202853433558412,0.9854301855937022
2015-01-07,1,0.0008197014165555375,0.0008758517494010236,-0.018434096077243493,0.0040359022176063635,0.9868116971896584
2015-01-09,1,0.0003279030165866264,0.00044150035189726377,-0.013226375253358146,0.004878961145189762,0.9873040911087149
2015-01-13,-1,-0.0007023842542777818,-0.0004863113069528492,-0.006823666499586678,0.004878961145189762,0.9891363811466031
2015-01-15,-1,-0.001661964498840144,-0.0013397155730635706,-0.0026894466874275947,0.004878961145189762,0.989448674808171
2015-01-20,-1,-0.0008976807207856847,-0.0006591872576084722,-0.006702975701257774,0.004612599721275545,0.990329308036099
2015-01-22,-1,-0.0006654016721780074,-0.0004494241199687355,-0.006702975701257774,0.004612599721275545,0.9905225838379168
2015-01-26,-1,-0.0007639857511051698,-0.000540018833781573,-0.006702975701257774,0.004612599721275545,0.990613185454842
2015-01-28,-1,-0.0017499107973429572,-0.0014041940960013112,-0.002968209255770996,0.004612599721275545,0.9915518461155728
2015-01-30,-1,-0.0028065857936552378,-0.0023316159913205647,-0.002968209255770996,0.004878961145189762,0.9918056866371348
2015-02-03,-1,-0.0006101264774415865,-0.000387039278492883,-0.004816296976040635,0.004257556687995118,0.9937380915486006
2015-02-05,-1,-0.0017414707430863682,-0.0014022119865287506,-0.004816296976040635,0.003915618669070335,0.9942954960796061
2015-02-09,-1,-0.0017473238799116202,-0.0014157938093752912,-0.006239279653467126,0.003915618669070335,0.993554073027809
2015-02-11,-1,-0.0016802981876371833,-0.001356863290655869,-0.006239279653467126,0.003915618669070335,0.9924769257142401
2015-02-13,-1,-0.001764516891276671,-0.001414551203434538,-0.006239279653467126,0.00460156279486666,0.9920116914824325
2015-02-18,-1,-0.0021236335606554806,-0.0017374147521381001,-0.006998367190313562,0.006024978814676136,0.991545064631808
2015-02-20,-1,-0.0021366207053941932,-0.0017348080446618307,-0.006998367190313562,0.0046987500261899155,0.9915713476846055
2015-02-24,-1,-0.0024667723463856935,-0.0020118509828832435,-0.01150497161498764,0.0046987500261899155,0.9913401239643247
2015-02-26,-1,-0.0026785165778605287,-0.0021826261983367633,-0.014021826437049259,0.0046987500261899155,0.9907599323154938
2015-03-02,-1,-0.0023720678133132512,-0.0019221026466540432,-0.014021826437049259,0.0062996929880257,0.9903583386796122
2015-03-04,-1,-0.003258163497551465,-0.0027198244951681873,-0.01150497161498764,0.0062996929880257,0.9907373792407832
2015-03-06,-1,-0.0040613502951028415,-0.003396729818865277,-0.008021338019358417,0.007375693618831175,0.9902945417400874
2015-03-10,-1,-0.004399111193153892,-0.003691150984064619,-0.005984863934281381,0.0062996929880257,0.9912658547468238
2015-03-12,-1,-0.0029372795948911,-0.002436352895951277,-0.005984863934281381,0.005925827397641736,0.9925328313615682
2015-03-16,-1,-0.0026014563558242735,-0.0021486910902795355,-0.005984863934281381,0.004596208151943302,0.9933322035726003
2015-03-18,-1,-0.0020480060212458534,-0.0017107711522388355,-0.00517743384017397,0.003952776917194589,0.9941636838863226
2015-03-20,-1,-0.0020500450657206255,-0.0017189651224212262,-0.00517743384017397,0.004361802707678529,0.9939841731734894
2015-03-24,-1,-0.0022284117437847235,-0.0018947743959746516,-0.004841804464756879,0.005908837083703163,0.9940328719802689
2015-03-26,-1,-0.002588068251967706,-0.0022357377856004595,-0.004732304474862925,0.005908837083703163,0.9942375950943613
2015-03-30,-1,-0.00184569539828639,-0.0016005378345621433,-0.004841804464756879,0.00185557143712675,0.9951645883154666
2015-04-01,-1,-0.0020578433325817115,-0.001813978050725325,-0.004732304474862925,0.00185557143712675,0.9954301340545176
2015-04-06,-1,-0.0015716157981404595,-0.0013890399461199499,-0.004732304474862925,0.00185557143712675,0.9946568682832957
2015-04-08,-1,-0.0015585426947560656,-0.001386031185142265,-0.004732304474862925,0.00185557143712675,0.9944396061334632
2015-04-10,-1,-0.0012598606955730252,-0.0011362541178886844,-0.004732304474862925,0.007078579235426108,0.9932837177938433
2015-04-14,-1,-0.0014265112754726717,-0.0012771716211461715,-0.004679212822644738,0.007078579235426108,0.9933504604295855
2015-04-16,-1,-0.0015156082636166557,-0.0013610764560783167,-0.005023063416019018,0.009955035956975273,0.9920991400903268
2015-04-20,-1,-0.0010970488803119182,-0.0010129945344262625,-0.004724752478180022,0.007215773544578791,0.9927075815981722
2015-04-22,-1,-0.0006791956246468496,-0.0006476575773462392,-0.004724752478180022,0.0036279848461711504,0.992936240689311
2015-04-24,-1,-0.000782128020495528,-0.00076079861015217,-0.00268989635820085,0.0036279848461711504,0.9935301347335778
2015-04-28,-1,-0.001029981619349152,-0.0009757299135443004,-0.00268989635820085,0.004940981598876565,0.9931442043738706
2015-04-30,-1,-0.0011148865589701079,-0.0010709560753890395,-0.0028333900037743054,0.004940981598876565,0.9926577296474458
2015-05-04,-1,-0.0002965841666083826,-0.00024634962456731614,-0.0032278796608749497,0.0012597150435194899,0.994100358430954
2015-05-06,-1,-0.0006410710384582344,-0.0006376061957873559,-0.0022582997817328135,0.0028492246617354174,0.9943036757469055
2015-05-08,1,0.00020895089126006316,0.00032601948168567045,-0.0032278796608749497,0.0017250353592225996,0.9949235347013259
2015-05-12,1,0.0002880250480410107,0.0004225849689552312,-0.005393619365538518,0.0028492246617354174,0.9940984574232146
2015-05-14,1,0.0008432156673611598,0.0010969744503402322,-0.00530078046678176,0.0016029769026583297,0.994966398649953
2015-05-18,1,0.0008662386097736554,0.001140053091865289,-0.00530078046678176,0.0028492246617354174,0.9948531120173882
2015-05-20,1,0.001133250170774206,0.001463176775140908,-0.00530078046678176,0.0036983780620715436,0.9940724567749744
2015-05-22,1,0.001276577487898111,0.0016440996359879487,-0.00530078046678176,0.0036983780620715436,0.9939781195947285
2015-05-27,1,0.0009924327734396085,0.0013000033867863043,-0.005123762338792259,0.0036983780620715436,0.9942670811287094
2015-05-29,1,0.00030445024609764124,0.0005013231690356785,-0.0040232208282790045,0.0042730740828823815,0.9953174442826174
2015-06-02,1,5.9142939499283584e-05,0.00021635256730927308,-0.00480951101585762,0.0042730740828823815,0.9938510132879081
2015-06-04,1,0.0001360032807353229,0.0002801129860573239,-0.005812616502160258,0.0044212157349787585,0.993216966879991
2015-06-08,-1,-0.0005451603537672265,-0.0005252362595317737,-0.0057262015098548105,0.0036983780620715436,0.9935311148925885
2015-06-10,-1,-0.0006595308026460476,-0.0005937127633058995,-0.0057262015098548105,0.0036983780620715436,0.9934223687160854
2015-06-12,-1,-0.0003326914171351994,-0.0003167962521838153,-0.00480951101585762,0.004868396245256477,0.9924511575979096
2015-06-16,-1,-0.00011639671247295829,-5.150151144877243e-05,-0.00480951101585762,0.004868396245256477,0.9925620466636838
2015-06-18,1,0.000500784417383962,0.000648154967706689,-0.00480951101585762,0.004344773761544536,0.993200307995978
2015-06-22,-1,-5.649971494281647e-05,-3.4337989238301483e-05,-0.006235781674786332,0.004344773761544536,0.9919460471237022
2015-06-24,-1,-0.000695236782895497,-0.0006001578463878028,-0.006235781674786332,0.004344773761544536,0.9921927174847458
2015-06-26,1,0.00036398299726699983,0.0004856545868891224,-0.00868887540690163,0.0033777447138063697,0.9914231199829776
2015-06-30,-1,-0.0006314911479859216,-0.0005902999915838078,-0.007226084303317483,0.005596536614407125,0.9918589750657385
2015-07-02,-1,-0.0004305650808930877,-0.0004174247626992804,-0.006512772029679395,0.004344773761544536,0.992471050247799
2015-07-07,-1,-0.0003786868429790252,-0.00037800936211071403,-0.005724169635484532,0.004344773761544536,0.9925150624385604
2015-07-09,-1,-0.0006366136005124172,-0.0006172220470006808,-0.003932353274254028,0.004788909322272352,0.9931116132744748
2015-07-13,-1,-9.73783124502514e-05,-6.780574268555168e-05,-0.005724169635484532,0.003927601291597997,0.9933307788097899
2015-07-15,1,4.754285187864559e-05,0.00011082564978267265,-0.008100044753009536,0.003927601291597997,0.9927967337261224
2015-07-17,1,8.925013515173524e-05,0.00015736604392585247,-0.008100044753009536,0.004690046454381668,0.9926697367443603
2015-07-21,-1,-0.0006456741303565283,-0.0006247757577326327,-0.004718653530117972,0.004690046454381668,0.9938912827260141
2015-07-23,-1,-0.0004311270621503853,-0.0004145335108655604,-0.006280475372036459,0.004690046454381668,0.9927767727581363
2015-07-27,-1,-0.001694677679631557,-0.001527803209398263,-0.006323464757049321,0.004690046454381668,0.9913888508829132
2015-07-29,-1,-0.0005365401057132163,-0.0004819158002957103,-0.009369334641145049,0.00404173754964877,0.9905685232798708
2015-07-31,-1,-0.000766763112172433,-0.000676609208951862,-0.009369334641145049,0.004690046454381668,0.9893458576675924
2015-08-04,-1,-0.00031724843540549303,-0.00030159471280635206,-0.014512636752965217,0.004690046454381668,0.9879979590716291
2015-08-06,1,6.590579305380904e-06,7.787932997025182e-05,-0.014512636752965217,0.004690046454381668,0.9880204251488135
2015-08-10,1,0.00015015445076073318,0.0002355200668607631,-0.014512636752965217,0.004690046454381668,0.9868320173056075
2015-08-12,-1,-9.084826490390791e-05,-4.7223353994590414e-05,-0.013622775062138914,0.004690046454381668,0.9871890112815312
2015-08-14,-1,-0.00019544294633695426,-0.00018381797400994368,-0.013622775062138914,0.002802369991505395,0.9872831051088136
2015-08-18,-1,-0.0005857208326154598,-0.0005308783239411042,-0.013622775062138914,0.007572217909047146,0.9858275783421333
2015-08-20,-1,-0.0010394349602639349,-0.0009521646195630557,-0.013826328403883982,0.007572217909047146,0.9854783395814471
2015-08-24,-1,-0.0016090523902114835,-0.00143776453230488,-0.011607813306769488,0.007572217909047146,0.9870881630173137
2015-08-26,-1,-0.0015337326828086138,-0.0013839739309090785,-0.00872951905415984,0.006303015079127856,0.9884382290386993
2015-08-28,-1,-0.0012137220515957966,-0.0010994269979294783,-0.011607813306769488,0.005835096103490729,0.9891044158133825
2015-09-01,-1,-0.0018399063771363314,-0.0016583546595826185,-0.00872951905415984,0.005835096103490729,0.9900657911201912
2015-09-03,-1,-0.0017177768135848205,-0.0015500636886882592,-0.011607813306769488,0.006876886980779461,0.9894670848972631
2015-09-08,-1,-0.0009159275613520724,-0.0008353808070616139,-0.011493752427037804,0.006876886980779461,0.9901269273333141
2015-09-10,-1,-0.001078364000166328,-0.0009843773922103088,-0.011493752427037804,0.009855477633523974,0.9886942302124483
2015-09-14,-1,-0.0009285041825515129,-0.0008755344575507739,-0.011493752427037804,0.009855477633523974,0.9887421470680923
2015-09-16,-1,-9.049912561931192e-05,-6.835481713858183e-05,-0.01179651706293377,0.006876886980779461,0.9895013055438789
2015-09-18,-1,-0.0012314940549630032,-0.00111422720647534,-0.01025640036527823,0.006876886980779461,0.9906682068208076
2015-09-22,-1,-0.0016452217254684003,-0.001462208915331348,-0.006406221031157367,0.009451744252197825,0.9900069468006478
2015-09-24,-1,-0.0005132021266116384,-0.0005086351035842641,-0.006406221031157367,0.013178780463853856,0.9889551173632826
2015-09-28,-1,-0.0012582544768939721,-0.0011521359202931324,-0.00471665093298708,0.013178780463853856,0.9890396889369828
2015-09-30,-1,-0.00046523262622726454,-0.00043609429957569486,-0.006406221031157367,0.016660503762346297,0.9878883268217048
2015-10-02,-1,-0.0003036218914609894,-0.0002512026944123313,-0.00471665093298708,0.016660503762346297,0.9887382208740102
2015-10-06,-1,-0.00044591148635384604,-0.000398335789529656,-0.004289563526405629,0.013178780463853856,0.9895654045620058
2015-10-08,1,0.0006788442478956954,0.0008591696145035494,-0.004289563526405629,0.010218902430215199,0.9912419850040654
2015-10-12,1,0.00025472658591464795,0.000385610486475143,-0.0056452426765896116,0.010218902430215199,0.9899274751172181
2015-10-14,-1,-0.00027553319133677564,-0.00021807338969269014,-0.003318492251703909,0.010341254341601335,0.9901436244017925
2015-10-16,-1,-0.00015527711921472533,-8.312399019846082e-05,-0.005045024639673201,0.010341254341601335,0.9887246844386802
2015-10-20,1,0.00021503086738960557,0.00028977775691242853,-0.005045024639673201,0.009662768787672662,0.9889364584421619
2015-10-22,1,0.001142242621220684,0.0013459418569134695,-0.005045024639673201,0.008459996717205986,0.9901760469887051
2015-10-26,1,0.0014959406474680103,0.0017553429655319916,-0.005045024639673201,0.007620370643911593,0.990324172577213
2015-10-28,1,0.0016408092478398654,0.0019133412975675486,-0.005045024639673201,0.007620370643911593,0.9909647387173903
2015-10-30,1,0.0018244459693359154,0.0021395847751112464,-0.005045024639673201,0.007620370643911593,0.990948394134826
2015-11-03,1,0.0018718046185413543,0.0021822464322584865,-0.007266653373907403,0.00681460562240444,0.990419757213557
2015-11-05,1,0.00203794184093547,0.0023672672279385024,-0.007266653373907403,0.007536188974120174,0.9900849597510247
2015-11-09,1,0.0014715235454239536,0.0017593501744114746,-0.005142204646518099,0.007536188974120174,0.9914806146265729
2015-11-11,1,0.0015063706446478906,0.0017875433550924111,-0.006724142364139582,0.0047630808820750565,0.99123216062664
2015-11-13,1,0.000401326452763375,0.0005265682126611969,-0.005142204646518099,0.0076551500757566626,0.9913461388886271
2015-11-17,1,0.0015436594861964119,0.0018300836311604973,-0.005142204646518099,0.0076551500757566626,0.9920312187364929
2015-11-19,1,0.0011807340770098112,0.0013765732813316794,-0.010111919005426398,0.0051434731713629455,0.9902375570323911
2015-11-23,1,0.0015917721418330722,0.0018539992666897097,-0.010111919005426398,0.006119748791352735,0.9902386177593338
2015-11-25,1,0.0017552138460148609,0.0020407055107157283,-0.008211572667211045,0.006119748791352735,0.9902586702174466
2015-11-30,1,0.0013925738609417045,0.0015962707664409514,-0.008211572667211045,0.008928035784580107,0.989955948122627
2015-12-02,1,0.0011956185562090908,0.0014216376891537843,-0.008135167179253036,0.008928035784580107,0.9901509055584753
2015-12-04,1,0.001440139544087104,0.0016967071966436,-0.01210449980755981,0.0077945929831097745,0.9897261271564317
2015-12-08,1,0.0013800056514887426,0.0016291759036145736,-0.016792456271864625,0.0077945929831097745,0.9879216623045085
2015-12-10,1,0.00046597169502963945,0.0005385191726257805,-0.020235866912365272,0.0077945929831097745,0.9871519282210026
2015-12-14,1,0.00020042156606259653,0.00024377244129747776,-0.020235866912365272,0.007293943637447569,0.9872479708233755
2015-12-16,1,0.00032783548993390004,0.0003553162087288825,-0.020235866912365272,0.007293943637447569,0.9871340000739421
2015-12-18,-1,-0.0005216485213076753,-0.0004941095250817568,-0.01341173036187926,0.0077945929831097745,0.9886131488556988
2015-12-22,-1,-3.6397413002631874e-05,-4.058491177012089e-06,-0.01341173036187926,0.007293943637447569,0.9889307472055334
2015-12-24,1,0.000170764300962418,0.000219563671979445,-0.01341173036187926,0.007293943637447569,0.9878616421798831
2015-12-29,1,0.0007663283561107685,0.0009062153994574108,-0.01341173036187926,0.006671110189762354,0.9878016236218011
2015-12-31,1,0.00027388607394318435,0.00035195262439230315,-0.020235866912365272,0.007737091080945946,0.985822083255604
2016-01-05,-1,-8.229451314044058e-05,-6.919419261173615e-05,-0.016034135187485653,0.010529634953234553,0.9856088828248333
2016-01-07,-1,-0.0012149944783125392,-0.001102330083504012,-0.00759018274483882,0.014167441552167374,0.9854398803912737
2016-01-11,-1,-0.0017031979002816466,-0.0015257874864149108,-0.0028775832381918174,0.014167441552167374,0.9859812309534104
2016-01-13,-1,-0.002803001172783071,-0.0024637320722595427,-0.0019856099841386284,0.014167441552167374,0.9869963370279768
2016-01-15,-1,-0.003061738366846601,-0.0026370841589810423,-0.0019856099841386284,0.016268574671310633,0.9858028166154635
2016-01-20,-1,-0.0029377094677276922,-0.00251930274978469,-0.000766231396959625,0.016268574671310633,0.9855872517909549
2016-01-22,-1,-0.0022922680969019605,-0.0019911787935819438,-0.000766231396959625,0.016268574671310633,0.9854606047518814
2016-01-26,-1,-0.0018534849905242979,-0.001556407147807032,-0.0032076368907465068,0.014668370016868448,0.9871206340877915
2016-01-28,-1,-0.0012970733787425839,-0.0010768454281522258,-0.006711655198079898,0.014111999879993849,0.9874176119439706
2016-02-01,-1,-0.0006834105212009885,-0.0005697752353017582,-0.006711655198079898,0.014111999879993849,0.9883101355796372
2016-02-03,-1,-0.0008938852288996799,-0.0007442093649117478,-0.003135805270708867,0.013375699731931841,0.9891274334105169
2016-02-05,-1,-0.0006943708185569034,-0.0005633405858147804,-0.002221081938710725,0.010121364087681854,0.9905776333642502
2016-02-09,1,0.0005949350491838775,0.0006815992616296967,-0.0038956535820478316,0.009086471678929934,0.9915440374804083
2016-02-11,0,-1.056976121679797e-05,3.82636849769002e-05,-0.0038956535820478316,0.010362282645993202,0.9907953794288019
2016-02-16,1,0.0010538600346742069,0.0011255909003215507,-0.004569697447878397,0.008684359808540425,0.9924127926988481
2016-02-18,1,0.001278034737253176,0.0013965719991265787,-0.004569697447878397,0.009086471678929934,0.9912634317046093
2016-02-22,1,0.001515167110650145,0.0016388641118174083,-0.0057140588434794965,0.00772336038248022,0.9913717556276963
2016-02-24,1,0.0011000019184017205,0.0011727633417284397,-0.004261109203024143,0.00772336038248022,0.9916398094237482
2016-02-26,1,0.0009371975636614574,0.0009731159889080935,-0.0037135420161080405,0.007001221571631037,0.9923974196939167
2016-03-01,1,0.00155963664652355,0.0016836374906208976,-0.0031502404091990764,0.007001221571631037,0.9940371128480217
2016-03-03,1,0.002212058562492499,0.0024877532025937344,-0.0031502404091990764,0.007001221571631037,0.9942214912389129
2016-03-07,1,0.002116393889437224,0.0023553260851057207,-0.004261109203024143,0.005606642863353781,0.9935899628435615
2016-03-09,1,0.0015382266194314306,0.0016605505754404475,-0.004261109203024143,0.005606642863353781,0.9933790051611431
2016-03-11,1,0.001841641669676865,0.002000336158608103,-0.004438116665739866,0.004010373617812307,0.9937927734640445
2016-03-15,1,0.0019162685858429085,0.0021314308723319173,-0.004438116665739866,0.007001221571631037,0.9931771715002821
2016-03-17,1,0.0032793869121602146,0.00372172822105244,-0.005515340937190118,0.005606642863353781,0.9937646114346643
2016-03-21,1,0.0031005760353645037,0.003540977281231192,-0.005884060705947411,0.005606642863353781,0.9929358205190173
2016-03-23,1,0.003176515512492078,0.0036308696670315586,-0.0045870957573674095,0.004537446776668064,0.9928561610123154
2016-03-28,1,0.0031964125463698834,0.0036592754773557916,-0.0045870957573674095,0.005412347045068002,0.9928507335377447
2016-03-30,1,0.003605890834787639,0.004133823844610358,-0.0045870957573674095,0.004777882929597348,0.9923340289283811
2016-04-01,1,0.003789163372435393,0.004346345170320985,-0.009085684239713726,0.004777882929597348,0.9908338409999012
2016-04-05,1,0.002599255628843661,0.0029418736989814762,-0.005351858933185445,0.006658178757929497,0.9918861005080079
2016-04-07,1,0.0023860171178258466,0.0027059161639176785,-0.004048110708314597,0.006658178757929497,0.9921496018102335
2016-04-11,1,0.0016341494323574136,0.0017884750817780525,-0.0038743399773814476,0.008240128713173575,0.9920480085665309
2016-04-13,1,0.0026770617516924935,0.0030121215572702755,-0.005284304286721968,0.006658178757929497,0.9915143956522653
2016-04-15,1,0.002645461535882458,0.0029847815156671953,-0.005284304286721968,0.006658178757929497,0.9914321803313351
2016-04-19,1,0.0020694765174203394,0.002351687779669714,-0.005284304286721968,0.008437792730140059,0.9914801811234112
2016-04-21,1,0.0020380646406303244,0.0023196172043806213,-0.0078395175352848,0.008437792730140059,0.991396438286487
2016-04-25,1,0.0021359748601556027,0.0024271338500102177,-0.0078395175352848,0.008437792730140059,0.9910450763025541
2016-04-27,1,0.002103732709082781,0.002351919110572744,-0.0078395175352848,0.009214361274262596,0.9905920024055528
2016-04-29,1,0.0015284532824573,0.0017082063599343036,-0.003983297100797731,0.009214361274262596,0.9916137495521403
2016-05-03,1,0.0015508774714422277,0.0017240987774027956,-0.004919529993572907,0.009214361274262596,0.9916571813209388
2016-05-05,1,0.0011099249001029934,0.0012022000722813702,-0.006578528633839576,0.009214361274262596,0.9913392773813527
2016-05-09,1,0.0011516145007168985,0.0012201016466920223,-0.006578528633839576,0.008581557731558609,0.991301271473563
2016-05-11,1,0.0009320276920847056,0.000988474256726806,-0.005105036622753818,0.007867885370947784,0.9923479445002302
2016-05-13,1,8.439318724874753e-05,0.00020304654595649406,-0.006578528633839576,0.007215893825407899,0.9923101480273121
2016-05-17,-1,-0.0003124516483127365,-0.0001710190568216657,-0.005105036622753818,0.006593253347606478,0.9936367827468632
2016-05-19,-1,-0.0002672888051785676,-0.0001480680016561293,-0.0045232565295522074,0.006688977983398651,0.9935405289599866
2016-05-23,0,-9.320758049747647e-06,5.9527102988517834e-05,-0.00225899116962808,0.006729696470690586,0.9937675228357885
2016-05-25,1,0.00036153909224587307,0.00041647171985324143,-0.00225899116962808,0.0064694823194870596,0.9942697476801229
2016-05-27,1,0.00019721900609231567,0.0002862739594097999,-0.006597394025458641,0.005476568893284123,0.9925436716403516
2016-06-01,-1,-0.000891048405987161,-0.0006096770149295498,-0.005408573633396541,0.006729696470690586,0.9907654808588077
2016-06-03,-1,-0.0014423761035968158,-0.0010638431271533032,-0.0016381903662015804,0.00851510574868801,0.9897207925539706
2016-06-07,-1,-0.0016980550491744856,-0.001250597934769952,-0.005408573633396541,0.010318996339350345,0.9890221506910493
2016-06-09,-1,-0.0015900135274629712,-0.0011755381618709663,-0.0042012290984847905,0.015721870775625042,0.9882689252421512
2016-06-13,-1,-0.0024578459194263104,-0.0019351365816241883,-0.000581243206033506,0.015721870775625042,0.988482245591197
2016-06-15,-1,-0.0021545608597881693,-0.00167965305711941,-0.0035938684440393453,0.015721870775625042,0.9888554313996156
2016-06-17,-1,-0.0014414338883472842,-0.0010903751784879462,-0.007941893904956174,0.015721870775625042,0.9889337877701875
2016-06-21,-1,-0.0011015769808543265,-0.000815054553972279,-0.008585100268602652,0.015721870775625042,0.9881774798144889
2016-06-23,-1,-0.0007090043398501916,-0.00044659313111922064,-0.009281863467975096,0.013046412628362532,0.9880334499168039
2016-06-27,-1,-0.0022369968785631716,-0.0017852854060350896,-0.007941893904956174,0.013046412628362532,0.9892230516369671
2016-06-29,-1,-0.0009152348897673867,-0.0006306198543811158,-0.007941893904956174,0.008828890053889978,0.9905652602577851
2016-07-01,1,0.00022315235707503665,0.0003394924650808932,-0.007941893904956174,0.0060612816883657775,0.9916923080972903
2016-07-06,1,0.0003678142304087617,0.00047857534724205213,-0.007941893904956174,0.005457486472276553,0.9923713426559585
2016-07-08,1,0.001399305483019963,0.0014670230175289902,-0.007941893904956174,0.005457486472276553,0.9929683480599819
2016-07-12,1,0.0013890390691022277,0.0014613627323880685,-0.007941893904956174,0.005457486472276553,0.9925236327346401
2016-07-14,1,0.0011409480538483838,0.0012059398067292063,-0.007343143896889315,0.0060612816883657775,0.9928270134095922
2016-07-18,1,0.00031726717042102916,0.000382324706571861,-0.004148338463743624,0.007297404778527186,0.9929713797492571
2016-07-20,-1,-0.00033660168215836735,-0.00019486427697565356,-0.004068950507955293,0.007297404778527186,0.9936664486282635
2016-07-22,1,3.042956568281914e-05,0.00010004116352303651,-0.0028815194949459067,0.007297404778527186,0.9942384847712324
2016-07-26,1,0.0003850674298711425,0.00040452345373130595,-0.004068950507955293,0.00797633644876987,0.9939176992148744
2016-07-28,1,0.0009564533100438744,0.001019243452018965,-0.004068950507955293,0.005375701284379423,0.9944030689209361
2016-08-01,1,0.0005358442689068989,0.000541857094534621,-0.004663796916948733,0.00797633644876987,0.9934800825561894
2016-08-03,1,0.00035596394300745873,0.0003638320945785129,-0.0054259262625881285,0.00797633644876987,0.9930997449424936
2016-08-05,1,0.0004636437209443165,0.0004696119849454378,-0.0054259262625881285,0.005375701284379423,0.9933012785458026
2016-08-09,1,0.0007449768261977834,0.0008478475034997984,-0.008037053976389576,0.005375701284379423,0.9923513664621365
2016-08-11,1,0.0009103487923525421,0.0010106391658491652,-0.008241291068273919,0.004270632401732903,0.9911549102408279
2016-08-15,1,0.0010808637581583857,0.0012035640063764543,-0.009671181508728326,0.004270632401732903,0.9903608317278817
2016-08-17,1,0.0010367746932906927,0.0011534683939614877,-0.009671181508728326,0.004020151933482373,0.9905408180158586
2016-08-19,1,0.001586330048854889,0.0017982320433699466,-0.009671181508728326,0.0038976511733938212,0.9902651081744377
2016-08-23,1,0.0017629856275741497,0.002009426715216705,-0.009671181508728326,0.0038976511733938212,0.9906097327986477
2016-08-25,1,0.0013633824964381386,0.0015149889347350605,-0.013264547488306461,0.005899692201944415,0.9888411316963698
2016-08-29,1,0.0015102055246758207,0.001663176825385334,-0.013264547488306461,0.005899692201944415,0.9890605410391407
2016-08-31,1,0.0006903214122850513,0.0007280072897305678,-0.011980546545342646,0.005899692201944415,0.9894415205776856
2016-09-02,1,0.0012715885260635592,0.0014375633883413415,-0.011980546545342646,0.009539826235175509,0.988984931383669
2016-09-07,1,0.00033022971039872815,0.00037037422672964117,-0.007507820277436236,0.009539826235175509,0.9894768293586934
2016-09-09,-1,-0.0012620459738765535,-0.0010718918262370724,-0.007022814559796343,0.009539826235175509,0.9902794315102478
2016-09-13,-1,-0.001417177434972252,-0.0011943081337370594,-0.007022814559796343,0.006148011283654227,0.9911369441751487
2016-09-15,-1,-0.0013067773597548221,-0.0011095866806014381,-0.007022814559796343,0.008351255084868493,0.9908128126184004
2016-09-19,-1,-0.00032353018187294925,-0.00026380712181359547,-0.007022814559796343,0.006019548005087414,0.991597309280654
2016-09-21,-1,-0.00041925733939066783,-0.0003095107901975819,-0.011489721746999193,0.00378613388616274,0.9894424677210351
2016-09-23,-1,-0.0009336551799210128,-0.0007755657723335777,-0.011489721746999193,0.00378613388616274,0.9896668994799901
2016-09-27,-1,-0.0002434850085552714,-0.000152011722827004,-0.011489721746999193,0.003651516619986515,0.9900502694350909
2016-09-29,-1,-0.0005668315828908043,-0.0004575989702577309,-0.012217170363313507,0.004881281606153985,0.9894791941585396
2016-10-03,-1,-0.0006221796407288094,-0.00048333392481836947,-0.012217170363313507,0.005538608889517184,0.989387156764538
2016-10-05,-1,-0.0009580507660222086,-0.0007804490327481218,-0.01239311334091385,0.0051347570909885095,0.9892889728136743
2016-10-07,-1,-0.0017000905036747664,-0.001403790748911937,-0.01239311334091385,0.0051347570909885095,0.9897589019664382
2016-10-11,-1,-0.0019101690654021095,-0.0015945148048988897,-0.008501159997031054,0.0066592030369047005,0.9896975417947311
2016-10-13,-1,-0.0016786807662318008,-0.001385380059122649,-0.008501159997031054,0.00789182330486622,0.9875037218441569
2016-10-17,-1,-0.0013408315882405422,-0.0011258124624762371,-0.008501159997031054,0.011207267579490802,0.9862156391228869
2016-10-19,-1,-0.0031683023639659815,-0.0027495367149370314,-0.006067588965536539,0.011207267579490802,0.9883651802724477
2016-10-21,-1,-0.0034992926447978637,-0.0030310829143056937,-0.006067588965536539,0.008998667097686949,0.9899157942906798
2016-10-25,-1,-0.0038838688668370834,-0.003368560348532881,-0.006067588965536539,0.012136332043532575,0.9886288719211556
2016-10-27,-1,-0.004204441869413364,-0.0036742420182352426,-0.0035457827805025826,0.012136332043532575,0.9890696715803176
2016-10-31,-1,-0.0032822853050084675,-0.0028604474425458853,-0.006067588965536539,0.012136332043532575,0.9901995673161733
2016-11-02,-1,-0.004680711377999188,-0.004056256775701492,-0.0037737520629996914,0.012136332043532575,0.9903414876080765
2016-11-04,-1,-0.004717288161531962,-0.00410793038074061,-0.0037069192232701336,0.01318523391327409,0.9894158811762108
2016-11-08,-1,-0.003803995142368926,-0.0033232540291106743,-0.0037069192232701336,0.015227008993734512,0.9891267774523641
2016-11-10,-1,-0.0016604386725783582,-0.0014393825313007195,-0.004951484832458877,0.012136332043532575,0.992207878395017
2016-11-14,-1,-0.0004988043917190483,-0.0004485648003136783,-0.004951484832458877,0.007699706472514721,0.9927210801510413
2016-11-16,-1,-0.0018873823909727066,-0.0016045674697011466,-0.004951484832458877,0.007699706472514721,0.9920309289709192
2016-11-18,-1,-0.0012267559108713872,-0.0010919684293152314,-0.004414903599225058,0.007699706472514721,0.9919972901796613
2016-11-22,1,0.00040066588687585474,0.0005224303434672301,-0.004951484832458877,0.003241546912096129,0.9928805473839607
2016-11-25,1,0.0008686402994146068,0.001079097401145554,-0.006034565810142581,0.0026159752229792258,0.9923432062549784
2016-11-29,1,0.0006263925641929068,0.0008384358054813094,-0.005917336691678614,0.00404280097458385,0.9921920863532891
2016-12-01,1,0.0004797932988195773,0.0006674192567705944,-0.009120267978662593,0.00404280097458385,0.9919157032594647
2016-12-05,1,0.0008827977535336569,0.00110032654809648,-0.009120267978662593,0.00404280097458385,0.9922564819421394
2016-12-07,1,0.0016105383216864161,0.0018872757059836959,-0.009120267978662593,0.0026159752229792258,0.9925886431669534
2016-12-09,1,0.0006589664796097649,0.0007790484919278034,-0.006210565265890599,0.00404280097458385,0.9927813705379894
2016-12-13,1,0.0012658005205898326,0.0014738900552887964,-0.006210565265890599,0.00404280097458385,0.9934741040288843
2016-12-15,1,0.0007314529778338152,0.0008847077908044489,-0.006210565265890599,0.005150003703526696,0.9937941618105902
2016-12-19,1,0.0012619289472909352,0.0015230355471847808,-0.006210565265890599,0.005234530109412083,0.9932203293551658
2016-12-21,1,0.0007328316132639475,0.0009067942200837345,-0.006315442456026693,0.006282352687252138,0.9917065906528898
2016-12-23,1,0.0003197176518066223,0.00041632655242960576,-0.004794023480664476,0.006975151677453958,0.9916647323857567
2016-12-28,1,0.0002263397594954367,0.00032304151788779107,-0.004947698503382622,0.006507664298708751,0.9920010705638007
2016-12-30,-1,-6.974127087330224e-05,-3.2219805788165384e-05,-0.004684715173454695,0.006507664298708751,0.9920982262770004
2017-01-04,1,0.0008293900090873337,0.0010144547928890156,-0.00484251342121258,0.006282352687252138,0.9926113195817131
2017-01-06,1,0.0005077320805341957,0.000665225631131046,-0.003295539046016932,0.006282352687252138,0.992896935700879
2017-01-10,1,0.0010965699338076167,0.0013309865631448406,-0.003295539046016932,0.006282352687252138,0.9925277886115913
2017-01-12,1,0.0016093457433289076,0.0019383782538686322,-0.003295539046016932,0.006357668925688906,0.9926090312471518
2017-01-17,1,0.0013348786714724792,0.0016348687936418162,-0.002546958719912064,0.006357668925688906,0.9931331257468495
2017-01-19,1,0.001822201097550612,0.0021836052955983803,-0.003295539046016932,0.005625541646315995,0.9934115669075583
2017-01-23,1,0.0012132006320065064,0.0015232082972027367,-0.003295539046016932,0.005626664819424669,0.9933015073245189
2017-01-25,1,0.001415873128946787,0.0017055418070183338,-0.005353661518826271,0.004334874268210618,0.9923919506013933
2017-01-27,1,0.0011466580097230072,0.0014139172296431545,-0.0032996622710566702,0.004807231403698441,0.9924890813011981
2017-01-31,1,0.0008299060969705866,0.00100075558505365,-0.004862833197721469,0.005626664819424669,0.9921423246146202
2017-02-02,1,0.00014474188376457442,0.0001572855605065446,-0.007658778884904575,0.005626664819424669,0.9914144943196799
2017-02-06,1,0.0003379657724525241,0.00038232380139470836,-0.007658778884904575,0.005052022612228526,0.9910450226305958
2017-02-08,1,0.0012257218283562396,0.0013933819669276863,-0.007658778884904575,0.00198165712232043,0.9916024633600129
2017-02-10,1,0.0015119348838882186,0.0017531766170510075,-0.007658778884904575,0.0032518404040385715,0.9912745126209336
2017-02-14,1,0.0016165428422319262,0.0018915003851077865,-0.007658778884904575,0.0032518404040385715,0.9912063967036839
2017-02-16,1,0.0010259432736957445,0.0011805665076799546,-0.007068071206909214,0.004145183761808259,0.991697164661912
2017-02-21,1,0.0010304500234066573,0.0012433982635297906,-0.007068071206909214,0.002922731987830029,0.9929434258077199
2017-02-23,1,4.855751637549422e-06,4.8003172132208275e-05,-0.005619821545152101,0.002922731987830029,0.9945701938738776
2017-02-27,1,0.0006431536795288695,0.00078879049072319,-0.006136629745918606,0.0020658511896476496,0.9946592863351734
2017-03-01,1,0.0005622492458149933,0.0006786835325361347,-0.006136629745918606,0.0020658511896476496,0.9949608305145045
2017-03-03,-1,-0.00020081296835791661,-0.00019872356587228744,-0.0048367669550694065,0.0020658511896476496,0.9959659642038183
2017-03-07,-1,-0.0006866323043512462,-0.0006161163713032933,-0.004121913907885317,0.0020658511896476496,0.9954303360954151
2017-03-09,-1,-0.0005917382978366035,-0.0005519823767640702,-0.0038254553441968726,0.0023654559209914387,0.9954295882601341
2017-03-13,0,-7.824568296761251e-06,2.1700552127998227e-05,-0.00473726783553274,0.0012035726586251648,0.9957416841314792
2017-03-15,-1,-0.001579427370380335,-0.0013183306948832286,-0.005321324186542102,0.0019219278727720672,0.9948965784487486
2017-03-17,-1,-0.0013980538689198892,-0.001138496376071442,-0.0055274890094998514,0.0012035726586251648,0.9946235098307471
2017-03-21,-1,-0.0024014126078473726,-0.0020075622982058993,-0.00473726783553274,0.0019219278727720672,0.9940932991641966
2017-03-23,-1,-0.002459518809858302,-0.0020380751996528124,-0.00473726783553274,0.002611697308430444,0.9935341703975755
2017-03-27,-1,-0.0022884669310274317,-0.001922772421226333,-0.0038254553441968726,0.0040646424950414465,0.9933910978882675
2017-03-29,-1,-0.0029870541754859724,-0.0024941719170298578,-0.0034638513429788367,0.0030110063616800215,0.9934333465434254
2017-03-31,-1,-0.0033499859028167742,-0.002796589266045906,-0.005161714145594503,0.0030110063616800215,0.992837347839358
2017-04-04,-1,-0.004047562864986493,-0.0034339545893896,-0.0037572029714035013,0.005944965850140526,0.9927737571748448
2017-04-06,-1,-0.0026348838158419506,-0.0022772853867793277,-0.0037572029714035013,0.005944965850140526,0.9930401591043255
2017-04-10,-1,-0.002192692796141661,-0.001936238826699055,-0.002364724144344787,0.005944965850140526,0.9930941986709777
2017-04-12,-1,-0.0024481497222629887,-0.002145933675083484,-0.002364724144344787,0.005218108730230827,0.9936172604756285
2017-04-17,-1,-0.0021465698116679235,-0.0018714545504448293,-0.002364724144344787,0.004745688884805449,0.9942109557792236
2017-04-19,-1,-0.001220783018101901,-0.001099048906864938,-0.0037286080861790344,0.0034986313134391716,0.9952725191784827
2017-04-21,-1,-0.00037190249959306724,-0.00036190165667512636,-0.0037286080861790344,0.004726921369796534,0.9953959673664908
2017-04-25,-1,-0.0006719573176848878,-0.0006023406443493537,-0.004467556486211426,0.003916387556643654,0.9946789088694731
2017-04-27,-1,-0.0006471980423140859,-0.000573396157872595,-0.004682999199141173,0.004726921369796534,0.9939605190979631
2017-05-01,-1,-0.0010340518296536791,-0.0009406090358175041,-0.004467556486211426,0.005146985877017632,0.993463015090412
2017-05-03,-1,-0.0001658335308131954,-0.0001080480019236535,-0.004467556486211426,0.005146985877017632,0.9931375871002518
2017-05-05,-1,-0.00012791852431240938,-8.981606019598243e-05,-0.004682999199141173,0.004726921369796534,0.9931489413459437
2017-05-09,1,0.00015038496510408415,0.00025688967941019087,-0.005297183910779784,0.004726921369796534,0.9923971157485306
2017-05-11,-1,-0.0004139097007724843,-0.0004126358291698123,-0.005297183910779784,0.005272709058825331,0.991983965362531
2017-05-15,-1,-0.0003347410371438335,-0.000312380077036459,-0.005297183910779784,0.008334501234977948,0.9912077234113806
2017-05-17,-1,-0.0007021967333159246,-0.0006640223564201553,-0.005297183910779784,0.008334501234977948,0.9909242968679252
2017-05-19,-1,-0.0003637106864107294,-0.0003544755523988177,-0.00596078429865477,0.008482480350129853,0.9900870207874797
2017-05-23,-1,-0.001091161121777825,-0.0009864657480212974,-0.008535822334935094,0.008482480350129853,0.9893404916164307
2017-05-25,-1,-0.0008483895326072406,-0.0007618605562861485,-0.008535822334935094,0.008482480350129853,0.9895554045070107
2017-05-30,-1,-9.095497340298147e-05,-4.695627054076659e-05,-0.0065635247998262584,0.007971003404813715,0.9906311984601082
2017-06-01,1,0.00036579845287073144,0.00044706167213528483,-0.0092751533871437,0.007971003404813715,0.9904629170176635
2017-06-05,1,0.00043069343202159846,0.0005474480679132302,-0.0092751533871437,0.009605348926047363,0.9895195124280256
2017-06-07,1,3.637724948953394e-05,0.00012197677769028027,-0.011538018920731048,0.009605348926047363,0.9868053201321878
2017-06-09,-1,-0.00011244405520904999,-6.774941284334922e-05,-0.01640558707992758,0.009605348926047363,0.9866035400877684
2017-06-13,1,0.0009638888068011617,0.0011833373803572102,-0.01640558707992758,0.006644594361019689,0.9871545609490028
2017-06-15,1,0.0008383118794158286,0.0009872841824107525,-0.01640558707992758,0.005501250547016181,0.9870801321890371
2017-06-19,1,0.0004918965691812778,0.0006409345566607259,-0.013236369672572738,0.005631076704319632,0.9876223774438899
2017-06-21,-1,-0.0009208088855368807,-0.0008656064541651421,-0.010467067764704095,0.005631076704319632,0.9891004206317462
2017-06-23,-1,-0.0002141843355717548,-0.00017625657782366382,-0.011313186417345765,0.005631076704319632,0.988475264101617
2017-06-27,-1,-0.0002779694317916661,-0.00025043266200162006,-0.011313186417345765,0.00890433390746502,0.9876827652897084
2017-06-29,0,-5.765735500458464e-05,1.1909289486868312e-05,-0.011313186417345765,0.00890433390746502,0.9869915310513269
2017-07-03,1,0.0013882256159408893,0.0016937348696616154,-0.011313186417345765,0.0031971791443745415,0.9872402306907679
2017-07-06,-1,-0.000986247129610149,-0.000979467851925908,-0.009850618036960898,0.0031971791443745415,0.9911488202759192
2017-07-10,-1,-0.0015362953908268694,-0.001480599730502358,-0.00711697488675742,0.004573773158020955,0.9920479776094213
2017-07-12,-1,-0.0018281799409251584,-0.0017310928507019456,-0.006758294879423,0.004573773158020955,0.9921588804829529
2017-07-14,-1,-0.0023192082857310427,-0.002136862392583227,-0.008774578014957641,0.00689887763200066,0.991397921283193
2017-07-18,-1,-0.0027279366191016088,-0.0024598510035383075,-0.008774578014957641,0.007637503866609472,0.9899886445483069
2017-07-20,-1,-0.0027143337135069473,-0.0024696068908866614,-0.00854893675404639,0.011673266758323675,0.9891673912249572
2017-07-24,-1,-0.0023283340236148198,-0.0021389447719142073,-0.006758294879423,0.011673266758323675,0.9893550584762999
2017-07-26,-1,-0.002184656756098667,-0.001983420229733311,-0.006758294879423,0.007637503866609472,0.9904319263268045
2017-07-28,-1,-0.0018388051808090038,-0.0016636794299741341,-0.004402142638339407,0.007224755836977435,0.9915452719365737
2017-08-01,-1,-0.0013606962985702707,-0.0012366021238644919,-0.006758294879423,0.003993969985628034,0.991648019589404
2017-08-03,-1,-0.0014016549407202413,-0.0012996812371369928,-0.005230948630975587,0.007224755836977435,0.9912535388369523
2017-08-07,-1,-0.0012826874194715667,-0.00119011618081834,-0.005230948630975587,0.010354547998718561,0.990576436276855
2017-08-09,-1,-0.0011909740725726506,-0.0011309172262225517,-0.005461352230611467,0.011659841453202093,0.9899358657689707
2017-08-11,-1,-0.001686955405772589,-0.0015403275275550823,-0.0018678933786364857,0.011659841453202093,0.9898412161635177
2017-08-15,-1,-0.002494389639870767,-0.002264541304589409,-0.0009077677881185401,0.011047874161569216,0.9911083171912286
2017-08-17,-1,-0.0021141334910302683,-0.0019222511739309513,-0.0009077677881185401,0.010150558901507603,0.9923858058482687
2017-08-21,-1,-0.001406144250709461,-0.00129501905525375,-0.0018678933786364857,0.007903791423057811,0.9928964624396656
2017-08-23,-1,-0.0014467126418230619,-0.0013301928134048452,-0.004217974536831373,0.009960428139632533,0.992258947771043
2017-08-25,-1,-0.0017069185581298787,-0.0015220742390982178,-0.004217974536831373,0.011047874161569216,0.9887863267910915
2017-08-29,-1,-0.0013362595859800074,-0.0011972867068123147,0.0017796336560089256,0.011047874161569216,0.9888572447016947
2017-08-31,-1,-0.0012877431519573565,-0.0011351615870499158,0.002920801070162314,0.010256983241607377,0.9888780937184405
2017-09-05,-1,-0.000655965597246917,-0.0005807572913118955,0.0009240712454340657,0.01003315926075781,0.9895549288195786
2017-09-07,-1,-0.00037443806790839315,-0.0003567156981831227,0.0009240712454340657,0.008300209043684684,0.9903485934827311
2017-09-11,-1,-0.00027712464548668305,-0.0002551831773855023,-0.003970919278952547,0.007577635962688709,0.9909391305941113
2017-09-13,1,0.0005441060997828768,0.0006695788693732911,-0.003970919278952547,0.007577635962688709,0.9916421913069526
2017-09-15,1,0.0003736851374645238,0.00046711561257743267,-0.0028471805053209625,0.007577635962688709,0.9918633313441525
2017-09-19,1,0.00020501419148192754,0.00028807182614781345,-0.0007833734270609428,0.008009437971817317,0.9920417101096459
2017-09-21,0,-2.2831269540744893e-05,5.706385126675874e-07,-0.0007833734270609428,0.008009437971817317,0.9878755781225524
