JNU-Tangyin/eata/results/Batch4_SP500/Batch4_SP500-PM.csv
Date,Action,Predicted_Q25,Predicted_Q75,Actual_Q25,Actual_Q75,RL_Reward
2010-12-14,0,0.0,0.0002800097650397759,-0.003654372692539532,0.0017943676734312184,0.9947118344423359
2010-12-16,1,0.00016829462977144594,0.00023162311237212262,-0.003654372692539532,0.0017943676734312184,0.9945922061655039
2010-12-20,1,0.00033360707846474954,0.0005151956661626866,-0.005304291452740589,0.002546148323353534,0.9940263979220837
2010-12-22,0,-1.4992367008409796e-05,0.0001782477934075508,-0.003654372692539532,0.002546148323353534,0.9950635416293161
2010-12-27,-1,-0.0002769559724955657,-5.991310701613584e-05,-0.003279524475959336,0.00372778613316428,0.9945837410059016
2010-12-29,-1,-0.0003711757875792096,-0.00013522682357332207,-0.005018323144995377,0.003185976812508778,0.9943912785944012
2010-12-31,-1,-0.0003006805859862307,-0.00010241141160539534,-0.00680842737519153,0.0044334090152560275,0.9937273312781351
2011-01-04,-1,-0.0009848066141573567,-0.0006516974212353104,-0.00680842737519153,0.006699609806954409,0.9935357240112415
2011-01-06,-1,-0.0018879326010619124,-0.0014500936528149169,-0.0036546673164586816,0.00717363832739004,0.9931834559816268
2011-01-10,-1,-0.0026144797771543967,-0.002122417955626144,-0.0019771261622165163,0.00717363832739004,0.9935320242088662
2011-01-12,-1,-0.0030934260262835897,-0.0025071887493438266,-0.0019771261622165163,0.00717363832739004,0.9935298719819109
2011-01-14,-1,-0.003432412740645773,-0.0027810626602318635,-0.0019771261622165163,0.007549294766340969,0.9929656645393115
2011-01-19,-1,-0.0039039003860887973,-0.003172554066537144,-0.0009615298278203977,0.007735743902705518,0.9922646377834428
2011-01-21,-1,-0.0037582480975190563,-0.0030560438825556796,0.0005894751865281152,0.008191924148710549,0.991852516836355
2011-01-25,0,0.0,0.0,0.0005894751865281152,0.008191924148710549,0.9939708864558984
2011-01-27,-1,-0.0009274179580993229,-0.0007475914820183507,0.0015972425757282533,0.008191924148710549,0.9936603641660054
2011-01-31,-1,-0.0024387788504608584,-0.001978114026307165,0.0015972425757282533,0.008191924148710549,0.9927056347466843
2011-02-02,0,0.0,0.0,0.0019572616178159287,0.008809919929801376,0.993575554655475
2011-02-04,-1,-0.00046922783464031743,-0.00035843582933888575,0.0015972425757282533,0.008223999304604707,0.9939707978314706
2011-02-08,-1,-0.0001347741479325904,-7.164840680806738e-05,0.001732098589656683,0.008781821522540721,0.993916780013262
2011-02-10,-1,-5.4751878626439255e-05,-2.4834239852001487e-06,0.001245718231733988,0.008781821522540721,0.9941974817021678
2011-02-14,0,-5.36193364397313e-05,3.896384638328137e-06,-0.0011491264022779118,0.008781821522540721,0.9938488068097034
2011-02-16,0,0.0,0.0,-0.0027864243093795693,0.007490858278312994,0.993907843413839
2011-02-18,0,0.0,0.0,-0.0027864243093795693,0.007490858278312994,0.9934606668043524
2011-02-23,0,0.0,0.0,-0.0027864243093795693,0.008048938568021465,0.9932066465263101
2011-02-25,0,0.0,0.0,-0.0027864243093795693,0.009370946898239835,0.9925014688401499
2011-03-01,0,0.0,0.0,-0.0016372484547396346,0.009370946898239835,0.9932155990057903
2011-03-03,0,0.0,0.0,-0.0016372484547396346,0.007030112974726011,0.9939338121644539
2011-03-07,0,0.0,0.0,-0.0017536841692675055,0.007030112974726011,0.9936402369283256
2011-03-09,0,0.0,0.0,-0.0017536841692675055,0.007030112974726011,0.9935154005526438
2011-03-11,0,0.0,0.0,-0.0014635868106634715,0.007030112974726011,0.9937732479330817
2011-03-15,1,0.0017329477997449884,0.0018783123467930897,-0.001172898765821081,0.008245313693254505,0.9935655356228653
2011-03-17,1,0.0012185900276976442,0.001329013464217749,-0.0003818947883351358,0.008245313693254505,0.9943661261013126
2011-03-21,0,0.0,0.0,-0.0003818947883351358,0.007030112974726011,0.9940537012210395
2011-03-23,0,0.0,0.0,-0.0003818947883351358,0.005905380185961906,0.9942103536979459
2011-03-25,0,0.0,0.0,-0.0003818947883351358,0.0055990322846162155,0.9943490344558613
2011-03-29,0,0.0,0.0,-0.0010430998811621767,0.0055990322846162155,0.9943967526125164
2011-03-31,0,0.0,0.0,-0.0003744466103374592,0.005704709628212339,0.9933844537223501
2011-04-04,0,0.0,0.0,-0.0003698833746399272,0.005704709628212339,0.9936551549068635
2011-04-06,0,0.0,0.0,-0.0018979780547705835,0.0055990322846162155,0.9935047139836402
2011-04-08,1,0.003043476448911853,0.003423288419038166,-0.0021230662340331564,0.0055990322846162155,0.9934186314853607
2011-04-12,1,0.0030105621007536047,0.0033427334092872214,-0.0016763143479738248,0.00536699706653493,0.9943309317208007
2011-04-14,0,0.0,0.0,-0.0016763143479738248,0.00536699706653493,0.9945986383888228
2011-04-18,1,0.0013098392407920058,0.0014446989964721842,-0.0011794943877942252,0.0039202618760415565,0.9953959716053141
2011-04-20,1,0.001557418537981984,0.0017232373403367075,-0.0011794943877942252,0.004081962321997799,0.9944363691010588
2011-04-25,1,0.0029957982739612686,0.0032090429445629266,-0.0021230662340331564,0.00316865404350325,0.9935089633598895
2011-04-27,1,0.0031498268059222826,0.003422926841487144,-0.0032864997889030583,0.004081962321997799,0.9930330900099363
2011-04-29,1,0.004384785713341101,0.004839334508600734,-0.0032864997889030583,0.0032127112454965116,0.9929490557854089
2011-05-03,1,0.004562399831312975,0.005068864597891807,-0.004713272753804535,0.0048619683548118365,0.9919451308860151
2011-05-05,1,0.003496023057841356,0.003837743316146177,-0.0057054156171378045,0.0048619683548118365,0.9918183961604207
2011-05-09,1,0.0033851718335946358,0.003721790652049654,-0.007968015914225147,0.0048619683548118365,0.9910991234599091
2011-05-11,1,0.0032474312850399823,0.003572649828454965,-0.007968015914225147,0.005058862707694959,0.9914759493790997
2011-05-13,1,0.0030998184398037774,0.003392093160431047,-0.009535898666957605,0.005058862707694959,0.9910181674772026
2011-05-17,1,0.0028030071874403082,0.003017210367395877,-0.010109555663587623,0.010294504701568575,0.9891807057484798
2011-05-19,1,0.00377588318584178,0.004097431165560243,-0.010109555663587623,0.005293555800481199,0.9892730783027727
2011-05-23,1,0.0026253096790071224,0.0027920529664023767,-0.010109555663587623,0.009320890643515533,0.9899304849942191
2011-05-25,1,0.002551839810115161,0.0026897118666616487,-0.01176769791026763,0.004734324688343944,0.9891096930483673
2011-05-27,1,0.0030029505236802553,0.0031970784239097067,-0.013597452060150658,0.004734324688343944,0.9880039796623566
2011-06-01,1,0.00270083179393672,0.0028014087327103655,-0.013597452060150658,0.0036062818721656247,0.9891854933172833
2011-06-03,1,0.00042693652784950395,0.000662186972012411,-0.010109555663587623,0.005377531082843319,0.99089590594374
2011-06-07,-1,-0.0006762862468527656,-0.0003065804893197868,-0.00822729903340592,0.008838127264236587,0.9906085695233929
2011-06-09,-1,-0.0007038215129057121,-0.00032545529900929616,-0.00822729903340592,0.009949648285066363,0.9899890015142931
2011-06-13,-1,-0.001450676843023353,-0.0009734022244654705,-0.011615505991405744,0.009949648285066363,0.9889377515114084
2011-06-15,-1,-0.0016850627598289272,-0.0011760776610818314,-0.008030704075956978,0.008838127264236587,0.9905543305852769
2011-06-17,-1,-0.0008341986026514116,-0.0004503722230617855,-0.008030704075956978,0.007949246751522494,0.9909709159358006
2011-06-21,-1,-0.0016929558801530788,-0.0011783578051887897,-0.006513189233386847,0.008025714484380803,0.9906564244854776
2011-06-23,-1,-0.0031798608559651187,-0.0024944074423426986,-0.004073845819272668,0.009949648285066363,0.9884343546199412
2011-06-27,-1,-0.0033409496828598665,-0.0026483926179711437,-0.00315225943815609,0.008771317835055182,0.9895864888329011
2011-06-29,-1,-0.0028666263974282532,-0.0022631807284110884,-0.00315225943815609,0.008771317835055182,0.9896487528847465
2011-07-01,0,0.0,0.0,-0.005074043634720499,0.008229192776023249,0.9893628293574899
2011-07-06,0,0.0,0.0,-0.0062934381055554335,0.007779181102979861,0.9896317029841877
2011-07-08,-1,-0.0006300364249968796,-0.00031085805872598405,-0.007371450692462737,0.007779181102979861,0.9875220180877683
2011-07-12,-1,-0.002015853826285751,-0.0015660617618655256,-0.0062934381055554335,0.008229192776023249,0.9862953794761544
2011-07-14,-1,-0.0023155197438815486,-0.0018542776106227777,-0.00817115469856185,0.009008293118414593,0.9842959612007298
2011-07-18,-1,-0.0018876432834810128,-0.0014932220871391132,-0.00817115469856185,0.016619795164311505,0.9825759449711724
2011-07-20,-1,-0.0009082752844582039,-0.0006339116325831784,-0.01034404496436181,0.016619795164311505,0.9826284755203385
2011-07-22,1,0.0016649749217183339,0.0016884425600520807,-0.01034404496436181,0.011630544526247703,0.9845764379387127
2011-07-26,1,0.0018812983460768612,0.001984935164692249,-0.01034404496436181,0.016619795164311505,0.9837376841714429
2011-07-28,0,0.0,0.0,-0.014364462940444153,0.016619795164311505,0.9832114955044875
2011-08-01,0,0.0,0.0,-0.01034404496436181,0.017485191055551245,0.9831658079014595
2011-08-03,0,0.0,0.0,-0.00976728892002953,0.017485191055551245,0.9831623151363935
2011-08-05,0,0.0,0.0,-0.00976728892002953,0.016619795164311505,0.9855746511038368
2011-08-09,0,0.0,0.0,-0.008386650106104638,0.016596705907338593,0.9874268931024628
2011-08-11,-1,-0.0035621284531006073,-0.002969866063535349,-0.008386650106104638,0.016596705907338593,0.9878959620310609
2011-08-15,-1,-0.001237696769294966,-0.0009428423383781553,-0.008386650106104638,0.00479805026933417,0.9898342329573614
2011-08-17,-1,-0.0002320614890664199,-9.80776903542556e-05,-0.006753184615264666,0.0062023162114791175,0.989298832153832
2011-08-19,-1,-0.0004277022065840617,-0.0002729960049178301,-0.007578234725545624,0.010659553647814715,0.9885798467338623
2011-08-23,0,0.0,0.0,-0.012380764517799214,0.006675394009867098,0.9882935755866544
2011-08-25,-1,-0.0005893744634131072,-0.00040359159761650437,-0.01570613156774648,0.006675394009867098,0.9872307928555641
2011-08-29,1,0.00033451650552885465,0.00033909774668266254,-0.01570613156774648,0.006675394009867098,0.9874594336943893
2011-08-31,1,2.9252431255696054e-05,6.984715703695245e-05,-0.01712843510845885,0.01004420312456748,0.9868713595238835
2011-09-02,-1,-0.0002969435569452212,-0.00022207811493795473,-0.01841567702867915,0.01004420312456748,0.9859545747117786
2011-09-07,0,0.0,0.0,-0.01841567702867915,0.01004420312456748,0.9858242957130278
2011-09-09,0,0.0,0.0,-0.01712843510845885,0.010659553647814715,0.986588006195247
2011-09-13,0,0.0,0.0,-0.01712843510845885,0.01169301390782698,0.9854746462431551
2011-09-15,0,0.0,0.0,-0.01712843510845885,0.01169301390782698,0.9863171139423057
2011-09-19,-1,-0.0016894038776239676,-0.0015296536971701673,-0.012942066901761248,0.012581731927044409,0.9865138380599145
2011-09-21,-1,-0.0017527116469690104,-0.0016088807442902575,-0.011005561938563894,0.012581731927044409,0.9872429766070883
2011-09-23,-1,-0.0032326630483139954,-0.0029225633425577135,-0.006490723143930805,0.01458914733692912,0.9858978329622129
2011-09-27,0,0.0,0.0,-0.009393320024871912,0.01458914733692912,0.9865268904089536
2011-09-29,0,0.0,0.0,-0.007874238704315174,0.016866822316926548,0.9858010138176289
2011-10-03,0,0.0,0.0,-0.005863072287249952,0.016866822316926548,0.9859244097874276
2011-10-05,0,0.0,0.0,-0.007874238704315174,0.01634461330116344,0.9855654760169624
2011-10-07,1,0.001396598849667403,0.0015435915737742878,-0.008447801145450264,0.015636021353176953,0.9861491267539729
2011-10-11,-1,-0.0005383704209775554,-0.000516450233587573,-0.007619710952755596,0.015636021353176953,0.9863952798727937
2011-10-13,-1,-0.0002397043749377201,-0.000235277306166277,-0.008447801145450264,0.01634461330116344,0.9852788285204368
2011-10-17,0,0.0,0.0,-0.008447801145450264,0.01634461330116344,0.9855240256651285
2011-10-19,0,0.0,0.0,-0.007619710952755596,0.01634461330116344,0.9859787869539723
2011-10-21,0,0.0,0.0,-0.007619710952755596,0.013378496019739797,0.9878694050451851
2011-10-25,1,0.0008889776406026213,0.0010268009635345235,-0.006549996623590515,0.013378496019739797,0.9883054912352025
2011-10-27,1,0.0020130668854415226,0.0022632614386689765,-0.009581996650038243,0.009242815614615915,0.9897377952052385
2011-10-31,1,0.0010494092375675946,0.0011850617992140045,-0.006549996623590515,0.013378496019739797,0.98916988735879
2011-11-02,1,0.0010497579527946753,0.0011696405905901007,-0.006305178530148175,0.013378496019739797,0.9892048222157348
2011-11-04,1,0.001083848564626758,0.001209824449336681,-0.00368051596097777,0.010949809068086638,0.9898625842391912
2011-11-08,1,0.0017811822686161953,0.002018439301334331,-0.004367314120857535,0.010263589955863014,0.9902273847419153
2011-11-10,1,0.0015046364254185614,0.001687761652042667,-0.004367314120857535,0.010180635748155979,0.990927353106363
2011-11-14,1,0.000994214061160777,0.0010624110607307918,-0.004289089621586608,0.008237159241443548,0.991054021055078
2011-11-16,1,0.0010509504107352446,0.0011179429065069893,-0.006070505032335397,0.013763269468706828,0.9901179758402516
2011-11-18,1,0.0015908498056447437,0.0017250976337575147,-0.006070505032335397,0.009372444750083414,0.9903955532862626
2011-11-22,1,0.0011017910206216463,0.001185436675911307,-0.004583554326539294,0.013800169487265125,0.9901009991165572
2011-11-25,1,0.0012239379337366815,0.0013711086954349666,-0.004216482350906922,0.013800169487265125,0.9902490263702548
2011-11-29,1,0.002869258998867876,0.0032603863392263836,-0.004216482350906922,0.008842544301947001,0.9919424401097992
2011-12-01,1,0.0024554879363187137,0.0027166469414337236,-0.004216482350906922,0.007620311525822961,0.9926991579546629
2011-12-05,1,0.0022991589203888623,0.002517585835051771,-0.004216482350906922,0.007620311525822961,0.9928396665438797
2011-12-07,0,0.0,0.0,-0.004588123776176305,0.007620311525822961,0.992293192613278
2011-12-09,0,0.0,0.0,-0.004216482350906922,0.006799989888794492,0.9931967830452167
2011-12-13,0,0.0,0.0,-0.004216482350906922,0.006799989888794492,0.9931577983136286
2011-12-15,0,0.0,0.0,-0.004216482350906922,0.006799989888794492,0.9928138076332313
2011-12-19,0,0.0,0.0,-0.005125318335703522,0.006695750306823827,0.9913507981592643
2011-12-21,0,0.0,0.0,-0.005125318335703522,0.006263162016037803,0.9919046712990104
2011-12-23,0,0.0,0.0,-0.008206579996060382,0.006263162016037803,0.990451859506629
2011-12-28,0,0.0,0.0,-0.009355064250109107,0.006263162016037803,0.9898357863811074
2011-12-30,0,0.0,0.0,-0.009355064250109107,0.0049181641598490325,0.9901394238769657
2012-01-04,-1,-2.565533437558997e-05,-1.2744730061997718e-05,-0.009355064250109107,0.006263162016037803,0.9896051729832867
2012-01-06,1,0.0032466885762140628,0.0035807043938322174,-0.007893830051185989,0.00783091819934569,0.9897086867660086
2012-01-10,1,0.003458833364236861,0.003842631553736148,-0.007893830051185989,0.009826901023849175,0.9898185509904794
2012-01-12,1,0.002737042156666717,0.00301045082611886,-0.0060539546648803524,0.010093565974637564,0.9893433265823193
2012-01-17,1,0.002769390983462396,0.0030964074252886487,-0.002701342901395754,0.010093565974637564,0.9901499637655429
2012-01-19,1,0.001021998763011699,0.0010618467160460991,-0.0013524689453456797,0.010093565974637564,0.9913816184934798
2012-01-23,1,0.0020923184914400897,0.0023316532397152593,-0.0019120010498322796,0.009890677407636553,0.9917910679227365
2012-01-25,0,0.0,0.0,-0.0015276462287416932,0.007302786983050506,0.9934355781033187
2012-01-27,1,0.0014691371843088676,0.001530601653434564,-0.0001238148154263734,0.009890677407636553,0.9942131596754867
2012-01-31,1,0.0011806288485027637,0.0012265546470819322,0.0004283989013977987,0.009890677407636553,0.9940943100839588
2012-02-02,1,0.00045853765575055755,0.0006116936962076863,0.0004283989013977987,0.009299043057559363,0.99399514773789
2012-02-06,1,0.0008934974412584278,0.0010007701884699812,-0.0001238148154263734,0.009299043057559363,0.993412849510238
2012-02-08,1,0.0021874122276579443,0.002321220047448146,-0.00021693921120695793,0.008662187330883165,0.9938109277113502
2012-02-10,1,0.0032653324961228088,0.0035189682956004555,-0.0009266715797909308,0.007031912319757196,0.9948860992896483
2012-02-14,0,0.0,0.0,-0.0012831134596702912,0.007031912319757196,0.9948203471498385
2012-02-16,0,0.0,0.0,-0.0011504047493845343,0.007031912319757196,0.9948051553955237
2012-02-21,0,0.0,0.0,-0.0008824353430290119,0.007031912319757196,0.9948265283651079
2012-02-23,0,0.0,0.0,-0.0008824353430290119,0.008395524116806571,0.9942571880592653
2012-02-27,1,0.0005171598048123545,0.0008890340241578445,-0.0008824353430290119,0.008395524116806571,0.9943318447759384
2012-02-29,1,0.001016183144679274,0.001286157074393359,-0.0015442095545983867,0.00699674083121583,0.9941998310565832
2012-03-02,1,0.0020227119393429038,0.0021206564919998053,-0.0031949890048854376,0.00699674083121583,0.9932141794242801
2012-03-06,0,0.0,0.0,-0.0031949890048854376,0.00699674083121583,0.9940005690454758
2012-03-08,1,0.001985298332342032,0.002067598913985702,-0.0038783710860313143,0.006722404854211427,0.9934197520448929
2012-03-12,0,0.0,0.0,-0.004569710931487636,0.006722404854211427,0.9927371789445971
2012-03-14,1,0.0013886715417214131,0.0015747369248129148,-0.004569710931487636,0.005842777915643065,0.9931058472820337
2012-03-16,1,0.0028124316647490408,0.002933786305687221,-0.005210975836795142,0.0062940007088950565,0.9924135405324536
2012-03-20,1,0.0024969410909192326,0.002520834528197107,-0.005210975836795142,0.005960356361677955,0.9924790720233405
2012-03-22,1,0.0034229949599162137,0.003678172781335646,-0.006499910349056411,0.005960356361677955,0.9919616546435247
2012-03-26,1,0.0031197506635872903,0.0032460870557432034,-0.008919402845291649,0.0054822323240771255,0.9914742827194013
2012-03-28,0,0.0,0.0,-0.008919402845291649,0.007157483582938031,0.991348641904591
2012-03-30,1,0.0028696165590217254,0.0029524212890956916,-0.008919402845291649,0.007157483582938031,0.9918206589611175
2012-04-03,1,0.0030604119962158644,0.00319297519956466,-0.008919402845291649,0.005960356361677955,0.9923624613910826
2012-04-05,1,0.0025213702866260157,0.002563651418877394,-0.008919402845291649,0.005767352529865162,0.9921132840590167
2012-04-10,1,0.0014359160853852247,0.00152829163332829,-0.008919402845291649,0.005767352529865162,0.9922427571954092
2012-04-12,1,0.0013999718853631954,0.0014927454281073007,-0.009137148107187281,0.006215668214520069,0.991189928618669
2012-04-16,1,0.0015622448372873343,0.0015976188637440106,-0.0089491345622736,0.005623663252371942,0.9913396986297258
2012-04-18,1,0.0012237242522549485,0.001342217422751408,-0.0089491345622736,0.006088440752504387,0.990990905114212
2012-04-20,1,0.0006688409783025162,0.0008842977019919307,-0.0089491345622736,0.005623663252371942,0.9916355170227847
2012-04-24,1,0.0007322925126052645,0.0008467908801471373,-0.008090209744172574,0.005623663252371942,0.9922211010771885
2012-04-26,0,0.0,0.0,-0.008642057238910487,0.005283100621845616,0.9925007135704502
2012-04-30,1,0.0025140215407332867,0.002653101280519173,-0.008642057238910487,0.0041370381092175786,0.9929296027086768
2012-05-02,1,0.002573873928119221,0.0027013375331816987,-0.008642057238910487,0.002788749644747719,0.9921938524876235
2012-05-04,1,0.0017677682312617798,0.0017794707069589278,-0.009000539047426107,0.002788749644747719,0.9916273838401858
2012-05-08,1,0.0007223904404254891,0.0008438010459091779,-0.008642057238910487,0.0041370381092175786,0.9921942378566172
2012-05-10,0,0.0,0.0,-0.008367045275488212,0.0046242508411193746,0.9931769938908861
2012-05-14,-1,-0.0002021495805724342,-9.474619613373977e-05,-0.007958585799862253,0.005449000998874789,0.993015601975464
2012-05-16,-1,-0.00026996121455906186,-0.00016622254520037968,-0.005343116172632519,0.006651680562158143,0.9923142758603645
2012-05-18,-1,-0.0006875387917334125,-0.0004792237423649747,-0.0010897594520498201,0.006651680562158143,0.9923636141562608
2012-05-22,-1,-0.00045761125392541197,-0.00026537403275210113,-0.0011744395289953523,0.006651680562158143,0.992697333999306
2012-05-24,0,0.0,0.0,-0.0011744395289953523,0.005257023322264357,0.9919471292693884
2012-05-29,-1,-0.00042927793104709526,-0.00023089684186289317,-0.005343116172632519,0.005257023322264357,0.9908809552739033
2012-05-31,-1,-0.0016938544053281695,-0.0013028177866147943,-2.8226692315177436e-05,0.007628869480770572,0.989868787149219
2012-06-04,-1,-0.003241070451788222,-0.002673073743744128,0.003438020056803522,0.008948804206121144,0.9880141028075792
2012-06-06,-1,-0.0029895089110673614,-0.0024211092061720476,0.003438020056803522,0.008207618090626402,0.9886634478147106
2012-06-08,-1,-0.0028036080859221704,-0.0022363829564967267,0.003438020056803522,0.008948804206121144,0.9884261740608952
2012-06-12,0,0.0,0.0,0.0003289668713061535,0.008948804206121144,0.9904625269422846
2012-06-14,0,0.0,0.0,-0.0005256834895646073,0.006249340380387623,0.9912841322442536
2012-06-18,0,0.0,0.0,-0.0027477351205538957,0.007357900634232873,0.9909248109470883
2012-06-20,0,0.0,0.0,-0.005885448721399179,0.007357900634232873,0.9907543410966988
2012-06-22,0,0.0,0.0,-0.006600995246150317,0.007357900634232873,0.9917453834307688
2012-06-26,0,0.0,0.0,-0.006600995246150317,0.007357900634232873,0.9923077785618072
2012-06-28,0,0.0,0.0,-0.006600995246150317,0.008479800736963977,0.9913224389128426
2012-07-02,0,0.0,0.0,-0.006600995246150317,0.005875114059553636,0.9926261566805704
2012-07-05,0,0.0,0.0,-0.007144075303172184,0.005707428807422755,0.9924373557635313
2012-07-09,1,0.0011195980591513202,0.0011249167019827064,-0.007144075303172184,0.004332105063323082,0.9921485377383265
2012-07-11,1,0.001020674394891237,0.0010242994424194151,-0.007714903555395692,0.005441688533556687,0.9915682859406997
2012-07-13,1,0.0005594950272450117,0.0005762460367867604,-0.007714903555395692,0.00750849839209071,0.9914366710699674
2012-07-17,0,0.0,0.0,-0.00667637844443122,0.008031851729813818,0.9917364175053268
2012-07-19,0,0.0,0.0,-0.00655901445483097,0.008031851729813818,0.9918713655540982
2012-07-23,0,0.0,0.0,-0.00361950688765926,0.008031851729813818,0.9925743794775889
2012-07-25,0,0.0,0.0,-0.004759463988249335,0.008031851729813818,0.9919689948781268
2012-07-27,0,0.0,0.0,-0.006903693112211769,0.005616139646131057,0.9921073967556671
2012-07-31,1,0.0015381528607175954,0.0016606936300970626,-0.006903693112211769,0.005616139646131057,0.992273307422074
2012-08-02,1,0.0007682786163188219,0.0007826729293530683,-0.0029626000907876163,0.005616139646131057,0.9927602040558575
2012-08-06,1,0.0019506537250665395,0.0021458174021147104,-0.00547712791222642,0.0040034310763770896,0.9929859466081902
2012-08-08,1,0.0017401112031820542,0.0019148183596491902,-0.004693505967764894,0.003865926421894658,0.9932137835443902
2012-08-10,1,0.0020574156832002958,0.0022929748808093054,-0.006334636642872126,0.0036811403461840964,0.9931752315241346
2012-08-14,0,0.0,0.0,-0.007737974089414104,0.0035005768759311046,0.9928006328303186
2012-08-16,0,0.0,0.0,-0.007863844600904724,0.0036811403461840964,0.9907194994852826
2012-08-20,0,0.0,0.0,-0.007863844600904724,0.005475510813716706,0.989770744541825
2012-08-22,0,0.0,0.0,-0.006334636642872126,0.00620249489479416,0.9906562530496161
2012-08-24,0,0.0,0.0,-0.003537385360446298,0.00462000268270538,0.9924179353888226
2012-08-28,0,0.0,0.0,-0.006334636642872126,0.003865926421894658,0.9917550958998265
2012-08-30,0,0.0,0.0,-0.007306166733156343,0.003865926421894658,0.9914073720826084
2012-09-04,0,0.0,0.0,-0.006334636642872126,0.006150546449768903,0.9912290653800075
2012-09-06,0,0.0,0.0,-0.0038472431114865238,0.008681365907588732,0.9909621473738507
2012-09-10,0,0.0,0.0,-0.00307129997858091,0.008681365907588732,0.9910043523535411
2012-09-12,-1,-0.0009374850309709165,-0.0008301297877139949,-0.0049783373344395015,0.008681365907588732,0.9904382884985539
2012-09-14,0,0.0,0.0,-0.001121524602895866,0.008681365907588732,0.9925696218846514
2012-09-18,0,0.0,0.0,-0.001121524602895866,0.005465454406855637,0.9932420668460052
2012-09-20,1,0.0011066986428720357,0.001267118912581869,-0.0073984599102474916,0.005202762916505694,0.9913140603303872
2012-09-24,1,0.001190165613759616,0.0013726052709634043,-0.0073984599102474916,0.006505949378987315,0.990904485492973
2012-09-26,1,0.0006273061028479334,0.0007176808033597189,-0.0073984599102474916,0.006505949378987315,0.991136141173923
2012-09-28,1,0.0003124344686729256,0.0003394662864384266,-0.004930742510024079,0.0068421934279808885,0.9912546024202377
2012-10-02,0,0.0,0.0,-0.0073984599102474916,0.005202762916505694,0.9915212999521372
2012-10-04,0,0.0,0.0,-0.0076185127764361905,0.0040964635308750955,0.9918503406659286
2012-10-08,1,0.0012671306411746548,0.001318659982380882,-0.008639909420723294,0.004193571811202385,0.9911929212394165
2012-10-10,-1,-0.0004899341894925395,-0.0003005778459181,-0.007967438296606837,0.004193571811202385,0.9922858777366765
2012-10-12,1,7.153969324698002e-05,0.00012061126385049783,-0.007967438296606837,0.0033602473896250356,0.9921031483602499
2012-10-16,0,0.0,0.0,-0.009686685981235229,0.0018156788164859442,0.9904231670307883
2012-10-18,0,0.0,0.0,-0.007967438296606837,0.006430192350599318,0.9911594452699141
2012-10-22,0,0.0,0.0,-0.007967438296606837,0.006944288081739127,0.9907816761790823
2012-10-24,-1,-0.00346281998838107,-0.0028441364702938283,-0.006826150408016318,0.008136277411825913,0.9903590668629163
2012-10-26,-1,-0.0028620540865272083,-0.002343093148390901,-0.007709840530689977,0.00942166164283359,0.9901555215882538
2012-11-01,0,0.0,0.0,-0.006826150408016318,0.00942166164283359,0.990057904069469
2012-11-05,0,0.0,0.0,-0.007000929170136092,0.00942166164283359,0.9899986040606392
2012-11-07,1,3.4017636870336046e-06,1.8146480393409702e-05,-0.006127062034018402,0.00942166164283359,0.9906185557439053
2012-11-09,-1,-0.0029011942356041557,-0.0025116611601288764,-0.005356418530393087,0.009624849722473992,0.9905001027395529
2012-11-13,-1,-0.0032984016518024196,-0.0028741438318852864,-0.005229538290596295,0.009624849722473992,0.9902338307185181
2012-11-15,-1,-0.004299170015569348,-0.0036940223960183357,-0.005319704920564452,0.008819063733577699,0.9920984160013994
2012-11-19,-1,-0.0033166177550685277,-0.0027717608973148386,-0.006112856289488494,0.005262860269828763,0.9937467419946074
2012-11-21,-1,-0.0017976915322611092,-0.0014720515775831886,-0.00661190597311029,0.003880917465367605,0.9931464565759305
2012-11-26,0,0.0,0.0,-0.007194958926741064,0.0020903961776484715,0.9927882922814434
2012-11-28,-1,-6.360115628161288e-05,-3.498380003061604e-05,-0.0074949080819260916,0.0020903961776484715,0.9927051834170556
2012-11-30,1,0.00026465682374866037,0.0003123702561622485,-0.009441866700360626,0.0020903961776484715,0.9918078154453934
2012-12-04,-1,-8.408629834308981e-05,-8.367353470770281e-05,-0.009592922747881105,0.004968651056425376,0.9901158310059159
2012-12-06,-1,-0.0002698933034112707,-0.00024245732509254337,-0.009592922747881105,0.00802072741891547,0.9899584261505192
2012-12-10,-1,-0.00014203875033751587,-0.00012555630731053813,-0.009592922747881105,0.004634809591657831,0.990352263453493
2012-12-12,-1,-0.00037311833159995163,-0.00032091901139715814,-0.009592922747881105,0.009924434524715154,0.9890102376256652
2012-12-14,-1,-0.0011973086756239036,-0.0010175197875436693,-0.009592922747881105,0.009924434524715154,0.9896925865492944
2012-12-18,-1,-0.0020194478581619735,-0.0017208883483309993,-0.007250546691078401,0.009924434524715154,0.9897054505978999
2012-12-20,-1,-0.001565521257885367,-0.0013913584672330906,-0.006455272617191161,0.00953893510922091,0.9905043442851613
2012-12-24,-1,-0.001974764930933077,-0.001777924399287856,-0.00397115474157244,0.010003042727626173,0.9901916285475811
2012-12-27,0,0.0,0.0,-0.004015171029330664,0.009656507975577901,0.9906596573270796
2012-12-31,0,0.0,0.0,-0.004015171029330664,0.009147822302982021,0.9911587196143656
2013-01-03,0,0.0,0.0,-0.0032874510218300046,0.008029153272837883,0.993179188787136
2013-01-07,0,0.0,0.0,-0.004015171029330664,0.007674476957422483,0.9929087942097525
2013-01-09,0,0.0,0.0,-0.004015171029330664,0.009147822302982021,0.9918016940152986
2013-01-11,1,0.001516873052182424,0.0018415771999036757,-0.004015171029330664,0.007063994175971036,0.9930457179143132
2013-01-15,0,0.0,0.0,-0.004015171029330664,0.007674476957422483,0.9929262601131535
2013-01-17,0,0.0,0.0,-0.004015171029330664,0.007063994175971036,0.9931523830161977
2013-01-22,0,0.0,0.0,-0.004015171029330664,0.007546066948115056,0.9925002630843799
2013-01-24,0,0.0,0.0,-0.0032491349352247335,0.007546066948115056,0.9929519376833971
2013-01-28,1,0.0012274785005984728,0.0014324124406354013,-0.002510597974599774,0.007546066948115056,0.9923847157917487
2013-01-30,0,0.0,0.0,-0.0019729775074962944,0.007546066948115056,0.9928516221739594
2013-02-01,0,0.0,0.0,-0.002510597974599774,0.008764176153788899,0.9924928900367366
2013-02-05,-1,-0.00013059900034028088,-0.00011296937802064165,-0.002510597974599774,0.008764176153788899,0.9928989885626313
2013-02-07,1,0.00016982405448172187,0.00019279168107516414,-0.002587893233738018,0.007396076923825367,0.9937622984289195
2013-02-11,1,0.0009532449599183913,0.0010959363990186216,-0.0034111359704044573,0.004760535270817805,0.9939392734459567
2013-02-13,1,0.0015770861676049402,0.0018474870012739973,-0.0035664742703048606,0.004723229474616355,0.9938533733813381
2013-02-15,1,0.0013341383336194852,0.0015859372159635512,-0.0035664742703048606,0.004723229474616355,0.9939233506131766
2013-02-20,1,0.0020795477057493766,0.0024293106454731763,-0.0035664742703048606,0.0038699679414757136,0.9943788654468603
2013-02-22,1,0.0021901244687024977,0.002516296478027133,-0.003817359248917351,0.0038699679414757136,0.9942965224672814
2013-02-26,1,0.0014506716948468434,0.00166803423158858,-0.0035664742703048606,0.004273786076434065,0.9952985252061715
2013-02-28,0,0.0,0.0,-0.0035664742703048606,0.005300107650431189,0.9950783797491953
2013-03-04,0,0.0,0.0,-0.0035664742703048606,0.005300107650431189,0.9948366565053677
2013-03-06,1,0.002236022058678388,0.0025749844780364527,-0.0027522650183173228,0.005300107650431189,0.9954761644484243
2013-03-08,1,0.0015659288812727894,0.0017622271760155293,-0.0027522650183173228,0.006374551929756099,0.9941052526191848
2013-03-12,1,0.0016415455195827357,0.001866245184086992,-0.0010222842595035897,0.006941955794008399,0.9940873136510877
2013-03-14,1,0.0019419824560787447,0.002223076893187543,0.0003604599560228667,0.006941955794008399,0.9943159484216805
2013-03-18,1,0.0006026747971778137,0.0006933312906771368,0.00043387018660342525,0.0076412229593322435,0.9928336258106797
2013-03-20,1,0.0012772762531332506,0.001487312362923562,-0.002886969311516675,0.0076412229593322435,0.9917653159983685
2013-03-22,1,0.0010682639632920788,0.0011669281186134058,-0.0010222842595035897,0.00798469914414876,0.9916927437216227
2013-03-26,1,0.0011744442146852043,0.001297299007785718,0.00043387018660342525,0.008499174295080297,0.9915183164560807
2013-03-28,1,0.0013280825577956553,0.0014503108179735854,0.00043387018660342525,0.008499174295080297,0.9914148140998784
2013-04-02,1,0.0017049225791881681,0.0018541074549224639,-0.0013611783884790141,0.007812714676309422,0.9918444263206265
2013-04-04,1,0.0015659209282060788,0.0016818465699943498,-0.004616519671872013,0.007812714676309422,0.9914427423306221
2013-04-08,1,0.00128504804563586,0.0013360120177857526,-0.0071474811773721975,0.007213538982492249,0.9920864459169797
2013-04-10,1,0.001228254246097558,0.0012416535309733739,-0.0071474811773721975,0.0074104168306798985,0.9917664597293845
2013-04-12,1,0.0014026442557426087,0.001415701694420218,-0.008036615502314161,0.006884760322769283,0.9915103719964004
2013-04-16,1,0.0014812888479744945,0.001575192199893018,-0.0071474811773721975,0.007238430030116967,0.9924795429497338
2013-04-18,1,0.0007447274231664382,0.0007863289057999832,-0.004845995162347094,0.007887387819183576,0.9930227315188775
2013-04-22,1,0.0013745269828589468,0.0015220553095152045,-0.006950761390146283,0.007238430030116967,0.9932097189271
2013-04-24,1,0.0017396209379048678,0.0019323716908328011,-0.006950761390146283,0.006884760322769283,0.9930244419261313
2013-04-26,1,0.0021185839568411773,0.0023574079498204854,-0.006950761390146283,0.005732461134312113,0.9931647177057445
2013-04-30,1,0.0019553734355462326,0.002148826011542732,-0.007939134443187477,0.004056100858381869,0.9925136660117972
2013-05-02,1,0.0016015631768110706,0.001736264815831633,-0.008172301650417862,0.004056100858381869,0.9921702674593169
2013-05-06,1,0.0009662022044373347,0.0010227146783800924,-0.007348975081509737,0.005956344589762158,0.9922950442286905
2013-05-08,1,0.0013361755677962816,0.001432616416625343,-0.008172301650417862,0.0046424530013346975,0.9912846633488808
2013-05-10,1,0.0005604530514030513,0.000585715044952077,-0.007348975081509737,0.0046424530013346975,0.991792622006786
2013-05-14,1,0.0008275486576491158,0.0008518073382155153,-0.007348975081509737,0.0027905190898687023,0.992102507785178
2013-05-16,1,0.0006269863118947128,0.0007014278850759615,-0.006513586703413054,0.0027905190898687023,0.9925522611893213
2013-05-20,-1,-0.00021278826512361598,-1.819021091057629e-07,-0.005557059923131685,0.0036634466016670073,0.992956777318078
2013-05-22,-1,-0.0008763292624618073,-0.0005870565323870868,-0.009028482096999897,0.0036634466016670073,0.9903462722702351
2013-05-24,-1,-0.0009792460394583962,-0.0006726634684229008,-0.009028482096999897,0.0040004636966375785,0.9898289821256404
2013-05-29,-1,-0.0011506870001495662,-0.0008627797400799174,-0.005721772575032289,0.005848045896842664,0.9899316235688316
2013-05-31,-1,-0.001695127219108165,-0.0013464936850334421,-0.005721772575032289,0.005848045896842664,0.9900719757983868
2013-06-04,-1,-0.0015168352937294865,-0.0011788098399197488,-0.005489983804546419,0.005848045896842664,0.9904535692604877
2013-06-06,-1,-0.0004702489199180968,-0.0003173161094379163,-0.004975275247673927,0.0040004636966375785,0.9918012881768334
2013-06-10,-1,-0.0007997646420841068,-0.0005965537809040651,-0.004516153465928046,0.007560660581641376,0.9910851011169849
2013-06-12,-1,-0.000789326485842453,-0.0005950385361220024,-0.005470155319292921,0.009722574172915253,0.9900496094563873
2013-06-14,-1,-0.00045014699496149325,-0.0003211169420683137,-0.007002053401955892,0.007560660581641376,0.9904618116124582
2013-06-18,-1,-0.000354972194021849,-0.00022980008154575697,-0.007002053401955892,0.007560660581641376,0.9904631795556423
2013-06-20,-1,-0.002711334900198612,-0.0022907442312585314,-0.00558937350429742,0.007560660581641376,0.9931084086284752
2013-06-24,-1,-0.0029712684418749602,-0.0024944499991433186,-0.005064304359768585,0.006914657051812166,0.9933111802304377
2013-06-26,-1,-0.002534624675403792,-0.0021197068539987986,-0.005064304359768585,0.006914657051812166,0.993625168534852
2013-06-28,-1,-0.0029981578931540962,-0.0025245486919629363,-0.004118936383732362,0.006914657051812166,0.9942746604115481
2013-07-02,-1,-0.002061394280298153,-0.0017390125922611228,-0.004118936383732362,0.005950968097738832,0.9945443981094955
2013-07-05,-1,-0.0019485979509534111,-0.0016550429724965106,-0.004118936383732362,0.006179070828421701,0.9943644930664883
2013-07-09,-1,-0.0010261238950035048,-0.0008520807518836405,-0.005043339379230637,0.004255355344743602,0.9950071453769991
2013-07-11,-1,-0.0007046434397122983,-0.0005479303957568225,-0.005043339379230637,0.004255355344743602,0.9954340612340787
2013-07-15,-1,-0.000462160593980098,-0.0003739287948539649,-0.005043339379230637,0.004255355344743602,0.9951510845327812
2013-07-17,-1,-0.00013237646596473915,-0.00011281760001131349,-0.005043339379230637,0.001664524228008152,0.9952498234556437
2013-07-19,-1,-0.0010214259254331347,-0.0008644742403307712,-0.005043339379230637,0.001664524228008152,0.9947939601706036
2013-07-23,-1,-0.0009194324300805733,-0.0007771584648908765,-0.00645141364474032,0.00016906122790479012,0.9945410524296825
2013-07-25,-1,-0.000585627797628525,-0.0004956901053115493,-0.00645141364474032,0.00016906122790479012,0.9944154274207276
2013-07-29,-1,-0.0010003661036436943,-0.0008460351039329282,-0.007006791799052976,0.0014485521388323715,0.9935543075301839
2013-07-31,-1,-0.0008944300128654857,-0.00074056870852517,-0.008328303256374178,-0.0009183213576288069,0.9930993206510235
2013-08-02,-1,-0.0007863682051292193,-0.0006405279212328345,-0.008328303256374178,-0.0011887116436595255,0.9925926366650193
2013-08-06,-1,-0.0010407116789331202,-0.000872090947866117,-0.008328303256374178,0.0014485521388323715,0.9927564672922676
2013-08-08,-1,-0.0010088405051934448,-0.0008202948733558219,-0.008328303256374178,0.001548029993964963,0.9934223545273863
2013-08-12,-1,-0.001220152389072059,-0.001027486363942825,-0.007949199155680266,0.003186366682948881,0.9935937637121841
2013-08-14,-1,-0.0012356171757950184,-0.0010467680671885507,-0.007949199155680266,0.004044441434549254,0.9921710297709432
2013-08-16,-1,-0.002217197520363259,-0.0019097655777708903,-0.0052301780934093664,0.004930159827611465,0.9923871096031699
2013-08-20,-1,-0.002610012156271326,-0.0022799193199379555,-0.003373431449315332,0.006849629404124196,0.9915816552096183
2013-08-22,-1,-0.0020939953122567252,-0.0018633517516983822,-0.003254353048835385,0.007722327244571267,0.9916766343948177
2013-08-26,-1,-0.0018748639574946557,-0.0016756659456575603,-0.003373431449315332,0.005686546042847872,0.99150543871762
2013-08-28,-1,-0.002369422246677849,-0.002118840016796417,-0.003254353048835385,0.00716312968623206,0.9912919971803023
2013-08-30,-1,-0.0018197652677694573,-0.001654017419830944,-0.0035112466418730287,0.005686546042847872,0.9918220212491663
2013-09-04,-1,-0.001192663427282735,-0.0011279432101173406,-0.0035112466418730287,0.00716312968623206,0.991546366766505
2013-09-06,-1,-0.0012648189778719922,-0.0011705081577120624,-0.004364886082385675,0.00716312968623206,0.9916041628967129
2013-09-10,-1,-0.002014312923305021,-0.0017950176939033793,-0.005393729191739445,0.00716312968623206,0.9915155817869421
2013-09-12,-1,-0.000626143777656877,-0.0005947585449371719,-0.006138126854547811,0.00716312968623206,0.9907353164621773
2013-09-16,1,0.00037357102753010797,0.0005033867746057624,-0.0075336133013704735,0.00716312968623206,0.9899288829096626
2013-09-18,1,0.0015490121469371176,0.001867023880405797,-0.008087256631961387,0.006644568403379467,0.9897542033103518
2013-09-20,1,0.0018707504660780778,0.0022391378487185334,-0.008087256631961387,0.007419103246485634,0.9896024401133977
2013-09-24,1,0.0006496965881610823,0.0008457621937386574,-0.006138126854547811,0.008983101066402797,0.9910831058955911
2013-09-26,1,0.0004613729190588926,0.0005907230168774051,-0.005811686968926369,0.007427417217845017,0.9916455749915759
2013-09-30,1,0.0003589937828539225,0.0005105372101056936,-0.005178786631262722,0.009079191387958176,0.9914094877113382
2013-10-02,1,0.0006564113798726371,0.0008202562819577911,-0.005811686968926369,0.007498565625322249,0.9912056645386383
2013-10-04,1,0.0007698261434844829,0.0009909611745046489,-0.005811686968926369,0.007709150259456329,0.9912164053836161
2013-10-08,1,0.0005371154355768427,0.000741715208371105,-0.0016128605330554921,0.007709150259456329,0.9915517513272198
2013-10-10,1,0.0007316399224735058,0.0009557144868616628,-0.0016128605330554921,0.007709150259456329,0.9927351490072984
2013-10-14,1,0.0008339442011571622,0.0010506896482969184,-0.0016128605330554921,0.006970736841677734,0.9938675918704996
2013-10-16,1,0.0006688161040301346,0.0008698053848249886,-0.0010226438900083803,0.007709150259456329,0.994393694493771
2013-10-18,1,0.0006971662397562176,0.0008620754487809296,-0.0010226438900083803,0.007205185385569782,0.994483909970605
2013-10-22,1,0.0008153435204293354,0.0009669079799240137,-0.0014610190284467107,0.005889563758891928,0.99483115670249
2013-10-24,1,0.0011715770916424216,0.0014266252714092136,-0.003402890816042649,0.005889563758891928,0.9922935410947785
2013-10-28,1,0.0018097679775220799,0.0021454807228750874,-0.006565833308716617,0.005202334090663327,0.9925231212945328
2013-10-30,1,0.0015376274708581725,0.0018295574816114923,-0.006565833308716617,0.0043959091309343605,0.9927164583099412
2013-11-01,1,0.0017350275259442965,0.002054784313257789,-0.006565833308716617,0.003694649057884459,0.9927211353568051
2013-11-05,1,0.00200491040437332,0.0023726331814980994,-0.006565833308716617,0.003694649057884459,0.9926779235358131
2013-11-07,1,0.002064104924560527,0.002452288044370677,-0.005676957221601843,0.0036198230117851,0.9932977482250188
2013-11-11,1,0.0007225322674854649,0.0007917004352746568,-0.005742191367671703,0.0038170747518637494,0.9933487275219365
2013-11-13,1,0.001100840808982289,0.0012235204637121827,-0.006609710417196031,0.0032341510892006085,0.9933547542610166
2013-11-15,1,0.0014855839507640378,0.0016744057474562739,-0.006609710417196031,0.002078009989034459,0.9931168626934805
2013-11-19,1,0.0012923540052951613,0.0014302204697738494,-0.006609710417196031,0.002247375861222386,0.992871709221723
2013-11-21,-1,-0.0005438783775076491,-0.0004715344574758613,-0.0055580022739680456,0.002247375861222386,0.9957721318497718
2013-11-25,-1,-0.0006920324507817004,-0.0006015681305449974,-0.004865669638132488,0.0018396738172615857,0.9960832902781873
2013-11-27,-1,-0.0005740166118551996,-0.0005353583482996637,-0.003531851055811012,0.004321298646220228,0.9957295584493523
2013-12-02,-1,-0.0004306692135311324,-0.0004232155255829722,-0.001999788205572052,0.006073855948367981,0.9956514325138067
2013-12-04,-1,-0.00017576742499033997,-0.0001514953016036813,-0.004916120980145896,0.004321298646220228,0.9953200502011624
2013-12-06,-1,-0.00013876901004056008,-0.00010556395587297747,-0.005709356300008271,0.003098192514337826,0.9952593513322352
2013-12-10,-1,-0.00038637625928922937,-0.00036425864210165365,-0.005709356300008271,0.001664332204085441,0.9950515333145618
2013-12-12,-1,-0.0005307464773382684,-0.0004973519377865519,-0.005709356300008271,0.0008881422011118664,0.9950305056809325
2013-12-16,-1,-0.0006373612776636012,-0.0006029521658988018,-0.00379191908719738,0.003113599995118066,0.994882688423587
2013-12-18,-1,-0.0003721987631014278,-0.0003580212074034886,-0.0060260099774942285,0.003113599995118066,0.9938622704659491
2013-12-20,-1,-0.00017904376490702464,-0.00015620963625977814,-0.0060260099774942285,0.00628736017715533,0.9933813361563181
2013-12-24,-1,-7.988727698494553e-05,-3.157586219016561e-05,-0.00801110278196102,0.00628736017715533,0.9920756847747063
2013-12-27,1,0.0003278793117906907,0.00041064187912608893,-0.008846393533315703,0.0009556046746671211,0.9922714011775663
2013-12-31,1,0.0006369174265053502,0.000775946241446804,-0.009846744269937268,0.00039861698416278156,0.9913869026694265
2014-01-03,-1,-0.000224994536116971,-0.00022493370414095753,-0.012528557462480022,0.00039861698416278156,0.9903274709892823
2014-01-07,-1,-0.0006078013803546988,-0.0005613525717993098,-0.012528557462480022,0.0009556046746671211,0.9898489709951097
2014-01-09,-1,-0.0018694485475548987,-0.0016242507654154511,-0.009664744858031992,0.007710857792177212,0.9885922293899538
2014-01-13,-1,-0.002669860828910662,-0.0022979017777931708,-0.012528557462480022,0.008002127752235293,0.9876687671990974
2014-01-15,-1,-0.00238592828450549,-0.002046046613779596,-0.013147315699664019,0.008735482802639609,0.9871459324005439
2014-01-17,-1,-0.0021599511411602946,-0.0018528665087331937,-0.012217847033627348,0.008735482802639609,0.9877225156277369
2014-01-22,-1,-0.002169179657477713,-0.0018274449569417438,-0.012217847033627348,0.008735482802639609,0.9881187970324651
2014-01-24,-1,-0.0033403563853918097,-0.002872865317100769,-0.009965618484177935,0.008735482802639609,0.9889830129607987
2014-01-28,-1,-0.0035293659620662873,-0.0030503552977579874,-0.009965618484177935,0.009749422120387215,0.988706666054799
2014-01-30,-1,-0.004278669295934394,-0.003721285667178285,-0.006355689918403382,0.01127733756924314,0.9881321865866414
2014-02-03,-1,-0.006041827514121005,-0.005283125461814802,-0.00518823157700514,0.014162762377735746,0.9883505608067018
2014-02-05,-1,-0.004514540076537262,-0.003985526002461328,-0.005456136306112307,0.011160627717022009,0.9901835937370538
2014-02-07,-1,-0.00216451437048707,-0.0019484361350055473,-0.005826948646252658,0.008585683693593854,0.9923827364238543
2014-02-11,-1,-0.0018603831665845831,-0.0017293785467477265,-0.005826948646252658,0.004299332229510113,0.9930402995420732
2014-02-13,-1,-0.00165704150743776,-0.0015653818284758953,-0.005456136306112307,0.0039819583609078625,0.9935314985530088
2014-02-18,-1,-0.001966242256027082,-0.0017783104236198252,-0.005456136306112307,0.0031198526646456877,0.993987771078253
2014-02-20,-1,-0.001943765234209229,-0.0017683288351880498,-0.005826948646252658,0.0057438104481459355,0.9933300275337927
2014-02-24,-1,-0.0024292346179629063,-0.0021765213119662313,-0.005826948646252658,0.0073977099209868195,0.9931693177746715
2014-02-26,-1,-0.001842033660785548,-0.0016873158484351414,-0.005826948646252658,0.005433004576164056,0.9936772781149957
2014-02-28,-1,-0.001190825472094794,-0.0010995562018682038,-0.005826948646252658,0.005433004576164056,0.9938931213860626
2014-03-04,-1,-0.0010763717711530806,-0.0009759424207961626,-0.004863931656840787,0.005433004576164056,0.9940472856659405
2014-03-06,-1,-0.0013049233469262433,-0.0011859649885780919,-0.00436444661051239,0.005433004576164056,0.9940585160395204
2014-03-10,-1,-0.0012824177659920303,-0.0011799510616519603,-0.0031397729396507477,0.006602779614219374,0.9939662231417897
2014-03-12,-1,-0.002028015886453337,-0.0018285195450835948,-8.877200867058463e-06,0.0073977099209868195,0.9935947876737263
2014-03-14,-1,-0.0013001010221395403,-0.001208104174607468,-0.0031247030844492873,0.006602779614219374,0.9941534175367859
2014-03-18,-1,-0.000658151255975562,-0.0006528508240050423,-0.0031247030844492873,0.007731687601366801,0.9939126138850272
2014-03-20,-1,-0.0004778774239663718,-0.0004358355615921923,-0.0031247030844492873,0.006602779614219374,0.9937681487325464
2014-03-24,0,-5.9257858720500474e-06,0.00014134273546115896,-0.002321073489102493,0.0052546123595952916,0.9944471445715959
2014-03-26,0,-4.622635492549884e-06,0.0001332110952777947,-0.002205757400424686,0.0052546123595952916,0.9945170678626505
2014-03-28,1,0.00045403136001696777,0.0006675900581004576,-0.0001864304074084574,0.0066875716354027805,0.994715316480002
2014-04-01,1,0.0011413076788578664,0.0014583254602956739,-0.0001864304074084574,0.0052546123595952916,0.9954473818319707
2014-04-03,1,0.0012315999903620796,0.0015602002791573167,-0.00020930753649834086,0.0052546123595952916,0.9953663414619326
2014-04-07,1,0.0015244721365467258,0.0018897619661673772,-0.0010958783180423284,0.0043716851781398025,0.9954953566743993
2014-04-09,1,0.002183961132395712,0.00265913691775149,-0.0010958783180423284,0.00479863499702398,0.9957718044062367
2014-04-11,1,0.0021124045846835204,0.0025986711563461933,-0.0005271387715815983,0.00479863499702398,0.9961638279248157
2014-04-15,1,0.0027449273540363257,0.0033214228800822225,-0.0021396460553244905,0.004351558550952576,0.9960937891173661
2014-04-17,1,0.0012784723187582604,0.001547693567689305,-0.0021396460553244905,0.004351558550952576,0.996794340336011
2014-04-22,1,0.0014026492735187079,0.0016817457898147278,-0.002286300573180626,0.003740579168644895,0.996527220549436
2014-04-24,1,0.0012403865843268634,0.0014799826373494357,-0.00215155784081078,0.004872978905908228,0.9962142744888021
2014-04-28,1,0.0017666318129750903,0.0020655977647153143,-0.00215155784081078,0.003527827923718729,0.9967990309061131
2014-04-30,1,0.002137403041612845,0.0025063647642470164,-0.00215155784081078,0.0048495434378646955,0.9962533716555227
2014-05-02,1,0.002111093604219851,0.002475069367435889,-0.00215155784081078,0.0048495434378646955,0.996357822441301
2014-05-06,1,0.0020768161701201692,0.0024359341119417777,-0.0023627185511042913,0.0048495434378646955,0.9962243613906401
2014-05-08,1,0.0023554233228566136,0.0027397434104933054,-0.0023627185511042913,0.0041686090491727164,0.9961737916231901
2014-05-12,1,0.0021700198462718413,0.002514568787037242,-0.00215155784081078,0.0041686090491727164,0.9962954260323497
2014-05-14,1,0.00217194303883465,0.0025348080775687036,-0.00116215971892588,0.0041686090491727164,0.9964358977320609
2014-05-16,1,0.0021847438203888986,0.002550099057343199,-0.0004612494057589393,0.0041686090491727164,0.9967247306764988
2014-05-20,1,0.0019325891438818233,0.002262062130285046,-0.00019893058387199616,0.004934606680208072,0.9965009843648576
2014-05-22,1,0.002679271760079138,0.003140954732030664,-0.0011441887197041695,0.004934606680208072,0.9959749798598856
2014-05-27,1,0.0030654854588656267,0.0035897824225521414,-0.002317295505804345,0.004934606680208072,0.9946203237545898
2014-05-29,1,0.003287911515807636,0.0038002113047741946,-0.003660170211799354,0.0020377474332349413,0.9930043570926657
2014-06-02,1,0.0028991225373904625,0.00333397441101817,-0.005619271172710492,0.0012776528399786695,0.992011579656566
2014-06-04,1,0.002395208424767377,0.0027271048865066313,-0.005619271172710492,0.003007878573294451,0.992333049109736
2014-06-06,1,0.002256873288792462,0.0025461795442454204,-0.005619271172710492,0.005052811203934134,0.9922194605819028
2014-06-10,1,0.0023501619136937386,0.002664683554351504,-0.005619271172710492,0.005052811203934134,0.992127074086891
2014-06-12,1,0.0023120265271516123,0.0026259905582661364,-0.006720687946122083,0.006144668637929986,0.9915380888425614
2014-06-16,1,0.0027585275944923176,0.0031507559072906626,-0.008773088827252465,0.006085910593682945,0.9905494340818535
2014-06-18,1,0.002410375768955999,0.0026860290806963965,-0.008773088827252465,0.0049152347575750965,0.9911215918277719
2014-06-20,1,0.0025408572791075406,0.0028127026577607858,-0.008773088827252465,0.0049152347575750965,0.9908639847620953
2014-06-24,1,0.001364084452476291,0.0014324665585328754,-0.005619271172710492,0.0049152347575750965,0.9918553600663232
2014-06-26,-1,-0.0009833209721268267,-0.000680624533718241,-0.005514525449681604,0.005556771942222397,0.9932764790495999
2014-06-30,-1,-0.0016475913445136128,-0.001296636753640701,-0.00372538219350471,0.005556771942222397,0.9941266635575483
2014-07-02,-1,-0.0005265963655138337,-0.0003814862058195262,-0.0059400872410414795,0.0047651280077922464,0.992981967141127
2014-07-07,-1,-0.0002876789717676477,-0.00015151501617020083,-0.0059400872410414795,0.002531747940095686,0.9934760397495237
2014-07-09,-1,-0.0004623797068334636,-0.00030128007647072734,-0.00703909116497767,0.003457854239996445,0.9923111215546614
2014-07-11,-1,-0.0006060089085041689,-0.00044030029063963527,-0.00703909116497767,0.003457854239996445,0.9921569399875849
2014-07-15,-1,-0.0011412941806592607,-0.0009030004309194447,-0.005597640916635655,0.003457854239996445,0.992983349301547
2014-07-17,-1,-0.0013776634628477995,-0.001098428875233578,-0.005597640916635655,0.005416426258556787,0.9926418104692232
2014-07-21,-1,-0.0009176790538952174,-0.0006970418874321628,-0.00547140868127222,0.005416426258556787,0.9931487094583641
2014-07-23,-1,-0.0007954438167871524,-0.0006204529367053868,-0.00547140868127222,0.005416426258556787,0.9929355441006876
2014-07-25,-1,-0.0007859447501405113,-0.0006239261628907837,-0.00547140868127222,0.004803003427156034,0.993089305654628
2014-07-29,-1,-0.0010757463001640397,-0.0008660801787409404,-0.00547140868127222,0.005533979914484728,0.9927940437011694
2014-07-31,-1,-0.0023626202489822976,-0.0019918635250072095,-0.002360690433804514,0.005533979914484728,0.993734087869245
2014-08-04,-1,-0.002630168085757388,-0.0022024454570220725,-0.002360690433804514,0.005533979914484728,0.9935773209864106
2014-08-06,-1,-0.001886619281243866,-0.0015604150094270137,-0.002360690433804514,0.004803003427156034,0.9951638130078092
2014-08-08,-1,-0.0016308569706312123,-0.0013449819065352324,-0.002360690433804514,0.00479467376864361,0.9952644834707474
2014-08-12,-1,-0.0015207404989647697,-0.0012474924641564836,-0.002366988501042486,0.004368001419356282,0.995388268518093
2014-08-14,-1,-0.0012574755936111933,-0.0010142912780299,-0.003747688011716604,0.003888519448824925,0.9955715543143777
2014-08-18,-1,-0.0012999486979765468,-0.0010494974381416856,-0.002366988501042486,0.003888519448824925,0.9955050798111931
2014-08-20,-1,-0.0011717369406844948,-0.0009466946549379274,-0.002047877018950503,0.0036998942521129083,0.995783707072867
2014-08-22,-1,-0.0011995588598363333,-0.0009948633549138398,-0.0012954808547044887,0.004573907104094683,0.9953725739084764
2014-08-26,-1,-0.00082624955232397,-0.0006676406809132014,-0.002047877018950503,0.004573907104094683,0.9942564827574817
2014-08-28,-1,-0.0007335136390389373,-0.0005950928870375157,-0.005004538760508902,0.004573907104094683,0.9936807836008772
2014-09-02,-1,-0.00043118579110672765,-0.0003466643598070725,-0.005631540537002305,0.005520426904881965,0.993110233241991
2014-09-04,-1,-0.0008102459033137719,-0.0006672580669730116,-0.005631540537002305,0.006224264691757235,0.9928020784494977
2014-09-08,-1,-0.0009249706678590989,-0.0007905886678246446,-0.002993912761738063,0.006224264691757235,0.9935793576418828
2014-09-10,-1,-0.0011704038647705115,-0.0009831470592184402,-0.005631540537002305,0.007738948716155346,0.9928727365919024
2014-09-12,-1,-0.0011740385401008417,-0.0009928851135196366,-0.005923534308891822,0.007738948716155346,0.9924574930572272
2014-09-16,-1,-0.0008770752809366849,-0.0007291534396797816,-0.005923534308891822,0.006599760093737909,0.9928119580633082
2014-09-18,-1,-0.0005711348909146021,-0.0004874870458404986,-0.005923534308891822,0.008887153347952162,0.991902336353819
2014-09-22,1,6.326883802989424e-05,6.474759499560458e-05,-0.005923534308891822,0.008887153347952162,0.9917291375180243
2014-09-24,-1,-0.0005862257207938993,-0.0005082442972261674,-0.00479381171311482,0.00872584012767888,0.9931068073323519
2014-09-26,-1,-0.0011100321725760138,-0.0009694295198106411,-0.0016087071802550765,0.00872584012767888,0.9932830105100452
2014-09-30,-1,-0.0007709134232154359,-0.00068930081374868,-0.0004989052525931799,0.006656166496593779,0.993965885949749
2014-10-02,-1,-0.0004144014719689932,-0.0003737431955664375,-0.0016087071802550765,0.005261665339289609,0.9941874907112066
2014-10-06,-1,-0.0003410355449423487,-0.0003019681741474042,-0.0016087071802550765,0.006353921915165906,0.9939575621019833
2014-10-08,-1,-0.00011624048196786643,-0.00010417453065777972,-0.0004989052525931799,0.005268542539052851,0.994594613534229
2014-10-10,-1,-0.0005683623073189695,-0.0004929626454802642,-0.0004989052525931799,0.0062577757830147365,0.9936274948030889
2014-10-14,-1,-0.0005302153916063145,-0.00048138815857155467,0.00011449951911165555,0.0062577757830147365,0.9935705199344518
2014-10-16,1,0.0002592085223328606,0.0003230682512573605,-0.00028407806430831133,0.005268542539052851,0.9949002928662545
2014-10-20,1,0.0011645560999570584,0.0013805456633851237,-0.0008805112839340945,0.0050239175793254775,0.9946332282328038
2014-10-22,1,0.0014193072244013559,0.0016688213760961824,-0.0024783892806619317,0.005009201031081132,0.9945175063230405
2014-10-24,1,0.0015056803036294268,0.001758456050830495,-0.003515360911664332,0.005011493431002213,0.9934905623496665
2014-10-28,1,0.0016669767956810008,0.0019495794161398243,-0.0038187351724258993,0.005011493431002213,0.9930686860519996
2014-10-30,1,0.0017075555854902049,0.0019968196735856,-0.003515360911664332,0.00411568227042983,0.993340600691644
2014-11-03,1,0.0019511221858360022,0.0022682436377561895,-0.004035784099970876,0.00411568227042983,0.9928621482024558
2014-11-05,1,0.0023348603626736873,0.0027192409951900696,-0.005136010749000521,0.0035598055582368423,0.9925643781315276
2014-11-07,1,0.0018684151125917567,0.002209072854198794,-0.004249008781677218,0.0034223454412229824,0.9938914901283735
2014-11-11,1,0.0020918231254453885,0.002488327516340401,-0.005136010749000521,0.003100443059006641,0.9932769808455061
2014-11-13,1,0.0017097566592348822,0.00201979394110515,-0.005715161454850969,0.0035598055582368423,0.9926289963111906
2014-11-17,1,0.0010631009860764243,0.0012286657834897363,-0.007082985514824034,0.003100443059006641,0.9923398387300694
2014-11-19,1,0.00040680428944178356,0.00043391237720392847,-0.007082985514824034,0.00393859909311555,0.9913326082462838
2014-11-21,1,0.0005680776172907637,0.0006282949905299315,-0.007082985514824034,0.0035598055582368423,0.9918981108118445
2014-11-25,1,0.0005368824551426644,0.0006210555395102005,-0.007051020532893395,0.0038523243801638204,0.9920864647218253
2014-11-28,1,0.0007522172384632071,0.0008632918962074152,-0.007051020532893395,0.0032257357413958253,0.9921359127193408
2014-12-02,1,0.0007928517331376192,0.0008942374413781577,-0.011204120675328402,0.0024575217806531912,0.9917435866771378
2014-12-04,1,0.000522576778263235,0.0005673276662990753,-0.011204120675328402,0.00048516425374930293,0.9915777443121165
2014-12-08,1,0.0003412702506840264,0.00035973757732583737,-0.011204120675328402,0.004063637930976411,0.9911452560485872
2014-12-10,1,8.524060969497981e-05,9.454293677379972e-05,-0.009196267489076971,0.004654793744664628,0.9910320718205559
2014-12-12,-1,-0.0005934566158542554,-0.0005113647994444716,-0.007750045438615721,0.004404985026413579,0.9920145282029194
2014-12-16,-1,-0.0020765402793428336,-0.0018172577809675056,-0.005757612716113261,0.004404985026413579,0.9931415319201015
2014-12-18,-1,-0.0008042463871544073,-0.0006900400872246189,-0.005757612716113261,0.003980368358226061,0.9942804785662095
2014-12-22,-1,-0.002027419415802665,-0.0017113309002345064,-0.0033092300018503816,0.007291401118903255,0.9937223512122798
2014-12-24,-1,-0.0018960592450260856,-0.0015987545143520496,-0.005757612716113261,0.007291401118903255,0.9925607151924011
2014-12-29,-1,-0.0014611974208001179,-0.0012462900170921156,-0.007750045438615721,0.007291401118903255,0.9914608314459556
2014-12-31,-1,-0.0021453917501103523,-0.001858769276489865,-0.007276605949933256,0.007626791903960461,0.991296506798164
2015-01-05,-1,-0.0025277977202536423,-0.002204656379986794,-0.0037875263117392545,0.008102046626499514,0.990170264865556
2015-01-07,-1,-0.0016615705713082696,-0.0014570237706008028,-0.0037875263117392545,0.007590165374059733,0.9909976324563945
2015-01-09,-1,-0.0011616413494581939,-0.0010174705538831615,-0.008410884921248685,0.007279192275603012,0.991015771390137
2015-01-13,-1,-0.0009340831822084124,-0.0008194359168935397,-0.008410884921248685,0.007590165374059733,0.990247838337007
2015-01-15,-1,-0.0012622738348077628,-0.001093588242555254,-0.010365053951310713,0.008617039801726616,0.9895881346915695
2015-01-20,-1,-0.0006409983511159246,-0.0005656555014753077,-0.010365053951310713,0.007590165374059733,0.9899226416400655
2015-01-22,1,8.9389692264654e-05,0.00010080476169115043,-0.010365053951310713,0.006345507209912563,0.990398155059399
2015-01-26,-1,-0.0007809967054526428,-0.0006953149731339737,-0.006510006322777181,0.0074745193660747285,0.9914660427897939
2015-01-28,-1,-0.0020454878808400714,-0.0018027356351689018,-0.004787207199461662,0.0074745193660747285,0.9924317259073069
2015-01-30,-1,-0.002419485355021626,-0.0021131134339027607,-0.002603677866937011,0.006345507209912563,0.9929835328050908
2015-02-03,-1,-0.001361876243939689,-0.0011841188464436353,-0.004787207199461662,0.0039005514010558903,0.9942731079210874
2015-02-05,-1,-0.001228770672932352,-0.0010634743418800885,-0.005800777280191867,0.0031962426540394274,0.9934900326497178
2015-02-09,-1,-0.001784209262775676,-0.001573151054208066,-0.005800777280191867,0.0038788783908166174,0.9934630008554589
2015-02-11,-1,-0.0009650391410358236,-0.0008487732728941793,-0.006813222215783023,0.0038788783908166174,0.9930400536343189
2015-02-13,-1,-0.0003941393123650548,-0.0003744039010525596,-0.006813222215783023,0.0031946327534547866,0.9933070120414422
2015-02-18,-1,-0.0007572160219147864,-0.0006613379278506085,-0.006813222215783023,0.003567273461555889,0.9931622844540756
2015-02-20,-1,-0.0010719535220336447,-0.0009118444110229351,-0.006813222215783023,0.004113282305597032,0.9930161698359564
2015-02-24,-1,-0.0008057901982126213,-0.0006804012303211807,-0.009449558517373979,0.004113282305597032,0.9917892958582246
2015-02-26,-1,-0.0008947206607534657,-0.0007779269010172892,-0.011458615912086401,0.004113282305597032,0.9914725428415431
2015-03-02,-1,-0.0007105015542259976,-0.0006237091593373623,-0.011458615912086401,0.005037731531267717,0.9912116023475358
2015-03-04,-1,-0.0009188673217678443,-0.0008194130890899759,-0.014017359095287407,0.0053440789182255125,0.990135821337552
2015-03-06,-1,-0.002123205199203021,-0.0018672405707061226,-0.011458615912086401,0.007761637616141773,0.9896109199277343
2015-03-10,-1,-0.002618299495365395,-0.002293031267093448,-0.00750016096069783,0.007761637616141773,0.9901293816357706
2015-03-12,-1,-0.002346860027052986,-0.0020910204168152506,-0.006019679990329135,0.007617916075108594,0.9909569994191876
2015-03-16,-1,-0.0021647880610760543,-0.0019695518478126408,-0.006019679990329135,0.008170686374402911,0.9910202555669422
2015-03-18,-1,-0.0015418538684943673,-0.0014385777629640248,-0.006019679990329135,0.008346109483605788,0.987278230827261
2015-03-20,-1,-0.0006423575936787783,-0.0006356762432965174,-0.006019679990329135,0.008346109483605788,0.9877633252868261
2015-03-24,-1,-0.0012253559212606529,-0.0011573818557410913,-0.006019679990329135,0.008346109483605788,0.9887362443003629
2015-03-26,-1,-0.001536075508522639,-0.0014365186805177673,-0.006019679990329135,0.008346109483605788,0.9889264470372594
2015-03-30,-1,-0.0010396544659382566,-0.0010162759294558722,-0.006460492237913545,0.009383556439086678,0.9885055120579559
2015-04-01,-1,-0.001049099788531199,-0.0010405503043952344,-0.006019679990329135,0.009034436267220943,0.9894258168227649
2015-04-06,-1,-0.0004701825922386636,-0.0004327221097814085,-0.006019679990329135,0.004655073261579013,0.9907387577596909
2015-04-08,-1,-0.0006947503422703404,-0.0006840628404159461,-0.004414162146858757,0.008256407094574784,0.9904449788586662
2015-04-10,-1,-0.00041357192954798324,-0.000366650934064682,-0.004414162146858757,0.009034436267220943,0.9900823706478395
2015-04-14,-1,-0.0003414784524914487,-0.00029179800994749125,-0.004414162146858757,0.004884515522784064,0.9902436207825421
2015-04-16,1,0.0018972222631196175,0.002236749960537381,-0.004414162146858757,0.005802107090173675,0.9926628115191282
2015-04-20,1,0.001948556340383012,0.0022989158325062587,-0.00516478401324152,0.005802107090173675,0.9923328283553697
2015-04-22,1,0.0014611181334599683,0.0017350704295298592,-0.004427359678097705,0.005802107090173675,0.9929012007192989
2015-04-24,1,0.0013000253229228334,0.0015655478407889738,-0.004427359678097705,0.005802107090173675,0.9927745091785037
2015-04-28,1,0.0014553958300081945,0.0017515779552431678,-0.004427359678097705,0.005058995744102089,0.993055485658085
2015-04-30,1,0.0016416339318118395,0.001959678748421151,-0.004882831262784271,0.0024405732302185965,0.9926523014438491
2015-05-04,1,0.0015379730971564539,0.0018373162352576951,-0.004882831262784271,0.0024405732302185965,0.992783323524627
2015-05-06,1,0.0015782148350581844,0.0018617796054690016,-0.006275647149154894,0.0015007590946615969,0.992775604664565
2015-05-08,1,0.0018318018221190704,0.00212792188248858,-0.006581635641843135,0.0007173675476229933,0.9916762518861277
2015-05-12,1,0.0009402060774749927,0.0010586390161067384,-0.006275647149154894,0.004977481320963856,0.9916712282029059
2015-05-14,1,0.002201032174682368,0.002536586830723342,-0.006275647149154894,0.0007173675476229933,0.9920573215118821
2015-05-18,1,0.0017265975495300472,0.001977409296817959,-0.006581635641843135,0.002495006120551529,0.9922750064391567
2015-05-20,1,0.0015385047853301804,0.0017667058873677838,-0.006581635641843135,0.005727745224488894,0.99212912037115
2015-05-22,1,0.0011369119704104547,0.0013120343788023013,-0.005658199777051565,0.005757470597523221,0.9925660777242153
2015-05-27,1,0.0008332623216158004,0.00093408623417112,-0.0068596901940039074,0.00565613925902877,0.9916714559263078
2015-05-29,1,0.0002746414385880325,0.0002803361559316733,-0.006482061569173607,0.0057803170112579235,0.9922032765983487
2015-06-02,1,0.00042619831148346784,0.00047607463016709553,-0.0068596901940039074,0.0057803170112579235,0.9916473121923612
2015-06-04,1,0.0002474496174700371,0.0002925424292981433,-0.005750884627771822,0.006239656296005511,0.9915839273101764
2015-06-08,-1,-0.0001868241037345736,-0.00018286518184386987,-0.004909843970003156,0.006947188212504936,0.9923030363642735
2015-06-10,1,0.0004479928233215426,0.0005226728814407756,-0.005750884627771822,0.0057803170112579235,0.9929166023866495
2015-06-12,1,0.0004444294975092614,0.0005328635033803942,-0.005750884627771822,0.006239656296005511,0.9925885653606972
2015-06-16,1,0.0006977380725618133,0.0008485530403204369,-0.004387839130946815,0.0057803170112579235,0.9930908383905289
2015-06-18,1,0.0007626176508674072,0.000884758273393812,-0.004387839130946815,0.00613059331162834,0.9920411356786415
2015-06-22,1,0.00035567064404152436,0.00037821831864262,-0.0029338222454788365,0.00613059331162834,0.9923288745144478
2015-06-24,-1,-0.0004905374351103556,-0.00040555551862223017,-0.001189025967251189,0.00613059331162834,0.9935431548320195
2015-06-26,1,8.396608680234765e-05,0.00010098890952847757,-0.0018401121184383118,0.0073474417401413195,0.992975703088239
2015-06-30,-1,-0.00022458022244990262,-0.0002094244004043339,-0.0016373955683781027,0.0073474417401413195,0.9936150294040655
2015-07-02,-1,-0.00022391807422646862,-0.00018069962076420096,-0.001227345546299558,0.004314111022647978,0.9942905025680117
2015-07-07,1,0.0004547349496419062,0.000525469482768844,-0.001227345546299558,0.002918642383034879,0.9949133673940433
2015-07-09,1,0.00017076309113521278,0.0002112248276239343,-0.0008763290948345388,0.002918642383034879,0.9955296995035412
2015-07-13,1,0.000522823871784902,0.0006120425004385803,-0.0011676399433200695,0.002398851025733258,0.9953888999347109
2015-07-15,1,0.0006007748708345942,0.000700595766608461,-0.0015732374965847433,0.00198567171915785,0.9952515481783475
2015-07-17,1,0.0015429309709906044,0.0017745645425273106,-0.0030869708500483105,0.0015498760047010234,0.9958370135553637
2015-07-21,1,0.001332702114261152,0.0015233501881307895,-0.0036557156002168215,0.0015498760047010234,0.9959769131296531
2015-07-23,1,0.0013011623758322631,0.0014891675232738674,-0.004674866236697959,0.0015498760047010234,0.9954966199743954
2015-07-27,1,0.0013041793464267123,0.0014780865949783873,-0.005496741327724507,0.000993814954220064,0.9934498853182453
2015-07-29,1,0.0007723834316346145,0.000837874122611674,-0.007829798292207816,0.0015498760047010234,0.9917251853914387
2015-07-31,1,0.0006215238517792699,0.0006510001043463707,-0.007829798292207816,0.0016361359223082729,0.9909896606583349
2015-08-04,1,0.0005581544509873164,0.0005673016091404801,-0.008771918441779356,0.0005308059197268403,0.9894857789610783
2015-08-06,1,0.00028497407094442044,0.0003219928771287497,-0.008771918441779356,0.003783445481258094,0.9887028293499386
2015-08-10,1,0.00034278584399828567,0.00036083824960150113,-0.011614048040897,0.0038742005524894686,0.9866232738012845
2015-08-12,1,0.00038009193791355513,0.0003844178015233905,-0.013765219724533609,0.008131853126273495,0.9856501324569358
2015-08-14,-1,-0.0004164341233199217,-0.00028846360996964075,-0.013765219724533609,0.008131853126273495,0.986233652926765
2015-08-18,-1,-0.000789133813444162,-0.0005969933410726224,-0.013765219724533609,0.012099993891151227,0.9847825869770158
2015-08-20,-1,-0.0010491414831260812,-0.0008315733067216038,-0.013765219724533609,0.012099993891151227,0.9847768530397714
2015-08-24,-1,-0.0025721344437958007,-0.002167902162441244,-0.010889839819404015,0.012099993891151227,0.9860242063088296
2015-08-26,-1,-0.0017359429182198928,-0.0014614301096986153,-0.007753144551358645,0.01126782739246702,0.9879937739105421
2015-08-28,-1,-0.0017414071464886744,-0.0014524829870749337,-0.011968050239493258,0.009917653735913436,0.987752754624841
2015-09-01,-1,-0.002329048195503754,-0.001982293352770236,-0.0057764764277191665,0.009917653735913436,0.9884273009033929
2015-09-03,-1,-0.0018016747855424734,-0.0015199538170506523,-0.0057764764277191665,0.007942935938184292,0.9892045670066162
2015-09-08,-1,-0.0006486866658274456,-0.000599024690578236,-0.0036186148019954154,0.007942935938184292,0.991002976724589
2015-09-10,-1,-0.0008821690171234766,-0.0008074938389940756,-0.002874766293533188,0.011930851975752901,0.9905908683439707
2015-09-14,-1,-0.0009188524085685944,-0.000821832806145291,-0.002874766293533188,0.011930851975752901,0.9906502254806302
2015-09-16,-1,-0.00015021725408571039,-0.0001290878614095705,-0.0030701596102281938,0.007457054290369565,0.9923268816200839
2015-09-18,-1,-0.00040867043798503515,-0.000359511651606963,-0.0027575949798539423,0.011930851975752901,0.9908752675180273
2015-09-22,-1,-0.0004362526233942988,-0.00039331862694392736,-0.0013861447529218494,0.010200720998516011,0.9916481598940234
2015-09-24,-1,-0.0005814283978701169,-0.0005182491588638572,0.000384285222266194,0.010200720998516011,0.9912826471177003
2015-09-28,-1,-0.0009465157855775592,-0.0008520977420863106,0.0008172077655671712,0.010200720998516011,0.9920927014690476
2015-09-30,-1,-0.0004915747110621417,-0.0004722604269529363,0.0008172077655671712,0.009088287969768582,0.9921116215413932
2015-10-02,-1,-0.00042506021842591413,-0.00039815441763377165,-0.0011045259522996379,0.009088287969768582,0.9920723725648302
2015-10-06,1,0.0004769101710425553,0.0006108158411815215,-0.0011045259522996379,0.007086243280787088,0.9932235536968361
2015-10-08,1,0.0011374250205433162,0.0013468145649594599,-0.0019127385779873075,0.0064369680434842175,0.9946816809898248
2015-10-12,1,0.0012160679546483492,0.0014268202839952462,-0.0036153041016654475,0.005079955629781311,0.9932907298836569
2015-10-14,1,0.0009706367105498856,0.001127456113515774,-0.00387438038140532,0.005079955629781311,0.9933068066897047
2015-10-16,1,0.0018601849360235204,0.0021348773767745815,-0.007943048562818508,0.0030461771178016315,0.9937144083795229
2015-10-20,1,0.0018928466262310923,0.0021507409286505097,-0.007943048562818508,0.0015271745852662596,0.9931526703777096
2015-10-22,1,0.002082545583986743,0.0023613584828942385,-0.007943048562818508,0.001954017578655244,0.9921149712992086
2015-10-26,1,0.0018769670897376529,0.0021063462569397206,-0.007943048562818508,0.005110993426918751,0.9918417566589194
2015-10-28,1,0.0014192990481564926,0.0015568954725976509,-0.006379480420091696,0.0038446036318594634,0.9926268151126776
2015-10-30,1,0.0013795564858649551,0.0015468291368233456,-0.005480723375686537,0.0038446036318594634,0.9931906215543072
2015-11-03,1,0.0012434580213198307,0.0013833773184403798,-0.005612690887881029,0.0038007991647186147,0.9932065007730189
2015-11-05,1,0.0011386048664265994,0.00126165773308536,-0.005612690887881029,0.005091444156325282,0.992132101702604
2015-11-09,1,0.0005564502717299793,0.000622428154312363,-0.003918369552136817,0.005091444156325282,0.9932453922428034
2015-11-11,1,0.0004883920609828265,0.0005447438249761695,-0.005612690887881029,0.005091444156325282,0.9928301016152032
2015-11-13,-1,-0.00043655033370310135,-0.0003422428661761793,-0.0038380140478517255,0.0076327779913536245,0.9924812793217355
2015-11-17,-1,-0.00022895877974984884,-0.0001657932772851009,-0.0030845455405683476,0.008250869192359426,0.9916684419447472
2015-11-19,1,0.0002608659015499361,0.00028962972545451375,-0.006213325696116182,0.005091444156325282,0.9913194657339589
2015-11-23,1,0.0005110573530778882,0.0005271976797312885,-0.006213325696116182,0.005297474556660549,0.9910383701113985
2015-11-25,1,0.0008411857355109445,0.0009226887875348586,-0.006213325696116182,0.008284064324018157,0.9903603805375305
2015-11-30,1,0.0006550739694695517,0.0006865827221110414,-0.006213325696116182,0.008951650540664659,0.9899593919385532
2015-12-02,1,0.0007682392797118242,0.0008341715422087871,-0.008872821355647924,0.008951650540664659,0.9895598302522944
2015-12-04,1,0.0014764490671434747,0.0016391193515236928,-0.010196547008326671,0.008951650540664659,0.9896870650583985
2015-12-08,1,0.0016688585878495226,0.0019149769413334744,-0.008924484710969335,0.008951650540664659,0.9898196683279338
2015-12-10,1,0.0012792624002171118,0.0014672958484696725,-0.007710239002857456,0.009798466855535258,0.9889379436706209
2015-12-14,1,0.001111286648030402,0.001274849756076783,-0.007311149243655293,0.009018838778789041,0.9896304764827865
2015-12-16,1,0.0019765430273172863,0.002255059571078333,-0.009154267796684424,0.0020022004413717286,0.9895212867644133
2015-12-18,1,0.0009609649156593568,0.0011019329335076203,-0.007311149243655293,0.009018838778789041,0.9903047356432537
2015-12-22,1,0.0011762642373862452,0.001346451106717698,-0.007311149243655293,0.009018838778789041,0.990339420238196
2015-12-24,1,0.0015285875633779585,0.00174932524061654,-0.007311149243655293,0.007624004293283163,0.9906651207922502
2015-12-29,1,0.0016439135189791954,0.001877526378749798,-0.007311149243655293,0.00920026102305431,0.9904011148331773
2015-12-31,1,0.0012280723530100099,0.0014075985694612524,-0.006706883251363236,0.01016677812297151,0.9905882090331192
2016-01-05,1,0.0011669622242062101,0.0013334184055717917,-0.006308318905173581,0.009367007576117414,0.9913195195093466
2016-01-07,1,0.0007046667247590473,0.000783853233198446,-0.006308318905173581,0.009367007576117414,0.9911710362850887
2016-01-11,1,0.0011777975757684645,0.0013138505266686714,-0.005318387968366085,0.007684478374704919,0.9927164775729462
2016-01-13,1,0.0007514537780764318,0.0008114685906397395,-0.006920587799704361,0.007684478374704919,0.9922289953344274
2016-01-15,-1,-0.0009112059802417238,-0.0006868690599557938,-0.0033068804309288827,0.009367007576117414,0.9922589712882143
2016-01-20,-1,-0.0008263070693459487,-0.0006353985789576494,-0.0010708887537344463,0.009367007576117414,0.9929372094123923
2016-01-22,-1,-0.00043634551816200157,-0.00029778756721253474,-0.001050143973968063,0.008346174535106686,0.9931753472499716
2016-01-26,-1,-0.0009689135223251856,-0.0007153203305947654,-0.005573639047750334,0.008346174535106686,0.9929933753181498
2016-01-28,0,-9.989028609245479e-05,2.7150552593930286e-05,-0.006473679405774647,0.0069320694416896604,0.9931213202613359
2016-02-01,0,-2.907252229887461e-05,9.800696934217552e-05,-0.005573639047750334,0.005833423725729635,0.9934874397586818
2016-02-03,-1,-0.00024042826018097333,-7.18635589362035e-05,-0.005573639047750334,0.0069320694416896604,0.9928002508221134
2016-02-05,-1,-0.0003426215637116274,-0.00016657703536868688,-0.005532240414053648,0.00881885204052647,0.9924447160466916
2016-02-09,1,0.0003751402672334518,0.0004146248356622751,-0.005532240414053648,0.011093822411507206,0.9917126910373044
2016-02-11,-1,-0.000538353541185744,-0.00037081845012911635,-0.003858808469118051,0.011093822411507206,0.9918071271926523
2016-02-16,0,-8.428829294498561e-05,4.5829825692420305e-05,-0.003858808469118051,0.009189749391161888,0.9929308133780248
2016-02-18,1,0.00026327085450919053,0.00036420932557249284,-0.003858808469118051,0.009189749391161888,0.9925628900316411
2016-02-22,1,6.637644949409986e-05,0.0002339066909695917,-0.004768236399067349,0.009189749391161888,0.9924624395155555
2016-02-24,-1,-0.00041530747936942747,-0.00019789215788528728,-0.003858808469118051,0.009189749391161888,0.991858308639605
2016-02-26,-1,-0.00041880080078150457,-0.0002099214902101566,-0.0012921540835385732,0.00791607479614842,0.9924788199672906
2016-03-01,0,-0.00011945505543741754,2.687164742448217e-05,-0.0008185019742485936,0.009038324096260444,0.9924713546025145
2016-03-03,1,0.0010368018855553213,0.0010824632088149056,-0.00219323705664761,0.009038324096260444,0.9924698314539842
2016-03-07,1,0.001265712110414009,0.001347130021874264,-0.0011771945143871853,0.00791607479614842,0.9931435181007305
2016-03-09,1,0.0018193542299848966,0.001965153058511259,-0.00219323705664761,0.00791607479614842,0.9934751028075018
2016-03-11,1,0.0025382054825623616,0.0028486267562145206,-0.0026526829545150095,0.0065047563337336444,0.9938276977300364
2016-03-15,1,0.0026251746149023973,0.0029642035937141333,-0.00554691578667276,0.008023947135910437,0.9928780733074164
2016-03-17,1,0.003512644911784167,0.003983460528240987,-0.0057188695972532665,0.005392015108266913,0.9933390790823656
2016-03-21,1,0.0033148664420975275,0.003758896862571806,-0.0057188695972532665,0.005392015108266913,0.9930754025756973
2016-03-23,1,0.002687421710611515,0.003038610597642051,-0.005843050903601646,0.005392015108266913,0.9924880818668339
2016-03-28,1,0.0026567104503715322,0.0029783744940007533,-0.005843050903601646,0.0061599350082269695,0.9923075023745733
2016-03-30,1,0.002839592265720158,0.0031793761219243346,-0.005843050903601646,0.005418058257330133,0.992467456687056
2016-04-01,1,0.003041922375059661,0.0033997193324080952,-0.0057188695972532665,0.005418058257330133,0.9931989792304777
2016-04-05,1,0.002485426390850801,0.002698079571015731,-0.0057188695972532665,0.004967357472855288,0.9933250870841357
2016-04-07,1,0.0023906197078741643,0.002578464775676283,-0.005509294912847315,0.0045868375884276415,0.9939749716454453
2016-04-11,1,0.0017941620114148532,0.0018566296837483507,-0.0036504023004898523,0.004967357472855288,0.9937931357716765
2016-04-13,1,0.0017082754689378163,0.0017620161416843994,-0.001405815565009063,0.004967357472855288,0.9942788790075056
2016-04-15,1,0.0019369857589288065,0.002073523589132888,-0.001405815565009063,0.004967357472855288,0.9939677498968148
2016-04-19,1,0.001590480708546321,0.001682844216455202,-0.001405815565009063,0.005462698926193067,0.9935252159156777
2016-04-21,1,0.000631001029918099,0.0006544279295347406,-0.001405815565009063,0.005462698926193067,0.9941636486850082
2016-04-25,1,0.0009540081427656657,0.000971355644363028,-0.0030434280945173275,0.0041581266411152605,0.9943745349605674
2016-04-27,1,0.0007271910875540038,0.0007441452035147669,-0.0014757901666825279,0.0047876841818359165,0.9942784295983957
2016-04-29,1,0.001385677141975687,0.0015033042510810431,-0.0014757901666825279,0.0041581266411152605,0.9946548330070473
2016-05-03,1,0.001236404059540379,0.0013097323986207617,-0.0037003486656835027,0.004461558889651617,0.9942467974302681
2016-05-05,1,0.0011237976469274085,0.001155341278566702,-0.0037003486656835027,0.006097566609843122,0.9934350462351882
2016-05-09,1,0.00127932916416085,0.001311388724854784,-0.005271646861006148,0.00422408198549412,0.9935088216404611
2016-05-11,1,0.0021594809444766164,0.0023701937539203776,-0.005271646861006148,0.00422408198549412,0.9936292011634573
2016-05-13,1,0.001069588835747727,0.0010726132157473313,-0.005271646861006148,0.003260464184801563,0.9937980923801362
2016-05-17,1,0.0007161810487671817,0.0007510512331223732,-0.005271646861006148,0.002205525074250856,0.9946322470764236
2016-05-19,1,0.0003583383725816138,0.0004169351872088462,-0.0036190170030968158,0.005187666273084093,0.994971506360949
2016-05-23,1,0.0003306588801533099,0.0003864035447968757,-0.004797343976360785,0.0057213185019187795,0.9945054301925031
2016-05-25,1,0.00014148468593918652,0.00024672589937784866,-0.004797343976360785,0.006167579333264506,0.9943874261929814
2016-05-27,1,3.70271620993793e-05,0.00015045656711574866,-0.005471369906791578,0.006167579333264506,0.992210492334576
2016-06-01,0,-0.00015257749711539663,3.2124816112225237e-07,-0.005227374919031518,0.005211003847557887,0.9926012126885376
2016-06-03,1,0.0006937512895792653,0.0007182280828890354,-0.005227374919031518,0.005211003847557887,0.991911709864184
2016-06-07,1,0.00016713634974494825,0.0002723347962201967,-0.004423220804499962,0.006378641046566052,0.991819918589614
2016-06-09,0,-2.658968828060746e-06,0.00016690069420030877,-0.004953582671233896,0.006378641046566052,0.9915401729805879
2016-06-13,-1,-0.0006635379593129537,-0.0004036213055309629,-0.00440497353059187,0.006378641046566052,0.9916243662789316
2016-06-15,-1,-0.0009139001967712058,-0.0006362722259260957,-0.0014446039670769524,0.006378641046566052,0.9916979678832668
2016-06-17,-1,-0.0005981862255211363,-0.0003620815560986477,-0.00440497353059187,0.0057962561396944,0.9919080471883273
2016-06-21,-1,-0.0002930165353181391,-0.00012793282774987915,-0.00440497353059187,0.004451651022130569,0.9911239317275131
2016-06-23,0,-1.3330915879874203e-05,0.00011525419389105926,-0.00440497353059187,0.004234345002210742,0.9913439808303234
2016-06-27,-1,-0.0011980494998959225,-0.0009317852229720379,-0.00440497353059187,0.0036528926681063654,0.9931891678720653
2016-06-29,-1,-0.0012645054009727565,-0.0009777866043599109,-0.004898840849509623,0.004234345002210742,0.9918096291638371
2016-07-01,-1,-0.00038628105336118085,-0.00020543711588105068,-0.004898840849509623,0.004234345002210742,0.9928655854651504
2016-07-06,-1,-0.0005510939533057174,-0.0003159006244757475,-0.005769543887067381,0.0035342283254523217,0.9929557845137699
2016-07-08,0,-5.9610027994071396e-05,9.026419539928969e-05,-0.0050020909929637146,0.0029358494944705165,0.9936403096933892
2016-07-12,1,7.620097267915934e-05,0.00018628380458146708,-0.004400627573942834,0.0005988411586295747,0.9936623775409114
2016-07-14,1,0.00023612814425497922,0.00031587686955904834,-0.004400627573942834,0.0008289263077078592,0.9932256722505053
2016-07-18,-1,-0.0001850489380483791,-3.3939359402375456e-05,-0.0038656509381420805,0.00012683982939570404,0.9936898406491294
2016-07-20,-1,-0.0013646664774656773,-0.001073961162229263,-0.0033047085874673195,0.005124655083392821,0.9947088311406611
2016-07-22,-1,-0.0013913095798224438,-0.0010949483142494785,-0.0038656509381420805,0.0030183956484563556,0.9948081594182737
2016-07-26,-1,-0.001381064511458049,-0.0011150592027839245,-0.0033047085874673195,0.003978839964072214,0.9947488831951357
2016-07-28,-1,-0.0012450226317827,-0.0010039061373010231,-0.0029536632845252905,0.00210019908782248,0.9963216725170018
2016-08-01,-1,-0.0005189071659295328,-0.00039606103229468365,-0.0033047085874673195,0.00210019908782248,0.9959251780187605
2016-08-03,-1,-0.0008273926637147399,-0.0006754846587570019,-0.0029536632845252905,0.00210019908782248,0.9963224272611012
2016-08-05,-1,-0.0009089286340077675,-0.0007453460532516846,-0.0029536632845252905,0.007134935598962015,0.9953617828067397
2016-08-09,-1,-0.0005951700180017769,-0.0005081783862064591,-0.0028934274966646205,0.007134935598962015,0.9951413853744366
2016-08-11,-1,-0.0005172822392821063,-0.0004340473482679475,-0.003157030031657891,0.006074283526282783,0.9935270815507177
2016-08-15,-1,-0.000931620771402809,-0.0007746913449661562,-0.0031937000496282167,0.007239565444112229,0.9913894677900497
2016-08-17,-1,-0.00023255717412986855,-0.0001695965394674322,-0.0033716450139691136,0.006074283526282783,0.9915222825603404
2016-08-19,-1,-0.00020575430206780813,-0.00015884473358978153,-0.004203087514863231,0.006074283526282783,0.9912964325970348
2016-08-23,1,0.00012120811977991444,0.00012994632095580878,-0.004203087514863231,0.008035912936352363,0.9905364102433358
2016-08-25,1,4.1449347386549596e-05,4.8348211068137854e-05,-0.004203087514863231,0.0108304415629724,0.9902119223152689
2016-08-29,1,0.00021707226566587855,0.0002529985572138198,-0.00423571104462366,0.00783636733565278,0.9898974276547646
2016-08-31,1,8.865075493550793e-05,0.00010341899627257044,-0.00793745990914955,0.00783636733565278,0.9892286860956256
2016-09-02,1,0.0005961797412114157,0.0006781770497454355,-0.00793745990914955,0.00440927887640509,0.9897169584794875
2016-09-07,1,0.0006288737781000109,0.0007106379580195514,-0.010229526863802962,0.0025295096859599105,0.9891825309723095
2016-09-09,-1,-0.0008814026623172944,-0.0007643965688481488,-0.006576049183664934,0.003953223583187037,0.9912969249081771
2016-09-13,-1,-0.0009716705354256651,-0.000799107098073875,-0.006191450866471916,0.0027831678514365133,0.9932290364830696
2016-09-15,-1,-0.0005114798954743088,-0.0004095749666631589,-0.006191450866471916,0.0027831678514365133,0.9935566465022735
2016-09-19,-1,-0.0008844957546419207,-0.0007342483979883233,-0.004709600766765498,0.0027831678514365133,0.9936797850883862
2016-09-21,-1,-0.00014916361805560635,-9.83793148290614e-05,-0.00579698027758402,0.0021417111843951902,0.9937516116780752
2016-09-23,1,0.0001624209849036146,0.0001718177234456524,-0.00579698027758402,0.0021417111843951902,0.9937254896181157
2016-09-27,-1,-0.0004011144520031842,-0.00033537111442441775,-0.004709600766765498,0.0027898280784928774,0.9945892604203022
2016-09-29,-1,-0.0006534566342391931,-0.0005764936394211065,-0.004649737816013516,0.0027898280784928774,0.9951014382102379
2016-10-03,-1,-0.000472190850848035,-0.00043799596589130004,-0.004296428077480116,0.004363278605585044,0.9950632603055495
2016-10-05,-1,-0.0011368769161913541,-0.001013558357518951,-0.003761198666035211,0.004363278605585044,0.9957208608400984
2016-10-07,-1,-0.0011621706878322243,-0.0010222780041654284,-0.003952517728757618,0.003179902419721792,0.99553891267902
2016-10-11,-1,-0.0015333256950834243,-0.0013296387965979028,-0.003761198666035211,0.005641959646514566,0.9946997880317592
2016-10-13,-1,-0.0013736285145921363,-0.0011868406343932538,-0.004575737427166294,0.005467409898169447,0.9915282471555862
2016-10-17,-1,-0.001428808249779312,-0.0012479825566422986,-0.006427417681331874,0.005467409898169447,0.9901488738263453
2016-10-19,-1,-0.001242150508016216,-0.0010856217981789658,-0.006038241000563807,0.0049613291355293685,0.9905088105734445
2016-10-21,-1,-0.001070187530384049,-0.0009378847248758779,-0.006038241000563807,0.0049613291355293685,0.9902336145068786
2016-10-25,-1,-0.0006258616972977683,-0.0005724648595779189,-0.006038241000563807,0.0049613291355293685,0.9901067186707851
2016-10-27,-1,-0.0009692267817547612,-0.0008670705298722685,-0.008850809834033647,0.0049613291355293685,0.9895907088230622
2016-10-31,-1,-0.0004583196269547274,-0.00043705747376591704,-0.008850809834033647,0.0049613291355293685,0.9892636813127457
2016-11-02,-1,-0.0007786194066953063,-0.000703666244550829,-0.013531781472334328,0.0049613291355293685,0.9879399428242038
2016-11-04,-1,-0.0011007658680158036,-0.0009751642771491347,-0.013531781472334328,0.0049613291355293685,0.988059352219039
2016-11-08,-1,-8.449677346477642e-05,-7.278912977494192e-05,-0.013531781472334328,0.004703501186816336,0.9881379226540593
2016-11-10,-1,-0.002457691158729708,-0.0021951741886343844,-0.0054500883350022495,0.005087262424219906,0.9908032478868194
2016-11-14,-1,-0.0033687946027589812,-0.003021023036616468,-0.0023921654120865376,0.0071977132075462,0.9906967259709555
2016-11-16,-1,-0.003930220366649573,-0.0034628810626799265,-0.0054500883350022495,0.0071977132075462,0.9904159006945615
2016-11-18,-1,-0.0032839727144393766,-0.002902393774997068,-0.0054500883350022495,0.0071977132075462,0.9903918032166863
2016-11-22,-1,-0.0021889726862300333,-0.0019833002335660375,-0.006410239671005092,0.007421325801842972,0.9905778057169572
2016-11-25,-1,-0.0020967610968337285,-0.001923321642689039,-0.0054500883350022495,0.007421325801842972,0.9910560256025296
2016-11-29,-1,-0.0013255825024837383,-0.0012583444451401272,-0.0054500883350022495,0.0065018629390669,0.9918495051096397
2016-12-01,-1,-0.0022863589194411574,-0.002108779720219831,-0.0037072454153236553,0.0072158707096189835,0.9925863075587342
2016-12-05,-1,-0.002063563626470183,-0.0019218066410133228,-0.00453793789662037,0.0072158707096189835,0.992577380897865
2016-12-07,-1,-0.0010930793421233148,-0.0010645328380812352,-0.00453793789662037,0.0078063521984926875,0.993013104096742
2016-12-09,-1,-0.0015594935051324629,-0.00142972861604885,-0.00640558639642248,0.006991871123498694,0.993193257540546
2016-12-13,-1,-0.000725279573181271,-0.0006991226104345605,-0.00640558639642248,0.004145527188393597,0.9941027769167318
2016-12-15,-1,-0.0016383870771176925,-0.0014934442643694537,-0.0031988910156323137,0.006991871123498694,0.9940078492262284
2016-12-19,-1,-0.0009022109545094115,-0.0008480614942368197,-0.0031988910156323137,0.006991871123498694,0.9941270364760979
2016-12-21,-1,-0.0006443450728530439,-0.0006415927823449654,-0.0027578353848296735,0.0077016368688627955,0.9943013488894267
2016-12-23,-1,-0.0006862739124647,-0.0006625521537989994,-0.0027578353848296735,0.0078063521984926875,0.9936088452544592
2016-12-28,-1,-0.0008747201068382097,-0.0008299877284250076,-0.0015656150100886626,0.0078063521984926875,0.9938133685355884
2016-12-30,-1,-0.0006940711129367334,-0.0006637048075245732,-0.0016219516935209854,0.0077016368688627955,0.994144226610428
2017-01-04,-1,-0.0009228069520019316,-0.000876052969612269,-0.0009666244339813288,0.0078063521984926875,0.9929918393805335
2017-01-06,-1,-0.0003447511437710189,-0.00032505441950864085,-0.0013796234274573852,0.008444872342811948,0.992330929246816
2017-01-10,-1,-0.00043294855878825195,-0.0003900143317943152,-0.0005322692685663458,0.011131675800348267,0.9916656114287249
2017-01-12,-1,-0.00040583179609203447,-0.00036223142920820356,-0.0006151751361893559,0.011131675800348267,0.9916257960746329
2017-01-17,1,0.0003834262065019313,0.0005432814325329095,-0.000651904466476294,0.010070710862204013,0.9929470646272396
2017-01-19,1,0.0008489199919484962,0.0010625641383399474,-0.000651904466476294,0.008213776033646494,0.9936834627156952
2017-01-23,1,0.0012559271953059656,0.0015326883320757813,-0.000651904466476294,0.008971532024493448,0.9934910403060997
2017-01-25,1,0.0017688544181589183,0.002109019236711713,-0.000651904466476294,0.008971532024493448,0.9932009311638006
2017-01-27,1,0.0020857119046879882,0.0025037379904449715,-0.0005557435407046305,0.010196094259348873,0.9926627088979794
2017-01-31,1,0.0021347991520461107,0.002567729032865523,0.00036544629916972996,0.010196094259348873,0.9925351060331266
2017-02-02,1,0.0022918469546029958,0.0026619969042642687,0.00036544629916972996,0.00928311926511804,0.993734267733425
2017-02-06,1,0.002937998783853528,0.00342235844698459,0.00036544629916972996,0.008786033595186609,0.9950238259913176
2017-02-08,1,0.0038478496557102708,0.004466642641423159,-0.0005557435407046305,0.0075936961112264,0.9954367796160607
2017-02-10,1,0.0036737461633704993,0.0042506986235572395,0.00036544629916972996,0.0075936961112264,0.9957317927238022
2017-02-14,1,0.0038873708782282334,0.004525071519799646,0.00036544629916972996,0.008137639905988234,0.9953513528582988
2017-02-16,1,0.004180275613216922,0.004873968293779483,0.0016965146470352664,0.008137639905988234,0.9954547156205554
2017-02-21,1,0.004306577930081693,0.0049751416791195425,-0.0007781403467628838,0.008201615111086883,0.9950620654241455
2017-02-23,1,0.0045573610006085005,0.005226038128738706,-0.0026415209471382854,0.0075936961112264,0.9952635705568675
2017-02-27,1,0.0050395759523036415,0.005760797749574689,-0.003937293600592074,0.005453233849405424,0.9947725133956921
2017-03-01,1,0.005049206625020704,0.00573185429347884,-0.003937293600592074,0.005147338929741559,0.9947476627452899
2017-03-03,1,0.004963869903369599,0.005636522068102293,-0.00432697743966334,0.005147338929741559,0.9945935263380729
2017-03-07,1,0.004840804472617704,0.0054816455465937185,-0.002768270505870591,0.0048628525611812195,0.9949467913645684
2017-03-09,1,0.004742783309446878,0.005378920357571116,-0.002798168163928694,0.004452338269529689,0.9947686186447551
2017-03-13,1,0.004710420629942183,0.005322552461557576,-0.004378416910024712,0.004906312960450399,0.994328769151302
2017-03-15,1,0.005146477939546871,0.005819897822319304,-0.004378416910024712,0.003998656264082626,0.9945938093802297
2017-03-17,1,0.00518498047199328,0.0058637470122208605,-0.00463115787347596,0.004906312960450399,0.993859458769005
2017-03-21,1,0.005227867421796845,0.0059112444924782365,-0.004956350657471917,0.004267798830672225,0.9935378293128501
2017-03-23,1,0.00447947312164362,0.005042663332299553,-0.0053410440317235445,0.004267798830672225,0.9925012858987353
2017-03-27,1,0.004269820947174732,0.004812296940564847,-0.004956350657471917,0.004916666744805136,0.99231717129581
2017-03-29,1,0.004341118407324242,0.004879217208901011,-0.005678165415388704,0.004267798830672225,0.9906078041008569
2017-03-31,1,0.003996386632537707,0.004471114698841856,-0.0055576596275072445,0.0050615945223622645,0.9910175559012215
2017-04-04,1,0.0044894896584573955,0.005069686569726076,-0.0055576596275072445,0.00454688278161699,0.9906098796705672
2017-04-06,1,0.0027540958794910844,0.002952265185721727,-0.005213134849216104,0.00598120603338521,0.9914462285783217
2017-04-10,1,0.0020228697600009806,0.0020521619206491223,-0.00624326314110636,0.005475229186930477,0.9915658790649924
2017-04-12,1,0.0020995746093072603,0.002140023559076008,-0.006905251327704206,0.005475229186930477,0.9910374285983402
2017-04-17,1,0.00233176870310418,0.0024199505836209985,-0.006820502266070761,0.005455180405784727,0.9917961537273456
2017-04-19,1,0.0020425702749233355,0.002102236931672694,-0.004008749267478195,0.005838700031759308,0.9921298225624973
2017-04-21,1,0.00039186856540586776,0.0005515608755619081,-0.0017749479206772205,0.00598120603338521,0.9932735338432308
2017-04-25,1,0.0015403715342577587,0.0015499593179376376,-0.0017749479206772205,0.005838700031759308,0.9943098337495039
2017-04-27,0,-0.000246685453710289,2.6553488287500292e-05,0.00076956239055387,0.008607406357256962,0.9939268511835674
2017-05-01,-1,-0.0003889257437520486,-9.091036762344702e-05,0.0012008246184247037,0.008607406357256962,0.9940580910242507
2017-05-03,0,-0.0001367740748785466,0.0001011922140720323,0.0017699227271100533,0.009247086170891044,0.9937528230121727
2017-05-05,1,0.00021420629818702833,0.00041204719127289197,0.0013588117405618004,0.008542277165497799,0.994228938120803
2017-05-09,1,0.00027957056545084536,0.00044264359600287986,0.0013588117405618004,0.008542277165497799,0.9946110744469681
2017-05-11,-1,-0.0006260143007996374,-0.0003158764323944426,0.0008125214627819356,0.008542277165497799,0.993903543289249
2017-05-15,0,-0.0001538955475846838,7.96403753016144e-05,-0.0013114749981457422,0.008542277165497799,0.9940956471769643
2017-05-17,0,-8.970139690384223e-06,0.0002186334242678757,-0.0013114749981457422,0.008479489784372329,0.9940045344726436
2017-05-19,1,0.00010644478250151229,0.00032675488839035635,-0.00012815346624461647,0.008757684750118531,0.9936600881654423
2017-05-23,1,0.00021423609579423585,0.0004432280383782827,-0.0046278670793680424,0.008421782216201839,0.9933160058708179
2017-05-25,1,0.0009354961056470912,0.0010760232160722792,-0.0046278670793680424,0.0066002925238181085,0.9942229113749323
2017-05-30,1,0.0005347815809531314,0.0007517462240642989,-0.006798197163339741,0.0066002925238181085,0.9937394252904103
2017-06-01,1,0.0008173994383242915,0.00098485510945306,-0.007975189187844138,0.006431677204851195,0.9930811045704548
2017-06-05,1,0.0005114177235840361,0.0007482808260806253,-0.007975189187844138,0.003956786214744785,0.993150072096547
2017-06-07,1,0.0002763822971310866,0.0005576885185188432,-0.007975189187844138,0.006431677204851195,0.9925725939502877
2017-06-09,0,-0.00024865289600076884,6.39876301859034e-05,-0.005119103083718888,0.006431677204851195,0.9933235527576357
2017-06-13,-1,-0.0006023947854770192,-0.0002684905613943154,-0.005119103083718888,0.007190236294018994,0.9931270497066932
2017-06-15,0,-0.0001449020756801088,0.00012561701388608582,-0.006174375703461502,0.007190236294018994,0.9928225359934807
2017-06-19,1,0.0006039377419228071,0.0007672683651346972,-0.006174375703461502,0.0037146794569505866,0.993214291496563
2017-06-21,-1,-0.0004019171870551873,-0.00012307566502811986,-0.005034562449697788,0.005705356931468601,0.9930933322636261
2017-06-23,-1,-0.0008106117918048412,-0.0004830289138457644,-0.005850120777148453,0.005705356931468601,0.9930349728541679
2017-06-27,-1,-0.0009145310135594677,-0.0006011009884804642,-0.005850120777148453,0.005705356931468601,0.9931382162764185
2017-06-29,-1,-0.0011433670875583743,-0.000817665425206064,-0.004954657685600472,0.0047869562642202275,0.9938341395769563
2017-07-03,-1,-0.0008065211503994042,-0.000563006029069338,-0.006345291299864599,0.0047869562642202275,0.9931130138914316
2017-07-06,-1,-0.0005673556882350715,-0.0003457685036888392,-0.007343741075346408,0.0031780999140635425,0.9932107341482331
2017-07-10,-1,-0.0007681066779921215,-0.0005185645981965642,-0.007343741075346408,0.0047869562642202275,0.9929092487394665
2017-07-12,-1,-0.000806802516902969,-0.0005555119869796706,-0.007583723335344079,0.0047869562642202275,0.9929147611258389
2017-07-14,-1,-0.00040858604227004083,-0.00022584878848658989,-0.009317694466542556,0.0047869562642202275,0.9930303297149303
2017-07-18,0,-6.58478765360632e-05,5.18723456728243e-05,-0.009317694466542556,0.004886991666341979,0.9923492159181302
2017-07-20,1,0.0002486387444832272,0.00030492776366576737,-0.009317694466542556,0.004886991666341979,0.9926785824269538
2017-07-24,1,0.0001655551419133132,0.00021477951983532508,-0.009317694466542556,0.0059470530008137075,0.9924562219496589
2017-07-26,-1,-0.00023179926668526592,-0.0001335227721698062,-0.007901504433921878,0.0059470530008137075,0.9926596908452126
2017-07-28,0,-2.195444886549203e-05,4.909958241117892e-05,-0.008673786087415704,0.0059470530008137075,0.9924834115070639
2017-08-01,-1,-0.0008139979271521103,-0.0006453404656124148,-0.007003966388947429,0.006787459936398593,0.9927558003722742
2017-08-03,-1,-0.001105043911579335,-0.0009108350796249115,-0.005537850897475789,0.006787459936398593,0.9930618348671567
2017-08-07,-1,-0.0005317647987418164,-0.0004229345744523619,-0.005537850897475789,0.006764243015526742,0.9933215672925246
2017-08-09,-1,-0.0005765303052171828,-0.0004693936824326969,-0.0023123206029965443,0.007720142633092639,0.9935650055892811
2017-08-11,-1,-0.0006617909932960652,-0.000549876224566664,-0.0023123206029965443,0.007720142633092639,0.9932064605731353
2017-08-15,-1,-0.00025191401438051425,-0.0001800448018155764,-0.005537850897475789,0.007498313723844638,0.9937749428230968
2017-08-17,-1,-0.000612751931646676,-0.0004905945638541335,-0.005537850897475789,0.006692508120723324,0.9945103860651475
2017-08-21,-1,-0.00039316741780468574,-0.00030891008262518796,-0.006308180034080853,0.004832312930938418,0.9947105359630795
2017-08-23,-1,-0.0007224216743783587,-0.0005915312098616651,-0.006517479589168725,0.004832312930938418,0.9940686716191928
2017-08-25,-1,-0.0008298990576376236,-0.0006931475148997803,-0.004922795217912227,0.006478774195413272,0.9941007169569681
2017-08-29,-1,-0.0005137307695034323,-0.0004025819432191635,-0.006517479589168725,0.0029703908225745547,0.9941759622566244
2017-08-31,-1,-0.0003692926297503824,-0.00028032341474212364,-0.007165155828180397,0.0025106679234898864,0.9939557456615253
2017-09-05,-1,-9.861804020358398e-05,-4.9333163350944516e-05,-0.007165155828180397,0.0019029192029263722,0.9939501587763231
2017-09-07,1,0.0003210303577562883,0.00033357937593846403,-0.007165155828180397,0.00123336751515758,0.9936947397654902
2017-09-11,-1,-6.702994490054957e-05,-2.4904722179280804e-05,-0.006418521381408647,0.00123336751515758,0.993942982918695
2017-09-13,-1,-0.0012092275205127982,-0.0009631249563388625,-0.006418521381408647,0.0019029192029263722,0.9936191008140287
2017-09-15,-1,-0.0009342415007630516,-0.0007699260567791725,-0.006150641236750695,0.002398387182949252,0.9935342812276563
2017-09-19,-1,-0.0016076486187149074,-0.001322471505139731,-0.006366533316421252,0.0018675342781468605,0.9936880827684139
2017-09-21,-1,-0.002289371822802832,-0.0019288348284655745,-0.006366533316421252,0.0018675342781468605,0.992847044795526
2017-09-25,-1,-0.0019047684543151873,-0.0016019231689235725,-0.006366533316421252,0.0018675342781468605,0.9925619421954156
2017-09-27,-1,-0.002089251506974204,-0.0017848516168599412,-0.00710561225865433,0.0018675342781468605,0.9922104625864832
2017-09-29,-1,-0.002264497763758689,-0.0019365485470686913,-0.007333843378507372,0.00139852350849854,0.992230757743861
2017-10-03,-1,-0.00260040680419165,-0.0022239014549315177,-0.007723185965628779,0.00139852350849854,0.9919467546848207
2017-10-05,-1,-0.0020592107682777337,-0.001760584815626155,-0.008668158696895772,-0.000633912716817523,0.9920104311172604
2017-10-09,-1,-0.0013743320984846551,-0.0011726463665357838,-0.008668158696895772,-0.0010956371585625947,0.9926568606384739
2017-10-11,-1,-0.0010068786236700409,-0.0008597527833616528,-0.008668158696895772,-0.000633912716817523,0.9930967121311974
2017-10-13,-1,-0.0008065900287804901,-0.0007039006091309441,-0.008668158696895772,-0.000633912716817523,0.9927853447554712
2017-10-17,-1,-0.0006729067238947381,-0.0006222725641794768,-0.008668158696895772,-0.00025991275774747094,0.9926261194104863
