JNU-Tangyin/eata/results/Batch4_SP500/Batch4_SP500-SHW.csv
Date,Action,Predicted_Q25,Predicted_Q75,Actual_Q25,Actual_Q75,RL_Reward
2010-12-14,0,0.0,0.0,-0.0026417262940084665,0.008462854198355971,0.993288397528588
2010-12-16,0,0.0,0.0,-0.0026417262940084665,0.006206675762641831,0.9942066086238562
2010-12-20,1,0.0010189687208137085,0.0010918002420017773,-0.0039197152673766675,0.006206675762641831,0.9934876717819464
2010-12-22,1,0.001207977835787544,0.00131841777491519,-0.004974723988655706,0.005106985492375824,0.9933571725314031
2010-12-27,1,0.0025663127770576373,0.002862780813308684,-0.004279016927756932,0.007585955411730535,0.9916100395000343
2010-12-29,1,0.002961438609761324,0.0032414107587948517,-0.005804198540612388,0.007876644291317073,0.9909200357378829
2010-12-31,1,0.00260366178395226,0.0028245206480861556,-0.012459511943612127,0.007876644291317073,0.9903576743158627
2011-01-04,0,0.0,0.0,-0.010785165560581515,0.007585955411730535,0.9906389912830662
2011-01-06,0,0.0,0.0,-0.004199996459866908,0.007585955411730535,0.9912865397139417
2011-01-10,0,0.0,0.0,-0.003728600186421995,0.007585955411730535,0.9912301142380407
2011-01-12,0,0.0,0.0,-0.003728600186421995,0.007876644291317073,0.9909826396972632
2011-01-14,0,0.0,0.0,-0.007286261842601871,0.006264089721995412,0.9910630596451583
2011-01-19,1,0.0010923067440272811,0.0011241145490460875,-0.00694605210928969,0.0050988870651467325,0.9922234275119093
2011-01-21,0,0.0,0.0,-0.0028503896082301165,0.005932183072408429,0.9926657672876059
2011-01-25,0,0.0,0.0,-0.008900264377240962,0.003258937751694191,0.9935329225907689
2011-01-27,0,0.0,0.0,-0.008900264377240962,0.003258937751694191,0.9934484942937609
2011-01-31,0,0.0,0.0,-0.008900264377240962,0.003869231281925338,0.9930571934965216
2011-02-02,0,0.0,0.0,-0.00792072756373971,0.005290991956588824,0.9920101072583483
2011-02-04,0,0.0,0.0,-0.010456980042715933,0.005290991956588824,0.9911161526130914
2011-02-08,0,0.0,0.0,-0.010456980042715933,0.005932183072408429,0.9901847958750081
2011-02-10,0,0.0,0.0,-0.010456980042715933,0.005932183072408429,0.9901144677358054
2011-02-14,1,0.0020522048900992293,0.0021060839751746293,-0.010817161485439588,0.005864723386345773,0.9895858831040458
2011-02-16,0,0.0,0.0,-0.011408234682031403,0.005864723386345773,0.9893495299232816
2011-02-18,0,0.0,0.0,-0.011408234682031403,0.006026328423569639,0.9888480712044871
2011-02-23,1,0.0008316473107657692,0.0008805372419328047,-0.010272964746425375,0.006424396738742695,0.9899379686162962
2011-02-25,0,-3.161352268557711e-05,0.00015327425182261822,-0.008318939969136888,0.006745346268361329,0.9906074210841161
2011-03-01,-1,-0.0007356354157402072,-0.00046853207862070556,-0.0035369593297761115,0.006745346268361329,0.9914850669746459
2011-03-03,-1,-0.0007755122105334317,-0.0004886140047023416,-0.0022039403914895766,0.00578450177468366,0.9927501738439073
2011-03-07,-1,-0.0017401503287518406,-0.0013303510008178536,0.00031763404799138085,0.006745346268361329,0.9923572829692416
2011-03-09,-1,-0.0009415465706769672,-0.0006282492239858796,-0.0020943782225684815,0.005301154481700961,0.9935357069223545
2011-03-11,-1,-0.0010159916942931867,-0.0006708482032206559,-0.002348295084457952,0.004113406041775403,0.994077096104374
2011-03-15,0,0.0,0.0,-0.002719505806525183,0.003691425916103942,0.9942953320509993
2011-03-17,0,0.0,0.0,-0.002348295084457952,0.004053462676903259,0.9950827877222027
2011-03-21,0,0.0,0.0,-0.002719505806525183,0.004053462676903259,0.994334214750773
2011-03-23,0,0.0,0.0,-0.002719505806525183,0.0056841005655891425,0.9939446958414782
2011-03-25,0,0.0,0.0,-0.003847139306786535,0.004053462676903259,0.9929350667179906
2011-03-29,0,0.0,0.0,-0.006133323199066491,0.004053462676903259,0.9924988857254593
2011-03-31,0,0.0,0.0,-0.006133323199066491,0.005586171887051163,0.99214589270918
2011-04-04,1,0.0006868865347208746,0.0007075556982648739,-0.006133323199066491,0.005586171887051163,0.9923824152502929
2011-04-06,0,0.0,0.0,-0.006133323199066491,0.005586171887051163,0.9926953085794745
2011-04-08,0,0.0,0.0,-0.006133323199066491,0.006410122161930184,0.9926653152541791
2011-04-12,0,0.0,0.0,-0.006133323199066491,0.008097341391143922,0.991965941945234
2011-04-14,0,0.0,0.0,-0.006133323199066491,0.008372559912816923,0.9913833478302453
2011-04-18,-1,-0.0018904131059160024,-0.0014159375845885006,-0.005512381605513494,0.008097341391143922,0.9925716845743303
2011-04-20,0,0.0,0.0,-0.005512381605513494,0.005563453051073877,0.9930117906213125
2011-04-25,1,7.623772144065087e-05,7.938571343586303e-05,-0.0053585174144677936,0.005563453051073877,0.9938619129097412
2011-04-27,-1,-0.001083318099394972,-0.0008801524759437937,-0.004026878116747939,0.005563453051073877,0.9931972962845058
2011-04-29,0,0.0,0.0,-0.0034313816129878374,0.005563453051073877,0.9929995650727839
2011-05-03,0,0.0,0.0,-0.004066860253175356,0.005563453051073877,0.9913693641450718
2011-05-05,0,0.0,0.0,-0.008181084129990945,0.005563453051073877,0.990341591933264
2011-05-09,0,0.0,0.0,-0.00860825818162933,0.005220797981320614,0.9897210386636289
2011-05-11,0,0.0,0.0,-0.009429818052024239,0.004820201483483572,0.990308917354261
2011-05-13,1,0.0012038724556928727,0.0013359608590935096,-0.009569153002137848,0.003687966003300041,0.9903157213407979
2011-05-17,1,0.001024429846037799,0.0011760433395577162,-0.013225333643670747,0.004820201483483572,0.9893345170975815
2011-05-19,1,0.0013043094557478757,0.0014858271662023036,-0.013225333643670747,0.005028873026568621,0.9891028808121551
2011-05-23,1,0.000719226383917242,0.0008126185773123389,-0.013225333643670747,0.005745864721510327,0.9894949656300324
2011-05-25,1,0.00014206770648060162,0.0001559098848266182,-0.009569153002137848,0.0066024214469498545,0.9893005703705458
2011-05-27,1,0.0008776803197276212,0.000987823813276684,-0.013225333643670747,0.005745864721510327,0.9892017825622412
2011-06-01,0,0.0,0.0,-0.010821573700942977,0.005745864721510327,0.9905527776591099
2011-06-03,0,0.0,0.0,-0.008925982979858454,0.007822233756827533,0.9899682962950271
2011-06-07,0,0.0,0.0,-0.008925982979858454,0.007822233756827533,0.9901133990435321
2011-06-09,-1,-0.0004892003294917545,-0.0004132305974681368,-0.00891163664530127,0.007822233756827533,0.9899944553636847
2011-06-13,0,0.0,0.0,-0.010135364674992028,0.007822233756827533,0.9897623658489759
2011-06-15,0,0.0,0.0,-0.00801698767566976,0.007437681486600801,0.9908822402903834
2011-06-17,0,0.0,0.0,-0.00801698767566976,0.006444268551342502,0.991421243264791
2011-06-21,0,0.0,0.0,-0.00801698767566976,0.007437681486600801,0.9908217866737792
2011-06-23,1,0.0005694418512197513,0.0006158929379190842,-0.010201194389532351,0.006444268551342502,0.9889444496706913
2011-06-27,-1,-0.00020333325699126305,-0.0001794191799439432,-0.010201194389532351,0.006444268551342502,0.9895155171727268
2011-06-29,0,0.0,0.0,-0.010287670187509252,0.0034258487642839703,0.9892777020607524
2011-07-01,0,0.0,0.0,-0.010287670187509252,0.0012554869224379807,0.9907473574790824
2011-07-06,1,0.0009745858950295423,0.0011353378200340612,-0.01048169905382762,0.0012554869224379807,0.9887103021353357
2011-07-08,0,0.0,0.0,-0.012292700060036871,0.0012554869224379807,0.988616447392456
2011-07-12,1,0.00024445620153925267,0.0002903882338679722,-0.01654870854622424,0.002231925920909067,0.9851181570993872
2011-07-14,1,0.00012221531052937463,0.00016015045923394733,-0.0168960676976944,0.004284569032252468,0.9818033987538062
2011-07-18,-1,-0.00023056447195907154,-0.00018296579084131067,-0.0168960676976944,0.011622070795621522,0.9801782305073065
2011-07-20,1,4.8483653089411506e-05,8.137780623683707e-05,-0.0168960676976944,0.003992467518702688,0.9801062476183565
2011-07-22,-1,-0.0021903369316810563,-0.001872073395970222,-0.018049125295610417,0.003992467518702688,0.98124217644751
2011-07-26,-1,-0.002080193941013381,-0.0018010031950285253,-0.018049125295610417,0.01801382040659153,0.9795129062259731
2011-07-28,-1,-0.003156958849673591,-0.002720679166528781,-0.018752862253822927,0.01801382040659153,0.9789447285287377
2011-08-01,0,0.0,0.0,-0.018752862253822927,0.01988539927614404,0.9767926275361631
2011-08-03,0,0.0,0.0,-0.017448527443406588,0.01988539927614404,0.9787175310046796
2011-08-05,0,0.0,0.0,-0.020021216794637958,0.01988539927614404,0.9780005784155499
2011-08-09,-1,-0.0035875092494874828,-0.003070058344624743,-0.01857504924855744,0.01988539927614404,0.9812237566115235
2011-08-11,0,0.0,0.0,-0.01697290026895216,0.01698531118992242,0.983517127986641
2011-08-15,0,0.0,0.0,-0.01697290026895216,0.01576370055059361,0.9846575995013928
2011-08-17,0,0.0,0.0,-0.016092152035322955,0.01698531118992242,0.983838356934635
2011-08-19,0,0.0,0.0,-0.00831715099051691,0.01698531118992242,0.9858349106254845
2011-08-23,0,0.0,0.0,-0.01081700586373374,0.010429498130653607,0.9858715421650325
2011-08-25,0,0.0,0.0,-0.01081700586373374,0.01064771664157594,0.9855644163629663
2011-08-29,0,0.0,0.0,-0.01081700586373374,0.0077676865937433785,0.9841131898419468
2011-08-31,0,0.0,0.0,-0.01081700586373374,0.007327879849429248,0.9844184248481921
2011-09-02,-1,-0.0014221587596145906,-0.0012798849289352588,-0.00831715099051691,0.007327879849429248,0.9853228553522417
2011-09-07,0,0.0,0.0,-0.00831715099051691,0.011508120456119538,0.9828587760588686
2011-09-09,0,0.0,0.0,-0.0067414004249878355,0.011508120456119538,0.9833544984827315
2011-09-13,-1,-0.001264929703069384,-0.0012188288247246902,-0.0067414004249878355,0.010839125321271976,0.9842024554693224
2011-09-15,-1,-0.001080239842096053,-0.0010076109207140848,-0.006614708829670076,0.006761512398715221,0.985410110060131
2011-09-19,-1,-0.0016562753843034708,-0.0014958606575401574,-0.006614708829670076,0.006761512398715221,0.9842868233128007
2011-09-21,-1,-0.003161770008380526,-0.002831565726202222,-0.006614708829670076,0.010839125321271976,0.9833299657599347
2011-09-23,-1,-0.0024922063314292506,-0.00226863018429993,-0.0028972889019975166,0.024306963931677958,0.9823472120504236
2011-09-27,-1,-0.0001888419269689133,-0.00013159577643664979,-0.005331465832650581,0.020256640825266684,0.9850517780643646
2011-09-29,1,0.00012439872762876237,0.0002372917818205741,-0.006614708829670076,0.020256640825266684,0.9838359884643926
2011-10-03,-1,-0.0007020891998653826,-0.0006799220111775965,-0.005622205071392142,0.020256640825266684,0.9836340699732496
2011-10-05,1,0.0021743646993358976,0.0026063785212212,-0.008879618325602195,0.015898603326437204,0.9857970321360434
2011-10-07,1,0.0018323086991661839,0.0022040344230643567,-0.008879618325602195,0.020256640825266684,0.9848399678409897
2011-10-11,1,0.0020353798953098227,0.0024597683158599907,-0.008879618325602195,0.020256640825266684,0.9849603612428441
2011-10-13,1,0.0018597070950042388,0.0022357514460656387,-0.013701878269895034,0.020256640825266684,0.9840514708526372
2011-10-17,1,0.0008785389739824755,0.0010976362369611934,-0.008375304740766558,0.020256640825266684,0.9847482726233183
2011-10-19,1,0.001189827868410531,0.0014950070598227358,-0.008375304740766558,0.015898603326437204,0.9864851906619015
2011-10-21,1,0.003002656839843207,0.0035417661464195232,-0.00963986001773717,0.01176234813184699,0.9887166350247808
2011-10-25,1,0.003129795142411844,0.003645388025623985,-0.00963986001773717,0.008896185983469754,0.9894194407254743
2011-10-27,1,0.0027609997274393276,0.0032110088571142446,-0.00963986001773717,0.008166283344297967,0.9897126996866559
2011-10-31,1,0.0023850021588922984,0.0027689785696681218,-0.007236026858437449,0.007687590957308329,0.9909310808347513
2011-11-02,1,0.002645460520261176,0.0030437410208790897,-0.007236026858437449,0.007687590957308329,0.9907352289995733
2011-11-04,1,0.0035203528295662118,0.004032508113037795,-0.007236026858437449,0.0063937343377431415,0.9913144676328828
2011-11-08,1,0.0036993827831834016,0.004253448953468878,-0.007236026858437449,0.007687590957308329,0.9909872353802571
2011-11-10,1,0.003554772847584824,0.004107154977379316,-0.007140120818670107,0.007687590957308329,0.9917003051695378
2011-11-14,1,0.0039383725778417925,0.004587119380610645,-0.008765147014493598,0.0063937343377431415,0.9904445602571633
2011-11-16,1,0.0030067185889420603,0.003480962799997194,-0.008212864016106037,0.0063937343377431415,0.991506547460423
2011-11-18,1,0.002759286203297505,0.003188280099803763,-0.0050419838911577915,0.0076942564887089076,0.9915436704786217
2011-11-22,1,0.0036420250114464776,0.004261381048487729,-0.0050419838911577915,0.0076942564887089076,0.9904475463633226
2011-11-25,1,0.003164381992174034,0.003706182137457778,-0.0033624680676272597,0.00946271346846208,0.9907928449534797
2011-11-29,1,0.003336679062496334,0.003896588249101985,-0.0050419838911577915,0.00946271346846208,0.9904849386112773
2011-12-01,1,0.0035837682761166623,0.0041440614621205745,-0.004044646846528856,0.00848857219728635,0.9919956658316991
2011-12-05,1,0.003249966126845997,0.003749674165777983,-0.004044646846528856,0.009744606386683462,0.9914337462798408
2011-12-07,1,0.003561565754471708,0.004108932333302102,-0.004044646846528856,0.009744606386683462,0.9915018513575131
2011-12-09,1,0.003992070867282894,0.004628472889795274,-0.003331202158175605,0.010723759403482858,0.9918207574052004
2011-12-13,1,0.0020406777346100814,0.002306937509752971,0.002405317329514341,0.012452770694061328,0.9919840458809639
2011-12-15,1,0.0019628282449004994,0.0022009228044308315,0.0015143808765566784,0.012452770694061328,0.9915262697305326
2011-12-19,1,0.0015366768539551551,0.0016754148782446231,0.003975954590481883,0.012452770694061328,0.9910900409256933
2011-12-21,1,0.0025184812677455054,0.002772040043664324,-0.002165332669678625,0.011400883689740763,0.9919544562383319
2011-12-23,1,0.003001587233189635,0.0032986755451493476,-0.002165332669678625,0.00908212050803861,0.9928604141835223
2011-12-28,1,0.0023553973271147545,0.0025449254466413255,-0.002165332669678625,0.010445534016942492,0.9918573370672324
2011-12-30,1,0.0021103629537153183,0.002230066430144237,-0.002265123689061113,0.010445534016942492,0.9915429285049154
2012-01-04,1,0.0030146766975012646,0.003251765938021884,-0.004755046544740638,0.008144040984213757,0.9924532771491965
2012-01-06,1,0.0029777735127437316,0.00322959723836461,-0.004755046544740638,0.00877175321014455,0.9924554345396206
2012-01-10,0,0.0,0.0,-0.004755046544740638,0.008144040984213757,0.9922187114912728
2012-01-12,0,0.0,0.0,-0.00566933272075897,0.0076677534331958345,0.992340666366236
2012-01-17,0,0.0,0.0,-0.004755046544740638,0.007936336364401109,0.9923650497429544
2012-01-19,0,0.0,0.0,-0.00553279926836361,0.006923158233656903,0.9927972199898186
2012-01-23,0,0.0,0.0,-0.0013617867831921045,0.006923158233656903,0.993502677706176
2012-01-25,0,0.0,0.0,-0.004847981260200412,0.0076606123805912476,0.9932274124155288
2012-01-27,0,0.0,0.0,-0.0013617867831921045,0.0076606123805912476,0.9934998749776265
2012-01-31,0,0.0,0.0,-0.0016829941680396112,0.0075831562134264655,0.9932815176871952
2012-02-02,0,0.0,0.0,-0.0016829941680396112,0.0075831562134264655,0.9928707816571181
2012-02-06,1,0.002341647918871211,0.002348949265863588,-0.0007099586768439014,0.006809575578191526,0.9940383546915141
2012-02-08,1,0.0020281325770832815,0.0020799263868004282,-0.005874919479947857,0.006821647054761836,0.9925712681324995
2012-02-10,1,0.0019055817229081664,0.0019854742072085373,-0.0007099586768439014,0.007696826810302178,0.9928433104065666
2012-02-14,1,0.000780314676554193,0.0009914294317683436,-0.0018025784790345035,0.006266167320748867,0.9929700525011416
2012-02-16,1,0.0006814161272763388,0.0009843856342233647,-0.0018658945442394286,0.006592820598958066,0.9926683914887091
2012-02-21,0,0.0,0.0,-0.004305135820845101,0.007894770289329233,0.9920098625393011
2012-02-23,0,0.0,0.0,-0.0016294517039837477,0.006592820598958066,0.9926581416260737
2012-02-27,1,0.001586674263677074,0.0017073127911860569,-0.0016294517039837477,0.006592820598958066,0.9932904777220353
2012-02-29,1,0.0024297895222992636,0.002571456574057919,-0.0016294517039837477,0.0056878228346265765,0.9934853356560991
2012-03-02,1,0.002136388469371522,0.0022437130973967886,-0.0016294517039837477,0.006649030215897627,0.9935729334296722
2012-03-06,1,0.0021911769617823174,0.002297733243194766,-0.003722340361362256,0.008063399140147915,0.9929662176657078
2012-03-08,1,0.0026613750623682856,0.0028163925303149517,-0.0016294517039837477,0.007691946953144982,0.9943832000809956
2012-03-12,1,0.002439572901182436,0.002502150051689838,-0.003722340361362256,0.007691946953144982,0.9930923358185826
2012-03-14,1,0.0020981739247102225,0.002109277965487399,-0.003722340361362256,0.008063399140147915,0.9904768232109077
2012-03-16,1,0.002284476334153244,0.002334680580660893,-0.0016294517039837477,0.008790236428049427,0.9908475498858906
2012-03-20,1,0.00229923188698271,0.002372733912564434,-0.001633233529406746,0.008132666340292602,0.9911551586315791
2012-03-22,1,0.0021327173311743897,0.0021589685145914834,-0.0036222702247793092,0.009140893409891973,0.9904027195379594
2012-03-26,0,0.0,0.0,-0.0036222702247793092,0.008132666340292602,0.9906359682224245
2012-03-28,0,0.0,0.0,-0.0032402241359488094,0.009140893409891973,0.9902414173768125
2012-03-30,1,0.0022350215820386367,0.0023870125975590474,-0.0032402241359488094,0.009140893409891973,0.9910883043654086
2012-04-03,1,0.0023180769556127396,0.002476073793572298,0.00010833785325487866,0.00815794063971964,0.9915181267674796
2012-04-05,1,0.0023953279533511303,0.002530789837200789,-0.0032402241359488094,0.00815794063971964,0.9914294583744493
2012-04-10,1,0.0017975271611201382,0.001843823408487883,0.00010833785325487866,0.00815794063971964,0.9924553833326488
2012-04-12,0,0.0,0.0,-0.0032402241359488094,0.00798194002266141,0.9938004999451635
2012-04-16,0,0.0,0.0,-0.003624307649705392,0.005331873650705838,0.9935848520455826
2012-04-18,0,0.0,0.0,-0.0041559180829483875,0.005331873650705838,0.9928318943983061
2012-04-20,0,0.0,0.0,-0.006021382563856846,0.004365535968139829,0.9924691613280423
2012-04-24,0,0.0,0.0,-0.006021382563856846,0.005331873650705838,0.9913831959864046
2012-04-26,1,0.004180992752845877,0.004330352806880107,-0.006021382563856846,0.007980037264348528,0.990267508747629
2012-04-30,1,0.0038214242611021116,0.003886530455658793,-0.004153277973899643,0.008288327285311918,0.9895401490549404
2012-05-02,1,0.0040399855433214974,0.004136146105272564,-0.006937118957549228,0.008995340370844936,0.9882506391968819
2012-05-04,1,0.0036289260308206136,0.0036613629950671364,-0.010033750471522919,0.010358510503217636,0.9863607274727645
2012-05-08,1,0.003262443788171535,0.003334122124686558,-0.010033750471522919,0.011779774037165406,0.9859558670913217
2012-05-10,1,0.0027233369050143597,0.002871750951802759,-0.006337068461784267,0.011980360458940477,0.9860503009846021
2012-05-14,1,0.0017901429335517268,0.0020550229284803335,-0.004834896650711847,0.017374893095912978,0.9855028466308019
2012-05-16,1,0.0016169018166601419,0.0018530969324228764,-0.0061675085546502376,0.017374893095912978,0.9850790191638571
2012-05-18,1,0.0012062061503204896,0.0014481726714484968,-1.265994056349703e-05,0.019647929326638988,0.9851532185731248
2012-05-22,1,0.0015832549486696232,0.0018008746451833992,-0.0061675085546502376,0.017374893095912978,0.9856399993185802
2012-05-24,1,0.002752641602716089,0.002823666884249806,-0.009427372458661347,0.012978392034135788,0.9859218391504181
2012-05-29,1,0.004162104724028742,0.00429533017885851,-0.009427372458661347,0.012978392034135788,0.985963175459681
2012-05-31,1,0.003843397417121997,0.003955922085810919,-0.006964118811652679,0.010711721490846034,0.9869590988306571
2012-06-04,1,0.003202905637593393,0.0032409618854936767,-0.005419823774616627,0.01300823164586806,0.9884489584232282
2012-06-06,1,0.0039280628635750365,0.004086564057913153,-0.005419823774616627,0.010711721490846034,0.9891391723363828
2012-06-08,1,0.0038636073010659194,0.003999431185972621,-0.006964118811652679,0.0067500821548183345,0.9883168430252481
2012-06-12,1,0.004481560449331283,0.004724021423824503,-0.007184318118560512,0.004104638482346988,0.9883613331614448
2012-06-14,1,0.002801394689769323,0.0028370582629952948,-0.004545395622333425,0.006717411336705634,0.99021486173863
2012-06-18,1,0.0034764496858284873,0.0035460476095290094,-0.007184318118560512,0.006717411336705634,0.9893798534051866
2012-06-20,1,0.002590416538472494,0.002591910021601019,-0.006740479105883139,0.010436174544813591,0.9881983190329597
2012-06-22,1,0.0019523863645651723,0.0020464532472293817,-0.00628582587931679,0.006717411336705634,0.9897491275152457
2012-06-26,1,0.0021629588835634,0.0022714665988791466,-0.006948654648976306,0.005227476969620626,0.9901754990684991
2012-06-28,1,0.0021400909766437592,0.0022522743778458825,-0.006948654648976306,0.010436500699293642,0.9888463909785554
2012-07-02,1,0.002560404100760097,0.002613159012502716,-0.008114058490082093,0.006717411336705634,0.9890627299983517
2012-07-05,1,0.0021316663240776045,0.002248998390305257,-0.008114058490082093,0.007616802926973083,0.988614420813293
2012-07-09,1,0.0015472615067499322,0.0017281249129799912,-0.0069803098641894185,0.010436500699293642,0.9890808229839781
2012-07-11,1,0.0005936287780025543,0.0008904153666730452,-0.006526614920658024,0.013183403448004977,0.9881471892190579
2012-07-13,1,0.0010838439406172335,0.0013335958046909492,-0.006526614920658024,0.013183403448004977,0.9887569666588738
2012-07-17,1,0.0007655238855124269,0.0010445141732799029,-0.005316213039268891,0.013183403448004977,0.9900885705286718
2012-07-19,1,0.002730658252070672,0.0027335402662990215,-0.005316213039268891,0.008295402796547226,0.9910307797291052
2012-07-23,1,0.0011412423237089986,0.0013540289383898573,-0.0051144786029702185,0.011483084712687056,0.9908306901391896
2012-07-25,1,0.00011323410773611824,0.00046213943567006933,-0.0051144786029702185,0.01172652361737678,0.9901928421885222
2012-07-27,1,0.0016444247314669042,0.001818992449160352,-0.0051144786029702185,0.011149909968690124,0.9914820944372164
2012-07-31,1,0.0012612900561646792,0.0014427685088522946,-0.0036701366193285165,0.011149909968690124,0.9916924475524982
2012-08-02,1,0.0015110029063153947,0.0016426240190851448,-0.0036701366193285165,0.01172652361737678,0.9908159249008159
2012-08-06,1,0.001315938409112044,0.0014791140105584486,-0.0012864102417950146,0.011149909968690124,0.9913102245021644
2012-08-08,1,0.002522660405653734,0.002575182578316988,-0.0038609983107435325,0.008471426093196833,0.9919977266489644
2012-08-10,0,0.0,0.0,-0.005878096247189718,0.008471426093196833,0.9914611987135136
2012-08-14,0,0.0,0.0,-0.006777051329905757,0.011149909968690124,0.990342877118706
2012-08-16,0,0.0,0.0,-0.005878096247189718,0.011387016064078204,0.9909131042536343
2012-08-20,0,0.0,0.0,-0.0042838312745138146,0.011387016064078204,0.9914907140685476
2012-08-22,0,0.0,0.0,-0.004281229136823836,0.01208228387833895,0.991258911049979
2012-08-24,0,0.0,0.0,-0.004908895152414346,0.011864354707084857,0.991535403333992
2012-08-28,0,0.0,0.0,-0.006777051329905757,0.011864354707084857,0.9905557197009943
2012-08-30,0,0.0,0.0,-0.006443387544043142,0.011864354707084857,0.9912395496583494
2012-09-04,0,0.0,0.0,-0.006443387544043142,0.011864354707084857,0.9912735948760281
2012-09-06,1,0.0019795723150762296,0.002000093416233594,-0.005186138904105768,0.011864354707084857,0.9906242620418677
2012-09-10,0,0.0,0.0,-0.005186138904105768,0.011864354707084857,0.9894776952760523
2012-09-12,0,0.0,0.0,-0.005186138904105768,0.010453708700129002,0.98994885001542
2012-09-14,0,0.0,0.0,-0.0067251632787112105,0.008997984013764884,0.9902907772658747
2012-09-18,0,0.0,0.0,-0.0067251632787112105,0.013342477225330055,0.9891147947784723
2012-09-20,0,0.0,0.0,-0.007596699037462211,0.010933158279569534,0.9900527389245669
2012-09-24,0,0.0,0.0,-0.008309456416105705,0.008997984013764884,0.9900838901642196
2012-09-26,0,0.0,0.0,-0.007596699037462211,0.010972932059493137,0.989931563107303
2012-09-28,0,0.0,0.0,-0.007747572349654301,0.008997984013764884,0.9868843044167458
2012-10-02,1,0.0013209294402825003,0.001430689879138719,-0.007747572349654301,0.010972932059493137,0.9859828874360131
2012-10-04,1,0.001832237816445898,0.001961943512800676,-0.008794241858868942,0.009827606182300793,0.9864622578406748
2012-10-08,1,0.0005526961399536566,0.0006314414958501003,-0.007747572349654301,0.008678247447104673,0.987648708878992
2012-10-10,-1,-0.0003744091603251092,-0.0001442461067991148,-0.0079782198802366,0.008678247447104673,0.9876501349805569
2012-10-12,1,0.00011863976459178385,0.00026912212991715977,-0.0079782198802366,0.014450265723470067,0.9841830415357695
2012-10-16,1,0.0017154629012111878,0.001833886751348872,-0.008794241858868942,0.00883393137700111,0.984261949760749
2012-10-18,1,0.001916821678439008,0.0021093069097027155,-0.008794241858868942,0.016364198288008863,0.9824190052473466
2012-10-22,1,0.0015623674654571395,0.0017018281810643235,-0.0079782198802366,0.016364198288008863,0.9828964187689755
2012-10-24,1,0.000886457248712747,0.0008990838541705408,-0.0055315072637262324,0.01502919808722225,0.9834510835925904
2012-10-26,-1,-0.00213925151830194,-0.0017981392705874637,-0.004870858738339786,0.01502919808722225,0.9870649478090877
2012-11-01,0,0.0,0.0,-0.007650953646795086,0.008999436498988177,0.9870035445774399
2012-11-05,0,0.0,0.0,-0.00711012295667197,0.006411791830352178,0.9877913634469488
2012-11-07,0,0.0,0.0,-0.007650953646795086,0.0076629365611548825,0.9873825812500256
2012-11-09,0,0.0,0.0,-0.00711012295667197,0.0076629365611548825,0.9874044527444026
2012-11-13,0,0.0,0.0,-0.007712021473667919,0.005758436339308257,0.9905511550311031
2012-11-15,0,-0.00010142969713824909,5.7921533511501257e-05,-0.00711012295667197,0.006215349103698092,0.9911323230984125
2012-11-19,1,0.002056414944048667,0.002191471414068583,-0.00761639128282339,0.005758436339308257,0.9908717248647853
2012-11-21,1,0.0015540594849603145,0.0016121522220403101,-0.007916816238226933,0.005859530970455233,0.989959417206999
2012-11-26,1,0.0017687401209266684,0.001873657309309126,-0.007916816238226933,0.005859530970455233,0.9897749425039756
2012-11-28,1,0.0015967356176857222,0.0016779597665631536,-0.007916816238226933,0.005859530970455233,0.9903037242943473
2012-11-30,0,-4.627607282488847e-05,0.00011311196538450551,-0.007916816238226933,0.006769795777070343,0.9906640557654307
2012-12-04,-1,-0.0009073851138692279,-0.0006127824270480039,-0.008610013219068808,0.007827096720986604,0.989754493182654
2012-12-06,-1,-0.00048734161908727403,-0.00026284873081878243,-0.00832312264653522,0.009794409915250206,0.9893282886094399
2012-12-10,-1,-0.0012366789210091083,-0.0009035502657972551,-0.006334677535301184,0.015840332645333525,0.9890961265768098
2012-12-12,-1,-0.0009937634438165286,-0.0007561932714449841,-0.006042355050878689,0.015840332645333525,0.9893931211801775
2012-12-14,-1,-0.0015045351880047732,-0.0011611389528878974,-0.006042355050878689,0.015840332645333525,0.9898132730893926
2012-12-18,-1,-0.0010348033313994386,-0.0007184122426085784,-0.0029238879092285917,0.01040010022478879,0.9913889222462244
2012-12-20,0,-9.37907982187267e-05,4.4759568872810305e-05,-0.0019512662367862671,0.007810453627274333,0.9925691054282503
2012-12-24,-1,-0.0004881287511123161,-0.00028200177227884584,-0.0012322534922496917,0.007806068708548597,0.9925584367339642
2012-12-27,-1,-0.0005208027463533182,-0.00031164133241861594,-0.0019512662367862671,0.007806068708548597,0.9921569658868119
2012-12-31,-1,-0.000249403162532799,-7.499495804676534e-05,-0.0027664944780460853,0.007314143526122006,0.9930970654909965
2013-01-03,1,0.0006223138340815443,0.0006270189771961921,-0.0019512662367862671,0.007314143526122006,0.9938424091243387
2013-01-07,1,0.0012663645847707287,0.0013474292392123641,-0.0023787656392457723,0.006897154854673941,0.9947953251717879
2013-01-09,1,0.0018596501652859755,0.0020102641135658944,-0.0023787656392457723,0.003442818202571637,0.995374932959804
2013-01-11,1,0.0012011791469028277,0.0012297503417202035,-0.0017544193440989378,0.005538384667198122,0.995632362142981
2013-01-15,1,0.0011122143235512687,0.0011347491046447098,-0.0017544193440989378,0.005538384667198122,0.9956556767965651
2013-01-17,1,0.0012979420600221577,0.001340150238861537,-0.0023787656392457723,0.005538384667198122,0.9946243454963994
2013-01-22,1,0.0016787959312264567,0.0018095373273702797,-0.0053241123622565206,0.0049032011263644565,0.9926580885334889
2013-01-24,0,0.0,0.0,-0.006395611945828966,0.004527279854657204,0.9919670724629674
2013-01-28,0,0.0,0.0,-0.006940373072846811,0.0049032011263644565,0.9908694254577599
2013-01-30,0,0.0,0.0,-0.005436230617923355,0.006643514930607926,0.9896300072362879
2013-02-01,0,0.0,0.0,-0.005436230617923355,0.006722482518306164,0.9890513490760292
2013-02-05,0,0.0,0.0,-0.0076484089723625505,0.006722482518306164,0.9887773410292408
2013-02-07,0,0.0,0.0,-0.0076484089723625505,0.007491841684837803,0.9882307697564289
2013-02-11,0,0.0,0.0,-0.0076484089723625505,0.010563204116988554,0.9881385398962885
2013-02-13,0,0.0,0.0,-0.0076484089723625505,0.010563204116988554,0.987983481791655
2013-02-15,1,0.0020837371142313817,0.0022594348795869808,-0.004011113705160305,0.009168685744478097,0.9892523639222193
2013-02-20,0,0.0,0.0,-0.0023334094171502976,0.010563204116988554,0.9902564637191745
2013-02-22,0,0.0,0.0,-0.0025960910443532225,0.009168685744478097,0.9907900630783206
2013-02-26,0,0.0,0.0,-0.0023334094171502976,0.007572375287052366,0.9920300444644528
2013-02-28,0,0.0,0.0,-0.0023334094171502976,0.007143821711191948,0.9936607010298913
2013-03-04,0,0.0,0.0,-0.0025960910443532225,0.0066836551967967865,0.9943281789280454
2013-03-06,1,0.0014966080989494003,0.0016378077386914529,-0.0023334094171502976,0.0066836551967967865,0.9936799368770656
2013-03-08,0,0.0,0.0,-0.0023334094171502976,0.004829895782912657,0.994310399753801
2013-03-12,0,0.0,0.0,-0.0023334094171502976,0.004829895782912657,0.9941656185526063
2013-03-14,0,0.0,0.0,-0.0023334094171502976,0.004829895782912657,0.9937194106621556
2013-03-18,0,0.0,0.0,-0.00290528234439914,0.004829895782912657,0.9923333592300245
2013-03-20,0,0.0,0.0,-0.005239692472771357,0.004829895782912657,0.9905538263962913
2013-03-22,1,0.0016543779226545281,0.0017797002848244019,-0.0018039114490004213,0.00981253944682955,0.9902770997536556
2013-03-26,0,-1.5404057226643675e-05,0.00023020065376832318,-0.00230658992180305,0.00981253944682955,0.9902484305813196
2013-03-28,1,0.0002988451965371734,0.00046265983867570194,-0.0031065749781987073,0.012787758662481951,0.9892842988811389
2013-04-02,0,0.0,0.0,-0.0024319006995482417,0.012787758662481951,0.9893612704619947
2013-04-04,0,0.0,0.0,-0.0024319006995482417,0.016439868651071846,0.9890668432079065
2013-04-08,0,0.0,0.0,-0.0024319006995482417,0.016967447339326515,0.9880525367278246
2013-04-10,0,0.0,0.0,-0.0024319006995482417,0.016967447339326515,0.9882888492327577
2013-04-12,0,0.0,0.0,-0.0034582456547547122,0.016967447339326515,0.9887492417716539
2013-04-16,1,0.0026516205573576166,0.0029376213024953266,-0.0024319006995482417,0.016967447339326515,0.9897395264820438
2013-04-18,1,0.002688820513754675,0.0029815253102278743,-0.0024319006995482417,0.011094618504652286,0.9907219492244862
2013-04-22,1,0.003846391372914434,0.004294585900247314,-0.0034582456547547122,0.005326565166575222,0.9910026802562828
2013-04-24,0,0.0,0.0,-0.005720193098704883,0.006938644639774875,0.9908610294183166
2013-04-26,1,0.0032824197955633053,0.0035599995947353242,-0.005816777747228106,0.006938644639774875,0.9904238392711254
2013-04-30,1,0.0028079000616477506,0.0029961040052920913,-0.007313745147116639,0.009598982807641272,0.9896657977341227
2013-05-02,0,0.0,0.0,-0.007313745147116639,0.006938644639774875,0.9904496307173554
2013-05-06,1,0.0030245679752062167,0.003206382556528871,-0.010229200951666887,0.005392919722762931,0.9893353289053409
2013-05-08,1,0.002873265662456268,0.002994936043066757,-0.011448614519000273,0.005392919722762931,0.9879840920371555
2013-05-10,1,0.0023378815718880074,0.0023817513059844185,-0.011448614519000273,0.007366355019854272,0.9883577188003013
2013-05-14,0,0.0,0.0,-0.013623408594330285,0.005392919722762931,0.9886412090573296
2013-05-16,0,0.0,0.0,-0.012770294089415749,0.007366355019854272,0.9874667274166686
2013-05-20,0,0.0,0.0,-0.012770294089415749,0.007366355019854272,0.9878998401414131
2013-05-22,0,0.0,0.0,-0.013398074321475282,0.006188336744902139,0.9867004775576945
2013-05-24,0,0.0,0.0,-0.014438012211138678,0.004643010142022999,0.9868124753892383
2013-05-29,1,0.0020613900528371858,0.002111928554562321,-0.014438012211138678,0.006188336744902139,0.9868220574260052
2013-05-31,1,0.002012752489452994,0.0020939575573640234,-0.014778678349185436,0.006943792897997128,0.9867035621106035
2013-06-04,1,0.00123420890791713,0.0012576119047161746,-0.01405820894564579,0.01011739832716862,0.9876240407155883
2013-06-06,1,0.0008288473829061788,0.0008725680487668259,-0.013398074321475282,0.01011739832716862,0.9885447003544595
2013-06-10,1,0.001042290671540548,0.0010705125918054512,-0.013398074321475282,0.0086038365271808,0.988708315673639
2013-06-12,1,9.897229317328953e-05,0.00022301391213457782,-0.0026234962647658667,0.011039300003379382,0.9892780378632737
2013-06-14,1,0.0008433876721843539,0.0008574040850494609,-0.004225987412953158,0.008546344845020995,0.9906910592710609
2013-06-18,1,0.0012579646394146765,0.0013178926206541112,-0.010156473880208385,0.008546344845020995,0.9905203714070939
2013-06-20,1,0.001962954494255695,0.0020155500821444285,-0.002963260850923663,0.011039300003379382,0.9875937093602161
2013-06-24,0,0.0,0.0,-0.002634411792089546,0.011039300003379382,0.9874115693462517
2013-06-26,0,0.0,0.0,-0.002634411792089546,0.006587718286257153,0.9882851129507257
2013-06-28,0,0.0,0.0,-0.0007236547088668424,0.00794171859336157,0.9888327157641014
2013-07-02,0,0.0,0.0,-0.0018971010784017525,0.006587718286257153,0.989254254433644
2013-07-05,0,0.0,0.0,-0.0018971010784017525,0.00794171859336157,0.9886685466573514
2013-07-09,0,0.0,0.0,-0.005366418941779042,0.006794913193330589,0.9883949019435337
2013-07-11,0,0.0,0.0,-0.007907200141676538,0.005976718374701188,0.9883203465143499
2013-07-15,0,0.0,0.0,-0.005366418941779042,0.005976718374701188,0.988983385139545
2013-07-17,1,0.00012299529537377002,0.0004121106423542035,-0.008026146092549336,0.005976718374701188,0.9875511780163088
2013-07-19,0,0.0,0.0,-0.00665762051550925,0.004540022444274258,0.9924973732290502
2013-07-23,0,0.0,0.0,-0.006496979894111243,0.005976718374701188,0.9913115107390525
2013-07-25,-1,-0.0014281594074389231,-0.001183496229686952,-0.006496979894111243,0.005647338748142895,0.9912826299750962
2013-07-29,-1,-0.001424285107164044,-0.0011586385564395039,-0.006496979894111243,0.004430229235421494,0.9914474213948634
2013-07-31,0,0.0,0.0,-0.007544224228355313,0.005842555815899121,0.9897173008895144
2013-08-02,0,0.0,0.0,-0.007544224228355313,0.004430229235421494,0.9902057598921229
2013-08-06,0,0.0,0.0,-0.007115988588952769,0.005362364861798816,0.9901685792689008
2013-08-08,0,0.0,0.0,-0.007115988588952769,0.005362364861798816,0.9900447425985666
2013-08-12,-1,-0.0005679557475098525,-0.0004904159644302935,-0.007115988588952769,0.008483126584291885,0.9896004924990212
2013-08-14,0,0.0,0.0,-0.006496979894111243,0.008822081872877429,0.9907878675758794
2013-08-16,0,0.0,0.0,-0.005224142183504744,0.011960571068408171,0.9903785187205258
2013-08-20,0,0.0,0.0,-0.005404342175207119,0.011960571068408171,0.9897259936735556
2013-08-22,0,0.0,0.0,-0.007766349603591316,0.011960571068408171,0.989662640929313
2013-08-26,-1,-0.0011545758271281257,-0.0007330826837558288,-0.00813784024411852,0.011960571068408171,0.9892677960881036
2013-08-28,0,0.0,0.0,-0.007766349603591316,0.011960571068408171,0.9904401574203623
2013-08-30,0,0.0,0.0,-0.00813784024411852,0.010189844086419021,0.9902760486894576
2013-09-04,0,0.0,0.0,-0.00813784024411852,0.011957832904313227,0.9903404939084164
2013-09-06,0,0.0,0.0,-0.00813784024411852,0.01284722069269528,0.9899578682043966
2013-09-10,0,0.0,0.0,-0.009751101820775003,0.01048539396118139,0.9880093178117091
2013-09-12,-1,-3.778304906779971e-05,-3.5095176220107844e-05,-0.0085942544487714,0.013320764425887614,0.9875191118214284
2013-09-16,1,0.00027790375638896364,0.00034051924685732046,-0.0085942544487714,0.01048539396118139,0.9880588723571921
2013-09-18,1,0.001503828823534822,0.0017291883433504835,-0.00813784024411852,0.008212884691581879,0.989842186223714
2013-09-20,1,0.0009954197903578738,0.0011401394020578732,-0.0069116460792309105,0.01048539396118139,0.9894594617445736
2013-09-24,1,0.0009327787404636008,0.0010959678441271829,-0.006674207065596851,0.013344579097684606,0.9890515694085393
2013-09-26,1,0.001747563997551652,0.0020436035955934194,-0.007881937407869218,0.012938513058478835,0.988673095219101
2013-09-30,1,0.0018698191015986418,0.002172480582371859,-0.007881937407869218,0.014241093461364861,0.9870303728971
2013-10-02,1,0.0016616963926528907,0.0019560249540074327,-0.009628970661721576,0.014241093461364861,0.9857244833635792
2013-10-04,1,0.0023096934052843155,0.0027032299692841028,-0.010207326283697792,0.009606375671592074,0.9858868073297318
2013-10-08,1,0.00046058927858715255,0.0005892860761207676,-0.007448188524815778,0.009606375671592074,0.9881132867958581
2013-10-10,1,0.0008650369811308415,0.0010168666846482094,-0.00832772401256126,0.007764528026249198,0.98805964082064
2013-10-14,1,0.0007137416057693966,0.0008286656065874375,-0.00832772401256126,0.009606375671592074,0.9868095678054448
2013-10-16,1,0.0008156402200961487,0.0009842382518750552,-0.00832772401256126,0.009606375671592074,0.9869968131415799
2013-10-18,1,0.001464972871885641,0.0017117580737424187,-0.00832772401256126,0.0084994186789781,0.9875765755180829
2013-10-22,1,0.0015339348110544996,0.0017712943769789206,-0.00832772401256126,0.0075831704254343355,0.988290896780416
2013-10-24,1,0.0011372356611405075,0.0012500231518882536,-0.006571041148842557,0.0075831704254343355,0.9886550883027581
2013-10-28,1,0.0018120113843032757,0.0020129308652886927,-0.006571041148842557,0.005810045763948812,0.9902628478949912
2013-10-30,1,0.0014544765206191098,0.0016064862693978598,-0.005737088857430517,0.005307034447046877,0.9917336422978633
2013-11-01,1,6.017402678086116e-05,0.000132966396482522,-0.005737088857430517,0.005307034447046877,0.9924111531066105
2013-11-05,1,0.00012544591615576477,0.00013147794992028524,-0.005737088857430517,0.005307034447046877,0.9924087607284292
2013-11-07,-1,-0.00030991184096234035,-0.0002294474838810939,-0.005534165095908784,0.00574529635262758,0.99294355129068
2013-11-11,1,0.0007026583105561509,0.0007182376562385087,-0.004733422932259093,0.004903725211126132,0.9939349065441462
2013-11-13,-1,-0.0009039900081099616,-0.0006649215810264215,-0.0060363886330256755,0.004126380661330794,0.9932012667045218
2013-11-15,-1,-0.0003623245853723793,-0.0002168501136204898,-0.007554811489329291,0.003625474728073857,0.9929175951811393
2013-11-19,-1,-0.0010139473866111332,-0.0007745392171265582,-0.007554811489329291,0.004126380661330794,0.9926241894627768
2013-11-21,-1,-0.0005837383152178512,-0.00039538048717416437,-0.007554811489329291,0.004126380661330794,0.9926573711238827
2013-11-25,-1,-0.0009195827253376353,-0.000733734537192768,-0.005191050197988082,0.004549958430477944,0.99312567026716
2013-11-27,-1,-0.0012199509233672126,-0.0010040917948334399,-0.005191050197988082,0.004549958430477944,0.9932867302298367
2013-12-02,-1,-0.0015990755735015862,-0.001362153858038599,-0.004124279381133153,0.006894142499935887,0.9933762964450801
2013-12-04,-1,-0.0014215411013422255,-0.0011859577168157414,-0.004124279381133153,0.004514547424079865,0.9937199872636836
2013-12-06,-1,-0.0005410282876220944,-0.0002735665663392236,-0.004124279381133153,0.004514547424079865,0.9935266317475564
2013-12-10,1,0.0005973948461447051,0.0006336590514306902,-0.004073368245891203,0.006894142499935887,0.9929956000614736
2013-12-12,-1,-0.0005570017522262109,-0.0003772489446067335,-0.0037833143879025203,0.008008657889804172,0.9930362833761529
2013-12-16,-1,-0.0007792789607853678,-0.0005732885449673106,-0.0017520924630167033,0.011050598970780586,0.9928561387034057
2013-12-18,-1,-0.00021306767660670903,-8.738069503419065e-05,-0.0017520924630167033,0.008008657889804172,0.9934085804584458
2013-12-20,1,8.411991263747748e-05,0.00017243975243939468,-0.002189073913888585,0.008008657889804172,0.992878986764213
2013-12-24,1,0.000564027994312453,0.0005821092146528386,-0.003680852736900494,0.007902424870609936,0.9917284847413901
2013-12-27,1,0.000576238818382113,0.0005984868069813092,-0.003680852736900494,0.007902424870609936,0.9915060486023128
2013-12-31,1,0.00022706065204936091,0.00024124622885051135,-0.006594133097000861,0.007126837085895083,0.9898312860558354
2014-01-03,1,0.00025384605444022886,0.0002791458006565333,-0.00922962522751913,0.007126837085895083,0.9883717272521726
2014-01-07,1,0.0002032314044844061,0.0002947694795046542,-0.011738677854274404,0.0058807851675267975,0.988812334775369
2014-01-09,1,0.00018611119641383906,0.0002938739503889208,-0.011738677854274404,0.007531372699804304,0.9876778233196288
2014-01-13,1,0.0009196842200886151,0.0009283792730330057,-0.011738677854274404,0.005913200547242494,0.9886619874309466
2014-01-15,1,0.0010850324911587318,0.0010992310011018708,-0.011738677854274404,0.009184786090322566,0.9875799257194698
2014-01-17,1,0.0014144800230112655,0.0014328213339149642,-0.011738677854274404,0.009184786090322566,0.9875631489135608
2014-01-22,1,0.0015613951424617648,0.0015683587398378721,-0.011738677854274404,0.006652300942478966,0.9883646112302928
2014-01-24,1,0.0006181218303034672,0.0006896901943588311,-0.0015571524347829766,0.006652300942478966,0.9897857205377806
2014-01-28,1,0.0007472945224575018,0.000812598677531484,-0.0015158224636050337,0.009995821557612805,0.9892280795524457
2014-01-30,-1,-0.0007050591836508665,-0.00047565942442648454,0.001227619573999206,0.009995821557612805,0.9901972564297952
2014-02-03,-1,-0.00149847327771893,-0.001181440526499496,0.0014650898462431475,0.015548517916736032,0.9902827417297244
2014-02-05,-1,-0.0017557330738678996,-0.0014068606732388152,0.001227619573999206,0.015548517916736032,0.9908991574987885
2014-02-07,-1,-0.00041573348280478996,-0.00025401706102409104,0.0008721501430254592,0.009995821557612805,0.9927586425356577
2014-02-11,1,5.168857854776076e-05,0.00011366320071342314,6.169625820945303e-05,0.009995821557612805,0.992867999679031
2014-02-13,1,0.0008127355860789542,0.0008378481989039488,-0.0017708773172313281,0.006609302479523047,0.9943759278155485
2014-02-18,1,0.0011586662267260139,0.0012027731892949706,-0.0017708773172313281,0.008377316268888444,0.994042651797888
2014-02-20,1,0.0014437482403498966,0.0015640974315356774,-0.0031158275710731634,0.006609302479523047,0.9936487454894195
2014-02-24,1,0.0015274909479111678,0.0016514772849972638,-0.005024762301268313,0.006609302479523047,0.9927945433556635
2014-02-26,1,0.0021715096553937665,0.0024042210799580946,-0.00619075328049488,0.0016920515027626583,0.9924891882076063
2014-02-28,1,0.0024749444481461883,0.0027635773621281223,-0.008091557071443557,0.0010239681517746255,0.9921493575767898
2014-03-04,1,0.0020006695470873954,0.002131024314620147,-0.008091557071443557,0.002563736252954068,0.9926407055557226
2014-03-06,1,0.002228254456333961,0.002396365104190694,-0.008091557071443557,0.003360693970319871,0.9926985246090264
2014-03-10,1,0.002567951862033651,0.0027828535004675832,-0.009395119977218093,0.002563736252954068,0.9908295062981543
2014-03-12,1,0.0021993285010509277,0.00239252683500327,-0.009395119977218093,0.005767269583507043,0.9907974565833227
2014-03-14,1,0.001904931977261578,0.0021024112224502893,-0.009663998846726671,0.005767269583507043,0.9898160910241128
2014-03-18,1,0.0023666337758031647,0.002634925020893386,-0.009663998846726671,0.0077958348538406125,0.989628928527303
2014-03-20,1,0.0018448541580346476,0.0020607236814812846,-0.008640592834738005,0.008321527546467148,0.989191471675768
2014-03-24,1,0.0019434302769296891,0.0022153865900925796,-0.007912267745939948,0.008771126559469555,0.9891073754749125
2014-03-26,1,0.0014789079291233835,0.0016229374691283656,-0.005352878975281643,0.008771126559469555,0.9892235278648979
2014-03-28,1,0.0008380244239928073,0.000860031311993342,-0.005352878975281643,0.008771126559469555,0.9889115422346398
2014-04-01,1,0.001434332440363441,0.0015434020308071638,-0.005352878975281643,0.0077958348538406125,0.9897482564001788
2014-04-03,1,0.0012733567221448689,0.0013122123149566138,-0.005352878975281643,0.0077958348538406125,0.9897061535848992
2014-04-07,-1,-0.000462020715527594,-0.0003306274402048167,-0.004873089742833889,0.0077958348538406125,0.9915927180643601
2014-04-09,1,0.000709753617723262,0.0007204124763906209,-0.006020853485709566,0.004859204247366725,0.9920552290044473
2014-04-11,-1,-0.0005331374010333603,-0.00041283205646203114,-0.004012137191128785,0.007815525073939062,0.9924564497282579
2014-04-15,-1,-0.00012320957611636077,-4.1882729320191834e-05,-0.006020853485709566,0.004859204247366725,0.9926464070363099
2014-04-17,1,0.0010860579226669742,0.001157038610540974,-0.006020853485709566,0.004859204247366725,0.9934842038119992
2014-04-22,1,0.0016242573021232475,0.0017499242112392792,-0.006020853485709566,0.00456014806750773,0.9942194547219945
2014-04-24,1,0.0011831248618487437,0.0012245144949075732,-0.006020853485709566,0.00456014806750773,0.9947656342966753
2014-04-28,1,0.0005254400394689254,0.0006067107373320758,-0.003642629954353502,0.004859204247366725,0.9949955208104515
2014-04-30,1,0.0006288739863946287,0.0007020484493904737,-0.003642629954353502,0.0055174971517698455,0.9947196417188002
2014-05-02,1,0.0010689551593088594,0.0010925331276323887,-0.005305689281423742,0.006450900481848474,0.9942874422295717
2014-05-06,1,0.0004675469573286218,0.0005104628152922713,-0.0022550649277979554,0.006450900481848474,0.9950281343725109
2014-05-08,-1,-0.0003424936137854483,-0.00014193024472861223,-0.0019580463116549997,0.006450900481848474,0.99549432345567
2014-05-12,1,0.0003569536753028702,0.0005281054052620466,-0.0019580463116549997,0.0028808387572002497,0.9966330955084347
2014-05-14,-1,-0.00022074526871593302,-3.1924363670772656e-05,-0.0019580463116549997,0.0028808387572002497,0.9967594860359352
2014-05-16,1,5.8161939604394006e-05,0.0001905902678947076,-0.0019384003285514925,0.002395673623015207,0.9970630217857336
2014-05-20,1,3.689147114297164e-05,0.00015840138047893326,-0.001632580801950494,0.002395673623015207,0.997045334836289
2014-05-22,1,5.871856992460992e-05,0.00019132914892708178,-0.0019360313543669676,0.0027153155210491555,0.9968247856151261
2014-05-27,1,0.0003702732217188115,0.0004592643734407344,-0.0016417575474485934,0.00262683084755819,0.9972937655994127
2014-05-29,1,0.0004306613277889083,0.0005179293520581298,-0.00196593056504579,0.00262683084755819,0.9972961321340572
2014-06-02,1,0.0009282603795556815,0.0009318772636519701,-0.00196593056504579,0.00262683084755819,0.9971605248526377
2014-06-04,1,0.0009425890260029966,0.0009728577356220888,-0.0021425601386900884,0.00262683084755819,0.99690814282869
2014-06-06,1,0.001116695110647623,0.0011990279788917325,-0.00290467367188849,0.00302987267875416,0.9962720676106767
2014-06-10,1,0.0012851847499981866,0.0013909497520517386,-0.0036710916718591642,0.0035243082412686278,0.9954454324216566
2014-06-12,1,0.000750527105261438,0.0008156460126535012,-0.00290467367188849,0.0035243082412686278,0.9952220332540797
2014-06-16,1,0.001155540061316557,0.0012874858888421046,-0.0036710916718591642,0.0035243082412686278,0.9952014799444162
2014-06-18,1,0.001023560092274499,0.0010425234667647265,-0.0036710916718591642,0.0035243082412686278,0.9929592890332701
2014-06-20,1,0.0011093868628025106,0.0011682447484633704,-0.0036710916718591642,0.004616144087760422,0.9929708390857561
2014-06-24,1,0.0012022811751001895,0.001226083050556376,-0.0036710916718591642,0.005935840704074472,0.9927115052227818
2014-06-26,0,-0.00023332835074070892,2.8416719902300608e-05,-0.003856140440223135,0.004616144087760422,0.992651084959383
2014-06-30,-1,-0.00029858775098625984,-1.0792055410846295e-05,-0.0046494536001306696,0.0033312818394655537,0.9928571839862197
2014-07-02,1,0.0003939047065152947,0.0005319606768672308,-0.006229411300696932,0.0033312818394655537,0.9919620783129778
2014-07-07,0,-6.36733757947833e-06,0.00016351537320654643,-0.005765925366134008,0.003736173059832635,0.9915295791734324
2014-07-09,1,0.0005675995054523314,0.0006133143390005001,-0.005765925366134008,0.003736173059832635,0.9910009018618591
2014-07-11,1,0.00029008813680187346,0.0003738954055997583,-0.005765925366134008,0.0059960284983187765,0.9907453286767022
2014-07-15,-1,-0.00015276886425546262,-4.6056146864428057e-05,-0.005765925366134008,0.006999552776173806,0.9906933317494345
2014-07-17,1,0.0014313693842622785,0.0015217060323641951,-0.005765925366134008,0.0059960284983187765,0.992670840618247
2014-07-21,1,0.001978714546177886,0.002178963269106892,-0.005765925366134008,0.006310367794258281,0.9925098932531791
2014-07-23,1,0.002072262176944062,0.002293301122805045,-0.005765925366134008,0.005586363244419764,0.992653309596838
2014-07-25,1,0.0019412369277428286,0.002184603422075817,-0.0038461718213916403,0.00681825982374198,0.9927462840699022
2014-07-29,1,0.0018289255789188776,0.0020825681069888006,-0.0016891904627013546,0.00681825982374198,0.9933313955955285
2014-07-31,1,0.0008897903693782263,0.0010492058639563625,-0.0004463982032949817,0.00681825982374198,0.9942727846429703
2014-08-04,1,0.0010973969569923214,0.0012491138503575242,-0.0004463982032949817,0.005586363244419764,0.9952860056941303
2014-08-06,1,0.0010533819619682884,0.0011901757499714945,-0.0004463982032949817,0.004846812717620044,0.9965142743180757
2014-08-08,1,0.0010579946246129413,0.0012143955008170587,-0.0004463982032949817,0.004065790773459125,0.9973568848259305
2014-08-12,1,0.0015578422472461387,0.001756825401275153,-0.0009190760857798217,0.003380072459493836,0.9973445056086492
2014-08-14,1,0.0013366471646244652,0.0014572969165976295,-0.0013917847402967764,0.003380072459493836,0.9967575962706876
2014-08-18,1,0.0015853217562724576,0.0017074023015411447,-0.001595731496679351,0.0029825816636502287,0.9966900466534063
2014-08-20,1,0.0014277326797579996,0.0015105513930502522,-0.001595731496679351,0.0031435727129628106,0.9962168467704764
2014-08-22,1,0.0020234005719047877,0.002221825904491894,-0.0017004005431682434,0.002951039652643335,0.9962325901148131
2014-08-26,1,0.002140374312762457,0.0023591874507104256,-0.0019063156142658127,0.003285446426473155,0.9956094054290412
2014-08-28,1,0.001256266489518262,0.0012670545490544602,-0.0025074091592982876,0.004327162172921498,0.9947112205025003
2014-09-02,1,0.0014608058396820807,0.0015205775446680996,-0.0035577299471309005,0.004327162172921498,0.9942759791057135
2014-09-04,1,0.0006926574967170304,0.0007863400109059893,-0.006507320745827938,0.004327162172921498,0.9930516939684862
2014-09-08,1,0.000875937418720854,0.0009333435886512416,-0.006507320745827938,0.00584645686315182,0.992675159373541
2014-09-10,1,0.0009667502185105716,0.000978388244580613,-0.007833083437642116,0.006395325198648798,0.9910669833929064
2014-09-12,1,0.001014473331913478,0.0010636154679369866,-0.007833083437642116,0.006395325198648798,0.9910099336191606
2014-09-16,1,0.0010937511368061795,0.001130973751426848,-0.011284229640149131,0.00724482921158737,0.9889043701044
2014-09-18,1,0.0011485361100067484,0.0011843999260913141,-0.011284229640149131,0.00724482921158737,0.9882794382890627
2014-09-22,1,0.0016525268360333479,0.0017242083464227597,-0.011284229640149131,0.011206540323805867,0.9870660696499852
2014-09-24,1,0.0019001562688940603,0.00198843303858083,-0.011284229640149131,0.011525687171766188,0.9859770384151846
2014-09-26,1,0.0013743140748703683,0.0013810431689282217,-0.007453668170807479,0.013074502910283633,0.9863090859014371
2014-09-30,1,0.000912155126118825,0.0009763987142309637,-0.00875487989524096,0.013074502910283633,0.9858377037627983
2014-10-02,1,0.00025331645786310904,0.000343689909727522,-0.007982733434281821,0.014026257313094566,0.9859996971333723
2014-10-06,1,3.067488444695053e-05,0.00017114847817759066,-0.007982733434281821,0.016075402208856976,0.9856554506331976
2014-10-08,1,0.00044003467546787126,0.0005388117478152435,-0.005330741265370909,0.014026257313094566,0.9869170261139348
2014-10-10,-1,-0.00023787782555789814,-3.678489781456867e-05,-0.004460413253316607,0.014026257313094566,0.9865674812921635
2014-10-14,-1,-0.002356466035592505,-0.001910255344866505,-0.0020160488498320267,0.014026257313094566,0.9879429916671985
2014-10-16,-1,-0.0011937579652385186,-0.0008873923957099494,-0.0020160488498320267,0.013074502910283633,0.9893835969201601
2014-10-20,1,0.00033772933378409394,0.00042344092228610824,-0.0021653483910918482,0.012139579457868767,0.9915139676603584
2014-10-22,1,0.001539771195759699,0.0015979945566680807,-0.0015509786926307667,0.009988399931529605,0.9929410248256704
2014-10-24,1,0.00195465573652507,0.002068497812971639,-0.0015509786926307667,0.008621247163724527,0.9933910450532555
2014-10-28,1,0.0006496537427238471,0.0006910771641816338,-0.0012694527055356418,0.008621247163724527,0.9938305590214105
2014-10-30,1,0.0008623844419909844,0.0008910233366674546,-0.0008931650678655589,0.008621247163724527,0.9941063930409566
2014-11-03,1,0.0014898599826914665,0.0015364629236059003,-0.0009429315816188328,0.006919156726748126,0.9946051889379081
2014-11-05,1,0.0018097751914397196,0.0018853605431316746,-0.0002580650781054297,0.006761688333777479,0.9949068201008356
2014-11-07,1,0.0022284171256213665,0.002364347386650911,-0.0009429315816188328,0.006173093871988399,0.9953311827391254
2014-11-11,1,0.0024028974219623975,0.0025636085573721005,-0.0015509786926307667,0.006173093871988399,0.9946660748419545
2014-11-13,1,0.0024869029868009734,0.0026578560842985266,-0.002308505362047041,0.006508980100399104,0.9920458320322838
2014-11-17,1,0.002586829588461446,0.002776156963506602,-0.0035164416932987417,0.006508980100399104,0.9917953409831506
2014-11-19,1,0.0028569565884709516,0.003087966362595084,-0.0035164416932987417,0.008490344807501788,0.9903256634164446
2014-11-21,1,0.003339131732482858,0.003624631556097941,-0.0035164416932987417,0.010868163195745817,0.9901318064521055
2014-11-25,1,0.0029335881536798466,0.003146812268000642,-0.0027285107322503636,0.010868163195745817,0.9905699470197674
2014-11-28,1,0.0034773252873524286,0.003740850263128846,-0.0027285107322503636,0.008490344807501788,0.9911386080005739
2014-12-02,1,0.003059145349117561,0.003241518178540286,-0.0027285107322503636,0.008490344807501788,0.9910753234634758
2014-12-04,1,0.003162520402579203,0.0033735410596452686,-0.003076861001423428,0.00721978326040801,0.9908185066815146
2014-12-08,1,0.0034291651612947628,0.0037015964640723896,-0.0029839036161036837,0.007434608283175456,0.9904945457519875
2014-12-10,1,0.0031810043874120533,0.0034262468098054414,-0.002623781946798795,0.012899066701949928,0.990043187214483
2014-12-12,1,0.003085075619555091,0.0033189148812721603,-0.0029839036161036837,0.007940904324225057,0.9915926255272592
2014-12-16,1,0.0025760635145289927,0.0027353634290369733,-0.0024537733671722997,0.007940904324225057,0.9919493143391623
2014-12-18,1,0.003567891389526526,0.0038363570285076007,-0.0029839036161036837,0.006244030303234424,0.9930866263282309
2014-12-22,1,0.003699795692447597,0.0039098383002550115,-0.0029839036161036837,0.0058496308583452904,0.9929616615216712
2014-12-24,1,0.003992890596648775,0.004260557628500664,-0.0034604384315479733,0.00550421307142846,0.9922766409094308
2014-12-29,1,0.003692771023507179,0.0039024019613698633,-0.005371557459912359,0.00550421307142846,0.9915184760018398
2014-12-31,1,0.0033765968591861683,0.0035574364120357317,-0.00539553248319383,0.008046946253392704,0.9909162053059112
2015-01-05,1,0.0031501650539874615,0.003312321453525933,-0.00539553248319383,0.008046946253392704,0.9913711350662519
2015-01-07,1,0.003499544475188862,0.0037129906154677278,-0.00539553248319383,0.008046946253392704,0.9917612627456236
2015-01-09,1,0.004461619544336106,0.004817282949201916,-0.008219093690127566,0.006564035430549571,0.9914772271130907
2015-01-13,1,0.0037142318411388497,0.003972616065150499,-0.005471593917217604,0.009488370290883988,0.9915373371319927
2015-01-15,1,0.003913375586905909,0.00420661786953124,-0.005471593917217604,0.012418481636535599,0.9909299258666854
2015-01-20,1,0.004113396026754498,0.004422696515058892,-0.004907624757750911,0.009970045946700845,0.9916145075403147
2015-01-22,1,0.004494087877216645,0.004850998681356249,-0.0052423128453319735,0.00911087628798445,0.9914762875707247
2015-01-26,1,0.0040708655373149685,0.004358952664758998,-0.004143704093265855,0.00911087628798445,0.9919541983620968
2015-01-28,1,0.003358811016866434,0.0035470815566833657,-0.001611447126813019,0.00911087628798445,0.9922047348038405
2015-01-30,1,0.003226218748090831,0.0033952711319455756,-0.001611447126813019,0.00911087628798445,0.9921316180383845
2015-02-03,1,0.003248382102499809,0.0034048806404043687,-0.0052423128453319735,0.00911087628798445,0.9911189082040104
2015-02-05,1,0.0035296956645322957,0.0036941352757175754,-0.007822964531607338,0.00911087628798445,0.9906852460834681
2015-02-09,1,0.002749894656892958,0.0028330637418143884,-0.007822964531607338,0.007853715821696616,0.9909759430549041
2015-02-11,1,0.003112291901868475,0.003270528043257915,-0.005531202538152172,0.007853715821696616,0.9915229682870255
2015-02-13,1,0.0036635249583287384,0.003874232019207365,-0.005531202538152172,0.007653581437264278,0.9918457984313811
2015-02-18,1,0.003946687122650832,0.0042014961130151076,-0.008877418273421462,0.0052873185625919635,0.9905649333099895
2015-02-20,1,0.003976420069194017,0.004207296420066755,-0.008877418273421462,0.007023672668036042,0.990447062421547
2015-02-24,1,0.0035885493227077953,0.003759418448652848,-0.008877418273421462,0.007023672668036042,0.9897353935775974
2015-02-26,1,0.00281675074218914,0.002828155323343323,-0.008877418273421462,0.007023672668036042,0.9893661966164797
2015-03-02,1,0.0030516627173406636,0.003063563018712349,-0.007894674391598336,0.008608899257969423,0.9901180432543988
2015-03-04,1,0.0021667206136467385,0.0022445224370754063,-0.007284921018916446,0.008608899257969423,0.9912757775318362
2015-03-06,1,0.0014487030233704176,0.0016366287346603991,-0.007224770688778882,0.00856118323656663,0.991795226846891
2015-03-10,1,0.00010266106971804838,0.0005686264108533577,-0.0070146486598995205,0.008945170438419484,0.9923994107416104
2015-03-12,1,0.0004151953022964233,0.0007674649803527943,-0.0070146486598995205,0.00856118323656663,0.9930706430035334
2015-03-16,1,0.0009448994267553788,0.0011793210208080464,-0.0070146486598995205,0.006594225336429743,0.9933322965568304
2015-03-18,1,0.0005268878146640256,0.0007492626157682681,-0.005594254961911727,0.006594225336429743,0.9931271088985146
2015-03-20,1,0.0014886805739870198,0.0016098619631418022,-0.006150087654814592,0.0030422792783549365,0.9936699685762354
2015-03-24,1,0.00026955882195472687,0.0005777594068230399,-0.005059195481117394,0.0030422792783549365,0.9945123924640706
2015-03-26,-1,-0.0008198208076964501,-0.00039931027150604003,-0.0028025186855471468,0.0030773012208344273,0.9954073909651798
2015-03-30,0,-0.00021736725546314423,0.0001031983398547704,-0.0031035314869202204,0.001984255801614635,0.9961156473333653
2015-04-01,0,-0.00023024224291737303,8.906581737657098e-05,-0.004481316963044089,0.001484479733430236,0.9957184634326647
2015-04-06,1,0.0001893236654477836,0.00042898977836868316,-0.004481316963044089,0.001484479733430236,0.9952216761031822
2015-04-08,1,0.0009602760802108372,0.0011101470651282714,-0.005244473045418349,0.0013534255658261083,0.9941906298880928
2015-04-10,1,0.001023548181705517,0.0011541758273650874,-0.005244473045418349,0.001995929782441132,0.9927685180428176
2015-04-14,1,0.0006361030989713945,0.0008195506634624876,-0.005244473045418349,0.0034507419526612973,0.9927246951190692
2015-04-16,0,-0.00015216979089568245,0.00012612427684552017,-0.0038050296798111164,0.007291656626979026,0.9932245428034188
2015-04-20,-1,-0.0005831321310233294,-0.00027879682671591664,-0.002981575746282371,0.007291656626979026,0.9935092499733995
2015-04-22,-1,-0.0007900590195285228,-0.00042557227471073174,-0.0038050296798111164,0.007291656626979026,0.9927002181247999
2015-04-24,-1,-0.0006495036513649137,-0.0003456082929738411,-0.0038050296798111164,0.007291656626979026,0.9927586099102416
2015-04-28,-1,-0.0008341801975772132,-0.0004898869849749611,-0.003527089620020933,0.010999098637139344,0.9923969156584301
2015-04-30,-1,-0.0012961237702272482,-0.0009288559812722682,-0.0028437409501166407,0.010999098637139344,0.9925252374072682
2015-05-04,-1,-0.001074555572566413,-0.0007340792524318739,-0.0028437409501166407,0.007291656626979026,0.9933993254972066
2015-05-06,-1,-0.002010966717433631,-0.0015572344907213724,-0.0028437409501166407,0.0051152138082567675,0.9935382062919722
2015-05-08,-1,-0.0011238680571099503,-0.0007555105745612042,-0.005967285437803106,0.0010857025138798688,0.9949994893372974
2015-05-12,-1,-0.0010927623657185415,-0.0007069743295797478,-0.005967285437803106,0.0010857025138798688,0.9945312084400421
2015-05-14,0,-0.00011220165948849596,7.073002082091798e-05,-0.006096670459328827,0.0006878340170183818,0.9946991988278786
2015-05-18,1,9.890329617694962e-05,0.00022976355671595645,-0.006507857754224145,0.0009202097565490402,0.9942765178616093
2015-05-20,-1,-0.00022011205593071694,-6.608035704231638e-05,-0.006096670459328827,0.001389103753918416,0.9946026494130197
2015-05-22,-1,-0.00046121992381859336,-0.0002794486485454984,-0.006096670459328827,0.0029402299319505744,0.9939789863799007
2015-05-27,-1,-0.0002176293222145607,-4.357835092464368e-05,-0.006507857754224145,0.001389103753918416,0.9940301763451366
2015-05-29,-1,-0.0006477779962063934,-0.0004101900228141228,-0.006507857754224145,0.002294717473322147,0.9941734037239803
2015-06-02,-1,-0.0007897121224506052,-0.0005689312745046526,-0.006757790322980016,0.002294717473322147,0.9931103372259775
2015-06-04,-1,-0.0006678388430064592,-0.000512219085503002,-0.006757790322980016,0.002652238160769845,0.9924815815619302
2015-06-08,-1,-0.001641963091996693,-0.0013273789903536452,-0.005665486734474649,0.009013533120287038,0.9918982460777238
2015-06-10,-1,-0.0009727438996683729,-0.0007462137419578594,-0.007705114715448493,0.005071401737774114,0.9918076397333409
2015-06-12,-1,-0.001277671503924627,-0.0010415353270300893,-0.007705114715448493,0.009013533120287038,0.9912439149310932
2015-06-16,-1,-0.001185731571209807,-0.000991665969793954,-0.00782494785655251,0.009013533120287038,0.9908825070978117
2015-06-18,-1,-0.002267911096271922,-0.0019760509514099543,-0.009066518594303154,0.009013533120287038,0.9872857930099999
2015-06-22,-1,-0.0023971270824095763,-0.002052450744066474,-0.009066518594303154,0.007911244742870983,0.9877159984336514
2015-06-24,-1,-0.002547402381134669,-0.002217094391839038,-0.009908637456771528,0.009462682308121088,0.9862210983908762
2015-06-26,-1,-0.0025812550239144826,-0.002257534033648231,-0.01131862086161662,0.009462682308121088,0.9860784278934347
2015-06-30,-1,-0.0030378278672211546,-0.002702629718103886,-0.009908637456771528,0.014960972174511634,0.984606687601641
2015-07-02,-1,-0.0023348273464497697,-0.002067937859214883,-0.007964173521673095,0.01330936869248809,0.9861319683679431
2015-07-07,-1,-0.0013666176793593675,-0.001235202679712982,-0.007964173521673095,0.009327028447426713,0.9871180977107533
2015-07-09,-1,-0.0014569091208136574,-0.0013639869358269352,-0.008160519486819765,0.009327028447426713,0.9871490000027432
2015-07-13,-1,-0.0007751227413021466,-0.0007684519388800727,-0.009136670786640034,0.009701440001587708,0.9868208152671415
2015-07-15,-1,-0.0008759724335140634,-0.0008600638020358306,-0.00934095507198698,0.00980175287079894,0.9867517310644994
2015-07-17,-1,-0.0005299914744263715,-0.00046451433743214545,-0.008827129327218497,0.010840749857158966,0.9900993331534236
2015-07-21,-1,-0.00048341764726714427,-0.0004468153094916014,-0.008827129327218497,0.012982129301649355,0.9894496933660575
2015-07-23,1,0.0005261219840439026,0.000743158710529862,-0.00934095507198698,0.010840749857158966,0.9884847496230151
2015-07-27,-1,-0.0011169728353902409,-0.001088599478445965,-0.010387215188458743,0.010840749857158966,0.9866256320374751
2015-07-29,1,0.0022410871298356276,0.0027153893793556154,-0.010817559226772399,0.00854887467787259,0.9859551293824299
2015-07-31,1,0.0016898272996461472,0.001970750054453914,-0.010817559226772399,0.010840749857158966,0.9855308573067634
2015-08-04,1,0.0018211121776233984,0.0021542012241595855,-0.013861087341258418,0.010840749857158966,0.9837394997342518
2015-08-06,-1,-0.0006348646874538893,-0.0005204918084013889,-0.013861087341258418,0.012867156255693525,0.9836863065046717
2015-08-10,-1,-0.0003655265107817287,-0.00026507073921288996,-0.013861087341258418,0.012867156255693525,0.9829880533090046
2015-08-12,1,0.0014272742211368875,0.001734891076654739,-0.018043559194670794,0.012867156255693525,0.9826228222961947
2015-08-14,1,0.0018378711953235944,0.002162125393068623,-0.018043559194670794,0.008901935303725364,0.9825331006653132
2015-08-18,1,0.0009386538292454606,0.0012171684667691973,-0.018043559194670794,0.001721635116303535,0.9833553563444178
2015-08-20,1,3.084598594937373e-05,0.00021603652563335159,-0.018043559194670794,0.007698513892030214,0.9848324532362785
2015-08-24,-1,-0.0010381244681259626,-0.0010254142422032805,-0.015040262030333412,0.007698513892030214,0.9858317349607316
2015-08-26,-1,-0.0008953298410739328,-0.0008776781787778083,-0.017348698925453054,0.001721635116303535,0.9863685657490098
2015-08-28,1,7.711358339275117e-06,0.0001631951147797128,-0.019816596094347258,-0.00011963634932590476,0.9855032848461801
2015-09-01,-1,-0.0016093055959979499,-0.0015404839205037375,-0.017348698925453054,0.001721635116303535,0.9865970876360094
2015-09-03,-1,-0.000745369183092098,-0.0006896634327320643,-0.017348698925453054,0.0025336085431196093,0.9847302748321198
2015-09-08,0,-4.0974327357707745e-05,2.306971502679227e-05,-0.018841997761271514,0.0025336085431196093,0.9846181821592951
2015-09-10,-1,-0.0012881875947894257,-0.001181529094125251,-0.018841997761271514,0.012116700878462446,0.9843580719426329
2015-09-14,-1,-0.0020783868487173674,-0.0018760385256670095,-0.018841997761271514,0.012116700878462446,0.9846734149274958
2015-09-16,-1,-0.002239863238600455,-0.002022481283414846,-0.018841997761271514,0.012116700878462446,0.9842220201994745
2015-09-18,-1,-0.002808306501009077,-0.0025243140939885033,-0.018841997761271514,0.017553007942004435,0.9832563364463746
2015-09-22,-1,-0.004785923133957156,-0.004240757749308346,-0.014752352076024213,0.017553007942004435,0.9842154997383823
2015-09-24,-1,-0.006044723659374367,-0.005348228514912952,-0.007948392071998605,0.01851780482162144,0.9834627064227668
2015-09-28,-1,-0.008178332044633826,-0.0072323117785741305,-0.005982276219813375,0.01851780482162144,0.9832611331376918
2015-09-30,-1,-0.0028369242507135105,-0.002758881665386749,-0.006585819124388375,0.020358211107441487,0.9839128463918277
2015-10-02,0,-0.0001906208531336171,2.8351494046728793e-05,-0.006585819124388375,0.020358211107441487,0.983584105972301
2015-10-06,1,0.00014436609390904118,0.00043670201433888074,-0.00526353140209081,0.020358211107441487,0.9848614779016683
2015-10-08,1,0.00119516548564066,0.0016168617785068129,-0.006537993352870489,0.013444535903388004,0.9858764507599065
2015-10-12,1,0.0010125569176579426,0.0013869049921760236,-0.006273439517684667,0.013444535903388004,0.9859031023706943
2015-10-14,1,0.0005794064693187481,0.0008804043433768603,-0.005747872499547983,0.013444535903388004,0.985963651972128
2015-10-16,-1,-0.0027557544430008084,-0.0025252368912797203,-0.005747872499547983,0.007296660255446302,0.9877033744300557
2015-10-20,-1,-0.003427550974702364,-0.00310714721561887,-0.004817090455097593,0.012506506448597196,0.9865759173878099
2015-10-22,-1,-0.0022914907413935934,-0.0020828615437529386,-0.003636107680183808,0.010818778343379064,0.9880519363031461
2015-10-26,-1,-0.0027632105276277036,-0.002481681351983251,-0.0027009821529061207,0.010818778343379064,0.9877218469822598
2015-10-28,-1,-0.003064667990564197,-0.002698192808241516,-0.002092500737689261,0.010593373152491765,0.9892979780503609
2015-10-30,1,9.558689601136337e-05,0.0001571582660737171,-0.002566762641015657,0.0054782409281480945,0.9941051993322867
2015-11-03,1,0.0004785721006766564,0.0005541935288943613,-0.0028795944790150014,0.005362905338497315,0.9937223172924621
2015-11-05,-1,-0.0001467385082289858,-0.0001427893551185416,-0.0028795944790150014,0.0055125098809312165,0.9916715232719848
2015-11-09,-1,-0.00013252690218285978,-9.933299075030886e-05,-0.0037292461123084836,0.0055125098809312165,0.9915883967989609
2015-11-11,-1,-6.378863938319581e-05,-1.763229405951351e-05,-0.0049480104669489865,0.005362905338497315,0.9914903330284133
2015-11-13,-1,-0.00017701982499023958,-0.00015942284283523421,-0.0049480104669489865,0.005441640673264294,0.9911634248525655
2015-11-17,1,0.001111397053265131,0.0012816114976748573,-0.0049480104669489865,0.005362905338497315,0.9915131286303764
2015-11-19,1,0.0005632179481893772,0.0006178461663676697,-0.012640307115192016,0.004509800836510498,0.9894559428118367
2015-11-23,1,0.001147121487513197,0.0012730253273480418,-0.012640307115192016,0.004204818158570376,0.9888037596711942
2015-11-25,1,0.0013967432185481034,0.0016098627543958636,-0.012640307115192016,0.005441640673264294,0.9876906596998056
2015-11-30,1,0.0009359181996597655,0.001021748771147801,-0.012640307115192016,0.005441640673264294,0.987755127933211
2015-12-02,1,0.000547617026113612,0.0006227529337927603,-0.011051797110964252,0.0035769213557301886,0.9877816475079941
2015-12-04,1,0.001167457602250927,0.0012106343723614708,-0.011051797110964252,0.0031939701044918466,0.9889786789505786
2015-12-08,1,0.0015151943554791505,0.0017269637545793848,-0.017783099181102206,0.0031939701044918466,0.9864613612034165
2015-12-10,1,0.0010724746035041355,0.0012143708853521204,-0.017783099181102206,0.0031939701044918466,0.9874282079839954
2015-12-14,1,0.000883802420292979,0.0010186394611489177,-0.019348378869663455,0.0031939701044918466,0.9866686494171795
2015-12-16,1,0.0014538934417564803,0.0016250521195496502,-0.019348378869663455,0.0031939701044918466,0.9869895317465696
2015-12-18,1,0.000601533981632134,0.0008246066066814662,-0.010984110502769517,0.005188680770121246,0.9879673465193225
2015-12-22,1,0.0011560127386288522,0.0013919605280753437,-0.010984110502769517,0.005188680770121246,0.9880287822871208
2015-12-24,1,0.001426597255140793,0.0017024608577220425,-0.013189836681113938,0.005188680770121246,0.9871406206580521
2015-12-29,1,0.0006900266108846743,0.0008609008715991136,-0.013189836681113938,0.0093053543491586,0.9864778295953927
2015-12-31,1,0.000701896916198159,0.0008638675693388533,-0.013189836681113938,0.012615979470970564,0.9861979148118801
2016-01-05,0,-3.41215743441847e-05,4.761319846432777e-05,-0.013855603331890533,0.01691629126919007,0.9845188375494317
2016-01-07,-1,-0.0014939732007015502,-0.0014318159762842099,-0.010540433194441867,0.01691629126919007,0.985543276183067
2016-01-11,0,-0.00020120398169291257,2.5578955193401214e-05,-0.01249596811716356,0.019199739168976535,0.9830483453325528
2016-01-13,-1,-0.0017360604880936254,-0.0016206227404870943,-0.01249596811716356,0.017725365661175753,0.9837820370162731
2016-01-15,-1,-0.0020053215740802825,-0.0017765497322221606,-0.01249596811716356,0.02209947723892283,0.9821351788884235
2016-01-20,-1,-0.001264082918247061,-0.00112029434517801,-0.016146054051235367,0.017725365661175753,0.9831380628577903
2016-01-22,-1,-0.00013167380595642382,-0.00011320409237156646,-0.016146054051235367,0.015334309458625494,0.9836242414449865
2016-01-26,-1,-0.001071320611795482,-0.0009021110827446986,-0.0129663004953646,0.014835103165128283,0.9841835950009957
2016-01-28,-1,-0.00015462386485174634,-0.00011318785190353571,-0.0129663004953646,0.022484292995745603,0.9828674449999626
2016-02-01,1,0.0007826051229384682,0.00092959361735539,-0.0129663004953646,0.022484292995745603,0.9821696642007393
2016-02-03,1,0.0008670903181012217,0.00095149898348831,-0.0129663004953646,0.020257615383382874,0.983132027501192
2016-02-05,1,0.0003381208511565302,0.00034332496377769014,-0.009946329471498514,0.020257615383382874,0.9834512499210509
2016-02-09,1,6.745720187193466e-05,0.00013127847716922145,-0.006975217532202624,0.018198463742026223,0.9861738392021835
2016-02-11,-1,-0.0009825414387479793,-0.000768548305339397,-0.004214090479548841,0.01893655464406479,0.9853065834288793
2016-02-16,0,-0.00017134373826801922,2.2104557664982013e-05,-0.004554698842436072,0.01796726956639957,0.9873271207514239
2016-02-18,-1,-0.0016843755141030578,-0.0012384238649650171,-0.003661830321846231,0.01796726956639957,0.9873061065468134
2016-02-22,-1,-0.0019210727527745456,-0.0013719961408641733,-0.004554698842436072,0.01796726956639957,0.9851991605251118
2016-02-24,-1,-0.0017319863095264212,-0.0012065652714836922,-0.003661830321846231,0.01796726956639957,0.9848711087334584
2016-02-26,1,0.00099993752051814,0.0010860153523563568,-0.004450649631953968,0.015314515099576414,0.9865703228273771
2016-03-01,1,0.002058944334993243,0.0020599342028444875,-0.004025987107432363,0.010653110137983899,0.9883145270763449
2016-03-03,1,0.0010946904145945698,0.0011214723161388754,-0.003398609819428405,0.011626735488344326,0.9896616601442588
2016-03-07,1,0.001477885050707223,0.0014919906463893495,-0.003398609819428405,0.00949462120427123,0.9904020003718963
2016-03-09,1,0.001217461688684134,0.0012553310950779496,-0.002192984390245645,0.01092352756110486,0.9899379711852413
2016-03-11,1,0.002222209042327452,0.0023015793193816507,-0.003512145940390815,0.00949462120427123,0.9904509001151797
2016-03-15,1,0.0016168466980824457,0.0016472121116011902,-0.0018429465440371463,0.010124473058099676,0.9903595648461235
2016-03-17,1,0.0022788405996944524,0.002400550135855939,-0.0024855808244642202,0.00938003003876057,0.9904553319261691
2016-03-21,1,0.0005556465880758492,0.0006712926174409059,-0.0018429465440371463,0.00938003003876057,0.9929025047086752
2016-03-23,1,0.0010241069230477401,0.0010386163519229773,-0.0024855808244642202,0.007348079412144646,0.9938841944357582
2016-03-28,1,0.0026831368033753173,0.003025921474558839,-0.0018429465440371463,0.006600297780036745,0.9945433802236423
2016-03-30,1,0.002988598640961222,0.0033792167094180946,-0.0018429465440371463,0.006600297780036745,0.9946677902896432
2016-04-01,1,0.003094573101317423,0.0034964070901502926,-0.005259596200444939,0.006001572176716419,0.9928983533447653
2016-04-05,1,0.002981191633966586,0.0033425721373845163,-0.005259596200444939,0.006600297780036745,0.9928278360415957
2016-04-07,1,0.003545441419575474,0.00396466604923927,-0.005259596200444939,0.005778909141706904,0.9929588581932933
2016-04-11,1,0.0032663134271486488,0.003642481333009835,-0.002577652558997604,0.00559547278876272,0.9939743338376783
2016-04-13,1,0.00401782766142501,0.00451922321355221,-0.005037872274229416,0.00559547278876272,0.9934222238792535
2016-04-15,1,0.003942436302291555,0.004465228032004172,-0.005037872274229416,0.00559547278876272,0.9933302182340231
2016-04-19,1,0.004289244435948021,0.004863933836104276,-0.007052986263001674,0.005778909141706904,0.9918766906692299
2016-04-21,1,0.003990397095723125,0.0045455759989279036,-0.007052986263001674,0.0056083705221333935,0.9914979369686255
2016-04-25,1,0.004148340809909388,0.004720911618836867,-0.007052986263001674,0.006007718180360901,0.991396989271025
2016-04-27,1,0.003900195108914623,0.004411939759721033,-0.007052986263001674,0.006007718180360901,0.991278733557733
2016-04-29,1,0.002519357895674955,0.0028423072149867876,-0.005404817667860174,0.007475564006521083,0.9925917361768545
2016-05-03,1,0.0025512608732906,0.0028650056282391186,-0.005404817667860174,0.006007718180360901,0.9927007563328347
2016-05-05,1,0.002201247665289848,0.0024378152189670397,-0.005404817667860174,0.006007718180360901,0.9927011597099392
2016-05-09,1,0.002211417376545244,0.002423010487655878,-0.005404817667860174,0.007683238906908507,0.992595509830257
2016-05-11,1,0.0027344630895656495,0.003051321821058206,-0.005637412942712567,0.005605901386602944,0.9928918798297383
2016-05-13,1,0.0017789796628569776,0.001861530621353922,-0.0038837984809679225,0.004554100766239947,0.993465656468783
2016-05-17,1,0.0019675834886666702,0.0021088235453700687,-0.003697784861271077,0.002902438306348574,0.9946921417043241
2016-05-19,1,0.001655232143407229,0.0017693542256386999,-0.0033900353793639435,0.002902438306348574,0.995067850361267
2016-05-23,1,0.0020091143238368213,0.0021645346110221704,-0.003697784861271077,0.0023766789964413063,0.9949467468861595
2016-05-25,1,0.0016190306501382297,0.001661901286474886,-0.003697784861271077,0.0028852067595066446,0.9949014213129008
2016-05-27,1,0.0011999896865746813,0.0012357776023278677,-0.004936139374333893,0.0023766789964413063,0.9944755019230218
2016-06-01,0,-0.0002203884980242121,8.780184427772681e-05,-0.004936139374333893,0.0028852067595066446,0.9932854522086216
2016-06-03,-1,-0.0004411897851913306,-0.0001033150785464252,-0.004936139374333893,0.004502406125714158,0.9930112198739162
2016-06-07,-1,-0.0008973023298912734,-0.0005420667720040315,-0.004936139374333893,0.004502406125714158,0.9924967771255097
2016-06-09,-1,-0.0011819473125709121,-0.0007846697550156591,-0.003613596890986129,0.007883359663212061,0.9919448553209034
2016-06-13,-1,-0.0012993242381089969,-0.0009087796711453157,-0.004386476897020891,0.007883359663212061,0.9917311041177966
2016-06-15,-1,-0.001179090709205065,-0.0008266639973304601,-0.003789948428290788,0.007883359663212061,0.9917599978791486
2016-06-17,-1,-0.0017749018053733903,-0.0013406546811614477,-0.002417765323881436,0.007883359663212061,0.9916389757770178
2016-06-21,-1,-0.002127882691901013,-0.0016383259916271473,-0.0013785167187951905,0.008821108011656302,0.9911090354436713
2016-06-23,-1,-0.0014652848852159174,-0.001107032741756437,-0.0013785167187951905,0.010061869483285616,0.9880724927019884
2016-06-27,-1,-0.002444871082272557,-0.001985605204581087,4.6298523248466104e-05,0.010061869483285616,0.9881911675332635
2016-06-29,-1,-0.0013659334241098542,-0.0010265052857458962,-0.0013692701570471295,0.010061869483285616,0.9896519722993369
2016-07-01,-1,-0.0013877649087442048,-0.0010230217444119909,-0.0020576960572390337,0.008287109499802502,0.9896739491383514
2016-07-06,-1,-0.0012839946785991394,-0.0008897285130988364,-0.0020576960572390337,0.008287109499802502,0.9900452775552306
2016-07-08,1,0.00018796789321481189,0.0003399219955594022,-0.002791229900502004,0.0058159818513695205,0.9910184505893094
2016-07-12,-1,-0.00041765368559444345,-0.00016409835976731175,-0.005596980294942855,0.0058159818513695205,0.9905591370247637
2016-07-14,-1,-0.0003214989625979701,-9.180139586501251e-05,-0.005596980294942855,0.0058159818513695205,0.9905811451836325
2016-07-18,-1,-0.0002478965456594462,-3.9669233588333344e-05,-0.005596980294942855,0.0058159818513695205,0.9906089222338768
2016-07-20,1,0.0010443826177240086,0.0010639660609135324,-0.007795089509209204,0.00434265703390185,0.9897367469978106
2016-07-22,-1,-0.0003468785536858806,-0.00024483170311289293,-0.007685999105270619,0.0034154125718051515,0.993507128099389
2016-07-26,-1,-0.001152970709426882,-0.0009012272596676355,-0.005596980294942855,0.0034154125718051515,0.9936030198957682
2016-07-28,-1,-0.0003532388049137518,-0.00021729214863632732,-0.0077233443616863285,0.002126692834404942,0.9938621242601053
2016-08-01,-1,-0.0005816985442123545,-0.00040989516400947995,-0.005596980294942855,0.0020706275791215613,0.9943296258663661
2016-08-03,1,0.000481356739820672,0.0004867407344902613,-0.008085252699231047,0.001314338981387373,0.9943427546062054
2016-08-05,1,0.00014664981700706237,0.000195419450433007,-0.008085252699231047,0.003064954186169413,0.9942782470693666
2016-08-09,-1,-0.00017626477005538735,-0.00011271826742657303,-0.003485184442849507,0.0034154125718051515,0.9946593069379942
2016-08-11,-1,-0.0009706908239791819,-0.0007414700480031894,-0.010587717842114366,0.003064954186169413,0.9929828385746472
2016-08-15,-1,-0.0004040854525396906,-0.0002936507730886674,-0.011547478193809833,0.0034414598678541236,0.991236555087113
2016-08-17,-1,-0.0013554331288964812,-0.0011371340318219534,-0.0060198645979159604,0.004267401313485899,0.9920270048295916
2016-08-19,-1,-0.001318523974436579,-0.0011070792501310877,-0.01009581389922629,0.004267401313485899,0.9918784925664718
2016-08-23,-1,-0.0007260013648025738,-0.0006014219640235511,-0.01009581389922629,0.00495193133814849,0.9915564761094996
2016-08-25,-1,-0.0012811979319571295,-0.0010891169294703997,-0.005897291025860013,0.005622830684815609,0.9913221197617869
2016-08-29,-1,-0.0008790537061297199,-0.000763743165286198,-0.009622291624778009,0.006195421450745394,0.9907920557878469
2016-08-31,-1,-0.0010615647796071823,-0.0009362465504282858,-0.009622291624778009,0.006195421450745394,0.9904966664375918
2016-09-02,-1,-0.0005622794246874705,-0.0005085848679735047,-0.009622291624778009,0.006195421450745394,0.9908212830106863
2016-09-07,-1,-0.0005708477978850169,-0.0005137848573652403,-0.010219997125946522,0.006195421450745394,0.990222235860688
2016-09-09,-1,-0.0017640052133745918,-0.0015786947808012542,-0.009622291624778009,0.0069151529556120625,0.9910027798689356
2016-09-13,-1,-0.0017252406832171053,-0.0015410313743537012,-0.009622291624778009,0.0069151529556120625,0.991913176480083
2016-09-15,-1,-0.0012082417262133972,-0.0010956910906491032,-0.009622291624778009,0.006362832498192331,0.9920386878866801
2016-09-19,-1,-0.0015145985413831872,-0.0013663907967452764,-0.005326665530458616,0.006362832498192331,0.9920744619992206
2016-09-21,-1,-0.0015856247573937587,-0.0013749298642316905,-0.005326665530458616,0.005019838406883277,0.9926239188562203
2016-09-23,-1,-0.0009551057292353206,-0.0008272471044651959,-0.005326665530458616,0.005076459172337675,0.9924347492803586
2016-09-27,-1,-0.0009898436677297732,-0.0008581624204783055,-0.0060252458782083336,0.004692617007357559,0.9882270336123682
2016-09-29,-1,-0.001072425826397211,-0.000946032267465956,-0.00458537913594344,0.005076459172337675,0.98835644627023
2016-10-03,-1,-0.0010456558632118693,-0.000932199222584514,-0.007802936510161173,0.005076459172337675,0.987920099941054
2016-10-05,-1,-0.0013774433373336908,-0.0012239558605812513,-0.007802936510161173,0.006179231983972207,0.9876819188592542
2016-10-07,-1,-0.0016329644943603129,-0.0014497421257600321,-0.004604354970687742,0.005076459172337675,0.9885305234881402
2016-10-11,-1,-0.001912109416641225,-0.0016808269973791314,-0.003940109744199401,0.006179231983972207,0.9873349983288112
2016-10-13,-1,-0.0015156350518251962,-0.0013500284363440476,-0.003940109744199401,0.009753250407139993,0.9853780545136612
2016-10-17,-1,-0.001541280905913663,-0.00136857463829111,-0.004604354970687742,0.009753250407139993,0.9848831512711492
2016-10-19,-1,-0.001272921895681671,-0.001135326147162675,-0.007802936510161173,0.010678964974595227,0.9843133512829514
2016-10-21,-1,-0.0007309127251732823,-0.0006558709978626326,-0.009806545873869307,0.00799674890947687,0.9849236872099137
2016-10-25,-1,-0.0031905242702868894,-0.002828897801681181,-0.007208032933822571,0.011694202807515165,0.9877301644252672
2016-10-27,-1,-0.002951602656820211,-0.002633401799653829,-0.005272224758590453,0.014383627153338855,0.9870110485004584
2016-10-31,-1,-0.0031474066785764144,-0.002806962335042848,-0.00358101718295485,0.014383627153338855,0.9869620059633646
2016-11-02,-1,-0.0034478015779489946,-0.003070482037550953,-0.005272224758590453,0.014383627153338855,0.9865608563717274
2016-11-04,-1,-0.0033277263482466386,-0.002966252139498883,-0.004894156362601601,0.014383627153338855,0.9865692104937585
2016-11-08,-1,-0.002322750315363813,-0.00207068916039219,-0.004894156362601601,0.010554583974143683,0.9881176155354264
2016-11-10,-1,-0.000951317106728295,-0.0008580451648966636,-0.004894156362601601,0.009041266274193669,0.9906051063849594
2016-11-14,-1,-0.000959972766176111,-0.000873517922122434,-0.003671536599005518,0.009041266274193669,0.9913222100480359
2016-11-16,-1,-0.0015595188575911647,-0.0013661932774587148,-0.003671536599005518,0.008644609090643504,0.9916080474823505
2016-11-18,-1,-0.001071431832569221,-0.000982367174875914,-0.003671536599005518,0.009528146063273814,0.990969334069202
2016-11-22,0,-2.8744982297485277e-05,2.7105717040091615e-05,-0.005741969257177491,0.008644609090643504,0.991271189785038
2016-11-25,1,0.0008014890774138455,0.0009975785649560627,-0.005741969257177491,0.006326143783861479,0.991749318401783
2016-11-29,1,0.00124795969068105,0.001536978624897053,-0.008228415524323882,0.005255777816640246,0.9917756890483299
2016-12-01,1,0.00040258100265379824,0.0005793386718838119,-0.005149978665528503,0.005255777816640246,0.9933318976673096
2016-12-05,1,0.0005601517519801998,0.0007644058435497988,-0.005149978665528503,0.007014878550751705,0.9923837918158609
2016-12-07,1,0.0009728783551820013,0.001238568563175009,-0.005149978665528503,0.007014878550751705,0.9924338880963312
2016-12-09,1,0.0013882524227448708,0.0017394359810481957,-0.005149978665528503,0.007014878550751705,0.9926220566513537
2016-12-13,1,0.0006157044224546404,0.0007878648370344228,-0.004674512020121016,0.008344711569320366,0.9921166038044352
2016-12-15,1,0.0004625869400747476,0.0006130894229436749,-0.00286848169326872,0.008344711569320366,0.9925163512175827
2016-12-19,1,0.0008588393546279657,0.0010896189299011783,-0.00286848169326872,0.00808691605867732,0.9926652368611802
2016-12-21,1,0.0011449063712617195,0.0014148874490932822,-0.0012672040150791782,0.007014878550751705,0.9940484983382625
2016-12-23,1,0.0015000060468318194,0.0018407215899432928,-0.0012672040150791782,0.007367026822296502,0.9935871501192596
2016-12-28,1,0.0011633207501145749,0.0014395974906731626,-0.0008030678384762086,0.009217118269010586,0.9903620329856334
2016-12-30,1,0.0008741370881940942,0.0010902461953527123,-0.0009213804693129713,0.009217118269010586,0.990564118438304
2017-01-04,1,0.001626582640808775,0.0019510843957410283,-0.0015581023817475429,0.008136543351397348,0.9910305866634685
2017-01-06,1,0.001855638290256474,0.002209744887466435,-0.002783221357737084,0.0060766095333641135,0.9909936477505445
2017-01-10,1,0.0014774236732725714,0.0017398882240512988,-0.002783221357737084,0.008136543351397348,0.9907631187453203
2017-01-12,1,0.001864984399891283,0.0021794816649052732,-0.002783221357737084,0.0060766095333641135,0.9913973557970152
2017-01-17,1,0.0020734580277299666,0.0024316820048339177,-0.0017457507204384631,0.008136543351397348,0.9912873031654641
2017-01-19,1,0.001765244460017806,0.002060108681898821,-0.0003519653946147824,0.004999548958137592,0.9922723298256747
2017-01-23,1,0.0018383380979875958,0.0021434140825677865,-0.0003519653946147824,0.004999548958137592,0.9921433426798493
2017-01-25,1,0.001653234383065335,0.001919029750775036,-0.0004470363267565409,0.0038348054040477832,0.9926405219192631
2017-01-27,1,0.003454020639554697,0.003969131241836643,-0.0017457507204384631,0.0038348054040477832,0.9950995720906599
2017-01-31,1,0.0032879958638024217,0.003778972453201157,-0.0014818222488113667,0.004999548958137592,0.9944100033607961
2017-02-02,1,0.002612021258713791,0.002952419902003743,-0.003830091185759332,0.0038348054040477832,0.994420699733496
2017-02-06,1,0.0023344512111201955,0.0026326769396555006,-0.0025894320673214895,0.0038348054040477832,0.9945825171642578
2017-02-08,1,0.0026200669422547763,0.002967145120631759,-0.0027358553363131793,0.003714842874409373,0.9946948251644753
2017-02-10,1,0.002460459900615157,0.0027679765932960825,-0.0027358553363131793,0.0038348054040477832,0.9946637105285099
2017-02-14,1,0.002781578864209122,0.0031508041624998735,-0.003830091185759332,0.0038348054040477832,0.9943452833193152
2017-02-16,1,0.002972695687764105,0.0033851706776158847,-0.004384872618241811,0.0041803435938500295,0.9939532455323019
2017-02-21,1,0.00293801068676282,0.0033398824977750145,-0.005416311156207326,0.0023762034184764743,0.9929350440561956
2017-02-23,1,0.002505363826318553,0.0028238571731981628,-0.004384872618241811,0.005732094866247037,0.9930422130815455
2017-02-27,1,0.0023618571022494253,0.002651004426845926,-0.004092876214738491,0.0023762034184764743,0.993403995420378
2017-03-01,1,0.002442850488835326,0.0027217944717921024,-0.004007229818918564,0.0022017359611540503,0.9943568842996814
2017-03-03,1,0.0020171585240517757,0.0022189876024379194,-0.0031870443654647075,0.0022017359611540503,0.995103779842313
2017-03-07,1,0.0017694724990343696,0.0019276176086373724,-0.004007229818918564,0.0022017359611540503,0.9951455735265602
2017-03-09,1,0.0017221375732079068,0.0018796004852784252,-0.004007229818918564,0.00407324953833225,0.9952625339649852
2017-03-13,1,0.001727877479596341,0.001882514447285221,-0.004007229818918564,0.00407324953833225,0.994923664337261
2017-03-15,1,0.0017577913272780635,0.0019211055808747118,-0.003919876086012967,0.0031507380060659994,0.9955762955450256
2017-03-17,1,0.0019479512624260356,0.0021594883517451497,-0.003919876086012967,0.0031507380060659994,0.994908770647624
2017-03-21,1,0.00029814489582905376,0.0004579277120008852,-0.0026596113199676063,0.0031507380060659994,0.9961124247657069
2017-03-23,1,0.0003290526585762057,0.00047857883148100597,-0.0012021855429079121,0.0031507380060659994,0.9948143859016602
2017-03-27,0,-0.000185389788271403,4.653000112241751e-05,-0.00023468668626570709,0.005589450437499581,0.9939441237067532
2017-03-29,-1,-0.0004987977408573062,-0.00021690207007945704,-0.00022953917618522945,0.008174375962559042,0.9934562343265461
2017-03-31,-1,-0.0007216238391640082,-0.00040459626416051433,-0.00122202220937766,0.008174375962559042,0.9930692962309777
2017-04-04,-1,-0.00044799241379697154,-0.0002053100386357463,-0.0009319285463198516,0.008174375962559042,0.9929556308581874
2017-04-06,1,0.00038981139869000977,0.00046409222140328556,-0.0012079548767910781,0.008691478052747741,0.992766245691466
2017-04-10,1,0.0002630622636732782,0.000364270999329105,-0.0011817115100281237,0.008491434080418579,0.9931870541826804
2017-04-12,1,0.00013108995171006593,0.0002607749957238783,-0.0016676146891778428,0.008491434080418579,0.9927619533066947
2017-04-17,-1,-0.00029933682191217903,-0.00010706356100163394,-0.0016059959031415128,0.007259561512664658,0.9937977037788245
2017-04-19,1,0.00012976283538995676,0.00023098615644882072,-0.0018247420955756835,0.009036330767862678,0.9921752128476063
2017-04-21,1,0.001394112719735518,0.001471202631785637,-0.0018247420955756835,0.008487703099564838,0.9935182309548491
2017-04-25,1,0.0018041812235744905,0.0019371507300326514,-0.0021702549983321057,0.004220294999971755,0.9940511619760125
2017-04-27,1,0.0013930317295679016,0.0014198547383228494,-0.0021702549983321057,0.0035881330925604583,0.9946870268713318
2017-05-01,1,0.0010246365979214415,0.001046382359801259,-0.0016059959031415128,0.0035881330925604583,0.9951866747587127
2017-05-03,1,0.0011484531564470303,0.0011514382502816692,-0.0018247420955756835,0.0035881330925604583,0.9939865654877281
2017-05-05,1,0.00137041634851179,0.0013960198125198922,-0.002199208814186939,0.0035881330925604583,0.9933243226900339
2017-05-09,1,0.0011414867338332088,0.001157586093168256,-0.00349308302909562,0.0035881330925604583,0.9930738261184133
2017-05-11,1,0.0005532533214634747,0.0006542452725153595,-0.0020143524560779485,0.008487703099564838,0.9919654029589838
2017-05-15,1,0.00038034642821787944,0.0005003077613048297,-0.00349308302909562,0.010440973304829753,0.9906453503594431
2017-05-17,0,-9.447545177505249e-05,7.45405126376236e-05,-0.0029195486343159575,0.010094452849353138,0.991958026282542
2017-05-19,1,0.00010580567491129904,0.00025024951704266093,-0.0029195486343159575,0.01564124314121585,0.9915122402204677
2017-05-23,-1,-0.0002114786609656612,-1.6133562333861757e-05,-0.00394760924496229,0.01564124314121585,0.9912302688321863
2017-05-25,-1,-0.00030523148738106627,-8.697882456026027e-05,-0.00394760924496229,0.01564124314121585,0.9911581189911705
2017-05-30,1,5.4420021877323694e-05,0.00020090586431174704,-0.00394760924496229,0.01564124314121585,0.9909266013835362
2017-06-01,1,0.00031634084969190074,0.00042414989307737477,-0.00394760924496229,0.009825179331126024,0.9909352407620388
2017-06-05,1,0.00039989694943239133,0.0005067078206448792,-0.003721583481759415,0.006971575531326639,0.9917578972670583
2017-06-07,1,0.0003406116083845381,0.0004368908917193833,-0.0038613426381793464,0.006971575531326639,0.991571877283256
2017-06-09,1,0.001172174716532792,0.0011730400401113667,-0.0038613426381793464,0.006333550171277657,0.9928201886382115
2017-06-13,1,0.0009587466284935371,0.0009946881786071084,-0.0034206612356559377,0.006333550171277657,0.9938574653360819
2017-06-15,1,0.000696840452698656,0.0007651430106300761,-0.0029171256574686976,0.006333550171277657,0.9939199395202638
2017-06-19,1,0.0008178024284334693,0.0008680617088135849,-0.0034569059222991525,0.006333550171277657,0.994378057526753
2017-06-21,1,0.002177252623374567,0.002364110378018585,-0.0034569059222991525,0.006333550171277657,0.9934937958856992
2017-06-23,1,0.0020140533808754744,0.0021698948011134103,-0.0034569059222991525,0.005520684678830651,0.9936264543679473
2017-06-27,1,0.0019427543235909662,0.002084592188069648,-0.0038201667405085805,0.004817872415119903,0.9936452538042054
2017-06-29,1,0.001281687619999305,0.001317209515344754,-0.00464058168347748,0.004053842884616363,0.9938799314825717
2017-07-03,1,0.0013808864886843194,0.001442931009072107,-0.0049712268699186974,0.0038463552790954716,0.9935334128047778
2017-07-06,1,0.0010264274893544952,0.0010431450715607015,-0.005704285216972617,0.0038463552790954716,0.99361334010192
2017-07-10,1,0.00126664145526997,0.001329759695481155,-0.005704285216972617,0.0037394721697387415,0.9936550560111477
2017-07-12,1,0.0015547375468253444,0.0016579019370617384,-0.006493774577422315,0.0032643460013785028,0.993263466872455
2017-07-14,1,0.001557107106051018,0.0016625358163756916,-0.009079155701334326,0.0019940983683274047,0.9928364279895621
2017-07-18,1,0.0014342845795122308,0.0015058564350640042,-0.009655803905709298,0.0019940983683274047,0.9918978008265864
2017-07-20,1,0.000661952602867179,0.0006925093080316135,-0.009655803905709298,0.001862193941870927,0.9929303431127958
2017-07-24,1,0.0009472183593454112,0.0009724170109175525,-0.009655803905709298,0.0017096802036927193,0.9928990402276905
2017-07-26,1,0.000510846360766552,0.0005605342227527363,-0.009922687339856101,0.002128382383928028,0.9915043604525524
2017-07-28,-1,-0.0005010339038845888,-0.0003235411371424927,-0.009168116846049927,0.0027178280249191287,0.9924702950915179
2017-08-01,-1,-0.0011427926172157946,-0.0008861155702683788,-0.009168116846049927,0.0027178280249191287,0.9923978950649013
2017-08-03,-1,-0.0014604835859233444,-0.0011703048222261123,-0.0066429679130019185,0.005209011833885719,0.9917895595006669
2017-08-07,-1,-0.0014611961090191692,-0.0011721584387286623,-0.0066429679130019185,0.00985499252507954,0.9910799397838809
2017-08-09,-1,-0.0013617006678439108,-0.0010853194093788253,-0.009697482373830082,0.005650456856249275,0.9912001783568836
2017-08-11,-1,-0.0022226462052775697,-0.0018124851090764531,-0.006795475900432693,0.011251652481217744,0.9902277064591775
2017-08-15,-1,-0.0020393665266775574,-0.0016633327836593997,-0.006795475900432693,0.009147017303593633,0.990948687251803
2017-08-17,-1,-0.0025221074437866194,-0.002080592683851761,-0.006795475900432693,0.009147017303593633,0.990763253549894
2017-08-21,-1,-0.0025485229366161866,-0.0021050548519298386,-0.006795475900432693,0.009393900489822752,0.9903843341119861
2017-08-23,-1,-0.0019772544041370974,-0.0015974521194537074,-0.004279312524048186,0.009393900489822752,0.9912180052473409
2017-08-25,-1,-0.0018475860637778589,-0.0014696247881805236,-0.004279312524048186,0.008702214960690388,0.9914284612706818
2017-08-29,-1,-0.0024662456774213228,-0.002022799853584142,-0.004279312524048186,0.008702214960690388,0.9916894552488633
2017-08-31,-1,-0.001850909345068531,-0.001480480474442223,-0.004279312524048186,0.008702214960690388,0.9916377870561208
2017-09-05,-1,-0.00129543149927577,-0.0009898681385124793,-0.004279312524048186,0.008702214960690388,0.9904072946860489
2017-09-07,-1,-0.0019173716849966358,-0.0015425637384373653,-0.0006744978872664264,0.009848314155908599,0.9898790339904503
2017-09-11,-1,-0.001184235164411315,-0.0008983475362249134,-0.0017599799399440896,0.009061130915779841,0.9908693558947503
2017-09-13,-1,-0.0005718634354867731,-0.0004121204013206057,-0.0011683504523250887,0.009061130915779841,0.9916491614955218
2017-09-15,-1,-0.0008302990587780283,-0.0006718830778690722,0.00016470596461346817,0.009061130915779841,0.991866314090194
2017-09-19,-1,-0.00039314677429279663,-0.00030791279190875854,-0.0007475248470599954,0.00790342143085892,0.992325142989218
2017-09-21,1,7.791362557045271e-05,0.0001246831242134613,-0.0007475248470599954,0.007068390263253574,0.9928414488516728
2017-09-25,1,0.00036411931247643827,0.00037118191208671317,-0.0019453561024483654,0.00670362891198028,0.9925645972087787
2017-09-27,1,0.0003448145250954516,0.0003552647046612214,-0.0007475248470599954,0.009128732036866555,0.9921799004806188
2017-09-29,1,0.0010428111696980632,0.0011440744446487108,-0.0007475248470599954,0.009128732036866555,0.9930691996828215
2017-10-03,1,0.00222645156684934,0.0024593338203853787,-0.0019453561024483654,0.006785544172480246,0.9950276531996611
2017-10-05,1,0.002541172677419081,0.002806685925942715,-0.003672697608011483,0.005945341914748397,0.9951829757489931
2017-10-09,1,0.0022616591641280866,0.0024552822653940644,-0.0038611891833822314,0.005945341914748397,0.994805698135051
2017-10-11,1,0.002375220785230954,0.002601804960359197,-0.0038611891833822314,0.005945341914748397,0.9949025503617038
2017-10-13,1,0.0024614651250960897,0.0026899998975857316,-0.005353461100616123,0.006090113550129875,0.9937487985990046
2017-10-17,1,0.0021703269615736174,0.0023673158210337675,-0.0030291257436077996,0.006090113550129875,0.9941260886374205
2017-10-19,1,0.0024887263744539094,0.0027297170802523833,-0.007734459365457377,0.0056286006646274695,0.9938161370524684
2017-10-23,1,0.002399592140917936,0.0026450447473305655,-0.003942454557955492,0.0055292660146066186,0.9942039181858707
2017-10-25,1,0.002888696464715858,0.0032129346129564315,-0.003942454557955492,0.004196074650271255,0.994273733301543
2017-10-27,1,0.003015315902951748,0.003339658473952215,-0.007734459365457377,0.004196074650271255,0.9937058208223779
2017-10-31,1,0.0032504957409370755,0.0036695934700337555,-0.008023548220602823,0.00559212238948813,0.9928861835973597
2017-11-02,1,0.002936238326226712,0.0033114306123752735,-0.008023548220602823,0.006282445536004529,0.9924413098254591
2017-11-06,1,0.002906718017032434,0.0032644748726905768,-0.004579990858975198,0.006282445536004529,0.9918162521088113
2017-11-08,1,0.0031732020531035684,0.0035906578129927787,-0.008361146210806206,0.00694149060893803,0.9907910922531823
2017-11-10,1,0.002575864827242646,0.002902740940311992,-0.004579990858975198,0.00694149060893803,0.9918156963506632
2017-11-14,1,0.0025289851257974325,0.0028549998921871024,-0.0049296507984626595,0.00694149060893803,0.9915872744497746
2017-11-16,1,0.002427108606588681,0.0027420828715420753,-0.005144385106684659,0.008906037824867938,0.9911933127599641
2017-11-20,1,0.00207577273781952,0.0023131433228462425,-0.005144385106684659,0.009516309504487709,0.9907361207704338
2017-11-22,1,0.0022474112182605576,0.0025063418865727827,-0.007337707948279449,0.009516309504487709,0.9903750231050841
2017-11-27,1,0.001947714561249589,0.0021451091757076052,-0.004781945729282205,0.009516309504487709,0.9908669443007023
2017-11-29,1,0.002222669089016452,0.0024631657984000525,-0.003921877436531633,0.009005959359729022,0.9917688058205933
2017-12-01,1,0.0023887049726734073,0.002667741683647611,-0.003921877436531633,0.008936943656737775,0.992206423372839
2017-12-05,1,0.0031069480253657494,0.0034785015467634793,-0.0044467696445855305,0.007478923152384977,0.9934351480010039
2017-12-07,1,0.003140147935334176,0.0035204023617543545,-0.003921877436531633,0.007478923152384977,0.9936499984922254
2017-12-11,1,0.002905300070659089,0.0032075603046603407,-0.0044467696445855305,0.007478923152384977,0.9931833513071607
