JNU-Tangyin/eata/results/Batch4_SP500/Batch4_SP500-AMGN.csv
Date,Action,Predicted_Q25,Predicted_Q75,Actual_Q25,Actual_Q75,RL_Reward
2010-12-14,1,0.0,0.0007954661476659157,-0.006480873217794784,0.008639386852390445,0.9915618517502263
2010-12-16,0,0.0,0.0,-0.006480873217794784,0.004905197636629718,0.9925856920896124
2010-12-20,0,0.0,0.0,-0.006480873217794784,0.004297995087812081,0.9925148778745052
2010-12-22,0,0.0,0.0,-0.00597087679635579,0.006244627445222616,0.9925371728604508
2010-12-27,0,0.0,0.0,-0.00597087679635579,0.006244627445222616,0.9925908241782341
2010-12-29,0,0.0,0.0,-0.00597087679635579,0.006244627445222616,0.9925029713531164
2010-12-31,0,0.0,0.0,-0.005541480173071753,0.006244627445222616,0.9921368213995577
2011-01-04,0,0.0,0.0004398055910461707,-0.005541480173071753,0.005660623934653115,0.9933271754877445
2011-01-06,0,0.0,0.0,-0.005541480173071753,0.005660623934653115,0.9929421262077239
2011-01-10,0,0.0,0.0,-0.005507591751262406,0.0038012676028575183,0.9934447422837568
2011-01-12,0,0.0,0.0,-0.005830984262414158,0.0016189445056223077,0.9936398461295003
2011-01-14,0,0.0,0.0,-0.005830984262414158,0.0013781758726056446,0.9936655107103134
2011-01-19,-1,-0.001358876761611567,-0.0011183611329525032,-0.0067701930718063585,0.00027331248827453517,0.9943062288353212
2011-01-21,-1,-0.0011786069669963038,-0.0009758922920533494,-0.009403608356484157,-0.00027850618553225436,0.9942546771633757
2011-01-25,-1,-0.0007338793451672971,-0.0005856948798560043,-0.009874051092818673,-0.0011698146314737805,0.9934022583291012
2011-01-27,-1,-0.00134321262398524,-0.0011340361740067645,-0.009403608356484157,-0.0011698146314737805,0.992914264778847
2011-01-31,-1,-0.002063431556293593,-0.0017706631244156445,-0.009403608356484157,-5.193697257719189e-06,0.9928607126627801
2011-02-02,0,0.0,0.0,-0.009828808373060327,-5.193697257719189e-06,0.9911811070588001
2011-02-04,0,0.0,0.0,-0.010062589267479355,-5.193697257719189e-06,0.9909701197569486
2011-02-08,0,0.0,0.0,-0.010062589267479355,0.00027973222224978464,0.9905310246847389
2011-02-10,0,0.0,0.0,-0.010420135335645281,0.004499564218415325,0.9889356448690289
2011-02-14,0,0.0,0.0,-0.010420135335645281,0.0026847641581383345,0.9890381557712988
2011-02-16,-1,-0.0016164471826375496,-0.00147536712288462,-0.010062589267479355,0.012243385185794192,0.9891804688851602
2011-02-18,-1,-0.001647072280693375,-0.0015089466551997098,-0.010284407176370245,0.012243385185794192,0.9889811244178296
2011-02-23,-1,-0.0022584828327183734,-0.0020199884779238475,-0.009791338505148286,0.012243385185794192,0.9897212669311197
2011-02-25,0,0.0,0.0,-0.009791338505148286,0.011080711295861058,0.9901807458730264
2011-03-01,0,0.0,0.0,-0.0094845037127517,0.011959560100845494,0.9904196841418579
2011-03-03,0,0.0,0.0,-0.008613440349425343,0.009349388379020577,0.9910057353272168
2011-03-07,0,0.0,0.0,-0.0072789549411546054,0.011959560100845494,0.9903786013131611
2011-03-09,0,0.0,0.0,-0.0072789549411546054,0.009349388379020577,0.9910831973861703
2011-03-11,1,0.0009281502592926394,0.001193866406982741,-0.00611739620145771,0.004324213655080878,0.9929396776966689
2011-03-15,1,0.0007266987619102041,0.0009658497401901957,-0.005841645827450712,0.007904151751309702,0.9930263652865569
2011-03-17,1,0.0009829370291348722,0.0012445204003630908,-0.0031492829688777035,0.006295659766400069,0.9937001762853851
2011-03-21,1,0.0005988756258743464,0.0007868590236716022,-0.0029955491966935054,0.007904151751309702,0.9935860040771414
2011-03-23,1,0.00048284997296324343,0.0006577808618454199,-0.0020647581902244203,0.009349388379020577,0.993090945737816
2011-03-25,1,0.0010432117611208754,0.00127292259243277,-0.002807652405622975,0.009697910604536076,0.9906329589925991
2011-03-29,-1,-0.0006107352206123621,-0.0005951725139352919,-0.0014732898646373567,0.011104724739511383,0.9897981273417553
2011-03-31,0,0.0,0.0,-0.0014732898646373567,0.011104724739511383,0.9901647705020252
2011-04-04,0,0.0,0.0,-0.001157089550987648,0.0096602016465252,0.9908223702461394
2011-04-06,0,0.0,0.0,-0.0014732898646373567,0.0096602016465252,0.9905201900326245
2011-04-08,0,0.0,0.0,-0.0010438253241237332,0.0096602016465252,0.9904078175146188
2011-04-12,0,0.0,0.0,-0.0010438253241237332,0.010598408140932342,0.9900712512686638
2011-04-14,0,0.0,0.0,0.000599713576211596,0.012695668733300027,0.989125842949561
2011-04-18,0,0.0,0.0,0.000599713576211596,0.013580609298317068,0.9886531095637638
2011-04-20,1,1.001061766366428,1.001140552249181,0.00024951653715735785,0.011398488169693612,0.5007907571588556
2011-04-25,0,0.0,0.0,-0.0023311076925984593,0.010598408140932342,0.9918670276241748
2011-04-27,1,0.0009039910027587531,0.000950778781138428,-0.0033385845253573417,0.009393496974964357,0.9934714404462796
2011-04-29,1,0.0008105730418473072,0.000842617788867858,-0.0033385845253573417,0.009393496974964357,0.9934869447330201
2011-05-03,0,0.0,0.0,-0.005023870577768326,0.00984757617783441,0.9922793825353688
2011-05-05,0,0.0,0.0,-0.00703000584019103,0.00984757617783441,0.9918192329877166
2011-05-09,1,0.0019206778059722932,0.002221170340293929,-0.00703000584019103,0.00984757617783441,0.9915238551841297
2011-05-11,1,0.002435917471789622,0.002809136119525201,-0.00703000584019103,0.004093338105386194,0.991946706043965
2011-05-13,1,0.0031746180969619694,0.0036689263030711544,-0.007886160907361653,0.002511061069806301,0.9915788532520042
2011-05-17,1,0.003197683724405427,0.003670212974140526,-0.007886160907361653,0.0021292331554483967,0.9921223268956606
2011-05-19,1,0.00304650420378626,0.003485064406396777,-0.007886160907361653,0.0021292331554483967,0.9918803860482669
2011-05-23,1,0.002624295092243511,0.002982132191092653,-0.007886160907361653,0.0027794883204524472,0.9922826275920136
2011-05-25,1,0.0020232184382297886,0.0022673212169307786,-0.00703000584019103,0.0027794883204524472,0.9928514526311225
2011-05-27,1,0.0021267979122558634,0.002438876006874313,-0.008016150836867561,0.00466815437789155,0.9919849265606738
2011-06-01,1,0.002053501073823261,0.0023517082895502953,-0.008016150836867561,0.00466815437789155,0.9922869863990033
2011-06-03,1,0.0017649380664480974,0.0020253276376878157,-0.005006979552028915,0.007069511355924908,0.9928351104484455
2011-06-07,0,0.0,0.0,-0.0057866675251706905,0.007069511355924908,0.9926655855979977
2011-06-09,0,0.0,0.0,-0.0057866675251706905,0.007069511355924908,0.9924156211786793
2011-06-13,0,0.0,0.0,-0.0057866675251706905,0.004625859477349702,0.9928676402569715
2011-06-15,0,0.0,0.0,-0.0057866675251706905,0.004625859477349702,0.9924639938271834
2011-06-17,0,0.0,0.0,-0.00814201183023484,0.0009098747040551951,0.9922193234796841
2011-06-21,0,0.0,0.0,-0.00814201183023484,0.0009098747040551951,0.9920298179351215
2011-06-23,1,0.0008628994596257761,0.0009599215254645006,-0.00814201183023484,0.005002764613795139,0.9912301438921658
2011-06-27,1,0.0010980672042033973,0.0012527351037114934,-0.006403929508502911,0.0009098747040551951,0.9920439753931733
2011-06-29,1,0.0006784159422938115,0.0007560551781273434,-0.006929092167071936,-0.0008997390315517776,0.9924011368992736
2011-07-01,1,0.0007782069073742908,0.0008590248946409858,-0.00814201183023484,-0.0027322507838889983,0.9908817713663487
2011-07-06,1,0.00019154863669449524,0.0002106723087277381,-0.009244872970202836,4.6887644323961746e-05,0.9913042651123527
2011-07-08,1,4.250657199342301e-05,8.178861111901693e-05,-0.011695573171573555,4.6887644323961746e-05,0.9896380132438333
2011-07-12,0,0.0,0.0,-0.01259305524825335,0.0024138034346014386,0.9875241182703778
2011-07-14,0,-4.550054810902764e-05,4.359864213857807e-05,-0.012599358157631902,0.00953469276011713,0.9850386572643871
2011-07-18,-1,-0.0012445159036499893,-0.0010074146030354609,-0.010529556834331329,0.010935790952176578,0.9842151011517679
2011-07-20,0,0.0,0.0,-0.010529556834331329,0.00953469276011713,0.9840374174991322
2011-07-22,-1,-0.0011169377645029318,-0.0009153874191575758,-0.010529556834331329,0.010588535202697284,0.9841429526306368
2011-07-26,-1,-0.0035742873512743757,-0.0029774616401224345,-0.010529556834331329,0.011503863858899996,0.982865249000349
2011-07-28,-1,-0.005121723747961016,-0.0043144252577193495,-0.010056761611238706,0.012170075652682782,0.9822202226077578
2011-08-01,0,0.0,0.0,-0.0069352177366732055,0.01209419577227017,0.9835127368236235
2011-08-03,0,0.0,0.0,-0.005659189991987512,0.01209419577227017,0.9833982632295393
2011-08-05,0,0.0,0.0,-0.006511289154557988,0.01209419577227017,0.984380282107702
2011-08-09,-1,-0.004661009035031364,-0.003997553126603359,-0.005659189991987512,0.01209419577227017,0.9845791874747271
2011-08-11,0,0.0,0.0,-0.005659189991987512,0.011635472565836571,0.9883757852714681
2011-08-15,0,0.0,0.0,-0.005659189991987512,0.011635472565836571,0.9895082600526627
2011-08-17,0,0.0,0.0,-0.002301445630447551,0.01209419577227017,0.9890532771384632
2011-08-19,0,0.0,0.0,-0.0017415037178820881,0.01209419577227017,0.9892851154169382
2011-08-23,0,0.0,0.0,-0.004095342825207943,0.01209419577227017,0.9889597809220264
2011-08-25,0,0.0,0.0,-0.004095342825207943,0.011980300925482485,0.9893206694062259
2011-08-29,1,0.00025036293957276964,0.0003486362950635459,-0.004095342825207943,0.009874735963041194,0.9894093013502651
2011-08-31,1,0.0005249859243798736,0.0005980194391633057,-0.008904159812610083,0.009713786304633222,0.989114764324571
2011-09-02,-1,-0.0025466776945469905,-0.002173112428841806,-0.01478519445321829,0.009713786304633222,0.9880844547413191
2011-09-07,-1,-0.001294584808537916,-0.0010758497946376496,-0.01478519445321829,0.00997639533789908,0.9876765450117347
2011-09-09,-1,-0.002278583347084288,-0.0019615486327956362,-0.011065631766322253,0.0150753377498332,0.9872439468696703
2011-09-13,0,0.0,0.0,-0.011065631766322253,0.01516741984461802,0.9873096294112633
2011-09-15,0,0.0,0.0,-0.011065631766322253,0.00997639533789908,0.9878258103635138
2011-09-19,1,0.0004523480423080928,0.0005276596852118564,-0.01478519445321829,0.01042775231698621,0.9871297182201878
2011-09-21,-1,-7.157398412098026e-05,-6.976040003751491e-05,-0.011065631766322253,0.010433676065991554,0.9881261763845783
2011-09-23,1,8.210754715521982e-05,0.00012254590520007435,-0.008375221902945634,0.015185191091634046,0.9879356096412809
2011-09-27,1,0.0005656114327367576,0.0006696672154479866,-0.011065631766322253,0.010433676065991554,0.986908997527026
2011-09-29,1,5.690488731235477e-05,9.982032791145231e-05,-0.008375221902945634,0.015185191091634046,0.9862982707070261
2011-10-03,-1,-0.00037069879910278544,-0.0002991383450141917,-0.005631009937753878,0.015185191091634046,0.9871389251199355
2011-10-05,1,0.001977351746546319,0.0024350288608003014,-0.010721420830745997,0.010433676065991554,0.987042175237267
2011-10-07,1,0.00185680139700927,0.002265133300771883,-0.01046742023418076,0.010433676065991554,0.9870316080645084
2011-10-11,1,0.0021493701977341215,0.0025838452335299714,-0.01046742023418076,0.010433676065991554,0.984972536704565
2011-10-13,1,0.002009153779870691,0.0024110759176362347,-0.01046742023418076,0.010433676065991554,0.9848554431366082
2011-10-17,0,0.0,0.0,-0.009248841904865706,0.010095826370414233,0.9855405150879212
2011-10-19,0,0.0,0.0,-0.01091383373308481,0.007993574785002344,0.9851727498145352
2011-10-21,0,0.0,0.0,-0.01091383373308481,0.0065644876391641694,0.9859524596444716
2011-10-25,0,0.0,0.0,-0.010386186051093814,0.007993574785002344,0.9871624848867683
2011-10-27,0,0.0,0.0,-0.011324813012495352,-0.001162954216528672,0.9876390813463964
2011-10-31,0,0.0,0.0,-0.010386186051093814,0.005176191936159664,0.9870288989504433
2011-11-02,0,0.0,0.0,-0.009248841904865706,0.009006623720353081,0.9875381494242135
2011-11-04,0,0.0,0.0,-0.00943231345344589,0.005176191936159664,0.9882157946631219
2011-11-08,0,0.0,0.0,-0.00943231345344589,0.007030292694696164,0.9907561860285893
2011-11-10,0,0.0,0.0,-0.00943231345344589,0.004915656549080144,0.9913450609474178
2011-11-14,0,0.0,0.0,-0.010268643814331893,0.005238342729855909,0.9904493352728637
2011-11-16,0,0.0,0.0,-0.005479125906513362,0.007030292694696164,0.9905716558886087
2011-11-18,0,0.0,0.0,-0.0005482501749160416,0.008968101400675837,0.9896635661663197
2011-11-22,1,0.0011434024385593982,0.0021145900556434555,0.0014227231320810575,0.016678829200561185,0.9895910581855717
2011-11-25,0,0.0,0.0,0.0019297656252117471,0.016678829200561185,0.9888827309026527
2011-11-29,0,0.0,0.0,0.0016816183087987539,0.012709673368716503,0.9893320168939318
2011-12-01,0,0.0,0.0,0.0015502030740168634,0.011486937404015166,0.9899849707658342
2011-12-05,0,0.0,0.0,0.0003820165525531944,0.011486937404015166,0.9902317325780335
2011-12-07,0,0.0,0.0,0.0003820165525531944,0.011486937404015166,0.9901791527263915
2011-12-09,0,0.0,0.0,-0.002532875145472709,0.012785202586100263,0.9888444605217102
2011-12-13,0,0.0,0.0,0.001109396201269063,0.016632224138207172,0.9888858036092204
2011-12-15,0,0.0,0.0,0.0002769032009602311,0.012785202586100263,0.9895131509203451
2011-12-19,0,0.0,0.0,-0.0012561628449297107,0.012785202586100263,0.9899217451933117
2011-12-21,0,0.0,0.0,-0.002532875145472709,0.01120261906737189,0.9907494485634604
2011-12-23,1,0.0023880673402098657,0.0025823132383892265,-0.002532875145472709,0.011486937404015166,0.9908165156685877
2011-12-28,1,0.002063637993203647,0.002160134705845077,-0.002532875145472709,0.011227795473166477,0.9905885354949525
2011-12-30,1,0.0013517986775884042,0.0014063009473856175,-0.002532875145472709,0.010424982100693557,0.9909641212711541
2012-01-04,1,0.0002815671869137395,0.0004994285978572833,-0.0016543127457968889,0.012076717630499957,0.9897418905793046
2012-01-06,0,0.0,0.0,-0.003583401985986485,0.012076717630499957,0.9899381159440561
2012-01-10,0,0.0,0.0,-0.003583401985986485,0.007993570308365774,0.9906625485517162
2012-01-12,1,0.002650850855043702,0.0029340613302109306,-0.005126274753166833,0.006402622529901495,0.9905396448266205
2012-01-17,1,0.003248533069401851,0.0036619036437469336,-0.005422442738001222,0.006609411530317674,0.9899013034047849
2012-01-19,1,0.00345910968332993,0.0038907622333417,-0.005422442738001222,0.006609411530317674,0.9900806735629888
2012-01-23,1,0.0029695255436384053,0.0033739970837159787,-0.008402331864294687,0.006481736338720301,0.9898325511716399
2012-01-25,1,0.0036665598071449813,0.004179542685522699,-0.008402331864294687,0.004809175963148589,0.9899249209258107
2012-01-27,1,0.0027347609135101878,0.0030663317133273757,-0.005422442738001222,0.006288666989078208,0.9907754087402483
2012-01-31,1,0.002810826421375651,0.0031692345258085924,-0.004982433576171124,0.007893551961888418,0.9907353421192279
2012-02-02,1,0.0029634409436782665,0.003304966244457977,-0.005502863040873373,0.006288666989078208,0.9916989910968836
2012-02-06,1,0.002857462835574128,0.003205926426144273,-0.008102517304630309,0.006288666989078208,0.991228575257627
2012-02-08,1,0.0025737079465049995,0.002913922841488981,-0.00647729878479396,0.007893551961888418,0.9917250742308029
2012-02-10,1,0.002236858708430518,0.0025380170090560433,-0.005502863040873373,0.006679909910531405,0.9929033874496338
2012-02-14,1,0.002104309668099339,0.0023533584645603982,-0.00647729878479396,0.006679909910531405,0.9926810542110924
2012-02-16,1,0.002106362869942543,0.002322062349381362,-0.007894843243144899,0.00588411963862587,0.9924831876356798
2012-02-21,1,0.0013377354404414843,0.0014918475786267315,-0.006358411582530885,0.006679909910531405,0.9935206747959545
2012-02-23,1,0.0013527782099846239,0.0014844860371711218,-0.007025591090955763,0.00588411963862587,0.9930033505052531
2012-02-27,1,0.0006568928022616179,0.0006880338000972044,-0.007025591090955763,0.007107158128019644,0.9929905813139782
2012-02-29,1,0.0013096020306621564,0.001421274177217484,-0.007025591090955763,0.004761689986285104,0.993208143137683
2012-03-02,1,0.0011649807136008634,0.0012646997347811832,-0.007025591090955763,0.0070350856553839675,0.9929001717700164
2012-03-06,1,0.0007490865092352671,0.0008098410246870798,-0.005592650646162921,0.0070350856553839675,0.9936830080717455
2012-03-08,1,0.0011225912029521026,0.0012256778625812563,-0.005592650646162921,0.0033967579848747475,0.9942978288553035
2012-03-12,1,0.0009715812726639595,0.001031145911112272,-0.007140662590005598,0.0029528843427253657,0.9930110506099025
2012-03-14,1,0.0011818589650469515,0.001290809369347334,-0.00653652256730142,0.0032091722527571435,0.9936502308694675
2012-03-16,1,0.0010246813780630793,0.0011436075738303162,-0.00653652256730142,0.005260864503483962,0.9929456609290638
2012-03-20,1,0.00034147947737146403,0.00037394784535445225,-0.005592650646162921,0.005260864503483962,0.9928224554117093
2012-03-22,1,0.00022916477637348353,0.00024318487882661247,-0.002724470328100635,0.008532609206980539,0.9925402871593858
2012-03-26,1,0.0002778905781734378,0.0003111979271366457,-0.002724470328100635,0.005773621399099063,0.9928174913376668
2012-03-28,-1,-0.0008098557371944334,-0.0005762864446167277,-0.002724470328100635,0.008825003157910875,0.9915754287472536
2012-03-30,-1,-0.0007187307373368032,-0.0004993028355863644,-0.002724470328100635,0.008964918346751501,0.991367150613591
2012-04-03,0,-0.0001322948316205755,3.760521323333693e-05,-0.0037037166802963923,0.008964918346751501,0.9910382534247418
2012-04-05,-1,-0.00026656868466661855,-7.518693828142964e-05,-0.006279258525428058,0.008964918346751501,0.9902674646692194
2012-04-10,-1,-0.0016933368278458259,-0.0013129489647417851,-0.0031404244546236713,0.010663126565717435,0.9905394992786842
2012-04-12,-1,-0.001970576157980109,-0.0015136762398141707,-0.004216439809276072,0.010663126565717435,0.990168009670683
2012-04-16,-1,-0.002674000704873175,-0.002119544053837037,-0.004216439809276072,0.010385221746076301,0.9907259799880517
2012-04-18,-1,-0.00235720031576184,-0.0018342681124043493,-0.004216439809276072,0.008872283406871124,0.9909535936316043
2012-04-20,-1,-0.0022715262868451855,-0.0017265888452919005,-0.006498743694485294,0.007265292267431984,0.9910809784703575
2012-04-24,-1,-0.0019185644240644556,-0.0014532082519252004,-0.006498743694485294,0.007265292267431984,0.9910022565835533
2012-04-26,-1,-0.00038245651754713046,-0.00014319295655133922,-0.007471384482430822,0.006802026317770443,0.9915514832275161
2012-04-30,-1,-0.0006395783507509773,-0.0003475747876227251,-0.006572043534086586,0.006760668517125713,0.9923564779614051
2012-05-02,-1,-0.0004962337625264773,-0.00024146767637237302,-0.006572043534086586,0.005043630841820513,0.9926805003011487
2012-05-04,-1,-0.0013189271209484749,-0.0009636498491597731,-0.006572043534086586,0.006772544729343071,0.9916635517695837
2012-05-08,-1,-0.0015782520991437206,-0.001155868966668772,-0.006572043534086586,0.006772544729343071,0.9912573618690546
2012-05-10,-1,-0.001642424472162634,-0.0012393817953762092,-0.006572043534086586,0.005065334250180328,0.9916820873716985
2012-05-14,-1,-0.001245366339858811,-0.0009098296741982824,-0.006572043534086586,0.005065334250180328,0.9911973252622484
2012-05-16,1,9.807567819583579e-05,0.00020217051140946588,-0.006572043534086586,0.005988273720199374,0.9902600914892578
2012-05-18,-1,-0.0009106720213201224,-0.0006994652236856244,-0.004207893202137147,0.010957989777243056,0.9904016309783107
2012-05-22,-1,-0.0009978362461830425,-0.0007802149404049923,-0.003406088325250874,0.012271411475137224,0.9899637143963329
2012-05-24,-1,-0.0009181515339758703,-0.0007127774708695651,-0.003406088325250874,0.012271411475137224,0.989543694623203
2012-05-29,-1,-0.001042426213434736,-0.0008079033191146245,-0.005873030414626557,0.012271411475137224,0.9889878326444752
2012-05-31,-1,-0.0006327946618710803,-0.00047554876971920765,-0.01271308022323668,0.012449475131968474,0.9879890135857191
2012-06-04,-1,-0.0008807453874315432,-0.0007171794607801816,-0.005873030414626557,0.01302209435232687,0.9878259782594704
2012-06-06,1,0.0002464836065851786,0.00027328616731998987,-0.011426121546626374,0.012449475131968474,0.9881697210361681
2012-06-08,-1,-0.000121056784427438,-0.00011274207861508658,-0.007604083231861111,0.012766830103944967,0.9879085667977949
2012-06-12,1,5.686110729072167e-05,0.00010421988651652348,-0.003976756122686483,0.013119239837624799,0.9885136097393747
2012-06-14,1,0.0005493904654154364,0.0006171644915937635,-0.004374311127350597,0.013119239837624799,0.9890219950055895
2012-06-18,1,0.0015193537760943732,0.001756656079954885,-0.004374311127350597,0.014206155267159256,0.9893177508956051
2012-06-20,1,0.001530894490796401,0.001745708570122067,-0.004374311127350597,0.013440362522013543,0.9896183490841257
2012-06-22,0,0.0,0.0,-0.004374311127350597,0.013440362522013543,0.9890903920315569
2012-06-26,0,0.0,0.0,-0.004374311127350597,0.015247408164841736,0.9881242009917645
2012-06-28,0,0.0,0.0,-0.0032344558995090087,0.01761581721612223,0.9857090747727555
2012-07-02,0,0.0,0.0,-0.005725483480444417,0.015247408164841736,0.9869233636877361
2012-07-05,0,0.0,0.0,-0.007204071434198795,0.015247408164841736,0.987060984981672
2012-07-09,0,0.0,0.0,-0.006471821225565718,0.015247408164841736,0.9871685742724171
2012-07-11,0,0.0,0.0,-0.009465590152765239,0.014620349941577949,0.9873797963005903
2012-07-13,0,0.0,0.0,-0.009465590152765239,0.01179876488923684,0.9874872413014112
2012-07-17,0,0.0,0.0,-0.009465590152765239,0.01179876488923684,0.9875524081799947
2012-07-19,0,0.0,0.0,-0.009465590152765239,0.01056310605149207,0.9877123090668897
2012-07-23,0,0.0,0.0,-0.007292059646695041,0.01056310605149207,0.9887630582599248
2012-07-25,1,0.0031470849005900726,0.0034165247312077317,-0.006176580241926545,0.009176327358445148,0.989858949321276
2012-07-27,0,0.0,0.0,-0.006176580241926545,0.007816412698110661,0.9930167563485393
2012-07-31,0,0.0,0.0,-0.00524182419795963,0.007816412698110661,0.9934567341272064
2012-08-02,0,0.0,0.0,-0.003832613963377169,0.007816412698110661,0.9938870263533979
2012-08-06,0,0.0,0.0,-0.003832613963377169,0.007816412698110661,0.9940336095068725
2012-08-08,0,0.0,0.0,-0.003086403194974364,0.008797750542644775,0.9940947889960751
2012-08-10,0,0.0,0.0,-0.003832613963377169,0.005834775916886456,0.9943691486173146
2012-08-14,1,0.0021765458780721,0.0023488191182961422,-0.003832613963377169,0.0037484771122795234,0.9943421390671187
2012-08-16,0,0.0,0.0,-0.003832613963377169,0.0037484771122795234,0.9940517543779245
2012-08-20,0,0.0,0.0,-0.003832613963377169,0.005834775916886456,0.9938278443775439
2012-08-22,0,0.0,0.0,-0.004260466121669706,0.00546941357740985,0.993801330035452
2012-08-24,0,0.0,0.0,-0.004260466121669706,0.00546941357740985,0.9937821516601519
2012-08-28,1,0.002247848261437527,0.002419238654446109,-0.004060861406257606,0.007586069399761895,0.9930769203664853
2012-08-30,1,0.0014709634706192931,0.0015028630930829718,-0.003466161761275582,0.008754721179372444,0.9934289887592336
2012-09-04,1,0.0017089141746160015,0.0017739105728797901,-0.003466161761275582,0.009065756564395393,0.992920126151267
2012-09-06,0,0.0,0.0,-0.004060861406257606,0.009065756564395393,0.9929785987157547
2012-09-10,0,0.0,0.0,-0.004060861406257606,0.009065756564395393,0.992701404902391
2012-09-12,1,0.0012879161478055407,0.0013244687660774529,-0.004312956995294806,0.009065756564395393,0.9925079073269879
2012-09-14,0,0.0,0.0,-0.004312956995294806,0.009065756564395393,0.9933120917116491
2012-09-18,0,0.0,0.0,-0.004312956995294806,0.009711272215347613,0.9914431182978488
2012-09-20,0,0.0,0.0,-0.004312956995294806,0.010759649161354908,0.9910232274457725
2012-09-24,0,0.0,0.0,-0.005315091428042296,0.009743079173752252,0.9899134515800571
2012-09-26,0,0.0,0.0,-0.005872689505152816,0.0093524387898316,0.9902811970673794
2012-09-28,0,0.0,0.0,-0.005872689505152816,0.007850211759574354,0.9902264562235324
2012-10-02,0,0.0,0.0,-0.007119688760586944,0.006796498482568527,0.9903718728166245
2012-10-04,1,0.0017530775785897284,0.0018597943705440543,-0.007585823029391668,0.006796498482568527,0.9902523641787591
2012-10-08,1,0.0016255626735136213,0.0017341965666860353,-0.007585823029391668,0.007588276903879248,0.9894570628339527
2012-10-10,1,0.00019074280412034386,0.000339393518736004,-0.007075401576235941,0.007588276903879248,0.9898442911835799
2012-10-12,-1,-0.0003626328931846189,-0.00013772825254096833,-0.005857927110369148,0.007588276903879248,0.9898617637389215
2012-10-16,1,0.0010964259995770308,0.0011552330821621116,-0.007451667745313248,0.006367910491802552,0.9911950997284502
2012-10-18,1,0.0016046616874020357,0.001608511944424264,-0.007451667745313248,0.0053771988792641005,0.9914532393090874
2012-10-22,1,0.0004448872504937002,0.0005836100359148456,-0.005857927110369148,0.0053771988792641005,0.9925520843523948
2012-10-24,-1,-0.00030873471210783804,-4.799821043892914e-05,-0.005335232829494585,0.006795480904718064,0.9921330030072929
2012-10-26,0,-0.00012329558256103342,8.946660028522361e-05,-0.004421185124396846,0.005886930621035736,0.9924764410767871
2012-11-01,-1,-0.0008911982870079293,-0.0005570511661878829,-0.0035419268452692564,0.006348938194389132,0.9923742887349866
2012-11-05,-1,-0.0015663079090873068,-0.0011403214747007452,-0.0035419268452692564,0.006348938194389132,0.9923862415848234
2012-11-07,-1,-0.0019609013240446367,-0.0015304551942737455,-0.0035419268452692564,0.005730363340705624,0.9932313117337522
2012-11-09,-1,-0.001720322474498137,-0.001349583124434412,-0.0027482710558977205,0.008316981862396029,0.9929699684920134
2012-11-13,-1,-0.0013939048872109174,-0.0010731028556431699,-0.0027482710558977205,0.008316981862396029,0.9931779001579717
2012-11-15,-1,-0.002349677629359588,-0.0019039509107557123,-0.0027482710558977205,0.008316981862396029,0.9933770008745241
2012-11-19,-1,-0.00227943354194509,-0.0018129540921690934,-0.0027482710558977205,0.0044470490225397615,0.9940861376105655
2012-11-21,-1,-0.0020557432116655025,-0.0016016169123846023,-0.0035419268452692564,0.0026751784152128357,0.9946621936137142
2012-11-26,-1,-0.0011064952516767418,-0.0008216549207379276,-0.003789644720599456,0.0025227456715216433,0.9946304331109325
2012-11-28,0,0.0,0.0,-0.005419055532034885,0.0025227456715216433,0.9940113062551272
2012-11-30,0,0.0,0.0,-0.006505571113150958,0.0025227456715216433,0.9939301247923432
2012-12-04,0,0.0,0.0,-0.006840327181583282,0.0029059647960752643,0.9921940671273272
2012-12-06,0,0.0,0.0,-0.006840327181583282,0.0029059647960752643,0.9923673100287678
2012-12-10,0,0.0,0.0,-0.006840327181583282,0.0029059647960752643,0.9927796834833689
2012-12-12,0,0.0,0.0,-0.009139696465493386,0.0029059647960752643,0.9920610543855207
2012-12-14,0,0.0,0.0,-0.009139696465493386,0.0029059647960752643,0.9915811956356982
2012-12-18,0,0.0,0.0,-0.009139696465493386,0.0003433889128043972,0.9912013323029943
2012-12-20,0,0.0,0.0,-0.009684702982205277,0.003165744578189097,0.9898749537131246
2012-12-24,0,0.0,0.0,-0.009119589001388222,0.0007556014386094226,0.9903079308028995
2012-12-27,0,0.0,0.0,-0.009119589001388222,0.006844955605796666,0.9892624222737074
2012-12-31,-1,-0.0005443387290447712,-0.00040840752829214924,-0.009119589001388222,0.006844955605796666,0.9892784790718582
2013-01-03,1,4.805030297755895e-05,0.00013897266653777453,-0.009119589001388222,0.006844955605796666,0.9905584063569383
2013-01-07,1,0.0003145327104454992,0.00034077020918747063,-0.009119589001388222,0.009331142495593126,0.9901742448456097
2013-01-09,1,0.0005103311985501799,0.000525753915788693,-0.009684702982205277,0.009331142495593126,0.9898216769278645
2013-01-11,-1,-0.0005607582456413254,-0.00043245729436814035,-0.01019306805759033,0.009719423921272825,0.9890412787734858
2013-01-15,-1,-0.0014178169253238411,-0.0011931137342131755,-0.007099987349944809,0.009719423921272825,0.9896538829309361
2013-01-17,-1,-0.0016104520582360176,-0.0013807453452600255,-0.008142286335871314,0.009719423921272825,0.9895461592075729
2013-01-22,-1,-0.001696501947637664,-0.0014719357991675465,-0.005685073975677025,0.009331142495593126,0.9905878489842052
2013-01-24,-1,-0.0023191311652574513,-0.0020078290803479905,-0.004978338617434824,0.009719423921272825,0.9892827905326201
2013-01-28,-1,-0.0006164982442477771,-0.00048266617027393105,-0.004978338617434824,0.009367736644793874,0.9898953825137116
2013-01-30,-1,-0.0007375141768142177,-0.000613618019378506,-0.0030612502946252913,0.009367736644793874,0.9899193112444274
2013-02-01,-1,-0.00016596873528041333,-0.00011603761805707374,-0.0030612502946252913,0.009723102297147904,0.9899386252612015
2013-02-05,-1,-0.00029520409624597774,-0.00020724568258841388,-0.002012077959060925,0.008555137794312787,0.9902292672123877
2013-02-07,-1,-0.001262200318386978,-0.001044749280858525,-0.002012077959060925,0.008555137794312787,0.9906065629602503
2013-02-11,-1,-0.0018439731951946637,-0.0015128116042515199,-0.002012077959060925,0.006578640517570665,0.9913980720134757
2013-02-13,-1,-0.0015846049096910455,-0.0013048140618670337,-0.001936763081104779,0.007157761147877771,0.9914655464554336
2013-02-15,-1,-0.0021164390734777962,-0.0017827666927955244,-0.001936763081104779,0.007157761147877771,0.9910760481859391
2013-02-20,-1,-0.0014664358102669571,-0.001222632221025133,-0.001936763081104779,0.012796997870159626,0.9899442657527532
2013-02-22,-1,-0.0004242747267064014,-0.0003057512698799288,-0.001936763081104779,0.012796997870159626,0.9901726311152804
2013-02-26,1,0.0005836685069527828,0.0006019906891997144,-0.001936763081104779,0.012796997870159626,0.9909822651882907
2013-02-28,1,0.0017039450538325692,0.0019177256444141183,-0.001936763081104779,0.015791051945663392,0.9906579557043868
2013-03-04,1,0.0020893635172053813,0.0023458110964290125,-0.0020355099268994674,0.018170284218158916,0.989176339702937
2013-03-06,1,0.002068079788241683,0.0023093636328588986,-0.002574337867155073,0.018170284218158916,0.9883968571182321
2013-03-08,1,0.001608386485289596,0.0017553559872526146,-0.002720092684038375,0.018170284218158916,0.9872080169342573
2013-03-12,1,0.0009949053182134193,0.0010409849239559905,-0.002720092684038375,0.019891493958299387,0.9857352454858801
2013-03-14,0,0.0,0.0,-0.0024667842515628427,0.022568912364051834,0.9843524871073517
2013-03-18,0,0.0,0.0,-0.0006956121821531953,0.022568912364051834,0.9828981976537052
2013-03-20,0,0.0,0.0,-0.008888780164852937,0.022276639273076583,0.983346772060546
2013-03-22,1,0.003802967492745399,0.004283517537939452,-0.008888780164852937,0.022276639273076583,0.9828683549623664
2013-03-26,1,0.0045426603051290405,0.0051218053419469015,-0.013275803621957835,0.022276639273076583,0.9797034292243584
2013-03-28,1,0.006142683454899479,0.006862394750710935,-0.013275803621957835,0.024124336246324374,0.979173002604047
2013-04-02,1,0.007226159642879352,0.008059178086587456,-0.016177890509320694,0.019198588412951648,0.9785233906495072
2013-04-04,1,0.006603830345964661,0.007324110173557225,-0.016177890509320694,0.019198588412951648,0.9794746832171018
2013-04-08,1,0.006119698932183932,0.006762010080652345,-0.015566363892247128,0.019198588412951648,0.9797120068587536
2013-04-10,0,0.0,0.0,-0.015566363892247128,0.012111889998435543,0.9820718388556727
2013-04-12,0,0.0,0.0,-0.015566363892247128,0.012111889998435543,0.9823477829693287
2013-04-16,0,0.0,0.0,-0.013413862500831207,0.009878398093165094,0.98419086315993
2013-04-18,1,0.006436828749937283,0.007113944573437302,-0.008238253884555112,0.009878398093165094,0.9837173794062305
2013-04-22,1,0.0086339423155605,0.009607052493191347,-0.015566363892247128,0.006822828450918981,0.9825842736434843
2013-04-24,1,0.007159913935377666,0.00791561773509192,-0.007514415851158937,0.008777474270224126,0.9869624397649437
2013-04-26,1,0.008645895933339092,0.009635663604677634,-0.007514415851158937,0.008777474270224126,0.9878070466211414
2013-04-30,1,0.007030695492131406,0.007779625242090119,-0.004826629819945779,0.008777474270224126,0.9896963775807666
2013-05-02,1,0.007233641414315199,0.008002896068029093,-0.007514415851158937,0.008070451871175322,0.9873884149771174
2013-05-06,1,0.007073998851081046,0.007843205745966364,-0.01470547790110124,0.0067033473231824445,0.9862749045036645
2013-05-08,1,0.006982511868385137,0.007736409728133623,-0.017422831124098023,0.008419030887014515,0.984129571308039
2013-05-10,1,0.0071787533134750545,0.007920201584441955,-0.017422831124098023,0.008419030887014515,0.9843854060741414
2013-05-14,1,0.007303721383661788,0.008048090777671987,-0.017422831124098023,0.0067033473231824445,0.9829862451717171
2013-05-16,1,0.005989119087050325,0.006521538589120981,-0.01620811356822948,0.008570144684418886,0.9839637933512094
2013-05-20,1,0.004383771920263245,0.004670417854819762,-0.01442708508986523,0.01441480059689947,0.9846920438458497
2013-05-22,1,0.0045398221470142695,0.004796331928810174,-0.017422831124098023,0.011205711732372097,0.9825124201997579
2013-05-24,1,0.004513213843755196,0.004766838306688222,-0.019364715326595276,0.01441480059689947,0.9808392369872431
2013-05-29,1,0.0044267700420695675,0.004727302934340501,-0.019364715326595276,0.01797293172912727,0.9805281910241742
2013-05-31,1,0.0029218447780483274,0.003007726776291953,-0.016587652690389997,0.01797293172912727,0.9825210239501915
2013-06-04,1,0.0017493439040370024,0.0018199363196913807,-0.014983561098908495,0.01797293172912727,0.9830768323977169
2013-06-06,1,0.001260661922635469,0.0014358143696358875,-0.012561269423936974,0.017554825694127158,0.9849794826511955
2013-06-10,1,0.0008089027018448528,0.0010882671226165094,-0.012561269423936974,0.017554825694127158,0.9857649298612977
2013-06-12,-1,-0.0007703333256192564,-0.00026198978113465394,-0.01126342183711664,0.019518428315412586,0.9844720268731212
2013-06-14,-1,-0.0010257692020339364,-0.0004651557949437394,-0.007558120089495551,0.017554825694127158,0.9854509921581407
2013-06-18,1,0.0003687565453300637,0.000796524353687684,-0.007558120089495551,0.010275269866766632,0.9873032662566918
2013-06-20,-1,-0.0007953882743390636,-0.00029016373015294653,-0.003457589975931399,0.013593456572031173,0.9872813427238971
2013-06-24,-1,-0.000787301281801934,-0.0002861447199205046,-0.0038777258707037693,0.010275269866766632,0.988182497692995
2013-06-26,1,0.0008569866289087836,0.001156686321814591,-0.0038777258707037693,0.010275269866766632,0.9887022340710747
2013-06-28,1,0.0001101742801994628,0.0005019728065669953,-0.0029092864114145574,0.010275269866766632,0.9890241652782187
2013-07-02,-1,-0.0015089491249441931,-0.0008974263164756569,-0.002224510930985458,0.013001411010851801,0.9877834172454244
2013-07-05,-1,-0.0010192110975228486,-0.0004603635057066793,-0.0023280623671444994,0.010557880023075786,0.9883579437806539
2013-07-09,-1,-0.001117296217618848,-0.000534110467467827,-0.0038777258707037693,0.010557880023075786,0.9871436623304809
2013-07-11,-1,-0.0008963979641425544,-0.0002946069871728324,-0.006753215012186143,0.00987528498471276,0.9854884886476454
2013-07-15,-1,-0.000622858903578982,-5.9787463880627e-05,-0.013450951046857925,0.005846916230172477,0.9851598596908077
2013-07-17,-1,-0.0005232310496873819,-2.3612365830994733e-05,-0.013450951046857925,0.005846916230172477,0.9847370569711226
2013-07-19,1,0.0019631166715848767,0.00212397930808151,-0.013450951046857925,6.473572366644993e-05,0.9849308354523718
2013-07-23,1,0.0011133874582539508,0.0013375270900799956,-0.01172138806920355,0.003155830758146333,0.9860647899913183
2013-07-25,1,0.0022014382709560957,0.0022870535991525473,-0.01172138806920355,0.003155830758146333,0.9856535230948685
2013-07-29,1,0.001840738129617972,0.0019629846981716013,-0.01172138806920355,0.01032254033780497,0.9820353157822184
2013-07-31,1,0.001130728797352365,0.0013429524827692741,-0.01172138806920355,0.003020549313886458,0.9823424849546104
2013-08-02,1,0.0006931647406891328,0.0009931746659627965,-0.01172138806920355,0.000664801944683989,0.9829890752985316
2013-08-06,-1,-0.000826206827094371,-0.00034775772291294085,-0.008438073818499462,0.012030176740038114,0.9835177490871664
2013-08-08,1,0.0005642754404899008,0.0009277952735101925,-0.008438073818499462,0.0032552982301975626,0.9863986314808929
2013-08-12,1,0.0004727487569605906,0.0007787786429196616,-0.008090797173979973,0.007163149835210458,0.9869596458885078
2013-08-14,1,0.0002452974933171508,0.0005326667548103273,-0.0068780350928737514,0.01143913610018699,0.9867903752969583
2013-08-16,0,-0.00013704645756557879,0.00016447249437325211,-0.004287315358638869,0.014494224388262531,0.9860041525765806
2013-08-20,0,0.0,0.0,-0.005048158209368587,0.015518052453201857,0.9852302886432671
2013-08-22,1,0.0009331101185973955,0.0010720820554780631,-0.0034768844320123803,0.0144431488140998,0.9862580413892712
2013-08-26,1,0.002842019434528353,0.0032234299974300846,-0.0034768844320123803,0.013505805660327498,0.9890967054603652
2013-08-28,1,0.0015263777480057556,0.0017187853534713854,-0.0034768844320123803,0.013505805660327498,0.9902565236417343
2013-08-30,1,0.0018393179294719044,0.002123380476343993,-0.006230261537434845,0.013505805660327498,0.9898828483750538
2013-09-04,1,0.0032880090650720542,0.0038142250624260514,-0.011508607261805266,0.008791857859825223,0.9895607339726012
2013-09-06,1,0.002692705452539324,0.003129585898621828,-0.011508607261805266,0.013505805660327498,0.9892078702225706
2013-09-10,1,0.0022096172335548214,0.0025278056376635597,-0.013800489551573281,0.013505805660327498,0.9871742053317984
2013-09-12,1,0.003490780334232133,0.004067926845626587,-0.01415177271015426,0.0144431488140998,0.9853020707317028
2013-09-16,1,0.0034709262258788287,0.00391722861066469,-0.01415177271015426,0.006872956184295578,0.9861282183721691
2013-09-18,1,0.003950711861894591,0.004515577839157207,-0.01415177271015426,0.006872956184295578,0.9860230911551301
2013-09-20,1,0.0030745010199703707,0.003450664104882001,-0.01415177271015426,0.01005300431736105,0.9858695876995713
2013-09-24,1,0.0026564096239601737,0.002996710098459523,-0.013382971923026982,0.014330818075257922,0.9854298578024347
2013-09-26,1,0.001973449072610177,0.0022082373109609914,-0.011731551845565756,0.014330818075257922,0.9860608909168843
2013-09-30,1,0.0016930062956480845,0.0018915601300038664,-0.011670098863573272,0.016401523327890313,0.98594443915868
2013-10-02,1,0.0021627751749427734,0.002447827845998404,-0.01129182054451608,0.014330818075257922,0.9869682784883986
2013-10-04,1,0.0022465811865668857,0.0025605503246170836,-0.008805261658439265,0.014623622259129058,0.9872160056347229
2013-10-08,1,0.00045668323388873763,0.00048368384410073424,-0.008805261658439265,0.014623622259129058,0.9879851050407319
2013-10-10,1,0.0005923521884053773,0.0005948148089739342,-0.01129182054451608,0.01005300431736105,0.9884989533188324
2013-10-14,1,0.0013143888758181683,0.0014440706130885717,-0.01129182054451608,0.014623622259129058,0.9880717968188653
2013-10-16,1,0.002135348061048533,0.0023940532876713825,-0.01129182054451608,0.008891025345053323,0.9886247980061351
2013-10-18,1,0.001993118000735702,0.0022039807599830174,-0.01129182054451608,0.009596364968328174,0.9887234764116933
2013-10-22,1,0.0016280336582859098,0.0017238267344668137,-0.007686637427823412,0.007739474968995287,0.9897579714046529
2013-10-24,1,0.0009171702074398684,0.0009692735603530014,-0.011784502492584906,0.007739474968995287,0.9889437947314529
2013-10-28,1,0.001310716847664952,0.0013156414640698895,-0.011784502492584906,0.007513455969903447,0.9889665009465378
2013-10-30,1,0.0008881492725249189,0.0009357208342740409,-0.0077183756598037615,0.007513455969903447,0.9896056013503919
2013-11-01,1,0.0008089336002461309,0.0008997893302123407,-0.006654319330878885,0.007030399551825736,0.9908300781789496
2013-11-05,0,-0.00011563714455539514,7.318299830454773e-05,-0.004276635082703425,0.007030399551825736,0.9917585833193884
2013-11-07,-1,-0.000617828352254733,-0.00042810225483668526,-0.0034435641635479548,0.007030399551825736,0.9929473854553633
2013-11-11,-1,-0.0010999027275251073,-0.000775595249023633,-0.0034435641635479548,0.006832058377536906,0.9938280269895154
2013-11-13,-1,-0.0012322380994295224,-0.0008775278661691303,-0.0038558717471578324,0.0042622752392972385,0.9938256613795425
2013-11-15,-1,-0.0003304129715113566,-0.00013250970861433242,-0.0037930918428303734,0.00271191051758517,0.9946551783085067
2013-11-19,-1,-0.0005433904895343715,-0.0003011073519739247,-0.0037930918428303734,0.00271191051758517,0.9941004688974819
2013-11-21,-1,-0.002043347748203898,-0.0015851767252770337,-0.0034226375287721347,0.0042622752392972385,0.9947055895712406
2013-11-25,-1,-0.0014621560948597538,-0.001089096609815432,-0.005004154457090779,0.002332328323910702,0.995068790246348
2013-11-27,-1,-0.0015450112114553456,-0.001166307272712943,-0.005004154457090779,0.004225410866571293,0.9938567851631726
2013-12-02,-1,-0.0005513562893076917,-0.00036557279306888215,-0.007557151668832661,0.004071921013850456,0.9933616183467296
2013-12-04,-1,-0.0008141942160583947,-0.0006105208528710828,-0.007557151668832661,0.0066825633249318755,0.9926215319640682
2013-12-06,-1,-0.0006593320243399203,-0.0004684887637246187,-0.008456283424795584,0.00815923052977207,0.9914208191508449
2013-12-10,1,0.00010713668255334029,0.0001424075374260711,-0.008456283424795584,0.013294156273939208,0.9898314381621267
2013-12-12,-1,-0.0008123378220008944,-0.0006309255204488579,-0.008456283424795584,0.013294156273939208,0.9896645312887467
2013-12-16,-1,-0.0005024221203171677,-0.00039498252180640065,-0.008456283424795584,0.013294156273939208,0.988834256595936
2013-12-18,-1,-0.0003876745250346823,-0.0002908166912907003,-0.0077755765413958285,0.011680108876960672,0.9897825932483733
2013-12-20,-1,-0.0002623429543649716,-0.00016060508450808578,-0.0077755765413958285,0.012274439888429396,0.9883118531001231
2013-12-24,-1,-0.0006838162493381207,-0.0005426411809425638,-0.00783966055052744,0.012274439888429396,0.987014503159316
2013-12-27,-1,-0.0006121995068324577,-0.0004228712288803514,-0.00783966055052744,0.012274439888429396,0.9871391600735763
2013-12-31,0,-5.206999615539951e-06,3.174401482160538e-05,-0.00783966055052744,0.014594167207494835,0.986544487468512
2014-01-03,-1,-0.0002710484888202156,-0.00017759276788943906,-0.009655413225391981,0.01211344585481255,0.9861841109647447
2014-01-07,-1,-0.0001006170333217926,-5.913421632283201e-06,-0.009400282861322776,0.007868186094195173,0.9871728956811738
2014-01-09,1,0.0001173888360964461,0.000210357807019473,-0.009400282861322776,0.009352822662150411,0.9870516825804909
2014-01-13,-1,-0.00045751094140836994,-0.00030144426754775305,-0.006918260664988596,0.011448805858046706,0.9870778871730108
2014-01-15,1,3.5237703615186434e-05,0.00012972252528639514,-0.006918260664988596,0.01243925318358046,0.9868539205255945
2014-01-17,1,0.0013570623222946359,0.0015243637943638884,-0.006918260664988596,0.01243925318358046,0.9866675230394837
2014-01-22,1,0.0019383345177966132,0.0021054024369545057,-0.009400282861322776,0.00960551216325052,0.9879562280480005
2014-01-24,1,0.0005249545328795599,0.0005504752023747493,-0.006918260664988596,0.01243925318358046,0.989174086935356
2014-01-28,1,0.0014407775045351917,0.0015980428128275445,-0.01169512834724323,0.00960551216325052,0.9889243458251308
2014-01-30,1,0.0011428200991606444,0.0012246436530636308,-0.009073310128738295,0.009164733506692477,0.9894637554682036
2014-02-03,0,-1.819836856496745e-05,4.439690639978586e-05,-0.0035286888712049978,0.01045227721714049,0.9898748472299818
2014-02-05,-1,-0.0001396706545748969,-9.524902132529373e-05,-0.0025379695308253318,0.01045227721714049,0.9896719864691894
2014-02-07,1,0.0013989655189132217,0.0016105741253816485,-0.004837649756303463,0.01045227721714049,0.9898102472646659
2014-02-11,1,0.0020140504037006244,0.002311317616166347,-0.009600441230593487,0.010948727646315944,0.9895557975105154
2014-02-13,1,0.0026517896666862772,0.003021187359599716,-0.011773005117130732,0.009164733506692477,0.9888515641958835
2014-02-18,1,0.0024827929215075766,0.002793116665068376,-0.011773005117130732,0.011519096411709246,0.9877317416260467
2014-02-20,1,0.0017926260738483726,0.001975007620601378,-0.011389940080292519,0.011519096411709246,0.9879687688838135
2014-02-24,1,0.002175564554432488,0.002387170772328209,-0.013951890391144289,0.010201621482380215,0.9862062798696584
2014-02-26,1,0.0012505543930799532,0.0013565359317739925,-0.011947041412261168,0.010201621482380215,0.9873879216407129
2014-02-28,1,0.001686698660993371,0.0018447268472513738,-0.013623827844618786,0.011519096411709246,0.9864484092572746
2014-03-04,1,0.0012597620999797994,0.0012678959768343129,-0.013623827844618786,0.01485781907476887,0.9854607692051036
2014-03-06,1,0.000996568394240719,0.0010030468935012355,-0.013623827844618786,0.01485781907476887,0.9854834662764104
2014-03-10,1,0.0015419828399595758,0.0016395704067924005,-0.013623827844618786,0.011519096411709246,0.9851762514980588
2014-03-12,1,0.002046943940052652,0.002255205180210388,-0.013623827844618786,0.012359371956873134,0.9849957079003485
2014-03-14,1,0.0011687484834816456,0.001267584253190428,-0.01434257146240698,0.012359371956873134,0.9832494523673032
2014-03-18,1,0.0027015661614674413,0.003023558013365064,-0.01434257146240698,0.012952325125903427,0.9834929354671171
2014-03-20,1,0.0024943684556038128,0.0027842805116856965,-0.01434257146240698,0.012952325125903427,0.9837996115633245
2014-03-24,1,0.001133541483645876,0.0012807295251457047,-0.008859228516911444,0.015399336491966684,0.9850125731324392
2014-03-26,1,0.0004865350347012737,0.000522611488307397,-0.01434257146240698,0.015399336491966684,0.982944217443999
2014-03-28,1,0.0008457092964451747,0.0009586809038138486,-0.01576786952525839,0.013839682820589819,0.9835091243264267
2014-04-01,1,0.001746094152075605,0.0019147895698519318,-0.01576786952525839,0.006603747118686018,0.9852135322151506
2014-04-03,1,0.0004098357107447802,0.0004838442567611697,-0.010056295107120049,0.009860539844470953,0.9856254968918235
2014-04-07,-1,-0.0008460191488669424,-0.0006564857985963686,-0.007290101693209815,0.009860539844470953,0.9869718268130034
2014-04-09,-1,-0.0004696111823440949,-0.0003280627003384557,-0.01037559101887413,0.0073297991368304095,0.9870966613958745
2014-04-11,-1,-0.0027495326905417365,-0.0023634080158896225,-0.001759194334246176,0.0073297991368304095,0.9890693233733002
2014-04-15,-1,-0.0016413388755050357,-0.001392046073445406,-0.00424945367959037,0.006429249138199177,0.9900551833805563
2014-04-17,-1,-0.002116189894565821,-0.0017616450748831163,-0.008022508201420024,0.0073297991368304095,0.9888241850275877
2014-04-22,-1,-0.0006032280397129963,-0.00045095464590823206,-0.008022508201420024,0.004852770974123484,0.9905619026198044
2014-04-24,-1,-0.0023907453518406444,-0.0020268478988236167,-0.00424945367959037,0.0073297991368304095,0.9914981201713119
2014-04-28,-1,-0.0029976098699588533,-0.0025730804676435508,-0.003415042177900986,0.009607794263629402,0.9914296083328644
2014-04-30,-1,-0.003148741770402891,-0.002685597258052907,-0.003415042177900986,0.009607794263629402,0.9914550028593949
2014-05-02,-1,-0.0027345442164843203,-0.0023357853031438494,-0.002577347427653675,0.007899542964392853,0.9917231778957206
2014-05-06,-1,-0.0027818310100693805,-0.002377265012936151,-0.0005392595914232433,0.011330477919049162,0.9910155804985894
2014-05-08,-1,-0.0035645455148757333,-0.0030449483198969033,-0.0005392595914232433,0.011330477919049162,0.9910926733132858
2014-05-12,-1,-0.003350913194260015,-0.0028486771148545937,-0.002577347427653675,0.011330477919049162,0.991073962899206
2014-05-14,-1,-0.0031251320586538536,-0.002658758153637979,-0.002577347427653675,0.007339545992416681,0.9918659547851368
2014-05-16,-1,-0.0028831089323652437,-0.0024661025663195056,-0.0015718249450185659,0.005818624029050258,0.9932026505676038
2014-05-20,-1,-0.003130769268750007,-0.002657330800638736,-0.0015718249450185659,0.007339545992416681,0.9926504419798833
2014-05-22,-1,-0.0017231082551695822,-0.0014584952373918815,-0.0015718249450185659,0.005818624029050258,0.9930335763183871
2014-05-27,-1,-0.0015903862937059051,-0.001325549138482338,-0.0021372704065340804,0.004412786538287269,0.9932649496525784
2014-05-29,-1,-0.0015022183013697985,-0.0012531820950287082,-0.002471990359358145,0.005415988230108928,0.9931468528417932
2014-06-02,-1,-0.0010058119744740081,-0.0008445469632732019,-0.003294606579640944,0.005415988230108928,0.9932747258112951
2014-06-04,1,0.00023638675762201417,0.0002587917849602184,-0.003294606579640944,0.005473727722636394,0.9932217139051723
2014-06-06,-1,-0.000600136049938115,-0.00048602372159706534,-0.003294606579640944,0.005991842506632657,0.9920821457541389
2014-06-10,-1,-0.00044130259079132013,-0.00037628183761280866,-0.002953265412886832,0.005473727722636394,0.9927442048193256
2014-06-12,-1,-0.0005902637384161178,-0.0005173137269472821,-0.002953265412886832,0.006211825256330278,0.9924923332570591
2014-06-16,1,0.00023442702548765408,0.00034681666797583275,-0.004758650003650192,0.006211825256330278,0.9913876971491986
2014-06-18,-1,-6.607151127189603e-05,-6.110172451478551e-05,-0.005537932526592142,0.006211825256330278,0.99063269919835
2014-06-20,1,0.0010672590119647335,0.0012342346794961255,-0.005537932526592142,0.006351449639096197,0.9903839228375805
2014-06-24,1,0.0005468756858788461,0.0006496990838526588,-0.004758650003650192,0.007313054121261883,0.9902444906365959
2014-06-26,0,-2.0632681230356496e-05,1.770206295342863e-05,-0.004758650003650192,0.007313054121261883,0.9902527944114038
2014-06-30,-1,-0.0006324810583375568,-0.0004953959874440283,-0.0037346265033878557,0.007313054121261883,0.9901683067249459
2014-07-02,1,0.0007155748554786215,0.0008053982737726797,-0.005537932526592142,0.007313054121261883,0.9877825205402865
2014-07-07,1,0.0007877244307733845,0.0009211438209922403,-0.005537932526592142,0.007313054121261883,0.9877064837515532
2014-07-09,1,0.0009816043793074859,0.0011803619150119208,-0.00628223532788447,0.007313054121261883,0.9874083767371932
2014-07-11,1,0.0011603903048535555,0.001395399515574586,-0.007582859979156274,0.007959134866769114,0.9870557627200919
2014-07-15,1,0.00032885597490730497,0.000435375064703816,-0.006596811788811768,0.007959134866769114,0.987603870659566
2014-07-17,1,0.0002998226813415696,0.00043531252976053864,-0.0060333225420799,0.011525689903014006,0.9868393518223386
2014-07-21,1,0.0007962743055694374,0.000948373232821568,-0.0060333225420799,0.008441708032809756,0.9880233080951148
2014-07-23,1,0.0018363556797268688,0.00215862161281986,-0.0060333225420799,0.007365269639098271,0.9890743645565729
2014-07-25,1,0.002320400718386735,0.0027370608661283023,-0.0060333225420799,0.007365269639098271,0.9890636993899108
2014-07-29,1,0.002217585982754262,0.0025946458842177837,-0.0060333225420799,0.010865038724836757,0.9880074035583177
2014-07-31,1,0.0033269688719073827,0.003866286142638551,-0.0034133716445606975,0.008441708032809756,0.9914741536677621
2014-08-04,1,0.0036238493566122703,0.004208327082802087,-0.0034133716445606975,0.007365269639098271,0.9926455119760881
2014-08-06,1,0.0027775125875020954,0.003198895215490142,-0.0017649633008001236,0.007365269639098271,0.9931058493228307
2014-08-08,1,0.003293523657968647,0.003851348314833321,-0.0012231835694801719,0.007365269639098271,0.9936432934179773
2014-08-12,1,0.0030724400039107693,0.0035942004840055324,-0.0012231835694801719,0.008576334533086396,0.992882221165672
2014-08-14,1,0.0034994621917317876,0.0039951846772465225,-0.0018783135542880444,0.006461878978870716,0.9938584042468156
2014-08-18,1,0.003555151424916158,0.004038051216506685,-0.0018783135542880444,0.0071439860413992735,0.9935847204606882
2014-08-20,1,0.0034905945817840746,0.0039685242379252465,-0.0012609669873094788,0.009869059276358326,0.9935769899600897
2014-08-22,1,0.0041473187711550084,0.004788550796821629,-0.0022675902354140605,0.00994873988210955,0.9927661944167523
2014-08-26,1,0.004805857728438117,0.005504348189617371,-0.005009927804911901,0.009869059276358326,0.9928327325394244
2014-08-28,1,0.004013835632610822,0.004528216343985723,-0.008322072885716243,0.009869059276358326,0.9916878422669391
2014-09-02,1,0.0037950031564901003,0.0042915920316680825,-0.007188693211845262,0.009869059276358326,0.9918158565945909
2014-09-04,1,0.0024540234546139702,0.0026688014895896285,-0.010829971268443674,0.009869059276358326,0.9908193789949559
2014-09-08,1,0.002787267345391239,0.0030818310652867874,-0.011217825019980553,0.009869059276358326,0.9901049474848617
2014-09-10,1,0.0027192592022610364,0.0030044121165328343,-0.011170793675925446,0.009869059276358326,0.9894003643411865
2014-09-12,1,0.003040116798584862,0.0034069823726530623,-0.011528768311185338,0.009869059276358326,0.988890294222602
2014-09-16,1,0.0026428796036060192,0.0028727567152716056,-0.011671376024311156,0.009458577341162048,0.9872335458091915
2014-09-18,1,0.0027635386224221375,0.0029644355101270375,-0.011671376024311156,0.00425125466643961,0.9869039507001625
2014-09-22,1,0.002602093105342443,0.002778326294966929,-0.011528768311185338,0.009261321348550846,0.985947502190732
2014-09-24,1,0.002661009913036966,0.0028369539790088143,-0.011528768311185338,0.01004225086608707,0.9845036619306621
2014-09-26,1,0.0021448166110331806,0.0022469122214280658,-0.011170793675925446,0.01686889080311903,0.984652004792501
2014-09-30,1,0.0016287951138132984,0.0016302768986897805,-0.011170793675925446,0.024910928643396356,0.9821594390020969
2014-10-02,1,0.0008020632202509244,0.0008905979159529823,-0.009920880136959654,0.024910928643396356,0.9823058744432488
2014-10-06,1,0.0007499884498392234,0.0008508089877600245,-0.005325564355641689,0.024910928643396356,0.9831689429275497
2014-10-08,1,0.001107068453789616,0.0011753913962139618,-0.00762955180277978,0.018954739737398835,0.9842463251105075
2014-10-10,1,0.0002934883129539898,0.00046053809521225006,-0.004646677375696932,0.018954739737398835,0.9848760125099505
2014-10-14,-1,-0.0006952273625460644,-0.00044542013721274017,-0.003534007403418493,0.01950100078702127,0.9855823371518863
2014-10-16,-1,-0.0011145406945697058,-0.0008244180366464695,-0.0032979909656422743,0.01950100078702127,0.9856588969896806
2014-10-20,1,0.0005309015492251893,0.0006346131547024932,-0.0038941996594038498,0.012311986060757701,0.9869946731744398
2014-10-22,1,0.0018478588338073706,0.0019025636920351557,-0.0038941996594038498,0.012311986060757701,0.9885683851523004
2014-10-24,1,0.002752319623878268,0.002961257316698992,-0.0038941996594038498,0.009632310557090662,0.9897025141927058
2014-10-28,1,0.004358279091536736,0.004749277266439148,-0.004748478989491173,0.008968296879160956,0.9913802753291028
2014-10-30,1,0.004781883911984266,0.005206733542708362,-0.004748478989491173,0.00852883877773886,0.991548394700074
2014-11-03,1,0.004354833661173561,0.0046960479974880835,-0.004748478989491173,0.008968296879160956,0.9914379519286767
2014-11-05,1,0.0035517949283608,0.0037741163874315834,-0.004748478989491173,0.008968296879160956,0.9915529131255939
2014-11-07,1,0.003679487782307652,0.003927659891767675,-0.004748478989491173,0.014457248410175368,0.9908920155301691
2014-11-11,1,0.004244276565609598,0.00461013062045781,-0.007621871584584685,0.0104897287377505,0.9897208866318143
2014-11-13,1,0.0033458779510525255,0.003550848218342788,-0.009116124329824993,0.0104897287377505,0.989975009501889
2014-11-17,1,0.002884514312958165,0.0030169056965608084,-0.009116124329824993,0.00985626704348956,0.9895499098771064
2014-11-19,1,0.00324153437094235,0.0033889197703746775,-0.009116124329824993,0.014457248410175368,0.9879448550400576
2014-11-21,1,0.0033110563022568243,0.0035008955473738892,-0.009953707843039167,0.014457248410175368,0.9861434375774087
2014-11-25,1,0.002911718813972422,0.003013599189786582,-0.010276860554223749,0.015502306971824312,0.9840000972913322
2014-11-28,1,0.0031574941348469377,0.003264805186099541,-0.010276860554223749,0.01642512270275453,0.983608773070563
2014-12-02,1,0.0036279541931254064,0.0037861743275968943,-0.013239670323656855,0.014673586178531203,0.9830077188532093
2014-12-04,1,0.0022282967084001253,0.0023072955729695785,-0.013239670323656855,0.014673586178531203,0.9834939581250347
2014-12-08,1,0.002657904790950888,0.002726163589635456,-0.016127674115574333,0.011864368792990614,0.9814102672196164
2014-12-10,1,0.0015618397163001036,0.0017208222071612893,-0.012636192390819865,0.011864368792990614,0.9826609029505954
2014-12-12,1,0.001535406508419277,0.0016651936502260173,-0.012636192390819865,0.011864368792990614,0.9828209371335799
2014-12-16,1,0.00016535350937350412,0.0004557572107714386,-0.012636192390819865,0.011864368792990614,0.9836424724083658
2014-12-18,1,0.0020627916833462824,0.0021400109540401935,-0.012636192390819865,0.0053327846901796636,0.9833654445885923
2014-12-22,1,0.0017481135588641914,0.0018355047312697231,-0.011988397474180313,0.006303909746509925,0.9848092665228295
2014-12-24,1,0.0007402961297245233,0.0009477410515999193,-0.00922745142396148,0.0033015684309004962,0.9880902868479811
2014-12-29,1,0.0006700918186960018,0.0009232588722345037,-0.011988397474180313,0.0019146123376310032,0.9875063939207941
2014-12-31,-1,-0.0006980801235319434,-0.0002763064840008479,-0.011988397474180313,0.0033015684309004962,0.9872427414574417
2015-01-05,-1,-0.0015183554316367332,-0.0009819923787624972,-0.008261053080080127,0.0019688421670515746,0.9879832102805498
2015-01-07,-1,-0.0005307801902605961,-0.00020340102683475303,-0.0056724734296513075,0.0019688421670515746,0.9901888867942968
2015-01-09,-1,-0.001209651416024959,-0.0008137642114033426,-0.007480247739791572,0.0019688421670515746,0.9900084406404176
2015-01-13,-1,-0.0017071092675364065,-0.0012381124099451516,-0.006239382143610381,0.005451297626670484,0.9894226801679029
2015-01-15,-1,-0.002798073181157013,-0.002196951673094952,-0.00524382958598915,0.005451297626670484,0.989959776398076
2015-01-20,-1,-0.000561483338676127,-0.0002836091366512721,-0.005157576327253977,0.006209985748484875,0.991780936254574
2015-01-22,1,3.097377985934822e-05,0.00022479010127491683,-0.005157576327253977,0.006209985748484875,0.9919619727853666
2015-01-26,-1,-0.0002682222650260854,-2.2135839464423705e-05,-0.0056011312623454185,0.006209985748484875,0.9914698346442784
2015-01-28,-1,-0.0018338222037949127,-0.001399580532056754,-0.0026088443432918484,0.006718641589309765,0.9919990442119259
2015-01-30,-1,-0.0024223114190211623,-0.0019330993136753676,-0.0026088443432918484,0.006718641589309765,0.9926056853747556
2015-02-03,-1,-0.0025903704824303334,-0.0020763650185114998,-0.005499856025341818,0.006718641589309765,0.9922571335938619
2015-02-05,-1,-0.0026523631915053737,-0.002107549009223421,-0.006646739359088968,0.005121400961676979,0.9915431161318864
2015-02-09,-1,-0.0034484229570505057,-0.002829344303382064,-0.0013141407253745238,0.005121400961676979,0.9915243341436161
2015-02-11,-1,-0.00219625454644372,-0.00176006201547573,-0.005954450944670491,0.005121400961676979,0.9924718515752277
2015-02-13,-1,-0.00217402830552649,-0.0017396790033943333,-0.005954450944670491,0.006718641589309765,0.9898024541451496
2015-02-18,-1,-0.0016036075144227958,-0.001239857218915645,-0.005954450944670491,0.0067602031826477105,0.9896588715573861
2015-02-20,-1,-0.0014823167253236456,-0.0011099064227812318,-0.005954450944670491,0.006928318242607995,0.9892597214972308
2015-02-24,-1,-0.0018298457839906086,-0.0014036241138980757,-0.005973219947150517,0.006928318242607995,0.9887117661031282
2015-02-26,-1,-0.002207110283405752,-0.0016807006598935047,-0.006993064466664832,0.006928318242607995,0.987797192204069
2015-03-02,-1,-0.0021748863889449093,-0.0016497081994070403,-0.005973219947150517,0.01025767277411741,0.9874412303700169
2015-03-04,-1,-0.0020326882326578456,-0.0015564914039700498,-0.011219780201410554,0.01025767277411741,0.986000559218865
2015-03-06,-1,-0.0038305998053199445,-0.0031005771697717737,-0.0081306124122688,0.01025767277411741,0.9871091558222308
2015-03-10,-1,-0.005339951050897437,-0.0043507493593829645,-0.006238898796805138,0.012749699690310739,0.9852593362084365
2015-03-12,-1,-0.005717725826790695,-0.004650523141076015,-0.004828305744986502,0.012749699690310739,0.984461174179292
2015-03-16,-1,-0.0022135973871495575,-0.0016586628245071433,-0.006027004906259846,0.011954200146440783,0.9882649150370432
2015-03-18,-1,-0.0004344078160524585,-0.00016752881426191897,-0.006027004906259846,0.011954200146440783,0.9881999632094599
2015-03-20,1,0.0008709147816047956,0.0009410134886921396,-0.010125228260046741,0.011954200146440783,0.987452672637
2015-03-24,1,0.0012839677035604777,0.0014033007837161962,-0.006027004906259846,0.012749699690310739,0.9879561474223311
2015-03-26,1,0.0005504062837924295,0.000636157043204674,-0.005947588642536672,0.012749699690310739,0.989129727487071
2015-03-30,1,0.0014193244841604925,0.0016189914143025458,-0.007527512973978006,0.011997619878132254,0.9885425808282976
2015-04-01,-1,-0.0007192384331707103,-0.000612058809738581,-0.007527512973978006,0.011997619878132254,0.989138773271292
2015-04-06,-1,-0.0009798972836028725,-0.0008598614992894518,-0.005947588642536672,0.013312615213213056,0.9881842271693011
2015-04-08,1,0.0006407058236295583,0.0007507642780916926,-0.00790930736956933,0.011110586091617917,0.9892570623531793
2015-04-10,1,0.00113720416075615,0.0012901683511479841,-0.00790930736956933,0.011837355421863455,0.9883355241920848
2015-04-14,1,0.0006920045743199504,0.0007609589118340495,-0.011087276157807293,0.011837355421863455,0.9873918887016248
2015-04-16,1,0.002026183461230692,0.0023188632320920717,-0.011087276157807293,0.011837355421863455,0.9872241798068446
2015-04-20,1,0.00183324529368323,0.002101586883463895,-0.008282918133814399,0.007717158422616175,0.9887079218025285
2015-04-22,1,0.0024111951454330377,0.0027465401404043353,-0.008282918133814399,0.0035888643735972094,0.9891388485769177
2015-04-24,1,0.002476105272299557,0.0028602418214942246,-0.008282918133814399,0.0035888643735972094,0.9893387598119523
2015-04-28,1,0.0017412961099658943,0.0020797544049322558,-0.008282918133814399,0.007237220788981472,0.9895798809720252
2015-04-30,1,0.00045172758848733923,0.0005856085645777021,-0.007182040385912805,0.007237220788981472,0.9897975115661951
2015-05-04,1,0.0020108596232777344,0.002418176764016584,-0.007182040385912805,0.0031578184210993556,0.9903011089605263
2015-05-06,1,0.0006653875439922812,0.0008172326679573206,-0.0066862290960934476,0.005223168160964995,0.9911917369344544
2015-05-08,1,0.0013792483051091443,0.0016159400629304254,-0.005716880942303815,0.004539917188106705,0.9922318728259567
2015-05-12,-1,-0.00018452465340352523,-0.00015033645028666545,-0.005048536461342765,0.0048656488944498425,0.9927308894091269
2015-05-14,1,0.0017389352118138538,0.002074669137318716,-0.005716880942303815,0.0048656488944498425,0.9926128123052278
2015-05-18,1,0.0016751031636647222,0.001955072878115335,-0.005716880942303815,0.004519229438452418,0.9927019281613434
2015-05-20,1,0.001255698385379003,0.0014292039216307396,-0.005716880942303815,0.0048656488944498425,0.9912858242265116
2015-05-22,1,0.001409415377693484,0.001630811105725999,-0.005716880942303815,0.005223168160964995,0.9910412086391588
2015-05-27,1,0.0003598273753770155,0.0003965112063629323,-0.005716880942303815,0.0048656488944498425,0.9920846053640487
2015-05-29,-1,-0.0008128083513787336,-0.0006930039974659565,-0.005048536461342765,0.0048656488944498425,0.9928898479175184
2015-06-02,-1,-0.0006990852425656022,-0.0005977290900087371,-0.005751901857009092,0.005161104912002136,0.9906863948645167
2015-06-04,-1,-0.0006635833629299798,-0.0005378176293410455,-0.007968782198361203,0.005966971214195186,0.9902561090489305
2015-06-08,-1,-0.0011507634780661064,-0.0009608517168739123,-0.007968782198361203,0.008401396990117454,0.9899511228610732
2015-06-10,-1,-0.0018132193796767016,-0.001510064948186584,-0.008083650177161323,0.008401396990117454,0.9895815493485882
2015-06-12,-1,-0.0008313516203533596,-0.0007093407170581963,-0.006691015238252891,0.009393577896838872,0.9893108813500029
2015-06-16,-1,-0.0005546321257623127,-0.00048575760266656495,-0.006691015238252891,0.00987451802674955,0.9878792509621718
2015-06-18,1,0.00031848359237424573,0.00035809373290112984,-0.006691015238252891,0.00987451802674955,0.9887072194603906
2015-06-22,1,0.00012139884072491708,0.0001641342141792908,-0.006691015238252891,0.00987451802674955,0.9887859085554254
2015-06-24,-1,-0.0007697097418957475,-0.0005943216070422321,-0.0051371860667980464,0.00987451802674955,0.9891986674471499
2015-06-26,-1,-0.0012318036671523508,-0.0010018660269264057,-0.004562160582919765,0.011245336375764045,0.9857958016665977
2015-06-30,-1,-0.002181597147497512,-0.0018492865198578296,-0.004562160582919765,0.01211463206631307,0.9856093876015344
2015-07-02,-1,-0.002750640523503321,-0.00231224898266638,-0.0016584940651582548,0.016716314152091946,0.9847478227366817
2015-07-07,-1,-0.0017453523240928426,-0.001463055442582386,-0.004790018072828996,0.016716314152091946,0.9856515560143008
2015-07-09,-1,-0.0026401932376713694,-0.002257248967047676,-0.004045541064627578,0.016716314152091946,0.9841623122704749
2015-07-13,-1,-0.0013344333686838798,-0.0011275732268778058,-0.004790018072828996,0.01575009790431004,0.9848634318289927
2015-07-15,0,-1.3367808230824399e-05,1.94070283226156e-05,-0.006085154785830509,0.013070724405037395,0.9853338441751862
2015-07-17,1,0.0005203214691305281,0.0005483966660899115,-0.00799506695494199,0.010091898838149687,0.9853033261520726
2015-07-21,1,0.0007410092977516264,0.0008164674806221243,-0.010432032416751485,0.012251352715114702,0.9846203146303923
2015-07-23,1,0.0008631346838335895,0.00096118344581655,-0.011956727907617532,0.012251352715114702,0.9828295958153722
2015-07-27,1,0.0012314183518246141,0.0013693162627926964,-0.01201625537149638,0.010091898838149687,0.9822410495751855
2015-07-29,1,0.001621563263195173,0.0017608597941924124,-0.013292212912368661,0.010091898838149687,0.9808246551087211
2015-07-31,1,0.0021979068934894802,0.002396416357308131,-0.013292212912368661,0.009861661740969889,0.981437081936655
2015-08-04,1,0.0018825920629665306,0.002039631235584242,-0.02688911027780455,0.009861661740969889,0.9794020167816336
2015-08-06,1,0.0018253687243522337,0.0020760707796579282,-0.021661108104163232,0.01153044193835233,0.9792040879896459
2015-08-10,1,0.002258516762078629,0.002603745604796772,-0.021661108104163232,0.01153044193835233,0.9771202298006817
2015-08-12,1,0.002604736763676237,0.003034540721493336,-0.023477812594802822,0.011560641423575303,0.9764365302211239
2015-08-14,1,0.001678972871795657,0.0019411693748584763,-0.023477812594802822,0.011560641423575303,0.9768984362376707
2015-08-18,1,0.0010757990760990044,0.0011963516777448585,-0.023477812594802822,0.008487299834374776,0.9776057865530006
2015-08-20,1,0.00025759191011188055,0.0003105730843945239,-0.02180719648292276,0.011883939594651994,0.9778292552799027
2015-08-24,-1,-0.003340896906603914,-0.0028988895212810582,-0.020462694779153447,0.011883939594651994,0.9809643523534716
2015-08-26,-1,-0.002073069043336592,-0.0017623030288309886,-0.020462694779153447,0.008487299834374776,0.9838421532985548
2015-08-28,-1,-0.0010668183654812392,-0.0009235113244311572,-0.022697104422174496,0.0022302756397454284,0.9805410462887024
2015-09-01,-1,-0.002552853061287784,-0.0022683598080340483,-0.020462694779153447,0.012369776012674798,0.9810550794547972
2015-09-03,-1,-0.002113352224534683,-0.0018739488704316559,-0.016767362171461908,0.013678476713946511,0.9819124067898246
2015-09-08,-1,-0.00028467420594328093,-0.0002622063679181968,-0.018848972188407767,0.012369776012674798,0.9835639226194499
2015-09-10,-1,-0.0006014636291335134,-0.0005778940642468446,-0.015859987871101957,0.012823906090068754,0.9823444709669662
2015-09-14,-1,-0.0006165047421575449,-0.0006083281818770182,-0.015859987871101957,0.014349805732329376,0.9818456052384154
2015-09-16,-1,-0.0005980760660658569,-0.0005976015482076386,-0.018848972188407767,0.014349805732329376,0.9807192957994467
2015-09-18,-1,-0.0012916740693359027,-0.001160845072994713,-0.015859987871101957,0.014349805732329376,0.9810115576549585
2015-09-22,-1,-0.0028317688824225796,-0.0024781117365306115,-0.015859987871101957,0.014349805732329376,0.9801897245652357
2015-09-24,-1,-0.0027710389313035087,-0.00246925610671638,-0.006280018702589655,0.015086799628574107,0.9799794707155246
2015-09-28,-1,-0.005703167806316006,-0.005032175654105641,-0.00017279924331422007,0.01927400035705848,0.9795774715817276
2015-09-30,-1,-0.003646488511611894,-0.0032551105729791466,-0.00017279924331422007,0.018987678106770264,0.981751413606289
2015-10-02,-1,-0.0030581094830401554,-0.002697960726257771,-0.005006637982369908,0.018987678106770264,0.9828254020297655
2015-10-06,-1,-0.0027557043306603735,-0.002472250300299424,-0.002149228280852999,0.02172656602142024,0.9826671136749127
2015-10-08,-1,-0.00041872280655716476,-0.00041130074027321813,-0.003696869677321726,0.018987678106770264,0.9861637209084074
2015-10-12,1,0.00032379554732751045,0.00043784527717635714,-0.004828675886808735,0.015635889418793316,0.9870744878022754
2015-10-14,-1,-0.0006922641656014241,-0.000672750054701404,-0.005852808436294406,0.015635889418793316,0.987952137235522
2015-10-16,1,3.3682983205328155e-05,7.496426658290469e-05,-0.008303635485584087,0.012838733930986286,0.9875284462418792
2015-10-20,-1,-0.0009434915649661848,-0.000822405629903356,-0.005852808436294406,0.018493992764182225,0.9875106590278958
2015-10-22,-1,-0.00046547036143233713,-0.00040268316839005,-0.008141575004356964,0.019615317906597235,0.9868585983521077
2015-10-26,1,0.0010274077337697894,0.0011731222466175263,-0.008141575004356964,0.016873117673707,0.9879612398161742
2015-10-28,1,0.0016057778957146685,0.0018065977667476633,-0.008141575004356964,0.009392950351383433,0.9887410895773364
2015-10-30,1,0.0005930334953359199,0.000647086056712564,-0.005852808436294406,0.009392950351383433,0.9892502955587537
2015-11-03,1,0.0014417067984690217,0.0016132283402245109,-0.008141575004356964,0.00589368680177658,0.9897751845869882
2015-11-05,1,0.0011710892860564725,0.0013058415685146306,-0.008918119810236259,0.009392950351383433,0.986354510147428
2015-11-09,1,0.00127932628667894,0.0014750438908300704,-0.009143704375611548,0.009392950351383433,0.9857341947969419
2015-11-11,1,0.0009370753133432626,0.0011128886780390522,-0.009050620279054223,0.012457495249618523,0.9856406608811921
2015-11-13,-1,-0.00037173435615978583,-0.0003503200817099753,-0.009050620279054223,0.016776330907402187,0.9849984416544384
2015-11-17,1,0.0007087409490921632,0.0008047218141442273,-0.009050620279054223,0.013041757132395346,0.9852011494504065
2015-11-19,1,0.0005657087651636993,0.0005854423323086627,-0.01517250792006849,0.011468417816633844,0.9848072708134172
2015-11-23,1,0.0010706099739125805,0.0011517821897304836,-0.01517250792006849,0.011468417816633844,0.9847282772704699
2015-11-25,1,0.001524333672648862,0.0016895548139708866,-0.01517250792006849,0.011468417816633844,0.9848870615099323
2015-11-30,1,0.0003946620846074464,0.00042922142124972285,-0.012419061890580431,0.01322860082980146,0.9842375367988359
2015-12-02,1,0.0007508871106274928,0.000813149194035388,-0.012419061890580431,0.01322860082980146,0.9843256556642264
2015-12-04,1,0.001460817998357801,0.0016747674473585007,-0.012419061890580431,0.011468417816633844,0.986987400803228
2015-12-08,1,0.0013559814406841832,0.001590108083839182,-0.012419061890580431,0.011468417816633844,0.9865118684297639
2015-12-10,1,0.0014577762792738562,0.0017100756300071468,-0.017003791654370548,0.006838768306250747,0.9856503144109112
2015-12-14,1,0.0012315645054732176,0.0014595711001180057,-0.017003791654370548,0.006838768306250747,0.9852501086023439
2015-12-16,1,0.002562773900288427,0.0029824515051021603,-0.017003791654370548,0.0035421817572923236,0.9835678753651362
2015-12-18,1,0.0020420096986420158,0.0024566249024293987,-0.012817742392316518,0.00801468943664154,0.9845038405776511
2015-12-22,1,0.0032858544066587175,0.003925264394670641,-0.01454695498855832,0.00801468943664154,0.9831838402728532
2015-12-24,1,0.003384143659748075,0.00401874159565986,-0.015373484947668783,0.00589999889704612,0.9821700000203291
2015-12-29,1,0.0031004219484050835,0.003644774775954148,-0.017743526268131936,0.0005703026139342198,0.9815660901392225
2015-12-31,1,0.002795549458306213,0.003309014173454054,-0.017743526268131936,0.006958370082783454,0.9812681611326718
2016-01-05,1,0.002065846905699254,0.0024835215622748923,-0.01705468287585557,0.008145346269508458,0.9820617899828847
2016-01-07,1,0.0008894681039963299,0.001123153216094355,-0.01705468287585557,0.008145346269508458,0.9821346929333216
2016-01-11,0,-3.6595385116449254e-05,7.94750470046149e-05,-0.015081970351518929,0.008145346269508458,0.9833127664656517
2016-01-13,-1,-0.0010521001141736057,-0.0009754373407829584,-0.015081970351518929,0.005779264746389933,0.9843444703751448
2016-01-15,-1,-0.0014149202826650195,-0.0011606435122866652,-0.015081970351518929,0.012841890659813367,0.9855333628732124
2016-01-20,1,0.00022620435909801985,0.00023208775425692413,-0.015081970351518929,0.012841890659813367,0.9848549860058408
2016-01-22,1,0.0006354963044215918,0.0007181426055246288,-0.014811498745657348,0.007000563815662111,0.9858292916890075
2016-01-26,-1,-0.0009521985716076172,-0.0007479587867311949,-0.014071068553394388,0.007000563815662111,0.9864881399641032
2016-01-28,-1,-0.0019235554862810785,-0.0016272551160041266,-0.010722865685142942,0.007225534568879092,0.9877119226985139
2016-02-01,-1,-0.00021574042543089021,-0.00017682454697624754,-0.012303597886460436,0.007225534568879092,0.9852737899680284
2016-02-03,-1,-0.00085629906241111,-0.0007281822414922582,-0.011319558232912811,0.007225534568879092,0.9856408840337207
2016-02-05,-1,-0.0024045044094255343,-0.00207339385380631,-0.010590568241571636,0.009714518150971792,0.9868147566998875
2016-02-09,-1,-0.0028017348116705265,-0.0024270758197806616,-0.011319558232912811,0.009714518150971792,0.9856377754233526
2016-02-11,-1,-0.003293310191910956,-0.002855811950302687,-0.010590568241571636,0.011030885939336084,0.9857389512452024
2016-02-16,-1,-0.002471236311939588,-0.002080742501833763,-0.010590568241571636,0.005567234381472117,0.987531767254088
2016-02-18,-1,-0.0023785021612429133,-0.0019687762209429256,-0.009910124417647524,0.005405542934564603,0.9888867179403679
2016-02-22,-1,-0.004036038523877187,-0.00331340127097506,-0.009000422606487191,0.006621866328719998,0.9881951598917552
2016-02-24,-1,-0.0036142874470594896,-0.0030069389751394616,-0.010109021933570814,0.009226791733519531,0.9868253936283976
2016-02-26,-1,-0.002964930398394852,-0.0024792974423799,-0.010109021933570814,0.009226791733519531,0.986940007198666
2016-03-01,-1,-0.0029952154905346,-0.0024889330467658256,-0.0069861954601813,0.007939286984859802,0.990159157047546
2016-03-03,-1,-0.002389507002543207,-0.002048992443744905,-0.0015076209798852375,0.009226791733519531,0.989088097116431
2016-03-07,-1,-0.0016982556224841188,-0.0014704453671502747,-0.00680960646656691,0.008055228807566633,0.9893138710465099
2016-03-09,-1,-0.0038485984255120414,-0.0033154175220300756,-0.0015076209798852375,0.009758105462955448,0.9875982634427418
2016-03-11,-1,-0.002223277651495219,-0.0019342488553059979,-0.005833632198664625,0.008055228807566633,0.9894628325842293
2016-03-15,-1,-0.002786541926975066,-0.0024108139898915805,-0.0017929855238291205,0.009758105462955448,0.9883779036181332
2016-03-17,-1,-0.0022953202255356062,-0.001997637082204292,-0.0017929855238291205,0.009758105462955448,0.9888610661460556
2016-03-21,-1,-0.0007747687564367827,-0.0007208944085208098,-0.0017929855238291205,0.009355241730397573,0.9898235472825944
2016-03-23,1,9.649917052173188e-05,0.00019793367458328172,-0.00016208094509267872,0.00934638488589429,0.9913478710111805
2016-03-28,-1,-0.0003624465832924957,-0.0003565198700973947,-0.00016208094509267872,0.00934638488589429,0.991099763802448
2016-03-30,1,0.00033407582633929335,0.0004697691672483773,-0.004260280534542119,0.00934638488589429,0.9910521496502228
2016-04-01,1,0.0011721693598150753,0.0014072014287280048,-0.006148816361840978,0.005354990383121931,0.9916451061095515
2016-04-05,1,0.0008102697772634948,0.0009805805008903667,-0.006148816361840978,0.005570494369723986,0.9913231775745854
2016-04-07,1,0.001384401420517831,0.001599202170814204,-0.006148816361840978,0.004143323733575857,0.9933391572959149
2016-04-11,1,0.0006301779578638569,0.0006846317101369935,-0.006918491385197729,0.005570494369723986,0.9927464238487511
2016-04-13,1,0.0018491298350131425,0.002131764608974407,-0.008133643395058104,0.004143323733575857,0.992102387122065
2016-04-15,1,0.002069460236398879,0.00240277198708527,-0.009066528984775463,0.004143323733575857,0.9914470543018297
2016-04-19,1,0.002690775373518022,0.0031382284619766738,-0.011989938997765749,0.004143323733575857,0.9902927566692339
2016-04-21,1,0.0032119326153536385,0.003743595239699287,-0.013928327261521637,0.0023306114052951132,0.9894844815442629
2016-04-25,1,0.0027695556956500228,0.003211406064714029,-0.013928327261521637,0.004468243463132534,0.9894820671985936
2016-04-27,1,0.0022673625757789555,0.0026360200113482693,-0.013928327261521637,0.007068207296714952,0.9888685206987137
2016-04-29,1,0.0017486938884434654,0.0020553768460467104,-0.009696283554057565,0.008276888106904532,0.9895781270208662
2016-05-03,1,0.0011929327176977192,0.00140334550305919,-0.0072294532484368495,0.008328973491829407,0.9902680891267759
2016-05-05,1,0.0008940038798709513,0.0010695454529032582,-0.006112661043659321,0.010496337795001021,0.9902635683833214
2016-05-09,1,0.0009509885868301936,0.0011184201119386935,-0.006423520208433194,0.008328973491829407,0.9906010765602676
2016-05-11,1,0.0013441137362638932,0.00162951433071054,-0.006325056403358607,0.007667650564241571,0.99139416787758
2016-05-13,1,0.0005624896035630721,0.0006886797645053453,-0.007819990518385505,0.007667650564241571,0.990815621814323
2016-05-17,1,0.000519080672010079,0.0006756214757743398,-0.007273924839036315,0.007667650564241571,0.9917024928435099
2016-05-19,1,0.00043556215783064657,0.0005959743406328353,-0.007273924839036315,0.007667650564241571,0.9916577719248397
2016-05-23,1,0.0006811037729667253,0.0008847331547317072,-0.007819990518385505,0.00707564604396067,0.9916833302779535
2016-05-25,1,0.0016182720175260442,0.0019265734735599339,-0.007819990518385505,0.0064323757604879805,0.9926498734823949
2016-05-27,1,0.0013918135352015725,0.0016271920820382288,-0.008869271850423112,0.0035454792060397363,0.9903867754081639
2016-06-01,1,0.0011703060401074563,0.0013260357860406732,-0.008869271850423112,0.0064323757604879805,0.989044368820634
2016-06-03,1,0.0008237696981573321,0.0008782250055140473,-0.008869271850423112,0.00799289455521587,0.9885748720106581
2016-06-07,1,0.0004942595777571727,0.000503905709533122,-0.008869271850423112,0.01137401310896595,0.9887230043770624
2016-06-09,1,0.0007463724247415087,0.0008252380600507112,-0.008869271850423112,0.012068022930810638,0.9879587531019745
2016-06-13,1,0.000427635273284673,0.0005036251877552122,-0.006064297407751488,0.012068022930810638,0.9883079934750393
2016-06-15,1,0.00033902542301670723,0.0004161589788270287,-0.006324264341855004,0.013700624699803668,0.9875937937532175
2016-06-17,-1,-0.0003076358963604274,-0.00027860140037166416,-0.003035401308812152,0.013700624699803668,0.988072209544329
2016-06-21,-1,-0.000980619788892816,-0.0008214728579473711,-0.0022828127824718754,0.013700624699803668,0.988265458971152
2016-06-23,1,0.00011041609215140675,0.0001226816864387619,-0.0022828127824718754,0.012068022930810638,0.988790568076698
2016-06-27,-1,-0.001686991150280939,-0.001468613632863549,0.0024724057459365118,0.012068022930810638,0.9898086449493585
2016-06-29,-1,-0.0011585731646460257,-0.0009490728054477686,0.0024724057459365118,0.012068022930810638,0.9909189143353803
2016-07-01,-1,-0.0006236553932017091,-0.0004568273952290682,0.0024724057459365118,0.011218990938365973,0.9917430361743194
2016-07-06,-1,-0.0006187500299189956,-0.0004233584065001473,-0.0005790045221073001,0.00953858747226896,0.9921901425216881
2016-07-08,1,0.001003867591965866,0.0010644742415930632,-0.0022828127824718754,0.007251681944053872,0.9937916887933558
2016-07-12,1,0.001301979341812055,0.0014250215276921587,-0.0022828127824718754,0.005984608301391381,0.9941683868268734
2016-07-14,1,0.001296517672919764,0.001407361373332228,-0.0022828127824718754,0.005984608301391381,0.9946926947832542
2016-07-18,1,0.0010745565494650635,0.0011366752566887707,-0.0018065773188710756,0.006750226691034994,0.9943823415544799
2016-07-20,1,0.0011092387655116968,0.0011760532965109675,-0.00216505391368148,0.007509555341695053,0.9934584108493544
2016-07-22,1,0.0015638660266120482,0.0016957043468031588,-0.0041963155577640675,0.006750226691034994,0.9937613432397362
2016-07-26,1,0.0015342574865287468,0.0016262503578903385,-0.0041963155577640675,0.006052158964062988,0.9939779736074854
2016-07-28,1,0.0022054232448652307,0.00239717986548148,-0.004521504597128714,0.0047174742207580465,0.9935217499020317
2016-08-01,1,0.001829252401195683,0.0018853256603084735,-0.004521504597128714,0.004586864071772744,0.9935022918291063
2016-08-03,1,0.0019754814589527684,0.0020865292189995843,-0.004521504597128714,0.004586864071772744,0.993284216638294
2016-08-05,1,0.0016764496741148497,0.0017245829577121619,-0.004514591853886861,0.003617471351878919,0.9935640548919439
2016-08-09,1,0.0013254046032310375,0.0013326091911036106,-0.004167707958612824,0.004729135555861469,0.9938640848643738
2016-08-11,1,0.0015455417970535136,0.0016122595094072872,-0.004167707958612824,0.003617471351878919,0.9930599265577085
2016-08-15,1,0.002006439828531001,0.0021484986339879285,-0.004896294372607372,0.002944351380829285,0.9909840265907736
2016-08-17,1,0.0017650131473739199,0.0018650017129320353,-0.004167707958612824,0.004393882314929188,0.99156493768052
2016-08-19,1,0.0016227060863115417,0.0017111760102488582,-0.004167707958612824,0.004393882314929188,0.9914901141910609
2016-08-23,1,0.0020850825652028076,0.0022888327066243044,-0.004167707958612824,0.005296838136083313,0.9910888607552616
2016-08-25,1,0.001155273425010147,0.0012164182344380097,-0.004167707958612824,0.007272230176632373,0.9917402513630315
2016-08-29,1,0.0018179808794127929,0.0020172499819483994,-0.005318212904019008,0.005296838136083313,0.9913513448773522
2016-08-31,1,0.0013334427230956782,0.0014545240213921357,-0.00958857285388292,0.005296838136083313,0.9900071129516783
2016-09-02,1,0.0015863854411025417,0.0017813400592100632,-0.00958857285388292,0.006781950865355406,0.9898715146002819
2016-09-07,1,0.0016863843742054834,0.0018927807521045181,-0.00958857285388292,0.005776191142558562,0.9900532992800452
2016-09-09,1,0.0011053163886996604,0.0012556054065914427,-0.007732870494927946,0.005776191142558562,0.9911062544538399
2016-09-13,1,0.0017859178224915373,0.002049682059824423,-0.007732870494927946,0.0048672509637597726,0.9921658373456335
2016-09-15,1,0.002263393437626901,0.0025786958924874015,-0.007732870494927946,0.0032816961457377944,0.9926119829873072
2016-09-19,1,0.0017444290832909978,0.0019607593834610236,-0.008186372987322438,0.003808052143309944,0.992283919935882
2016-09-21,1,0.0018437012871982423,0.002038405081350564,-0.010661108481696008,0.0032816961457377944,0.9921161742725754
2016-09-23,1,0.001703523829828219,0.001853041362163594,-0.011008521362793254,0.00274985655911856,0.991834386161508
2016-09-27,1,0.0008122213312258634,0.0008150382351636692,-0.010720549513422868,0.00274985655911856,0.9926103591043637
2016-09-29,-1,-0.0003835135814908535,-0.00025591025493248846,-0.0033625339971474944,0.003808052143309944,0.9935684084623535
2016-10-03,-1,-0.00017486277350661766,-7.936718886344951e-05,-0.01156069926586903,0.0028542924263727015,0.9881125881056282
2016-10-05,-1,-0.0004728513741939685,-0.00032171111899520434,-0.01456928826824077,0.0028542924263727015,0.9874784052427606
2016-10-07,-1,-0.0007830304660174569,-0.0005691986161149637,-0.015604608477751893,0.0025281669906525583,0.9865245867072778
2016-10-11,-1,-0.0015841032291926513,-0.0012605682836466714,-0.01456928826824077,0.0025281669906525583,0.9864068046922869
2016-10-13,-1,-0.0015331567943228403,-0.0012249097160054615,-0.01456928826824077,0.005061192233034289,0.9820220647734987
2016-10-17,-1,-0.001138163375774558,-0.0009321807380061344,-0.0169138223435688,0.003681335724477596,0.9813328161899117
2016-10-19,-1,-0.0013061062004575477,-0.001088587503809778,-0.0169138223435688,0.005004031827105072,0.9815359506947294
2016-10-21,-1,-0.0016106525636508193,-0.0013671899161026482,-0.015149129332921063,0.005004031827105072,0.9818278076462122
2016-10-25,-1,-0.001595730437502093,-0.0013630421823511195,-0.015149129332921063,0.005004031827105072,0.981649276153149
2016-10-27,-1,-0.0012157421051680393,-0.0010241559436313151,-0.015149129332921063,0.003161251862030489,0.9820734725533201
2016-10-31,-1,-0.004569428590203879,-0.00397169443466284,-0.009900113260409082,0.004490731424595187,0.9870829570949758
2016-11-02,-1,-0.0053177405269942205,-0.0046053398663058265,-0.012050571434700855,0.004490731424595187,0.986799091578797
2016-11-04,-1,-0.006055814151239056,-0.005248823530853977,-0.009201768794900572,0.007030051481917873,0.9863921629264512
2016-11-08,-1,-0.005643426893837421,-0.004867313340508455,-0.012050571434700855,0.005240143365522596,0.9869222078588864
2016-11-10,-1,-0.0032075654298951866,-0.002714063313630911,-0.012050571434700855,0.004490731424595187,0.9910982591720093
2016-11-14,-1,-0.004015960657249385,-0.003447352549970021,-0.005282728808237283,0.007030051481917873,0.9902293447470307
2016-11-16,-1,-0.00488778538155777,-0.004142914940409073,-0.005282728808237283,0.00951048993580325,0.9895428871717727
2016-11-18,-1,-0.004600525868400507,-0.003942383384466948,-0.0071822975951548376,0.00951048993580325,0.9899623212341071
2016-11-22,-1,-0.004288390213230984,-0.0037053220522429327,-0.006869846663493213,0.00951048993580325,0.9903755755436855
2016-11-25,-1,-0.0038042758563197063,-0.0032952833794239224,-0.006869846663493213,0.00951048993580325,0.9903829490354904
2016-11-29,-1,-0.003051419385519887,-0.002676399329235394,-0.006869846663493213,0.00951048993580325,0.9904495889304642
2016-12-01,-1,-0.0035678939001910865,-0.003142550549084364,-0.005183747863143234,0.00951048993580325,0.9907542044673083
2016-12-05,-1,-0.0028654557060259845,-0.002531481650443586,-0.005183747863143234,0.012124263858072488,0.9896196639064031
2016-12-07,-1,-0.003546107703252173,-0.0031373201211369758,-0.004349943357815642,0.014673964917773865,0.9892036230906482
2016-12-09,-1,-0.0027984543316546956,-0.0024825531213801357,-0.003802510594962863,0.013403953727574375,0.9896813958506058
2016-12-13,-1,-0.0015601959428230632,-0.0014110919635197154,-0.006869846663493213,0.008956280679864913,0.9909749989308411
2016-12-15,-1,-0.0009012001895474301,-0.0008471596044549057,-0.0073603815323053014,0.00614989925372908,0.9911465802101813
2016-12-19,-1,-0.0009283173767121136,-0.0009015496186807915,-0.0073603815323053014,0.006732281582943498,0.9909785136135157
2016-12-21,-1,-0.0008249966965863343,-0.0008141610701704082,-0.008147432060212413,0.006732281582943498,0.9905349956349335
2016-12-23,-1,-0.0005406208333795079,-0.0004935781707779651,-0.008147432060212413,0.007984472119711976,0.9901494159112715
2016-12-28,-1,-0.00040398250054422846,-0.00033121015926086716,-0.008147432060212413,0.013403953727574375,0.988982035438267
2016-12-30,-1,-0.0006708176724004347,-0.0006391031118649372,-0.008147432060212413,0.014290603290038967,0.9879128219463551
2017-01-04,1,0.0005751025910538174,0.0007807970358333744,-0.008147432060212413,0.013496988847328775,0.9893261942566963
2017-01-06,1,0.0013507588721581314,0.001669103517204892,-0.008147432060212413,0.013496988847328775,0.9877725461625061
2017-01-10,1,0.0016585664683903944,0.002015909774711405,-0.008147432060212413,0.009486994971459155,0.9881162515419278
2017-01-12,1,0.0011747144710908789,0.0014643671670500188,-0.006089519576755227,0.009486994971459155,0.9889897455387551
2017-01-17,1,0.0012167427304164312,0.001520884135108088,-0.005677122942480028,0.009486994971459155,0.9894741569140991
2017-01-19,1,0.0008431118878577056,0.0010673677083032082,-0.004317339340889139,0.014631594805321476,0.9892282311315982
2017-01-23,1,0.0008410271689268555,0.001077988783468219,-0.0019940018211857743,0.014631594805321476,0.989751456721008
2017-01-25,1,0.001013546492330369,0.0012641603295225354,-0.0017927142675253484,0.009725478078555665,0.990251182981039
2017-01-27,1,0.001506915871062207,0.0018225853444940865,-0.0009916541617311877,0.008331571978009688,0.991629842710468
2017-01-31,1,0.0015656005583045583,0.0018988020859928192,-0.0006391211756895019,0.008331571978009688,0.9927973868571636
2017-02-02,1,0.0017066405161883416,0.0020250722201077026,-0.0008876143446135336,0.008331571978009688,0.993161831338086
2017-02-06,1,0.002837983338763268,0.003326596385387444,-0.0010577997122374527,0.007872251447876987,0.9949400067652913
2017-02-08,1,0.003241997119386276,0.0038090925106868553,-0.0010577997122374527,0.007169712014186361,0.9949542031151108
2017-02-10,1,0.0031643327187823667,0.003712987702828338,-0.0010577997122374527,0.008331571978009688,0.9945897986515444
2017-02-14,1,0.0033625904421237824,0.003957048901866329,-0.001252686797994272,0.009167257409679977,0.9939582913551234
2017-02-16,1,0.004181146940153954,0.0049001112064348765,-0.00332244822349182,0.008331571978009688,0.990666195034518
2017-02-21,1,0.003440858356560079,0.004013759011876989,-0.004364057193748998,0.008331571978009688,0.9902422678151286
2017-02-23,1,0.0030767141407539497,0.00355590004028258,-0.0059576712379230895,0.007057833403477567,0.9902489168092626
2017-02-27,1,0.0034009119541929134,0.003935083155494425,-0.0059576712379230895,0.004405450714925123,0.989741413834681
2017-03-01,1,0.0035812647152387786,0.004136884189154657,-0.008819749992509745,0.0036311075449655776,0.98906020714248
2017-03-03,1,0.003757624588287379,0.004336401339871414,-0.008819749992509745,0.0036311075449655776,0.989101047909154
2017-03-07,1,0.0031663433970019815,0.003642055107600246,-0.0059576712379230895,0.0036311075449655776,0.9902947274685056
2017-03-09,1,0.003258940763898429,0.003744235288369568,-0.008819749992509745,0.0030498358070468073,0.989445343827852
2017-03-13,1,0.003275558021135698,0.0037482203309435694,-0.008819749992509745,0.0030498358070468073,0.9897120024691464
2017-03-15,1,0.0032535637404397465,0.003709603396139701,-0.008819749992509745,0.0021912719940017557,0.9903567153030531
2017-03-17,1,0.0016063897000376188,0.001824217828050513,-0.005861002376812406,0.0029243054554578215,0.9946417154444906
2017-03-21,1,0.0013291942082698164,0.0015042555067618195,-0.005082151752406033,0.0021912719940017557,0.9951878544239013
2017-03-23,1,0.0014217197846016529,0.001627301526983197,-0.005082151752406033,0.0021912719940017557,0.9950159474650753
2017-03-27,-1,-0.0001987466882598286,-5.931530904475295e-05,-0.004034723879207615,0.0035296264400077465,0.9946117837944035
2017-03-29,-1,-0.0007991881899940623,-0.0005662995354704281,-0.004034723879207615,0.0035296264400077465,0.9945715015052039
2017-03-31,-1,-0.0010067800646488797,-0.0007363340897370339,-0.004632658699226435,0.0032422392354910026,0.9946461636270741
2017-04-04,-1,-0.0008398540765515035,-0.0006037598969745706,-0.004632658699226435,0.003974740320387329,0.9944096786376764
2017-04-06,-1,-5.991574038366368e-05,-3.1984702162474957e-09,-0.0038105956013262934,0.003974740320387329,0.9948010947886815
2017-04-10,-1,-0.0004980417497688924,-0.00034955353568974805,-0.004496799487033027,0.0032422392354910026,0.9950300181445987
2017-04-12,-1,-0.0004816417435424475,-0.0003363087007996118,-0.004897465896290176,0.0032422392354910026,0.9942405632506873
2017-04-17,-1,-0.0008652279297674089,-0.0006585643755498469,-0.004496799487033027,0.0031194867804000964,0.9947194079559142
2017-04-19,-1,-0.001116942236227388,-0.0008747871946054479,-0.004496799487033027,0.0031194867804000964,0.9940682806627184
2017-04-21,-1,-0.0012046265077541294,-0.0009585330111090196,-0.004496799487033027,0.0031194867804000964,0.9940611523965526
2017-04-25,-1,-0.0006719833704510554,-0.0004880628353929181,-0.005866109016302076,0.0022004927447652842,0.9940095286471646
2017-04-27,-1,-0.0013442666419312861,-0.0010540836700332532,-0.004496799487033027,0.0035018283197039662,0.9940498586049934
2017-05-01,-1,-0.0011668837092410483,-0.0009180867649256036,-0.005442033418380913,0.00305764518167789,0.9940450984852305
2017-05-03,-1,-0.001436714542164213,-0.0011267155333928819,-0.005442033418380913,0.003922141624659755,0.9936795588910683
2017-05-05,-1,-0.0013876156269915494,-0.001091905954361211,-0.005442033418380913,0.00590817403304648,0.9925868417451031
2017-05-09,-1,-0.001058041095581298,-0.0008385819453035435,-0.0051007736500460945,0.006512044736093559,0.9919988606846509
2017-05-11,-1,-0.0013529616346123737,-0.001110558348316045,-0.0031032754595786355,0.006757914496207542,0.9919511607139064
2017-05-15,-1,-0.0016063186110515586,-0.0013171191437314558,-0.00312364711262199,0.006757914496207542,0.9916450382810656
2017-05-17,-1,-0.0021582863727946638,-0.0017928430549947227,-0.00312364711262199,0.006757914496207542,0.991940864199393
2017-05-19,-1,-0.002151024864194281,-0.0017948190361663462,-0.00312364711262199,0.007313636866416733,0.9913557859672136
2017-05-23,-1,-0.002530886230699067,-0.002128277729438556,-0.0027089599439025186,0.008760400328696759,0.9906100104244585
2017-05-25,-1,-0.002700798286003431,-0.0022583639957039275,-0.00312364711262199,0.01011401520106336,0.990180229847709
2017-05-30,-1,-0.00221799719912412,-0.0018838673738219606,-0.00312364711262199,0.01011401520106336,0.9894136957651354
2017-06-01,-1,-0.001781887187428743,-0.0015177683528485252,-0.004729044966974201,0.01361755023973386,0.9891304293054787
2017-06-05,-1,-0.0010198504327967534,-0.0008586386503190078,-0.004729044966974201,0.009839645724725482,0.9903644325647208
2017-06-07,-1,-0.0010958730048812842,-0.000903000361817081,-0.0063958253268144236,0.008504004315455706,0.9901052011103014
2017-06-09,-1,-0.000856466740491826,-0.0006856512189803671,-0.0063958253268144236,0.0075638142455240415,0.9906397097404653
2017-06-13,-1,-0.0009518960470843139,-0.000760457391407447,-0.0063958253268144236,0.0075638142455240415,0.9906291010392341
2017-06-15,-1,-0.0011576075964011502,-0.0009319765562389103,-0.0034629300276101008,0.010646454150089154,0.9899082622993249
2017-06-19,-1,-0.0009315837088986458,-0.0007419140229569724,-0.0017881020528838162,0.008890570182978745,0.9910783020563105
2017-06-21,1,0.00014381652325705363,0.00018476682189324256,-0.0017881020528838162,0.008731400130546305,0.9927093116029319
2017-06-23,1,0.00016406644673140763,0.00020268168388682048,-0.0006385873594146145,0.007199204679401685,0.9933384220147461
2017-06-27,1,0.00013836563111077992,0.00016457794325405853,-0.0011263902479769273,0.0069903501772436635,0.9930322241603491
2017-06-29,1,0.0008886922684475599,0.0010059417885704238,-0.0011263902479769273,0.0069903501772436635,0.9928658027927864
2017-07-03,1,0.0010208650321427565,0.001166948578548919,-0.0011263902479769273,0.0069903501772436635,0.9929381313163258
2017-07-06,1,0.0008528213512672188,0.0009739264319570098,-0.001105437089490425,0.005348424365164025,0.9938885756724131
2017-07-10,1,0.0009048390728144584,0.0010333049220226378,-0.001105437089490425,0.005348424365164025,0.9938966990004732
2017-07-12,1,0.0012607362663813648,0.0014666566110867565,-0.0016774033191169573,0.004778298973674138,0.9938450822195346
2017-07-14,1,0.0017812787395697425,0.0020631218152199838,-0.0019652526560816337,0.00247110906591607,0.9932965803189563
2017-07-18,1,0.0018604517424576957,0.0021584973843933614,-0.0029075861441473956,0.004328415167877701,0.9922550658109385
2017-07-20,1,0.0021846968661825036,0.0025401354687955868,-0.006197206812748733,0.004328415167877701,0.9911562072148835
2017-07-24,1,0.0025808198822211987,0.003005734675544514,-0.006197206812748733,0.00247110906591607,0.9907908337098674
2017-07-26,1,0.002089346685324906,0.002463906556392198,-0.005396351814264368,0.004449401110867707,0.9918033401020907
2017-07-28,1,0.001772561856992919,0.0020855068546152245,-0.0035985625517367995,0.004449401110867707,0.9933069780642286
2017-08-01,1,0.0018019963513693743,0.0021292903077972025,-0.0035985625517367995,0.005305780061216694,0.9931008775818395
2017-08-03,1,0.0019515947516378406,0.0023143807844225794,-0.0035985625517367995,0.008015703084089299,0.9919243532541141
2017-08-07,1,0.0022079565227083285,0.002621541801263124,-0.005396351814264368,0.008015703084089299,0.9914482221468124
2017-08-09,1,0.0015620919222987311,0.0017914623797885445,-0.003896968551395715,0.009798935494054422,0.9908432118802831
2017-08-11,1,0.0006802958484072732,0.000773740601480567,-0.0017013974998129706,0.011523274117956086,0.9902399263640457
2017-08-15,1,0.0006949573645746798,0.0007805137391482772,-0.0017013974998129706,0.011523274117956086,0.9898338746278246
2017-08-17,1,0.00016691192954228088,0.00016904708974250195,-0.001802609182214952,0.011523274117956086,0.9904468704025421
2017-08-21,0,-1.146191173515858e-05,2.682825536902864e-05,-0.002361463841641935,0.011523274117956086,0.990539175131618
2017-08-23,1,0.0002493426637516653,0.0002502518417236241,-0.002361463841641935,0.01045141373945203,0.990523695335071
2017-08-25,1,0.0003794436236533779,0.00039918571356652714,-0.004869785784855212,0.01045141373945203,0.9905121210828697
2017-08-29,1,0.000568849019382353,0.0005868673882667112,-0.004869785784855212,0.009441648701219737,0.9907624908217413
2017-08-31,1,0.0015492043163834069,0.0017003074738904105,-0.004869785784855212,0.0063233099308496925,0.9918822315043612
2017-09-05,1,0.0013107448858537107,0.0014297756647183293,-0.004088233959983691,0.0063233099308496925,0.9925194188656536
2017-09-07,1,0.0018133227163942695,0.0019839073314362656,-0.004869785784855212,0.0042307301437218975,0.9925923460409759
2017-09-11,1,0.00262443303310319,0.002886633098861478,-0.005378749182135189,0.0033182928357733867,0.9934389721114318
2017-09-13,1,0.0029466466539255646,0.0032340990079794477,-0.005378749182135189,0.0029241479852192957,0.9941696465865799
2017-09-15,1,0.0028970895188262778,0.0032230925137413085,-0.005378749182135189,0.0029241479852192957,0.9944767522924582
2017-09-19,1,0.0024274979294565966,0.0026603863394342,-0.005650638780708624,0.0033182928357733867,0.9937849595125653
2017-09-21,1,0.0024063881839236794,0.0026260045703789814,-0.005650638780708624,0.0029241479852192957,0.9938735095141875
2017-09-25,1,0.002344733077774678,0.002565651729600023,-0.006612179953600017,0.0021187601922577817,0.9930526566314695
2017-09-27,1,0.0019513269160677349,0.0021149347876626787,-0.007867935380637679,0.0021187601922577817,0.9927841652416437
2017-09-29,1,0.002105019015444644,0.0022721274941957656,-0.007867935380637679,0.0007044967016327742,0.9920566270382832
2017-10-03,1,0.0016991548888620088,0.0017663934307634395,-0.007867935380637679,0.0007044967016327742,0.9921471822000153
2017-10-05,1,0.001445546037313629,0.0014703362651780857,-0.007867935380637679,0.0006478693370996671,0.992173511908398
2017-10-09,1,0.0005572352870221102,0.0006816409691600834,-0.009519242483385627,0.0011980321519367773,0.9920582625287971
2017-10-11,0,-2.0326021438476843e-05,0.00018403261307437945,-0.00856001036893294,0.0011980321519367773,0.9920073647018551
2017-10-13,-1,-0.0008722735406227937,-0.000527663724559263,-0.01001090951932809,0.0014609593465656147,0.9920840461880861
2017-10-17,0,-0.0001756709153516783,7.7766835389828e-05,-0.01001090951932809,0.0007177040875814317,0.9927325189366001
2017-10-19,-1,-0.0011130144657978277,-0.0007237543259108283,-0.008361913176660846,0.0014609593465656147,0.9930273583696437
2017-10-23,-1,-0.0017484716818029207,-0.0013094210824482638,-0.007335342344422423,0.0014609593465656147,0.9935720455869653
2017-10-25,-1,-0.00197902552535951,-0.001558044074535063,-0.007047969662985491,0.0027168378018995695,0.9938420978089295
2017-10-27,-1,-0.002392699944073786,-0.0019374151775955082,-0.0054783166485445085,0.0027168378018995695,0.9941416081048076
2017-10-31,-1,-0.0021424149045818973,-0.0017425531194835738,-0.0054783166485445085,0.0039240939479806185,0.9935599925656554
2017-11-02,-1,-0.0027825361674862197,-0.0023112929965263505,-0.004614725206682775,0.006717173494467751,0.9927407581098583
2017-11-06,-1,-0.0033048271844684446,-0.002764867945644095,-0.004433548492202378,0.008256949233973762,0.9929458868615485
2017-11-08,-1,-0.002625963251277956,-0.0021723790583409964,-0.0054783166485445085,0.006717173494467751,0.9931540302276485
2017-11-10,-1,-0.002013431920770266,-0.00170472063493066,-0.004614725206682775,0.008238604882814077,0.9927275269714443
2017-11-14,-1,-0.0023925087991664993,-0.0020518596835146833,-0.003519705606474215,0.008238604882814077,0.9926087399670324
