JNU-Tangyin/eata/results/Batch4_SP500/Batch4_SP500-LNC.csv
Date,Action,Predicted_Q25,Predicted_Q75,Actual_Q25,Actual_Q75,RL_Reward
2010-12-14,0,0.0,0.0057488880137483616,-0.006639490759737325,0.009906893412718651,0.9915058726289273
2010-12-16,0,0.0,0.0,-0.009750490746231254,0.009906893412718651,0.9881106547867495
2010-12-20,0,0.0,0.0,-0.010468509194514392,0.009197910296019992,0.9880401781400409
2010-12-22,0,0.0,0.0,-0.010468509194514392,0.006661553737321209,0.9888801565483024
2010-12-27,0,0.0,0.0,-0.006639490759737325,0.006661553737321209,0.9896596498093916
2010-12-29,0,0.0,0.0,-0.0007713534043511435,0.009197910296019992,0.9891458532405272
2010-12-31,1,0.002612616940150409,0.0028564705870440326,-0.0035164281048317525,0.008156234759391005,0.9888822990867056
2011-01-04,1,0.003116240025373157,0.0031882546321509945,-0.010057129826390893,0.006392820467637642,0.9880158182714689
2011-01-06,1,0.0019579984775344094,0.0020684318444349377,-0.0035164281048317525,0.00920046622998379,0.9872452269026857
2011-01-10,0,0.0,0.0,-0.0027033353424276638,0.00920046622998379,0.986612355149719
2011-01-12,0,0.0,0.0,-0.0027033353424276638,0.008156234759391005,0.9871009918532986
2011-01-14,1,0.0018102003015439524,0.0022737725296916545,-0.0027033353424276638,0.008444277825000684,0.9875221655174252
2011-01-19,1,0.001552112498783451,0.0019921823617838506,-0.0005003224835497806,0.012563839764976607,0.9876939082878804
2011-01-21,0,0.0,0.0,-0.0027033353424276638,0.012563839764976607,0.986508315851549
2011-01-25,0,0.0,0.0,-0.008059928636872675,0.012563839764976607,0.984631952861334
2011-01-27,0,0.0,0.0,-0.008059928636872675,0.012563839764976607,0.9846084943675878
2011-01-31,0,0.0,0.0,-0.0060220881334058255,0.012563839764976607,0.9846919305279478
2011-02-02,0,0.0,0.0,-0.0060220881334058255,0.012563839764976607,0.9848716448503082
2011-02-04,0,0.0,0.0,-0.009686676118939929,0.007316142838169951,0.9861012423545128
2011-02-08,0,0.0,0.0,-0.010782226706157394,0.011586903811417346,0.9848330078797026
2011-02-10,1,0.0034860191431127885,0.0037654340330441397,-0.013564565542342807,0.013494922380371033,0.9831675295043013
2011-02-14,1,0.0039664432247873,0.004213774799037057,-0.013564565542342807,0.009448031749119307,0.9837609072924786
2011-02-16,0,0.0,0.0,-0.0178957928054128,0.007316142838169951,0.983852917594951
2011-02-18,0,0.0,0.0,-0.0178957928054128,0.01220739405132562,0.9828983222204273
2011-02-23,1,0.0014172302491131847,0.001436863150460509,-0.015123190728850752,0.01220739405132562,0.9838232460267625
2011-02-25,1,0.0018065065028681497,0.001833080070290563,-0.015123190728850752,0.011886306727919576,0.9841878575924147
2011-03-01,1,0.0011197522512479624,0.0011335228534591062,-0.011564491175458349,0.011886306727919576,0.9858650607355676
2011-03-03,1,0.0020066304680512637,0.002136304146717073,-0.011564491175458349,0.010788657060227044,0.9877550049605206
2011-03-07,1,0.0009340129179282957,0.0009585084469712564,-0.010115535250529242,0.011886306727919576,0.9879745693698748
2011-03-09,1,0.0009069772622813973,0.0009152384546423727,-0.010778087222855809,0.010788657060227044,0.9884418928716707
2011-03-11,1,0.0015423339361962088,0.0016806683699210202,-0.011459178002974059,0.010068260272382333,0.988850274413185
2011-03-15,0,0.0,0.0,-0.011459178002974059,0.010068260272382333,0.9893019920345374
2011-03-17,0,0.0,0.0,-0.011459178002974059,0.010068260272382333,0.9891768954637562
2011-03-21,1,0.002062354926729679,0.0021526844798199682,-0.012560509217466003,0.006174453244939306,0.9894276111087852
2011-03-23,1,0.0016044149119001944,0.00176177815219091,-0.011459178002974059,0.010068260272382333,0.9894855538452368
2011-03-25,1,0.0010779731902790736,0.0013553355310019373,-0.011459178002974059,0.010068260272382333,0.989381844679284
2011-03-29,0,0.0,0.0,-0.011459178002974059,0.010720890018429257,0.9887280491011932
2011-03-31,-1,-0.0003397651430721521,-0.00010315392059555479,-0.011459178002974059,0.011696798668835846,0.9874283990585354
2011-04-04,-1,-0.0006393388721159885,-0.0003006324990905678,-0.011948887564867132,0.010189624316533195,0.9874715083656233
2011-04-06,0,0.0,0.0,-0.015930621022089097,0.009249656474267193,0.9864631961022249
2011-04-08,-1,-0.0005927700730730843,-0.0005131087203435656,-0.013695798975305562,0.009249656474267193,0.9875386018674214
2011-04-12,0,0.0,0.0,-0.013695798975305562,0.010028525872344821,0.9871436583660912
2011-04-14,0,0.0,0.0,-0.013695798975305562,0.010028525872344821,0.9871247844389331
2011-04-18,0,0.0,0.0,-0.009053510923230422,0.010028525872344821,0.9876664618178945
2011-04-20,0,0.0,0.0,-0.009053510923230422,0.00952814219221123,0.988571437265277
2011-04-25,0,0.0,0.0,-0.016383774198423816,0.008852907976856648,0.9878341257958075
2011-04-27,0,0.0,0.0,-0.016383774198423816,0.004499852305210775,0.9883183648825986
2011-04-29,0,0.0,0.0,-0.016383774198423816,0.004499852305210775,0.990503531099074
2011-05-03,0,0.0,0.0,-0.017977800666568372,0.004561409338692624,0.9888964254302859
2011-05-05,0,0.0,0.0,-0.010434247179087816,0.004561409338692624,0.9893922377666422
2011-05-09,0,0.0,0.0,-0.018824968740105953,0.004561409338692624,0.988488837367557
2011-05-11,0,0.0,0.0,-0.018824968740105953,0.004561409338692624,0.9880197715375746
2011-05-13,0,0.0,0.0,-0.01640922987716506,0.004561409338692624,0.9883561050050738
2011-05-17,1,0.0009117006714101026,0.0009562155422226768,-0.018824968740105953,0.007079029877619979,0.984445510951177
2011-05-19,1,0.0007768366044344091,0.0007888524587125144,-0.018824968740105953,0.008921291437949477,0.9833300638490949
2011-05-23,-1,-0.0009756317762425143,-0.0007151388194434791,-0.013175063219863567,0.011996023861012263,0.9839278838962576
2011-05-25,-1,-0.0008554701270931568,-0.0006191323821826233,-0.01448157333286057,0.011996023861012263,0.9834559379953938
2011-05-27,1,8.445004765198794e-05,0.0001230361412485406,-0.01448157333286057,0.011996023861012263,0.982741317744393
2011-06-01,-1,-0.0006816102867760726,-0.000527963469126621,-0.014018393023716191,0.016573544833115784,0.9834368323891605
2011-06-03,-1,-0.0025531296187402486,-0.0021752580354624214,-0.012745782494451916,0.017775743702726245,0.9827070360254424
2011-06-07,-1,-0.003106403904596853,-0.00267123944590153,-0.012745782494451916,0.017775743702726245,0.9823949043740678
2011-06-09,-1,-0.002131723599231678,-0.0018116860755340504,-0.014018393023716191,0.018378781887042662,0.9813818611746075
2011-06-13,-1,-0.0025427858524602635,-0.0021474974818073925,-0.014018393023716191,0.018378781887042662,0.9805323670168424
2011-06-15,-1,-0.003365395067748839,-0.002898135328202653,-0.010323505026426342,0.017775743702726245,0.9839478620886406
2011-06-17,-1,-0.0021406175329557737,-0.0018280429269810707,-0.014018393023716191,0.013595653670744938,0.9851815766930851
2011-06-21,-1,-0.0008138086338658951,-0.0007057972517262315,-0.014018393023716191,0.01224214068999308,0.9857141274542004
2011-06-23,-1,-0.003372835822863939,-0.00281706555346948,-0.010323505026426342,0.01408760072878754,0.9850706568572123
2011-06-27,-1,-0.0037910967577781465,-0.003251356573323337,-0.010871369732267488,0.01408760072878754,0.9853928010855194
2011-06-29,-1,-0.0013156162201726244,-0.001145728512882615,-0.016378836031994224,0.009349802214685708,0.9864304901552222
2011-07-01,-1,-0.00015153828036864095,-0.0001070538146143965,-0.016378836031994224,0.003599504862474532,0.9876661040268822
2011-07-06,-1,-0.000675712313585364,-0.0005972098705306584,-0.016378836031994224,0.002270014876076032,0.9873032896836826
2011-07-08,-1,-0.0008308891867987437,-0.0006490763910566168,-0.016378836031994224,0.0011302910165231859,0.9860327141221121
2011-07-12,-1,-0.0007836366022513267,-0.0007793388525721881,-0.016378836031994224,0.002270014876076032,0.9784078098941268
2011-07-14,-1,-0.002153161696973127,-0.0019278854922494802,-0.01931768738005703,0.002270014876076032,0.9711232598003569
2011-07-18,-1,-0.003078920815968257,-0.0026742341112548015,-0.018759885449717597,0.005125081454043335,0.9703120012676373
2011-07-20,-1,-0.0018403620095139301,-0.0016783791278127647,-0.026963449991482532,0.0011302910165231859,0.9695406500411126
2011-07-22,-1,-0.0029418329894035466,-0.0025579060816054784,-0.0347023320804513,-9.430611317674256e-05,0.9659193925577795
2011-07-26,-1,-0.0016691317031878915,-0.0015086334974647642,-0.0347023320804513,0.0007629276407480247,0.9648804675575399
2011-07-28,-1,-0.003589865891646996,-0.0032470691515414083,-0.03923618740034529,0.002166621215306118,0.9632742646839995
2011-08-01,-1,-0.001333714518969616,-0.0012736834394506764,-0.03923618740034529,0.0160810813855299,0.9581556787883556
2011-08-03,-1,-0.002410241834470372,-0.0022020104118552434,-0.03923618740034529,0.0160810813855299,0.9585422823236962
2011-08-05,-1,-0.006334957122063031,-0.005741177433301674,-0.03923618740034529,0.0160810813855299,0.959066568844788
2011-08-09,-1,-0.0013419854822231988,-0.0011789269250807308,-0.03923618740034529,0.0160810813855299,0.9625142678536905
2011-08-11,-1,-0.0017141002471777788,-0.0015909415034659844,-0.03914016646215103,0.01008058196632567,0.9677885829442153
2011-08-15,1,0.0009691019304054917,0.0011254541421633218,-0.03914016646215103,0.0070421368046964545,0.9684035031093641
2011-08-17,1,0.0001508520829700727,0.00023356081731529005,-0.03914016646215103,0.01291533003961335,0.965853621283682
2011-08-19,-1,-0.008072182957275024,-0.007260733305324641,-0.03208770978724571,0.01291533003961335,0.9690828860814519
2011-08-23,-1,-0.00624700252226172,-0.0055857344124625365,-0.035372361760293944,0.01291533003961335,0.9660101974619061
2011-08-25,-1,-0.007259095871074239,-0.006615418007907313,-0.03614805324159308,0.01008058196632567,0.9663891892661052
2011-08-29,-1,-0.0033197199342277746,-0.0031284142086712183,-0.03614805324159308,0.010397398196033502,0.96591404636646
2011-08-31,-1,-0.004628081556628861,-0.004252447933027647,-0.04174154134774882,0.021798452282032393,0.9618456224578884
2011-09-02,-1,-0.007409505996847222,-0.0067059705088184955,-0.04452963540982281,0.021798452282032393,0.960188035064706
2011-09-07,-1,-0.006793965474359734,-0.006107213169243433,-0.043706734084721616,0.02992425653419695,0.9609787993976828
2011-09-09,-1,-0.009146791568323723,-0.008179829757378049,-0.04809526154159141,0.03650981119593086,0.9598598049674734
2011-09-13,-1,-0.007839319239932073,-0.007076395188884766,-0.04809526154159141,0.04460754492235307,0.9560471134823151
2011-09-15,-1,-0.0032589417858852146,-0.003076714997009875,-0.04809526154159141,0.04460754492235307,0.9558499342737828
2011-09-19,-1,-0.005022029474885257,-0.0046867125753129735,-0.04809526154159141,0.04579866237467256,0.9530941768445436
2011-09-21,-1,-0.008160719104912735,-0.0075005279827348725,-0.0435139316956447,0.048755156541736566,0.9530292298711439
2011-09-23,-1,-0.00897879381395577,-0.008233124799194,-0.03907524361790725,0.048755156541736566,0.9519911984714914
2011-09-27,-1,-0.0067321072400063076,-0.0062060412609470615,-0.0435139316956447,0.05493910678926445,0.951224091272398
2011-09-29,-1,-0.006745780416729889,-0.006244806651477268,-0.03907524361790725,0.056550795608361536,0.9495276040928308
2011-10-03,-1,-0.011131610314141137,-0.010146939783886255,-0.031587521972512994,0.056550795608361536,0.9490406343411982
2011-10-05,-1,-0.008440919024124843,-0.007777306524850872,-0.03907524361790725,0.056550795608361536,0.9488941856840981
2011-10-07,-1,-0.008668943898914924,-0.008004393362290606,-0.031587521972512994,0.056550795608361536,0.950438025522956
2011-10-11,-1,-0.005241909711690728,-0.005008035222768619,-0.031587521972512994,0.05339233558915228,0.9532957848588547
2011-10-13,-1,-0.00456568678223067,-0.004361621571885987,-0.032644342536992506,0.051202074817829527,0.9533956631195758
2011-10-17,-1,-0.003024725575514526,-0.003011903265128546,-0.022568682059895998,0.044670067885776786,0.9566450642922674
2011-10-19,-1,-0.0015622136889036592,-0.0013559273942658572,-0.014290539128425518,0.03761847431215389,0.9607777338186549
2011-10-21,1,0.0005684742698733893,0.0010343919014987083,-0.024434640155719955,0.036772618332175065,0.9627624587629527
2011-10-25,-1,-0.0005640525963804016,-0.00027843063539206056,-0.022791259211832046,0.03371335917966206,0.9662441531233623
2011-10-27,1,0.003269799849569563,0.004026369636732859,-0.03197757783050686,0.012006429605211907,0.9711290882364362
2011-10-31,1,0.00047386415627378086,0.0008736972293179137,-0.022791259211832046,0.02804410518253171,0.9732897594219752
2011-11-02,1,0.003415069633455409,0.004198083680337519,-0.019782949306261403,0.02804410518253171,0.9742806412258089
2011-11-04,1,0.0017911012891262221,0.002319150013905993,-0.019782949306261403,0.020028426294185983,0.9751163897089158
2011-11-08,1,0.0032387799256450023,0.00402127059074125,-0.019782949306261403,0.01798952724622521,0.9754200968935894
2011-11-10,1,0.0035315710294241596,0.004399595222935182,-0.019782949306261403,0.01798952724622521,0.976854801717502
2011-11-14,1,0.003326016294654576,0.004154988281076232,-0.029504196549505073,0.009924195730560484,0.9756271795686678
2011-11-16,1,0.0037858862685114475,0.004666865182436876,-0.029504196549505073,0.014237429349590902,0.9747340271144086
2011-11-18,1,0.003682890541336739,0.004622723686947522,-0.029504196549505073,0.014237429349590902,0.9742500865143859
2011-11-22,1,0.0031350094716604457,0.004066772771719272,-0.01492722440675318,0.01798952724622521,0.9752905163509746
2011-11-25,1,0.002192844360843436,0.002996218540875978,-0.008185327460858623,0.021023649275153152,0.9757166426965711
2011-11-29,1,0.003313682885017961,0.004250750331234021,-0.016694236566959512,0.018681318070559623,0.9764350334582977
2011-12-01,1,0.005386530393187454,0.006535191113383675,-0.016694236566959512,0.018681318070559623,0.979406878117946
2011-12-05,1,0.005578105509183291,0.006762639021794473,-0.016694236566959512,0.020652760436379966,0.977939331775172
2011-12-07,1,0.00607832058306923,0.007311561832124367,-0.016694236566959512,0.020652760436379966,0.9779337541156636
2011-12-09,1,0.005429593009168492,0.006606550587067309,-0.014884603352807547,0.02188189927425193,0.9793996768499479
2011-12-13,1,0.004148796226248299,0.0051999397564844035,-0.008185327460858623,0.023026950284039525,0.982009121938285
2011-12-15,1,0.0038145841837659766,0.004789927811310663,-0.011205888675643642,0.023026950284039525,0.9812586207580112
2011-12-19,1,0.002547377450774339,0.00333028939388312,-0.0055380608683284595,0.025053482664827802,0.9816173558856913
2011-12-21,1,0.0040626474272900896,0.005052507146459915,-0.0055380608683284595,0.023026950284039525,0.9835922540885721
2011-12-23,1,0.005622670799407354,0.0067980752302567,-0.008783614472991981,0.01553833164660131,0.9839036186484136
2011-12-28,1,0.0037284777003652597,0.004558475175044851,-0.0055380608683284595,0.01589004117918701,0.9819161060471807
2011-12-30,1,0.004808725107082603,0.0058633811178754516,-0.0055380608683284595,0.015636219868672658,0.982722504268634
2012-01-04,1,0.0034266285343465238,0.0043552611081241685,0.0032855269979367324,0.02115281983617691,0.9826246244024901
2012-01-06,1,0.0034937345537614747,0.004429793403968818,0.0032855269979367324,0.023559162997310583,0.9807773898666612
2012-01-10,1,0.0036473064633885804,0.004549270913310982,0.0032855269979367324,0.023325442455227274,0.9820269287424758
2012-01-12,1,0.0017007074140295648,0.0020687273891025985,-0.002299965373026241,0.02135415852696056,0.9815161948341575
2012-01-17,1,0.0012363649225699525,0.0015398914738047134,-0.002299965373026241,0.024153138367919835,0.9802710633143
2012-01-19,1,0.003980790168113016,0.004601898996413155,-0.002299965373026241,0.024153138367919835,0.9806068304568804
2012-01-23,1,0.005436328212865698,0.006387704719493136,-0.002299965373026241,0.024153138367919835,0.9813057955965575
2012-01-25,1,0.0043978030111372374,0.0051576408888247445,-0.002299965373026241,0.024153138367919835,0.9813072417858116
2012-01-27,1,0.0016440706739113357,0.001902034682735058,-0.0013003653657278533,0.024153138367919835,0.983351418789262
2012-01-31,1,0.0025159330277618806,0.0029035726921923214,-0.004971020986557665,0.024153138367919835,0.9838253857364267
2012-02-02,1,0.002914424453985826,0.003253160496015518,-0.008130760872228266,0.015982355095151394,0.9830327491855495
2012-02-06,1,0.0037133920458374305,0.004161491104579525,-0.01076775905949805,0.010082199121281448,0.9835073893236499
2012-02-08,1,0.005590378625385757,0.006606979034870024,-0.01076775905949805,0.009880384911579818,0.9835707280864641
2012-02-10,1,0.0038557401082985054,0.004337019567054633,-0.01076775905949805,0.012727877988570887,0.9834173466513924
2012-02-14,1,0.0012618059242183873,0.0013153395988918972,-0.00815377267743514,0.015059900593334709,0.9834389962031087
2012-02-16,1,0.0034941898340989995,0.0035879181797149992,-0.01076775905949805,0.014454457964229814,0.9829499360521077
2012-02-21,1,0.004195225283525318,0.00451192529154117,-0.01076775905949805,0.014454457964229814,0.9824206240049266
2012-02-23,1,0.0031817952748169785,0.003349083461424431,-0.01076775905949805,0.014454457964229814,0.9826209771065558
2012-02-27,1,0.0002249621106722424,0.0006294114196040597,-0.01076775905949805,0.02025785978491195,0.98189348437037
2012-02-29,1,0.0005605798469426333,0.0008617209029800307,-0.012085282764115081,0.02025785978491195,0.9815496507846138
2012-03-02,0,-0.00025664496066187567,0.00019384961625725015,-0.012085282764115081,0.02025785978491195,0.9819591831658337
2012-03-06,0,-4.3697371316465624e-05,0.00026167516432499323,-0.008924397727279607,0.02025785978491195,0.9829061347801484
2012-03-08,-1,-0.0004823919968552726,-0.00011249301922455464,-0.013294116532265126,0.02025785978491195,0.9823950818605222
2012-03-12,-1,-0.0008003733237253673,-0.0003647210324657043,-0.0200096076777551,0.016886880345056508,0.9800246517603998
2012-03-14,1,0.0015501740008510025,0.0016657085668778033,-0.0200096076777551,0.012341159691015659,0.980254063090662
2012-03-16,1,0.0023218118113203005,0.0023975991162025192,-0.022419085602783398,0.009802099659759317,0.9819218861510183
2012-03-20,1,0.001734114794322067,0.0018045928894621973,-0.022419085602783398,0.01093671351847773,0.9810902201310078
2012-03-22,1,0.002848724640356027,0.0031466504280089893,-0.020159421687399835,0.01093671351847773,0.9812574493861559
2012-03-26,1,0.003757252069572919,0.0041122145706210785,-0.020159421687399835,0.0078036867871405105,0.9822656076945528
2012-03-28,1,0.0031589443676982767,0.003641225636051898,-0.020159421687399835,0.008673325991374704,0.9823005119702407
2012-03-30,1,0.0014571870293377592,0.0015565696467602888,-0.014182725014982774,0.0078036867871405105,0.9850522034784258
2012-04-03,1,0.0018533688953061656,0.002038735782887349,-0.015096952229919698,0.00665505220150332,0.9850242947698682
2012-04-05,1,0.0013811148840742191,0.0014914014747758396,-0.020159421687399835,0.00665505220150332,0.983404898586516
2012-04-10,-1,-0.00036173814027197563,-0.00028622407037233975,-0.012402263361853391,0.008673325991374704,0.9866024047658195
2012-04-12,1,0.000846951142032571,0.0008929326668951603,-0.015096952229919698,0.00665505220150332,0.9867859048513238
2012-04-16,-1,-0.0003270608732706825,-0.0002027345059175888,-0.015096952229919698,0.00665505220150332,0.9859361323599225
2012-04-18,-1,-0.001615862601592102,-0.0011625908999027032,-0.020919223233313914,0.0045540655607548145,0.9852425724471097
2012-04-20,-1,-0.003116791753463989,-0.002505824206162713,-0.024122225119166146,0.0045540655607548145,0.9841558005361383
2012-04-24,-1,-0.0023872104172420333,-0.0018865822543869875,-0.024122225119166146,0.007246229655962222,0.9824306506669307
2012-04-26,1,0.0005134271281757886,0.0005418676266325933,-0.024122225119166146,0.0045540655607548145,0.9828179267723395
2012-04-30,1,0.000418990800575757,0.0004839206657194325,-0.024122225119166146,0.007246229655962222,0.981919305056436
2012-05-02,1,0.0006474013499123315,0.0006513397853129871,-0.02711909340040821,0.005578024991908409,0.9803763018269424
2012-05-04,-1,-0.00375674144403466,-0.0030502913091097535,-0.024703864145499112,0.005578024991908409,0.9812137563778468
2012-05-08,-1,-0.0049644708146636424,-0.004006005242122466,-0.024703864145499112,0.01777715983094518,0.978071299730416
2012-05-10,-1,-0.003468702174229276,-0.0027755445493145405,-0.024703864145499112,0.011463705335346772,0.9794428712493672
2012-05-14,-1,-0.006696179858372356,-0.005528172134140549,-0.024703864145499112,0.01777715983094518,0.9784387102496669
2012-05-16,-1,-0.008028563503083702,-0.006773976592758315,-0.014612764324925,0.02053073654345185,0.9785298753937255
2012-05-18,-1,-0.006184754000175447,-0.005285606485394485,-0.012230079996638712,0.02053073654345185,0.9795743329887016
2012-05-22,-1,-0.006400301281368941,-0.005422876234871642,-0.01463470297482799,0.02053073654345185,0.9799182029363906
2012-05-24,-1,-0.006598283308487907,-0.005619705005114306,-0.01463470297482799,0.02053073654345185,0.9786864608188911
2012-05-29,-1,-0.004895413946806644,-0.0041891815846533745,-0.01891434490552705,0.020789444043168716,0.9771315249098164
2012-05-31,-1,-0.0061791014601671225,-0.005321494307513491,-0.01463470297482799,0.02204882586901679,0.9775955037962007
2012-06-04,-1,-0.007792211001479851,-0.006823426669569218,-0.01463470297482799,0.02385398796846097,0.9768592673152604
2012-06-06,-1,-0.0023451744693839087,-0.0020195108808958337,-0.016193755014104486,0.02204882586901679,0.9796786188024229
2012-06-08,-1,-0.0023476899268823244,-0.002003319842985029,-0.02083938760515903,0.02204882586901679,0.9791804324174596
2012-06-12,-1,-0.0024073059676035504,-0.0020627547494320494,-0.016777574207781733,0.01949368717813655,0.9806129670086905
2012-06-14,-1,-0.0017817251328608166,-0.0015317563982059064,-0.019281352475086076,0.01949368717813655,0.9798700939425865
2012-06-18,-1,-0.0026104519360359195,-0.002225882162766586,-0.019281352475086076,0.01949368717813655,0.9793447815380766
2012-06-20,-1,-0.0037051261970408684,-0.0031120528522980122,-0.019281352475086076,0.015531835038264951,0.9813713625358378
2012-06-22,-1,-0.004420231342711575,-0.003765986641666679,-0.019281352475086076,0.015531835038264951,0.9813152710412972
2012-06-26,-1,-0.005222513959776358,-0.004516008552588081,-0.019281352475086076,0.012032725065069139,0.983628822632714
2012-06-28,-1,-0.0018024701432136254,-0.0015276291148097077,-0.019281352475086076,0.015001545388851317,0.9815343521302535
2012-07-02,-1,-0.0004506093404884836,-0.00040320126344645937,-0.018361832700880973,0.012032725065069139,0.98385920561099
2012-07-05,-1,-0.0013773215202599236,-0.0011821385791285699,-0.016183331325762596,0.012561839789204117,0.9816825691784371
2012-07-09,-1,-0.002391954724379042,-0.002065789793809762,-0.01470948055683157,0.01711917921066989,0.9807939229878789
2012-07-11,-1,-0.0009635928088066229,-0.0008951873903194081,-0.011465873082530827,0.01457327790254313,0.9813598911406104
2012-07-13,-1,-0.0006270246686967012,-0.0005889070816445064,-0.010976281306174698,0.01457327790254313,0.9819340518722799
2012-07-17,-1,-0.0007460533499141399,-0.0006659265966417037,-0.008187805923682321,0.0182786579361822,0.9819292559946808
2012-07-19,-1,-0.001046481766993279,-0.0009310705880505429,-0.008187805923682321,0.018548842843567056,0.9814499544841926
2012-07-23,-1,-0.002841411012258874,-0.0024960624434800112,-0.004913883907233373,0.018548842843567056,0.9833809503624444
2012-07-25,-1,-0.0035335862100220063,-0.003118937434272986,-0.004913883907233373,0.018548842843567056,0.9834249692635472
2012-07-27,-1,-0.002322051028223298,-0.0020120507841375162,-0.006285548959328804,0.01466333953833808,0.9854840187041002
2012-07-31,-1,-0.002292365195125658,-0.0020129157542888975,-0.006455177531571186,0.01466333953833808,0.9851576984026672
2012-08-02,1,0.00016023463935088938,0.00017688162209049618,-0.004930070165620181,0.012667313094770578,0.9896918644259518
2012-08-06,1,0.0020926104986732554,0.0024721857565036132,-0.004930070165620181,0.007369200272920524,0.9914044800321589
2012-08-08,1,0.004047804765839996,0.004759877353517385,-0.005979148266277235,0.007369200272920524,0.9891127751917657
2012-08-10,1,0.004515145759752566,0.0053153489944293315,-0.004930070165620181,0.0069894997304357324,0.9901387929299575
2012-08-14,1,0.004109358614429721,0.004814291963283647,-0.004930070165620181,0.0069894997304357324,0.9913625769918167
2012-08-16,1,0.005749896198479321,0.006715954699738071,-0.004930070165620181,0.009285443278676881,0.9899843519467315
2012-08-20,1,0.005384741583409424,0.00627821910601654,-0.005979148266277235,0.009285443278676881,0.9894297801780733
2012-08-22,1,0.00539937337635111,0.006296355494197642,-0.005979148266277235,0.009285443278676881,0.9889161432498825
2012-08-24,1,0.005235332583640269,0.006088136182274771,-0.005979148266277235,0.005668771577342481,0.9891008992125488
2012-08-28,1,0.0041066588479349185,0.004756090381638195,-0.006504492599020556,0.005668771577342481,0.9885615506090056
2012-08-30,1,0.002543245714141205,0.002892700994711804,-0.006504492599020556,0.009285443278676881,0.9887832049951732
2012-09-04,1,0.0033088024550271674,0.0038630659390983466,-0.007890888050938282,0.010701313211729345,0.987953141432555
2012-09-06,1,0.004054998231425678,0.004643702588150278,-0.007890888050938282,0.010701313211729345,0.988828173060957
2012-09-10,1,0.004289542707167947,0.004890440540955976,-0.008475270412936069,0.010701313211729345,0.9885245982790731
2012-09-12,1,0.004287747241817116,0.0048516206811215195,-0.009962268611115082,0.005793352470163682,0.9874217283890508
2012-09-14,1,0.0051331215213637725,0.005809997287075642,-0.010265894377201726,0.002684948654221143,0.9871519560549734
2012-09-18,1,0.0048308931542240165,0.005564751815032942,-0.009962268611115082,0.010015879439109029,0.9871302339752749
2012-09-20,1,0.004904632282801198,0.0055994739547390255,-0.008536548925041248,0.010909080432393218,0.986906771692323
2012-09-24,1,0.00454889716153963,0.005191997611697024,-0.010265894377201726,0.010909080432393218,0.9866469558040182
2012-09-26,1,0.0019165085731542848,0.0021555079726208216,-0.008427406458401406,0.010909080432393218,0.9877249054502472
2012-09-28,1,0.0026211648760083688,0.0029687725042638223,-0.010265894377201726,0.010909080432393218,0.9868198315944743
2012-10-02,1,0.002776351326811518,0.003195814961674675,-0.010265894377201726,0.011420358555944836,0.9866882296768433
2012-10-04,1,0.0028536131648656494,0.0031880610001705475,-0.010265894377201726,0.010015879439109029,0.9873028753945027
2012-10-08,1,0.0017232119634151264,0.0018018572593762087,-0.011951076335413273,0.011420358555944836,0.9831253064271173
2012-10-10,1,0.00019060502799960073,0.00040696999409972645,-0.016031674006726917,0.01318735955455454,0.9824458037007634
2012-10-12,1,0.0012567194618223984,0.0012773714842366265,-0.010765440732819296,0.01318735955455454,0.9831911109384818
2012-10-16,1,0.002629647614990996,0.002798091911931483,-0.010765440732819296,0.008297830880666584,0.9846426342715823
2012-10-18,1,0.002446562405512441,0.0025525584189935615,-0.010765440732819296,0.01318735955455454,0.9845277687596831
2012-10-22,1,0.0020889695480112024,0.002142303424446797,-0.00802049969798755,0.01318735955455454,0.9851760594369622
2012-10-24,0,-0.00012199753519009124,0.00014060757068632042,-0.0060563861222861365,0.015292654154426665,0.9857284061467747
2012-10-26,1,0.001613389351459615,0.0017274495673884763,-0.0060563861222861365,0.013158766568736012,0.9864872078408683
2012-11-01,1,0.002734069717827942,0.002989393149552774,-0.0060563861222861365,0.008297830880666584,0.9877123142887677
2012-11-05,1,0.0023077354323942415,0.0025095912789110018,-0.004925743773419505,0.013087679621281866,0.9874852536674454
2012-11-07,-1,-0.00021814236035104295,-0.0001058620333904714,-0.0030418403710490505,0.0125098107770262,0.9908812892886605
2012-11-09,-1,-0.0014827239757207737,-0.001166673398784426,-0.0023790200896251948,0.01080813192064487,0.9917229836031677
2012-11-13,-1,-0.0017792327552435202,-0.0014557529148368155,-9.652449995702165e-05,0.01080813192064487,0.9918618137341403
2012-11-15,-1,-0.0025647704149615205,-0.002091198025917314,-0.0017501097927675254,0.01080813192064487,0.991327749744308
2012-11-19,-1,-0.0009351285729903389,-0.0006790634170942068,-0.0017501097927675254,0.01080813192064487,0.9916334471847785
2012-11-21,-1,-0.00120267190084766,-0.0009081534742498177,-0.0017501097927675254,0.013246106846024551,0.9899662024997334
2012-11-26,-1,-0.0003195026839019672,-0.0001593885535281068,-0.0023508819121192148,0.01080813192064487,0.9899390217758635
2012-11-28,-1,-0.0004756353789401735,-0.00028195870143425314,-0.0029356817870848442,0.01080813192064487,0.9901081784341788
2012-11-30,-1,-0.0018640874179944602,-0.0014515551870095268,-0.0055453380046049374,0.013246106846024551,0.9889813669205391
2012-12-04,-1,-0.0003022286533028108,-6.0839276055218864e-05,-0.0055453380046049374,0.01744996101103804,0.9862909044916309
2012-12-06,1,2.0035236808161466e-06,0.00019604639024891832,-0.008948104968982988,0.01744996101103804,0.986094460937892
2012-12-10,0,-7.986307821124694e-05,0.00014342402643353696,-0.011088827285489735,0.01744996101103804,0.9858749430680229
2012-12-12,-1,-0.0004119490435552861,-0.00014432571629835987,-0.011088827285489735,0.01744996101103804,0.9851743503329254
2012-12-14,-1,-0.0024027916999880593,-0.001790307845371558,-0.010030757311768295,0.01744996101103804,0.9853968119865467
2012-12-18,-1,-0.001888567532522363,-0.0012828698190679973,-0.010030757311768295,0.01651298017888023,0.986516163671162
2012-12-20,-1,-0.0006861260795124669,-0.00032455336683586094,-0.009125788326209274,0.01651298017888023,0.9867044483276909
2012-12-24,-1,-0.0027170482700376907,-0.0020587267558413724,-0.008424805267000684,0.01651298017888023,0.987321336837569
2012-12-27,-1,-0.0010327956738891558,-0.0006926806655447772,-0.007776395335932308,0.019177445375279045,0.9864199090054337
2012-12-31,1,0.00046114906293833293,0.000550441121202405,-0.007946444808405718,0.01651298017888023,0.9874666094357075
2013-01-03,1,0.002545981167731033,0.002731635426445809,-0.007946444808405718,0.009659791498196998,0.9899806641070138
2013-01-07,1,0.001410968287556479,0.0014793841011359991,-0.007946444808405718,0.01652966673823941,0.9891404287025612
2013-01-09,1,0.0015623230377105942,0.0016964013171813495,-0.007946444808405718,0.01652966673823941,0.9893377473422377
2013-01-11,1,0.0021876614436951718,0.0024239568704099695,-0.007946444808405718,0.010911490260444962,0.9897510572350302
2013-01-15,1,0.0012607607354604281,0.0013497485401417963,-0.0021344433797158566,0.01362906733663741,0.9897375433765945
2013-01-17,1,0.002066216286526285,0.0022311921030500363,-0.004541870850913093,0.010259298266410729,0.9904592981794311
2013-01-22,1,0.002585810592688537,0.002839777807367921,-0.004541870850913093,0.010259298266410729,0.9896846915781085
2013-01-24,1,0.0016541655155037395,0.0017163440228579758,-0.005604348159945462,0.012605130534637932,0.9883251154817249
2013-01-28,1,0.002565351732444527,0.002720742804378918,-0.010657849436337033,0.010259298266410729,0.9874355393464262
2013-01-30,1,0.0021183750317436546,0.0022101602067136285,-0.0056675474418920865,0.012605130534637932,0.9864862516015941
2013-02-01,1,0.0034801129286464384,0.0038432773791238894,-0.0056675474418920865,0.012582807128275275,0.9870234030589998
2013-02-05,1,0.0031361819178006016,0.003439714174125257,0.0010541984692021438,0.01364037545569279,0.9874040258663428
2013-02-07,1,0.0032479645832751572,0.003593892883249606,0.005085264976223368,0.0137807078999507,0.9858789002261925
2013-02-11,1,0.004140642979520438,0.0046988606499893315,0.0021965757697424747,0.0137807078999507,0.9863029248337002
2013-02-13,1,0.0043231132350146,0.004863550213105411,0.0021965757697424747,0.0137807078999507,0.9867134935367691
2013-02-15,1,0.004126146077064903,0.004608882447019901,-0.0017284228456195274,0.0137807078999507,0.9859166029641785
2013-02-20,1,0.002877446484626403,0.0031653400686271773,-0.0017284228456195274,0.014182776187686473,0.9863068824341957
2013-02-22,1,0.0019978217861488226,0.002078592308162764,-0.0017284228456195274,0.01364037545569279,0.9861795434849249
2013-02-26,1,0.0012021086386661867,0.001213053771699162,-0.0017284228456195274,0.01364037545569279,0.9872995404609649
2013-02-28,1,0.0019395617815290613,0.0020535108788873693,-0.004318652079534271,0.011307606384855815,0.9887832511585903
2013-03-04,1,0.0029953691417389304,0.003270479329190903,-0.006287412712948148,0.01069888488993226,0.9888951434353846
2013-03-06,1,0.003474222755322452,0.003787998681182566,-0.01157052969737073,0.00950740166839407,0.9884414585555551
2013-03-08,1,0.004858858026103848,0.00528857327824604,-0.012835649148553643,0.007771537933921909,0.9889608838866442
2013-03-12,1,0.003921717284789756,0.004188820005475648,-0.012835649148553643,0.01042308407312082,0.9869858921846048
2013-03-14,1,0.00500083603986305,0.0054988375192336295,-0.013334748438646902,0.01042308407312082,0.9863055046420534
2013-03-18,1,0.00437082281818663,0.004834104550822067,-0.013334748438646902,0.011051942461226748,0.9843415975134872
2013-03-20,1,0.0036789116973935123,0.004027552365571587,-0.015336474872054584,0.01042308407312082,0.9827224154711173
2013-03-22,1,0.0030460516968296293,0.003239250128955078,-0.014059364420830698,0.011051942461226748,0.9831897069617128
2013-03-26,1,0.002835576954141671,0.002986966999381555,-0.014059364420830698,0.014276237291097272,0.9817828898291665
2013-03-28,1,0.003208748680511037,0.003490337845376752,-0.014059364420830698,0.014276237291097272,0.9812853576625342
2013-04-02,1,0.002678546855979695,0.00286876253469336,-0.014059364420830698,0.014276237291097272,0.9814671769521368
2013-04-04,0,-6.757137067963021e-05,0.00021052599830627904,-0.01820476990550039,0.014276237291097272,0.9796705064002714
2013-04-08,1,8.694094297746736e-05,0.0003343647556879293,-0.014059364420830698,0.028013022143459698,0.9784064139196311
2013-04-10,1,0.0014750712576177875,0.001602931437694587,-0.014059364420830698,0.01596705877597776,0.9805289282223638
2013-04-12,1,0.0006774711782610155,0.0009082795904555867,-0.013067406716603079,0.019231266519248,0.9800165231773378
2013-04-16,1,0.0011470088616862433,0.0012682736315859997,-0.010472415454315919,0.01716929641172689,0.9824123210733818
2013-04-18,-1,-0.0011553753364854224,-0.0007611549992737174,-0.004205038559481845,0.01716929641172689,0.982960648161846
2013-04-22,0,-0.00016153750766880566,9.563938374130621e-05,-0.004205038559481845,0.01716929641172689,0.9833937658799292
2013-04-24,1,0.0014541648966035566,0.0015368813617068827,-0.009761367176905697,0.012870096271122601,0.9858115104747508
2013-04-26,1,0.001162419199709958,0.0012791798966957054,-0.00930857804794283,0.012870096271122601,0.9861456085503594
2013-04-30,1,0.0020479226261033486,0.002071468001142265,-0.00930857804794283,0.015749770017102677,0.985776686385505
2013-05-02,1,0.0019528150763074952,0.0019699224361785714,-0.004447894660108818,0.01716929641172689,0.9868317102333719
2013-05-06,1,0.003636170225780587,0.0038765512295535214,-0.00975993876985285,0.012870096271122601,0.988077165096488
2013-05-08,1,0.0038330938644364643,0.004083892403442318,-0.010096790490395316,0.015749770017102677,0.9863641033279172
2013-05-10,1,0.0034675535685890885,0.0036218280892851918,-0.00975993876985285,0.016592495415791643,0.9858150579464107
2013-05-14,1,0.004472171053463262,0.004846333970920072,-0.01493479760747577,0.011203438754835055,0.9840897464099223
2013-05-16,1,0.0032065540092664933,0.0034028909169975955,-0.01493479760747577,0.01641496183865423,0.9839617451366993
2013-05-20,1,0.0029461585230003123,0.0030419138560992182,-0.01493479760747577,0.019236177528365834,0.9830611115258171
2013-05-22,1,0.001937024006525852,0.002001514042617906,-0.01493479760747577,0.019236177528365834,0.9831939472803052
2013-05-24,1,0.001820408106954829,0.0018583793335507418,-0.017747690211428767,0.019236177528365834,0.9825757782552299
2013-05-29,1,0.0033699987269909335,0.0036363413945599823,-0.017747690211428767,0.019236177528365834,0.9821231570800891
2013-05-31,1,0.002877702899069656,0.0030486458366203836,-0.01493479760747577,0.018588352646640847,0.9835669032184735
2013-06-04,1,0.0013817251877865546,0.0014454413602291627,-0.01121144301056955,0.019236177528365834,0.9838447424193849
2013-06-06,1,0.0017755881999311348,0.0017856902625178396,-0.009707374870566223,0.019236177528365834,0.983036508530654
2013-06-10,1,0.001687825425570365,0.0017199717503064574,-0.009707374870566223,0.019152592113374382,0.983762526730634
2013-06-12,1,0.0006018864310486718,0.0007371350280506669,-0.007897708503002036,0.019152592113374382,0.9848347958824399
2013-06-14,1,0.0009877453042776122,0.0011274834640709309,-0.0036264575372732194,0.01875360646077109,0.986445492390941
2013-06-18,1,0.0016767181227995817,0.0017624071414586934,-0.0067844462478646745,0.013708814291949083,0.9876012051289523
2013-06-20,1,0.0012293012994642938,0.0012693985860419144,-0.0067844462478646745,0.015371071735330543,0.985629026175573
2013-06-24,1,6.425988565275436e-06,0.00023277974610634122,-0.0033225279508029043,0.015371071735330543,0.9859928478273623
2013-06-26,1,0.0014311472704673178,0.001448439644200364,-0.0057717455274347036,0.013708814291949083,0.9877043455137842
2013-06-28,1,0.0018983339577476313,0.0019475239675091505,-0.0057717455274347036,0.013390966879484115,0.9879687852536032
2013-07-02,1,0.0021867284671494057,0.002263035307651678,-0.005965817378394008,0.012225742458638111,0.9882580428366157
2013-07-05,1,0.0033438994109595776,0.003506973144108471,-0.00560017909976792,0.012225742458638111,0.9879737406039981
2013-07-09,1,0.0032656925823177723,0.0035131741086045134,-0.005965817378394008,0.010368552356594715,0.9880890426037148
2013-07-11,1,0.0030431210441224533,0.0031768929859791557,-0.00560017909976792,0.005909939655506459,0.9888659984263177
2013-07-15,1,0.00262866201486429,0.0026797940757994124,-0.005965817378394008,0.0043398992189399655,0.9886059075523355
2013-07-17,1,0.0025805853680185157,0.0026992590224375725,-0.00560017909976792,0.0054308511101512635,0.9885520811556348
2013-07-19,1,0.001868845882563501,0.0019361251851736684,-0.00560017909976792,0.0054308511101512635,0.9899111467526874
2013-07-23,1,0.0022857718254249092,0.0022933283460111337,-0.00620831736985523,0.0054308511101512635,0.989023901002198
2013-07-25,1,0.003096431282791521,0.003265854764749627,-0.00620831736985523,0.008237252874656601,0.988032559733606
2013-07-29,1,0.0030831867671886866,0.0033854056001396504,-0.006249616756941442,0.008237252874656601,0.9877335481435746
2013-07-31,1,0.0034614066582895776,0.003745288976766242,-0.007678770904788147,0.004065462717066439,0.9859516213748826
2013-08-02,1,0.004036450865866631,0.004486985107781403,-0.008862096109634522,0.003917752091852111,0.9882901005935256
2013-08-06,1,0.0026262499269640977,0.0028331006084244977,-0.006249616756941442,0.008237252874656601,0.9883774505930676
2013-08-08,1,0.0026143943668113755,0.0028720960237500043,-0.006249616756941442,0.008237252874656601,0.9883078935656022
2013-08-12,1,0.002761824481984259,0.003007669826859359,-0.004938587992633445,0.012024433048293738,0.9881018999940495
2013-08-14,1,0.0019239504749666227,0.002060934521063293,-0.006249616756941442,0.012024433048293738,0.9876441212092438
2013-08-16,1,0.0025577673944397134,0.002661166622925354,-0.004297262849727617,0.009700544162107331,0.988832568203362
2013-08-20,1,0.0023067188201202253,0.002443700459685111,-0.004297262849727617,0.00837187242080662,0.9886795621633443
2013-08-22,1,0.0023570713879608406,0.00251151415666113,-0.006976433406690018,0.006541034419787266,0.9880011611273379
2013-08-26,1,0.0008485596857558381,0.0010162854265356688,-0.009157474183211032,0.006541034419787266,0.9880494105453395
2013-08-28,1,0.0006318448848892015,0.0008411375990057805,-0.004241776134186389,0.007655263642289002,0.9896481681279181
2013-08-30,1,0.000998547172810376,0.0010740470771599176,-0.005036315063034798,0.006845067643496221,0.9897329485002225
2013-09-04,1,0.0006889447653038478,0.0007989952525474719,-0.008168243268603007,0.005461042185491722,0.9905242087535752
2013-09-06,1,0.00032512412577966965,0.0004975825427020607,-0.008393590206387538,0.006845067643496221,0.9889257860899842
2013-09-10,0,-0.00028781236531188765,5.561879767269581e-05,-0.011982789035032963,0.005011494173239947,0.9887352478160658
2013-09-12,1,0.0007014773832567964,0.0009255267976380427,-0.009208855632289445,0.005461042185491722,0.9875824739133517
2013-09-16,1,0.0004521562101833013,0.0005917135399758804,-0.009208855632289445,0.006845067643496221,0.9872496687018713
2013-09-18,-1,-0.001047466224173529,-0.0006100166113101816,-0.008393590206387538,0.009195602965312213,0.9877996941559466
2013-09-20,-1,-0.0019014945362073887,-0.0013995228997301305,-0.008046982947775456,0.012239747400681443,0.9885680081899159
2013-09-24,-1,-0.0025832611724610137,-0.0020510560995649738,-0.007602296336601558,0.012239747400681443,0.9887458540050557
2013-09-26,-1,-0.0007034206650541172,-0.000505269153847341,-0.008046982947775456,0.015062145219898298,0.9873619047698909
2013-09-30,-1,-0.000892104683312567,-0.0006851390670265228,-0.00770277684140821,0.015062145219898298,0.987396056981401
2013-10-02,-1,-0.0007621455735871738,-0.0005752186039954441,-0.0075125995164552015,0.01587331785076613,0.9870506930554076
2013-10-04,-1,-0.0003236982337198577,-0.00021009088855228396,-0.005360452857501739,0.01202112119407353,0.9883494063037477
2013-10-08,-1,-0.0015544074744588403,-0.0012545163508708309,-0.004056276294101302,0.012921428964341234,0.9885056268556313
2013-10-10,1,0.00011802954024788432,0.00020558161208987703,-0.0046274288120666815,0.01138042451109048,0.9898139266663145
2013-10-14,-1,-0.0008566352246798339,-0.0006257820808938749,-0.0046274288120666815,0.012921428964341234,0.9874969323882561
2013-10-16,-1,-0.00022644319275154498,-5.768171958565974e-05,-0.0046274288120666815,0.011194099908286065,0.9881282189656665
2013-10-18,1,0.0008458997986146537,0.0008991847375026923,-0.0046274288120666815,0.011194099908286065,0.9884446326329726
2013-10-22,-1,-0.0004342461303224565,-0.0002179714684275593,-0.0030003822024495487,0.011194099908286065,0.9881343625774031
2013-10-24,-1,-0.0013412886355102303,-0.001012169268947951,-0.002901030641229006,0.011194099908286065,0.9887891675027237
2013-10-28,-1,-0.0013344225583005215,-0.000971752270779452,-0.00046524813439352206,0.011194099908286065,0.9889680045754146
2013-10-30,0,-4.154141623776211e-05,0.00012123210009052043,0.001591977707355571,0.011068568904072469,0.9901478744610417
2013-11-01,-1,-0.0006403374272479973,-0.00035065107964489387,-0.00046524813439352206,0.011068568904072469,0.989735460195754
2013-11-05,0,-0.0002474501899765181,9.011515093554248e-06,-0.0028643807106692697,0.008374433214908656,0.989690946302631
2013-11-07,0,-9.53340879785927e-05,9.560726862150248e-05,-0.0028643807106692697,0.009869102200700749,0.9897768633309747
2013-11-11,1,0.0016461212250746973,0.0016535652586354348,-0.004111137333399309,0.008374433214908656,0.9922752545097123
2013-11-13,1,0.0016735206263126983,0.0017142113675067813,-0.005367366036956538,0.00772050724414153,0.9918728411965912
2013-11-15,1,0.0023592886388372307,0.00245122690566376,-0.005367366036956538,0.0072375015359239705,0.9925464098264594
2013-11-19,1,0.002213895096589493,0.002294323103675171,-0.005367366036956538,0.00772050724414153,0.9910634306423857
2013-11-21,1,0.0033535269744506217,0.003649018292848787,-0.005257416245277329,0.0072375015359239705,0.9920319572005356
2013-11-25,1,0.0031523225666685827,0.0034740622531673907,-0.005257416245277329,0.0072375015359239705,0.99201250977827
2013-11-27,1,0.004156996725285799,0.004619351847158093,-0.006532627199231596,0.005853096168408666,0.9917918804292825
2013-12-02,1,0.003618954011826098,0.004016386053996179,-0.006993445484612595,0.005535167482609223,0.9919019951614668
2013-12-04,1,0.003268200415685793,0.0036253443436666255,-0.006993445484612595,0.005365444722968866,0.9920528658415635
2013-12-06,1,0.003414908596644155,0.003761580447860613,-0.005928374769905595,0.005535167482609223,0.9928751704126285
2013-12-10,1,0.003374977077139809,0.0037719848084700565,-0.0014436921686946489,0.006909336219351022,0.9932969244466191
2013-12-12,1,0.0031705749133831562,0.0035618156368533004,-0.004738185191354067,0.006909336219351022,0.9925554519761838
2013-12-16,1,0.0033432771488012165,0.003747495382531582,-0.004738185191354067,0.007387147465142073,0.9918131241805556
2013-12-18,1,0.003306625048697068,0.0037056443289840246,-0.004738185191354067,0.006950853603774263,0.9927147156650533
2013-12-20,1,0.003077551590838773,0.0034615812854279023,-0.004932764824591387,0.006950853603774263,0.9925388394600704
2013-12-24,1,0.003568533081720189,0.003997113998952938,-0.008410934417813532,0.006950853603774263,0.9887328098873182
2013-12-27,1,0.002904356092034024,0.003169908937155221,-0.014116191034770388,0.007387147465142073,0.9878646119745805
2013-12-31,1,0.002853221171275876,0.003150736317159559,-0.015823664095493534,0.007908780666827812,0.9863346568340592
2014-01-03,1,0.0021151936120781837,0.0022896660087221906,-0.015823664095493534,0.007908780666827812,0.9850967965942672
2014-01-07,1,0.0023777976506845874,0.002583677727364556,-0.015823664095493534,0.009440898483214156,0.9843679693692315
2014-01-09,1,0.002871730570855488,0.003160436051265178,-0.015823664095493534,0.013818394550395924,0.9829399952943304
2014-01-13,1,0.0019314878426202127,0.0020683558967393837,-0.014560444570599027,0.013853422220298154,0.9830070014758621
2014-01-15,1,0.002993548222927868,0.0033197842077377967,-0.014560444570599027,0.013147246268423358,0.9840852279367713
2014-01-17,1,0.002252876699657361,0.002460416381514479,-0.01420047709997507,0.014105890138611259,0.9838951109199802
2014-01-22,1,0.0014117120089010304,0.0014252901880265694,-0.01420047709997507,0.014105890138611259,0.9835373813194751
2014-01-24,-1,-0.0011624368671130387,-0.0008637653188233786,-0.007950326608827378,0.016531492226901482,0.9856768522210819
2014-01-28,-1,-0.0005599205721238683,-0.0003855822655713537,-0.00829319413649944,0.016531492226901482,0.9861748139956956
2014-01-30,-1,-0.0010928483788554333,-0.0008513684205406046,-0.007950326608827378,0.013990807967755661,0.9876766901887603
2014-02-03,-1,-0.0015008556252725461,-0.001255298669848184,-0.007053688968041256,0.016531492226901482,0.9882314291613038
2014-02-05,-1,-0.0011585467982742944,-0.0009190411686781431,-0.007053688968041256,0.015689958863580367,0.9889722708647407
2014-02-07,1,7.278447612677234e-05,0.0001585819316308952,-0.007950326608827378,0.013748657570267156,0.9898723451075637
2014-02-11,-1,-0.00028849383085670333,-0.00014182258356696916,-0.007053688968041256,0.011112700265837818,0.9908479652561003
2014-02-13,-1,-0.0015206133875318739,-0.0011141174139093573,-0.00829319413649944,0.011112700265837818,0.9901657783072874
2014-02-18,-1,-0.0016677216725526326,-0.0012285361660953529,-0.00829319413649944,0.005592363211521509,0.9911648926752167
2014-02-20,-1,-0.0014265394291324046,-0.0010278052548613832,-0.007231202533634664,0.015546248612244871,0.9900590318207473
2014-02-24,-1,-0.0021517876492518867,-0.0016833812395612136,-0.007231202533634664,0.011112700265837818,0.990965016931186
2014-02-26,-1,-0.0018611002446639524,-0.0013908804842409543,-0.004869296941799364,0.011112700265837818,0.9911156256897705
2014-02-28,-1,-0.0014074768937170888,-0.0010294969609355715,-0.007444801457897274,0.0062740101177105444,0.9902756716886808
2014-03-04,-1,-0.0021778677888852293,-0.0016863249786032886,-0.00553172965157098,0.007211275040284924,0.9907861088695046
2014-03-06,-1,-0.0011388252666648187,-0.0007978519334599371,-0.00553172965157098,0.006695188218121138,0.9909829547381621
2014-03-10,-1,-0.001418773087483726,-0.0010553942367170343,-0.010695863339087414,0.0035468683684916694,0.9896822568608243
2014-03-12,-1,-0.0007751130355081752,-0.0004963557699208508,-0.010695863339087414,0.006695188218121138,0.9889155194123422
2014-03-14,-1,-0.0015797344342559072,-0.001237995959293163,-0.016539459962820965,0.006695188218121138,0.9868066769139637
2014-03-18,-1,-0.0015576756957021336,-0.001189346552350129,-0.016539459962820965,0.009859646024401869,0.9860935730299181
2014-03-20,-1,-0.0011346948397126684,-0.0007750215846477229,-0.016539459962820965,0.008878350470453659,0.9860107115752428
2014-03-24,-1,-0.001177167564397298,-0.0008347620329461232,-0.016539459962820965,0.010218551190711056,0.9852860012745707
2014-03-26,-1,-0.0017781533187960711,-0.0013670188303512726,-0.00923592873886447,0.010218551190711056,0.9854864169368017
2014-03-28,-1,-0.002487218171971449,-0.00200709275779264,-0.016348472329588856,0.010218551190711056,0.9852148361945429
2014-04-01,-1,-0.0015044668944222107,-0.0011596143219507653,-0.016348472329588856,0.010218551190711056,0.9844540674817622
2014-04-03,-1,-0.0014617743523092685,-0.0010970790107000677,-0.016348472329588856,0.010218551190711056,0.9844188251853273
2014-04-07,-1,-0.002198030614254179,-0.0018758452276774985,-0.007192642189378743,0.010218551190711056,0.9857843985657542
2014-04-09,-1,-0.0011013522473390202,-0.000928508892063378,-0.007165636552835244,0.01165788991001216,0.9853984411566039
2014-04-11,-1,-0.00289679682501209,-0.002539789810323285,-0.004049135015265801,0.013375655724033566,0.9866818549464591
2014-04-15,-1,-0.0023162423655272114,-0.0020159803674010502,-0.004298737629930679,0.013375655724033566,0.986709511109096
2014-04-17,-1,-0.0010428271966552976,-0.0009154214492362442,-0.007165636552835244,0.01165788991001216,0.9861921761879913
2014-04-22,-1,-0.000634321704560111,-0.0005586165067898332,-0.010042398197681187,0.011872879618329366,0.9858991580552665
2014-04-24,-1,-0.000587327591328168,-0.0005379681879227694,-0.010042398197681187,0.011872879618329366,0.9854276621808067
2014-04-28,-1,-0.0009857565411611731,-0.0008991738008545289,-0.003788226381135481,0.012047285431025696,0.9863106999218555
2014-04-30,-1,-0.000574595256722868,-0.0005558881084499011,-0.0051461781693642105,0.011215099812342871,0.9870715637372917
2014-05-02,1,0.00039066154126277065,0.00046977261968612915,-0.0051461781693642105,0.011215099812342871,0.9862828019644688
2014-05-06,-1,-0.0004842092282507025,-0.0004760296403381195,-0.003788226381135481,0.012298738131333139,0.9861220834070046
2014-05-08,1,0.0002587408428395791,0.000330945509353323,-0.004680893884962239,0.011049276502585923,0.987148828167797
2014-05-12,1,0.0009882299443650347,0.001170953894216696,-0.004457145253781402,0.009703649796845923,0.988356528452895
2014-05-14,1,0.0005883302598801794,0.0007386512049258776,-0.007152934787301973,0.009703649796845923,0.9884151424166021
2014-05-16,-1,-0.0017392363375939015,-0.0015954466266690217,-0.004457145253781402,0.009703649796845923,0.9902436484117741
2014-05-20,-1,-0.001393339804839887,-0.0013053493469926325,-0.0021773986392896825,0.009703649796845923,0.9897435758790047
2014-05-22,-1,-0.0006500909460240834,-0.0006450455681741363,-0.0026561743363746927,0.00981705950433035,0.9902018723420473
2014-05-27,-1,-0.000365498458865428,-0.0003292690008675508,-0.0072491593524194224,0.008003929542851,0.9899269564786498
2014-05-29,-1,-0.0009648713194558246,-0.0009028535921338568,-0.003399676086080893,0.008003929542851,0.9907652300229733
2014-06-02,1,0.0002969042032713229,0.0004208459838095644,-0.003399676086080893,0.005754928492053873,0.9924828794561664
2014-06-04,1,0.0012451428444548041,0.0015264879978228738,-0.003399676086080893,0.004967198856864713,0.9930518159839047
2014-06-06,1,0.0007303272447143736,0.0009015979081034255,-0.003961184935600313,0.0055736457343997115,0.9921810975695251
2014-06-10,1,0.0014831107520458927,0.0018063812878392291,-0.008952514581671936,0.0076594656149749285,0.991096459180879
2014-06-12,1,0.001377437932851044,0.001607307242235836,-0.0036430944227950424,0.0076594656149749285,0.9916199556218253
2014-06-16,1,0.0015791695461386409,0.0018411710413892234,-0.0036430944227950424,0.008576963679931214,0.9915806130064851
2014-06-18,1,0.00025150759440649537,0.0002719629244296638,-0.00797941436256187,0.005742491545678979,0.9921418522265588
2014-06-20,1,0.0010347469818390762,0.0011197858973238958,-0.00797941436256187,0.005742491545678979,0.9915445290207389
2014-06-24,1,0.0004105839394577625,0.0004369103870696161,-0.003987306700459534,0.008576963679931214,0.992082229125886
2014-06-26,-1,-0.0004209221292302796,-0.00024277818203467702,-0.00538313469076006,0.008576963679931214,0.9917182654738573
2014-06-30,0,-5.8688859850545574e-05,2.8067480907333406e-05,-0.00704354463648737,0.008576963679931214,0.991077550268638
2014-07-02,1,0.0010910159426103815,0.0012230339122385409,-0.007998243043256125,0.008576963679931214,0.990508108450963
2014-07-07,1,0.0013192982854479752,0.001479216349956902,-0.008669964550757947,0.008576963679931214,0.9901711459813886
2014-07-09,1,0.0011468728058594236,0.0012953476112304266,-0.008207868380727396,0.00804865712754696,0.9907131232996907
2014-07-11,1,0.0012307641245200424,0.0014038505334095066,-0.008627494729877644,0.00804865712754696,0.9907430723701959
2014-07-15,1,0.0013940322643746722,0.0015735637763611377,-0.008627494729877644,0.007630430299566797,0.9905932163820306
2014-07-17,1,0.0013939620596630897,0.001589999476498645,-0.0071834200862041205,0.007877888989417275,0.9911277598153486
2014-07-21,1,0.0013666623905531688,0.0015192595044289524,-0.008627494729877644,0.007877888989417275,0.9905955906910358
2014-07-23,1,0.001673764100605597,0.001880474856428547,-0.008627494729877644,0.007877888989417275,0.9907767791121732
2014-07-25,1,0.002079203695796684,0.002388247279050631,-0.008627494729877644,0.008985664002059655,0.9905991209557518
2014-07-29,1,0.001987057264719173,0.002315458603270468,-0.007628327983853639,0.00929887858165504,0.9903847150757681
2014-07-31,1,0.0019597558076962255,0.0022703046202422637,-0.004636548325977061,0.008985664002059655,0.9914118191890811
2014-08-04,1,0.0014240379449997607,0.0016429926200523881,-0.003115260426392778,0.008437925775936432,0.9926609464132883
2014-08-06,1,0.0005458564000480697,0.0005947463156335774,-0.0035452153155510055,0.008437925775936432,0.9923128490601251
2014-08-08,1,0.0004007536377762204,0.00043086019875831236,-0.003015124260984053,0.008437925775936432,0.9924768070335944
2014-08-12,1,0.0014477041499250031,0.0016814585680258337,-0.0038346679068135825,0.008354215037370043,0.992564190431026
2014-08-14,1,0.0017473874578171067,0.0020017991971865634,-0.004398848524500112,0.00873453178636049,0.9921728988106444
2014-08-18,1,0.0017608104802009378,0.001976679956068489,-0.004398848524500112,0.00873453178636049,0.9928609611999274
2014-08-20,1,0.0018031093049884726,0.0019812933776905493,-0.004398848524500112,0.008760100809881502,0.9920063225593936
2014-08-22,1,0.0021187087695544475,0.0023726558542203117,-0.004398848524500112,0.008354215037370043,0.9918430919734269
2014-08-26,1,0.002998909911515582,0.003393150712568416,-0.00611416381624698,0.007352799963267776,0.991590893939444
2014-08-28,1,0.0015775218704332712,0.001630626767348893,-0.00818854827140664,0.007451948899042148,0.990533200831966
2014-09-02,1,0.0019000677838331818,0.0020171791302570825,-0.00818854827140664,0.007451948899042148,0.9902763579103879
2014-09-04,1,0.0005164876928713636,0.0006117864133219146,-0.008551072560402464,0.007451948899042148,0.989543049788432
2014-09-08,1,0.0005168289703418787,0.0005943406030341866,-0.008551072560402464,0.008769915645994258,0.9886153001102636
2014-09-10,1,0.0006759161811094,0.0007016801396677671,-0.009255886067227482,0.007772615074546654,0.9878757862738261
2014-09-12,1,0.001485956508275882,0.0015896397041830347,-0.012982488501420641,0.00711951537522628,0.9860638940056666
2014-09-16,1,0.0013506908768562494,0.0014364957434003245,-0.013009723390967861,0.0010977111813861616,0.986218092715605
2014-09-18,1,0.0009817535147979882,0.0010156250046229544,-0.0172424889871357,0.0010977111813861616,0.9854818124889057
2014-09-22,1,0.0009619144071221074,0.0010084866945931897,-0.015514618851516,0.00711951537522628,0.9849938855099237
2014-09-24,1,0.0012225043951018155,0.0013199498608780819,-0.015514618851516,0.00711951537522628,0.9836742850404454
2014-09-26,1,0.0002919020475606013,0.00034069545096537693,-0.012319184846864398,0.009405302613956237,0.9842303519974307
2014-09-30,1,0.0004846919832584313,0.0005008370228443037,-0.012319184846864398,0.013171146036110458,0.9832206642438831
2014-10-02,-1,-0.0007725686329698217,-0.0006687963702271828,-0.012262541347472558,0.013171146036110458,0.9843934720862287
2014-10-06,-1,-0.00026003134223340153,-0.0001549422591414045,-0.012262541347472558,0.013171146036110458,0.9838061494631807
2014-10-08,-1,-0.0023872250497990162,-0.0019105291296974665,-0.006314857644293828,0.01770927293087281,0.983878264931386
2014-10-10,-1,-0.003782107094500711,-0.00314507776072749,-0.00287887855802887,0.01770927293087281,0.9852100357882358
2014-10-14,-1,-0.0038400365498463475,-0.003237414421936514,0.001408005103556824,0.01770927293087281,0.9847617420399297
2014-10-16,-1,-0.00496437669052518,-0.004244942371965293,0.001408005103556824,0.01770927293087281,0.9855831401678085
2014-10-20,-1,-0.00441624041842616,-0.0037368862277359902,-0.002134509052445696,0.013171146036110458,0.9876466232999782
2014-10-22,-1,-0.003551309905447079,-0.0030127005445706873,-0.00048800709242612556,0.011263808282456883,0.9899367093145588
2014-10-24,-1,-0.0019241944261955014,-0.00163046319400328,-0.00048800709242612556,0.010775381873904387,0.9910899814218574
2014-10-28,-1,-0.0010169733512941392,-0.0008286583454104845,-0.002134509052445696,0.007184656869572601,0.9923127785301722
2014-10-30,-1,-0.0008824330730748919,-0.000730074162991595,-0.003579490770331143,0.005855256278870016,0.9922302550904961
2014-11-03,-1,-0.00022667882434242924,-0.00011042708494526455,-0.003909692251222635,0.005855256278870016,0.9928309272785867
2014-11-05,1,0.0002267231070731733,0.00028468244320824405,-0.004057864389585617,0.005271947237093396,0.9934466285459715
2014-11-07,1,0.0009142172541086043,0.0010054310506685095,-0.004833976280263337,0.005855256278870016,0.992242603192921
2014-11-11,1,0.001262716436731366,0.0014190336313395994,-0.00588993590868232,0.006684461050858506,0.9911081298481279
2014-11-13,1,0.000876900124353434,0.0009434694930014643,-0.006166608685861904,0.007184656869572601,0.9891276835486218
2014-11-17,1,0.0008120047425262592,0.0008914270391773504,-0.008886950441510937,0.007184656869572601,0.9884818169176224
2014-11-19,1,0.0007210587507385445,0.0007614845395815475,-0.008886950441510937,0.011836278893152294,0.985590350487298
2014-11-21,1,0.0015156240383365752,0.00168237876842059,-0.008886950441510937,0.011692422706705823,0.9857165231458982
2014-11-25,1,0.001675542896143422,0.0018783455217639047,-0.008886950441510937,0.011692422706705823,0.9858799596750244
2014-11-28,1,0.0009319236269181094,0.0010159286844291739,-0.006040757858806491,0.011692422706705823,0.9867149745872168
2014-12-02,1,0.0011056915756559097,0.0012119847535974376,-0.006040757858806491,0.01083137259096036,0.9870957895745625
2014-12-04,1,0.0010766054619695683,0.0011927557558915783,-0.008886950441510937,0.01083137259096036,0.9857639389029158
2014-12-08,1,0.0013380933675710702,0.0014633233501643971,-0.016572359990357326,0.010576755313878514,0.9849430163787135
2014-12-10,1,0.0008019557402892968,0.0008694449361357644,-0.016572359990357326,0.01417702334485118,0.9844061292921547
2014-12-12,1,0.0003421666775391784,0.0003601851167408346,-0.01185693857503341,0.010576755313878514,0.9858822658746463
2014-12-16,-1,-8.417208613860697e-05,-4.6154654285201666e-05,-0.020296149611402824,0.010576755313878514,0.984094443004022
2014-12-18,1,0.0016929131743353872,0.0018606383012879303,-0.020296149611402824,0.005826928929282212,0.9853324999359089
2014-12-22,1,0.0016630818592196697,0.0018319805950978956,-0.020296149611402824,0.009831069739084866,0.9847923886302097
2014-12-24,1,0.0015156934004833672,0.0016550618798067103,-0.020296149611402824,0.00619646027245217,0.9844404253174001
2014-12-29,1,0.001176022241867172,0.0012389627631844025,-0.021117914965570687,0.005466405994979722,0.9830828854420935
2014-12-31,1,0.0003408770352715932,0.0003986646883642446,-0.024260878464328818,0.011685349343388388,0.9821376572559902
2015-01-05,-1,-0.0005723487789624377,-0.00043326744984259745,-0.021117914965570687,0.017246689198703927,0.9809654460330598
2015-01-07,-1,-0.000674355225924674,-0.0005479183763392657,-0.01668436085118302,0.017246689198703927,0.9826074412361437
2015-01-09,-1,-0.0001222522348039339,-7.591178048442206e-05,-0.013465719826117988,0.01826050813063383,0.9821680088072757
2015-01-13,-1,-0.0005003403984812016,-0.00042822004600024364,-0.013465719826117988,0.01826050813063383,0.9819029012961347
2015-01-15,-1,-0.0024948394879475665,-0.002189212053550063,-0.001307569705569507,0.01826050813063383,0.9832758179790322
2015-01-20,-1,-0.0013238349962837155,-0.0012049613369039933,-0.0033399436027063216,0.014936389903298406,0.983998433551734
2015-01-22,1,0.00018471761601944993,0.00024431605661617487,-0.0033399436027063216,0.013408311827986312,0.9858651628518503
2015-01-26,-1,-0.00019075373579009185,-0.00017088115182897426,-0.002918220618538065,0.013408311827986312,0.9855794532865125
2015-01-28,-1,-0.001491895554372512,-0.0013395965906740283,-0.0007845838136987163,0.013408311827986312,0.9863479107450246
2015-01-30,-1,-0.0018887041611814663,-0.0016847787702956641,-0.0007845838136987163,0.013408311827986312,0.9870649712534801
2015-02-03,1,0.0003439065935666942,0.00040753462528048324,-0.0038845726729346535,0.010502928397034667,0.99043834935188
2015-02-05,1,0.0009818188013332246,0.001152909487904719,-0.0038845726729346535,0.010178558404106797,0.9905218721590325
2015-02-09,1,0.002066972158807986,0.002375486651810261,-0.005794983060137213,0.007212037739383901,0.990874227659091
2015-02-11,1,0.0028541329171258107,0.0033038894496913197,-0.005794983060137213,0.006619842836451743,0.9906907600539785
2015-02-13,1,0.0026528690570054745,0.003022443617386527,-0.007264312987476608,0.007662190080734154,0.9896265509052746
2015-02-18,1,0.0024063217607928197,0.002755095528795743,-0.005764600036633858,0.0070420917657532025,0.9900610987640872
2015-02-20,1,0.0025462292926705325,0.002873653193742765,-0.007264312987476608,0.010178558404106797,0.9887991711163652
2015-02-24,1,0.0021409642284434234,0.0024085089594166977,-0.007264312987476608,0.006406044517463902,0.9886642894853428
2015-02-26,1,0.0010768410132932392,0.0011465285112689104,-0.0075386289637555445,0.009298589375485906,0.9883235343832611
2015-03-02,1,0.0016905006209077837,0.0019093811982777145,-0.007533782554785281,0.009298589375485906,0.9884356535660649
2015-03-04,1,0.0012659360807898185,0.0013784214623189647,-0.008331461811459683,0.009298589375485906,0.9884756476880964
2015-03-06,1,0.0005313484639816081,0.000601509439004343,-0.008331461811459683,0.00936352454861995,0.9883458102853695
2015-03-10,-1,-0.0014820182282599108,-0.0011732627223060258,-0.0076721086096615465,0.00936352454861995,0.9905707834766075
2015-03-12,-1,-0.0009540280049633466,-0.0006156293493117503,-0.008275905226176793,0.008457173716471122,0.9911622488814577
2015-03-16,-1,-0.0009323149989487304,-0.000646096762258043,-0.008950149898706097,0.005763364087416612,0.9916999019005859
2015-03-18,-1,-0.0009948799154435631,-0.0007088933713289249,-0.008950149898706097,0.008457173716471122,0.9900854049850196
2015-03-20,-1,-0.0005188263010175832,-0.0003452723038732357,-0.008950149898706097,0.008457173716471122,0.9897211462192747
2015-03-24,0,-3.907788856863148e-05,4.518599981344568e-05,-0.008275905226176793,0.00936352454861995,0.9900709537679322
2015-03-26,-1,-0.00033593370223107294,-0.00021939972914428423,-0.008275905226176793,0.008794179299901634,0.9902188003526207
2015-03-30,1,0.000425487613048096,0.00043711544887379877,-0.008950149898706097,0.008794179299901634,0.9903089395211855
2015-04-01,1,6.811039715521186e-05,0.00010681543829174898,-0.008950149898706097,0.010387781471987014,0.9885839078738013
2015-04-06,1,0.00012535462341209651,0.0001404153339437929,-0.008950149898706097,0.010469392442572943,0.9881633671557495
2015-04-08,1,0.00043519890169682954,0.0004585639235375192,-0.008950149898706097,0.010469392442572943,0.9883183568832301
2015-04-10,1,0.00033874661877183326,0.0003483202572485696,-0.007282234076621334,0.010469392442572943,0.9889788220201142
2015-04-14,-1,-0.00013650451860372438,-0.00011357432705033611,-0.005351082356033545,0.010469392442572943,0.9890526159610847
2015-04-16,1,0.00046171681182624743,0.0005161032284773863,-0.004290377567193817,0.009260184420790775,0.9908186814092842
2015-04-20,-1,-0.0006352490284880956,-0.0005475613656501074,-0.004290377567193817,0.009260184420790775,0.9910752873758994
2015-04-22,1,0.00012327676058444465,0.00014279963117471068,-0.004290377567193817,0.0064622989916919395,0.9914386615437419
2015-04-24,1,0.00038979069234231997,0.0004108162454550086,-0.004290377567193817,0.0064622989916919395,0.9917240168150222
2015-04-28,1,0.001052260743245004,0.0011596868378469635,-0.004290377567193817,0.0064622989916919395,0.9913541630009532
2015-04-30,1,0.0008784182730149865,0.0009555895612794806,-0.004290377567193817,0.0054234815646273665,0.9928697189008074
2015-05-04,1,0.0016670678520496517,0.0018661058154900772,-0.004290377567193817,0.00528225893257092,0.9936685197210631
2015-05-06,1,0.00146974592761697,0.0016526525675283998,-0.005293154033166562,0.00501622815002171,0.9927478409040162
2015-05-08,1,0.0006104028018368247,0.000668423347640819,-0.005293154033166562,0.005966776593317548,0.9916732492542278
2015-05-12,1,0.00027806273307498714,0.00032717239258015364,-0.004673255461110368,0.008596261702530713,0.9907087923803213
2015-05-14,1,0.0014313048430685607,0.001663041310274419,-0.006116035469499893,0.008596261702530713,0.9905317232128863
2015-05-18,1,0.0015341093746167479,0.0017189758936678673,-0.006116035469499893,0.007963092535671835,0.9909895359798865
2015-05-20,1,0.0018297216313238832,0.0020634718528267752,-0.006584076125711203,0.007963092535671835,0.9905584233135905
2015-05-22,1,0.0013452853650349342,0.0015215653156026678,-0.007478239332715917,0.008596261702530713,0.989915078337698
2015-05-27,1,0.0010001271614374393,0.001098980795366998,-0.007478239332715917,0.008684725530743197,0.9904001420781088
2015-05-29,1,7.313538436525745e-05,0.00014542467428655352,-0.007352827057188805,0.009580754191867307,0.9902022247991494
2015-06-02,1,0.0008198459702204013,0.000895882500697107,-0.00850389642999384,0.009911532566180206,0.9884596431879228
2015-06-04,1,0.0009697411108652881,0.001001305696926592,-0.009014303256157466,0.009387886246227824,0.9888340549008068
2015-06-08,-1,-0.00023432076693051364,-0.00017720854448313522,-0.00947195386809558,0.008778351872063772,0.989382217499767
2015-06-10,-1,-0.0006831478560733194,-0.00046123932341148423,-0.009697478277945959,0.008778351872063772,0.988526881374298
2015-06-12,-1,-0.00017925513573900317,-0.00011672178107773493,-0.009697478277945959,0.009387886246227824,0.9873926565026635
2015-06-16,-1,-0.00025648860313054104,-0.00014240942222801462,-0.009532056438372214,0.009387886246227824,0.9877133232460006
2015-06-18,-1,-0.0006221327003250032,-0.0004492458620060296,-0.009944687480732003,0.00976677534433783,0.9873405048784759
2015-06-22,-1,-0.0008766169844143812,-0.0006426713245245577,-0.009944687480732003,0.009387886246227824,0.9881496235181243
2015-06-24,-1,-0.00123141185198003,-0.0009408816644412298,-0.009944687480732003,0.008778351872063772,0.9887263778175347
2015-06-26,-1,-0.00024665756049062923,-0.00014221768382375,-0.01046398767741941,0.008570917683275578,0.9887370247576113
2015-06-30,1,5.9984483883213893e-05,0.00010975117213505851,-0.009944687480732003,0.008570917683275578,0.9896405754939729
2015-07-02,1,0.00015427251880209368,0.0001659196120425731,-0.011525901207382372,0.007809397307493814,0.9885400184046477
2015-07-07,1,0.00013622337769518322,0.00015948899381648668,-0.011525901207382372,0.007809397307493814,0.9889937374689705
2015-07-09,1,0.00027728323536895373,0.00033816801711352026,-0.007818451952317389,0.005961850440142344,0.9912716416033136
2015-07-13,1,0.00013200671336545205,0.00015234170177680224,-0.008860291888312017,0.002824158677675766,0.9910231859820189
2015-07-15,1,0.00022998925865469976,0.00027880672802895324,-0.012550174329179799,0.002824158677675766,0.9892780479114724
2015-07-17,1,0.00016151157178924348,0.00016819626261917975,-0.012231795226661697,0.005495814937934514,0.9890542729467592
2015-07-21,1,0.00018137540730623513,0.00018266647608544765,-0.012231795226661697,0.002824158677675766,0.9894400275369084
2015-07-23,0,-2.4826378443295807e-06,2.4854718169168045e-05,-0.017078143438369952,0.002824158677675766,0.9872012481242678
2015-07-27,-1,-0.0004152055933140823,-0.00038555969157980026,-0.01984263796374143,0.002824158677675766,0.9833390807106671
2015-07-29,1,0.0011107594021423904,0.0012079217742023093,-0.01984263796374143,0.0012899766842848401,0.9810734668654352
2015-07-31,-1,-0.0015975806531617718,-0.0012995857460608286,-0.018564621646670554,0.002890877616045204,0.9815436536334392
2015-08-04,-1,-0.0010864402684451538,-0.0008914739926038194,-0.01992301984900261,0.002890877616045204,0.9789911703562048
2015-08-06,-1,-0.0012637312586113074,-0.0010214095451818728,-0.01992301984900261,0.00867157665248847,0.978078985734248
2015-08-10,-1,-0.0010972436165889504,-0.0008615120082023177,-0.02129361847119273,0.00867157665248847,0.9777930343094218
2015-08-12,-1,-0.0007298633835398972,-0.0005717672017473544,-0.01907057370430813,0.012939675661253253,0.9787881795705892
2015-08-14,-1,-0.0005199490700799421,-0.00040170572677404544,-0.01907057370430813,0.006814113464331136,0.9795193262767182
2015-08-18,-1,-0.0005266632312146045,-0.0004182713748334276,-0.01907057370430813,0.012939675661253253,0.9784710208882804
2015-08-20,-1,-0.0009532469535071164,-0.0007983762125179995,-0.022278059973931928,0.012939675661253253,0.9783171864592589
2015-08-24,-1,-0.0021610609393942154,-0.0018447849168709107,-0.016634866701416944,0.015113888703894521,0.981499937637323
2015-08-26,-1,-0.002309549253719088,-0.0019930147886208457,-0.009746940497598309,0.012111508112276296,0.9844382085747349
2015-08-28,-1,-0.0025294835869699665,-0.0022470664029743213,-0.017227092983523422,0.012111508112276296,0.9838898650758758
2015-09-01,-1,-0.00425516078269247,-0.0037715852202797823,-0.009746940497598309,0.015060292251351144,0.9844505039296051
2015-09-03,-1,-0.004143641401367146,-0.003680782927761256,-0.009746940497598309,0.012203158814958606,0.9855383982122147
2015-09-08,-1,-0.003855479835183903,-0.003373361764752659,-0.007267704222188756,0.012203158814958606,0.9857425101393443
2015-09-10,-1,-0.004792938594114857,-0.004212989352560704,-0.007267704222188756,0.012203158814958606,0.9851299878368232
2015-09-14,-1,-0.0018666150365628706,-0.0016857631435101697,-0.005899700753593974,0.012203158814958606,0.9861182491070932
2015-09-16,-1,-0.004356424956379222,-0.0038243336376525424,-0.008651190443946964,0.010571128502438909,0.9866250686814126
2015-09-18,-1,-0.005125958631250789,-0.004530691922377093,-0.005699457973138705,0.012203158814958606,0.9869994669119901
2015-09-22,-1,-0.003454666674003885,-0.003059627383591102,-0.00439033747951806,0.010571128502438909,0.9880446835220051
2015-09-24,-1,-0.0031263465287724858,-0.0027876230504165402,-0.004154453164145466,0.012977729911392186,0.9872029579034656
2015-09-28,-1,-0.0034070448756049997,-0.0030365213115811232,-0.004154453164145466,0.013244266402024923,0.9887603605218094
2015-09-30,-1,-0.0022203320762569758,-0.0019987319617139144,-0.0046933495692863415,0.012315411123596957,0.9882285265982433
2015-10-02,-1,-0.001028475719140746,-0.0009488489563604565,-0.0046933495692863415,0.013642377755945593,0.9880162565109846
2015-10-06,-1,-0.0013008633467846643,-0.0011961955459743932,-0.0046933495692863415,0.013642377755945593,0.988387793207235
2015-10-08,-1,-0.0020287685383045045,-0.0018215662453316761,-0.0046933495692863415,0.013642377755945593,0.9888803738462542
2015-10-12,-1,-0.0008073797968713686,-0.000780155935802443,-0.005447399876606779,0.01852264681831427,0.986707257593878
2015-10-14,-1,-0.001720422128315884,-0.0015475530503290145,-0.004088397046690367,0.01852264681831427,0.9870871259021903
2015-10-16,-1,-0.0006987481850595422,-0.0006834595900398436,-0.0046933495692863415,0.013642377755945593,0.9878879927043837
2015-10-20,-1,-0.002394264057784678,-0.002163342000064319,-0.0046933495692863415,0.016769471677479303,0.9873323609161692
2015-10-22,-1,-0.0003118522877701092,-0.00027492368771589253,-0.004781119445634609,0.015917252915593674,0.9877552575549913
2015-10-26,-1,-0.00021839405060599355,-0.00016306341521737187,-0.00506993206628927,0.012976831462992937,0.9882272857684913
2015-10-28,1,0.0009459605790204933,0.00116419321838922,-0.004288252023223107,0.006287454907740858,0.9907836271476378
2015-10-30,1,0.0009059749347104907,0.0011725929721516934,-0.003995305399149012,0.0035592589863156256,0.9916028311351769
2015-11-03,1,0.0010591865306951059,0.0013389853414521775,-0.004288252023223107,0.0035592589863156256,0.991666356117229
2015-11-05,1,0.0012388380705643553,0.0015424839980755268,-0.005494015068677686,0.0047843532860281195,0.9901864224260095
2015-11-09,1,0.0014991606910012213,0.001843243910921909,-0.008575193503995203,0.0016411624152285218,0.9903649724838384
2015-11-11,1,0.001248322556312932,0.0015694009046283521,-0.01063538910238766,0.0047843532860281195,0.9892613823234362
2015-11-13,1,0.0012669372530248336,0.001584645557616403,-0.01063538910238766,0.0047843532860281195,0.9882065881406962
2015-11-17,1,0.0005321291240615507,0.0007605532785903068,-0.01063538910238766,0.009397372209298708,0.9879898196065064
2015-11-19,1,0.0017079671868803286,0.0020955509389529534,-0.02165826227268615,0.0047843532860281195,0.9854182864411472
2015-11-23,1,0.001169689939088265,0.0014856921564034798,-0.02165826227268615,0.009397372209298708,0.9854926446642086
2015-11-25,1,0.001697041739567637,0.002112135147364057,-0.02165826227268615,0.010443660954000381,0.9846467292694848
2015-11-30,1,0.0014705797556719918,0.0018125169025016799,-0.02165826227268615,0.010678225883029416,0.9842054397317667
2015-12-02,1,0.0013143991679552122,0.0016268736954938292,-0.02165826227268615,0.010678225883029416,0.984198039997717
2015-12-04,1,0.0022175030551711324,0.002646898898440698,-0.022003339630285387,0.009844528976306,0.9842964059359348
2015-12-08,1,0.0020458918663552655,0.002462693989411963,-0.025122503565951065,0.009844528976306,0.9826789185365925
2015-12-10,1,0.0013684278542971779,0.00171577398410554,-0.026331017811476325,0.00760507001634756,0.9818772171105291
2015-12-14,1,0.0014229267208240555,0.0017735902567724343,-0.026331017811476325,0.0077280934722082344,0.9819497326501899
2015-12-16,1,0.0015347283758052898,0.0019316285608761826,-0.027506570382651016,0.002306110813633455,0.9814798991632601
2015-12-18,1,0.0011155468976064315,0.0015103903706046252,-0.025083185001995866,0.002306110813633455,0.982085453067847
2015-12-22,1,0.0004961874398502215,0.0007008378292566013,-0.025083185001995866,0.0023471186322536796,0.9817181294236854
2015-12-24,1,0.00046159068312713884,0.000667279038845854,-0.026387671323383526,0.0023471186322536796,0.9806680995369186
2015-12-29,1,0.0010339936681795947,0.001318626019942002,-0.026387671323383526,-0.003905096355984832,0.9801313749301834
2015-12-31,1,0.0009278957496622961,0.0012437195970624202,-0.026387671323383526,0.0023471186322536796,0.9797291278642701
2016-01-05,-1,-0.00012983694213178305,-2.8400661709070878e-05,-0.028392862206905962,0.0017361066652914919,0.9791686864465959
2016-01-07,-1,-0.001356544963921435,-0.0013382889883277835,-0.026387671323383526,0.0017361066652914919,0.9811651019688904
2016-01-11,-1,-0.0023928209121472635,-0.002252566359369193,-0.029466076875238993,0.007629778925815964,0.9799173603226973
2016-01-13,-1,-0.0020616345503741062,-0.0019198793688453093,-0.029466076875238993,0.010258371497217783,0.976582618911509
2016-01-15,-1,-0.005212218917388791,-0.004482538034117821,-0.029466076875238993,0.01454396296592908,0.9734781172486296
2016-01-20,-1,-0.006446862303696211,-0.005574322876326135,-0.012673582741781597,0.017447984191867705,0.9721992434303249
2016-01-22,-1,-0.005179957862820662,-0.0045687188340731155,-0.012673582741781597,0.016962919411374025,0.972984869960012
2016-01-26,-1,-0.007035229235014609,-0.006134492131331568,-0.013523300188281625,0.01593454114118689,0.9737313681102069
2016-01-28,-1,-0.007039271198521012,-0.0061689169339084506,-0.013523300188281625,0.023644223708981813,0.9704938828053228
2016-02-01,-1,-0.00637642956574,-0.005608689966328386,-0.02389274609961139,0.02663772079009851,0.9678193881397674
2016-02-03,-1,-0.006226155237797352,-0.005454835677575245,-0.013523300188281625,0.02663772079009851,0.9682537542422107
2016-02-05,-1,-0.008160288034944889,-0.0071544942095226275,-0.0076666976757957805,0.02663772079009851,0.969162411180424
2016-02-09,-1,-0.008741006116433721,-0.007750163852902381,-0.0076666976757957805,0.02663772079009851,0.9708406624675896
2016-02-11,-1,-0.011974831587905979,-0.01054118742245383,-0.003403549630716138,0.03259513513787421,0.9712370513195827
2016-02-16,-1,-0.008268211479778234,-0.007342951157662338,-0.0076666976757957805,0.022189029367500772,0.9778283077583924
2016-02-18,-1,-0.00611502144651613,-0.005348682829904375,-0.0076666976757957805,0.015986980277868684,0.9804330814953445
2016-02-22,-1,-0.007241833667936766,-0.006327989900406061,-0.0076666976757957805,0.01572167496649402,0.9803843700550635
2016-02-24,-1,-0.006933685742613842,-0.006112334067809188,-0.007077349322519038,0.01572167496649402,0.9807431311477796
2016-02-26,-1,-0.0038752214870714716,-0.0033947696193947466,-0.008753550371962486,0.013992149514502571,0.9826909064077665
2016-03-01,-1,-0.003155598390213985,-0.0028255042351715493,-0.00725649621252205,0.01067360019609705,0.9863337767324445
2016-03-03,-1,-0.0024050032991929367,-0.0022044282790742707,-0.008753550371962486,0.01067360019609705,0.986068865741987
2016-03-07,-1,-0.0008299376971014261,-0.0007640802205848045,-0.013172157813385797,0.01067360019609705,0.9849340188918118
2016-03-09,-1,-0.0020837516217641853,-0.0018444266229658219,-0.013172157813385797,0.01067360019609705,0.9851142025421584
2016-03-11,-1,-0.001272758773988753,-0.0012268764569300916,-0.013172157813385797,0.01067360019609705,0.9863466698497712
2016-03-15,-1,-0.0013176619822979356,-0.0012869119681674748,-0.011221543226281053,0.015349409769819966,0.9837469100381581
2016-03-17,1,0.0012945621344491141,0.0015833552555046932,-0.011221543226281053,0.015349409769819966,0.9846188187286842
2016-03-21,1,0.0002399070593159477,0.00046321566044379894,-0.011221543226281053,0.015349409769819966,0.9846528520854526
2016-03-23,1,0.00011922231002779368,0.00040660303389408357,-0.007441331580100654,0.01630280642103685,0.984053582588534
2016-03-28,1,0.0017405569553435975,0.002161782899307199,-0.007441331580100654,0.01841229495824772,0.9849504958626871
2016-03-30,1,0.0008087335128369262,0.0012243139957614608,-0.007441331580100654,0.01841229495824772,0.9847393107810278
2016-04-01,1,0.0026351348313682042,0.00324216940393131,-0.007441331580100654,0.01841229495824772,0.9854190161233867
2016-04-05,1,0.0015901866674245583,0.002076825409110123,-0.006570903994097145,0.01841229495824772,0.9850932916732412
2016-04-07,0,-0.0002086556507283168,0.00011237075050724596,-0.008318239626359622,0.01841229495824772,0.9835671385662381
2016-04-11,1,0.000405708869973008,0.0007751466561943515,-0.008318239626359622,0.01675376742355221,0.9840144002111894
2016-04-13,1,0.0030491219964808736,0.003800686167911568,-0.008318239626359622,0.01579106606693136,0.986125553772204
2016-04-15,1,0.0037604441991982178,0.004519297088650347,-0.010853606733814011,0.01579106606693136,0.9860668069565917
2016-04-19,1,0.003526870213081023,0.004339230460254015,-0.010853606733814011,0.014005508837702995,0.986520750248782
2016-04-21,1,0.005625113790340771,0.006611248150202651,-0.012137185690575394,0.014005508837702995,0.9848702500757173
2016-04-25,1,0.006012475957160597,0.007054120850841486,-0.010853606733814011,0.013049680015685225,0.9854679179574029
2016-04-27,1,0.006492633842669623,0.00759434901376981,-0.010853606733814011,0.014005508837702995,0.9849464462183197
2016-04-29,1,0.006076228127433445,0.007168996233987472,-0.010853606733814011,0.015973965454113927,0.9854674005005083
2016-05-03,1,0.004876594233774727,0.0057041458565484674,-0.008164454615906565,0.014329294930812505,0.9864148908941969
2016-05-05,1,0.003739341781021063,0.004402125743504593,-0.006887051637961639,0.014329294930812505,0.9875633067893809
2016-05-09,1,0.003689060127628008,0.004421722817814116,-0.006887051637961639,0.017319089789674523,0.9869157882399301
2016-05-11,1,0.005066306034636241,0.0060411480301420205,-0.008164454615906565,0.013921689616561875,0.9866567733099977
2016-05-13,1,0.0039420443628752425,0.004660253195868944,-0.008659239725046688,0.013921689616561875,0.9856334620425379
2016-05-17,1,0.004919427369155198,0.005816574966042929,-0.01315328324631877,0.009814981546975254,0.9844156229817851
2016-05-19,1,0.005974115047174749,0.007023630552064054,-0.008659239725046688,0.005408430546220931,0.986229297783136
2016-05-23,1,0.006111513280566282,0.007205788796467577,-0.008145487821285644,0.008487685621138908,0.9864079564313923
2016-05-25,1,0.006849002418293947,0.008003640385615286,-0.008145487821285644,0.004720095696234495,0.9851598536586319
2016-05-27,1,0.006948065332126316,0.008045456234090614,-0.020537379259996866,0.0034260677882763362,0.9773208438159464
2016-06-01,1,0.004804136909451065,0.005574808329006493,-0.020537379259996866,0.008487685621138908,0.9769227424700818
2016-06-03,1,0.003679237919936579,0.004240298097447075,-0.008095525755686124,0.014196279120475847,0.9782707019814199
2016-06-07,1,0.0035472755752408523,0.004030394261443537,-0.020537379259996866,0.012163777240943823,0.9767413445917299
2016-06-09,1,0.002425329015274481,0.0027159271693694594,-0.008095525755686124,0.015779190753016082,0.9765704420930831
2016-06-13,1,0.0006380582175471313,0.0006569023708205463,-0.0018687830706150504,0.02436236424624893,0.975394196457553
2016-06-15,1,0.0005757689001959661,0.0005943144781016117,-0.0018687830706150504,0.03280819105313824,0.9736461630811601
2016-06-17,1,0.00013101157325848845,0.00020028645158722273,-0.0034426461518923877,0.03280819105313824,0.9730522990164325
2016-06-21,1,3.682539521328098e-05,0.00014672751980136816,-0.0034426461518923877,0.03280819105313824,0.9734071700261986
2016-06-23,1,0.001401609554166976,0.0014852118978435002,-0.0034426461518923877,0.02436236424624893,0.9753746127736145
2016-06-27,-1,-0.004550121468778406,-0.003897483286874622,-0.00269727217629332,0.02436236424624893,0.9810889980389891
2016-06-29,-1,-0.0032497916148933282,-0.002664500391589563,-0.0034426461518923877,0.014618132335019528,0.9846868351549779
2016-07-01,-1,-0.0034557464056702443,-0.002817335421738782,-0.0044724182278788,0.01274803221562606,0.9855903550991293
2016-07-06,-1,-0.005734474961454255,-0.004682733385796526,-0.0044724182278788,0.01361947567716153,0.9847278382409896
2016-07-08,-1,-0.004027560904099956,-0.0032895367447623794,-0.005857954876817514,0.01361947567716153,0.9826419557911582
2016-07-12,-1,-0.0012928250463709245,-0.0009805597166122658,-0.005857954876817514,0.011433255580824272,0.9854981204031232
2016-07-14,-1,-0.00048200890828685905,-0.00028134631767741186,-0.005857954876817514,0.011265424857644703,0.9866841932772166
2016-07-18,-1,-0.0009463481977590414,-0.0006655372266791849,-0.007953535414511144,0.011265424857644703,0.9861228691423896
2016-07-20,-1,-0.00025646522524737185,-6.22237922230487e-05,-0.007953535414511144,0.011265424857644703,0.986215098162713
2016-07-22,1,0.0002644977564466465,0.0003388441365744134,-0.009278768890011946,0.011265424857644703,0.9855991630217052
2016-07-26,1,0.0005293591748623465,0.0005674871820897052,-0.009278768890011946,0.008815599030445166,0.9858667955479363
2016-07-28,1,0.0002612124730317832,0.0003459216152715698,-0.009278768890011946,0.011430844738454734,0.9860889362054042
2016-08-01,-1,-0.000609119184917135,-0.0003885658132686191,-0.005680591119888815,0.01218913247269727,0.9856992831831413
2016-08-03,1,0.0014758603759719197,0.0015497542524555913,-0.0018704935951495574,0.01218913247269727,0.9877807358768937
2016-08-05,1,0.0018548926195159894,0.0019641327753351185,-0.0018704935951495574,0.012075167387844138,0.9914217600495455
2016-08-09,1,0.002265104858593925,0.0024538608957645563,-0.005680591119888815,0.011430844738454734,0.9907903122722016
2016-08-11,1,0.0020543596744497855,0.002226418437945374,-0.0037951762164488228,0.0072674998183691365,0.9920277998287358
2016-08-15,1,0.001527868441130219,0.0016016390104099025,-0.003281972437144241,0.005979393177445157,0.9929471441838819
2016-08-17,1,0.0013815554908226783,0.0014520404538470681,-0.0037951762164488228,0.007462198471738221,0.9919071734214073
2016-08-19,1,0.001170220207189279,0.001212111156643954,-0.0037951762164488228,0.007462198471738221,0.9911071903544317
2016-08-23,1,0.0010098184808770513,0.0010257110072296278,-0.003281972437144241,0.011762188356010419,0.9907203992660003
2016-08-25,1,0.0008487689520727924,0.0009156130339362454,-0.006492550773296177,0.007897868433238479,0.9903275626971002
2016-08-29,1,0.0006453903947374524,0.0007939755202362013,-0.008330599711959142,0.007541370575477981,0.989737331585526
2016-08-31,1,0.000979442772436699,0.0010451437349073037,-0.011181658521610183,0.007453589863223864,0.9893034264448647
2016-09-02,1,0.0016436760462337572,0.0017819851996446852,-0.008330599711959142,0.007453589863223864,0.9892513937108234
2016-09-07,1,0.0009161837764052153,0.0009406899495925171,-0.006492550773296177,0.01217884036768657,0.9886194974527281
2016-09-09,1,0.0011060844535983896,0.0011958514395080861,-0.008330599711959142,0.01217884036768657,0.988413585585759
2016-09-13,1,0.00188103212977,0.002098334304968758,-0.010854567404513585,0.01300252240344786,0.9878498248354864
2016-09-15,1,0.002192569912199303,0.002455351206227282,-0.011021895915746089,0.011917767488056294,0.9881797085252016
2016-09-19,1,0.001751978775692799,0.00197994157811096,-0.010854567404513585,0.012976484243029116,0.9889773016729624
2016-09-21,1,0.0017182705724349625,0.0018974537561949232,-0.010854567404513585,0.011917767488056294,0.9895009440954646
2016-09-23,1,0.0010679698976067597,0.0011843767519602948,-0.00811973557138589,0.011917767488056294,0.9896391719794618
2016-09-27,1,0.0003329010523329275,0.0003676642067369076,-0.008092656359227327,0.011654425351293945,0.9900917600458453
2016-09-29,1,0.0002702610265981722,0.00029929784655305906,-0.006523285369093058,0.013707626561082457,0.9899177110440616
2016-10-03,1,0.0010664403297458817,0.0011776475721212902,-0.006950755563313494,0.012976484243029116,0.9906553904802502
2016-10-05,1,0.0018476612185384397,0.0020522003003496615,-0.007270169771599404,0.006125071467072333,0.9916764534487654
2016-10-07,1,0.0018240287304899356,0.002007512635930707,-0.007270169771599404,0.00810137574880389,0.988347781896296
2016-10-11,1,0.0017784864870418727,0.002039888299589539,-0.006950755563313494,0.010900265682599825,0.9874523888733487
2016-10-13,1,0.0016430106295273908,0.001817083029477457,-0.006450946768934821,0.014712869055445906,0.9826761346361269
2016-10-17,1,0.001973318444835153,0.002265948446641624,-0.006450946768934821,0.019216406319930258,0.9817521539249517
2016-10-19,1,0.002228073576422423,0.002571675962309598,-0.006950755563313494,0.019216406319930258,0.9805802788345415
2016-10-21,1,0.0019452939070964813,0.0022367109840440757,-0.00627083300036584,0.01927212189083145,0.9801859053911381
2016-10-25,1,0.00143086062211369,0.001612343170838477,-0.005741560025879662,0.01927212189083145,0.9798912900568141
2016-10-27,1,0.002181140021797893,0.0024848719601225843,-0.005741560025879662,0.01927212189083145,0.9810411366342566
2016-10-31,1,0.001536288513341102,0.0017327650019753691,-0.005489346380382849,0.01927212189083145,0.980729332809227
2016-11-02,1,0.0010940134318556294,0.0012076286620392189,0.0020189805800200234,0.02265958814927546,0.9792546639224861
2016-11-04,1,0.0019339013077520556,0.0021320017136496,-0.0004222996226660023,0.01927212189083145,0.9826040709563824
2016-11-08,1,0.002809118537405348,0.003124303675008635,-0.0004222996226660023,0.018486890124228425,0.9836915316255479
2016-11-10,1,0.0060896616875384,0.006821416657577875,-0.002544666414574021,0.017768894889704425,0.9888389512209202
2016-11-14,1,0.00700612419791068,0.007859559588471987,-0.005350378892920385,0.015641391025587474,0.988803350405859
2016-11-16,1,0.003995412521985087,0.004170458285274906,-0.005350378892920385,0.015831523466143683,0.9885317423660926
2016-11-18,1,0.004732233901530051,0.005092276234132729,-0.006853878219725327,0.015153729894255775,0.9887715150858268
2016-11-22,1,0.005195226245959093,0.005619982360922372,-0.006853878219725327,0.015275182905694606,0.9885962587411069
2016-11-25,1,0.004592144054032472,0.004860566266416974,-0.006893382607414929,0.015275182905694606,0.9884309090118523
2016-11-29,1,0.003922529787829867,0.004146402189739132,-0.006893382607414929,0.015275182905694606,0.9885152196655902
2016-12-01,1,0.00541578659314392,0.005904744324763528,-0.0084259329959465,0.006942402622293493,0.9889516732109958
2016-12-05,1,0.004905102998053534,0.005348189140754274,-0.005674592832734049,0.013306995589320626,0.9899858202269575
2016-12-07,1,0.0051622840672881564,0.0056344432501825425,-0.0084259329959465,0.008363196120854436,0.9899050784627272
2016-12-09,1,0.004934274818895135,0.005372066436310189,-0.012142654170798002,0.008354122187459671,0.9901319889706055
2016-12-13,1,0.004276412602169871,0.004616751381306912,-0.012142654170798002,0.008354122187459671,0.9904677598988909
2016-12-15,1,0.004026764904915647,0.004343935760113085,-0.012710913976934883,0.008354122187459671,0.9903029079592851
2016-12-19,1,0.003590306301429318,0.003841537119670191,-0.008486284846755364,0.009630346503162381,0.9899208047104837
2016-12-21,1,0.0033694203195715837,0.0035626618909783267,-0.008486284846755364,0.008354122187459671,0.9903247862106249
2016-12-23,1,0.0036718872892387406,0.003961880276352737,-0.008486284846755364,0.009760452150739542,0.9894893892842969
2016-12-28,1,0.0033545194293259644,0.0036184809919685614,-0.005939816643271063,0.009760452150739542,0.98985600160922
2016-12-30,1,0.002998637884128585,0.0032212777433608935,-0.011847216958058938,0.009760452150739542,0.9887675452178999
2017-01-04,1,0.0030987533281206033,0.0033211776621897577,-0.011847216958058938,0.009733230350555247,0.988260299983992
2017-01-06,1,0.0028458860845295125,0.0030232216919209446,-0.007346596459904857,0.011090428521116621,0.9883226103743185
2017-01-10,1,0.002446339125828747,0.0025702351982428533,-0.007346596459904857,0.011090428521116621,0.9884999669515657
2017-01-12,1,0.0020975310810929073,0.002128370754969769,-0.005718877861446956,0.014738763850403798,0.988356741594825
2017-01-17,1,0.0012842166351345432,0.0013470624091323803,-0.0055527123527902445,0.015201978851130633,0.9889432254014702
2017-01-19,1,0.0017477860204066812,0.0017523925836784157,-0.005680819853832346,0.01430880800595436,0.989509110837391
2017-01-23,1,0.001662269358929884,0.0016650381962110745,-0.0057851592449169615,0.01430880800595436,0.9887865867828394
2017-01-25,1,0.002277794318841307,0.0023796830792459462,-0.00639627150644756,0.0108598170482335,0.989799633827235
2017-01-27,1,0.0018575310218057314,0.0018906343648085518,-0.008837411175965162,0.0108598170482335,0.9897002109236598
2017-01-31,1,0.0009183374722612935,0.0010242171067350913,-0.00639627150644756,0.013416646784401857,0.9892100358730912
2017-02-02,1,0.0011755775932423993,0.0012683499695109296,-0.008315063082090578,0.0108598170482335,0.9889781732888372
2017-02-06,1,0.0008206580138221489,0.000939988519173288,-0.010233150661147411,0.008590109360272736,0.9885731640612061
2017-02-08,1,0.0005001781370865558,0.0006527479109100275,-0.008315063082090578,0.008590109360272736,0.9893020354673602
2017-02-10,1,0.0002822675472813759,0.0005050618349433696,-0.008315063082090578,0.00765128089910628,0.9906642627803122
2017-02-14,1,0.0010098799683640595,0.001133047948819929,-0.008315063082090578,0.0005073874877789442,0.9913326120158445
2017-02-16,1,0.00029625242715221984,0.0005374188302693957,-0.010233150661147411,0.0005073874877789442,0.9914021656800022
2017-02-21,1,9.89195205231833e-05,0.0003577985173244415,-0.012486053287973324,0.000284300835734554,0.9892624798591225
2017-02-23,-1,-0.0006818667821298465,-0.00026307550573947264,-0.012486053287973324,0.0005073874877789442,0.989453441824704
2017-02-27,-1,-0.0011248655151696086,-0.000646915405041356,-0.010583582287047243,0.0005073874877789442,0.9899185871265822
2017-03-01,1,1.0936240333448257e-05,0.0002747253274381046,-0.008760681127439711,0.0005073874877789442,0.9908064965022936
2017-03-03,-1,-0.0008765891234410442,-0.00047753547445595506,-0.0057883552368373946,0.0005190062122078293,0.9914044180241524
2017-03-07,-1,-0.0022512057747380255,-0.0016729651056207,-0.0034558122927838214,0.0005190062122078293,0.9925200687998594
2017-03-09,-1,-0.002266437980700847,-0.0016722343018735124,-0.004136711810199764,0.00217429353829438,0.9912947112788408
2017-03-13,-1,-0.0025115036269745495,-0.0018797587242307444,-0.00476147031500934,0.0015341315258404825,0.9913513529463428
2017-03-15,-1,-0.002969687248508479,-0.0022812893102675804,-0.006412986249333102,0.001764275626833576,0.9904335193418556
2017-03-17,-1,-0.004012749129248197,-0.0031807702652023287,-0.006412986249333102,0.0023538938628138123,0.9903589141172645
2017-03-21,-1,-0.0060053192272813884,-0.004926435472409842,-0.00476147031500934,0.007736996670770694,0.9913922105573515
2017-03-23,-1,-0.005513748568069743,-0.004524287228150526,-0.005251497072396561,0.008956762717772989,0.991184594195761
2017-03-27,-1,-0.005956145573230702,-0.004886964149700993,-0.004735862431809575,0.011790051502606072,0.9887724863182187
2017-03-29,-1,-0.006249778259592113,-0.005132621102970208,-0.006336162599733805,0.009807642583216283,0.9890178902781727
2017-03-31,-1,-0.00572567826144472,-0.004667442567019149,-0.009180594555686379,0.008295959744643058,0.990294491496508
2017-04-04,-1,-0.005293576012970308,-0.004341130891514833,-0.009180594555686379,0.008295959744643058,0.9902262259446678
2017-04-06,-1,-0.003637356402414943,-0.0031227499036234497,-0.0061740331745143194,0.008295959744643058,0.9903013236631167
2017-04-10,-1,-0.002097070876501935,-0.0017442986151223658,-0.0061740331745143194,0.009807642583216283,0.9898633418904493
2017-04-12,-1,-0.0026754880168051312,-0.002256730037956088,-0.0061740331745143194,0.009807642583216283,0.9900652893518743
2017-04-17,-1,-0.0035789998908455968,-0.0030657744513317214,-0.0061740331745143194,0.010254665933848491,0.989299778393519
2017-04-19,-1,-0.002200302300075824,-0.0018765229653320606,-0.0061740331745143194,0.010254665933848491,0.9879235081013674
2017-04-21,-1,-0.001695398961600656,-0.0014274915307554955,-0.0030474246509401967,0.00938772477238548,0.9884287030349204
2017-04-25,-1,-0.0010613013127962765,-0.0008568626108191099,-0.0050085697120271985,0.004757798437962403,0.9902653009015755
2017-04-27,-1,-0.0005088038769109884,-0.0004151689428731702,-0.0050085697120271985,0.006880361708077183,0.9900171093757214
2017-05-01,-1,-0.001073358558348054,-0.000881078554114664,-0.0050423061204159375,0.006880361708077183,0.9901612691215325
2017-05-03,-1,-0.0005570699356222798,-0.0004732464369703056,-0.0050423061204159375,0.010491927916564753,0.9887882015050905
2017-05-05,1,7.0356913371088705e-06,1.6561033489831994e-05,-0.009962914510002415,0.006880361708077183,0.9885350524221728
2017-05-09,-1,-0.0004742500274898539,-0.00041410179117720833,-0.012812619117511841,0.006880361708077183,0.9877795374218008
2017-05-11,1,0.00010669602099651987,0.00011789054798126521,-0.010404721730455455,0.012123529103576256,0.9856016153213412
2017-05-15,-1,-6.838293022087892e-05,-2.5212973596647762e-05,-0.009155128584928958,0.010491927916564753,0.9870094128487065
2017-05-17,-1,-0.001591389911008244,-0.0013917232044176548,-0.005570661645076176,0.010491927916564753,0.9894097867410292
2017-05-19,-1,-0.001233529782902978,-0.0010723047397901025,-0.005570661645076176,0.010193803700554165,0.9896093957167208
2017-05-23,-1,-0.0012120153004592784,-0.0010296036068279531,-0.009487608752744799,0.010193803700554165,0.9882137967892941
2017-05-25,-1,-0.001260511979404509,-0.0011102896525008008,-0.00948245529002347,0.006528367081621072,0.988543300876341
2017-05-30,-1,-0.0011194703474772724,-0.001020658555468191,-0.008338220749294377,0.007178763877525569,0.9883768286565615
2017-06-01,1,0.00017749581342003373,0.00023846190472310932,-0.008338220749294377,0.009886185609289298,0.9885773368895391
2017-06-05,-1,-0.0009435820339936572,-0.000864014856017299,-0.004986842848927484,0.01122915645554449,0.9884652185557249
2017-06-07,-1,-0.0018471030797052443,-0.0016469016582563974,-0.0035116988165927103,0.009886185609289298,0.9894269896229769
2017-06-09,1,0.0009786941317965316,0.0010788571158857068,-0.0035116988165927103,0.006995339089462236,0.9919072347380218
2017-06-13,1,0.0012453827674833765,0.0014138883867671733,-0.004910509089850825,0.007104209224575363,0.9916312141734225
2017-06-15,1,0.0010595293518484276,0.0012036553860932373,-0.006225606609265149,0.009886185609289298,0.9909663206657738
2017-06-19,1,0.0018565330648625498,0.0021881424323440977,-0.006589134302197106,0.007104209224575363,0.9908636005753768
2017-06-21,1,0.0008251233079114636,0.0010208401135933937,-0.006213025616855594,0.010225420315118739,0.9918569855491587
2017-06-23,-1,-0.00028648153962644097,-0.0002761814738099818,-0.002398789787472184,0.010225420315118739,0.9917234751557058
2017-06-27,1,0.0005126215945779418,0.0006635387748174634,-0.0038452695246796835,0.012092062562202573,0.9912389945274047
2017-06-29,1,0.0016554364126621876,0.001985718726095917,-0.0038452695246796835,0.011831382687073304,0.9919092960020618
2017-07-03,1,0.0020478428411965935,0.002387980132533961,-0.0038452695246796835,0.009828982026738504,0.9928078651638682
2017-07-06,1,0.0035276192665050343,0.004064909372642166,-0.0044879651612657724,0.009828982026738504,0.9929296470332113
2017-07-10,1,0.0029585184170366763,0.003480626831009136,-0.0044879651612657724,0.009828982026738504,0.9925688288260304
2017-07-12,1,0.0031035602241775814,0.003660268284716127,-0.0044879651612657724,0.009828982026738504,0.9925725017184858
2017-07-14,1,0.003386817940214913,0.003972538490248815,-0.005378167216475379,0.0077381688611459195,0.9917377161987496
2017-07-18,1,0.002793668288916077,0.003285258094296166,-0.004209679027805701,0.00955341454947914,0.9922687817781248
2017-07-20,1,0.002825046007086068,0.0032995575872410334,-0.005780299296127409,0.0077381688611459195,0.9906122294759302
2017-07-24,1,0.0037216021925816937,0.004366162637775707,-0.011762355134828225,0.00658205089854229,0.9892603977954127
2017-07-26,1,0.003399710146108793,0.0039642277231228245,-0.009210470806134392,0.00658205089854229,0.9898935242219168
2017-07-28,1,0.0035187745651233593,0.004041854193499145,-0.009210470806134392,0.00446272924544179,0.9902628619080602
2017-08-01,1,0.0037798228103603617,0.004329298999016381,-0.011330978335225374,0.0030560437523813027,0.989187601492434
2017-08-03,1,0.003490783368467743,0.003999422513871157,-0.011330978335225374,0.00446272924544179,0.9896078764538344
2017-08-07,1,0.003720462436501338,0.004252142343567737,-0.012963260478851272,0.00446272924544179,0.9881690881021179
2017-08-09,1,0.0031783539339863944,0.0036045343539717264,-0.014042787593107231,0.0043715701268347285,0.9873580760013466
2017-08-11,1,0.0007819421521766445,0.0008005527810245087,-0.012963260478851272,0.008977657222007518,0.9882316804775082
2017-08-15,1,0.0010743622516444658,0.0010985828112741762,-0.012963260478851272,0.008977657222007518,0.9873660702931294
2017-08-17,-1,-0.0007400118061454893,-0.0005357257789788168,-0.005804655759697588,0.008977657222007518,0.9891193509973919
2017-08-21,-1,-0.0015978335476965685,-0.0013034473406144022,-0.001128945220439593,0.011581941595124138,0.9886069181026952
2017-08-23,-1,-0.0008314211375938723,-0.0006640018284054585,0.0006686081817857285,0.010313170371815212,0.9889119413476454
2017-08-25,-1,-0.0007326042474716637,-0.0005677353611850799,-0.0010272216293402124,0.010313170371815212,0.9889231169139524
2017-08-29,-1,-0.0011547911261208152,-0.0009524761628585195,0.0015414723639456378,0.012721631661702072,0.9883514852512443
2017-08-31,-1,-0.0009435875279828445,-0.0007553773270552044,0.0010297643389520334,0.012721631661702072,0.9884710095096607
2017-09-05,-1,-0.0019057199379674337,-0.0015708565878470601,0.0010297643389520334,0.010932909260878004,0.9893719097118867
2017-09-07,-1,-0.002833929465867197,-0.002389434826112654,0.0019496406490631798,0.010932909260878004,0.9894059985947181
