JNU-Tangyin/eata/results/Batch4_SP500/Batch4_SP500-NOC.csv
Date,Action,Predicted_Q25,Predicted_Q75,Actual_Q25,Actual_Q75,RL_Reward
2010-12-14,0,0.0,0.0,-0.0045743107430191235,0.0067976956139130865,0.9924292399887361
2010-12-16,0,0.0,0.0,-0.004373192633629601,0.0067976956139130865,0.9927830818796013
2010-12-20,0,0.0,0.0,-0.004285383401906592,0.008087729157400142,0.9913500797096425
2010-12-22,0,0.0,0.0,-0.005713868685960638,0.008314242649623238,0.9910876780525038
2010-12-27,0,0.0,0.0,-0.006090571522267401,0.009198624074088576,0.990592555456719
2010-12-29,0,0.0,0.0,-0.006518239913932395,0.009198624074088576,0.9899885103543706
2010-12-31,1,0.0013846445232390471,0.0014953633579084396,-0.006727772653711333,0.011204550447419808,0.9885104566432241
2011-01-04,1,0.0007973662927581593,0.0008505774447417498,-0.006727772653711333,0.013097520909449696,0.9877640597282816
2011-01-06,1,0.0016447178386385622,0.0016815992767951387,-0.006727772653711333,0.011204550447419808,0.9886648589300734
2011-01-10,1,0.0017763100173827024,0.0018959077972631787,-0.006090571522267401,0.010808074132462965,0.9892453700638204
2011-01-12,1,0.0012906453968707188,0.0013218100674764043,-0.006090571522267401,0.011031998096122115,0.9889208620334254
2011-01-14,1,0.0006394595907072763,0.0007652052804622252,-0.008971343369442667,0.011031998096122115,0.9880133637172857
2011-01-19,0,0.0,0.0,-0.008971343369442667,0.010632107737293565,0.9890748632854992
2011-01-21,0,0.0,0.0,-0.008971343369442667,0.009159940478572454,0.9897289242094688
2011-01-25,0,0.0,0.0,-0.009574534122586974,0.007433201808733738,0.9890301531744105
2011-01-27,0,0.0,0.0,-0.009219038844873248,0.007433201808733738,0.9893834790120908
2011-01-31,1,0.0008323309450800644,0.0008790191249063303,-0.009219038844873248,0.005540429862422659,0.9909896823316747
2011-02-02,1,0.001270460754954897,0.0013521469340213221,-0.009219038844873248,0.00700515687689345,0.9908168796816047
2011-02-04,1,0.0008987293321301521,0.0009133147302805783,-0.010445828332796095,0.00700515687689345,0.9897544549372531
2011-02-08,1,0.0013814024978202762,0.0014032240615445995,-0.010445828332796095,0.006198253554710878,0.9896839960103921
2011-02-10,1,0.001798508717053871,0.00193867834641825,-0.012184170122425174,0.005471622779062149,0.9896581973503826
2011-02-14,-1,-0.00015102083250933206,-1.8089800200885638e-05,-0.010141382050850214,0.005471622779062149,0.9913101795509944
2011-02-16,1,0.0004787370462334021,0.0005220535600579074,-0.012184170122425174,0.005471622779062149,0.9899724886070744
2011-02-18,1,0.0007036949396930386,0.0007161123912163363,-0.012184170122425174,0.00773128864121982,0.9890732724408287
2011-02-23,-1,-0.0007270021619919207,-0.0005580027956196238,-0.008745547152832468,0.00773128864121982,0.9903928592459714
2011-02-25,-1,-0.001209334230697883,-0.0009642072303373798,-0.005675101372379979,0.00773128864121982,0.9902869644762895
2011-03-01,-1,-0.0010388939039122527,-0.0008683175890677687,-0.004501998178485128,0.00773128864121982,0.990422953321361
2011-03-03,-1,-8.381969419405871e-05,-2.955543746084417e-05,-0.004501998178485128,0.006440297476153001,0.9908153950753512
2011-03-07,-1,-0.0012724915606023295,-0.0010738984349450069,-0.0032546676215189523,0.006440297476153001,0.9914128364873536
2011-03-09,-1,-0.0005338637533160182,-0.0004223883807000837,-0.004116627293750403,0.005470669823716121,0.9922695350295695
2011-03-11,-1,-0.0012778559222326167,-0.0010705278014734145,-0.0031963657373099393,0.005470669823716121,0.9927436109614939
2011-03-15,-1,-0.0012535833007912243,-0.0010382583979572368,-0.0031963657373099393,0.0060214902585008,0.9925220171584976
2011-03-17,-1,-0.0013126372268164694,-0.0011210018652734492,-0.0036136337636356176,0.005470669823716121,0.9934402478898702
2011-03-21,-1,-0.0006009485562611613,-0.00047841405487181844,-0.004403495212723154,0.004213978335340426,0.9941253368162002
2011-03-23,-1,-0.0005199580992210424,-0.0004174201147278603,-0.004403495212723154,0.004672506043526401,0.9931976160302705
2011-03-25,1,0.00014648628167950425,0.00016371171023414155,-0.004758007804307036,0.004213978335340426,0.9934170453736159
2011-03-29,1,0.00029735414960335596,0.0003515716092293631,-0.004018672546469662,0.005818539423345009,0.9928951849791796
2011-03-31,1,0.0009403346544696968,0.001100869681572694,-0.004018672546469662,0.004749839287400794,0.9932576714682767
2011-04-04,1,0.0010459270305025609,0.0012293573979873368,-0.002893895548608528,0.008382552885494193,0.9927803680236156
2011-04-06,1,0.000537976726822313,0.0006075019493785319,-0.004018672546469662,0.008382552885494193,0.9923364947845356
2011-04-08,1,4.7421800473287364e-05,7.021313013138254e-05,-0.004018672546469662,0.008382552885494193,0.9920808222951061
2011-04-12,-1,-0.00015753603610400063,-8.404060431080017e-05,-0.004018672546469662,0.006981335594288827,0.9924297420577773
2011-04-14,-1,-0.0007650997794027271,-0.0006512548660455229,-0.0021850011598481206,0.006981335594288827,0.9927947081911864
2011-04-18,-1,-0.002371328402988735,-0.002005068854120693,-0.0020179084423770687,0.006981335594288827,0.9928096426210761
2011-04-20,-1,-0.0014767582498137182,-0.0012192248134380887,-0.0020179084423770687,0.006737144934895874,0.9938567762684959
2011-04-25,-1,-0.0017002102497357926,-0.0014218377592360534,-0.001851294111698288,0.00750962894916322,0.9929143846470456
2011-04-27,-1,-0.00031192558800095745,-0.00023934101821978347,-0.004019496728601816,0.007112634005772035,0.9936731448180688
2011-04-29,1,0.0001433153533155482,0.00018185988664991658,-0.005635142764687477,0.007112634005772035,0.9934509274596398
2011-05-03,1,0.000814492595068197,0.0008651789571590087,-0.00789394501408871,0.005810994907030686,0.9930845390420394
2011-05-05,1,5.884623686177356e-05,0.00011529295494653742,-0.005439121523736712,0.005810994907030686,0.9935098860886968
2011-05-09,1,0.0006764440998574127,0.0007080799637876542,-0.005810144104168793,0.005810994907030686,0.9936058761306893
2011-05-11,1,0.0006134490194602122,0.0006300950862920101,-0.005810144104168793,0.006388650997440121,0.9932107084064308
2011-05-13,1,0.00046547336243060234,0.0005291701006966175,-0.006054150389205364,0.007112634005772035,0.9922060486985634
2011-05-17,1,0.0005702119432139867,0.0005901814324398979,-0.009001715170990215,0.007507806087863301,0.9910159849977357
2011-05-19,1,0.0005860425735055804,0.0006253921956618734,-0.009001715170990215,0.008235426721798588,0.9904741148810142
2011-05-23,1,0.0006990504558513333,0.0007213296909478254,-0.006054150389205364,0.009296551923324322,0.9901180192448369
2011-05-25,1,0.00024714597012031063,0.00032405686249402675,-0.005133274344566136,0.009296551923324322,0.9906511888597133
2011-05-27,1,0.00035051685370725017,0.0004021257907993053,-0.004804655020561748,0.010127138674970095,0.9909101986581643
2011-06-01,0,0.0,0.0,-0.003662115127166393,0.013055503780324685,0.9909671985036549
2011-06-03,0,0.0,0.0,-0.0012796556820547597,0.014297499882353886,0.9901580651123049
2011-06-07,0,0.0,0.0,-0.0012796556820547597,0.014297499882353886,0.9903007722816651
2011-06-09,0,0.0,0.0,-0.004903824646098129,0.014297499882353886,0.9894307094797258
2011-06-13,0,0.0,0.0,-0.005653984271116106,0.01288927107167226,0.9902823508184134
2011-06-15,0,0.0,0.0,-0.005653984271116106,0.010826903637852452,0.990788438258008
2011-06-17,0,0.0,0.0,-0.007430595462604366,0.00957768243058896,0.9908901091668385
2011-06-21,0,0.0,0.0,-0.007430595462604366,0.008098170674730277,0.9918277414381609
2011-06-23,0,0.0,0.0,-0.007430595462604366,0.008791331576441536,0.9914673169826862
2011-06-27,1,0.0024177848802636403,0.002704154605147781,-0.007430595462604366,0.008078763773226416,0.9911908186574566
2011-06-29,1,0.0029774471337420828,0.003361469485563629,-0.010607397014558609,0.0015410001064908023,0.988166248072651
2011-07-01,1,0.004188661831918638,0.004779978986150365,-0.013986351610146538,-0.0016878125563019749,0.9867718497123282
2011-07-06,1,0.003887435135517748,0.004434546748046548,-0.01481237805195104,-0.0030452852966607936,0.9852001077243591
2011-07-08,1,0.002181458158463656,0.0024223619372815155,-0.01481237805195104,-0.001568184155277686,0.9863877521920557
2011-07-12,0,0.0,0.0,-0.019136501441261677,0.0012796637171761085,0.9837391611477342
2011-07-14,0,0.0,0.0,-0.03145165411431032,0.003515726205018128,0.9802013095531253
2011-07-18,0,0.0,0.0,-0.03145165411431032,0.005417782698456076,0.9798711754590094
2011-07-20,-1,-0.0003643049284008658,-0.0002034911274634224,-0.03145165411431032,0.0037611135436002125,0.9798536155656861
2011-07-22,-1,-0.0005107802029167808,-0.0003103462852580411,-0.03232146676677517,0.003336185595230796,0.977340954465897
2011-07-26,0,-3.1208803541206735e-05,7.36654197341031e-05,-0.03232146676677517,0.006594018129107058,0.9753665197285297
2011-07-28,-1,-0.003264266795582476,-0.0027380986686064467,-0.02893414853106099,0.01731226003983877,0.9768610098838009
2011-08-01,-1,-0.003425058472841319,-0.0029183608584366066,-0.02893414853106099,0.022787998487154227,0.9746661868835971
2011-08-03,-1,-0.005180807402747262,-0.004436183123643989,-0.018708893221892533,0.022787998487154227,0.9750756505880988
2011-08-05,-1,-0.006245904494276574,-0.005376306187659825,-0.022946436708286836,0.022787998487154227,0.9745883837773469
2011-08-09,-1,-0.007502927937869409,-0.006505027404065653,-0.017000096024707045,0.022787998487154227,0.977103255826642
2011-08-11,-1,-0.0074993969001075165,-0.006558438669577919,-0.0162852173540182,0.019054759665905818,0.9809393597160189
2011-08-15,-1,-0.006665557479405695,-0.005814503588428426,-0.0162852173540182,0.016212186923678606,0.9817651792307989
2011-08-17,-1,-0.006500943518938205,-0.0056920444933323145,-0.0162852173540182,0.019419512952221024,0.9801546206595244
2011-08-19,-1,-0.00882662568265434,-0.0077512844265004025,-0.008946915556677544,0.019419512952221024,0.9804051888582939
2011-08-23,-1,-0.006671171100781339,-0.005887799890032127,-0.017454782464955437,0.01348813925581738,0.9823248031026133
2011-08-25,-1,-0.00647836572284183,-0.005731295732511079,-0.015271501775128201,0.011830117552279428,0.9842660092154049
2011-08-29,-1,-0.004367571023034526,-0.0038627386594881075,-0.015271501775128201,0.011830117552279428,0.9849733433568282
2011-08-31,-1,-0.003948751574910085,-0.003491890600927683,-0.017454782464955437,0.014151164976704924,0.983709256013763
2011-09-02,-1,-0.005500375468684773,-0.004881590318321971,-0.017454782464955437,0.014151164976704924,0.9838289945557478
2011-09-07,-1,-0.004650272450913179,-0.004099176686443927,-0.017454782464955437,0.013029346289708425,0.9843360942570241
2011-09-09,-1,-0.005925674663498231,-0.005202934369260255,-0.015271501775128201,0.013029346289708425,0.9832817611979114
2011-09-13,-1,-0.004698765417797548,-0.004166289298038178,-0.015271501775128201,0.017241333372306326,0.9823176243385748
2011-09-15,-1,-0.003525638862765236,-0.0031190292715376675,-0.01733421125981629,0.013029346289708425,0.9833796238454664
2011-09-19,0,0.0,0.0,-0.015458711357785896,0.011709591932257696,0.9845178102707883
2011-09-21,-1,-0.004011367791843712,-0.0036205900204140705,-0.01355896102016523,0.011830789309847836,0.984743091345555
2011-09-23,-1,-0.003825347454950407,-0.00349568664534929,-0.007710886119711021,0.017241333372306326,0.9834788862693675
2011-09-27,-1,-0.00236626011672223,-0.0021852735993401562,-0.007710886119711021,0.0102800168071037,0.9855838615511768
2011-09-29,0,0.0,0.0,-0.007710886119711021,0.0102800168071037,0.9861286829553068
2011-10-03,0,0.0,0.0,-0.00031772948540860686,0.0102800168071037,0.9879688403527839
2011-10-05,0,0.0,0.0,-0.003671875305734697,0.0102800168071037,0.9857401183888621
2011-10-07,0,0.0,0.0,-0.004084747987337038,0.01162048211715686,0.9851939279320103
2011-10-11,0,0.0,0.0,-0.004084747987337038,0.01162048211715686,0.985923374429488
2011-10-13,0,0.0,0.0,-0.004084747987337038,0.013899870555158815,0.9855268719365119
2011-10-17,0,0.0,0.0,-0.004084747987337038,0.016093207998491094,0.9849679434063988
2011-10-19,0,0.0,0.0,-0.004511297657512267,0.016093207998491094,0.9844638956986819
2011-10-21,0,0.0,0.0,-0.009812517584011995,0.013899870555158815,0.9845849429422779
2011-10-25,0,0.0,0.0,-0.01665005442622729,0.013899870555158815,0.9832195018332854
2011-10-27,1,0.00011848910771817937,0.0003489440314532417,-0.017659744763779336,0.011006688108173141,0.9842351060265763
2011-10-31,1,0.00023369343237229388,0.0005041767099033929,-0.017659744763779336,0.013899870555158815,0.9831147746180556
2011-11-02,-1,-0.0007770193588680926,-0.0006287408633144452,-0.014052173790424541,0.014714792639103982,0.9841205212618349
2011-11-04,1,8.298105743046488e-05,0.00033841737212448653,-0.014052173790424541,0.011006688108173141,0.9851336725171611
2011-11-08,1,0.001110573928290352,0.0015386098822807775,-0.014197889379759715,0.008920350504104875,0.9854683157368119
2011-11-10,1,0.001351372528779403,0.0018659678696389618,-0.013790966443607144,0.008920350504104875,0.9858343744835815
2011-11-14,1,0.0018447918298299202,0.0024275072196516204,-0.013790966443607144,0.0077826704043699926,0.9860555384867559
2011-11-16,1,0.0019362397299839632,0.002561851139029153,-0.013289992652028192,0.00612745206619461,0.9870533652956712
2011-11-18,1,0.0015832969874546782,0.0022142814675769314,-0.012420755930566853,0.006223103130930467,0.9880364691047485
2011-11-22,1,0.0009899016600127836,0.0015902300500200996,-0.007830910553735202,0.0077826704043699926,0.9886642469612804
2011-11-25,1,0.0008766169162064308,0.0014540718207679466,-0.006309645743511887,0.012018121015774399,0.9892630890594579
2011-11-29,1,0.0012980582304856986,0.00190221805091483,-0.007830910553735202,0.008643280836299139,0.9898571742931956
2011-12-01,1,0.002108992043127457,0.0027962458572386097,-0.007830910553735202,0.008643280836299139,0.9907126624631997
2011-12-05,1,0.0022886464718130115,0.0029707683977618837,-0.007830910553735202,0.007728826584844182,0.9911954234045154
2011-12-07,1,0.0018137226321631493,0.0024124741512725513,-0.007631864374947288,0.007728826584844182,0.9912930719576264
2011-12-09,1,0.002104103261907954,0.002760135767130814,-0.007083308573312538,0.007728826584844182,0.9920768398909807
2011-12-13,1,0.001859998149562118,0.002498703453254812,-0.003109133539862679,0.012018121015774399,0.9921080223962854
2011-12-15,1,0.0020385191847231672,0.0027058205248264686,-0.004964952087620779,0.012259503138172319,0.9910355725235339
2011-12-19,1,0.0011389417509599044,0.001533694633922512,-0.002482183839730468,0.01246381998484269,0.9902700569679445
2011-12-21,1,0.0020623815325399846,0.0025611749590128247,-0.004964952087620779,0.012259503138172319,0.991131469366522
2011-12-23,1,0.002153045008108509,0.0025949860066367706,-0.007246732704396031,0.009856943768608602,0.9910814955964076
2011-12-28,1,0.0014716208772056739,0.0017693337033490419,-0.007246732704396031,0.009856943768608602,0.9911833158029892
2011-12-30,1,0.0012755043615271093,0.0015338963065670355,-0.008122136768197764,0.004572434362093138,0.9915120709623428
2012-01-04,1,0.0010072020467247326,0.0011772733364011924,-0.00831187954545921,0.009856943768608602,0.9899564404354305
2012-01-06,1,0.0007561314062928928,0.000915839375491132,-0.008247089254271905,0.009856943768608602,0.9903215646887715
2012-01-10,1,0.00020573169586983613,0.00021699904247689193,-0.008247089254271905,0.011628620934339624,0.9895765666593364
2012-01-12,1,0.0005052384713031655,0.0005537227897760909,-0.008247089254271905,0.009549198990744145,0.9900816361040709
2012-01-17,1,0.0010781099427859546,0.001181360677406004,-0.007150133093768532,0.008566442281186009,0.9909216322829087
2012-01-19,1,0.0015465110856901143,0.0016860936641532,-0.008247089254271905,0.003026752394613209,0.9914240669903377
2012-01-23,1,0.0017877853291540973,0.002064236977538683,-0.007150133093768532,0.00707497230812569,0.9916742176864035
2012-01-25,1,0.0014618109611328903,0.0016995099470728187,-0.006772708749231406,0.00707497230812569,0.9921836799334375
2012-01-27,1,5.570114142231089e-05,0.00010916420200604834,-0.005255896872390576,0.00707497230812569,0.9928827652381691
2012-01-31,1,3.859612702466571e-05,4.729356379082897e-05,-0.00394470426109189,0.00707497230812569,0.9932140315544571
2012-02-02,-1,-0.00019585164879900313,-0.00012929964889968947,-0.00394470426109189,0.006691464415723781,0.994336714036523
2012-02-06,1,0.00029116137262421996,0.00029829776869456486,-0.004452173703555023,0.005445843450532237,0.9943910187465683
2012-02-08,1,0.0010943309278450284,0.0012655857837634084,-0.004452173703555023,0.00490302333041767,0.9952507425451537
2012-02-10,1,0.0006931000277884147,0.000795161091985669,-0.0032758780334321645,0.005445843450532237,0.9953562053274899
2012-02-14,-1,-0.00022106480585813221,-8.74810215649821e-05,-0.0032758780334321645,0.006691464415723781,0.9946242755519087
2012-02-16,-1,-0.000659078126611995,-0.000463604114057252,-0.0027851418106735115,0.006691464415723781,0.9949720213520413
2012-02-21,-1,-0.00027203231594375056,-0.00016352344875189263,-0.0027851418106735115,0.005445843450532237,0.9947969931910374
2012-02-23,-1,-0.0003582256528702881,-0.00024333097376081036,-0.0027851418106735115,0.005445843450532237,0.9949951514794613
2012-02-27,-1,-0.000989732833716552,-0.0007285894354180053,-0.0033428972921583705,0.006725327187097738,0.9943493136979106
2012-02-29,-1,-0.0009066549413977657,-0.0006803832133726501,-0.0043989340067205175,0.006725327187097738,0.9939812378969335
2012-03-02,-1,-0.0006757090158786676,-0.0005186022120348003,-0.0040320187509770376,0.0053545317538136565,0.9943985940233452
2012-03-06,-1,-0.00034601573193459895,-0.00024806676321822226,-0.004092522340436003,0.007080898082413795,0.9939062585770029
2012-03-08,-1,-0.00026577618042562557,-0.00016904339302839863,-0.004688978739934125,0.004292796822950199,0.9940038040989457
2012-03-12,-1,-0.0004431034503321564,-0.00029898639158196385,-0.0053861496766996995,0.002506219687428827,0.99370656892094
2012-03-14,1,0.00011557544775987058,0.00018606207183930937,-0.0053861496766996995,0.002506219687428827,0.9934260057063165
2012-03-16,1,0.00035961888135326123,0.00038622517868424266,-0.006515799720322681,0.0032858821160196105,0.9928749944765649
2012-03-20,1,3.2081000246794196e-05,8.843951646956498e-05,-0.0053861496766996995,0.004762025616930786,0.9929881057498107
2012-03-22,1,0.0004636294202015935,0.0005244350982366391,-0.006515799720322681,0.008765821318666605,0.9919438575675045
2012-03-26,1,0.0005600014266049173,0.0006079064300832477,-0.0053861496766996995,0.008765821318666605,0.991937871103425
2012-03-28,1,0.00041132068097878124,0.0004504776822377357,-0.005001761639882979,0.008765821318666605,0.9920071676912685
2012-03-30,1,0.0007136538420685411,0.0008283559448189941,-0.005604077517806207,0.008765821318666605,0.9916204149645075
2012-04-03,1,0.0012385536921325755,0.001455477549474731,-0.005591258523244925,0.007043565806997173,0.9923470826246872
2012-04-05,1,0.0008283724172122185,0.0009849713096800254,-0.0074873292710743306,0.007043565806997173,0.9916691035705365
2012-04-10,1,0.0005115964826629031,0.0006396537747030846,-0.006820479232567676,0.007043565806997173,0.9921088134297357
2012-04-12,1,0.001267803891393269,0.001487077369894367,-0.0074873292710743306,0.004569298137466772,0.9927050345481891
2012-04-16,1,0.00044904333691307,0.0005025000818558339,-0.00754204780633444,0.004569298137466772,0.992475279423644
2012-04-18,1,1.5629179278903296e-05,8.082788585666052e-05,-0.00754204780633444,0.0036196538460066224,0.9927504436500894
2012-04-20,1,1.2069142949858625e-05,0.00012288042339318966,-0.00754204780633444,0.0029679675291725462,0.992875161169875
2012-04-24,1,0.0006348814380675828,0.0006536037927834014,-0.00754204780633444,0.0029679675291725462,0.99293331251823
2012-04-26,1,0.0011270132922809246,0.001218196130359197,-0.007850173664542045,0.0021096277232809137,0.9927222193076852
2012-04-30,1,0.0010177893224542806,0.0010986771199382468,-0.007850173664542045,0.0021096277232809137,0.9927028390398166
2012-05-02,0,0.0,0.0,-0.007850173664542045,0.0007133711899025145,0.9930856384444373
2012-05-04,0,0.0,0.0,-0.007330442570930834,0.0007133711899025145,0.9928377642336107
2012-05-08,0,0.0,0.0,-0.007330442570930834,0.00296226355908629,0.9919874034100603
2012-05-10,0,0.0,0.0,-0.00584394401790818,0.004272939556696276,0.9915705771489624
2012-05-14,0,0.0,0.0,-0.00584394401790818,0.007358803192425131,0.9914324617881239
2012-05-16,-1,-0.0012886406894233328,-0.0010646686302263867,-0.00584394401790818,0.008895074846753842,0.9912016773414097
2012-05-18,-1,-0.0015137503554517383,-0.0012985958617703682,-0.003570440775527899,0.010795111221850586,0.9913509158248108
2012-05-22,-1,-0.0012239934806860023,-0.001025664755069352,-0.003570440775527899,0.010795111221850586,0.9916449119783118
2012-05-24,-1,-0.0011720426615697494,-0.0009865609698870713,-0.003570440775527899,0.010795111221850586,0.9916028441088715
2012-05-29,-1,-0.0010689771299541313,-0.0009066512133310362,-0.005675615970957836,0.010795111221850586,0.9915529820045328
2012-05-31,-1,-0.0015383889187223642,-0.0012973630837626831,-0.006455139484009976,0.01114958638717058,0.9904394493164983
2012-06-04,-1,-0.0021047989869977636,-0.0018159696735955328,-0.0045488666619114704,0.01202051514671125,0.9897036353002404
2012-06-06,-1,-0.0007067313773902621,-0.0006153322684388713,-0.0045488666619114704,0.01114958638717058,0.9909594678065448
2012-06-08,0,0.0,0.0,-0.006455139484009976,0.010795111221850586,0.9916190743222246
2012-06-12,0,0.0,0.0,-0.006455139484009976,0.007406033785429873,0.9919490482141414
2012-06-14,-1,-0.02009610274191968,-0.01936684864688596,-0.006678446663889646,0.007406033785429873,0.97806488961708
2012-06-18,0,0.0,0.0,-0.006678446663889646,0.007241472643880823,0.9910073904885925
2012-06-20,1,0.000746723971226065,0.0007663291731137063,-0.006678446663889646,0.007241472643880823,0.9907246958990166
2012-06-22,1,0.0001989492672416661,0.0002749219897966135,-0.006678446663889646,0.007241472643880823,0.990369240723237
2012-06-26,-1,-0.0005597940273256601,-0.000403732571346728,-0.005755733021226362,0.007460489380856637,0.9907864984734277
2012-06-28,0,0.0,0.0,-0.004909255766672796,0.011041664079180481,0.9904094507947541
2012-07-02,0,0.0,0.0,-0.005945037396042232,0.011041664079180481,0.9911119021879715
2012-07-05,1,0.00028613226524668077,0.00033279808942861114,-0.005945037396042232,0.011041664079180481,0.9909524982529159
2012-07-09,0,0.0,0.0,-0.005460623118771615,0.012169195228199148,0.990838584629967
2012-07-11,1,0.00029094952284520895,0.00030789809629185993,-0.004886708583660293,0.013547819310131047,0.9903252793683999
2012-07-13,1,0.001147579632304994,0.001264535461460131,-0.00433092373319652,0.012043173873376485,0.9918287471371042
2012-07-17,1,0.0012014522012883974,0.0013151971045624782,-0.004283770999503807,0.012043173873376485,0.9922154137318244
2012-07-19,1,0.0017161380218159428,0.0019077268851348,-0.004283770999503807,0.010150389773244152,0.9926111681091466
2012-07-23,1,0.0009488116050049413,0.001028315188775516,-0.0017510394510296399,0.010150389773244152,0.9930455956700178
2012-07-25,1,0.0009550817663005601,0.001030726709010619,-0.0033464674844230803,0.010150389773244152,0.9924821479098447
2012-07-27,0,0.0,0.0,-0.0037485164592599113,0.007804983183435702,0.9923182046637844
2012-07-31,0,0.0,0.0,-0.0036956103536861257,0.007528104376076454,0.9930915547263369
2012-08-02,0,0.0,0.0,-0.0035488254029370464,0.007528104376076454,0.9927755521205391
2012-08-06,0,0.0,0.0,-0.0035488254029370464,0.007246914377567814,0.9930435505404285
2012-08-08,0,0.0,0.0,-0.0036599784085833403,0.006445538793694419,0.9931451286348211
2012-08-10,1,0.002519550946544357,0.0028125211692911524,-0.0045675887013556385,0.005361828369145446,0.9927440681275522
2012-08-14,1,0.002326611341886992,0.0025984293957110804,-0.004408870384634283,0.006445538793694419,0.9927463986053706
2012-08-16,1,0.0025424263816810322,0.0028468662193313044,-0.006099348806766195,0.005689427758284539,0.9917293130510096
2012-08-20,1,0.0025655214470924137,0.0028449258828380578,-0.006099348806766195,0.005190597484049566,0.9919333948258099
2012-08-22,1,0.0019554944973643176,0.0021573013397151214,-0.0047330428958875775,0.005190597484049566,0.9931088285198999
2012-08-24,1,0.001777007454548356,0.001966911783688902,-0.0047330428958875775,0.004988819709917951,0.9940488564811168
2012-08-28,1,0.00133229324219709,0.0014365733585331936,-0.004795788034501602,0.005190597484049566,0.9937803102600548
2012-08-30,1,0.0007517105730263351,0.0007518823889610374,-0.0047330428958875775,0.005098019506297648,0.9943726373240817
2012-09-04,1,0.0014184972390043574,0.001548726698641765,-0.0047330428958875775,0.0056586412721301455,0.9937299324806134
2012-09-06,1,0.0014888346988697146,0.0016070666715290631,-0.0047330428958875775,0.0056586412721301455,0.9942347163728885
2012-09-10,1,0.0012638212264762844,0.0013719006511574922,-0.001712835333681829,0.006101782942615226,0.9941542300861098
2012-09-12,1,0.0015900892463820834,0.0017400581154089795,-0.004691169056292721,0.004692664363981029,0.9938974028824186
2012-09-14,1,0.0011335433154587423,0.0012592347280969943,-0.0008858862844688373,0.006101782942615226,0.994897825754566
2012-09-18,1,0.0014888615317487767,0.001663051695111861,-0.0008858862844688373,0.006981293593632124,0.994276430970752
2012-09-20,1,0.0014099152102262486,0.0015584459596415727,-0.0008858862844688373,0.007883543202140263,0.9939648857975971
2012-09-24,1,0.0012901907897114855,0.0014247338994918025,-0.001072763982459658,0.007883543202140263,0.9935550235237629
2012-09-26,0,0.0,0.0,-0.002129544832406988,0.007883543202140263,0.9933470418908436
2012-09-28,0,0.0,0.0,-0.004642124352914526,0.007883543202140263,0.9926506467100301
2012-10-02,1,0.00042287279607037046,0.00043448476718056073,-0.004642124352914526,0.007883543202140263,0.9931058244393647
2012-10-04,0,0.0,0.0,-0.004642124352914526,0.006604815416304144,0.9936748205293685
2012-10-08,1,0.0008702009394205688,0.0008873897388209687,-0.005476044200533258,0.006604815416304144,0.9914551307552392
2012-10-10,0,-0.00017019313405768175,1.7694436357433107e-05,-0.005476044200533258,0.006604815416304144,0.9910843256724519
2012-10-12,1,0.00029579633925607264,0.0004067801800413684,-0.005476044200533258,0.004435015208245669,0.9912841316950526
2012-10-16,1,0.0007850238863792254,0.0008592435211477866,-0.008791796165272443,0.002900671284638959,0.9905324856145739
2012-10-18,0,0.0,0.0,-0.008791796165272443,0.002900671284638959,0.9901241211204601
2012-10-22,0,0.0,0.0,-0.006169010906545404,0.003855535040727927,0.9903800275849595
2012-10-24,0,0.0,0.0,-0.00566106678128442,0.00542350563389814,0.9903871886430381
2012-10-26,0,0.0,0.0,-0.003701799698982624,0.005827454358706354,0.9905123337838307
2012-11-01,0,0.0,0.0,-0.003701799698982624,0.005827454358706354,0.9906848923888584
2012-11-05,0,0.0,0.0,-0.00566106678128442,0.007199724665107391,0.9894324523944589
2012-11-07,0,0.0,0.0,-0.003701799698982624,0.006876696530510795,0.9918642197503114
2012-11-09,0,0.0,0.0,-0.0024908427173096805,0.0075739787063119025,0.9923821903829123
2012-11-13,0,0.0,0.0,-0.001568326945746173,0.0075739787063119025,0.9923448282750116
2012-11-15,0,0.0,0.0,-0.001568326945746173,0.0075739787063119025,0.9929845820705637
2012-11-19,0,0.0,0.0,-0.001568326945746173,0.0075739787063119025,0.9928845251320065
2012-11-21,0,0.0,0.0,0.00023188673272381115,0.0075739787063119025,0.9929203714320194
2012-11-26,0,0.0,0.0,0.00023188673272381115,0.0075739787063119025,0.9932185366834453
2012-11-28,1,1.012970899736991,1.01559292289504,-0.004427903610905226,0.00559308224821762,0.4967731147993532
2012-11-30,-1,-0.0011048671042447997,-0.0008862828116888835,-0.0061369525662487105,0.00559308224821762,0.9924148747367504
2012-12-04,-1,-0.0014689999391403698,-0.0011832458622996367,-0.004427903610905226,0.00559308224821762,0.9930954246077198
2012-12-06,-1,-0.0008988173833329366,-0.0007021416440216628,-0.004427903610905226,0.00559308224821762,0.9930428471679885
2012-12-10,0,0.0,0.0,-0.0061369525662487105,0.004510150815250534,0.9924094492078139
2012-12-12,0,0.0,0.0,-0.0061369525662487105,0.005047508907951713,0.9921140796503105
2012-12-14,-1,-0.001331192259943298,-0.0010791527617253307,-0.004565244911819141,0.005047508907951713,0.9928044393995974
2012-12-18,-1,-0.0004138667951774998,-0.00027141539062963243,-0.005012716778558688,0.00434527728633454,0.993450777887722
2012-12-20,1,0.00041250937212525035,0.00041450248477315377,-0.005012716778558688,0.005252208188438094,0.9928444727673198
2012-12-24,0,0.0,0.0,-0.0054185822688807474,0.0052927471786255245,0.9925470098295545
2012-12-27,0,0.0,0.0,-0.007034783413400708,0.0052927471786255245,0.9920259867741027
2012-12-31,0,0.0,0.0,-0.006576472301707123,0.005226478104009977,0.992878248094277
2013-01-03,0,0.0,0.0,-0.007034783413400708,0.00455680435251282,0.9924409658773833
2013-01-07,0,0.0,0.0,-0.0077202967435461185,0.00455680435251282,0.992150326932776
2013-01-09,-1,-0.0001376963113942857,-0.00013178949826416788,-0.007034783413400708,0.005226478104009977,0.9926869011734966
2013-01-11,1,0.00012542429597015624,0.0001731414314368242,-0.007034783413400708,0.005226478104009977,0.9929606804948538
2013-01-15,1,0.0006364018790758296,0.0007740327195794107,-0.007571942122249396,0.005226478104009977,0.992784934844543
2013-01-17,1,4.2421815603188644e-05,5.7634481703078424e-05,-0.007034783413400708,0.005226478104009977,0.9931341351188702
2013-01-22,1,0.0005682963488462993,0.0006455367818578341,-0.007034783413400708,0.005015887770438033,0.9935394575805784
2013-01-24,1,0.0001836384430895046,0.00019596525534057557,-0.007571942122249396,0.005221411932032442,0.9931310242041002
2013-01-28,-1,-0.000814766114099278,-0.000691616875303911,-0.00701570539856366,0.005221411932032442,0.993076598455454
2013-01-30,-1,-0.0007379116744427347,-0.0006354733822167174,-0.005482651756679412,0.006445690811947044,0.9926388167798631
2013-02-01,-1,-0.0009781887566583803,-0.0008689664876632877,-0.005482651756679412,0.006445690811947044,0.9927446010463066
2013-02-05,-1,-0.001288883130470243,-0.0011252401408319073,-0.0030367438062234124,0.006445690811947044,0.9931297757482509
2013-02-07,-1,-0.0005577636504151759,-0.0005019768864645399,-0.0030367438062234124,0.006624952854757785,0.9930667946708416
2013-02-11,-1,-0.0008568729003330796,-0.000728141694180409,-0.0030367438062234124,0.005648822861223221,0.9931723417596294
2013-02-13,-1,-0.0008753501692485006,-0.0007641252144229252,-0.0024730006607706213,0.008345614718215742,0.9926982838389942
2013-02-15,-1,-0.000863407758366238,-0.000753759367439523,-0.002926069840016913,0.008808410843229718,0.9916749742209
2013-02-20,-1,-0.0008431630576951953,-0.000726698405464362,-0.002926069840016913,0.008468977280500521,0.991998873227086
2013-02-22,-1,-0.0009045322436163568,-0.0007693529221352667,-0.002926069840016913,0.006077177634726206,0.9924425823301339
2013-02-26,-1,-0.0012100227253772171,-0.0010489037549634476,-0.0021520036392682186,0.008817230221497618,0.9923830856471964
2013-02-28,-1,-0.000503656985432568,-0.0004597051971735582,-0.00040470096987234105,0.008375249611075327,0.9928335626525178
2013-03-04,-1,-0.000900092362855174,-0.0008305258210899784,-0.00040470096987234105,0.008375249611075327,0.9931039420863275
2013-03-06,-1,-0.00045562147453962333,-0.0004434934726868247,-0.00040470096987234105,0.010738426532323977,0.9925512519230502
2013-03-08,-1,-0.00013597516726025983,-0.00012930022444123285,-0.00040470096987234105,0.009412484701057105,0.9930114980345778
2013-03-12,1,0.00014288401253220422,0.0002057182572016117,-0.0021007135445050996,0.009412484701057105,0.9931168999483305
2013-03-14,1,0.0011386462823840698,0.0013767167791313806,-0.002564159668996019,0.008971369783608803,0.9936277795927068
2013-03-18,1,0.0016751187633869988,0.002004189978452047,-0.002564159668996019,0.007371832651926447,0.9937216214113551
2013-03-20,1,0.0015500383150963983,0.001838424557417734,-0.0038471976704394896,0.007371832651926447,0.9926723449644573
2013-03-22,1,0.001132607432695763,0.0013424874837686728,-0.0035641729628925,0.008971369783608803,0.9922542623043229
2013-03-26,1,0.0014393259832612098,0.0016521733523918226,-0.0035641729628925,0.009613804049160755,0.9914734379466855
2013-03-28,1,0.0020345310791434843,0.002355473518922042,-0.0035641729628925,0.00982782891018891,0.9914078047792698
2013-04-02,1,0.0016915218691210933,0.001970775270646521,-0.0029523584342515856,0.010124685465797409,0.9912378099741603
2013-04-04,1,0.0019969035960521984,0.0022572075032357706,-0.0029523584342515856,0.009713739952510035,0.9918023667348348
2013-04-08,1,0.0018515497091714306,0.0020574000507558752,-0.0029523584342515856,0.009713739952510035,0.9917080160459056
2013-04-10,1,0.001650706114577802,0.001817038875522928,-0.0029523584342515856,0.009713739952510035,0.9915937428350757
2013-04-12,1,0.0011503560881118953,0.0011842973321021255,-0.0020540483301076176,0.009713739952510035,0.9918014496175872
2013-04-16,1,0.0011324253324993612,0.0012044308144948603,-0.0020540483301076176,0.00982782891018891,0.9918908648174362
2013-04-18,1,0.00047646643897677777,0.0004878061264005658,-0.0013410400081729416,0.00982782891018891,0.9921427918309806
2013-04-22,1,0.0007947002441122729,0.0008241877499598655,-0.0013410400081729416,0.00982782891018891,0.990880006899642
2013-04-24,1,0.0023784385974590532,0.00264690183360694,-0.002217560369651209,0.008967825155888148,0.9927342384545496
2013-04-26,1,0.0023803881362403573,0.00265956137341127,-0.0020587132966497115,0.007947478639424913,0.9928738651965406
2013-04-30,1,0.0028820937243560782,0.0032270258284798755,-0.0027409276557692087,0.007653293062154707,0.9929836803286327
2013-05-02,1,0.0029828750317920714,0.0033533442751277356,-0.0032880286985800893,0.007653293062154707,0.9918505119473786
2013-05-06,1,0.0032403247546854766,0.003659962965895291,-0.00485137033333451,0.007738726019453685,0.9912898558016432
2013-05-08,1,0.0034086550242028034,0.003844401953166926,-0.005635578221455984,0.008372497777196532,0.9904828304203868
2013-05-10,1,0.003097686298564812,0.0034544605736754968,-0.005635578221455984,0.009950796864185393,0.9897095786249112
2013-05-14,1,0.0037018534978434897,0.00418339724749364,-0.007134021112098406,0.008372497777196532,0.9897622755968062
2013-05-16,1,0.0035893561570391527,0.00405694377421502,-0.007134021112098406,0.008372497777196532,0.9900967503562255
2013-05-20,1,0.004295153232894519,0.0048428167804006,-0.005095583617417678,0.00829996031106403,0.9919156338200676
2013-05-22,1,0.0036484125950235137,0.004083416909998985,-0.00792809029254377,0.00829996031106403,0.9913675276464757
2013-05-24,1,0.0036564888029471773,0.0040887615841000485,-0.009367466852917061,0.00829996031106403,0.9909394779345081
2013-05-29,1,0.0038004176653869924,0.004244636108558094,-0.009367466852917061,0.00829996031106403,0.9906255286553276
2013-05-31,0,0.0,0.0,-0.00792809029254377,0.00829996031106403,0.9919421531265811
2013-06-04,0,0.0,0.0,-0.009367466852917061,0.007364808571292867,0.9916743949725851
2013-06-06,0,0.0,0.0,-0.0060237881417916925,0.009319824076026878,0.9916764790663362
2013-06-10,0,0.0,0.0,-0.0060237881417916925,0.009319824076026878,0.9918051700257151
2013-06-12,1,0.003191578319403335,0.003495426491210143,-0.004562272013508294,0.010410877413759196,0.991992189635437
2013-06-14,1,0.003423506204198167,0.0037846092667321507,-0.004562272013508294,0.010410877413759196,0.9921466445931668
2013-06-18,1,0.003618591794743044,0.003990723980625109,-0.006077836734447561,0.010410877413759196,0.9916631598537244
2013-06-20,1,0.0022526713747569927,0.002397540800234226,-0.0022081413903778063,0.010410877413759196,0.9926075437542179
2013-06-24,1,0.0017510385187501508,0.0018136289891135919,0.0022690027845687177,0.010410877413759196,0.992938527800427
2013-06-26,1,0.0014935487483127266,0.0014968938054802003,0.0023471929425403727,0.010410877413759196,0.9928877784760529
2013-06-28,1,0.0015590576462382547,0.0015716507737273202,0.0024574110745242215,0.009382192952951696,0.9936145421035708
2013-07-02,1,0.0013324175633335786,0.0013608899188866596,0.0024574110745242215,0.010410877413759196,0.9936660072829843
2013-07-05,1,0.0019829577241720514,0.002029492944611352,0.0024574110745242215,0.011470196493017185,0.993588020416266
2013-07-09,1,0.0021415165129907345,0.002195490374864117,0.0015488227972142471,0.010133090728195418,0.9938300245572398
2013-07-11,1,0.002596974738141377,0.0026971291453880422,0.001139978243291045,0.009377085132274973,0.9944480715444266
2013-07-15,1,0.0025820807771065753,0.002680207989222355,-0.0015152818484181767,0.009377085132274973,0.9938613514043259
2013-07-17,1,0.0020965355775403273,0.002122477363941014,-0.0015152818484181767,0.009377085132274973,0.9942073271978599
2013-07-19,1,0.0018037314809580588,0.001841454842131401,-0.0027453215067450992,0.009377085132274973,0.9937494483294891
2013-07-23,1,0.0017936654638126882,0.001828091092637447,-0.0032570706351550908,0.009377085132274973,0.9935556665305274
2013-07-25,1,0.0016965241931216823,0.0017849830417147859,-0.0032570706351550908,0.006480355099818647,0.9942659771399232
2013-07-29,1,0.0019136319149413933,0.001973200925514008,-0.0032570706351550908,0.005624765856245314,0.9943077694791631
2013-07-31,1,0.002116919838123414,0.0021397143632923927,-0.0032570706351550908,0.004003549164547367,0.9940756977390922
2013-08-02,1,0.0027730810085079558,0.0028288633752811734,-0.004485339062811513,0.0025325940948915365,0.9945066164409119
2013-08-06,1,0.0025997826188371683,0.002663167854911281,-0.0032570706351550908,0.0029493052624058316,0.9947293802799047
2013-08-08,1,0.002663713921501895,0.0027485205480082316,-0.004246241186608834,0.0025325940948915365,0.9948137574056813
2013-08-12,1,0.0022483737569046623,0.002268160091034874,-0.0032570706351550908,0.003654233111968848,0.9950876280801564
2013-08-14,1,0.0017875452097136494,0.0018498110491875857,-0.0009031052685233339,0.004817705320362769,0.9950778853181866
2013-08-16,1,0.0016427910771412736,0.0017052779284607354,-5.286201525576105e-05,0.00596311343808284,0.9948872374156724
2013-08-20,1,0.0013821133958072857,0.0014629936117240643,-5.286201525576105e-05,0.006714875989120794,0.9946186310065215
2013-08-22,1,0.0009397640125774445,0.001099015534961634,-0.0023909199728546636,0.006714875989120794,0.9934710636309784
2013-08-26,1,0.0013785426817065577,0.0014648250464742282,-0.0046025124686778435,0.006714875989120794,0.9934241036870246
2013-08-28,1,0.0006806452364846562,0.0008418421152834707,-0.0028618656703861822,0.006761063015786229,0.993933303023805
2013-08-30,1,0.00014422394642881712,0.0003768882487616681,-0.0028618656703861822,0.006761063015786229,0.9937561779068191
2013-09-04,1,0.00048257669053093904,0.0006739991145543433,-0.0046025124686778435,0.006761063015786229,0.9934493506228319
2013-09-06,0,-0.0001754217883247987,0.00013030308555563323,-0.004796100440846241,0.006761063015786229,0.9925218431374062
2013-09-10,0,-0.0003715212901293167,1.0341277597379194e-06,-0.0064504876083851794,0.006761063015786229,0.9919243707080222
2013-09-12,0,-2.079944123434946e-05,0.0002971459639459354,-0.0064504876083851794,0.007323558766944076,0.9909881957424808
2013-09-16,1,0.0014000138091549263,0.0014785303844166103,-0.0064504876083851794,0.007323558766944076,0.9908732934657095
2013-09-18,1,0.0012841693788124208,0.0013826466516056355,-0.009524207613006694,0.007323558766944076,0.9900700480261393
2013-09-20,1,0.0005987152823693719,0.0007486299044203951,-0.0057694270167657595,0.010172468507664411,0.9900398471231375
2013-09-24,1,0.00037656683781102363,0.0005508022111417722,-0.009524207613006694,0.01267523782242386,0.9890158395693656
2013-09-26,1,0.0004908392225011032,0.0006514576626984199,-0.009524207613006694,0.014693621086666279,0.9866516418033051
2013-09-30,1,3.338701322288119e-05,0.00023879549400570535,-0.005872206134382484,0.014693621086666279,0.986521644549526
2013-10-02,0,-0.00012683338370789111,0.00010178092473252926,-0.0051684017379716495,0.014693621086666279,0.9868873343875646
2013-10-04,-1,-0.0006870661219702938,-0.0004105839317903088,-0.0018038276698968555,0.014693621086666279,0.9875824626311221
2013-10-08,-1,-0.000693250517920791,-0.00040832231657245003,-0.00012937135476525117,0.013147767261058922,0.9883935437516403
2013-10-10,1,0.0011480538909285649,0.0011749505404525687,-0.0018038276698968555,0.01267523782242386,0.9899359223909332
2013-10-14,1,0.0012361094983724917,0.0012717438422141327,-0.004793937649960325,0.012846669799952557,0.9895378448896911
2013-10-16,1,0.0010762055039350354,0.0011221210650963803,-0.004793937649960325,0.009546921755330045,0.9904014942920819
2013-10-18,1,0.0019552020819876806,0.0020215451644830544,-0.005087322302982697,0.007490521606976248,0.9912219592548916
2013-10-22,1,0.0017752489892313807,0.001814123030547,-0.004793937649960325,0.007490521606976248,0.9918616471212636
2013-10-24,1,0.003460525493113275,0.003715889022165073,-0.004793937649960325,0.006062212442220956,0.9940312731364347
2013-10-28,1,0.0031802498912215805,0.0033930738206816935,-0.0044616355652812925,0.006062212442220956,0.9939389201026901
2013-10-30,1,0.00308064732766754,0.003297916628430478,-0.003476265508644453,0.007674874683098369,0.99373924917565
2013-11-01,1,0.00279826546335755,0.002938718705908474,-0.005087322302982697,0.007674874683098369,0.9928104928741283
2013-11-05,1,0.002908601758165606,0.0030610635419850633,-0.005743591743482585,0.007674874683098369,0.9917668355874919
2013-11-07,1,0.0026984360007220095,0.002838117665583136,-0.005743591743482585,0.007674874683098369,0.9917010868586311
2013-11-11,1,0.002499085477049985,0.0025491791541939627,-0.005743591743482585,0.006736504528443564,0.9925540200574967
2013-11-13,1,0.001963942740067525,0.0020180620757433813,-0.005790891329388946,0.006736504528443564,0.9918421861661142
2013-11-15,1,0.001766329377048918,0.0018372976314415498,-0.005105346782632347,0.007155132514926738,0.9919177859958367
2013-11-19,1,0.0018757140517549923,0.0019294849644207334,-0.005105346782632347,0.007155132514926738,0.9916294457999296
2013-11-21,1,0.0015714644748243331,0.001683954312639008,-0.0078097552105178035,0.007155132514926738,0.9911319339424118
2013-11-25,1,0.0020009070179655506,0.0020292652437938017,-0.0078097552105178035,0.007155132514926738,0.9911486060682586
2013-11-27,1,0.002858776050247055,0.0029612812885112722,-0.0078097552105178035,0.007155132514926738,0.9912112431790944
2013-12-02,1,0.002268086547406389,0.0023346463524238246,-0.005710559860277625,0.007155132514926738,0.9917683255111704
2013-12-04,1,0.0017584015028191391,0.0017602829434372087,-0.005710559860277625,0.007155132514926738,0.9921329511041249
2013-12-06,1,0.001270426411646312,0.001347000787945188,-0.00352076317892818,0.007155132514926738,0.9925557112276613
2013-12-10,1,0.001118377829302145,0.001203189283050761,-0.0019596580308436033,0.007155132514926738,0.9923746072525316
2013-12-12,1,0.0002962655585446952,0.00047636022066303515,-0.0019596580308436033,0.007155132514926738,0.9928835451504312
2013-12-16,1,0.0010952492790253297,0.0011635543947986773,-0.0019596580308436033,0.007338870707381041,0.9929138239401959
2013-12-18,1,0.0018138157544061592,0.0018483267889799614,-0.001661128825449287,0.0064435747462525846,0.9938841974509274
2013-12-20,1,0.0019081086698066049,0.001963243270715051,0.001347049637903061,0.006939875920433167,0.9944343906732438
2013-12-24,1,0.0028129752853828854,0.0030452394714319854,-0.005622044511700013,0.0064435747462525846,0.9923454435860001
2013-12-27,1,0.0026342577707189384,0.0028289532956440712,-0.006422016210767771,0.006279198432047233,0.9921338793355922
2013-12-31,1,0.0023284291998980494,0.002499231471397932,-0.006181570907549894,0.0064435747462525846,0.9922756445604558
2014-01-03,1,0.00140638252866799,0.00145440433439674,-0.006181570907549894,0.006939875920433167,0.9908324974786442
2014-01-07,1,0.0016602334448659111,0.0017344624283800545,-0.006422016210767771,0.006939875920433167,0.9898070771980074
2014-01-09,1,0.0015421860690698556,0.0015798335637521824,-0.006422016210767771,0.008396068184785548,0.9886937431198995
2014-01-13,1,0.0012117456337038229,0.001231658656541115,-0.006244512823410287,0.009607586181870699,0.9878964169545443
2014-01-15,1,0.0017104433894640152,0.0017510264437805212,-0.006244512823410287,0.009607586181870699,0.988087173737404
2014-01-17,1,0.0016453599927676722,0.0016786718257703669,-0.006244512823410287,0.00999345792150494,0.9875949534259723
2014-01-22,1,0.0018118182486504385,0.0018348952324277025,-0.007061235182267644,0.01049310707808792,0.9872327846124201
2014-01-24,-1,-0.0005441066028552518,-0.0002716666021824499,-0.005770847270357277,0.01223603882155371,0.9892732122746313
2014-01-28,-1,-0.0007755082933345506,-0.0004910503864609906,-0.0062455921684371595,0.01223603882155371,0.9884885263112586
2014-01-30,-1,-0.0005244795710210258,-0.0002583300107297141,-0.0062455921684371595,0.01223603882155371,0.9881211148385558
2014-02-03,-1,-0.00042705301263140985,-0.00019180300669076008,-0.002785222258379153,0.01223603882155371,0.9887502916191556
2014-02-05,-1,-0.0007704602404217247,-0.0005082107213088363,-0.0025790471514927677,0.01223603882155371,0.9897374769468551
2014-02-07,1,0.0005233014289904496,0.0006039032186431055,-0.005035136669229192,0.01119927525871817,0.9905643761826998
2014-02-11,1,0.0011185810930713692,0.0011223878541051383,-0.005557030347496526,0.010243927919407357,0.9912681321340403
2014-02-13,1,0.0007163797146766018,0.0008119850239498782,-0.007811273203239161,0.009048985642739857,0.9912633954673941
2014-02-18,1,0.0004405583820358762,0.0005804412783390423,-0.007811273203239161,0.00934572358845543,0.9910123475946644
2014-02-20,1,0.0007743377268485254,0.0008712974728331016,-0.007811273203239161,0.008514194805545796,0.9913100930142414
2014-02-24,1,0.0005649070408691506,0.0007192911352835421,-0.007811273203239161,0.0061072791731314295,0.9914903475571086
2014-02-26,-1,-0.0006484262982032963,-0.0003526292510180641,-0.005385752657094685,0.008514194805545796,0.9923556701548035
2014-02-28,-1,-0.00036551940961195657,-7.295678246731392e-05,-0.007227403631752161,0.0062061918217032885,0.9918947494138988
2014-03-04,1,0.00020525339326149885,0.00043118290244758054,-0.007227403631752161,0.0062061918217032885,0.9923073421614592
2014-03-06,1,0.0005133918702058154,0.0006468349592888144,-0.007227403631752161,0.0062061918217032885,0.9921460604508573
2014-03-10,1,0.0003081214241995766,0.00046674762435907296,-0.008044012512853846,0.0062061918217032885,0.9906976048181434
2014-03-12,1,0.0001321800755901937,0.000332708662689149,-0.0075301794416483235,0.008901210307830195,0.990589715868394
2014-03-14,1,3.512314245920575e-05,0.00020169385085281168,-0.0075301794416483235,0.008901210307830195,0.9898624606916903
2014-03-18,1,0.000481519171510227,0.0006044854311149769,-0.0075301794416483235,0.008140456733443447,0.9898816493947437
2014-03-20,1,0.0009330524190498651,0.0009567976438364927,-0.004900802639194162,0.011451926713225898,0.9893700792281273
2014-03-24,1,0.0005733614978865617,0.0006133267431428847,-0.006036765970242841,0.011451926713225898,0.9888776088527228
2014-03-26,1,0.0004402436976145141,0.0005047120558825475,-0.01223442709450046,0.01175602070090981,0.9877440379645923
2014-03-28,1,0.0006840907514430245,0.0007141451849420804,-0.006036765970242841,0.011451926713225898,0.9890964093610225
2014-04-01,1,0.0012518848615914538,0.0013079134537381189,-0.006036765970242841,0.011350458604543374,0.9890728645133386
2014-04-03,1,0.0012027176787843719,0.001232327065580885,-0.008455102482769273,0.011350458604543374,0.9889228549684741
2014-04-07,-1,-0.0002201862762307898,-0.00010267432129760145,-0.004988473709317587,0.011350458604543374,0.9904938743426941
2014-04-09,1,0.00028786785448460354,0.00034384914706612785,-0.004988473709317587,0.010984294033749595,0.9906988239334459
2014-04-11,-1,-0.001183045856981563,-0.0009429200276949723,-0.0014503176392025715,0.011350372735710195,0.9911324321449101
2014-04-15,-1,-0.00014432484034192195,-2.6747995615051807e-05,-0.0030473883306733206,0.010984294033749595,0.9916355365949814
2014-04-17,1,0.0009791527625250375,0.0009983291297779111,-0.008256825864060551,0.006038169049551494,0.9918200892184038
2014-04-22,-1,-0.00024980574465067323,-0.00013492581546459807,-0.008256825864060551,0.007226278650291643,0.9916586722844714
2014-04-24,1,0.0001746650082606688,0.000196598012173915,-0.0038024021630519165,0.005541391326589537,0.9930959595744959
2014-04-28,-1,-0.0004091319852181323,-0.00027115139840297074,-0.0038024021630519165,0.007226278650291643,0.9924475693171296
2014-04-30,1,7.277464144928036e-05,0.0001711987695549726,-0.0038024021630519165,0.004982815348175478,0.9934748624528046
2014-05-02,-1,-0.0004397240137334795,-0.00027557180329859524,-0.0017019889166621034,0.005541391326589537,0.9930674682706864
2014-05-06,-1,-0.0010228073712889372,-0.0007823986507022648,-0.0017019889166621034,0.006435879343284432,0.9930314299305977
2014-05-08,-1,-0.0009689476152223714,-0.0007038152440401702,-0.0017019889166621034,0.006435879343284432,0.9930303410778774
2014-05-12,-1,-0.0003354312255305081,-0.0001683499363463539,-0.002914132750078893,0.005443517465241119,0.9933587836673486
2014-05-14,-1,-0.0002850063190329567,-0.00016176107742591492,-0.0043164586145429396,0.00528097802040711,0.9924637821851977
2014-05-16,-1,-0.0010366799843147072,-0.0008273935810864691,-0.0013999490864765774,0.006435879343284432,0.9924526958585852
2014-05-20,-1,-0.0011866006268524331,-0.0009828247985990352,-0.0013999490864765774,0.006303010192729271,0.9931975703983104
2014-05-22,-1,-0.0009648458816365449,-0.0007837186658990196,-0.0013999490864765774,0.0077854183144482406,0.9928228297822727
2014-05-27,-1,-0.0004776547127362199,-0.00035141099268246924,-0.004325969343437741,0.006585683318789096,0.9926572386439588
2014-05-29,-1,-0.0007532653610003631,-0.0005752112307761403,-0.004325969343437741,0.006585683318789096,0.9925402035352608
2014-06-02,0,-2.0439968631497167e-05,5.3332687869367434e-05,-0.00614157636984013,0.006303010192729271,0.9928063944697154
2014-06-04,1,8.51990200480562e-05,0.00014119293346364706,-0.006160216053005053,0.006390336687590659,0.9926971536077672
2014-06-06,1,0.0003295748974606235,0.0003593960056055637,-0.007743934967510796,0.006390336687590659,0.9923368394595595
2014-06-10,1,0.000629854716185706,0.0006733071182775184,-0.007743934967510796,0.006390336687590659,0.9923102416498804
2014-06-12,-1,-0.0005800814303696823,-0.0004774476982234863,-0.00587900495643346,0.006847662803373258,0.9931598376384846
2014-06-16,1,0.0005139990839465498,0.0005825541339181858,-0.00587900495643346,0.006637529264529244,0.9935916839866928
2014-06-18,-1,-0.0007638321891298726,-0.0005710724486096522,-0.00587900495643346,0.006637529264529244,0.9934786683289569
2014-06-20,-1,-0.0006066295344559543,-0.00041367890027163773,-0.00587900495643346,0.006637529264529244,0.9932978558113111
2014-06-24,-1,-0.0014230006132500959,-0.0011351276980181985,-0.003142620284965069,0.007538289707854256,0.9934807093649529
2014-06-26,-1,-0.0014319664748672005,-0.0011456374504822792,-0.003389220542667711,0.010155097018572944,0.9929905143345082
2014-06-30,-1,-0.0021922425613255738,-0.001782634323420885,-0.003389220542667711,0.010155097018572944,0.9926675437493857
2014-07-02,-1,-0.001517035436688856,-0.0012424582393101577,-0.0043647235561935,0.010155097018572944,0.9923932205058804
2014-07-07,-1,-0.0010393175629378126,-0.0008519558849434297,-0.004215957033661281,0.007488507511001937,0.9930337067112502
2014-07-09,-1,-0.0007909108301480225,-0.0006604560317589397,-0.004215957033661281,0.007488507511001937,0.9926916238916703
2014-07-11,1,6.133602664708091e-05,7.59783029057165e-05,-0.004667791432702861,0.007488507511001937,0.9922271177237962
2014-07-15,1,0.0005213866621229719,0.0005765201955281957,-0.004667791432702861,0.006477549015079215,0.9923802940511752
2014-07-17,1,0.0005393216870185676,0.000621408800531029,-0.004215957033661281,0.010155097018572944,0.9917732954055626
2014-07-21,1,0.0007266927242743856,0.0007704752520552046,-0.004215957033661281,0.0065414215863798236,0.9919018253096418
2014-07-23,1,0.0014627729600146463,0.0016451654835742604,-0.004215957033661281,0.006238019836582143,0.9919332628963369
2014-07-25,1,0.0021680355132347555,0.0024980883050508334,-0.004215957033661281,0.005164071643179625,0.9920413201427092
2014-07-29,1,0.0016974640879200838,0.0019525147848653407,-0.004215957033661281,0.005164071643179625,0.992374244061732
2014-07-31,1,0.0006789079652308259,0.0007822867076880929,-0.0039234991971965625,0.005164071643179625,0.9933800436664252
2014-08-04,1,0.0006812602382076482,0.0007810687120756291,-0.003450190341521364,0.0061291009420802595,0.9932781762163734
2014-08-06,-1,-0.00024413515371481467,-0.000206820753726295,-0.004038214818809678,0.0061291009420802595,0.9936802509396211
2014-08-08,1,0.0007998870829147404,0.000941453174075495,-0.003450190341521364,0.003750627484543043,0.9949515943828064
2014-08-12,1,0.0005247683104421373,0.0005995997309184383,-0.0017385061516011632,0.00775167748328349,0.9944678880594405
2014-08-14,1,0.0008654256314947267,0.0009620622460315103,-0.002166736048895544,0.004291486331610786,0.9952547226814273
2014-08-18,1,0.0014276534798191216,0.0016070754516165362,-0.002166736048895544,0.005169221868901042,0.9955611771925793
2014-08-20,1,0.00183362035758669,0.0020690440961660863,-0.002166736048895544,0.004559213855610764,0.9957421656867312
2014-08-22,1,0.0019346733206190717,0.002219420070922171,-0.0025715603363946327,0.00546117669341247,0.9950839784311922
2014-08-26,1,0.00197888286339989,0.0022866314835728787,-0.0025715603363946327,0.007699868238492735,0.9939651314499882
2014-08-28,1,0.0008672013939042961,0.0009263763860074506,-0.0025715603363946327,0.008997334955906298,0.9924767223771054
2014-09-02,1,0.0013983728254281036,0.001546240096216003,-0.0025715603363946327,0.007699868238492735,0.9929386490200606
2014-09-04,1,0.00032079191737647525,0.00037291026617043975,-0.0034234258028354183,0.007699868238492735,0.9915758300633091
2014-09-08,1,0.0007447398208165939,0.0007804648111490884,-0.006299660351296213,0.008997334955906298,0.9907997273632299
2014-09-10,1,0.0018174789845605702,0.0020482913184693696,-0.00847617549389902,0.008997334955906298,0.9897304058775149
2014-09-12,1,0.0012217129807306903,0.0013275304940274443,-0.009853443576766867,0.008997334955906298,0.9888871147336667
2014-09-16,1,0.0016102899215685684,0.0017575250616818751,-0.014505496262755196,0.008997334955906298,0.987292740506107
2014-09-18,1,0.0015965713276536772,0.0017364162748201208,-0.019009468920748375,0.008997334955906298,0.9863169288281074
2014-09-22,1,0.001707221905339438,0.0018964711180223825,-0.019009468920748375,0.00978738903081167,0.9863428850464414
2014-09-24,1,0.0011156081551463733,0.001210046332252168,-0.011191128097766612,0.01187616820182119,0.9870210665916386
2014-09-26,1,0.001335952394980341,0.0014393598103417274,-0.011191128097766612,0.012322841085849783,0.9864803617870945
2014-09-30,1,0.001453960999915622,0.0015941438962059171,-0.011191128097766612,0.012789912055498067,0.9854299446957968
2014-10-02,1,0.00038415430595627447,0.00040060962764253887,-0.0062250400444954146,0.012789912055498067,0.9861344333943661
2014-10-06,1,0.0004324510881602922,0.0004422303248322272,-0.0074580751089770745,0.012740809280464234,0.9864243114975393
2014-10-08,-1,-0.00036372682969795843,-0.00024105678392884612,-0.0057632502811180005,0.012088060102989318,0.9873289980835597
2014-10-10,-1,-0.0013322897250190734,-0.0010772898599664873,-0.0057632502811180005,0.012088060102989318,0.987131579190292
2014-10-14,-1,-0.0011230727402411333,-0.0009022479524070893,-0.003851795190942738,0.011820259576953497,0.9886874325325811
2014-10-16,-1,-0.0015248037781059782,-0.001280786505477826,-0.003851795190942738,0.011820259576953497,0.9890908643943261
2014-10-20,-1,-0.0007733902404076441,-0.0006165032722979157,-0.0054673928691526315,0.011721997458979633,0.9902496433614857
2014-10-22,-1,-0.00041721184304117307,-0.0003249944402999891,-0.004250172283268532,0.011820259576953497,0.990277217289911
2014-10-24,1,0.0010642538526488962,0.0011577331926520865,-0.004250172283268532,0.009354623232191096,0.9921054999753833
2014-10-28,1,0.001977920956874729,0.0022137756397571794,-0.004250172283268532,0.009354623232191096,0.9928958119461687
2014-10-30,1,0.002564477119008814,0.0028716632844778623,-0.004250172283268532,0.00713099820448522,0.9933671104237257
2014-11-03,1,0.0017248939760035225,0.0018531901868491553,-0.004250172283268532,0.00871795202910748,0.9926885412205377
2014-11-05,1,0.0020783487653437817,0.002281410958503404,-0.0044493905998999675,0.00713099820448522,0.9928671164582896
2014-11-07,1,0.001462815424037298,0.0015837358825735784,-0.0044493905998999675,0.00871795202910748,0.9905225457013179
2014-11-11,1,0.0017160338722955696,0.0018939188933852907,-0.006444640523831033,0.007183431822440287,0.9897504371306395
2014-11-13,1,0.0013161320780329976,0.0013978332179875495,-0.007691545097009192,0.007439802247303342,0.9885508557236502
2014-11-17,1,0.0009243002496878925,0.0009506670601357166,-0.004828983304684063,0.009815830953667356,0.9883968344534146
2014-11-19,1,0.0010644643717968533,0.0010917423019790279,-0.004653035378951634,0.009815830953667356,0.9876617515891127
2014-11-21,1,0.001242021133837932,0.001287966344797663,-0.004653035378951634,0.01047812594821364,0.9870654030786212
2014-11-25,1,0.0016726512140886021,0.0017743730775561946,-0.006428162869032639,0.009815830953667356,0.9874274622745053
2014-11-28,1,0.001356611553350394,0.0014069588349356417,-0.006428162869032639,0.009815830953667356,0.9873665017686788
2014-12-02,1,0.0014154586496690526,0.001498118490963739,-0.006428162869032639,0.009240996144707084,0.9873016518683783
2014-12-04,1,0.001379068880228586,0.0014666270778495127,-0.0066281601736533505,0.009240996144707084,0.9864987202713609
2014-12-08,1,0.0025074258122807025,0.0027282429050916705,-0.006109743380855983,0.009240996144707084,0.9879791771261979
2014-12-10,1,0.002340579487346355,0.0025700012848562186,-0.0038367404254588287,0.010605275596528775,0.9883200885897033
2014-12-12,1,0.001878466300181558,0.002061608270658663,-0.0035862896106957838,0.010145649336614918,0.9896950512723404
2014-12-16,1,0.0023844246253436124,0.0026409882219972603,-0.0035862896106957838,0.0064046554261490566,0.9901053133800835
2014-12-18,1,0.0031159860338420362,0.0034469999955844014,-0.0035862896106957838,0.0058069326752237605,0.9914883082884159
2014-12-22,1,0.0032128544995553786,0.003506572381137905,-0.0035862896106957838,0.004186963613687157,0.991763685520396
2014-12-24,1,0.0029067165771398083,0.003156298999884914,-0.003366385173511654,0.004186963613687157,0.9917066462886249
2014-12-29,1,0.002300625978290228,0.0024243742203124263,-0.005055963557216811,0.004186963613687157,0.9909720608314481
2014-12-31,1,0.0016011389169984951,0.0016607099819428684,-0.005055963557216811,0.0058069326752237605,0.9902804198307169
2015-01-05,1,0.0006075391619819506,0.0006787916380237031,-0.0025260254543800317,0.009645635454171098,0.9906795951439993
2015-01-07,1,0.0019320690080034306,0.0020465704946357314,-0.0025260254543800317,0.00819625641845989,0.9919581833086996
2015-01-09,1,0.0027548563110542205,0.002996162716554721,-0.004332665645769382,0.00754058776893301,0.9926675416937049
2015-01-13,1,0.0025765827246301202,0.002810239550616157,-0.0025260254543800317,0.008478553185022442,0.9924522922311105
2015-01-15,1,0.0024017976690540012,0.002595982530564229,-0.0025260254543800317,0.008478553185022442,0.9921994934993129
2015-01-20,1,0.002482282667722299,0.002675630303216665,-0.0025260254543800317,0.008478553185022442,0.9923199498556572
2015-01-22,1,0.0027893231573117372,0.003010197200263174,-0.0025260254543800317,0.009313178409778139,0.9919521888449762
2015-01-26,1,0.0026127819136145037,0.002826425158562372,-0.002662873855329287,0.009313178409778139,0.9916513221415537
2015-01-28,1,0.0016138817044952579,0.0016682131608562534,-0.002662873855329287,0.009313178409778139,0.9913056982915176
2015-01-30,1,0.0024057329907208147,0.0025617842243878452,-0.002353367044562807,0.008478553185022442,0.9931037692409027
2015-02-03,1,0.003212602068361967,0.0035036215654006,-0.003917172336196939,0.00840975303470373,0.9927957524926587
2015-02-05,1,0.0034255955078768816,0.0037351920037925336,-0.005896459662203084,0.006607229204918705,0.9917841376792825
2015-02-09,1,0.003463343632442569,0.003798435700016363,-0.009225584057658437,0.006607229204918705,0.9910841267907902
2015-02-11,1,0.0038939912148903814,0.004283206604909067,-0.009225584057658437,0.005524346826408245,0.990846292247237
2015-02-13,1,0.0037495424801970226,0.004103777259091579,-0.010785758303219872,0.006117985073515591,0.9893100155090716
2015-02-18,1,0.003354715777489143,0.003625572324153319,-0.010785758303219872,0.008897202272174413,0.9890734774943923
2015-02-20,1,0.004192339350809378,0.004588770166098317,-0.010785758303219872,0.002715313844520434,0.9892201928369738
2015-02-24,1,0.0035539226474031525,0.0038526959466099377,-0.010255287160214153,0.002715313844520434,0.9899319221017613
2015-02-26,1,0.002074457614381536,0.0020959395662293063,-0.006786306316643592,0.002715313844520434,0.9909019652312145
2015-03-02,1,0.002081770144220465,0.0021076508902436214,-0.006786306316643592,0.005856989176835813,0.9906612818796164
2015-03-04,1,0.0009712185497144936,0.0010993103755642245,-0.00561700701287529,0.005856989176835813,0.991407320037881
2015-03-06,-1,-0.0004404425591164659,-0.00011058736131136114,-0.002878357357503268,0.00707944906355482,0.9920905057800978
2015-03-10,-1,-0.0011273995258698722,-0.0007111104970058133,-0.002110612676330361,0.007503091453937159,0.9926947730642679
2015-03-12,-1,-0.0013657752707889811,-0.0008909799898191688,-0.002110612676330361,0.00707944906355482,0.9929098707847821
2015-03-16,-1,-0.0008717682270686729,-0.00048108291543135233,-0.0021956633059459153,0.0067929687208691,0.994405599799185
2015-03-18,-1,-0.0007679620084979756,-0.0003889923809388847,-0.0021956633059459153,0.0052364345454599896,0.994880438714279
2015-03-20,-1,-0.0002528057597539794,-1.6114466338920837e-06,-0.002878357357503268,0.0067929687208691,0.9933268551847226
2015-03-24,0,-6.030183457157517e-05,0.00013382329200635089,-0.0025292508245921496,0.0067929687208691,0.993385453512089
2015-03-26,-1,-0.00028731878247068433,-9.656644134019266e-05,-0.0025292508245921496,0.0067929687208691,0.9937128167018435
2015-03-30,1,9.363915551498464e-05,0.0002587691358656945,-0.0035225449666825646,0.004655412563570461,0.9941603096380804
2015-04-01,-1,-0.0003657043967050902,-0.00015142150626013082,-0.006970162278954512,0.004655412563570461,0.992803927061896
2015-04-06,-1,-0.00033676819820021306,-0.0001026905216150977,-0.006970162278954512,0.00293659137438659,0.9928297287532597
2015-04-08,0,-0.00014172677279654443,6.724451330769143e-05,-0.008951197236302335,0.0022374905120474816,0.9924452157443348
2015-04-10,0,-9.541888590940107e-05,0.00011160171408904269,-0.008951197236302335,0.0013760485181570133,0.9918115163965291
2015-04-14,-1,-0.0009173376373041323,-0.0005935745574491052,-0.006970162278954512,0.0013760485181570133,0.9922078661655411
2015-04-16,-1,-0.0008177609415824086,-0.0005193564804578665,-0.006970162278954512,0.00293659137438659,0.9914551668845785
2015-04-20,-1,-0.0009008939332302701,-0.0006039303021274169,-0.005977339122226392,0.0022105363111407676,0.9930287013943823
2015-04-22,-1,-0.0008455578981150177,-0.0005781888579886056,-0.005977339122226392,0.004412998294947492,0.9925546470617148
2015-04-24,-1,-0.0011735889572244763,-0.0008558795527779438,-0.0061954642796164085,0.004695834970262925,0.9922236882455306
2015-04-28,-1,-0.0016428829659681221,-0.0012599982199606897,-0.0061954642796164085,0.00546254508841905,0.9919976084481867
2015-04-30,-1,-0.003235101798018303,-0.0026538149792632677,-0.0025165832587310606,0.006139236099841557,0.992419531423496
2015-05-04,-1,-0.002063313531163429,-0.001687956651044403,-0.0025165832587310606,0.00546254508841905,0.9930778602353767
2015-05-06,-1,-0.002996159341420947,-0.0024852908586513456,-0.0025165832587310606,0.00546254508841905,0.9928866469852371
2015-05-08,-1,-0.0028092283172965887,-0.0022836240394821282,-0.0053919667412245685,0.004921855474712366,0.9940459021311367
2015-05-12,-1,-0.0027406867669278294,-0.0022504897009027816,-0.0043162533887651814,0.00546254508841905,0.9934825974108147
2015-05-14,-1,-0.0016082330904851681,-0.0013043967661062316,-0.0043162533887651814,0.00546254508841905,0.9937438918854685
2015-05-18,-1,-0.0010977102527010055,-0.0008932842765693081,-0.0056443162230988735,0.006139236099841557,0.9932885701244003
2015-05-20,-1,-0.0008914010823467412,-0.0007016831271590133,-0.0056443162230988735,0.008528638036593627,0.9927239209283206
2015-05-22,-1,-0.000973855229098242,-0.0007656687909992915,-0.0043162533887651814,0.007591419493175665,0.9933678790481458
2015-05-27,-1,-0.001683286624362648,-0.0013489094065803132,-0.005598834072244856,0.007591419493175665,0.9933898383119003
2015-05-29,-1,-0.0023260145611501883,-0.00187304211132668,-0.005591205320750867,0.005711664369379534,0.9938151828528994
2015-06-02,-1,-0.001258917189948173,-0.0009982719447520132,-0.006624881288883442,0.004811719723324922,0.993461303266217
2015-06-04,-1,-0.0013608937253189474,-0.0011244137250712102,-0.005591205320750867,0.008528638036593627,0.9934266351922308
2015-06-08,-1,-0.001796846644460895,-0.0015003619890390126,-0.004465084904997765,0.008725730867861018,0.9929508434079066
2015-06-10,-1,-0.0014191519334545853,-0.001166622551772994,-0.005046696787143965,0.009341361890564824,0.9928967071138747
2015-06-12,-1,-0.0007868112563982173,-0.0006205136968838695,-0.005046696787143965,0.010091374177556166,0.9922995335016839
2015-06-16,-1,-0.0003912967569456825,-0.0002983881290580619,-0.003941566321582602,0.009867852878076481,0.9926595046131012
2015-06-18,1,0.0001678336928351683,0.00020581183702786507,-0.004672842728007627,0.00796653412022424,0.9931062930188671
2015-06-22,-1,-0.00026887097224787123,-0.00014231681960466687,-0.0054956903599804405,0.00796653412022424,0.9922160006917564
2015-06-24,-1,-0.00017211556545961674,-0.00010171928144067451,-0.004565102538145172,0.00796653412022424,0.992479584033084
2015-06-26,-1,-4.9711417406937755e-05,-2.9440253065588263e-05,-0.004565102538145172,0.00796653412022424,0.9920020223098046
2015-06-30,-1,-0.0003858907023170925,-0.00035283189212548396,-0.004302986159280482,0.009867852878076481,0.9896507266044556
2015-07-02,-1,-0.0001527681774976551,-0.00014464137975933207,-0.004565102538145172,0.011436513069210336,0.9890710293681723
2015-07-07,1,0.0004477906873828511,0.0005502230098294703,-0.0047463961677997255,0.00848942085060219,0.989616759521656
2015-07-09,1,0.0007459906135385421,0.0008967073050734637,-0.0047463961677997255,0.007915677967927746,0.9897866056051576
2015-07-13,1,0.0015121172608983757,0.001769457224679822,-0.0047463961677997255,0.007218012355078614,0.9901747695836921
2015-07-15,1,0.0020053397878461,0.0023661819271510844,-0.006308634499976798,0.005611288344523529,0.9891785105779782
2015-07-17,1,0.0018916509475877027,0.0022191617834551964,-0.00615197580960576,0.007592204218067126,0.9892855296471388
2015-07-21,1,0.0012557363767282596,0.001464481832850518,-0.0047463961677997255,0.007592204218067126,0.9902549475870228
2015-07-23,1,0.0011345321924666166,0.001334250612316284,-0.00615197580960576,0.007592204218067126,0.9898245036207869
2015-07-27,1,0.0006295142016377779,0.0007426294964406441,-0.010226302104827258,0.007592204218067126,0.9870806069282142
2015-07-29,1,0.0017910119685227866,0.002017213464365984,-0.010226302104827258,0.007592204218067126,0.9885167768804128
2015-07-31,1,0.0015044338093565227,0.0016709419031238184,-0.00938015167243756,0.007592204218067126,0.9885499304144949
2015-08-04,1,0.0014853039418384882,0.0016618256984365699,-0.0109796039768465,0.007592204218067126,0.986976209423638
2015-08-06,1,0.001615288259061301,0.001819742879295485,-0.0109796039768465,0.007592204218067126,0.986041796076184
2015-08-10,1,0.0019509065362005216,0.002211319318609423,-0.012041751993034613,0.007592204218067126,0.9843911448362913
2015-08-12,1,0.0014560259538744019,0.0016470064063370008,-0.011723234842696734,0.007592204218067126,0.9848176842378606
2015-08-14,1,0.001768090270439074,0.0019930995370679282,-0.011723234842696734,0.007343162887843615,0.9842965813625791
2015-08-18,1,0.0016345080528022595,0.0018126748966430066,-0.011723234842696734,0.01512387681202716,0.9837864230075763
2015-08-20,1,0.0014321837539776822,0.0016132600922735742,-0.010530393151685004,0.01512387681202716,0.9840868573483434
2015-08-24,-1,-0.0007318581594485332,-0.000621111671384538,-0.010248131423919999,0.01512387681202716,0.9870577284206504
2015-08-26,1,0.00023923481069212368,0.00026282715112585704,-0.010248131423919999,0.009183281238048256,0.9882126762965932
2015-08-28,1,0.0004965626955549202,0.0005665722997455582,-0.010530393151685004,0.0045938066404417055,0.9881042978764977
2015-09-01,-1,-0.00035158185370398224,-0.0003236638796800082,-0.00798930142080037,0.009127868319140007,0.9891534314213178
2015-09-03,1,0.0003109165569647756,0.00034763817755626504,-0.00798930142080037,0.008189780433235665,0.990079019994304
2015-09-08,1,0.0008340046002244034,0.0009405741054713514,-0.00798930142080037,0.008189780433235665,0.991028515299368
2015-09-10,1,0.00040697997246693594,0.0004501306152744733,-0.0048846167553136316,0.01472949990270685,0.9903046768403356
2015-09-14,1,0.0006580327101080227,0.0007271021837478302,-0.004680792115215163,0.012301687000725163,0.9904547309684688
2015-09-16,1,0.0010533492715689473,0.001170261634098462,-0.00798930142080037,0.011069214610649516,0.9902749067981625
2015-09-18,1,0.000604909691117142,0.000648691754001312,-0.004680792115215163,0.011069214610649516,0.9906724304967037
2015-09-22,-1,-0.0003083307106257335,-0.00018596996617245456,-0.002242288999319278,0.011069214610649516,0.9916329455278275
2015-09-24,-1,-0.0003303982933004777,-0.00021867987620599513,-0.0017451823340530993,0.012301687000725163,0.9902449145657496
2015-09-28,-1,-0.0013824301386421173,-0.0011219064678740474,-0.001150715256562955,0.012301687000725163,0.990883419081893
2015-09-30,-1,-0.0005557790002833165,-0.00041539247973150875,-0.001150715256562955,0.012356813001250785,0.9893622872171077
2015-10-02,-1,-0.00036369262158489005,-0.00025137379451206095,-0.0017451823340530993,0.012356813001250785,0.9893289269710154
2015-10-06,-1,-0.00010595279167807884,-3.730202998853557e-05,-0.0017451823340530993,0.01002813706729045,0.9895365959272707
2015-10-08,1,0.0005877711130511706,0.0006020461112634511,-0.001940013126235172,0.005581663626640853,0.9909354639039811
2015-10-12,1,0.0010474456767120047,0.001132328681444598,-0.0049401844329768786,0.002018318702896692,0.9905120140244041
2015-10-14,1,0.0006110243431790856,0.0006383584228523623,-0.002322440409514222,0.002018318702896692,0.991427329654859
2015-10-16,1,0.0006357605698041315,0.0006577094457886257,-0.007803349955290598,0.0017492549414605538,0.9908202850385318
2015-10-20,1,0.0005453209005887803,0.0005470930810178751,-0.007803349955290598,0.002018318702896692,0.9887467832044587
2015-10-22,1,0.0012340621024429508,0.0013338028990934096,-0.007803349955290598,0.002018318702896692,0.989814846470936
2015-10-26,1,0.0010693849946907504,0.0011244042215950776,-0.008374621812451015,0.002909743893588888,0.9891877298039798
2015-10-28,1,0.0021533099422751537,0.002333291189810031,-0.008374621812451015,0.001203495743502292,0.9911163110569109
2015-10-30,1,0.0018260821211789618,0.0019745282169647553,-0.008374621812451015,0.0018592494863107537,0.9915118627682309
2015-11-03,1,0.0017741840082941486,0.0019327634470974581,-0.008359803581432018,0.0018592494863107537,0.9920841590142451
2015-11-05,1,0.0016615524742856955,0.0018048556044740359,-0.00866355635659988,0.0038307274171850325,0.9903639386912643
2015-11-09,1,0.0012762614110919093,0.0013960734735551056,-0.007803349955290598,0.0038307274171850325,0.9917848998616816
2015-11-11,1,0.0012282505640655173,0.0013413954118703566,-0.007850435310198297,0.004932962261013567,0.9913027961670928
2015-11-13,1,0.0006002248339636376,0.0006084908278575173,-0.007689426054743579,0.005234375693612393,0.99160819243894
2015-11-17,1,0.0013449740849636547,0.0014349646004579285,-0.007689426054743579,0.005234375693612393,0.9932310165309088
2015-11-19,1,0.0012519799241902745,0.0012961096092324025,-0.007946746824914586,0.004932962261013567,0.9923138656855449
2015-11-23,1,0.001148604199772711,0.0011808983257876509,-0.007689426054743579,0.004932962261013567,0.9919935342114976
2015-11-25,1,0.0011699525966083059,0.001216804342217863,-0.007689426054743579,0.004932962261013567,0.9919963172025422
2015-11-30,1,0.0009818596419432874,0.0010103881676332858,-0.0076121221290937555,0.005234375693612393,0.9922678277851644
2015-12-02,1,0.0011575038953918217,0.0012464824560266424,-0.007380814054453048,0.005069693904772045,0.9921682208119351
2015-12-04,1,0.0014754014511860116,0.0016145527852345978,-0.006991792803664246,0.005069693904772045,0.9925523979479374
2015-12-08,1,0.0014331932937933836,0.001566651244869128,-0.0076121221290937555,0.005069693904772045,0.9914401496460563
2015-12-10,1,0.0011006217088544437,0.0011686376925691497,-0.0076121221290937555,0.006207320001687118,0.9909897275086377
2015-12-14,1,0.000862965554022832,0.0008848811633629351,-0.008186639052164284,0.005203375670117472,0.9903797857009239
2015-12-16,1,0.0008700646231601504,0.000877550926004286,-0.008186639052164284,0.003875920215643739,0.9904499146045919
2015-12-18,1,0.0010543838354182286,0.0011622369263014135,-0.007978507433856972,0.005203375670117472,0.9900582463466105
2015-12-22,1,0.0015049181508273702,0.0016675209498948026,-0.007999954265483743,0.005203375670117472,0.9899336521585771
2015-12-24,1,0.001457672226370586,0.0016032116967176087,-0.010195960090131694,0.005203375670117472,0.9892838664362557
2015-12-29,1,0.0016457551618973597,0.0018185226293477084,-0.01122948565641044,0.005970378469461983,0.9879854856668471
2015-12-31,1,0.0014826423112023908,0.001650037882131531,-0.01122948565641044,0.011696728581151178,0.9867345903568204
2016-01-05,1,0.0015872572989425048,0.0017326313923057047,-0.01122948565641044,0.011357248632275798,0.9874110938511808
2016-01-07,1,0.0011336214341749217,0.001239780561834537,-0.01122948565641044,0.011357248632275798,0.987639623761282
2016-01-11,1,0.0011775212753863814,0.0012988309824372656,-0.008600998032251216,0.011357248632275798,0.988036979243999
2016-01-13,1,0.0004460619538167208,0.00044906996534676614,-0.008600998032251216,0.011357248632275798,0.9877969999283431
2016-01-15,-1,-0.0009930818108904223,-0.0007213796686974572,-0.012903824680282009,0.012770134028614936,0.9868365826361651
2016-01-20,-1,-0.0009379148885314272,-0.0007016607444092608,-0.008600998032251216,0.014325687153717539,0.986288124948733
2016-01-22,-1,-0.0006719997006418827,-0.00047283926583131786,-0.010880902238943804,0.012769264303415299,0.9865403096871431
2016-01-26,-1,-0.0017079923753985306,-0.0013295509140443724,-0.007652186914037058,0.012769264303415299,0.986808808733921
2016-01-28,-1,-0.0015936672676869455,-0.0012728987711690105,-0.006456717144979966,0.014167350251318392,0.9875490397757113
2016-02-01,1,1.680866852334171e-05,0.00012373066154312406,-0.006456717144979966,0.009976584912096794,0.9894355350008394
2016-02-03,-1,-0.00016305175574658618,-1.4702075549159277e-05,-0.00634127756044775,0.008766608202455676,0.9899317501894283
2016-02-05,-1,-0.0005441619419934706,-0.0003667336271923924,-0.00634127756044775,0.008766608202455676,0.9895169171855966
2016-02-09,-1,-0.00019623121188039626,-8.127973807019152e-05,-0.00634127756044775,0.008412968390854144,0.9900524490506613
2016-02-11,-1,-0.0010118130873116987,-0.0007821664393560561,-0.005650799962872715,0.009923241482012339,0.9906606415003598
2016-02-16,-1,-0.0011848118841497226,-0.000920063417664774,-0.005650799962872715,0.009923241482012339,0.991029489602327
2016-02-18,0,-6.406934392321059e-05,8.169823946233397e-05,-0.005650799962872715,0.0028078542522143894,0.9930423585524896
2016-02-22,-1,-0.0006989418913843306,-0.0004414371851206593,-0.005111077765477989,0.0028935136181531124,0.9932413228546321
2016-02-24,-1,-0.0008439863374907998,-0.0005933568545406394,-0.0035039378929867526,0.0045517431349109275,0.9934576228180898
2016-02-26,-1,-0.0004704464770274617,-0.00027614447410411337,-0.0035584974973416755,0.0032681503167588783,0.9940726857337826
2016-03-01,-1,-0.00026315609174386474,-9.476712399140492e-05,-0.0035584974973416755,0.004935286866905829,0.9935341798583713
2016-03-03,0,-0.00010929168299490566,1.4355430542421343e-06,-0.0035584974973416755,0.009533052267004653,0.9931517080078618
2016-03-07,-1,-0.0006788573932757554,-0.0005258478515837737,-0.0005518031926430007,0.009533052267004653,0.9938380374500394
2016-03-09,-1,-0.0010574655335553026,-0.0008320811342000389,-0.0014916474831262827,0.009533052267004653,0.9934441997484781
2016-03-11,-1,-0.0005391742560354972,-0.0003806528426222151,-0.0035584974973416755,0.0063726661646891156,0.9942437168762053
2016-03-15,-1,-0.00039192745186465954,-0.00024453514277591895,-0.0014916474831262827,0.004838568622615235,0.9949870054437917
2016-03-17,-1,-9.67471888456317e-05,-2.2959043668233548e-05,-0.0016049101478963139,0.006249647577010845,0.9945378395134762
2016-03-21,1,0.00038861834316579436,0.00040248068710865744,-0.003967846671572689,0.004838568622615235,0.9949552084870685
2016-03-23,1,0.0015106015076164821,0.001732008139649552,-0.004375374807264949,0.004838568622615235,0.9947936269110993
2016-03-28,1,0.0012195670585080994,0.00137354821652952,-0.004375374807264949,0.004838568622615235,0.9949341958447598
2016-03-30,1,0.0017383328501983895,0.0019472717556168234,-0.004375374807264949,0.004838568622615235,0.994401933084625
2016-04-01,1,0.0018633100606034445,0.002084181064600339,-0.005050181855965366,0.004542026643533247,0.994728541332061
2016-04-05,1,0.0016238142966937214,0.001760741170707435,-0.005050181855965366,0.005032229430658865,0.9943697871182207
2016-04-07,1,0.001259786305515054,0.0013444609356810435,-0.001317712911382167,0.006283104323387126,0.994470954356532
2016-04-11,1,0.0007078618161567287,0.0007288767269490747,-6.209571105670068e-05,0.00710173894786416,0.9940922778530702
2016-04-13,1,0.0015021533893386698,0.0016611663556232359,-0.001317712911382167,0.009042968764128152,0.9933928741832049
2016-04-15,1,0.0017250463374860478,0.0019315316358171734,-0.0015540949370986123,0.01001401874673858,0.9924180160748169
2016-04-19,1,0.0015799469836316848,0.001760464197442834,-0.0017534789868318562,0.01001401874673858,0.9919836722447429
2016-04-21,1,0.0012779862804061424,0.001415193089847228,-0.0017534789868318562,0.01001401874673858,0.9915537751136891
2016-04-25,1,0.0011795406868012027,0.0012883286425038178,-0.0036531610811853924,0.01001401874673858,0.9911728062711226
2016-04-27,1,0.00196593183728692,0.002168304531907937,-0.0036531610811853924,0.00861848271858598,0.9922052971194654
2016-04-29,1,0.0019138206986799486,0.0021286796214702924,-0.0019878815507372023,0.00861848271858598,0.9924884574474413
2016-05-03,1,0.0023038621649641173,0.002566616776840489,-0.004014805897901645,0.007907545599777204,0.9924260853751183
2016-05-05,1,0.002496507549367427,0.00277468710099546,-0.004806858460059755,0.008242650265192879,0.9921124666578435
2016-05-09,1,0.0027382219258594697,0.0030389451435064814,-0.004806858460059755,0.007907545599777204,0.9922804634608261
2016-05-11,1,0.0028118953037115915,0.003142873271597856,-0.002896574663349154,0.007907545599777204,0.9932598838994348
2016-05-13,1,0.0022265175290518222,0.0024273051497420007,-0.00416184191982023,0.0072442064350162075,0.9940225256625361
2016-05-17,1,0.002455667577718258,0.0027258549597676193,-0.002896574663349154,0.0072442064350162075,0.9945203590741648
2016-05-19,1,0.002050473679187976,0.002269808623967855,-0.002896574663349154,0.0072442064350162075,0.9945533743838861
2016-05-23,1,0.0022131961787748107,0.0024631685185212645,-0.0024760851980516114,0.004933370677582505,0.9947668231011826
2016-05-25,1,0.002150380570117997,0.0023627039562315612,-0.0024760851980516114,0.003996208564878743,0.995176159980491
2016-05-27,1,0.002372990776961815,0.002644272467218075,-0.00416184191982023,0.004862505411503855,0.994545667798559
2016-06-01,1,0.001911317401190158,0.0020741345587259262,-0.0024760851980516114,0.005544280450798914,0.99489003220695
2016-06-03,1,0.0019497639407550528,0.002111462714897659,-0.0020937832258648625,0.005544280450798914,0.9942273946911419
2016-06-07,1,0.0015765550281347457,0.0016528235936304997,-0.0020937832258648625,0.005544280450798914,0.9941343339032466
2016-06-09,1,0.0018360024509201556,0.0019284548138825955,-0.0030063815224136148,0.005518518506223674,0.9939577841117799
2016-06-13,1,0.0010459864926651505,0.0010881194875568285,-0.0020937832258648625,0.005518518506223674,0.9946218673583008
2016-06-15,1,0.001425400090984085,0.0014348516670094856,-0.002352265715553808,0.005337310553671721,0.9944447987500293
2016-06-17,1,0.0004939380356914042,0.000616552254824933,-0.002352265715553808,0.005337310553671721,0.9952287671315433
2016-06-21,1,6.75761635527272e-05,0.0002605985668449138,-0.002352265715553808,0.005337310553671721,0.9951938667281763
2016-06-23,1,0.0009072505829349766,0.0009280826024758065,-0.002931880772030765,0.0060488821812030484,0.9939427484317451
2016-06-27,1,0.0008119564689931973,0.0008408881506324366,-0.002931880772030765,0.005337310553671721,0.9943760425973037
2016-06-29,1,0.0007985025489007809,0.0008681650171694365,-0.002931880772030765,0.0036419052426242974,0.9946858425529417
2016-07-01,1,0.0014834945038797451,0.0014993812246724572,-0.002931880772030765,0.0019570879073630785,0.9954484093639845
2016-07-06,1,0.000908388379284273,0.0010152501915385156,-0.002931880772030765,0.0036419052426242974,0.9953541179812738
2016-07-08,1,0.0007379701506945287,0.0008673231316931224,-0.002804206725092096,0.002933188601197354,0.9958064486703756
2016-07-12,1,0.0013402829473888821,0.00136751478442481,-0.002804206725092096,0.003163459378702652,0.9952583737148712
2016-07-14,1,0.001248504939585389,0.0012516908041418106,-0.0026876616471435844,0.003163459378702652,0.9955450367342733
2016-07-18,1,0.0007009378864286234,0.0007914026020798566,-0.00252056947801707,0.0034459128921785565,0.9955205141677825
2016-07-20,1,0.001105080785097558,0.0011284460182550812,-0.0026876616471435844,0.003258049860908696,0.9948120384087502
2016-07-22,1,0.0006022651974046326,0.000673747516756923,-0.0026876616471435844,0.0028705675907740673,0.99585609561321
2016-07-26,0,-2.9158174337375856e-05,0.00013907811095106789,-0.0026876616471435844,0.003258049860908696,0.9952443685966293
2016-07-28,-1,-0.0011297698240922873,-0.0007699763899366168,-0.0026531101034690877,0.003258049860908696,0.9952666450097726
2016-08-01,-1,-0.0014216103126565122,-0.0010233413400964149,-0.002787767822711944,0.003763131556191257,0.994786424059298
2016-08-03,-1,-0.0008673763914475642,-0.0005528234027679929,-0.002787767822711944,0.003258049860908696,0.9951450697726493
2016-08-05,-1,-0.0007688671404718267,-0.0004788577231529869,-0.002787767822711944,0.003763131556191257,0.9949490774028407
2016-08-09,-1,-0.0014796663352339404,-0.0010937746681996242,-0.002787767822711944,0.004277793492335058,0.9950646594692295
2016-08-11,-1,-0.0009750401349625558,-0.000675212013302032,-0.004244137014515828,0.004277793492335058,0.9945683256253245
2016-08-15,-1,-0.0006690987990698995,-0.00040884714296755495,-0.007517739265134638,0.004128247651760489,0.9942418362252345
2016-08-17,-1,-0.001090767226920043,-0.00077569999196609,-0.004244137014515828,0.004128247651760489,0.9945393501589411
2016-08-19,-1,-0.0009468068968487457,-0.0006867921609089721,-0.00373126661077836,0.004128247651760489,0.9945393437760072
2016-08-23,-1,-0.0014054826123334647,-0.001108866416193792,-0.002594240636089904,0.0050721168224916405,0.9944135555551995
2016-08-25,-1,-0.0014839596365680973,-0.001193149813285581,-0.002336065635361772,0.0050721168224916405,0.9940959220701067
2016-08-29,-1,-0.0018597328463721679,-0.0015040332100185478,-0.0019468249965041361,0.0048596855510938276,0.9942398236351273
2016-08-31,-1,-0.002295584758488276,-0.0018752337754267515,-0.0013100278170360895,0.0048596855510938276,0.9931367264331868
2016-09-02,-1,-0.0019071991637106842,-0.0015482099136706695,-0.0009772002667892065,0.0048596855510938276,0.9932569164357795
2016-09-07,-1,-0.0019508709039766418,-0.001593458696991628,-0.0016946323227720523,0.004583888639433711,0.9935787504658596
2016-09-09,-1,-0.0027661861331080666,-0.0023091822060770434,-0.0009271016117539507,0.005035710862842344,0.9929740477593156
2016-09-13,-1,-0.0032168048793135137,-0.002688625539555454,-0.0009271016117539507,0.005412309771550015,0.9928060160107244
2016-09-15,-1,-0.0025660540905019756,-0.0021195783702707732,-0.0009271016117539507,0.005566705671029898,0.9932020334083671
2016-09-19,-1,-0.0019147897447354808,-0.0016043612839117013,-0.00034477119182805904,0.005566705671029898,0.9933413782088026
2016-09-21,-1,-0.0010984958189624201,-0.000874645468876697,-0.0009271016117539507,0.005412309771550015,0.9946509755269312
2016-09-23,-1,-0.0005142951228238261,-0.0003891596041959213,-0.0042085414483033524,0.005412309771550015,0.9947085510140216
2016-09-27,-1,-7.298186991648887e-05,-2.1861989228190193e-05,-0.0042085414483033524,0.005566705671029898,0.9941407010033565
2016-09-29,-1,-0.0005870742542741112,-0.0005028862073431356,-0.0042085414483033524,0.006023810651753065,0.9925094892992986
2016-10-03,-1,-0.0003410821074501667,-0.00028335511262519373,-0.0042085414483033524,0.007150469063211866,0.992113125495259
2016-10-05,-1,-0.0008425281036700875,-0.0007240887988168937,-0.0028163311399486035,0.007150469063211866,0.9923430929754142
2016-10-07,-1,-0.0003347622836754288,-0.00027246745137423603,-0.0042085414483033524,0.005895236346700105,0.9925109809166911
2016-10-11,-1,-0.0006649543975938235,-0.0005413869575333096,-0.0028163311399486035,0.007150469063211866,0.991976227328188
2016-10-13,0,-1.4757094619635648e-06,2.9861142980565516e-05,-0.0028163311399486035,0.012245036445238389,0.9895321424669921
2016-10-17,1,0.0002592374052142433,0.0002763028691536666,-0.0028163311399486035,0.013629989415451306,0.9885668288314642
2016-10-19,1,0.00011916634008196002,0.0001207337592354025,-0.004475533903732154,0.013629989415451306,0.9877502813768789
2016-10-21,-1,-0.0002579343333033896,-0.00021021751899072925,-0.002643279052584576,0.013629989415451306,0.9879265640573182
2016-10-25,1,0.00032174996740970337,0.0003519075894870521,-0.002643279052584576,0.012245036445238389,0.9883395767092474
2016-10-27,1,0.0010723877095750194,0.001204119549081825,-0.0020844262338476443,0.01008891300209563,0.9907337891596
2016-10-31,1,0.001679426005653505,0.0019125293496159899,-0.0020844262338476443,0.009979572958649392,0.9909834703209428
2016-11-02,1,0.0013583864334567315,0.0015193080434456677,-0.0024861088550046278,0.009979572958649392,0.9904740526658465
2016-11-04,1,0.0010311085452488693,0.001164341059582282,-0.0024861088550046278,0.009979572958649392,0.9902555750213684
2016-11-08,1,0.0013929831159090085,0.0015486665852184793,-0.0028620026635458058,0.00779638653582866,0.9912217859583214
2016-11-10,1,0.0034367394788093007,0.0038607949328426606,-0.004312355300828407,0.004805634868105433,0.9920647532709054
2016-11-14,1,0.0038565831771488856,0.004330789773158001,-0.008378317993564347,0.003297730102672769,0.9907834971343743
2016-11-16,1,0.0030449907497209884,0.003401396757404025,-0.0028620026635458058,0.003297730102672769,0.9925186058679778
2016-11-18,1,0.003153396714165526,0.0035455370935872556,-0.0024484967603155164,0.0035356557139356627,0.9923409295482571
2016-11-22,1,0.003650046383546905,0.0041416273480743065,-0.0042340595957858825,0.0032396453744786835,0.9915286626946296
2016-11-25,1,0.0035981898636464347,0.004078167806955893,-0.004458299583719514,0.002580274910974197,0.9914240478904427
2016-11-29,1,0.0038765949388609314,0.0043908541080911806,-0.00626388185481113,0.0023602368110348776,0.9910867331369574
2016-12-01,1,0.003339318426658752,0.003766051746869329,-0.0037252379764654083,0.0025665322770791373,0.9921311417456196
2016-12-05,1,0.0030706154219565214,0.0034628488955495184,-0.002899137231501238,0.0025665322770791373,0.9929250738372145
2016-12-07,1,0.0029009885506228452,0.0032640988320525744,-0.0024290854051590275,0.0030239244761342357,0.9934238851467592
2016-12-09,1,0.0019322097473756946,0.0021782107603540843,-0.0033141019864610806,0.0029826965744490564,0.9947720709129596
2016-12-13,1,0.0008140504657997308,0.0008874577815086041,-0.004297412277544041,0.0029826965744490564,0.9954212261094624
2016-12-15,1,0.0007352002799581787,0.0007854821477892554,-0.005821142463036005,0.0031381667637868714,0.9949640979242431
2016-12-19,1,0.0007900852277666079,0.000835845511518043,-0.005821142463036005,0.0034720227563882966,0.994653533471666
2016-12-21,1,0.0006316694232468237,0.0006491191700328773,-0.004297412277544041,0.0031381667637868714,0.9951672987058952
2016-12-23,1,0.0006909245779254088,0.0007294302412785877,-0.005821142463036005,0.003330328475622651,0.9948891544242534
2016-12-28,1,0.0005238353836500445,0.0005398388719209991,-0.0068546842725298665,0.0040261687380181085,0.9937479066082737
2016-12-30,1,0.00035690517182531605,0.0003808807105198492,-0.0068546842725298665,0.0040261687380181085,0.9937096074296794
2017-01-04,1,0.0007334058563868558,0.0007634985342275199,-0.0068546842725298665,0.0040261687380181085,0.9938886961883627
2017-01-06,1,0.0009787189800163636,0.0010529723325800177,-0.0068546842725298665,0.004953647163131986,0.9935321223144469
2017-01-10,1,0.0003435888898338539,0.00036375546282116405,-0.0034757492992042345,0.004953647163131986,0.9942760289697676
2017-01-12,-1,-0.00039766170684979706,-0.0002804905101733266,-0.0017596532921142544,0.006375275013211971,0.9943591206495002
2017-01-17,-1,-0.0008081865628600942,-0.0006215791424098697,-0.0015779296346944748,0.006852889361317817,0.9941633608884415
2017-01-19,-1,-0.0004300844453082475,-0.0002768110338266535,-0.0015779296346944748,0.006934644312978643,0.9942571934126231
2017-01-23,-1,-0.000654903685263704,-0.00047051259719931016,-0.0012319358374230961,0.006934644312978643,0.994137879126629
2017-01-25,-1,-0.0009661678360933077,-0.0007348456471373884,-0.0012319358374230961,0.006934644312978643,0.9941986379792956
2017-01-27,-1,-0.0010842059070106064,-0.0008448047619774525,-0.00012974313867552626,0.006934644312978643,0.9945491818479619
2017-01-31,-1,-0.0012934327364287745,-0.0010256020059127829,-0.00012974313867552626,0.006934644312978643,0.9940752342747246
2017-02-02,-1,-0.001600325402327157,-0.0012674153639912742,-0.0010329268541838903,0.006934644312978643,0.9937152978336088
2017-02-06,-1,-0.0013725856662069973,-0.0010560270118070902,-0.0010329268541838903,0.006510613664209238,0.9942808201111775
2017-02-08,-1,-0.0012602081967991907,-0.0009764785447776867,-0.0006473688614774161,0.006510613664209238,0.994272388118758
2017-02-10,-1,-0.0008611181002695184,-0.0006186611824098201,-0.0011888126573263958,0.003936252836945972,0.9951058860555144
2017-02-14,0,-9.073250691772394e-05,2.853062972455313e-05,-0.0022931268141477114,0.0035606263849652557,0.9958488713851262
2017-02-16,1,0.00041875550245028313,0.0004742535979948897,-0.0031619569451579056,0.0034405949787001643,0.9950425670225973
2017-02-21,1,0.0004642304715719035,0.0005118157479320172,-0.004810652033487407,0.0034405949787001643,0.9941596022261431
2017-02-23,0,-8.62277669177239e-05,6.233426367622559e-05,-0.005387483230129723,0.0034405949787001643,0.9941108824634477
2017-02-27,1,0.0005380690345593157,0.0006083594098602775,-0.006255796694413708,0.0007798494221546077,0.9940042916679046
2017-03-01,-1,-0.000216832917527754,-3.3744129093438244e-05,-0.005569226310095071,0.002545363781845224,0.9944596766406819
2017-03-03,-1,-0.0004942356158550346,-0.0002961641435113866,-0.00511715148406623,0.0034405949787001643,0.9943047393951129
2017-03-07,-1,-0.0005282669533072056,-0.00032064398335589293,-0.00511715148406623,0.002545363781845224,0.9944951782214507
2017-03-09,-1,-0.00032386029980521584,-0.00015998875628414188,-0.005489060394275734,0.002662491292166172,0.9941517418288739
2017-03-13,-1,-0.00033215330119481314,-0.0001700944505807986,-0.005489060394275734,0.0032523653180565716,0.9938496189402102
2017-03-15,-1,-0.0006164945045190327,-0.00041039721673125226,-0.006560528186851741,0.0058060438392258055,0.9933448625799857
2017-03-17,-1,-0.0008865239275434981,-0.0006273228387642071,-0.005489060394275734,0.0058060438392258055,0.9940845668827418
2017-03-21,-1,-0.0012216836623456665,-0.0009541047881473914,-0.004600309304008289,0.0058060438392258055,0.9946200934390514
2017-03-23,-1,-0.0009077845904365242,-0.0007058510684764442,-0.003226708159810459,0.005836276242390879,0.9946903996891319
2017-03-27,-1,-0.0011397455815578838,-0.0009372223223359204,-0.0012423195070703605,0.006319543574038225,0.9944823582379807
2017-03-29,-1,-0.0011042734872702474,-0.0009027409722940209,-0.00039031694863202063,0.006319543574038225,0.9947595863784572
2017-03-31,-1,-0.0012717157670896074,-0.0010247633119277318,-0.0015496174127868317,0.004926651403403009,0.9947885154744998
2017-04-04,-1,-0.0009576048996899236,-0.0007775794773593536,-0.0012250856557692994,0.004926651403403009,0.9946228681748968
2017-04-06,1,0.00023164052246584164,0.00031995640294991333,0.00017623565467245758,0.006319543574038225,0.9948803427833985
2017-04-10,1,0.001193674559701771,0.0014666997367003107,0.00017623565467245758,0.004926651403403009,0.9957179887032032
2017-04-12,1,0.0007643950302047508,0.0009286626726390735,-0.0008060954582452748,0.004177324149314383,0.9958163373417769
2017-04-17,1,0.0013771140955073729,0.001623456358121081,-0.0008066169475711338,0.003437679982819937,0.9962991516119865
2017-04-19,1,0.0017048939767070905,0.002019679024725901,-0.0036418649233910566,0.003437679982819937,0.9957392124848803
2017-04-21,1,0.002176510204047296,0.0025595237662638564,-0.0036418649233910566,0.0025133387566832225,0.9953516331536524
2017-04-25,1,0.002760405705024546,0.003252552020128622,-0.0026596000713573903,0.0025133387566832225,0.995514637451455
2017-04-27,1,0.0025793531942436,0.003021904797656038,-0.0026596000713573903,0.004241458079485932,0.9949876318697626
2017-05-01,1,0.001782673430060601,0.002103577221704115,-0.001885133973306598,0.004241458079485932,0.9959138655745403
2017-05-03,1,0.0019130937452126883,0.0022470091857428615,-0.0025422552879077035,0.006330859762182248,0.9951676973138308
2017-05-05,1,0.0016016625604254168,0.0018130417069730344,-0.0031524777027727925,0.0038520072636248365,0.9950271732572475
2017-05-09,1,0.0011640635530023272,0.0012464538182447344,-0.003699608004664139,0.005069277232384802,0.9942573576619478
2017-05-11,1,0.000810373976151228,0.0008474837415354413,-0.0031524777027727925,0.005790529281961094,0.9943964293690665
2017-05-15,1,0.0009868238386319282,0.001059534497454439,-0.0031524777027727925,0.005946598766827426,0.9941826598979844
2017-05-17,1,0.0005818309907591684,0.0005951822001066939,-0.0028040429056588553,0.006696669886676427,0.9939186611336622
2017-05-19,1,0.0010539170744419636,0.0011247055982886436,-0.0028040429056588553,0.006696669886676427,0.9941796026136613
2017-05-23,1,0.0009839966436314867,0.0010325672902304194,-0.0032583925525502527,0.006696669886676427,0.9941911104383132
2017-05-25,1,0.0018213767128482713,0.001982647154946178,-0.004008234263607369,0.005790529281961094,0.9945497820746331
2017-05-30,1,0.0019269672078421722,0.0021237300838151756,-0.004594628000986092,0.005790529281961094,0.9942100388315994
2017-06-01,1,0.0021412908606588963,0.0023772891715460424,-0.004594628000986092,0.005790529281961094,0.9941078670943628
2017-06-05,1,0.0014288772649855355,0.001530316921830463,-0.004008234263607369,0.005946598766827426,0.9944959327792188
2017-06-07,1,0.0007952142174581916,0.0008176615708745669,-0.004008234263607369,0.006482605319080235,0.9944623844031241
2017-06-09,1,0.0008920170948254079,0.0009112070355007555,-0.004008234263607369,0.007393861088343307,0.9941410607016994
2017-06-13,1,0.0012470710438353448,0.0013067503816910613,-0.004008234263607369,0.007393861088343307,0.9942842688694292
2017-06-15,1,0.0012043968312522107,0.0012473518350871605,-0.0028788524743355182,0.005564300903585175,0.9946666642435632
2017-06-19,1,0.0013394859478893606,0.001390573480370314,-0.0028788524743355182,0.004148880136847529,0.9949476943420016
2017-06-21,1,0.000977790507112281,0.00098900771861361,-0.002219968041738355,0.004148880136847529,0.9950924742218883
2017-06-23,1,0.0002956460683686153,0.0003977538339120669,-0.0011392721360319168,0.004148880136847529,0.9957806236706115
2017-06-27,0,-9.930845705481705e-05,4.687039198718161e-05,-0.0007400586578401804,0.004148880136847529,0.9959393421009306
2017-06-29,1,6.864245234022685e-06,0.00012037950567010978,-0.0007400586578401804,0.004148880136847529,0.9956536592886241
2017-07-03,1,0.0002923669128507062,0.0003813232209584589,-0.0011392721360319168,0.004013598153913242,0.9956875290499226
2017-07-06,1,0.0007588035127700704,0.0007643884698883236,-0.0007400586578401804,0.005204013098222885,0.9956568949889372
2017-07-10,1,0.0013505880101343185,0.0014495490484725871,-0.0006046180879489783,0.004013598153913242,0.9963073647043108
2017-07-12,1,0.001867765450100777,0.002068121366883128,-0.0006046180879489783,0.004191808887604931,0.9959869127035449
2017-07-14,1,0.0019582700466226326,0.00217194743276603,-0.0025325997075975595,0.003364790805101706,0.9952573730230169
2017-07-18,1,0.001744255258036224,0.0019238285051255068,-0.0016366532855519914,0.006131001462351584,0.9951832744481007
2017-07-20,1,0.002135946444754878,0.002407070111612325,-0.004330853986948076,0.006131001462351584,0.9944785920967597
2017-07-24,1,0.0019076177280877762,0.002120930532065639,-0.004330853986948076,0.006131001462351584,0.9943824236148044
2017-07-26,1,0.0013452755210648345,0.00145438808917216,-0.004354606150381734,0.007449259466380457,0.9936407445309327
2017-07-28,1,0.0013447125413695088,0.0014589724722987366,-0.004354606150381734,0.006131001462351584,0.9943038664914979
2017-08-01,1,0.0013490700688343212,0.001463756426634095,-0.004847937056509975,0.007449259466380457,0.9939857121572375
2017-08-03,1,0.0018090862104289986,0.0019838232530682755,-0.004847937056509975,0.0033132670685112183,0.9943064104767319
2017-08-07,1,0.001731245242289986,0.00188745377136291,-0.00570435605079285,0.0033132670685112183,0.993432964655948
2017-08-09,1,0.002111257349470702,0.0023164775714999684,-0.007045362222742043,0.0024318400678884932,0.9932187397802674
2017-08-11,1,0.0011428243240399665,0.0011768172032621442,-0.00570435605079285,0.004806564466162573,0.993853972539192
2017-08-15,1,0.0012229972063108564,0.0012619624132833135,-0.007045362222742043,0.0033132670685112183,0.9936752084755522
2017-08-17,1,0.0003170244247702072,0.00041935694043117707,-0.005860628237464039,0.004581724346118429,0.9940490356762351
2017-08-21,1,0.00017971712538341543,0.0003047660684405538,-0.005860628237464039,0.006186386069487345,0.9921273608867337
2017-08-23,1,0.0006095396009209511,0.0006784262163830933,-0.004167658479231203,0.005993080122736259,0.993143409997118
2017-08-25,1,0.00021667525900605537,0.0003377419112667789,-0.0030670070506873407,0.005993080122736259,0.9934181196415536
2017-08-29,1,0.000162771215672727,0.00030208573295685564,-0.0016536363075119703,0.006337171340903504,0.9932642068030197
2017-08-31,1,0.0004838958833962165,0.0005705002543821351,-0.0030670070506873407,0.00703160962269659,0.9926293929267755
2017-09-05,-1,-0.0002730304553743416,-9.422656256225165e-05,-0.0007950987934630763,0.00742557453550117,0.9926651011727147
2017-09-07,-1,-0.0003627167944798492,-0.00019931488900814197,0.0008579017828697889,0.00742557453550117,0.9929403226629873
2017-09-11,1,9.026440162467525e-05,0.00019957970126812345,0.0008579017828697889,0.00742557453550117,0.9935650370859808
2017-09-13,-1,-0.00016367683158932818,-4.265777980073281e-05,0.001622697036877007,0.00742557453550117,0.9935051001260187
2017-09-15,0,-3.5104799270990424e-05,6.383844178857445e-05,0.001622697036877007,0.007820489236958073,0.9930431654699572
2017-09-19,1,0.0015076049386550903,0.001596927947041372,-0.0009303630238755845,0.00659956939013681,0.9953683486838727
2017-09-21,1,0.0013079209633750652,0.0013288752082954017,-0.0018756197665719834,0.00659956939013681,0.99500290207002
2017-09-25,1,0.001371697576145771,0.00140511749710524,-0.0019231881150698453,0.006841261336779694,0.994838487269378
2017-09-27,1,0.0021966507887960472,0.002362868887663506,-0.0019231881150698453,0.006421599519958017,0.9939814196473381
2017-09-29,1,0.0020944065123774374,0.0022520178681870494,-0.0019231881150698453,0.004638016819822247,0.9935460735185893
2017-10-03,1,0.0021688597725034514,0.0023136993665694872,-0.0032091700750285527,0.002614267611813907,0.9932898460997215
