JNU-Tangyin/eata/results/Batch4_SP500/Batch4_SP500-NWL.csv
Date,Action,Predicted_Q25,Predicted_Q75,Actual_Q25,Actual_Q75,RL_Reward
2010-12-14,0,0.0,0.0,-0.0030109776949302615,0.008849581445259368,0.9930364111448617
2010-12-16,0,0.0,0.0,-0.00711165417194533,0.006732994066476508,0.9925426977796621
2010-12-20,0,0.0,0.0,-0.007559486503694859,0.004808010653242638,0.9926491693415361
2010-12-22,0,0.0,0.0,-0.007559486503694859,0.005142745659716986,0.992469708457189
2010-12-27,0,0.0,0.0,-0.007559486503694859,0.00749796859232455,0.9921519932691911
2010-12-29,0,0.0,0.0,-0.00514498298861141,0.008849581445259368,0.9888362310833211
2010-12-31,0,0.0,0.0,-0.005680760078503636,0.008122078908225718,0.9890428553494667
2011-01-04,0,0.0,0.0,-0.00477418885157414,0.008889712544756666,0.988876499578195
2011-01-06,-1,-0.0005311380985169174,-0.0004802869913795581,-0.00477418885157414,0.009095664325376581,0.9887376470902739
2011-01-10,-1,-0.00032576119999680876,-8.457666631761875e-05,-0.004117798498412394,0.009095664325376581,0.9891325280182077
2011-01-12,-1,-0.0014016141434106037,-0.0009306303813684793,-0.003966549373342969,0.009066243466251435,0.9897910393323165
2011-01-14,-1,-0.0028862841998292606,-0.002232867843138585,-0.003966549373342969,0.009066243466251435,0.9898107307635868
2011-01-19,-1,-0.0037828948351651863,-0.002991394776384365,-0.002490104403127626,0.009066243466251435,0.9902506983007301
2011-01-21,-1,-0.004100197192590251,-0.003245086670697782,-0.0005017676231162931,0.009066243466251435,0.9895993134636649
2011-01-25,-1,-0.0027829635858548697,-0.0021418275116710612,-0.004160312319641678,0.008328879331549747,0.9899666222240683
2011-01-27,1,0.0018176987699207977,0.0018409445566284664,-0.00453502790794061,0.00803214497018406,0.9930373976774723
2011-01-31,1,0.001393788543377787,0.0014669478197111472,-0.0046556411712101314,0.00803214497018406,0.9923366876935256
2011-02-02,1,0.0024674059648270236,0.0026265975174374206,-0.004213473397227232,0.00803214497018406,0.9925273030164398
2011-02-04,1,0.002917307360610871,0.0031429350067397267,-0.005719527241374678,0.006110445225977935,0.9920049779044335
2011-02-08,1,0.0028608261113253113,0.003051336934876541,-0.005719527241374678,0.00803214497018406,0.9909886732410644
2011-02-10,1,0.0041997474402338565,0.0047091038178358365,-0.0070886450673018925,0.00803214497018406,0.9894246038966834
2011-02-14,1,0.0035417721592089875,0.0038851138918520652,-0.011961255768102193,0.006110445225977935,0.988476171006994
2011-02-16,1,0.00419084833879154,0.004706241912894987,-0.015076141808950255,0.00816396903257708,0.9873200128647929
2011-02-18,1,0.00486735180551906,0.005495177205536095,-0.015076141808950255,0.008907868117387181,0.9867245041251816
2011-02-23,0,0.0,0.0,-0.007927493703656153,0.008907868117387181,0.9888087754067011
2011-02-25,1,0.0003953566035699543,0.0005580333577729781,-0.0057418838655274515,0.009725505565027246,0.9891556872524793
2011-03-01,1,0.0004947178247413996,0.000686916517100819,-0.0057418838655274515,0.009725505565027246,0.9894295040477745
2011-03-03,0,0.0,0.0,-0.007278103231857607,0.006070507541621655,0.9892161213085284
2011-03-07,0,0.0,0.0,-0.007275929384898513,0.006850606257905554,0.9892663553955093
2011-03-09,1,0.0021974130214304443,0.0024803837930541884,-0.007275929384898513,0.005492815266875398,0.9907454351505779
2011-03-11,1,0.0020718140938652163,0.00234285590076784,-0.010950557437132347,0.005202291395709822,0.9915213201090312
2011-03-15,1,0.0007004278964754145,0.0007343076955897208,-0.007035966804431476,0.005202291395709822,0.9927475867644427
2011-03-17,1,0.00043995582943298303,0.0004586759847933111,-0.004552169956860346,0.005492815266875398,0.9935750085353205
2011-03-21,1,0.0008248120716434009,0.0008829226074584807,-0.007035966804431476,0.005202291395709822,0.9936817656318744
2011-03-23,1,0.0005791973534251945,0.0005890846392705891,-0.005846977511417401,0.006289457409585923,0.9931393080615821
2011-03-25,0,0.0,0.0,-0.010950557437132347,0.0054623243011377885,0.9934394348971199
2011-03-29,0,0.0,0.0,-0.005846977511417401,0.006483053444720136,0.9924765965729031
2011-03-31,0,0.0,0.0,-0.005846977511417401,0.006483053444720136,0.9915707788473782
2011-04-04,0,0.0,0.0,-0.010950557437132347,0.006483053444720136,0.9905259521667024
2011-04-06,0,0.0,0.0,-0.010950557437132347,0.0072782611564566405,0.9898593028225865
2011-04-08,0,0.0,0.0,-0.007474457518644121,0.0072782611564566405,0.9905436769161546
2011-04-12,0,0.0,0.0,-0.0078740404423768,0.00813392292499197,0.989939380499904
2011-04-14,0,0.0,0.0,-0.007921517092027456,0.00813392292499197,0.9901412418758252
2011-04-18,0,0.0,0.0,-0.007407650526742259,0.00813392292499197,0.990403651422064
2011-04-20,0,0.0,0.0,-0.007407650526742259,0.00407297147152029,0.9912508024590894
2011-04-25,-1,-0.0006294748267429032,-0.0005057861510013473,-0.00917655489015265,0.00407297147152029,0.9901999984420522
2011-04-27,-1,-0.0005645693727398005,-0.00046105880852009075,-0.010978159397578258,0.001963545828785209,0.9907718587102704
2011-04-29,-1,-0.0018508581698188972,-0.001592421402976813,-0.00917655489015265,0.004283025614566167,0.9923271716608209
2011-05-03,-1,-0.0010853348555192222,-0.0009130245197430476,-0.007407650526742259,0.005452560558726739,0.9918966319455524
2011-05-05,0,0.0,0.0,-0.012784618835243051,0.0034649485066046235,0.9865649311869836
2011-05-09,0,0.0,0.0,-0.017373484976167686,0.0034649485066046235,0.984896250490182
2011-05-11,0,0.0,0.0,-0.017373484976167686,0.0034649485066046235,0.9842038059669922
2011-05-13,0,0.0,0.0,-0.017373484976167686,0.0034649485066046235,0.9840877540514196
2011-05-17,0,0.0,0.0,-0.017373484976167686,0.004283025614566167,0.9836180953175337
2011-05-19,0,0.0,0.0,-0.017373484976167686,0.005381908531455498,0.9830443327531261
2011-05-23,0,0.0,0.0,-0.015175240993527704,0.007337905244686192,0.9832600627832996
2011-05-25,0,0.0,0.0,-0.013604829276037754,0.008736100230703401,0.9825973385640603
2011-05-27,0,0.0,0.0,-0.013604829276037754,0.01024238329679773,0.9815401216145007
2011-06-01,0,0.0,0.0,-0.011431236773764971,0.009913336169416788,0.9827571191000145
2011-06-03,-1,-0.0058240168143294056,-0.0050577879565478975,-0.008249984875313057,0.015379419446078754,0.9853726524853326
2011-06-07,-1,-0.00767063734934194,-0.0067041517611245195,-0.007176157601323896,0.015379419446078754,0.9859166595731437
2011-06-09,0,0.0,0.0,-0.00761360793644872,0.012895309673667598,0.9889167821170369
2011-06-13,0,0.0,0.0,-0.010153424637536393,0.012895309673667598,0.9875054866321331
2011-06-15,0,0.0,0.0,-0.008358385920087983,0.012895309673667598,0.9881205494886574
2011-06-17,-1,-0.006435847120072179,-0.0056430184701922285,-0.010153424637536393,0.012531794083405538,0.9873975446132744
2011-06-21,-1,-0.003660307549044392,-0.003288867970701939,-0.010153424637536393,0.012531794083405538,0.9875433044193468
2011-06-23,-1,-0.0026493818549585945,-0.002409575868963618,-0.010153424637536393,0.011384842101668784,0.9880338351127249
2011-06-27,-1,-0.0018723470434256159,-0.001742403544243684,-0.009365096978281123,0.009466117554775218,0.989149527659078
2011-06-29,-1,-0.0009066573500507079,-0.0008883820888667448,-0.012448321805548309,0.009466117554775218,0.9874390287799432
2011-07-01,1,0.0007909844192013643,0.0010575487992505283,-0.01604836601554467,0.00423089680195445,0.9836568777382586
2011-07-06,1,0.0003374201077154021,0.0005616578135595478,-0.019776730059468076,0.011384842101668784,0.9808685043796855
2011-07-08,1,0.0005812724566701696,0.0008573456554788821,-0.022083882287010415,0.007917099712633569,0.9768114279562201
2011-07-12,0,0.0,0.0,-0.022083882287010415,0.011384842101668784,0.9737867043721453
2011-07-14,-1,-0.0022666878050928156,-0.0021028283927618917,-0.025691603027603163,0.013065409647155421,0.967003874923348
2011-07-18,0,0.0,0.0,-0.025691603027603163,0.015632136275313752,0.9630125432227896
2011-07-20,-1,-0.0007730444349080135,-0.0006810118199135668,-0.02903936139286663,0.008848718924482066,0.962387263196469
2011-07-22,0,0.0,0.0,-0.0366413671725949,0.008848718924482066,0.960857182338933
2011-07-26,0,0.0,0.0,-0.0366413671725949,0.015632136275313752,0.9594386813411299
2011-07-28,0,0.0,0.0,-0.0366413671725949,0.020870348427139175,0.9599986158905316
2011-08-01,0,0.0,0.0,-0.0366413671725949,0.017618080005454142,0.9632735367970464
2011-08-03,0,0.0,0.0,-0.022704947058651608,0.01908906079229293,0.9657228103406397
2011-08-05,0,0.0,0.0,-0.022704947058651608,0.01908906079229293,0.9685367266015851
2011-08-09,0,0.0,0.0,-0.01691241338388198,0.023183498540446212,0.9706009666828159
2011-08-11,-1,-0.004946581501056193,-0.004474374703066061,-0.02127833890371077,0.018389130043223154,0.9754946559782551
2011-08-15,0,0.0,0.0,-0.018822064180219564,0.017751867446885464,0.9788964970128436
2011-08-17,0,0.0,0.0,-0.009580674213607743,0.017751867446885464,0.9807585984317155
2011-08-19,0,0.0,0.0,-0.007222039918282169,0.017751867446885464,0.9829240709290792
2011-08-23,-1,-0.0028166261650249104,-0.0026874048490830907,-0.016940519342564624,0.01270426922786154,0.9817958997838734
2011-08-25,-1,-0.002104238026391445,-0.002076165833811615,-0.027205268893857756,0.009725109043984265,0.981479104137541
2011-08-29,-1,-0.0008814626056290085,-0.0007382099968352347,-0.027205268893857756,0.011652373577739739,0.9792281298429208
2011-08-31,-1,-0.0004360408478535479,-0.00026982595472302645,-0.027205268893857756,0.0017400582533296518,0.979150334734973
2011-09-02,-1,-0.0017141195302461379,-0.0017046269910802252,-0.027205268893857756,0.0017400582533296518,0.9783930098177009
2011-09-07,1,0.00014957521015778776,0.0004477357956468106,-0.027205268893857756,0.011652373577739739,0.9772893894500617
2011-09-09,-1,-0.0023241652479619257,-0.0022937880772718675,-0.014350175878785839,0.019369995996677897,0.9796047935818101
2011-09-13,-1,-0.0010787699453169383,-0.0008976368026443559,-0.014350175878785839,0.0216886572637888,0.9794944309792382
2011-09-15,-1,-0.0008121457239595365,-0.0006122583795535177,-0.014350175878785839,0.0216886572637888,0.978856522098738
2011-09-19,0,-0.00013705903553185494,0.00024112964594236717,-0.01795528955289106,0.022391706896262603,0.9776094485154838
2011-09-21,-1,-0.003168459056640982,-0.003101541445310033,-0.0072059572207466265,0.022391706896262603,0.97908620920939
2011-09-23,-1,-0.005176823969193412,-0.0048242940326834695,-0.0011984187425738055,0.024142386321166116,0.9785024174628658
2011-09-27,-1,-0.0016598760396608916,-0.0015448745559937932,-0.0031780232177496624,0.021154852303455218,0.9822618799667061
2011-09-29,-1,-0.0023881397806304857,-0.002378313835407507,-0.000570789304825875,0.02276904338543806,0.9805780359338347
2011-10-03,-1,-0.004733064503753073,-0.004475557382232245,0.0,0.023207724968213633,0.975620486993522
2011-10-05,-1,-0.001664528880353432,-0.0015617021243008338,0.0,0.02276904338543806,0.9775522110504828
2011-10-07,-1,-0.000988113518587055,-0.0008077281780895843,-0.000570789304825875,0.02276904338543806,0.9784488022916132
2011-10-11,1,0.0002996507073504838,0.0006692813157722201,-0.00297340078707882,0.022070947077770808,0.9792934288735842
2011-10-13,1,0.0005664158246606823,0.0008961115545328023,-0.005354428422242204,0.022070947077770808,0.9779430684956735
2011-10-17,1,0.0007611418165233779,0.0011118999088891492,-0.00297340078707882,0.02276904338543806,0.9786785080821935
2011-10-19,1,0.0016960597975822906,0.002188580463118735,-0.006871809936975979,0.02276904338543806,0.9784882953956029
2011-10-21,1,0.0023193783896620517,0.002864346356919682,-0.010982167466953234,0.01870000458615692,0.9776934651727547
2011-10-25,1,0.00048503078898677723,0.0006626478720338941,-0.010982167466953234,0.01870000458615692,0.9774217988661944
2011-10-27,1,0.0012152575082575348,0.0014034523753012683,-0.01996175134251323,0.013391030401295315,0.9779413654829783
2011-10-31,1,0.0032373973562547093,0.00375986944093378,-0.010982167466953234,0.017149153267766205,0.9817053978888531
2011-11-02,1,0.005405052897623733,0.006177280479273057,-0.010982167466953234,0.016727913363235515,0.98317402754546
2011-11-04,1,0.004941604345709076,0.005635946641179137,-0.014364149675024458,0.016752796905840413,0.9824865397144483
2011-11-08,1,0.005444403253718143,0.006228472913214602,-0.014364149675024458,0.016824183132288513,0.9825200978469296
2011-11-10,1,0.005164519290624077,0.005962321833684764,-0.014364149675024458,0.01819856445646159,0.9822831077279043
2011-11-14,1,0.0061210249665857915,0.007078774081532341,-0.018561861883843817,0.01661958998474295,0.9808662517132398
2011-11-16,1,0.005344167107375206,0.006199238110393019,-0.01796679012748604,0.01661958998474295,0.9814340380409287
2011-11-18,1,0.00437027610458629,0.005118483232897406,-0.01796679012748604,0.01661958998474295,0.9824269974352433
2011-11-22,1,0.003985356973863953,0.0047435295733189685,-0.01440650407711343,0.02327225524113841,0.9812986449370217
2011-11-25,1,0.002879103800049806,0.003459755760945083,-0.013220828923471525,0.02327225524113841,0.9824673172980347
2011-11-29,1,0.004861760764423516,0.005720530953154457,-0.013220828923471525,0.01661958998474295,0.9840395982990464
2011-12-01,1,0.004377614688011065,0.00509339592166674,-0.014207002822254044,0.01819856445646159,0.9829754116487389
2011-12-05,1,0.004321756083301304,0.005014467746908558,-0.014207002822254044,0.017354910760690043,0.984297680791429
2011-12-07,1,0.005206401827558972,0.006012369481852867,-0.014207002822254044,0.021298744373484422,0.9834820686433421
2011-12-09,1,0.005619443241808271,0.006540140976017838,-0.00756833666557803,0.016741744602529415,0.985725159503985
2011-12-13,1,0.004018521638405258,0.004676885377539355,-0.0019295418748485873,0.016741744602529415,0.9876501321247088
2011-12-15,1,0.0038145563799126952,0.00442799014761987,-0.004391037936214393,0.015505586900796365,0.9874233551181968
2011-12-19,1,0.002200147137237594,0.002511038887780216,0.00012561172480900592,0.01688208425343339,0.9872777274651422
2011-12-21,1,0.00590947526685539,0.006829454857657015,-0.005792528224249605,0.014093035957545757,0.9898926155236597
2011-12-23,1,0.005487494699068447,0.006258196319274095,-0.006513942958390622,0.014876330078092546,0.9892905444878621
2011-12-28,1,0.0037086806398228967,0.004091113148015947,-0.006513942958390622,0.015350240715303538,0.9862914309640012
2011-12-30,1,0.0028227950410669115,0.0029682272116196883,-0.006982964695856702,0.014876330078092546,0.9869623527890368
2012-01-04,1,0.003779877340859608,0.004146734686428797,-0.007398310709578086,0.014876330078092546,0.9866690099266194
2012-01-06,1,0.005585966152895269,0.006284052780610263,-0.007398310709578086,0.01163068214376511,0.9874801891186467
2012-01-10,1,0.004525156852623078,0.004972864530501284,-0.007633616657294448,0.014403796305303163,0.986931011860092
2012-01-12,1,0.004176589583649321,0.004506441154535918,-0.008759945472023679,0.014403796305303163,0.9854475687775276
2012-01-17,1,0.003650160439371633,0.003979212654670088,-0.007067739909939315,0.014403796305303163,0.9868101777163003
2012-01-19,1,0.004726150866370243,0.005217522800626287,-0.007633616657294448,0.01421247019541712,0.9864370693202075
2012-01-23,1,0.004435045593187671,0.004932370650625484,-0.007633616657294448,0.01421247019541712,0.986619523307101
2012-01-25,1,0.004970755517004522,0.0055664849235704476,-0.009225968672914914,0.010758562784927067,0.9859401954376911
2012-01-27,0,0.0,0.0,-0.009225968672914914,0.008686566713488365,0.9895363604954392
2012-01-31,0,0.0,0.0,-0.008707017834060584,0.008686566713488365,0.9902645546444684
2012-02-02,1,0.005424453595215194,0.0058977582819761095,-0.009225968672914914,0.010080417080743245,0.9885175765706649
2012-02-06,1,0.006217728072258727,0.006804300490154236,-0.011040395439065624,0.005669456883463726,0.9859442149299265
2012-02-08,1,0.00620605357363331,0.006794322193025852,-0.011040395439065624,0.00915158252403073,0.9857890056323763
2012-02-10,1,0.005380131712764733,0.005825080861928687,-0.01102343984105896,0.005669456883463726,0.9864996036020816
2012-02-14,1,0.003170318023377648,0.003187352682366047,-0.01102343984105896,0.010588281491611078,0.9853816319902537
2012-02-16,1,0.002041393733873878,0.002292641428886451,-0.01350374920784811,0.00885585485044431,0.9864291278501918
2012-02-21,0,0.0,0.0,-0.010241764776333723,0.005388139644425546,0.9871615654813665
2012-02-23,1,0.00015955542445097548,0.0004571095436487197,-0.009247271516357809,0.005388139644425546,0.9879122678349748
2012-02-27,0,0.0,0.0,-0.009247271516357809,0.009254726549591535,0.9874742586747558
2012-02-29,0,0.0,0.0,-0.009633867856030636,0.009254726549591535,0.9867218875268023
2012-03-02,0,-0.00030831331229459096,6.874483656079387e-05,-0.009247271516357809,0.008021872487172208,0.9881153697483739
2012-03-06,-1,-0.002299317065453605,-0.0016587517041074943,-0.00894186476556844,0.008021872487172208,0.9902964711634814
2012-03-08,-1,-0.0007882253537110631,-0.00035051644988158353,-0.009247271516357809,0.004213972502522066,0.9907424265537399
2012-03-12,-1,-0.0015538252861058515,-0.0010239556658349195,-0.009633867856030636,0.004213972502522066,0.9898634221348365
2012-03-14,1,0.0005040015258240721,0.0007661380744328302,-0.009633867856030636,0.004213972502522066,0.9905603018523564
2012-03-16,1,0.00029757640815660544,0.0005558815814491189,-0.009247271516357809,0.00402600179555385,0.9909744535596078
2012-03-20,-1,-0.0009715475492203488,-0.0005253515440376692,-0.008985017028330745,0.0056858726731916776,0.9911790459712208
2012-03-22,-1,-0.0007231916424544969,-0.00038086424348853984,-0.006999021097298894,0.0056858726731916776,0.9913594515467457
2012-03-26,1,0.00013364184785773995,0.00032962423817786744,-0.009242156579716656,0.00402600179555385,0.9907702485571233
2012-03-28,1,0.0004000200576027229,0.0004604862508220445,-0.00589561147104474,0.006007474254500494,0.9903699951522394
2012-03-30,1,0.00013040828175242628,0.000217919052009525,-0.007515302237137532,0.008257628819758304,0.9880113992111164
2012-04-03,1,0.0005158553078195234,0.0005461587786583887,-0.007515302237137532,0.014829649174142711,0.9874214445323589
2012-04-05,-1,-0.0009357409617594565,-0.0007032443305111344,-0.00589561147104474,0.014829649174142711,0.9881919282738112
2012-04-10,-1,-0.0018591707614744335,-0.0015596263219926764,-0.00505280082228486,0.014829649174142711,0.988733208256789
2012-04-12,-1,-0.0015000447721508713,-0.0011950795944259528,-0.0051099683621324285,0.010203972745449808,0.989656974859287
2012-04-16,-1,-0.002465667278895701,-0.001983444224091243,-0.0051099683621324285,0.010203972745449808,0.989744077832166
2012-04-18,-1,-0.00295134178958922,-0.0023559782691223562,-0.005168617346632673,0.006811173501962357,0.9897938359495425
2012-04-20,-1,-0.0036395975518446265,-0.0029085279475749674,-0.007206314732915395,0.006811173501962357,0.9886273930873242
2012-04-24,-1,-0.002416725204659901,-0.0019214362403801402,-0.005168617346632673,0.006811173501962357,0.9889618058940364
2012-04-26,-1,-0.0014729989740884617,-0.001095313558079283,-0.005168617346632673,0.00876232144196616,0.9892489751596738
2012-04-30,-1,-0.0012213121139012784,-0.0008728854167005963,-0.004844801392394408,0.00876232144196616,0.9901111239654347
2012-05-02,0,-6.578099364793681e-05,0.00010861478007442702,-0.005168617346632673,0.006024613048839171,0.9897911520881127
2012-05-04,-1,-0.00040211609335960975,-0.00017659362128276477,-0.007899203936690276,0.006024613048839171,0.988161567441704
2012-05-08,-1,-0.0016732344602197699,-0.0012382911762631884,-0.005168617346632673,0.00876232144196616,0.9876796964465778
2012-05-10,-1,-0.0018198201419077655,-0.0013540437618661495,-0.005142768839797204,0.006029417063151469,0.9881598891237956
2012-05-14,-1,-0.0029343530219979367,-0.0022866470853672295,-0.004193053668122068,0.010256945549410479,0.9867465929174308
2012-05-16,-1,-0.0018345645376624108,-0.0014386043615347544,-0.004193053668122068,0.010256945549410479,0.9869504430921585
2012-05-18,-1,-0.0023289210599325037,-0.0019037927834843515,-0.0034851119081962625,0.010256945549410479,0.9877752268264751
2012-05-22,-1,-0.0020366473339521515,-0.0016301471647893224,-0.004193053668122068,0.007613905568385394,0.9885577991977721
2012-05-24,-1,-0.0010364866796141316,-0.0007622494147822706,-0.005266122724613177,0.005341779696726086,0.988927357915402
2012-05-29,1,0.0002489392945336929,0.0003646544494399796,-0.010371723829979947,0.0043313593196759575,0.9888050853020007
2012-05-31,-1,-0.00013688264902301378,-5.0443057386806303e-05,-0.007401854109820848,0.0043313593196759575,0.9902483767301767
2012-06-04,0,0.0,0.0,-0.004591672136273893,0.00503698303430841,0.9902801359613183
2012-06-06,0,0.0,0.0,-0.004108547239127848,0.00503698303430841,0.9902712302274901
2012-06-08,0,0.0,0.0,-0.010371723829979947,0.00503698303430841,0.9888457779016678
2012-06-12,0,0.0,0.0,-0.01461638433566506,0.004098893038441445,0.9885022781928824
2012-06-14,-1,-0.0005026346628771014,-0.0003989537239329916,-0.01461638433566506,0.004098893038441445,0.9886607141801659
2012-06-18,-1,-0.0012089207342650817,-0.0010759178700137984,-0.01461638433566506,0.001832663592192588,0.9881332020096615
2012-06-20,-1,-0.0013964441204810422,-0.0013281597317673429,-0.01461638433566506,0.013282207255387387,0.9867782834959166
2012-06-22,1,0.00013695590745427805,0.0001857868046518585,-0.01461638433566506,0.013282207255387387,0.9855416560612736
2012-06-26,0,0.0,0.0,-0.012146291449944554,0.013282207255387387,0.9867660439679082
2012-06-28,-1,-0.0010019931169605852,-0.0009529839977401745,-0.012146291449944554,0.015928281030680197,0.9852462717884287
2012-07-02,1,0.0009548640214810859,0.001160020574302975,-0.01461638433566506,0.014580806510523634,0.9857372353552591
2012-07-05,1,0.0016728937146113835,0.0019623777015416047,-0.017428088315956408,0.013282207255387387,0.9841382186166745
2012-07-09,1,0.0007301673330919378,0.0008975500502313733,-0.016148562827855338,0.014580806510523634,0.9847951343700548
2012-07-11,0,-5.4510235802104694e-05,2.829489812564075e-05,-0.01091501438482649,0.014792849508147262,0.9858612715872013
2012-07-13,1,0.00038964254133132687,0.0005236457704125509,-0.012505484046507177,0.014348236495046076,0.9854565997332428
2012-07-17,1,0.00014740988100642126,0.00020686270886219408,-0.012505484046507177,0.013352888254595264,0.9860901885248424
2012-07-19,1,0.0009371252400809163,0.0010860454393072092,-0.012505484046507177,0.008033759822970747,0.9864390405479865
2012-07-23,-1,-0.0003433777833412544,-0.0003215777670828661,-0.009041905020380174,0.014792849508147262,0.9874649733398869
2012-07-25,-1,-0.000675890233710567,-0.0006056264272915838,-0.009041905020380174,0.014792849508147262,0.9873729212067547
2012-07-27,0,0.0,0.0,-0.009041905020380174,0.005738084078010367,0.9888477583002873
2012-07-31,0,0.0,0.0,-0.009041905020380174,0.005738084078010367,0.9888479080557161
2012-08-02,-1,-0.0038946012318220903,-0.003390944229953525,-0.0025674973398687817,0.009766300434996905,0.9890613489144172
2012-08-06,-1,-0.0005029901197831367,-0.000499233102803708,-0.0025674973398687817,0.009766300434996905,0.9911721550090002
2012-08-08,-1,-0.000174020811727442,-0.0001497622984456973,-0.0025674973398687817,0.009766300434996905,0.9903439775098731
2012-08-10,-1,-0.0012537123980182617,-0.001124437974636978,0.0002916736048783692,0.009766300434996905,0.9904965713979239
2012-08-14,-1,-0.0015880104286036063,-0.0014041330482988967,0.0018147782411147627,0.009766300434996905,0.9901960587804395
2012-08-16,-1,-0.0005870662312932789,-0.000547566621897361,0.002270974822687069,0.009766300434996905,0.9898935965423894
2012-08-20,-1,-0.00010676493226207553,-9.393858917181196e-05,0.0018147782411147627,0.00923322347805397,0.9902232960542696
2012-08-22,-1,-0.0004732465581645678,-0.00040895711309820197,0.001539866627977775,0.00923322347805397,0.9898033101688022
2012-08-24,-1,-3.225216201643476e-05,-3.0657243331645735e-05,-0.0009107694670652338,0.00923322347805397,0.9901709885119044
2012-08-28,-1,-0.0011124446621058235,-0.0009434612797196069,-0.0009107694670652338,0.00923322347805397,0.9903824585649829
2012-08-30,0,0.0,0.0,-0.0020553737250417073,0.008669149265495741,0.9916542009646769
2012-09-04,0,0.0,0.0,-0.0022146824331075792,0.006718668255873191,0.9917799709342594
2012-09-06,0,0.0,0.0,-0.0022146824331075792,0.008669149265495741,0.9921992066432197
2012-09-10,0,0.0,0.0,-0.0022146824331075792,0.006776376437308242,0.9920925335551255
2012-09-12,0,0.0,0.0,-0.0033457546010280583,0.005784709470225625,0.9920883636565176
2012-09-14,0,0.0,0.0,-0.0033457546010280583,0.005784709470225625,0.9936302060409048
2012-09-18,0,0.0,0.0,-0.0022146824331075792,0.006433514640508872,0.9931297654602517
2012-09-20,0,0.0,0.0,-0.0009151322382763699,0.010207351124773225,0.9927355374867003
2012-09-24,0,0.0,0.0,-0.0029711445202374133,0.010207351124773225,0.9918288087617735
2012-09-26,0,0.0,0.0,-0.0029711445202374133,0.010207351124773225,0.991962383106269
2012-09-28,1,0.001268630341334853,0.0014399000236208863,-0.005910400481819646,0.011021951274355672,0.9907766045590288
2012-10-02,0,0.0,0.0,-0.00140378521560439,0.012256751875328953,0.98985682458506
2012-10-04,0,0.0,0.0,-0.002826899838118886,0.011021951274355672,0.9908662890459081
2012-10-08,1,0.00243289944589714,0.0027435107804999535,-0.005910400481819646,0.011021951274355672,0.990974965191709
2012-10-10,1,0.0020104779516408127,0.0022190205484326903,-0.007194864939044839,0.011021951274355672,0.9895817259881502
2012-10-12,1,0.002394406245192356,0.0026785200469357914,-0.007194864939044839,0.011021951274355672,0.9895471062258486
2012-10-16,1,0.0037093101869526282,0.0042070233790827945,-0.007194864939044839,0.007662654037961586,0.9905790811771151
2012-10-18,0,0.0,0.0,-0.007194864939044839,0.007662654037961586,0.9902481197877175
2012-10-22,1,0.0037426736593157055,0.004239440496255008,-0.0034165489415498296,0.007662654037961586,0.9905660795688255
2012-10-24,1,0.002610167507290864,0.0028709986361313846,-0.0021256844687714783,0.008759159337048177,0.990923342454834
2012-10-26,0,0.0,0.0,-0.0015282598116627267,0.007662654037961586,0.9919473329257191
2012-11-01,0,0.0,0.0,-0.0015282598116627267,0.007662654037961586,0.9923848429109177
2012-11-05,1,0.005620325811532528,0.006400772859013813,-0.0029100902877196976,0.007662654037961586,0.991998397623468
2012-11-07,0,0.0,0.0,-0.001756458117081544,0.006408230258291788,0.9930057754695892
2012-11-09,0,0.0,0.0,-0.00035129609027485386,0.007895034598531692,0.9936105365033846
2012-11-13,1,0.0027511559106274163,0.003085350953731857,-0.001756458117081544,0.009943503126407592,0.9936879069385989
2012-11-15,1,0.00247750743099305,0.0027353762997422283,-0.0029100902877196976,0.009943503126407592,0.9930568692809916
2012-11-19,1,0.002759836368534523,0.0029854490430666625,-0.0029100902877196976,0.005998080696246344,0.9941647452499671
2012-11-21,1,0.0023802477542579983,0.0025593285005359374,-0.0029100902877196976,0.005998080696246344,0.9941814986529612
2012-11-26,1,0.003110362899040581,0.003449661535370284,-0.002167845340283328,0.0056168701764714455,0.994669094124711
2012-11-28,1,0.0035829990404615177,0.004025971990335497,-0.0033271045806584094,0.0056168701764714455,0.9940906774178138
2012-11-30,1,0.003269947918141577,0.003601213311335296,-0.0041272620733641225,0.0056168701764714455,0.9932530138988155
2012-12-04,1,0.002258554160898717,0.0023873340504533087,-0.005760700202842283,0.006195157417848561,0.9927612435688126
2012-12-06,1,0.0026110803172011343,0.0028146069255838356,-0.006682593682369722,0.006195157417848561,0.9917912697018535
2012-12-10,1,0.00306425935595061,0.0033192754328465576,-0.006682593682369722,0.00448120504074233,0.9925086481231787
2012-12-12,0,0.0,0.0,-0.006829051729237276,0.004040784709489134,0.9924804820651284
2012-12-14,0,0.0,0.0,-0.006682593682369722,0.00584328761873722,0.9920030940366448
2012-12-18,1,0.0017138244760262495,0.001725283717614369,-0.006682593682369722,0.008137461413772513,0.9913795297186176
2012-12-20,1,0.002100961728023786,0.0022167150488165252,-0.005760700202842283,0.009793907895833886,0.9915869840778798
2012-12-24,1,0.0018129710111053623,0.0018151572929212974,-0.005760700202842283,0.009793907895833886,0.9913508217646548
2012-12-27,1,0.0003224344823214184,0.000610920334288298,-0.006682593682369722,0.009793907895833886,0.9912433937556099
2012-12-31,1,0.001504814349318829,0.001608025960869547,-0.003909851651090187,0.009793907895833886,0.9913498342804518
2013-01-03,1,0.0016483690695249637,0.001721949731347754,-0.004583237548494033,0.008485334719541104,0.9917307421953874
2013-01-07,1,7.945963221376608e-05,0.00040418285999462575,-0.003209540658308106,0.009793907895833886,0.9909750504147682
2013-01-09,0,0.0,0.0,-0.003907407409335805,0.009793907895833886,0.9906650043041697
2013-01-11,0,0.0,0.0,-0.003209540658308106,0.009793907895833886,0.9912164199761887
2013-01-15,0,0.0,0.0,-0.003907407409335805,0.008485334719541104,0.9916103445328678
2013-01-17,0,0.0,0.0,-0.004121589231333699,0.008485334719541104,0.9921671294806533
2013-01-22,0,0.0,0.0,-0.004751420523824685,0.00375346293161503,0.9918377933767764
2013-01-24,0,0.0,0.0,-0.006757763737547049,0.0038269815963633,0.9913797873376714
2013-01-28,0,0.0,0.0,-0.006757763737547049,0.0038269815963633,0.9904405822654667
2013-01-30,1,0.0013365026222215428,0.0014478365859890551,-0.006757763737547049,0.003760404008962374,0.9901552751062533
2013-02-01,1,0.0015825236690787498,0.001601368535503631,-0.004751420523824685,0.004709888834399016,0.9902922085049382
2013-02-05,1,0.002603094027975554,0.00270961536406119,-0.004751420523824685,0.007815535838896805,0.9911359946803755
2013-02-07,1,0.0023044054484131454,0.002382931681285131,-0.00474254804914236,0.009631206046779223,0.9897569217270068
2013-02-11,1,0.0026310372751967522,0.002840504708470597,-0.003821225908020114,0.009631206046779223,0.9901175858796775
2013-02-13,1,0.0023120572328321843,0.002443419576734356,-0.0032291115704518054,0.009631206046779223,0.9899096519942234
2013-02-15,1,0.0019273116592972341,0.0019578188452063707,-0.0032291115704518054,0.008658558907785465,0.9896128251824974
2013-02-20,1,0.000620533295203219,0.0007492320968031266,-0.001972186659441903,0.008658558907785465,0.9904372886957977
2013-02-22,1,0.000324683708808382,0.0005060206806350784,-0.001972186659441903,0.008658558907785465,0.9905172573319805
2013-02-26,-1,-0.001201327221893671,-0.0008295668398004554,-0.0013104860538680975,0.009668534524163504,0.9907822998312438
2013-02-28,-1,-0.000766346477200904,-0.0004149114399281031,-0.0013104860538680975,0.009668534524163504,0.991196122496338
2013-03-04,0,-3.3320060711704205e-05,0.0001866253304553347,-0.0028518821605260447,0.009668534524163504,0.9913519911214353
2013-03-06,1,0.0007194593737670544,0.0008418271002772989,-0.0032420768852927696,0.005971054153359292,0.9909161625705518
2013-03-08,1,0.0022659808619799066,0.0023194994976341267,-0.004231519940426311,0.005971054153359292,0.9918539779419189
2013-03-12,1,0.0022452170098081416,0.002300846471912968,-0.004231519940426311,0.004550790791162129,0.9920267559272318
2013-03-14,1,0.003566647331747374,0.003864604071232968,-0.004231519940426311,0.004334144739444093,0.9920757058442907
2013-03-18,1,0.0032214458302979886,0.003512736860287192,-0.004231519940426311,0.005862122663102283,0.991379583269014
2013-03-20,1,0.002422482900450272,0.0025497624250388454,-0.00733411910941921,0.010654346629080352,0.9901101806934312
2013-03-22,1,0.0016435124659505834,0.001655343269361191,-0.004231519940426311,0.012786647272431732,0.9893557941246882
2013-03-26,1,0.002448342696727584,0.002545336164095787,-0.007127209901127677,0.011501959902935744,0.9898288080779684
2013-03-28,1,0.0035448680007027994,0.003843259190751107,-0.009201698451473821,0.010654346629080352,0.989453658882992
2013-04-02,1,0.0028170564853339376,0.003008743247602113,-0.009201698451473821,0.010654346629080352,0.9898085321308225
2013-04-04,1,0.0017795023017948043,0.0018145622428279203,-0.009004353069164807,0.011187644473549781,0.9901631120677404
2013-04-08,1,0.000802150894014866,0.0009538830949623126,-0.004510579082021187,0.011187644473549781,0.9907056885433604
2013-04-10,1,0.000864364554809484,0.0010018633614426481,-0.004510579082021187,0.011187644473549781,0.9899990028183384
2013-04-12,1,0.00110150891476446,0.0012089394901697236,-0.00862629737607275,0.011272245325984856,0.98878050412886
2013-04-16,1,0.0018197828488536222,0.0018774049417751904,-0.004847421259870921,0.011272245325984856,0.989746363927047
2013-04-18,1,0.0016082014319594665,0.0016258470557483724,-0.004847421259870921,0.011111077741219635,0.990378154049494
2013-04-22,1,0.002663513284346607,0.0027902258739990423,-0.004847421259870921,0.010089838028616517,0.9916891978080155
2013-04-24,1,0.002323136010808212,0.002418520501105843,-0.004847421259870921,0.010089838028616517,0.9910152748199405
2013-04-26,1,0.0022283164161920757,0.0023297838161497426,-0.004709235824788463,0.009458317829665157,0.9914362014913811
2013-04-30,1,0.0016920781097866573,0.0017041436801119466,-0.008097639784306809,0.009458317829665157,0.9905696372608546
2013-05-02,1,0.0017227152868690885,0.0017495835308387884,-0.004709235824788463,0.007356058646957574,0.9912256135704883
2013-05-06,1,0.002029390592706592,0.0021378986231819852,-0.006975101004668498,0.006895461537977654,0.9912916740296334
2013-05-08,1,0.002442813069318545,0.0025880878229754623,-0.008097639784306809,0.005562398016315085,0.9905626379890623
2013-05-10,1,0.0029530738365717286,0.0031363229167264196,-0.006975101004668498,0.005562398016315085,0.9911177072020027
2013-05-14,1,0.002687571855445182,0.0028325687830941296,-0.009338678511483359,0.004111564406325347,0.9906807917265749
2013-05-16,1,0.0021585794171093547,0.0022154918428576803,-0.008395871277003477,0.004111564406325347,0.9907315690795907
2013-05-20,1,0.0025424536299335004,0.002653217601598542,-0.009947234209158976,0.003890731643393874,0.9900724695955171
2013-05-22,1,0.0014023618009659324,0.0014406896470094037,-0.010168405379560892,0.003890731643393874,0.9897554062435157
2013-05-24,1,0.0015158502494961696,0.0015173349078430156,-0.011320083222475002,0.003890731643393874,0.9890376891842353
2013-05-29,1,0.0006036505245430336,0.000721221270331276,-0.010168405379560892,0.0037577469505962278,0.9902826972648014
2013-05-31,1,9.58999985053461e-05,0.0003072159521972338,-0.010168405379560892,0.004065362996755961,0.989407479887409
2013-06-04,0,-0.00017123136582616264,6.0797125418578105e-05,-0.011124269808225536,0.00525300697721361,0.9888576378123981
2013-06-06,-1,-0.0008669905106590177,-0.000507470930533233,-0.010168405379560892,0.004502092029759737,0.9899630561595143
2013-06-10,0,-0.00014322721934326849,8.275878873429451e-05,-0.010168405379560892,0.00536633184104612,0.9895808731154638
2013-06-12,-1,-0.0011211876792601404,-0.0008251033055330273,-0.01000837818662237,0.008717307720473959,0.9895651903520416
2013-06-14,1,0.00046425172135633865,0.000553226116896122,-0.01000837818662237,0.00536633184104612,0.9905002165768512
2013-06-18,0,-6.900934633567301e-05,0.00010068576433070489,-0.006668204121906734,0.00536633184104612,0.9909572339266383
2013-06-20,-1,-0.002010596521387108,-0.0015861815624576526,-0.004314287206332536,0.006370711925266289,0.9918954344998865
2013-06-24,-1,-0.0020440856562995487,-0.0016724398034543941,-0.0016401157992730162,0.0077401014701454695,0.9920559158374359
2013-06-26,-1,-0.0022710471301828515,-0.0018521012925603497,-0.002535419186374549,0.0077401014701454695,0.9918998817541754
2013-06-28,-1,-0.0004374365319958873,-0.0003051904817464017,-0.004456131339336124,0.006370711925266289,0.9936053824820084
2013-07-02,-1,-0.0009474522152522965,-0.0007358413828760024,-0.004456131339336124,0.0064917367120040205,0.9935525684554969
2013-07-05,-1,-0.0011746461300605412,-0.000920206538937853,-0.003040502092149522,0.008600750636915462,0.9926173875840286
2013-07-09,-1,-0.00014392201676445234,-1.7079457835154964e-05,-0.004696978128767924,0.004818251603573532,0.9935876703351733
2013-07-11,-1,-0.00022324978769114014,-9.294050170615922e-05,-0.006173314887505464,0.0033354383077616677,0.9937668258135605
2013-07-15,-1,-0.0009469561251859663,-0.0006796306950430244,-0.006173314887505464,0.0027539892366905076,0.9939192870285799
2013-07-17,-1,-0.0010325926457916878,-0.0007624814952492448,-0.00806301083248291,0.004451526609087986,0.9936159807725095
2013-07-19,-1,-0.0013569141070257724,-0.0010006768217036364,-0.008452679693402486,0.0011075459536568544,0.9930973830146308
2013-07-23,-1,-0.0008627180382543014,-0.0005952184969072546,-0.009308258191399434,0.00018650184783736715,0.9925172479079335
2013-07-25,-1,-0.0008765295642458369,-0.0006207463222312721,-0.009635788186330683,-0.0003544409422952641,0.9916974486880312
2013-07-29,-1,-0.0010133600756574537,-0.0007642681683664736,-0.009635788186330683,0.005889136535104179,0.9909239966393518
2013-07-31,1,4.081456089445948e-05,8.623661964840535e-05,-0.009931477509057228,0.0016814281338313395,0.9900541837581377
2013-08-02,1,0.00043837913613855103,0.0004484887879121603,-0.009931477509057228,0.0016814281338313395,0.9902160900961758
2013-08-06,1,0.000302386261276232,0.00031908065183227334,-0.009308258191399434,0.010147405800813213,0.9896380583531283
2013-08-08,-1,-0.000671600279984991,-0.000541706653900575,-0.008226340569843758,0.010147405800813213,0.9903203688015976
2013-08-12,-1,-0.000591507750875543,-0.0004644698981021729,-0.008226340569843758,0.010147405800813213,0.9899347059394261
2013-08-14,-1,-0.0011509333889221792,-0.0009413959315127355,-0.0076847738311291375,0.010218327504983915,0.9898920052413691
2013-08-16,-1,-0.0014116705068294105,-0.0012009454841071128,-0.00481991078751887,0.010634118821840281,0.9903192771207073
2013-08-20,-1,-0.0008952331757177236,-0.0007782405054706407,-0.003866664837941307,0.011650049102523229,0.9904380145475407
2013-08-22,-1,-0.0023652907616442194,-0.002043024618853839,-0.0031407243342351835,0.011650049102523229,0.9909183557764293
2013-08-26,-1,-0.0016625670289001611,-0.0014005287342043898,-0.003698986942145673,0.011650049102523229,0.9914371436282677
2013-08-28,-1,-0.002664906880570164,-0.0022901905600593545,-0.0031407243342351835,0.01197757436176412,0.9911338711055464
2013-08-30,-1,-0.0024361446063059814,-0.0020900704980080466,-0.0030435106097428197,0.011650049102523229,0.9921385417349405
2013-09-04,-1,-0.001427951246145791,-0.0012118263246079963,-0.0030435106097428197,0.009679956159197015,0.9934501392789541
2013-09-06,-1,-0.0011664205913801476,-0.0009939062976061725,-0.0030435106097428197,0.009679956159197015,0.9928541630829311
2013-09-10,-1,-0.0008289857730098015,-0.0007065839121447909,-0.004478753052109317,0.009083928161738064,0.9918055959526456
2013-09-12,1,8.77794110603208e-06,2.6951050519009006e-05,-0.004478753052109317,0.009083928161738064,0.9911684361845847
2013-09-16,-1,-0.00025604499726959446,-0.00021804064727788924,-0.004478753052109317,0.009083928161738064,0.9908530695099811
2013-09-18,1,0.000696515054657396,0.0007671357299598816,-0.007320243428448881,0.009083928161738064,0.9897513413458777
2013-09-20,1,0.00025372025569110076,0.00026968625808490706,-0.007320243428448881,0.013491879767262092,0.9882777564620207
2013-09-24,1,0.0007306926067269979,0.0008177881183618603,-0.004545078733850525,0.013491879767262092,0.988959568994219
2013-09-26,1,0.0010047621584914938,0.0011242955327133894,-0.003650942186643509,0.00928014665853194,0.9899136498428666
2013-09-30,1,0.0009809109417675797,0.0011360724604720937,-0.0022381929100465207,0.013040590910041224,0.9891454492348849
2013-10-02,1,0.0016123574548945843,0.0019071292297295223,-0.006287886555701344,0.013040590910041224,0.9886841947002243
2013-10-04,1,0.0015513407939559596,0.0018395857212992533,-0.0022381929100465207,0.013040590910041224,0.989623857806817
2013-10-08,1,0.0001078600063118276,0.00019031020114945767,-0.0008604280589880362,0.013040590910041224,0.9903938802857869
2013-10-10,1,0.001415812371065648,0.0016968677638607536,-0.0054538887784344285,0.010361721729879944,0.9901034905026757
2013-10-14,1,0.0014973988120048803,0.0017402864077326172,-0.0054538887784344285,0.01018640794749637,0.9904134620746128
2013-10-16,1,0.0017952444703067342,0.0020807511549975105,-0.0022381929100465207,0.01018640794749637,0.9915297765690183
2013-10-18,1,0.0024433369901234246,0.0027797661836952963,-0.0022381929100465207,0.00838450019182389,0.9929712484265681
2013-10-22,1,0.002404231330050078,0.002741817762412944,-0.0054538887784344285,0.00838450019182389,0.9922658800783778
2013-10-24,1,0.00198886955732467,0.0022549788753093904,-0.0033537906196056933,0.009400888304814359,0.9918681206650722
2013-10-28,1,0.002914060615237632,0.0033050256703093684,-0.0033537906196056933,0.0075816989068177194,0.9925268574061378
2013-10-30,1,0.0025516825663343917,0.0028986137621969037,-0.0019875440300110053,0.0075464087577963145,0.9933884353093395
2013-11-01,1,0.0023942072515165643,0.0026630273314237965,-0.0035665211603913044,0.0075464087577963145,0.9924769005355052
2013-11-05,1,0.0027498315654489076,0.003119467253122024,-0.002088377107099273,0.007833750513038768,0.9926989491448442
2013-11-07,1,0.0015059787096579906,0.0016987349393673646,-0.0019875440300110053,0.009723319405707032,0.9931783027365927
2013-11-11,1,0.0016297928525846658,0.0017600820512307966,-0.0019875440300110053,0.009101126430688064,0.9934710248875513
2013-11-13,1,0.0018714668037374117,0.0019935507781683225,-0.002088377107099273,0.006817500518324303,0.9938913685283599
2013-11-15,1,0.0019501815956120393,0.0020790048610878275,-0.0024659635789831304,0.0072399591575407355,0.9931310428278483
2013-11-19,1,0.0017552282496394382,0.0019074010646260354,-0.002058454210272876,0.009390272800720998,0.992807715478572
2013-11-21,1,0.0022251881811194167,0.0024199369726297906,-0.0024659635789831304,0.0072399591575407355,0.9927244062036901
2013-11-25,1,0.002157323061972535,0.0023396192133912103,-0.0024659635789831304,0.007911104262723987,0.9926272813830027
2013-11-27,1,0.0027248952936124015,0.0030377297269631584,-0.0024659635789831304,0.007911104262723987,0.9924743090708561
2013-12-02,1,0.001997349102946914,0.0022064735432087606,9.769996931479946e-05,0.007911104262723987,0.9932379457831263
2013-12-04,1,0.002703247230277494,0.0030015515784083246,-0.0019029057979659068,0.0073346404248039775,0.9932721022419625
2013-12-06,1,0.0029473699382437544,0.0032666213262766116,-0.0027648144596839107,0.006944768066813297,0.9936779434587626
2013-12-10,1,0.0032010512758145204,0.0035699887944907393,-0.004170548992556271,0.00641131308399992,0.9934431245658499
2013-12-12,1,0.003153949017594769,0.0035306494079451268,-0.004342647747867361,0.00641131308399992,0.993255025518034
2013-12-16,1,0.0031296548750689734,0.00348463313266149,-0.0029648441850445946,0.00641131308399992,0.9940230152869844
2013-12-18,1,0.003716817883840857,0.004121028565744593,-0.004342647747867361,0.005355264308128751,0.9943517427128421
2013-12-20,1,0.003213198853062144,0.0035448419495065706,-0.0029648441850445946,0.004756360472438439,0.9952840096240237
2013-12-24,1,0.00406440509930903,0.004554469905496571,-0.0076372590336071106,0.0036859399862752508,0.9934331472102111
2013-12-27,1,0.00369646184388366,0.004102624462677365,-0.0076372590336071106,0.0037605201201057342,0.9932775990012801
2013-12-31,1,0.0032598189349947195,0.0035666681765779825,-0.009453135808450945,0.003449869867011332,0.9921468278910315
2014-01-03,1,0.003125826420608912,0.003397024553883592,-0.010173014703671428,0.003449869867011332,0.9906203679431096
2014-01-07,1,0.002528601657540329,0.0027079599377994347,-0.010173014703671428,0.003858566691065007,0.9902885744182358
2014-01-09,1,0.001641690822293507,0.0016433392535561277,-0.010173014703671428,0.005658018395993088,0.990396108887647
2014-01-13,1,0.001071602919809151,0.0011448979788747531,-0.008632069607007761,0.005658018395993088,0.9906693082800522
2014-01-15,1,0.0006856322774702666,0.0008574369130755646,-0.008632069607007761,0.007164751805649988,0.9902851623822254
2014-01-17,1,0.0005193761617957714,0.0006850647716448884,-0.006645362670723991,0.007164751805649988,0.9905160781191632
2014-01-22,0,-0.00029043598929004086,2.987468244979388e-05,-0.006645362670723991,0.008508169463354401,0.990095514657901
2014-01-24,-1,-0.001372730518217104,-0.0009426590757115106,-0.003193798488161553,0.008980527128597137,0.9909705968803273
2014-01-28,-1,-0.0009659582718080117,-0.0006235251323601612,-0.0036008494966305094,0.008980527128597137,0.9908282639875208
2014-01-30,-1,-0.0020059933345756317,-0.0015356944672558868,-0.0024159093760347194,0.009985790499880217,0.9905760355260136
2014-02-03,-1,-0.0021014106463399986,-0.0016370971655957506,-0.0024159093760347194,0.008980527128597137,0.9921845434308045
2014-02-05,-1,-0.0016899947304500704,-0.0012893459821187168,-0.0036008494966305094,0.008335404877479113,0.9928391570776589
2014-02-07,-1,-0.0011011304997129955,-0.0007821704703102261,-0.004815892953673707,0.006272493955687271,0.9933872601418847
2014-02-11,-1,-0.001170419081795434,-0.0008707187243518398,-0.006341455789131792,0.006272493955687271,0.9931431834608787
2014-02-13,-1,-0.0005611818872341487,-0.0003225744874899492,-0.0068660990487907905,0.004727960830501953,0.9918898611479854
2014-02-18,-1,-0.0003257894699222021,-0.00011720657200485496,-0.0068660990487907905,0.006429946510768184,0.9911011992604388
2014-02-20,1,6.920664741014518e-05,0.00022096140674641117,-0.008270312361048793,0.004941508370197884,0.9908672831199428
2014-02-24,1,6.124390533832741e-05,0.00023097558997429513,-0.008270312361048793,0.0036984090464125333,0.9911429190640755
2014-02-26,-1,-0.0006580490428408513,-0.0004093252933048758,-0.0068660990487907905,0.0036984090464125333,0.9917945748823085
2014-02-28,0,-0.0002038112200810824,6.327415924549775e-06,-0.008270312361048793,0.001516450111095513,0.9919619781000364
2014-03-04,-1,-0.0013690163624755466,-0.0009461075894694811,-0.007039238443794309,0.003118439790732201,0.9911313417520106
2014-03-06,-1,-0.0016889866922298285,-0.0012646138909140196,-0.007039238443794309,0.003118439790732201,0.9910604083612666
2014-03-10,-1,-0.00174837112684921,-0.0013481216330743207,-0.0096756382364895,0.003118439790732201,0.9907157032684885
2014-03-12,-1,-0.0023445909439342213,-0.0018756667186227993,-0.0096756382364895,0.005945950401048613,0.9902190311717093
2014-03-14,-1,-0.003331750766602486,-0.0028243853134270356,-0.011416671519595287,0.005945950401048613,0.9905982611907228
2014-03-18,-1,-0.0023638745476541176,-0.001974198657610618,-0.011416671519595287,0.0036201139743955646,0.99134448327114
2014-03-20,-1,-0.0028969697626786872,-0.002433442658115872,-0.007561274753501424,0.008074060734572976,0.9902629336779003
2014-03-24,-1,-0.0021820667329947945,-0.0018491351677619365,-0.007561274753501424,0.008074060734572976,0.990298751233736
2014-03-26,-1,-0.0025772569771201842,-0.0021925179285439337,-0.004057184381810922,0.008074060734572976,0.9898301044954991
2014-03-28,-1,-0.003064769846102668,-0.002627282730756211,-0.0030939843320353213,0.008879968588753014,0.9894240273466383
2014-04-01,-1,-0.0015882067103784683,-0.0013229390445683256,-0.006758564207921541,0.005813850569250234,0.991772133403931
2014-04-03,-1,-0.0031002602182322297,-0.0025971501847185767,-0.006758564207921541,0.005813850569250234,0.9904203562290956
2014-04-07,-1,-0.0034017059071116277,-0.002893564822028746,-0.006758564207921541,0.005813850569250234,0.9905562474111449
2014-04-09,-1,-0.002295317183123739,-0.0019564647075911708,-0.00804881210331905,0.005813850569250234,0.9896555637250667
2014-04-11,-1,-0.003415773954405445,-0.0029650048129934046,-0.003985207846496338,0.00836732790631075,0.9896557783311448
2014-04-15,-1,-0.003212988010240424,-0.002760885088238502,-0.005942372791686033,0.007502500212693926,0.9900874244238803
2014-04-17,-1,-0.001689413157459256,-0.0014444194496118744,-0.006758564207921541,0.005530293888707209,0.9914314762108513
2014-04-22,-1,-0.0012723852730594843,-0.001085010507028247,-0.006758564207921541,0.004761940190171456,0.9916964788058285
2014-04-24,-1,-0.0009232363727889206,-0.0007851015564995785,-0.006758564207921541,0.004104011389564358,0.9917601464639467
2014-04-28,-1,-0.0012898135046825149,-0.001076591633518687,-0.005942372791686033,0.004104011389564358,0.9917200858469759
2014-04-30,-1,-0.0012129293219382145,-0.0010394794022016464,-0.005740940038316591,0.005889854993021971,0.9913936974237931
2014-05-02,-1,-0.0024192175356414934,-0.0021374444424613155,-0.0052411827517448925,0.005889854993021971,0.9932821718598285
2014-05-06,-1,-0.0026266112620566455,-0.0023414732558121923,-0.0052411827517448925,0.006710750010501636,0.9910767348833852
2014-05-08,-1,-0.0018739616083387148,-0.0016718925241903499,-0.004096233921288993,0.006710750010501636,0.9917982221127543
2014-05-12,-1,-0.0011337008971502513,-0.0010186796813220127,-0.004096233921288993,0.005889854993021971,0.992187697556503
2014-05-14,-1,-0.00048399054759587403,-0.000471835991626171,-0.005256286709360274,0.00481931944800815,0.991809534769447
2014-05-16,-1,-0.0008518717072174124,-0.000807644191577493,-0.0044437156173666,0.00481931944800815,0.9921876703063154
2014-05-20,-1,-0.0006979934882183115,-0.0006939413311585422,-0.0044437156173666,0.006474702464304668,0.9912786537851118
2014-05-22,-1,-0.0004950361747370394,-0.00045410277532952526,-0.0044437156173666,0.006474702464304668,0.9912736824914304
2014-05-27,1,6.715387169770276e-06,0.00013109481690580293,-0.005505781629170709,0.005896204666147373,0.9915430152935868
2014-05-29,1,9.716413846956861e-05,0.00023637113180882522,-0.004526880590636745,0.005370026961952791,0.9919529969962047
2014-06-02,-1,-0.00010566538950750097,-7.898467568068733e-06,-0.004526880590636745,0.005370026961952791,0.9920003790933304
2014-06-04,1,0.0010334031733148397,0.0012719559167097927,-0.004526880590636745,0.005370026961952791,0.993520912121446
2014-06-06,1,0.001774057443518743,0.0020970948526886296,-0.004526880590636745,0.005370026961952791,0.9938195286616583
2014-06-10,1,0.002369600388178934,0.002797296715302429,-0.004526880590636745,0.005719693194627371,0.9933245188703052
2014-06-12,1,0.0015052057148779619,0.0017979665949238472,-0.0034119938013861774,0.005719693194627371,0.9936957659961135
2014-06-16,1,0.001445888776665417,0.0017399149783641015,-0.0036934849298843487,0.005719693194627371,0.9936322687150627
2014-06-18,1,0.001694292660061025,0.0019623156453532275,-0.005371353976131258,0.0025487806760794737,0.9936111318006969
2014-06-20,1,0.0018398926847587975,0.002127518659335666,-0.005654121047758188,0.0025487806760794737,0.9931312480343787
2014-06-24,1,0.0009360481833397515,0.0010567820186897173,-0.0036934849298843487,0.003950763814829139,0.9935386028995098
2014-06-26,1,0.0007398700046266469,0.0008244440216526905,-0.00561318348871608,0.008654654323769143,0.9925511224137535
2014-06-30,1,0.0009803551569309823,0.0011133861598103035,-0.007412095148649888,0.008654654323769143,0.9918165670229026
2014-07-02,1,0.0013560019336356249,0.0015687831792308956,-0.00561318348871608,0.01052562101340946,0.9905255285779242
2014-07-07,1,0.0017542404762788057,0.0020008716558662302,-0.00561318348871608,0.01052562101340946,0.9900325643804981
2014-07-09,1,0.002762619733122946,0.0031862313637681097,-0.007195069557805283,0.008654654323769143,0.9896320983973418
2014-07-11,1,0.0023972525292651837,0.0027894354145576008,-0.00561318348871608,0.01052562101340946,0.9899884438112847
2014-07-15,1,0.0023692926322039258,0.002778066755042924,-0.007195069557805283,0.01052562101340946,0.9896804600911173
2014-07-17,1,0.002026773037789542,0.0024076228049169797,-0.0034202298748608672,0.011503882238933227,0.9899333826113049
2014-07-21,1,0.0017579988383297118,0.0020657309317516854,-0.0033929811709648124,0.011503882238933227,0.9898246147603478
2014-07-23,1,0.0024092407548015277,0.002843684361942215,-0.004690781163397877,0.011435605090310504,0.9899636042430064
2014-07-25,1,0.002272570175930257,0.0026832403036698314,-0.0028663699687879606,0.011220721952573356,0.9906918067797339
2014-07-29,1,0.001455166734747302,0.0017226591879546524,-0.0030416385508560536,0.011220721952573356,0.9909352622200506
2014-07-31,1,0.003066165977941941,0.003527203826056045,-0.003054769027271459,0.006440875195257701,0.9925008915985621
2014-08-04,1,0.0035054859410188917,0.0039949225749379095,-0.003054769027271459,0.006440875195257701,0.9931955056836581
2014-08-06,1,0.002063631220286235,0.0022595705653360174,-0.0026718382395395316,0.008733900814886323,0.9938937979714384
2014-08-08,1,0.0030488254202246322,0.0034177686136904963,-0.0026718382395395316,0.006440875195257701,0.9943143528063139
2014-08-12,1,0.0023115336543251515,0.0025595005479163136,-0.002417113731714134,0.006440875195257701,0.9950190027514931
2014-08-14,1,0.0027147013215040395,0.0030201407128286426,-0.0026718382395395316,0.004056687600329591,0.9953531362122852
2014-08-18,1,0.0025685593514415805,0.002832743102743833,-0.002417113731714134,0.004056687600329591,0.9960138442268657
2014-08-20,1,0.002036790418053127,0.002196064549861727,-0.002113129750337168,0.004056687600329591,0.99622940583746
2014-08-22,1,0.0028063043238272184,0.003139674728125574,-0.002113129750337168,0.004056687600329591,0.9960703339442475
2014-08-26,1,0.0019424704770675777,0.002120109174750271,-0.001379489661583458,0.004056687600329591,0.9963840024022756
2014-08-28,1,0.0015997874656783042,0.001697420917761352,-0.001379489661583458,0.0030947740452577288,0.9958854495460375
2014-09-02,1,0.0021124584743036187,0.002301041382156629,-0.002113129750337168,0.0030947740452577288,0.9956770835944041
2014-09-04,1,0.001823063902420674,0.0018969768586549942,-0.0024746650616565696,0.0024658541039494133,0.9954695003167576
2014-09-08,1,0.0019332273224443928,0.0020362997659873123,-0.002254130307730802,0.0024658541039494133,0.9945601165392172
2014-09-10,1,0.0022510547232362107,0.0024499349409517275,-0.003191575581358563,0.0036090613541216684,0.9932862028576348
2014-09-12,1,0.002201726729048205,0.0024033208550837864,-0.007079364794419369,0.0036090613541216684,0.9921164067660646
2014-09-16,1,0.0024347531654815625,0.0026745449723750837,-0.01004446997956848,0.0015764743777920895,0.9908195316089388
2014-09-18,1,0.0023643154928426917,0.0025883362184758235,-0.011815798228760912,0.0018909103611425364,0.9895543632368025
2014-09-22,1,0.002498181803832094,0.002718105650051302,-0.011815798228760912,0.004414412754509374,0.9877017457168493
2014-09-24,1,0.0013078965306575158,0.001333525777472078,-0.014576205384478461,0.009273424432732191,0.9866029121703882
2014-09-26,1,0.0002519139129246202,0.00043086384806991656,-0.01225880806526749,0.011627249822147401,0.9864195664621228
2014-09-30,1,0.0006857354137681823,0.000789102178202132,-0.01225880806526749,0.011627249822147401,0.9865727071699967
2014-10-02,1,0.0005042029356856339,0.00060127658010531,-0.008627794562703642,0.011627249822147401,0.9868735924246685
2014-10-06,1,0.0010962676877227522,0.0011295136741966303,-0.016317419770150176,0.011627249822147401,0.9846533965931061
2014-10-08,1,0.00048624996503504283,0.0006081483923605556,-0.009264242155016882,0.012077515751910675,0.9848262505427371
2014-10-10,-1,-0.0008398592609292681,-0.0005454286915727295,-0.0034754196515617225,0.012077515751910675,0.9856628629204542
2014-10-14,-1,-0.0018363077468559303,-0.0014235973959369353,-0.0022798789814551064,0.012077515751910675,0.9862944822456305
2014-10-16,-1,-0.002745698071320504,-0.0022420119345979723,-0.0022798789814551064,0.012077515751910675,0.9866305950362825
2014-10-20,-1,-0.0009433773270216644,-0.00064648947583165,-0.0022798789814551064,0.012077515751910675,0.9887674642935159
2014-10-22,-1,-0.0008096493850596368,-0.0005132395088467228,-0.0022798789814551064,0.00875029435446692,0.9905822184255026
2014-10-24,1,0.0007268286476387437,0.0007930966237096153,-0.0022798789814551064,0.007266382583266177,0.9914673492309479
2014-10-28,1,0.0013004055357383028,0.0013477161542000586,-0.002695364968370988,0.006674985047812991,0.9913617175708628
2014-10-30,1,0.0012113124821730224,0.0012638529927236097,-0.0020576880350104184,0.007627356098126366,0.9912611538506824
2014-11-03,-1,-0.00027333918133965374,-0.00010625815510546712,-0.0020576880350104184,0.006674985047812991,0.9937620163230411
2014-11-05,1,2.05458273994948e-06,0.00015016094660639574,-0.0020385113795468868,0.006674985047812991,0.9945741684062397
2014-11-07,1,0.0006895054857683715,0.0007201993495542515,-0.0020385113795468868,0.007627356098126366,0.9943320039752248
2014-11-11,1,0.0007363408536334019,0.0007551279053130529,-0.004470453577068802,0.007627356098126366,0.993196621496456
2014-11-13,1,0.0002852202647690869,0.0003880246125300758,-0.00656475393871125,0.005648616761165397,0.9920507270057444
2014-11-17,1,0.0008794974321652461,0.0009195306069978201,-0.00656475393871125,0.005202167304994457,0.992821827581868
2014-11-19,1,0.0007609237251758712,0.0008215025634296348,-0.00656475393871125,0.007829836759930021,0.9901055060990336
2014-11-21,1,0.0010456462052444355,0.0010736435877201468,-0.00656475393871125,0.008897044032275862,0.9897126396966714
2014-11-25,1,0.0012213865210264634,0.0012447944333878339,-0.004886940768894769,0.009042929191436658,0.9898281179021803
2014-11-28,1,0.0018541757822294004,0.001994645446382927,-0.004886940768894769,0.009471033709555661,0.9898368502603437
2014-12-02,1,0.001153083709265187,0.0011625726018750294,-0.004843868237058497,0.009471033709555661,0.989778593980231
2014-12-04,1,0.0010402278127145644,0.0010633219709845012,-0.008680692961230151,0.009471033709555661,0.9894415707800632
2014-12-08,1,0.0011101567709610853,0.00115710345278708,-0.011315021736645278,0.009042929191436658,0.9889733132512102
2014-12-10,1,4.1015719790367324e-05,0.00021705448663483258,-0.008502879379353886,0.009471033709555661,0.9886417960654237
2014-12-12,-1,-0.0014573290865696035,-0.0011175301717889702,-0.004914158599376642,0.009471033709555661,0.9896888256550107
2014-12-16,-1,-0.0015064152498339195,-0.0011514672202638141,-0.004914158599376642,0.009471033709555661,0.9896099490268562
2014-12-18,1,0.0005213241714793386,0.0006749330283789853,-0.005636920070283219,0.009042929191436658,0.9924332745754447
2014-12-22,1,0.002122042995325895,0.0022672391230635866,-0.005636920070283219,0.007548600532838,0.9924174342550993
2014-12-24,1,0.0026889888736336106,0.002951538666231929,-0.006482367492709408,0.007548600532838,0.9911092778299376
2014-12-29,1,0.002549892374614497,0.002765061705101001,-0.008502879379353886,0.006230955278374479,0.9903582206818583
2014-12-31,1,0.002504680324863744,0.0027504645361856577,-0.010831435917748716,0.007548600532838,0.9887024447611266
2015-01-05,1,0.0015692737965440613,0.001656639715823215,-0.006769333428056736,0.011203525276915531,0.9882824417146893
2015-01-07,1,0.0012891837282075253,0.0013634432132508788,-0.006769333428056736,0.011203525276915531,0.9884229113060407
2015-01-09,1,0.0016733207211832076,0.0018011231137153028,-0.0064299620534850905,0.009468177185050773,0.989589003002154
2015-01-13,1,0.0015518824892496353,0.0016500830678146802,-0.0064299620534850905,0.011428741757188582,0.9889631868793916
2015-01-15,1,0.0018060382939927627,0.0019483564987019617,-0.0064299620534850905,0.014663562238545588,0.9882061023137999
2015-01-20,1,0.001592990158594108,0.0016758166371438662,-0.006255205708623646,0.014663562238545588,0.9882837158269835
2015-01-22,1,0.0016492434884308516,0.0017400707415779534,-0.00964349404587422,0.014663562238545588,0.9880454757394461
2015-01-26,1,0.0016820092961091094,0.0017964755313652637,-0.005115853340401974,0.011428741757188582,0.9892509816576928
2015-01-28,1,0.0011242476357219253,0.0011892715622514546,-0.004570252245817331,0.011428741757188582,0.9898135043943659
2015-01-30,1,0.0006839997740489282,0.0006889741161064793,-0.004570252245817331,0.009461626369719835,0.9912250858926507
2015-02-03,1,0.0017301860507839212,0.0018675910266953745,-0.0071028002336670825,0.008454914442074708,0.9920420703944345
2015-02-05,1,0.0014284544879262931,0.0015178320278534303,-0.0071028002336670825,0.008454914442074708,0.9916941279952921
2015-02-09,1,0.0011848485206242538,0.0012544492919352654,-0.0071028002336670825,0.008454914442074708,0.9910991857434184
2015-02-11,1,0.001984208085218156,0.002153460174012719,-0.0071028002336670825,0.008199568247413459,0.9912701567828645
2015-02-13,1,0.0028732829957245597,0.0031815223931761887,-0.0071028002336670825,0.007911945952506825,0.9916708448645657
2015-02-18,1,0.0031683732161491077,0.003494525546563142,-0.0071028002336670825,0.007383154941193391,0.9912878206068874
2015-02-20,1,0.002657216016561678,0.0028806538108408566,-0.006675093451195615,0.0074736767219957725,0.9915296487330113
2015-02-24,1,0.002335093361642569,0.0025235337219894913,-0.006675093451195615,0.0074736767219957725,0.9914888182692636
2015-02-26,1,0.0017640145785878078,0.0018485334785261925,-0.006749811902119855,0.0074736767219957725,0.9913924720145538
2015-03-02,1,0.0020333605946295137,0.0021912783369706272,-0.006548763413214395,0.0076441606024344935,0.9917642723960174
2015-03-04,1,0.001268400743916341,0.0013078485694783524,-0.005188096411619722,0.010007607612386886,0.9909986141134263
2015-03-06,1,3.671251095163522e-05,0.00019884901044494755,-0.004228785510051089,0.010085026147690227,0.9916276083350603
2015-03-10,-1,-0.001231054052213051,-0.0008707351685924491,-0.004228785510051089,0.010085026147690227,0.992164478656004
2015-03-12,-1,-0.0016059691238246097,-0.0011509127089029839,-0.003131451608581989,0.009870393824467872,0.9930477899168598
2015-03-16,0,-9.099223968772109e-05,9.780481705303347e-05,-0.0046813781482716674,0.006801601880646544,0.9931312579089571
2015-03-18,1,0.0004130260874297163,0.0005271811670016912,-0.006750891067912467,0.0029775024101981063,0.9933912617331916
2015-03-20,1,0.0010908800799655127,0.0010970263818969208,-0.007543126712725031,0.0029775024101981063,0.992709673068764
2015-03-24,1,0.0007516386939954202,0.0007786115815095016,-0.007543126712725031,0.006744944688835613,0.9928737381233526
2015-03-26,1,0.00013864447729470235,0.0002494983309529272,-0.0035330199073199476,0.006744944688835613,0.9932399371361053
2015-03-30,0,-0.0001253984768318045,6.792659548507721e-05,-0.00601916141184017,0.003907143483610056,0.9934080306636578
2015-04-01,1,0.000499576990813582,0.0006032738732163322,-0.007764314989089397,0.0017606958255723902,0.9935545249391885
2015-04-06,1,0.0009937686980080818,0.001013943302632356,-0.008678402177159308,0.0006926175183978231,0.9915667102715054
2015-04-08,1,0.0004126939161626287,0.0005023658433389273,-0.007764314989089397,0.0006926175183978231,0.9920881686304485
2015-04-10,1,0.00024244272922663269,0.000361545792682676,-0.007764314989089397,0.004899223118174013,0.9908229068925739
2015-04-14,1,0.0001631141412286393,0.00025764069040729314,-0.00591570541737542,0.004899223118174013,0.9911287267731513
2015-04-16,-1,-0.0002588042512721459,-0.00010972597445318809,-0.00591570541737542,0.009745040866073551,0.9905653209103444
2015-04-20,-1,-0.00034470034544209754,-0.00019917786992585057,-0.005176635907584302,0.004899223118174013,0.991644481661911
2015-04-22,0,-0.00011649617192627883,7.898078303295432e-06,-0.005176635907584302,0.0039060889707451343,0.9916159626648886
2015-04-24,1,5.354717057171548e-05,0.00014269134160055643,-0.005176635907584302,0.004807112431030325,0.9914010191776665
2015-04-28,-1,-0.0005679647291706446,-0.0003881286425322317,-0.005758353766667377,0.0071581499644511725,0.9907548403336272
2015-04-30,-1,-0.0014978043433101567,-0.0012147433767151264,-0.004635922662666779,0.0071581499644511725,0.9916510993513798
2015-05-04,-1,-0.00024383383452017963,-0.00013181017502956728,-0.004300189479376828,0.004807112431030325,0.993765473093481
2015-05-06,-1,-0.0011132077930051936,-0.0008605649815247861,-0.004229158362112314,0.0071581499644511725,0.9933852865499905
2015-05-08,-1,-0.0009615087241390376,-0.0006557501593969461,-0.004229158362112314,0.004121814749176543,0.9946704304954179
2015-05-12,-1,-0.0011791245702203823,-0.0008488371940679877,-0.0036707057457428327,0.0058669854891746556,0.993725887526631
2015-05-14,1,0.00014409562381030504,0.0002085011499869227,-0.00331085961285136,0.004807112431030325,0.9944279723250207
2015-05-18,1,0.0004092758375352142,0.0004155566316864283,-0.0036707057457428327,0.0058669854891746556,0.9933097243641382
2015-05-20,1,0.0005698470969853289,0.0005999866823466144,-0.00331085961285136,0.007092493550449661,0.993249138867877
2015-05-22,1,0.000679760761836333,0.000739568443741123,-0.0026312705632010503,0.007092493550449661,0.9935390957951885
2015-05-27,1,0.00044329326212369855,0.000455803645538336,-0.0031546343200582125,0.004659166766423061,0.9942934756330152
2015-05-29,-1,-0.00031724193196140584,-0.00021021146014027096,-0.0025986600188576906,0.004659166766423061,0.9945211089889208
2015-06-02,-1,-0.0005390040929693571,-0.0003862970292386556,-0.0032130279798212808,0.007092493550449661,0.9933483133660711
2015-06-04,1,7.984922346794882e-05,0.0001413465686415418,-0.00357815278740673,0.005204261365199048,0.9935181822241813
2015-06-08,1,6.664835508121941e-05,0.00012989598599979797,-0.003966909034263729,0.006943136953862102,0.993074999625359
2015-06-10,1,0.0007865860333993056,0.0008205829013146248,-0.005060518114372738,0.005441989630101858,0.9931498022883877
2015-06-12,1,0.0008420722700404793,0.0008873482529865137,-0.005060518114372738,0.009255901567247815,0.9914330450862854
2015-06-16,1,0.0008014539912965752,0.000845010460140496,-0.0062441568071756595,0.007656321748570533,0.9919130682094405
2015-06-18,1,0.0010736799841463097,0.0011465543128042419,-0.0073410828444295684,0.005441989630101858,0.9919479783416598
2015-06-22,1,0.0008118896995883807,0.0008151538104715323,-0.0073410828444295684,0.0072372930653698,0.9916033497335461
2015-06-24,1,0.00022668246252238885,0.00031160550210024957,-0.0073410828444295684,0.0072372930653698,0.9920673760183265
2015-06-26,1,0.0006295230716188794,0.0006417069619939043,-0.008321914061300825,0.0072372930653698,0.9912520864604621
2015-06-30,1,0.0002811026251994486,0.0003196860861969616,-0.0075435548440625005,0.00784945892105806,0.991233663306446
2015-07-02,0,-9.303785256806711e-05,8.178337137874111e-06,-0.0073410828444295684,0.00996195916086965,0.9907975040715786
2015-07-07,1,0.0003960219032793208,0.0003968353506285877,-0.0062556712464320015,0.00996195916086965,0.9910237157892036
2015-07-09,1,0.000522646487640862,0.0005754560783773096,-0.0062556712464320015,0.00996195916086965,0.9911009799995292
2015-07-13,1,0.0019545335113568918,0.0022225013864083064,-0.0062556712464320015,0.00911484223738547,0.9928684197435774
2015-07-15,1,0.0014493795651947011,0.0016447562937543345,-0.0065335856024203625,0.00911484223738547,0.9926672926046374
2015-07-17,1,0.0011688752738677108,0.001313574214458229,-0.0035261209568545676,0.00911484223738547,0.9925919032013092
2015-07-21,1,0.0011696116851211396,0.0013009745749435276,-0.0015632263539569046,0.009986045767407654,0.9921180990591858
2015-07-23,1,0.0011760267854843231,0.001309310138928297,-0.008021903663783976,0.009986045767407654,0.9906490845640126
2015-07-27,1,0.00043204560724881215,0.00043359191501235857,-0.008484003881232542,0.009986045767407654,0.9876518373570876
2015-07-29,1,0.0007499664719219351,0.0007851116802250796,-0.011748161287292662,0.009986045767407654,0.9863768513579995
2015-07-31,1,0.0010473888363969532,0.0010971463308855813,-0.011748161287292662,0.009157064190584733,0.9861652182464963
2015-08-04,1,0.0013910878589874854,0.0014997721729088178,-0.014881893363711674,0.009986045767407654,0.9844961824102567
2015-08-06,1,0.0010483138303478605,0.0011335969254468857,-0.011748161287292662,0.010889447547201139,0.9841356146417651
2015-08-10,1,0.0012476724583065262,0.0013734099082204389,-0.011748161287292662,0.011178393282125242,0.982229610653302
2015-08-12,1,0.0009909937347991225,0.0010878070259029628,-0.01566429727762505,0.011178393282125242,0.9814554292668116
2015-08-14,1,0.0011413367447322036,0.0012426406233387957,-0.01566429727762505,0.011178393282125242,0.9812168985571168
2015-08-18,1,0.0014267110052053967,0.0015488547670115353,-0.01566429727762505,0.01023219100107742,0.9814949653187234
2015-08-20,1,0.0008614519456766858,0.0009225272441653233,-0.01551956474852568,0.01023219100107742,0.98189566032643
2015-08-24,-1,-0.0008595446784114767,-0.0007288120384574923,-0.008804224403662545,0.01023219100107742,0.9846195305100748
2015-08-26,1,5.747789433799009e-06,1.6974878721011825e-05,-0.009755808279163006,0.009589731445266167,0.986130828235669
2015-08-28,1,0.0001819330323662247,0.00018866946538255482,-0.014919775309715107,0.009045309030626648,0.9853917318528981
2015-09-01,-1,-0.00042575763770847123,-0.00034516433307353253,-0.014568683782834838,0.009045309030626648,0.9854024201049975
2015-09-03,1,0.00015361414459840426,0.0001806077131447607,-0.014568683782834838,0.008329858615730679,0.9857328119154565
2015-09-08,1,0.0009049589507520834,0.0009601248600894652,-0.016053910882304873,0.008329858615730679,0.9861496562441291
2015-09-10,0,-4.304769241464886e-05,2.8765757141103082e-05,-0.01414356644451046,0.011063217185565216,0.9861106974534058
2015-09-14,1,0.00011554667780415068,0.0001590693179086194,-0.01414356644451046,0.011063217185565216,0.9862941570590875
2015-09-16,1,0.00047868049351981946,0.0004801192497063839,-0.01414356644451046,0.009608292081182662,0.9866159794474502
2015-09-18,-1,-0.00027839406030034,-0.00017465786577871537,-0.009755808279163006,0.010723647860745906,0.9870582988187114
2015-09-22,-1,-0.001203946796807462,-0.0009534888745437392,-0.007226211465867118,0.010723647860745906,0.9877611151059498
2015-09-24,-1,-0.0014367758383886755,-0.0011917123721383602,-0.004881985154471748,0.013748314494290538,0.9878528795001565
2015-09-28,-1,-0.002471146266859778,-0.0020917501647820472,-0.0038263799995118322,0.013748314494290538,0.9889257657182207
2015-09-30,-1,-0.0015909832759613057,-0.001356137234252867,-0.0031296495744929454,0.011340695147120584,0.9907460785713401
2015-10-02,-1,-0.0010772001558299292,-0.0008956450936473265,-0.004881985154471748,0.010341690367453745,0.9907144561381749
2015-10-06,-1,-0.0007985613567112756,-0.0006542858803368202,-0.0038263799995118322,0.010341690367453745,0.9908262739630891
2015-10-08,1,0.0001296355783141933,0.0001673175381275286,-0.0038263799995118322,0.008219502921850011,0.9925444905738267
2015-10-12,1,0.0001788755989439818,0.00021084049810802413,-0.0039936797019554235,0.00919891915691383,0.9922086260689329
2015-10-14,0,-1.3173849735806706e-05,4.28425568528727e-05,-0.0031296495744929454,0.009633272607874,0.9913216876510575
2015-10-16,1,0.00019311646587999302,0.00022845664344702178,-0.00655393806552484,0.009402641007010146,0.9893193556718138
2015-10-20,-1,-0.00026918843627600356,-0.00015966515818911325,-0.005163733505677741,0.010341690367453745,0.9888776466785576
2015-10-22,0,-2.5403338899350383e-05,5.5467381229163434e-05,-0.005407150291406199,0.010341690367453745,0.988773568764161
2015-10-26,1,0.0004475543700001848,0.0004572255952321741,-0.005407150291406199,0.010706701106395803,0.9884181649806413
2015-10-28,1,0.000587045558812212,0.00059249784791867,-0.005407150291406199,0.009573147327370595,0.9888083335879817
2015-10-30,1,5.342760860610338e-05,8.215718069941606e-05,-0.0020344511474059486,0.009573147327370595,0.9901553014777327
2015-11-03,1,0.0009615943641448318,0.0010494313910682622,-0.0034810118270250595,0.009573147327370595,0.9901613019839601
2015-11-05,1,0.0008169582561920812,0.0008808404366625214,-0.005433502613981574,0.011475080530071553,0.9882883944469248
2015-11-09,1,0.0010395577073363826,0.0011465146105530573,-0.007115215736082425,0.013697469310678797,0.9844424161691229
2015-11-11,1,0.0018581302498412479,0.002078787786199051,-0.011093104661904423,0.013602525786031678,0.9845021001289863
2015-11-13,1,0.0001522118444114993,0.00017460460449753105,-0.011573316342191688,0.013602525786031678,0.9815222391078631
2015-11-17,1,0.0005509414974828135,0.000576746296214179,-0.011573316342191688,0.016328475714960655,0.9790038281213491
2015-11-19,1,0.0007162354950232183,0.0007503643613840797,-0.011573316342191688,0.0160436451410193,0.9793788280988092
2015-11-23,1,0.0010961780591427902,0.0011703313920664823,-0.011573316342191688,0.0160436451410193,0.9796647743105018
2015-11-25,1,0.0009065566434893846,0.0009547290105160352,-0.015885686237205123,0.0160436451410193,0.9790286591981331
2015-11-30,1,0.0007983717194961657,0.0008157554217591745,-0.015885686237205123,0.017828531985224643,0.978105816694317
2015-12-02,1,0.001386446049929877,0.001554761574757924,-0.012034118246192209,0.01564227002111249,0.9789868356313839
2015-12-04,1,0.0012426681186130527,0.001365675251064171,-0.011936772253193319,0.009419001181579463,0.9801809661139442
2015-12-08,1,0.002486537635073118,0.002760922911559906,-0.014616474345094901,0.0033954567064576,0.9808349205288712
2015-12-10,1,0.002617714007157028,0.0029135566488882954,-0.01707030514443062,0.00015793220415986686,0.9804870251313265
2015-12-14,-1,-0.000736636020019694,-0.0006065510223520186,-0.014616474345094901,0.0033954567064576,0.9842401020153367
2015-12-16,1,0.0011222962995517686,0.0011784534974160269,-0.014616474345094901,-0.0006865093331565948,0.9856420303234367
2015-12-18,1,0.0011894933428111712,0.0013016888851734509,-0.01707030514443062,-0.0006865093331565948,0.984720899869864
2015-12-22,1,0.001319926442883966,0.0014901407004954616,-0.01707030514443062,0.00046881814741387,0.9840849850126558
2015-12-24,1,0.0009337045366907174,0.0010769845477900742,-0.01677826716543395,0.005131596580012848,0.9837921142477039
2015-12-29,1,0.001113266582640718,0.001252544050159827,-0.023928547503591278,0.005131596580012848,0.9829501068833231
2015-12-31,1,0.0011637631247591567,0.0013269835485359915,-0.023928547503591278,0.006870749819560368,0.9820456936007274
2016-01-05,1,0.0003634119756464124,0.000386964709270278,-0.02707872285356549,0.006870749819560368,0.979379104706109
2016-01-07,-1,-0.0018918443798298288,-0.0016727062010487644,-0.02552971513099419,0.011206794616786796,0.9799952216965112
2016-01-11,-1,-0.0022684201890975117,-0.002046860794517946,-0.02707872285356549,0.011206794616786796,0.9782198485233999
2016-01-13,-1,-0.003981935510366868,-0.0035140060813543808,-0.02707872285356549,0.011644763057851656,0.9791145992459442
2016-01-15,-1,-0.006605959075317361,-0.005696726381405891,-0.02707872285356549,0.02328818842768573,0.9758361766445467
2016-01-20,-1,-0.0070535666016361374,-0.006141085398193264,-0.02707872285356549,0.028836637981063548,0.9740943664403681
2016-01-22,-1,-0.005623972410577806,-0.004912257393813919,-0.02707872285356549,0.028836637981063548,0.974923160239783
2016-01-26,-1,-0.004892631614491466,-0.00422570431121373,-0.02707872285356549,0.020758374070663076,0.9770486392234213
2016-01-28,-1,-0.004791076362187947,-0.00419648020413583,-0.011568843384216085,0.02347105032647235,0.9771618789976652
2016-02-01,-1,-0.0022737788054419577,-0.002048642736977883,-0.01964625893897956,0.02347105032647235,0.9771960279897387
2016-02-03,-1,-0.005745818458789724,-0.00505704424504035,-0.0041489438936070655,0.025674971239171965,0.9768545852425755
2016-02-05,-1,-0.005287229635649678,-0.004661377822951817,-0.006540058626412067,0.02185952173080713,0.9786608070589722
2016-02-09,-1,-0.007063012648316962,-0.006266628095813176,-0.006540058626412067,0.02547650761900184,0.9783810731794154
2016-02-11,-1,-0.007943322447902641,-0.0070125059152562185,-0.0041489438936070655,0.02991416616565725,0.977980462308045
2016-02-16,-1,-0.005478673242882987,-0.004811744959090008,-0.0041489438936070655,0.02185952173080713,0.9821380838574153
2016-02-18,-1,-0.004268972531812631,-0.0037034372368315886,-0.0041489438936070655,0.020467307785337556,0.9832069528667305
2016-02-22,-1,-0.004270134314601076,-0.003648313651851633,-0.0041489438936070655,0.020467307785337556,0.98341815292251
2016-02-24,-1,-0.004379180143022033,-0.0037682739900392363,-0.0019809977989333778,0.020467307785337556,0.9831581808717375
2016-02-26,-1,-0.0028167978788992644,-0.0024327247112271447,-0.002954591234670427,0.019545541937710534,0.9841763251861075
2016-03-01,-1,-0.0016725394805131655,-0.0014396356501853807,-0.002954591234670427,0.019545541937710534,0.9854044258176814
2016-03-03,1,0.0008534286907558126,0.0010026551079714621,-0.002954591234670427,0.019149827009511903,0.9867358239489847
2016-03-07,-1,-0.0005875411141396347,-0.0005581874555178621,-0.002902751918968225,0.019149827009511903,0.9875646940287404
2016-03-09,-1,-0.00034853949097284596,-0.0003388843365374495,-0.0033334542263142183,0.013135023908818225,0.9891655773027104
2016-03-11,1,0.001108000983851929,0.0013161714590697617,-0.0033334542263142183,0.008944617614673078,0.9909485230581986
2016-03-15,1,0.0011509458272891742,0.001348061608837887,-0.0033334542263142183,0.012583795302894234,0.990296477226347
2016-03-17,1,0.002403257521520788,0.0027866329441804316,-0.00400441510746966,0.0053680078069341984,0.9908938531292354
2016-03-21,1,0.003054948131051385,0.003548192977381517,-0.00400441510746966,0.005308689916316559,0.9904256572174991
2016-03-23,1,0.003117875074106193,0.0036355161698652886,-0.004357344736354934,0.005308689916316559,0.9900616436027746
2016-03-28,1,0.003146058150337514,0.0036008604468251754,-0.005982163443262762,0.0016490518700765823,0.9902682871413125
2016-03-30,1,0.0042699161257038504,0.004951410852192797,-0.004357344736354934,0.0033899012157013594,0.991334062021143
2016-04-01,1,0.004963404688144439,0.005724924764482198,-0.005982163443262762,0.0033899012157013594,0.988743240250729
2016-04-05,1,0.004095160703171537,0.004732846689287669,-0.005982163443262762,0.005028052150422694,0.9881941281942478
2016-04-07,1,0.0038570348804678996,0.004517663750860072,-0.0037461075305797917,0.005682186822878927,0.9896048335728223
2016-04-11,1,0.002821387555909337,0.0032370994137421337,-0.0037461075305797917,0.008892996620649168,0.9895803161561832
2016-04-13,1,0.00369386492732405,0.004258952419516698,-0.005982163443262762,0.008892996620649168,0.9881032507674622
2016-04-15,1,0.0036923984492383943,0.004279406250163841,-0.005982163443262762,0.008892996620649168,0.9874261009428164
2016-04-19,1,0.00441461545707854,0.0051342337687124845,-0.007704802036454737,0.00832936797722244,0.9868874488035762
2016-04-21,1,0.004015413537849505,0.004671720675707957,-0.008294544604407894,0.00832936797722244,0.9870810004276691
2016-04-25,1,0.0037107503871212097,0.004331594953349907,-0.008294544604407894,0.00832936797722244,0.9876465560477957
2016-04-27,1,0.0041124884474740935,0.004786094728048439,-0.008294544604407894,0.008526788723304908,0.9873683259640523
2016-04-29,1,0.0049426495883815955,0.005734424731443996,-0.004506268839748187,0.0077802580072058435,0.9901674289857072
2016-05-03,1,0.00629273243550316,0.007351624267402004,-0.0019346625501504926,0.005683612564914083,0.9915176441363618
2016-05-05,1,0.0066121657118106076,0.007725163077611488,-0.0019346625501504926,0.005683612564914083,0.9910660157472228
2016-05-09,1,0.0056197693401733445,0.006382705870146704,-0.0019346625501504926,0.005683612564914083,0.9914842514118803
2016-05-11,1,0.007121583200529512,0.00822436823603214,-0.0009914281309327927,0.0032721974671051737,0.9921152872372965
2016-05-13,1,0.006188029161298642,0.007141883464353193,-0.0019346625501504926,0.00310011535368067,0.9924633293074225
2016-05-17,1,0.006011176862777275,0.006925441070333075,-0.0009914281309327927,0.005502884950675732,0.9934166161537092
2016-05-19,1,0.00533398765346558,0.006116411284646539,-0.0009914281309327927,0.005752452671604938,0.993993182245284
2016-05-23,1,0.0057015963649645705,0.006558259191045737,-0.001613550711987783,0.005115726153246237,0.9937197924602755
2016-05-25,1,0.0058082524504930975,0.006667547691886273,-0.001613550711987783,0.005115726153246237,0.9932494832548027
2016-05-27,1,0.005048562154577287,0.005768838342971315,-0.002689962204136141,0.005115726153246237,0.9893740865336089
2016-06-01,1,0.0038036790585252115,0.004211571429590735,-0.002689962204136141,0.0072661672502291694,0.9875898791722308
2016-06-03,1,0.00315487539940733,0.003422837649754303,-0.002689962204136141,0.010056958283703859,0.9873226791450368
2016-06-07,1,0.0028323188213589603,0.002991234546445787,-0.0052370922128581136,0.0072661672502291694,0.9870648661005419
2016-06-09,1,0.0022719884223242784,0.002303932713880236,-0.0052370922128581136,0.010056958283703859,0.9863032406673355
2016-06-13,1,0.0005009481134546522,0.0007273359283676075,-0.0029244281865668936,0.014619500992549814,0.9864658876317483
2016-06-15,1,0.0011795475089878523,0.0012923086326574926,-0.005767547142144229,0.014619500992549814,0.9865356161710277
2016-06-17,1,0.0014610368959668146,0.0014983146506844344,-0.005767547142144229,0.014619500992549814,0.9865744180954712
2016-06-21,1,0.0009376805037748864,0.0010736556602786804,-0.0058147314222123814,0.01534170937565839,0.9858984912929127
2016-06-23,1,0.0019815863674897795,0.0020349023755896235,-0.0058147314222123814,0.014619500992549814,0.9860423775205011
2016-06-27,-1,-0.002488519230205456,-0.001896395977275342,-0.005210375208840594,0.014619500992549814,0.9898610004833837
2016-06-29,-1,-0.0006668830380498424,-0.00029741704072882734,-0.005541730025219906,0.008565328692956266,0.9925797469283654
2016-07-01,-1,-0.0013274836795617857,-0.0008252651789839795,-0.005541730025219906,0.01263771471194822,0.9890976484317741
2016-07-06,-1,-0.0023354768279515766,-0.0016677311072561384,-0.005541730025219906,0.01263771471194822,0.9897109442998131
2016-07-08,-1,-0.0010550091065761639,-0.0006330533694181935,-0.005541730025219906,0.009628057222566499,0.9898437063572026
2016-07-12,-1,-0.0003725535839938104,-8.245168193036427e-05,-0.0052261033021966455,0.007926264212055415,0.9903271548966243
2016-07-14,-1,-0.0006771964287979822,-0.00036225571012075833,-0.004298863707164094,0.007926264212055415,0.9905109532638817
2016-07-18,-1,-0.0013031004743290892,-0.0008949317244895155,-0.0031590759382960046,0.007988310583565264,0.9902374404923666
2016-07-20,-1,-0.0008184976203254809,-0.0004935602312583812,-0.004298863707164094,0.007648586261736326,0.9906884227395064
2016-07-22,-1,-0.0005791908650459384,-0.00030728839077093434,-0.003852351770957786,0.007648586261736326,0.9910734678173548
2016-07-26,1,0.0002721131565190319,0.0003876870622928739,-0.003852351770957786,0.007648586261736326,0.9911293018572337
2016-07-28,-1,-0.0006021857180477401,-0.00033838934729430803,-0.003852351770957786,0.007648586261736326,0.9910337528269976
2016-08-01,1,0.0015113189933654407,0.0015218245872016434,-0.003852351770957786,0.0036660393143347226,0.9950034768037481
2016-08-03,1,0.001517194177650106,0.0015414358657324964,-0.004893142107343442,0.0036660393143347226,0.9946622418963689
2016-08-05,1,0.0015029497119263236,0.0015238221801812857,-0.004447240291106368,0.0036660393143347226,0.9950108848342535
2016-08-09,1,0.001790505977736515,0.0018866954713202353,-0.006905098166025233,0.0036660393143347226,0.9945270923356202
2016-08-11,1,0.0019568142373043505,0.0020809792641389387,-0.008261471851793508,0.0027695628584376757,0.9914902395618902
2016-08-15,1,0.0020022704614293145,0.002118419256101768,-0.008859878678277346,0.002672578898034873,0.9908671919584091
2016-08-17,1,0.0016125714618295095,0.001696625761941457,-0.007884426184401674,0.004018387615704736,0.9910465113208283
2016-08-19,1,0.001529368849418216,0.0016175406175630938,-0.007884426184401674,0.004018387615704736,0.9912127534929447
2016-08-23,1,0.0018562737270384167,0.0020216585303708973,-0.007884426184401674,0.006895306347426957,0.9906548353319417
2016-08-25,1,0.0012984463080980319,0.0013621207409525169,-0.007483059046709527,0.006895306347426957,0.9907329801901029
2016-08-29,1,0.0010283550850593343,0.001033294194452524,-0.007884426184401674,0.008082312653684025,0.9892057943312834
2016-08-31,1,0.00048024045535982813,0.000557572316194297,-0.007483059046709527,0.008082312653684025,0.989584139854872
2016-09-02,1,0.000805391477052144,0.0008289635547419712,-0.007636675444373265,0.008877812985876178,0.9889644001592834
2016-09-07,1,0.0006060629437913814,0.0006632761100323168,-0.008821847636776795,0.01001726774962038,0.9882546486833346
2016-09-09,-1,-0.0008114299393690988,-0.0006006623672702955,-0.007532764830349424,0.01001726774962038,0.9907074767399984
2016-09-13,-1,-0.0013887634335135273,-0.001096631701054614,-0.007798441738115289,0.01001726774962038,0.990356444020569
2016-09-15,-1,-0.0010629692326488151,-0.000796019386399057,-0.007798441738115289,0.012776568600645404,0.9897329041317058
2016-09-19,-1,-0.0008836742332876526,-0.0006449065677153724,-0.007798441738115289,0.012776568600645404,0.9897284419178487
2016-09-21,0,-4.996406501636295e-05,8.861818442133795e-05,-0.007798441738115289,0.006988179608128456,0.9905745775184298
2016-09-23,0,-5.028646457614147e-05,6.127587990758095e-05,-0.007798441738115289,0.006988179608128456,0.9909039301892965
2016-09-27,1,0.00020371027547770942,0.000279885056162954,-0.007798441738115289,0.003584572867027535,0.991613921664609
2016-09-29,1,0.00021605065627064085,0.0002666271577852099,-0.011345458198695464,0.003584572867027535,0.9905976304566377
2016-10-03,1,0.00048803641396322076,0.0004908508359242691,-0.013461051514811662,0.002636247956665105,0.9893214735742227
2016-10-05,1,0.0002715436423741419,0.00032785881647991004,-0.013461051514811662,0.0025995582367387437,0.9902710209961263
2016-10-07,-1,-0.00017578126756403453,-6.546191343986764e-05,-0.013461051514811662,0.0025995582367387437,0.9909246270610027
2016-10-11,-1,-0.0012744191963568957,-0.0010214202417990377,-0.01118644860884518,0.003584572867027535,0.9895496670891172
2016-10-13,-1,-0.00019983392118174239,-8.672376427828159e-05,-0.0151694236536228,0.0025995582367387437,0.9885249069910657
2016-10-17,0,-8.575292925096212e-06,8.056089928923119e-05,-0.0159692465848019,-0.0001427878225320766,0.9875360378888492
2016-10-19,0,-3.933068207449667e-05,6.051455635146903e-05,-0.0159692465848019,-0.0001427878225320766,0.9871781685013324
2016-10-21,-1,-0.000136629665209195,-2.74574287056781e-05,-0.01610035514149343,0.0004431389640271749,0.9858918790134785
2016-10-25,-1,-0.000709157395120654,-0.0005300940555732237,-0.0159692465848019,0.011258694214640427,0.9854755133248418
2016-10-27,-1,-0.0012591846477318076,-0.001041117559521428,-0.0159692465848019,0.011258694214640427,0.9863968583668682
2016-10-31,-1,-0.0025227226850448245,-0.002159803164694924,-0.011959316563647307,0.011258694214640427,0.9875239599396334
2016-11-02,-1,-0.0031852161804084905,-0.0027096638531085415,-0.016361543888630814,0.011258694214640427,0.9862810619134329
2016-11-04,-1,-0.003056060782908103,-0.0026150384553560325,-0.016361543888630814,0.011258694214640427,0.9858954838754602
2016-11-08,-1,-0.0013310486436487047,-0.0010879900070905465,-0.016361543888630814,0.0054663863908824,0.9888151271196646
2016-11-10,-1,-0.002964231630541116,-0.0025337873066148464,-0.009786977042170693,0.00639622089938789,0.9904210148706437
2016-11-14,-1,-0.0036201512074859267,-0.0031367940117028098,-0.004335439555672511,0.011258694214640427,0.9888594458419401
2016-11-16,-1,-0.005414796914477115,-0.004567384681351975,-0.009786977042170693,0.008428206573067646,0.9884578017652947
2016-11-18,-1,-0.004245722416172264,-0.003636734727635131,-0.010156075122860063,0.00639622089938789,0.989640576161869
2016-11-22,-1,-0.002848333174102816,-0.002434804581350478,-0.010156075122860063,0.0054663863908824,0.9908425831781222
2016-11-25,-1,-0.0028438658468252667,-0.002410635068921579,-0.010473381340824043,0.0019636712401311335,0.9909253098761371
2016-11-29,-1,-0.0032605775006614357,-0.002801802385253728,-0.010156075122860063,0.0029728159828565975,0.9913731410947288
2016-12-01,-1,-0.004554498283833399,-0.003959742385848508,-0.010156075122860063,0.0029728159828565975,0.9921383654922855
2016-12-05,-1,-0.004514974087695936,-0.003907980387550819,-0.010156075122860063,0.006416165827153118,0.9904064823526608
2016-12-07,-1,-0.004690184549351885,-0.004050177631021272,-0.010156075122860063,0.006416165827153118,0.9899366896908546
2016-12-09,-1,-0.00452129439037296,-0.003920247050010474,-0.005068905817080943,0.0044037750038495955,0.990284410237382
2016-12-13,-1,-0.00309044976197773,-0.0026625712173983986,-0.005068905817080943,0.0037053899442732463,0.99259189411305
2016-12-15,-1,-0.0032639802487283006,-0.0028367209145957516,-0.0028019622844136665,0.004171887792686357,0.9923132499034573
2016-12-19,-1,-0.003976469055621737,-0.0034626478839289727,-0.0028019622844136665,0.004171887792686357,0.9911154093918008
2016-12-21,-1,-0.0018432589803788267,-0.0017452410311159425,-0.0028019622844136665,0.004171887792686357,0.9919102329135685
2016-12-23,-1,-0.00252705481900688,-0.0023400694030697466,-0.002569500691563908,0.0053512954513811,0.9912838659151252
2016-12-28,-1,-0.0022513600678459368,-0.002111010037818728,-0.00370180318972004,0.0053512954513811,0.9909900864866128
2016-12-30,-1,-0.0024897294409227284,-0.002342029872833952,-0.0027483978953305186,0.006379815927696,0.9900378054598851
2017-01-04,-1,-0.0006183217686374452,-0.0005157731158947608,-0.0027483978953305186,0.005684154294206283,0.9921540942424972
2017-01-06,0,-4.6783587660283285e-05,0.00016341949516344653,-0.004937542420281906,0.005684154294206283,0.9890271377415095
2017-01-10,0,-0.00013013137418879244,2.0138759119710237e-05,-0.004937542420281906,0.00926005656270267,0.9869796644823636
2017-01-12,1,5.992991223543125e-05,0.00023464292505904897,-0.004937542420281906,0.014254065790240609,0.9865036939583366
2017-01-17,1,0.0008362976034522641,0.001145817545937824,-0.004937542420281906,0.011051802511085769,0.9871236506777616
2017-01-19,-1,-0.000522728069850201,-0.000416223867351796,-0.005480359343564535,0.011051802511085769,0.9877161177152628
2017-01-23,1,2.8882757828747494e-05,0.00022270257594023926,-0.005480359343564535,0.011051802511085769,0.9879846592830459
2017-01-25,1,0.00024308164181487417,0.00043847131371094043,-0.0054782981115061745,0.011051802511085769,0.9880080527500542
2017-01-27,0,-3.011775734941102e-05,0.00015814358361704339,-0.005207165747682366,0.014796431623665542,0.9862426078693235
2017-01-31,1,0.0010397414556707965,0.0013778592190987603,-0.0054782981115061745,0.014254065790240609,0.9867819508627167
2017-02-02,1,0.0003385868284290729,0.00045665093932838576,-0.0054782981115061745,0.014254065790240609,0.986678371760019
2017-02-06,-1,-0.002757088038284982,-0.002476324868881949,-0.0054782981115061745,0.014254065790240609,0.9893889085350959
2017-02-08,-1,-0.00044989717165154513,-0.00040962180078238456,-0.0057167081169156725,0.010396778542644248,0.9911189034912631
2017-02-10,1,0.0003627697752782615,0.0005259168243544267,-0.0057167081169156725,0.006057898263480322,0.9916275204815171
2017-02-14,1,0.0013228091345767086,0.001670706387844691,-0.006593332811044348,0.006467481899823221,0.9902584884943346
2017-02-16,1,0.0007605497530419474,0.0010162233732937062,-0.006593332811044348,0.006467481899823221,0.9905262860039421
2017-02-21,1,0.0007318501014710523,0.001005962528759415,-0.006593332811044348,0.006467481899823221,0.9907991299078655
2017-02-23,1,0.001068059450587457,0.00137550736626783,-0.007483378228189333,0.004587010918051407,0.9910920879728861
2017-02-27,1,0.003046225375783541,0.0036286862043901375,-0.007483378228189333,0.00140382231458766,0.9922378305279146
2017-03-01,1,0.003318648174435836,0.003954064505512982,-0.006593332811044348,0.0006814592618288755,0.9927287390052765
2017-03-03,1,0.002954218138901265,0.003516864950793915,-0.007410221662919104,0.0006814592618288755,0.9926645744411764
2017-03-07,1,0.0018461576708629442,0.002198866380488035,-0.006707230816925919,0.0006814592618288755,0.9931384991259045
2017-03-09,1,0.002498393048342173,0.0030149810480200063,-0.006485382191793161,0.0006814592618288755,0.9927806597695134
2017-03-13,1,0.0027500566712918605,0.0033145022538231634,-0.006485382191793161,0.0012801151841585708,0.9925006187758783
2017-03-15,1,0.0032158643492254057,0.003853830025618602,-0.006485382191793161,0.0006814592618288755,0.9928095710627003
2017-03-17,1,0.0028573020105786746,0.003446005545082608,-0.004961215950234555,0.0012801151841585708,0.9933607278786112
2017-03-21,1,0.002648603647023553,0.0031762509983361813,-0.004961215950234555,0.0008454687510784551,0.9932786905960671
2017-03-23,1,0.0017094377661996962,0.0020526862093378376,-0.004376372809141018,0.003041630366726232,0.9937998102191823
2017-03-27,1,0.0008148550711921025,0.0009493446258014547,-0.004096933261159149,0.0064254852780001445,0.9932587774783203
2017-03-29,1,0.0006817274645410846,0.0007819527485538413,-0.004743702279797148,0.010042116005382046,0.9923514475839188
2017-03-31,1,0.00022011503526478242,0.00025418086279887744,-0.006636680870181379,0.010042116005382046,0.9901855194326835
2017-04-04,1,0.0006670493249901813,0.0008958651103959624,-0.006636680870181379,0.010042116005382046,0.9907640953854803
2017-04-06,-1,-0.000449128426398297,-0.0004135465690333633,-0.005317178787775584,0.010907369634176736,0.9901562116756696
2017-04-10,-1,-0.000342876131639678,-0.00027831462800261735,-0.005317178787775584,0.011291476395231452,0.9851207007048471
2017-04-12,-1,-0.0005885230097102409,-0.0005097836081110208,-0.0035125771529196247,0.011291476395231452,0.98508763268018
2017-04-17,-1,-0.0004328020426783699,-0.0003665997574688613,-0.005317178787775584,0.011291476395231452,0.9847731793093628
2017-04-19,1,1.965090079946783e-06,3.6738828221053574e-05,-0.008932623232041317,0.011291476395231452,0.9842450369726871
2017-04-21,1,0.000793482701830082,0.0009471746971434778,-0.008932623232041317,0.011291476395231452,0.9844035522693906
2017-04-25,1,0.0011950853394156152,0.0013646834611495949,-0.008932623232041317,0.008883928042451463,0.9854740398449916
2017-04-27,1,0.000534138830209807,0.0005371975592647024,-0.006977603081506627,0.008326510617563204,0.9858355771673407
2017-05-01,-1,-0.0012208981804083415,-0.0010266598205786704,-0.0009114085549586492,0.008326510617563204,0.987912661275915
2017-05-03,-1,-0.0016301204611092967,-0.0013859314775417518,-0.0008480944727491685,0.008326510617563204,0.9878206464172508
2017-05-05,-1,-0.0010387444165288777,-0.0008592280984699374,-0.002485255497931012,0.006600153761742132,0.988590827700427
2017-05-09,1,0.0030321744708516024,0.003431915495443027,-0.005092688502311199,0.004600039773527697,0.9939317109322232
2017-05-11,1,0.0030174390020934003,0.003388287989566036,-0.005092688502311199,0.004013113336685892,0.9940162433502251
2017-05-15,1,0.0023323885675931404,0.0025717510949624734,-0.005092688502311199,0.004013113336685892,0.9938108241525478
2017-05-17,1,0.001942432247591105,0.0021428433203931393,-0.0038196570334635676,0.004732637695624927,0.9938033959950345
2017-05-19,1,0.0019146867831985718,0.0020775326568905593,-0.0038196570334635676,0.0043198524583616775,0.9944493349560194
2017-05-23,1,0.0018205013533307598,0.001964081956346265,-0.005934037293079665,0.0043198524583616775,0.9926243336572047
2017-05-25,1,0.0016813093517775437,0.001772888221684136,-0.00689283154385191,0.0043198524583616775,0.9918828573576814
2017-05-30,1,0.002208145493182885,0.0024369061695913123,-0.00689283154385191,0.004580540889369109,0.991612110732078
2017-06-01,1,0.002030388193666491,0.0022447459812579484,-0.006613709567903512,0.0048432483613798155,0.9915861954460949
2017-06-05,1,0.0020039426524644287,0.0022147181676127727,-0.006613709567903512,0.0048432483613798155,0.9914298645252952
2017-06-07,1,0.0018767364170564293,0.0020723956517269384,-0.006725591604939229,0.0048432483613798155,0.9911490017685727
2017-06-09,1,0.002100566528898445,0.0023442738590571536,-0.006725591604939229,0.0048432483613798155,0.9911655688697093
2017-06-13,1,0.0017189540065128094,0.001846408329824436,-0.006725591604939229,0.004698637882661347,0.9919923166636379
2017-06-15,1,0.0021456965765014385,0.0023408269627801805,-0.006725591604939229,0.0048432483613798155,0.9925588811542291
2017-06-19,1,0.0021419211998588163,0.002350516339597169,-0.006725591604939229,0.004779139938738752,0.9928932961750352
2017-06-21,1,0.0007607954894403487,0.0007666214151963157,-0.005014092498963369,0.004779139938738752,0.9939554916916031
2017-06-23,1,0.0013170837188141485,0.0014245314442734385,-0.004792385526145563,0.004559171415155421,0.9946249797639864
2017-06-27,1,0.0013735354363541507,0.0015017523068347892,-0.004250655713073611,0.004779139938738752,0.9945592386077429
2017-06-29,0,-5.353453062156334e-05,0.00012204855573810829,-0.004250655713073611,0.004279607731712427,0.994585280222888
2017-07-03,1,0.0008550652267998746,0.0008608543132490898,-0.004250655713073611,0.004279607731712427,0.9944582161012495
2017-07-06,1,0.0007986978626679551,0.0008110315911087868,-0.003829640000741281,0.002867077045144506,0.995010689881712
2017-07-10,1,0.0010023657435508416,0.0010609471740893974,-0.004408087893331067,0.0030932024666798256,0.9928493618977552
2017-07-12,1,0.0005040535172173257,0.0005327494156262002,-0.004408087893331067,0.0030932024666798256,0.9927897415179362
2017-07-14,1,0.0006792694892463929,0.0007032002275078399,-0.006913978478423252,0.00012267990691454796,0.9926089580648162
2017-07-18,1,0.0007590474664124766,0.0007606424088564532,-0.006913978478423252,0.0019296858117547465,0.9925628213285848
2017-07-20,1,0.0009826721730300486,0.0010921995537687506,-0.006913978478423252,0.0020488823698094206,0.992201079814919
2017-07-24,1,0.0007511513758129887,0.0008314257465770889,-0.010661685929237857,0.0020488823698094206,0.9910653553738863
2017-07-26,1,0.0007112222717287753,0.0007765468392765568,-0.010661685929237857,0.0020488823698094206,0.9912202643761807
2017-07-28,1,9.784444018982039e-05,0.00013512356073597243,-0.010661685929237857,0.0020488823698094206,0.9914506526098533
2017-08-01,1,0.0003275869965723699,0.00034239185489249257,-0.010812041382195693,0.0019296858117547465,0.9913726458557193
2017-08-03,1,0.00024520166874861715,0.00026839109090526556,-0.010812041382195693,0.0020488823698094206,0.9907897157807604
2017-08-07,-1,-0.00030455077789384125,-0.00022757254769033668,-0.010661685929237857,0.0020488823698094206,0.9924873907983636
2017-08-09,-1,-0.0008026786710455642,-0.0006536260808167201,-0.011224862736567533,0.0020488823698094206,0.9891245659666328
2017-08-11,-1,-0.0013153363200677426,-0.001102112059216734,-0.011782369252492198,0.0020488823698094206,0.989086197921938
2017-08-15,-1,-0.0014313464221387532,-0.0011866579750135443,-0.011782369252492198,0.0024309391083284617,0.988931508079801
2017-08-17,-1,-0.0015923670805529312,-0.0013212197218982976,-0.013205744542578095,-2.887940376867322e-05,0.9890641306349797
2017-08-21,-1,-0.0026184969008346106,-0.002227328562326221,-0.011379322389713448,-2.887940376867322e-05,0.9902441966725187
2017-08-23,-1,-0.0027097519439675563,-0.002290582354202445,-0.013205744542578095,-0.0005808658575972485,0.9895896312049055
2017-08-25,-1,-0.003473878735351139,-0.002934039635892101,-0.013205744542578095,-0.0013268422087787343,0.9898789776248997
2017-08-29,-1,-0.003857360199763905,-0.0032696892505397236,-0.011813176162986478,0.0013683930020198976,0.9895148305176078
2017-08-31,-1,-0.003178822420678836,-0.0026907364622882997,-0.011813176162986478,0.007001137566477187,0.9888971708615982
2017-09-05,-1,-0.003194655383084214,-0.002684201737490048,-0.011813176162986478,0.006278993462011916,0.988957187283086
2017-09-07,-1,-0.005586781397234054,-0.004806196869755544,-0.006606582409562051,0.007001137566477187,0.9910336940598147
2017-09-11,-1,-0.0061188997755581434,-0.0052722843652007485,-0.006606582409562051,0.007001137566477187,0.9905153072934437
2017-09-13,-1,-0.005557997525930118,-0.004810317903428291,-0.007267918916449856,0.00718810730076048,0.9905274790686837
2017-09-15,-1,-0.005702259369130078,-0.004976656525605043,-0.007267918916449856,0.007671199550303909,0.9906358255296518
2017-09-19,-1,-0.005879435737535716,-0.005141207241016043,-0.008348970319546805,0.007671199550303909,0.9899503060882641
2017-09-21,-1,-0.007490137685721463,-0.006489584313874867,-0.009372775845207694,0.007671199550303909,0.9895692361708972
2017-09-25,-1,-0.007955993769992559,-0.006888169275740668,-0.008348970319546805,0.007671199550303909,0.9896309959082767
2017-09-27,-1,-0.006525824564926932,-0.005664455255712215,-0.008348970319546805,0.006440024211859726,0.9905756734599557
2017-09-29,-1,-0.005138623503208903,-0.0046229186471283485,-0.00925078512567285,0.004401689137152781,0.9918374795888987
2017-10-03,-1,-0.004268583021233765,-0.0038822067639995845,-0.00925078512567285,0.006165341188076986,0.9913106141545682
2017-10-05,-1,-0.003438915785846936,-0.0031360577887577295,-0.01118698722872724,0.005477893665615493,0.9872229199219532
2017-10-09,-1,-0.00410524393398435,-0.003701547080146979,-0.00925078512567285,0.006165341188076986,0.9867530343785798
2017-10-11,-1,-0.003448929558363471,-0.0031475422403541187,-0.00925078512567285,0.006165341188076986,0.9861236704370979
2017-10-13,-1,-0.0032079463540327672,-0.0029406988540268955,-0.015635101696481198,0.005477893665615493,0.9838916724113852
