JNU-Tangyin/eata/results/Batch4_SP500/Batch4_SP500-TEL.csv
Date,Action,Predicted_Q25,Predicted_Q75,Actual_Q25,Actual_Q75,RL_Reward
2010-12-14,0,0.0,0.0,-0.0022682447396846117,0.006844139412480896,0.9926968899682695
2010-12-16,0,0.0,0.0,-0.0022682447396846117,0.00708082217206802,0.9921471513883461
2010-12-20,0,0.0,0.0,-0.00319267827607039,0.00664468215645594,0.9917604312552809
2010-12-22,0,0.0,0.0,-0.00319267827607039,0.00664468215645594,0.9915513721795322
2010-12-27,1,0.0033882638857515223,0.0037340154465393058,-0.0016041170480665312,0.007531353767908985,0.9919306293086793
2010-12-29,1,0.0031263500645602967,0.0034438541055513113,-0.0016041170480665312,0.007531353767908985,0.9909225380418687
2010-12-31,1,0.003165236344143265,0.0034751589874694976,-0.0037985771170573296,0.010095445404422681,0.9893530670325712
2011-01-04,0,0.0,0.0,-0.0028923669559866552,0.010095445404422681,0.989869936721429
2011-01-06,0,0.0,0.0,-0.0028923669559866552,0.010095445404422681,0.989356486170294
2011-01-10,0,0.0,0.0,-0.0028923669559866552,0.008933080234580719,0.9899076577120348
2011-01-12,0,0.0,0.0,-0.0028923669559866552,0.009939909425606115,0.9892740422499494
2011-01-14,0,0.0,0.0,-0.0040034508621953555,0.011254306184294726,0.9890690882087937
2011-01-19,0,0.0,0.0,-0.0040034508621953555,0.011254306184294726,0.9890164305993011
2011-01-21,0,0.0,0.0,-0.004641865870420384,0.009712071271314196,0.9890695876090432
2011-01-25,1,0.0005573095165282299,0.0008215474644108483,-0.01279783301292126,0.00888123490830853,0.9869484220927739
2011-01-27,-1,-0.0003307773162414501,-4.4710299635477777e-05,-0.006802854846801933,0.00888123490830853,0.9875711248479165
2011-01-31,1,0.00041589417051698236,0.0006173744705186607,-0.004641865870420384,0.00888123490830853,0.9888685136755441
2011-02-02,-1,-0.0005931512887813683,-0.00024226594269657214,-0.003848208683612667,0.00888123490830853,0.989241187843318
2011-02-04,-1,-0.0008257309057680502,-0.00047214314911762055,-0.003848208683612667,0.008153413198031078,0.9895326231574142
2011-02-08,-1,-0.0006816850455403458,-0.00033953732811829816,-0.006491660942748036,0.008153413198031078,0.9889032046301173
2011-02-10,1,0.0010345679192954671,0.0011085079409986131,-0.01510736372561421,0.007694559802102419,0.9877433385544868
2011-02-14,1,0.0009011273121327366,0.0009966434109110317,-0.01779572844368933,0.0068979307285585425,0.9869414595177557
2011-02-16,1,0.0011845746525546803,0.0012271878926247222,-0.01779572844368933,0.007694559802102419,0.9853480759287966
2011-02-18,1,0.000823539688030018,0.0009285694136505834,-0.01779572844368933,0.008286611704044804,0.9849266053306307
2011-02-23,-1,-0.0022589791124780394,-0.0017792367780895225,-0.012771141570712647,0.010274768948853989,0.9873450568522885
2011-02-25,-1,-0.001917148807381822,-0.0014893240415248215,-0.013853890033852328,0.01194526056181184,0.9868073582457157
2011-03-01,-1,-0.0013792639916816597,-0.001036696170155252,-0.013853890033852328,0.01194526056181184,0.9866032742686481
2011-03-03,-1,-0.0006825471494040838,-0.00042333060192073144,-0.013853890033852328,0.010141735769336333,0.9873763782971006
2011-03-07,-1,-0.001216967545695351,-0.0008833675222079647,-0.013853890033852328,0.010141735769336333,0.9874905183341752
2011-03-09,-1,-0.002153957946201288,-0.0017446264916960053,-0.015064926406188273,0.010141735769336333,0.9867838969120363
2011-03-11,-1,-0.0027039058217690247,-0.0022367261901289834,-0.013853890033852328,0.009753257812516146,0.988117474020289
2011-03-15,-1,-0.003020863833035763,-0.0025559350268547264,-0.005121771863127346,0.009753257812516146,0.9888370270563885
2011-03-17,-1,-0.003915201357385236,-0.0033532832155762746,-0.0018006489365131593,0.010244145662828745,0.9887501278207722
2011-03-21,-1,-0.003346614423570478,-0.0028529563102640486,-0.005121771863127346,0.00976118482036661,0.9894972542256067
2011-03-23,-1,-0.0029173898209595784,-0.002476710087171483,-0.005121771863127346,0.00976118482036661,0.9894479656304807
2011-03-25,-1,-0.00256135449864303,-0.0021700885978814407,-0.005121771863127346,0.009631997805732845,0.9900332331547639
2011-03-29,-1,-0.0013309569935305737,-0.0011076312619886445,-0.005121771863127346,0.00976118482036661,0.9900072952639438
2011-03-31,-1,-0.0007127967342552648,-0.0006070005196115435,-0.005121771863127346,0.010244145662828745,0.989688908210083
2011-04-04,-1,-0.0011940189470729101,-0.00100096418902452,-0.005010075707855742,0.010244145662828745,0.9895010763746452
2011-04-06,-1,-0.0026489054380812753,-0.0022563069230062396,-0.004083681716670678,0.0110914492023492,0.9895311239683908
2011-04-08,-1,-0.002663945975739381,-0.0022261844713109442,-0.004083681716670678,0.012670048415083231,0.9887863571317866
2011-04-12,-1,-0.0030604733528453902,-0.0025370949682102057,-0.004083681716670678,0.014091993449115953,0.9877500408676734
2011-04-14,-1,-0.001628887077132055,-0.001322679105150476,-0.005359777753443237,0.012670048415083231,0.9889222574496156
2011-04-18,-1,-0.0028524208168647465,-0.002340449503916122,-0.005359777753443237,0.012670048415083231,0.9892087103161661
2011-04-20,-1,-0.00242282563375016,-0.001974616683318039,-0.005359777753443237,0.012670048415083231,0.9890767275062617
2011-04-25,-1,-0.004019024379011958,-0.003352582113172029,-0.005359777753443237,0.012670048415083231,0.9881641342223744
2011-04-27,-1,-0.0017640963605799506,-0.0014673695267297753,-0.00911739050625402,0.010600450939895808,0.9887552745876881
2011-04-29,-1,-0.0018079063142870911,-0.0014798249248705341,-0.00911739050625402,0.01301712295499559,0.9880457121314036
2011-05-03,-1,-0.0013517770133412575,-0.0010886393104114125,-0.00911739050625402,0.01301712295499559,0.9880677647370304
2011-05-05,-1,-0.0012299726907883468,-0.0009721515752796992,-0.00900892898707853,0.010511069693957644,0.9890185680277251
2011-05-09,1,0.00021174887388339305,0.00021812636492720967,-0.011649970311621773,0.007989166725606905,0.9892275414326023
2011-05-11,1,0.0002854192566423935,0.00028664696601531694,-0.012908111393395861,0.007812220483217969,0.9891262745755856
2011-05-13,-1,-0.0005220542170811173,-0.00043932442126728294,-0.012671400435511269,0.007812220483217969,0.9896448212684883
2011-05-17,-1,-0.0009786885898032747,-0.0008636989973459124,-0.012671400435511269,0.007812220483217969,0.9888541535265776
2011-05-19,-1,-0.0003729636130767334,-0.0003221311888254321,-0.014689641044618383,0.00720342600554094,0.9888286174271314
2011-05-23,-1,-0.00103487211539257,-0.0008959326892840464,-0.012671400435511269,0.007812220483217969,0.9886588635624144
2011-05-25,-1,-0.0013839938520861495,-0.001221324707644854,-0.012158460102215428,0.007812220483217969,0.9890362885906154
2011-05-27,-1,-0.0003088287167544889,-0.0002631586387822611,-0.012158460102215428,0.007104863221884498,0.9899750670257573
2011-06-01,-1,-0.0006434329055459964,-0.0005471006102517345,-0.012158460102215428,0.007630513895166577,0.9884200809262295
2011-06-03,-1,-0.0005185871807672213,-0.00046821669047199325,-0.012158460102215428,0.014076869512603656,0.9867055436493049
2011-06-07,-1,-0.0006842344117835568,-0.0006250850177945634,-0.0044591588203758,0.014076869512603656,0.9873689600813357
2011-06-09,-1,-0.0007104815851404895,-0.0006701608100340001,-0.0044591588203758,0.014076869512603656,0.9877371107666167
2011-06-13,-1,-0.0012649893678531418,-0.001129205245473649,-0.012502441222429474,0.014076869512603656,0.9865186776366031
2011-06-15,-1,-0.0011601974313688692,-0.0011050774008071612,-0.012502441222429474,0.014076869512603656,0.9871248778832652
2011-06-17,-1,-0.0014633842975608157,-0.0013977634710665553,-0.012502441222429474,0.014076869512603656,0.9870639299271502
2011-06-21,-1,-0.00039156338184759786,-0.000346816940111193,-0.012502441222429474,0.016472241882031634,0.9864062308028284
2011-06-23,-1,-0.00040790823691475063,-0.0004054252376505115,-0.004970321695467868,0.016472241882031634,0.986583309347013
2011-06-27,1,7.174717245910734e-05,8.763695793518797e-05,-0.006359525469538562,0.016472241882031634,0.98670074796889
2011-06-29,1,0.0016266350926054827,0.001836179551493409,-0.01990948125330174,0.006953856527253825,0.9866077524518364
2011-07-01,1,0.003281985007121997,0.003729310907343967,-0.020583312437679163,0.0023143744056097447,0.98617991604284
2011-07-06,1,0.003409591339698789,0.003937991479830544,-0.021094379503371077,0.0013860960629475897,0.9846467751860701
2011-07-08,1,0.0033936248094058033,0.003900349201440152,-0.021754834708152475,0.0011084451727457981,0.9820782370301537
2011-07-12,1,0.0023607028342299365,0.0026531634789960052,-0.021754834708152475,0.0013860960629475897,0.9797328503845489
2011-07-14,0,0.0,0.0,-0.021754834708152475,0.003313598862937733,0.9776152650761863
2011-07-18,0,0.0,0.0,-0.021754834708152475,0.016432606213665095,0.9766976056052185
2011-07-20,0,0.0,0.0,-0.021754834708152475,0.003313598862937733,0.9778755564893603
2011-07-22,0,0.0,0.0,-0.022913393202764535,-0.002538257305592976,0.9739971210290607
2011-07-26,0,0.0,0.0,-0.022913393202764535,0.0015027844986660243,0.9724879290652533
2011-07-28,-1,-0.0003507361299732344,-0.0003386942074658895,-0.02269670060996613,0.016347348966158914,0.9727493142556957
2011-08-01,-1,-0.0021717998212775814,-0.0018950564163039757,-0.021407242725771165,0.02524084124603701,0.9711536505138149
2011-08-03,0,0.0,0.0,-0.017866441594737856,0.02524084124603701,0.9711715943577443
2011-08-05,0,0.0,0.0,-0.017866441594737856,0.02524084124603701,0.9722806188038928
2011-08-09,0,0.0,0.0,-0.017306284334949355,0.02524084124603701,0.9754580286730532
2011-08-11,0,0.0,0.0,-0.017306284334949355,0.022424334470747577,0.9769436638757732
2011-08-15,0,0.0,0.0,-0.017306284334949355,0.022424334470747577,0.9770683486098504
2011-08-17,0,0.0,0.0,-0.017033644413456152,0.022424334470747577,0.9765925842721391
2011-08-19,-1,-0.007609988017352116,-0.006701181538193194,-0.013881786839994161,0.022424334470747577,0.9797330359290413
2011-08-23,0,0.0,0.0,-0.016741353449267138,0.019699426762778506,0.9799766358014741
2011-08-25,0,0.0,0.0,-0.013881786839994161,0.014939471723270375,0.9814243191790404
2011-08-29,0,0.0,0.0,-0.013881786839994161,0.01358469154679131,0.9834450373234924
2011-08-31,0,0.0,0.0,-0.012832926970796129,0.01358469154679131,0.983745698022217
2011-09-02,0,0.0,0.0,-0.014556302676273723,0.01358469154679131,0.9826755867302999
2011-09-07,-1,-0.0023617339142935805,-0.00209259413502343,-0.012832926970796129,0.014266236665493218,0.9823285662793593
2011-09-09,0,0.0,0.0,-0.012221934276116014,0.01694266621201641,0.9825061136414641
2011-09-13,0,0.0,0.0,-0.012221934276116014,0.01694266621201641,0.9822651756987535
2011-09-15,0,0.0,0.0,-0.012221934276116014,0.02297654449744899,0.9790719843213836
2011-09-19,0,0.0,0.0,-0.01038774914615431,0.02297654449744899,0.9789045721131888
2011-09-21,0,0.0,0.0,-0.009802536908294367,0.02297654449744899,0.9781341282221379
2011-09-23,-1,-0.00549504910464519,-0.004996462653333023,-0.006542032193993465,0.024290778347630715,0.975855446818419
2011-09-27,-1,-0.0038760353070675085,-0.0036298604526563,-0.009967728511029903,0.028607585169538846,0.9754843845229779
2011-09-29,-1,-0.0035700319943655465,-0.0033360449339366683,-0.009967728511029903,0.030620995314831555,0.9723986529742618
2011-10-03,0,0.0,0.0,-0.009173186939195502,0.030620995314831555,0.9746849626194164
2011-10-05,-1,-0.001472172137317986,-0.0014650791251697491,-0.010333884368819423,0.028607585169538846,0.9749500767677961
2011-10-07,-1,-0.00184962722757739,-0.0017915894949645786,-0.011561341446705847,0.02613403351038883,0.9760134489945635
2011-10-11,1,0.00023827659621973476,0.000502425716135007,-0.011561341446705847,0.023568157666455036,0.9775620882006264
2011-10-13,1,0.003574943397483426,0.0042234407255947615,-0.01865529193112119,0.01862954598459272,0.9796694108851679
2011-10-17,1,0.00287184676338418,0.0033931466776956367,-0.01865529193112119,0.021850844003146373,0.9794538154731491
2011-10-19,1,0.0026847035757038753,0.0032377861440822187,-0.012848461776914443,0.021850844003146373,0.9812971751062746
2011-10-21,1,0.003601733608959686,0.004268844482529278,-0.01865529193112119,0.01816212914662392,0.9803220120325131
2011-10-25,1,0.0031588084603782034,0.0037496632554464768,-0.02192313986332902,0.009121633031608659,0.9803546714291186
2011-10-27,1,0.005872980653275125,0.00679871632941321,-0.022624949022091327,0.0026550492278810726,0.9800146244825717
2011-10-31,0,0.0,0.0,-0.022624949022091327,0.006476817505250742,0.9827470200332669
2011-11-02,0,0.0,0.0,-0.01883927625757041,0.006476817505250742,0.9835908715253504
2011-11-04,0,0.0,0.0,-0.018831675338573037,0.009121306977150467,0.9835550560720419
2011-11-08,0,0.0,0.0,-0.018831675338573037,0.013092682320122673,0.9829785573281294
2011-11-10,0,0.0,0.0,-0.018831675338573037,0.020271285758205082,0.9830004794726506
2011-11-14,0,0.0,0.0,-0.023612892672985383,0.013092682320122673,0.9815492381883005
2011-11-16,0,0.0,0.0,-0.02533327275465169,0.013092682320122673,0.9809518880373397
2011-11-18,0,0.0,0.0,-0.02533327275465169,0.013092682320122673,0.9815206334516503
2011-11-22,0,0.0,0.0,-0.023161034816352462,0.020271285758205082,0.9808585299002166
2011-11-25,0,0.0,0.0,-0.018115069560319712,0.020271285758205082,0.9816617856932423
2011-11-29,0,0.0,0.0,-0.021002120666248677,0.019528348702768646,0.9819691507031171
2011-12-01,0,0.0,0.0,-0.021002120666248677,0.019529391143306353,0.9821237731474571
2011-12-05,1,0.0016217836421437914,0.002144933997875657,-0.021002120666248677,0.019529391143306353,0.9824010009416964
2011-12-07,1,0.0026282034022475607,0.003242951273277369,-0.021002120666248677,0.015158621012748182,0.982731656005166
2011-12-09,1,0.002712478362570308,0.0033511683993917296,-0.017671876195779226,0.015249822755442304,0.9829479817886265
2011-12-13,1,0.0007600057271402705,0.0011620222576114053,-0.006325503893854871,0.015249822755442304,0.9848428540260726
2011-12-15,1,0.0007003381739841105,0.001067822167704837,-0.005564722778452237,0.015249822755442304,0.9853371664458193
2011-12-19,-1,-0.00017347106176523574,-4.788029047508326e-05,0.0008658445407877993,0.01962642474482209,0.9837556527539699
2011-12-21,1,0.00012336009824997541,0.00030388535383208824,-0.0037762739292957147,0.01857790275387889,0.9859622138338051
2011-12-23,1,0.0008945364569908946,0.0011580124967435735,-0.005906715139256944,0.015015440174134465,0.9855510165230429
2011-12-28,-1,-0.0011869114608924689,-0.0010741850936498865,-0.005906715139256944,0.015015440174134465,0.9857715365999488
2011-12-30,-1,-0.0014896037914069603,-0.0012809387850191236,-0.005906715139256944,0.013814878431961481,0.9863469682870374
2012-01-04,1,0.0001383414239864742,0.00019517068000647405,-0.005906715139256944,0.013814878431961481,0.9867180461707779
2012-01-06,1,0.0012640465163805776,0.001502483285440412,-0.005906715139256944,0.014755074639706777,0.986825807579001
2012-01-10,1,0.0022728831839951206,0.002595785781034698,-0.005906715139256944,0.011989867052054244,0.9891640380046053
2012-01-12,1,0.0013560843070759547,0.0014175538311623135,-0.007141332591286433,0.008077402061578347,0.988856302011035
2012-01-17,1,0.0019174356119359306,0.0021191097748485452,-0.008696163770641571,0.006570764518315951,0.9890000138944858
2012-01-19,1,0.003095372365957894,0.0034400858951988762,-0.008696163770641571,0.004186706828734908,0.9897407177768561
2012-01-23,1,0.0033433444942564654,0.003821182512396648,-0.006129688743214134,0.006570764518315951,0.9903427905914332
2012-01-25,1,0.003948862801173054,0.004456662565418597,-0.004979359153412723,0.006570764518315951,0.9912978336419268
2012-01-27,1,0.002691661175143894,0.002964140470823034,-0.0035606528796426453,0.0071340337446684846,0.9921622133996051
2012-01-31,1,0.0029475014112452292,0.0032961109324573723,-0.0030039389275721843,0.009282343103723608,0.9924830692171589
2012-02-02,1,0.002257427658490943,0.00239627965941644,-0.0030039389275721843,0.009282343103723608,0.9919806799567743
2012-02-06,1,0.003228449180791544,0.003566106612554016,-0.010952192121230187,0.0071340337446684846,0.9904444174490411
2012-02-08,1,0.003329764833359183,0.0036875046386732574,-0.010952192121230187,0.009282343103723608,0.9899745594188047
2012-02-10,1,0.0028437145208672927,0.0031134907169263117,-0.005617181523828208,0.013150953155714537,0.989903435647073
2012-02-14,1,0.0021048891288856664,0.00222907066886453,-0.005617181523828208,0.013150953155714537,0.9893993917046362
2012-02-16,1,0.0027295030734371933,0.0029393492352200725,-0.005617181523828208,0.013150953155714537,0.989118175748889
2012-02-21,1,0.0029688704694919043,0.0032313061036362257,-0.01114234333691937,0.011749543095428635,0.9887308945662137
2012-02-23,1,0.0027375197658875976,0.0029781082396157887,-0.007317899692717981,0.011749543095428635,0.9890616955950828
2012-02-27,1,0.0020688587740599583,0.0021241843145083927,-0.007317899692717981,0.013347285793283776,0.9881589226499845
2012-02-29,1,0.0021947730310990644,0.002263568400437367,-0.012384191117328747,0.012350941315207612,0.9873679047099758
2012-03-02,1,0.0023106332552032555,0.0024336417181615435,-0.007678211558543034,0.012350941315207612,0.9880439704192191
2012-03-06,1,0.001990876066365557,0.002152502456452053,-0.005839136966949321,0.012350941315207612,0.9895633741694584
2012-03-08,1,0.002806076265556048,0.0030947073065193675,-0.007678211558543034,0.010999843585716252,0.9885620723858934
2012-03-12,1,0.00259761107634886,0.002819868845206551,-0.012236251027361509,0.0072049830034645,0.9880627295792506
2012-03-14,1,0.0021243409411799002,0.0022404287744094277,-0.012236251027361509,0.0072049830034645,0.9883773983505032
2012-03-16,1,0.0030641849433150816,0.0033401067446037,-0.012597159457810371,0.005640306669752366,0.9885347409507151
2012-03-20,1,0.0025305472412817656,0.0027487810832507024,-0.012558791174857897,0.007007098633603439,0.9883993820155214
2012-03-22,1,0.0032523555756930125,0.0036573251877163966,-0.012558791174857897,0.007007098633603439,0.9882545990381111
2012-03-26,1,0.003132736746484635,0.003477044285308181,-0.012558791174857897,0.005640306669752366,0.9882927595935488
2012-03-28,1,0.0026537588701557036,0.002991044967364658,-0.012236251027361509,0.011325678254149575,0.9870603390227537
2012-03-30,1,0.0024799814016727402,0.0027955864538392623,-0.012236251027361509,0.007007098633603439,0.9871369123795218
2012-04-03,1,0.002186959394167459,0.002450797800982078,-0.01160643970099304,0.006660977529121111,0.9878911102179295
2012-04-05,1,0.0010564268006027853,0.0010996097470395937,-0.012236251027361509,0.006660977529121111,0.9871628692270416
2012-04-10,1,0.0003940313740573185,0.00041876215220283544,-0.011535576288012408,0.006660977529121111,0.9878894838494167
2012-04-12,1,0.001085576402318893,0.0011548570446898252,-0.011851932092471002,-0.0013299901970010963,0.9878842585867352
2012-04-16,1,2.9385478523694727e-05,0.0001851317766289163,-0.011851932092471002,-0.0023721641270620245,0.9885685500496789
2012-04-18,-1,-0.0008593311141179696,-0.0005339754214882262,-0.011514508130226031,-0.003087590171298375,0.9899269893912689
2012-04-20,-1,-0.001812649343573845,-0.0013350532058101468,-0.012994068896400276,-0.0034753084850950725,0.9883792821595964
2012-04-24,-1,-0.001979263874161314,-0.0015304794864645461,-0.012994068896400276,-0.0023721641270620245,0.9876017332675433
2012-04-26,-1,-0.0007481999030906015,-0.000449910204937697,-0.013554383532762993,-0.003087590171298375,0.989400432745663
2012-04-30,-1,-0.0008476712777854416,-0.0005647630221409804,-0.013554383532762993,-0.0017815332522185677,0.9879107547087563
2012-05-02,1,0.00038557587418500935,0.00047673999245645806,-0.01649013569940575,-0.0017815332522185677,0.9859354391544746
2012-05-04,-1,-0.002657456706225699,-0.0021961231727823873,-0.014647630601841927,-0.00047461898215541147,0.9883731552669823
2012-05-08,-1,-0.004191303820696313,-0.0034323185317275714,-0.014647630601841927,0.004841377278376717,0.986369524713714
2012-05-10,-1,-0.004974166886139884,-0.004126003055203513,-0.014647630601841927,0.013191748419036234,0.9859207227244324
2012-05-14,-1,-0.006029033291324086,-0.005012903290699191,-0.01490690041313698,0.015169729795139888,0.983401092171963
2012-05-16,-1,-0.006118128224183966,-0.00514432430023553,-0.01490690041313698,0.015169729795139888,0.9830369203103506
2012-05-18,-1,-0.006910792321666364,-0.00588826241749709,-0.00849949680822752,0.015169729795139888,0.9836079715089415
2012-05-22,-1,-0.0066366340180054745,-0.0055891051076385236,-0.013026638437340069,0.015169729795139888,0.9839804702532295
2012-05-24,-1,-0.0068439940505071566,-0.005793432040307191,-0.01465618599064307,0.01951163949238221,0.98219954692675
2012-05-29,-1,-0.005274739537432943,-0.00443413550739652,-0.016515801865809178,0.01463905165145034,0.9835151422003345
2012-05-31,-1,-0.006086931728580134,-0.005194006920344867,-0.014429389476020384,0.01463905165145034,0.9833529118960213
2012-06-04,-1,-0.0056200770209731115,-0.004841843064372877,-0.00966848172784876,0.01951163949238221,0.9831204561109287
2012-06-06,-1,-0.0036739883294731298,-0.00316781845017315,-0.00966848172784876,0.013918471807506478,0.9848467340971789
2012-06-08,0,0.0,0.0,-0.014429389476020384,0.013188322615423879,0.9839824064131879
2012-06-12,0,0.0,0.0,-0.014429389476020384,0.010607456080311979,0.9859698109244193
2012-06-14,1,0.00018226479607209525,0.0002856454843677946,-0.014429389476020384,0.013188322615423879,0.9852313503370708
2012-06-18,-1,-0.0021473632667816877,-0.0018942560320852325,-0.014429389476020384,0.011668931945149803,0.9853807705249823
2012-06-20,-1,-0.0023848507155632007,-0.0020878195537505657,-0.010579116944318099,0.011668931945149803,0.9848106737145957
2012-06-22,-1,-0.0028175822971621325,-0.0024542728092626508,-0.010579116944318099,0.006686477235335909,0.9862773642775323
2012-06-26,-1,-0.004073742798371773,-0.0035998539395448318,-0.009806979707735504,0.006686477235335909,0.9872159811778137
2012-06-28,-1,-0.003667776143211482,-0.0032825267070758484,-0.006690778801921441,0.016745207826474526,0.9854671496904969
2012-07-02,-1,-0.002336422229975016,-0.0021181150821206573,-0.009806979707735504,0.013624246402818814,0.9859111839695059
2012-07-05,-1,-0.0014479889878431101,-0.0013274030332017365,-0.01148264019281231,0.00733824872122558,0.9854971434499158
2012-07-09,-1,-0.003046295865503614,-0.0027259537410564503,-0.009806979707735504,0.018930588875535954,0.984260189028927
2012-07-11,-1,-0.002936093561804788,-0.0026710078570401333,-0.006690778801921441,0.02133013298332165,0.9835427425536841
2012-07-13,-1,-0.0013492010087351564,-0.0013048838146445937,-0.006690778801921441,0.01866242871201461,0.9844951265529673
2012-07-17,-1,-0.002088058092361341,-0.0019426676519528044,-0.003709814586498838,0.01866242871201461,0.9847093997505199
2012-07-19,1,6.28429542894185e-05,0.00021401410361253094,-0.003709814586498838,0.01513117422554684,0.9865878031500956
2012-07-23,-1,-0.00047635149583241866,-0.000362590357109709,0.00011428173132403566,0.01513117422554684,0.9874106961778925
2012-07-25,-1,-0.0006117064034630553,-0.0005031801364537047,0.00011428173132403566,0.01513117422554684,0.9867822311815275
2012-07-27,1,0.00037702644918965604,0.0005045984893276899,-0.0026973286663595775,0.012110859330327848,0.9895160276616785
2012-07-31,1,0.0007824026599775654,0.001010246574171109,-0.0025558869793761026,0.010065615135585416,0.990713372431586
2012-08-02,0,-3.0470749718265982e-05,0.00011998819191917182,-0.0025558869793761026,0.010065615135585416,0.9916578874641649
2012-08-06,1,0.0020202351606423215,0.0024432865919750543,-0.0035563231317485245,0.006221910980830128,0.9938856685109012
2012-08-08,1,0.004021770078919615,0.004795162499853546,-0.004193889455555792,0.003641588926671703,0.992076955557839
2012-08-10,0,0.0,0.0,-0.004910192106302254,0.003641588926671703,0.9922221535759892
2012-08-14,0,0.0,0.0,-0.004193889455555792,0.006431676511287242,0.9920526865452108
2012-08-16,1,0.3105710824077564,0.32029615540536654,-0.004193889455555792,0.009507326104403656,0.7613964409145219
2012-08-20,1,0.005344580894654462,0.006258006793877894,-0.004247332079753041,0.009507326104403656,0.9905878249995878
2012-08-22,1,0.00493231663163401,0.0058331146510854845,-0.004910192106302254,0.009507326104403656,0.9906735159107097
2012-08-24,1,0.004592852746910068,0.005416900370964433,-0.00611459465028046,0.009507326104403656,0.9896166228911556
2012-08-28,1,0.0039203015583495655,0.004580190772160748,-0.011444986832296892,0.009507326104403656,0.9879644075883242
2012-08-30,0,0.0,0.0,-0.011865979237403736,0.010375003517817026,0.988243773047593
2012-09-04,0,0.0,0.0,-0.011865979237403736,0.009507326104403656,0.9887696576657081
2012-09-06,0,0.0,0.0,-0.011444986832296892,0.00539716757035576,0.9908879343937174
2012-09-10,0,0.0,0.0,-0.011444986832296892,0.0036693212363962426,0.9915723734789409
2012-09-12,0,0.0,0.0,-0.01228315417733103,0.0017616100542209923,0.9906218557606737
2012-09-14,0,0.0,0.0,-0.012688882605997542,0.0007348356163910437,0.9907932862244527
2012-09-18,0,0.0,0.0,-0.012688882605997542,0.0017616100542209923,0.9893608158534716
2012-09-20,0,0.0,0.0,-0.012688882605997542,0.003312480830405041,0.9896734726523551
2012-09-24,0,0.0,0.0,-0.012688882605997542,0.0036693212363962426,0.989628203576398
2012-09-26,0,0.0,0.0,-0.012435584458537456,0.0036693212363962426,0.9899450850372082
2012-09-28,0,0.0,0.0,-0.01077993518103849,0.0036693212363962426,0.9910638513283685
2012-10-02,0,0.0,0.0,-0.01077993518103849,0.0037792665661688742,0.9905930600939493
2012-10-04,0,0.0,0.0,-0.01077993518103849,0.004584664455908206,0.9889328161832337
2012-10-08,1,0.00015204328942886912,0.00023033686809614926,-0.01324818997123663,0.004794711188392992,0.98681880567846
2012-10-10,-1,-0.00102968571394989,-0.0007692899301498617,-0.007789198032119903,0.006453521902312924,0.987730449241647
2012-10-12,-1,-0.002479259359155898,-0.002042110711703961,-0.006186575723465197,0.006998652807835634,0.987940660096708
2012-10-16,-1,-0.0011688265552128197,-0.000854375280511075,-0.007789198032119903,0.006998652807835634,0.9885074001343161
2012-10-18,-1,-0.0004870203292371091,-0.00034032052895445036,-0.006186575723465197,0.010765134696068723,0.9878502341127964
2012-10-22,-1,-0.0023389268366031295,-0.0019004479796783554,-0.0059348930667738175,0.010765134696068723,0.9881046027704599
2012-10-24,-1,-0.004791441188575229,-0.004000753109191324,-0.002621896429753451,0.012218139994848644,0.9869721629868131
2012-10-26,-1,-0.0029860722735894135,-0.002531659050381274,-0.006300153042248268,0.012218139994848644,0.9873403161580689
2012-11-01,0,0.0,0.0,-0.006300153042248268,0.012032843938278654,0.9877030270577624
2012-11-05,0,0.0,0.0,-0.00511792883878518,0.012032843938278654,0.9887806829283327
2012-11-07,0,0.0,0.0,-0.0033331919406353527,0.010765134696068723,0.9910688540969458
2012-11-09,0,0.0,0.0,-0.0033331919406353527,0.010156960407784906,0.9913209368059483
2012-11-13,1,0.00023630903065438455,0.00033742047711059615,-0.0033331919406353527,0.012017635991924309,0.9910353946077137
2012-11-15,-1,-0.0006811040044678691,-0.0005098255838225194,-0.0033331919406353527,0.01023425234362246,0.9920891364029649
2012-11-19,-1,-0.0007031743877799861,-0.00045455773116900725,-0.0033331919406353527,0.012264719745791316,0.9913885948890065
2012-11-21,-1,-0.0008034708792153229,-0.0005343609772856426,-0.0033331919406353527,0.012723792715258305,0.9908465299618159
2012-11-26,0,-6.0772719576591137e-05,7.824871436857395e-05,-0.005142009080768163,0.012264719745791316,0.9914531528822494
2012-11-28,1,0.00015809195420744715,0.0002346002540908471,-0.005142009080768163,0.012264719745791316,0.9918633266096297
2012-11-30,-1,-0.0005908809736939651,-0.0003510901979713695,-0.006253315738123111,0.01267816887619527,0.9908827133464838
2012-12-04,-1,-0.0006408124300049609,-0.00036257679224428263,-0.006253315738123111,0.01354396114436343,0.9901979209554918
2012-12-06,0,0.0,0.0,-0.006996442867705309,0.01354396114436343,0.9895084547059104
2012-12-10,0,0.0,0.0,-0.008270171115769573,0.01354396114436343,0.9891242740283063
2012-12-12,0,0.0,0.0,-0.008270171115769573,0.017631793239493744,0.9888458779774192
2012-12-14,0,0.0,0.0,-0.008270171115769573,0.017631793239493744,0.9889401342548746
2012-12-18,-1,-0.03281235221656481,-0.03078489807964922,-0.008270171115769573,0.00822996004470582,0.9679292975854091
2012-12-20,0,0.0,0.0,-0.006691936034828706,0.006872571292428936,0.9907894497315328
2012-12-24,0,0.0,0.0,-0.005409168973659375,0.008531616068678286,0.9912369814965648
2012-12-27,0,0.0,0.0,-0.005409168973659375,0.008531616068678286,0.9910764156236936
2012-12-31,0,0.0,0.0,-0.004962108541597358,0.006789444848819441,0.9926540441179126
2013-01-03,0,0.0,0.0,-0.00292721931390875,0.006789444848819441,0.9935029967338747
2013-01-07,1,0.001674646262531007,0.0018632216074868813,-0.0021543615718618014,0.008531616068678286,0.9936689900383698
2013-01-09,1,0.001357262640505502,0.001488633303677193,-0.002025059011244127,0.008979303372906984,0.9937535735651397
2013-01-11,1,0.002350765156484944,0.002648250323585479,-0.002025059011244127,0.008979303372906984,0.9939971273647092
2013-01-15,1,0.0020342701833308027,0.00227371421902629,-0.0019798982780149447,0.009835625228125994,0.9938558750967613
2013-01-17,0,0.0,0.0,-0.0019798982780149447,0.008979303372906984,0.9940708959780116
2013-01-22,0,0.0,0.0,-0.0020685544133496924,0.008729924042078502,0.9940036286012932
2013-01-24,0,0.0,0.0,-0.0027109259490799443,0.009835625228125994,0.993308618577236
2013-01-28,1,0.000780081018379079,0.0008667716938273661,-0.0027109259490799443,0.009835625228125994,0.9922559974981331
2013-01-30,0,0.0,0.0,-0.0019798982780149447,0.009835625228125994,0.9920679857647952
2013-02-01,1,0.003670848373721414,0.004148311426291625,-0.0019798982780149447,0.007328978450072744,0.9931731579077882
2013-02-05,1,0.004062784322958151,0.0046106306847772975,-0.0014065033524963896,0.009439311970642574,0.9933160016697095
2013-02-07,1,0.004397506676461964,0.005005600313082144,0.0006006751602673044,0.009700709905660937,0.9930733818945244
2013-02-11,1,0.005060834485669904,0.005799786149887815,0.0004091498457140599,0.0072840066759177246,0.9930387359153904
2013-02-13,0,0.0,0.0,-0.001919552290009049,0.0072840066759177246,0.9919213541674549
2013-02-15,0,0.0,0.0,-0.0042245773039535535,0.0072840066759177246,0.9911179529589381
2013-02-20,0,0.0,0.0,-0.004029683743896554,0.009806853992625247,0.9912794807909738
2013-02-22,0,0.0,0.0,-0.004029683743896554,0.007040566153704344,0.9915495140060724
2013-02-26,1,0.00040351416254959856,0.00046786505640346977,-0.004029683743896554,0.007040566153704344,0.9929745859029461
2013-02-28,1,0.0011289620086946809,0.0012949211818323334,-0.004029683743896554,0.00811642373207682,0.9930666626008027
2013-03-04,1,0.0011575642010313936,0.001316621921223676,-0.0042245773039535535,0.00811642373207682,0.9926547894522427
2013-03-06,1,0.0029021602124142732,0.003120366860065406,-0.0042245773039535535,0.004091666785835966,0.9928674129713657
2013-03-08,1,0.0027354663523723936,0.0028595203837115443,-0.005216000447850807,0.003212533449094826,0.9932414358646254
2013-03-12,0,0.0,0.0,-0.005216000447850807,0.004108203565149517,0.9936205057719347
2013-03-14,0,0.0,0.0,-0.006563964450158617,0.004100736124881487,0.9937610056535617
2013-03-18,1,0.0015404799737815237,0.0016015854378089054,-0.006563964450158617,0.00623357248530585,0.9921352336671082
2013-03-20,1,0.0012853845712175345,0.001407181457754086,-0.008342041354520815,0.004100736124881487,0.9898396748130625
2013-03-22,1,0.0001437251838511571,0.00046179953553830754,-0.006989074840271704,0.0047941754042457934,0.9904704671902383
2013-03-26,0,-0.0001663821179513365,0.00019089297552121656,-0.006857707359772068,0.007100325503945744,0.9878022638466077
2013-03-28,1,7.026508815223575e-05,0.000395082452591572,-0.008342041354520815,0.0072907195850607275,0.9868516703959272
2013-04-02,1,0.00040789605519774604,0.0006019475481798132,-0.007329445145180826,0.012213285674768058,0.9861726675579575
2013-04-04,1,0.00010782343090210561,0.0003363864336344189,-0.010114489296537394,0.015633536523514832,0.9845522632821158
2013-04-08,0,-4.5093999348281926e-05,0.00019007144955015046,-0.010114489296537394,0.017848119101242805,0.9834422761936902
2013-04-10,1,0.0002799415194206069,0.00047428781416546714,-0.010114489296537394,0.017848119101242805,0.983740563703773
2013-04-12,-1,-0.00033869342032491836,-4.961728821555435e-05,-0.009478088000981736,0.017848119101242805,0.9839718663540072
2013-04-16,0,-0.00020970708065588752,1.6960857747428315e-05,-0.004733889844135346,0.015633536523514832,0.9858965994410218
2013-04-18,-1,-0.002196524989352806,-0.0017387595650589225,-0.0009552226524048059,0.015633536523514832,0.987310812138887
2013-04-22,-1,-0.0017993869372275294,-0.0013940150298765656,-0.0009552226524048059,0.015633536523514832,0.9871918106884418
2013-04-24,1,0.00014372385902184097,0.00032992422070072494,-0.0031957048231963103,0.013504324980266106,0.9904833132967672
2013-04-26,1,0.00033064637075385305,0.000493361033780116,-0.0031957048231963103,0.011754012667000891,0.9915623970576439
2013-04-30,1,0.0011745163864628106,0.0012223193213282283,-0.004043159588976657,0.008150759058849771,0.9919021457654987
2013-05-02,1,0.0009360075444790709,0.0010100320054589698,-0.004043159588976657,0.008150759058849771,0.9923032563165332
2013-05-06,1,0.0018809465958015545,0.001926495413566973,-0.0042037064051130375,0.004742301812911197,0.9927784091258466
2013-05-08,1,0.001950280031171276,0.002025777080561099,-0.006728471504898976,0.0035225969330762133,0.9925103767947165
2013-05-10,1,0.00136419791668708,0.001391007133199275,-0.006421330221781466,0.008701730115942625,0.9917037853029597
2013-05-14,1,0.002076323712719025,0.0022094004428720266,-0.006955809259572176,0.0035225969330762133,0.9916211389123739
2013-05-16,1,0.002459259186194237,0.002648535217445337,-0.006955809259572176,0.004656996751255102,0.9905323592314197
2013-05-20,1,0.002447984165208775,0.0025890289127251695,-0.006955809259572176,0.012457849560537115,0.98984991155638
2013-05-22,1,0.0017631599482937697,0.0017829715696779367,-0.00755506628212901,0.012457849560537115,0.9884801008297517
2013-05-24,1,0.001271062818510733,0.0012907753280310046,-0.010545147736506956,0.013927801477146892,0.9864452339458856
2013-05-29,1,0.0009226231587839384,0.0009420944923910348,-0.00755506628212901,0.015499170538175084,0.9860534604278148
2013-05-31,1,0.0002819974968143157,0.00040407828170471846,-0.006955809259572176,0.015499170538175084,0.9870154064426481
2013-06-04,1,0.00035413941894300003,0.00047326945856327997,-0.006955809259572176,0.017075054510881826,0.986687791677674
2013-06-06,1,0.00030738591212643176,0.00040778410402624927,-0.005108259710929255,0.017075054510881826,0.9866398676311393
2013-06-10,1,0.0007389783854890808,0.0007891681009699195,-0.004419260976372986,0.015499170538175084,0.9879815881086832
2013-06-12,1,0.0004933281609147046,0.0005579344656201442,-0.004375432452407666,0.015499170538175084,0.9880877691502952
2013-06-14,1,0.0010456473594298405,0.0010619144846423663,-0.003937644750974873,0.010760308143491293,0.9888176094281143
2013-06-18,1,0.0018363233941042978,0.0019635808530475258,-0.003937644750974873,0.008586694664558761,0.9896309075821677
2013-06-20,1,0.0003174634980726905,0.0003932221386856841,-0.0021771288204166604,0.008586694664558761,0.9916721745207621
2013-06-24,-1,-0.00043758756724276927,-0.0002617507695228705,-0.0021771288204166604,0.007980745006896049,0.9936496818690044
2013-06-26,1,0.0005746822001764936,0.0006289234736086696,-0.0021771288204166604,0.007980745006896049,0.9922332905482928
2013-06-28,1,0.0007429960775578069,0.0007733504484993397,-0.003027998073542932,0.007980745006896049,0.9923677784698999
2013-07-02,1,0.0011464493201280195,0.001174838799737966,-0.0021771288204166604,0.007980745006896049,0.9929315426961747
2013-07-05,1,0.0015120310180588722,0.001602972553833292,-0.0021771288204166604,0.007980745006896049,0.9928696201706819
2013-07-09,1,0.0014766008811817372,0.0015769666667061573,-0.0021558301789580854,0.007980745006896049,0.9928615365672775
2013-07-11,1,0.001691949851793459,0.0018223755240724551,-0.002964102149167207,0.007145362754441898,0.9923385173243765
2013-07-15,1,0.0016483440083396033,0.0017662750252008278,-0.0021558301789580854,0.0029187006342121955,0.9928209910798329
2013-07-17,1,0.0018556671415565931,0.0019973820911598278,-0.002964102149167207,0.0012858745095773588,0.9930617324969448
2013-07-19,1,0.0011882851658388009,0.0011951018194974864,-0.0031801025228460483,0.0012858745095773588,0.9923875418188147
2013-07-23,1,0.001250033314484401,0.001259103613778082,-0.00341135785058097,0.0012858745095773588,0.9921413323916998
2013-07-25,1,0.0028903400576892595,0.003123307913873802,-0.00341135785058097,0.0016950191656546227,0.994010888000524
2013-07-29,1,0.00284615410720384,0.0031083749615011197,-0.0029332977477165385,0.0016950191656546227,0.9942911525254373
2013-07-31,1,0.003345864042330328,0.0036967579500717914,-0.0033597949874285753,0.0014029941902206043,0.9930514087879947
2013-08-02,1,0.0034209833204580987,0.0037673291034887642,-0.0046208793104628755,0.0014029941902206043,0.9921097626942665
2013-08-06,1,0.0032637536779788773,0.0036025436039639532,-0.0046208793104628755,0.00325825764173413,0.9919102532400431
2013-08-08,1,0.0023721794095129508,0.0025505377426449493,-0.0033597949874285753,0.00325825764173413,0.9930451988728914
2013-08-12,1,0.0024480081709106014,0.002645603614026622,-0.0033597949874285753,0.007694923032481289,0.9907805644217711
2013-08-14,1,0.0020711943511368897,0.0021973143319551462,-0.0028682996217368017,0.007694923032481289,0.9908864603293984
2013-08-16,1,0.0012241460216094679,0.0012255444547259234,-0.0016575004174262406,0.01031126848163959,0.9915061086009004
2013-08-20,1,0.0013112637666553048,0.0013285810146892352,-0.0006310589305217468,0.008042835256923722,0.992148940041973
2013-08-22,1,0.0011436726139182182,0.0011715069684992666,-0.002541097628774326,0.008042835256923722,0.9918633868902207
2013-08-26,1,0.0008573561664755924,0.0009293486135050308,-0.002541097628774326,0.008042835256923722,0.9913030740632962
2013-08-28,0,-0.0001769838454115727,2.8135732831072722e-05,-0.002541097628774326,0.008042835256923722,0.9923560887942113
2013-08-30,0,-7.722862904149873e-06,0.0001652003391214808,-0.0029673063540055196,0.0033787850757883526,0.9933518405621535
2013-09-04,1,0.0005180900626104717,0.0006382598531055621,-0.0029673063540055196,0.0021248737607977297,0.9941275180827716
2013-09-06,1,0.0002154787489757259,0.000395058952397802,-0.0035567494922696292,0.00297700257397874,0.9934069261144718
2013-09-10,1,0.0005648162758362951,0.0008024971204482558,-0.005220235605858628,0.0006544399918688679,0.9945808668328914
2013-09-12,1,0.0003525546035650476,0.0006073520277431638,-0.006379282838075325,0.001227378944901172,0.9926656379868734
2013-09-16,1,0.0018891253229678592,0.0019248581607158419,-0.006379282838075325,0.002634948770179446,0.9917816415631787
2013-09-18,1,0.0017505039121207377,0.0017728286344369615,-0.010034214168858642,0.0045744744009630755,0.9905497022636351
2013-09-20,1,0.0017485370855460352,0.0018073846723301867,-0.010034214168858642,0.009989063810288825,0.9895688154026083
2013-09-24,1,0.0010676387338021845,0.001109351319417192,-0.006167772445757787,0.009989063810288825,0.9902785027973794
2013-09-26,1,0.001346067467531654,0.0013881674116340925,-0.008012598051084166,0.009989063810288825,0.9900409676986086
2013-09-30,1,0.0009798486310537277,0.0009858536525464716,-0.008182313557285097,0.009989063810288825,0.9898309064171563
2013-10-02,1,0.000786031405586251,0.0008433619143373976,-0.010034214168858642,0.009989063810288825,0.9880796322778072
2013-10-04,1,0.0009344003588697474,0.0009441370499671924,-0.008994634368370936,0.00905340145693569,0.9883301843575193
2013-10-08,1,0.00014234825844722498,0.0002307608473476172,-0.005980874392130069,0.01048856737464959,0.9888912017070416
2013-10-10,1,0.0007865615645739137,0.0007953140114828009,-0.005980874392130069,0.01002758671413663,0.9900310726885929
2013-10-14,1,0.0009352187977314886,0.0009355960359424088,-0.007666071450921597,0.009545148805387167,0.9899283003849858
2013-10-16,1,0.0004210378662470672,0.0004928763663818751,-0.005980874392130069,0.008980544992605324,0.9910502079989898
2013-10-18,1,0.0011499517922722144,0.0011665788281486668,-0.007666071450921597,0.0063941146764567615,0.9914312946396626
2013-10-22,1,0.0010424818972898534,0.0010857007875040643,-0.00783968892440972,0.0063941146764567615,0.9900626182852382
2013-10-24,1,0.0009626766111120433,0.001005024130120917,-0.00783968892440972,0.008980544992605324,0.988658062168124
2013-10-28,1,0.00019385111696792903,0.00036079902379074897,-0.006041348194817572,0.008980544992605324,0.9890394650035347
2013-10-30,-1,-0.0012739371846047472,-0.000966849628123933,-0.0059195087234764025,0.008980544992605324,0.990595568029092
2013-11-01,-1,-0.0015164678414036116,-0.0011572769274337071,-0.004379985584820247,0.008699055369836685,0.9908115217455012
2013-11-05,-1,-0.0010203650999759332,-0.0007456650043089474,-0.004379985584820247,0.006300284802200549,0.9914637614694181
2013-11-07,-1,-0.000548823542663872,-0.00037569258757281127,-0.001417006195910953,0.006300284802200549,0.99204604339737
2013-11-11,-1,-0.001600548826458373,-0.0012278802659687455,-0.0013632869206626637,0.005593134328071417,0.9921006605205414
2013-11-13,-1,-0.001923842987351658,-0.0014595453224267646,-0.004379985584820247,0.004115947454083961,0.9912845962951249
2013-11-15,-1,-0.0013173459827418293,-0.0009673708864455688,-0.003449454753741221,0.003316262607779238,0.9924089752111132
2013-11-19,-1,-0.002542516316053161,-0.002047316510388044,-0.003224143973713254,0.004115947454083961,0.9924577015023024
2013-11-21,-1,-0.0007837075833143865,-0.0005138561557933909,-0.003224143973713254,0.003316262607779238,0.9944150861825855
2013-11-25,-1,-0.0008092603300418036,-0.0005484808700985511,-0.0027681922563617205,0.004305907865406681,0.9937992856039012
2013-11-27,-1,-0.0013035987743154963,-0.0009758546155163618,-0.0013456354648976438,0.004305907865406681,0.9937901556022246
2013-12-02,-1,-0.0009674414174292913,-0.0006925327840035754,-0.0013456354648976438,0.006628569877933597,0.9937254540317949
2013-12-04,-1,-0.0009228380841544653,-0.0006573417400318997,-0.0027681922563617205,0.006628569877933597,0.9933418138301922
2013-12-06,-1,-0.0003959382790072695,-0.00020644104483890952,-0.0027681922563617205,0.006229373172151731,0.9935866433940337
2013-12-10,-1,-0.000500484859188561,-0.00029425890713691955,-0.0013456354648976438,0.007324513065752779,0.9934119762053808
2013-12-12,-1,-0.0016007050717137174,-0.0012665617438543508,-0.0006419910831238497,0.007324513065752779,0.9941284046776145
2013-12-16,-1,-0.0003086959103774625,-0.00023740652951596966,-0.0006419910831238497,0.007324513065752779,0.9945365770854929
2013-12-18,1,0.0002377427634410286,0.0002585331328355829,-0.0006419910831238497,0.007033741969665187,0.995219695014421
2013-12-20,1,0.0008441940326740682,0.0009251633280780653,-0.0005502519588676372,0.007033741969665187,0.9927553656269636
2013-12-24,1,0.0018137915491882228,0.002028712594437268,-0.001092293852588631,0.0065817810249049966,0.9912030112270815
2013-12-27,1,0.0017123459275844312,0.0019044133660955185,-0.0025347769561845056,0.0065817810249049966,0.990890413369033
2013-12-31,1,0.0017294699773356382,0.0018892722548841015,-0.0032334683846681755,0.0065817810249049966,0.9903876504010752
2014-01-03,1,0.001178712938002902,0.001268928241347574,-0.004631731984346369,0.0065817810249049966,0.988801678075194
2014-01-07,1,0.0012844048203970169,0.0013754639806426397,-0.004631731984346369,0.004887528660022108,0.9887923623941298
2014-01-09,1,0.0011875887356490359,0.0012155308927993796,-0.004631731984346369,0.0065817810249049966,0.9878578664413871
2014-01-13,1,0.0011685488032058126,0.001200827738054995,-0.0051812270918282,0.007531791720014264,0.9872939462294065
2014-01-15,1,0.0010941724146301564,0.0011270689231631075,-0.0049655541557904505,0.007531791720014264,0.9873493548432957
2014-01-17,1,0.0012586146132770413,0.001304696157299171,-0.0049655541557904505,0.007092881565715072,0.9874487782741109
2014-01-22,1,0.0026802548130366605,0.0028622826494359675,-0.0049655541557904505,0.004597849599270418,0.9903509895136382
2014-01-24,1,0.0010360844062689877,0.0010680419903561326,-0.00299189544728535,0.006534718586469567,0.9926721102421321
2014-01-28,1,0.0011841560349664425,0.00121275576342868,-0.0035202609190358447,0.006534718586469567,0.992653166525222
2014-01-30,1,0.001495143522529795,0.0015605072786924305,-0.00299189544728535,0.006683062894624349,0.9930589877540943
2014-02-03,1,0.0009091604243980735,0.0010062534450976388,-0.001378343026270223,0.008791416750170668,0.9935314054806967
2014-02-05,1,0.000581011096748395,0.0006268346409266277,-0.0012885296637830772,0.008791416750170668,0.9927934783802049
2014-02-07,1,0.0017991164489518392,0.0020305672043922445,-0.0027543001147921457,0.005862342478206774,0.9937879972990274
2014-02-11,1,0.0018749539769192208,0.0021158297576513796,-0.0027543001147921457,0.005407322794297299,0.9934053859909118
2014-02-13,1,0.00196007194453549,0.0021911094161498924,-0.004630103623278275,0.00446265907220668,0.9927095774460788
2014-02-18,1,0.0017141006648414441,0.001878686500421808,-0.004630103623278275,0.006683062894624349,0.9917815796553727
2014-02-20,1,0.0015574403936948343,0.0016907624638413082,-0.005723379355863082,0.008908981981439693,0.9902419689540586
2014-02-24,1,0.0016219406877386517,0.0017404549372341048,-0.0066453329503848154,0.009822083077039717,0.9894983232854625
2014-02-26,1,0.0014275897684993223,0.001527251466138923,-0.008184853661843287,0.009822083077039717,0.9887370926420883
2014-02-28,1,0.0019199876280145108,0.002079981081180667,-0.008184853661843287,0.008385056088454551,0.9888896850525967
2014-03-04,1,0.0020311268769221662,0.0021368347618230914,-0.008184853661843287,0.008385056088454551,0.99010878428458
2014-03-06,1,0.0013329209802395712,0.0013607739713890068,-0.006223259948806736,0.010952387655507797,0.9899758679316799
2014-03-10,1,0.0016449070896331708,0.001744835526763288,-0.009382142479944832,0.010952387655507797,0.988289570820632
2014-03-12,1,0.0005079027796657843,0.0005794690738332136,-0.008184853661843287,0.012704560557992605,0.988509638141316
2014-03-14,1,0.0006633340906490987,0.0006845735155844422,-0.009262505682062314,0.012704560557992605,0.9879245094799668
2014-03-18,1,0.0018187583644603197,0.0020034181813804535,-0.009262505682062314,0.008759530323530086,0.9887430023191045
2014-03-20,1,0.00204513586091704,0.002249677582783358,-0.0049540326567587434,0.008759530323530086,0.9896082013568765
2014-03-24,1,0.0019283820850967786,0.002089593376373205,-0.0012264951545043065,0.007654103644461982,0.9904932638039284
2014-03-26,1,0.0005148112920866862,0.0006131707210764038,-0.0012264951545043065,0.007654103644461982,0.9903054352950502
2014-03-28,1,0.000734880474671354,0.00080435417941254,-0.015354003579927819,0.007547122827242235,0.9886998522894497
2014-04-01,1,0.0013161813316111468,0.00132951206453563,-0.015354003579927819,0.007377286003388594,0.988847734572882
2014-04-03,1,0.0018388063336940176,0.0019143923562289966,-0.015354003579927819,0.006806189338295333,0.9901030476889827
2014-04-07,1,0.00020803943325464769,0.00033383429398824366,-0.004042580241020253,0.006806189338295333,0.9908437650339258
2014-04-09,1,0.0010708315698749425,0.001085173503150752,-0.007005985649796631,0.005218214891981028,0.9914602416072871
2014-04-11,1,5.3166867990618886e-05,0.00018463826924289603,-0.0023579792494915356,0.006806189338295333,0.9920177406006644
2014-04-15,0,-8.117085676935813e-05,0.0001201238871765722,-0.00610001147422079,0.00466774942742929,0.992010385848374
2014-04-17,1,0.001594038864345939,0.0016821332467908635,-0.012474540342598301,0.00466774942742929,0.9913482968550762
2014-04-22,1,0.0015231544085037387,0.0015867534707390378,-0.012914291630051925,0.005137300213032046,0.9906267654172562
2014-04-24,1,0.0008504288792824371,0.0008940756246927672,-0.011715149929507002,0.004930758451788994,0.9915853476118968
2014-04-28,-1,-0.0007328693486733337,-0.0005129611086433748,-0.004167369195292812,0.006186564054566175,0.9926413123777513
2014-04-30,-1,-0.00033080624259804246,-0.00015983669079323908,-0.004167369195292812,0.006275278499149875,0.9923920845313912
2014-05-02,1,3.28661344078555e-05,0.00014344563526419793,-0.004167369195292812,0.006275278499149875,0.9924083120497799
2014-05-06,-1,-0.0007999042857416322,-0.0005936500766497199,-0.0023213823446046173,0.007936286511621479,0.9921672672014065
2014-05-08,-1,-0.0016109745273052672,-0.0012489876032867246,0.0007500963466077837,0.007936286511621479,0.9915021690493077
2014-05-12,-1,-0.0013916174286516378,-0.0010479514574731129,0.001099194125237679,0.007558314807729686,0.9917840307956243
2014-05-14,-1,-0.001655397492377666,-0.001318624809069729,0.001099194125237679,0.007558314807729686,0.9920923798746394
2014-05-16,-1,-0.0019006828645723448,-0.0015555108204975017,0.000651734991226273,0.007305515583567467,0.9930965937539361
2014-05-20,-1,-0.001820547723762844,-0.0015092516290640965,0.0014237262050301957,0.007157664120129886,0.993585981758176
2014-05-22,-1,-0.0015386326421263645,-0.001260852113954311,0.0007723824352906248,0.007157664120129886,0.9939141605890094
2014-05-27,-1,-0.0006357415888967046,-0.00048220557749086484,-0.0006438366791934087,0.005294288380165483,0.994400103588392
2014-05-29,-1,-0.00026284505043915464,-0.0001278770018923413,-0.0006438366791934087,0.004340171714019773,0.9952527297881175
2014-06-02,1,7.753898612343968e-05,0.00016102184295605263,-0.001610932482461453,0.005294288380165483,0.9949510717571929
2014-06-04,1,0.0009395324285289802,0.000981223951589564,-0.0018026928352406035,0.005294288380165483,0.9945938377743104
2014-06-06,1,0.0013772431536556865,0.0014735194221643286,-0.0018026928352406035,0.004340171714019773,0.9949066044663203
2014-06-10,1,0.0014699951706987626,0.0015691892432502085,-0.0020043237549909336,0.004340171714019773,0.9948553939723137
2014-06-12,1,0.0012243892751981319,0.0013070197538203926,-0.0020130219892707606,0.004340171714019773,0.9945476880931429
2014-06-16,1,0.0019258082761541722,0.002245348871025895,-0.001895839227129136,0.004340171714019773,0.994621988922732
2014-06-18,1,0.001187049320948519,0.0012923117489468047,-0.0018996353685628742,0.0028906672508177697,0.9946843961716145
2014-06-20,1,0.0011529099177604784,0.001240944348174821,-0.0018996353685628742,0.0033318256149093154,0.9939977903356485
2014-06-24,1,0.0006334888995627747,0.000675050594423674,-0.001895839227129136,0.006614733685000046,0.9926271012624197
2014-06-26,1,0.0001508076304568318,0.00024989494317042605,-0.0018996353685628742,0.007944323599143566,0.9918051747936879
2014-06-30,1,0.00026525720438477004,0.00036665134263158235,-0.0020186543603568506,0.006614733685000046,0.9921072612302788
2014-07-02,1,0.0013556309257354222,0.0014377905728411885,-0.0024534947432813823,0.006614733685000046,0.9916495770911657
2014-07-07,1,0.0015424442875679074,0.0016498246350408773,-0.004703483410405291,0.0036855190208455726,0.9914409187793094
2014-07-09,1,0.0017213778497353002,0.001865375681111481,-0.005637996751290196,0.001882549600050782,0.9913826870315404
2014-07-11,1,0.0013010787191104415,0.0013918079633971937,-0.005637996751290196,0.003674852042982547,0.9916162799002722
2014-07-15,1,0.0011320575286436346,0.001196322790595455,-0.00601286724134777,0.004293070325543539,0.991391402851516
2014-07-17,1,0.0011647381854543145,0.0012466104919083925,-0.00601286724134777,0.007353559355629046,0.9908204541774235
2014-07-21,1,0.001561999448760314,0.0016820881038148102,-0.00601286724134777,0.007353559355629046,0.9911131242508577
2014-07-23,1,0.0012557928320158405,0.0013627481826791778,-0.00601286724134777,0.004293070325543539,0.9931247524116681
2014-07-25,1,0.0018114154168668594,0.002024682950204921,-0.00601286724134777,0.002971231916812798,0.9936194541731903
2014-07-29,1,0.0011964934775534563,0.0012838914380623036,-0.0055457784997889285,0.004293070325543539,0.993577684080345
2014-07-31,1,0.0007916301111200355,0.0008247460684788118,-0.0055457784997889285,0.002971231916812798,0.9944297690490804
2014-08-04,1,0.0001959419964123485,0.00026971694965938914,-0.005375492304488488,0.004293070325543539,0.9943807249375495
2014-08-06,-1,-0.00039628962726842587,-0.00022514616470903392,-0.0023150918850459493,0.005784231370687539,0.9943335277516111
2014-08-08,1,7.484870659979747e-05,0.00014494852716964281,-0.0023150918850459493,0.0040865038810884565,0.994621924377556
2014-08-12,1,0.00010811155568961762,0.0001538263813555468,-0.0023150918850459493,0.005957166019767454,0.9941624473544265
2014-08-14,1,0.0006893920658441585,0.0007214183131849523,-0.0058663501579848945,0.005957166019767454,0.9936012972007086
2014-08-18,1,0.000812062302707221,0.000840914633249463,-0.006426585270444236,0.0028380992391501205,0.9935240101629315
2014-08-20,1,0.0005770405663793557,0.0005869966950454201,-0.00632877704912335,0.0028380992391501205,0.9936555021099541
2014-08-22,1,0.0006149604120923006,0.0006505008127475838,-0.007321000816059036,0.0027118940209367465,0.9928000715255827
2014-08-26,1,0.0012994898725834868,0.001459818254774503,-0.008189982420147037,0.002708247482367525,0.9920307631365942
2014-08-28,1,0.00014521320650632224,0.00020045885251765357,-0.008189982420147037,0.0055667253105247914,0.9918416539123455
2014-09-02,1,0.000766974351376404,0.000820792278786368,-0.012562419016352484,0.002708247482367525,0.989227388752078
2014-09-04,1,0.00036814738052948237,0.0003924542815135876,-0.014127712764179078,0.0009241364107094837,0.988909908535522
2014-09-08,1,0.00042545349280045507,0.0004296032940441979,-0.014127712764179078,0.0055832805577930526,0.9876611908321605
2014-09-10,1,0.0006026168874330373,0.0006684575616858281,-0.014127712764179078,0.0055832805577930526,0.9874557178756406
2014-09-12,1,0.0009108538939163126,0.0010236761358185466,-0.0165067199555051,0.001875746840572165,0.9843680520763757
2014-09-16,1,0.00030146133509658643,0.00032345883810588904,-0.0165067199555051,0.0055832805577930526,0.9845750215417417
2014-09-18,-1,-0.0007066378514107922,-0.0005462758641120997,-0.0165067199555051,0.006201795710954355,0.9848519250846045
2014-09-22,-1,-0.00127681479341124,-0.0010681258098075394,-0.016494938212013335,0.0085075488954198,0.9849898665378061
2014-09-24,-1,-0.0015793458696830307,-0.0013437261983206316,-0.014127712764179078,0.010668462926274658,0.9839753282638062
2014-09-26,-1,-0.002257145700023896,-0.0019196683202704968,-0.012919299323581898,0.013832569842890656,0.9832816535811141
2014-09-30,-1,-0.004331433049012126,-0.0037520304076711403,-0.00408890231013166,0.01679323370114135,0.9834342251058636
2014-10-02,-1,-0.004532690296906991,-0.00394571565458409,-0.0015106899082241321,0.017971469146066652,0.9824291570260066
2014-10-06,-1,-0.003772202354237141,-0.003249599097729543,-0.0015106899082241321,0.017971469146066652,0.9828058583271011
2014-10-08,-1,-0.004011304119684657,-0.0034431783674686626,-0.0009460105887324796,0.017971469146066652,0.982808228830263
2014-10-10,-1,-0.00724773016140107,-0.006298119777519066,0.0002415472980458011,0.017971469146066652,0.9835615295708188
2014-10-14,-1,-0.006685853268066497,-0.005816552121870792,0.0002415472980458011,0.017971469146066652,0.9845361487804694
2014-10-16,-1,-0.006030149867931491,-0.005266483978467331,-0.0007363008743745632,0.017971469146066652,0.985715965757308
2014-10-20,-1,-0.005037791128756596,-0.004419571773914257,-0.0008888752154847321,0.01679323370114135,0.9870435468911116
2014-10-22,-1,-0.0041674490348275525,-0.0036622652659644983,-0.0008888752154847321,0.01273976456991291,0.9889132107546654
2014-10-24,-1,-0.00267260581990425,-0.0023724900842764713,-0.0008888752154847321,0.008852303145063021,0.9900764482507789
2014-10-28,-1,-0.0013506678998386316,-0.0012295860763790072,-0.002057922105329604,0.008602603695746128,0.9916949139251967
2014-10-30,-1,-0.0004555316916282939,-0.0004511574427695725,-0.002057922105329604,0.007051991593715524,0.9925791383201854
2014-11-03,1,0.0004786217058348175,0.0005889346148247859,-0.0027146144335558047,0.005729825165108874,0.9938909524370746
2014-11-05,1,0.0007558083755682573,0.0008970326585453593,-0.0027146144335558047,0.005729825165108874,0.9937604370475861
2014-11-07,1,0.0008583356698499273,0.0010247593841416782,-0.004864484939117851,0.006446573556348053,0.9929830633116918
2014-11-11,1,0.000846081615524808,0.0010186080497309846,-0.004864484939117851,0.006446573556348053,0.9926039543547938
2014-11-13,1,0.0003352128344022486,0.0004052844766696702,-0.005474647332342935,0.006446573556348053,0.9917426496414281
2014-11-17,1,0.0003110955100276371,0.0003852613371392232,-0.005425802743013463,0.006446573556348053,0.991951442186859
2014-11-19,1,0.0007106856205606465,0.0008554139500189619,-0.0035544140914218515,0.007675411448323015,0.9908844876442298
2014-11-21,1,0.0017690199037249808,0.002093054678037812,-0.003671394313677469,0.007675411448323015,0.9912647814163551
2014-11-25,1,0.002170119772182698,0.0025607095180758604,-0.003671394313677469,0.006446573556348053,0.9916799301756609
2014-11-28,1,0.0025774145561979845,0.0030295241704369836,-0.0041082541738572155,0.005243728639352355,0.9915532891173398
2014-12-02,1,0.002324604251462541,0.0027210623090240136,-0.007366336507987344,0.003571361649665393,0.9910779645688768
2014-12-04,1,0.0026193677306222754,0.0030502428944613027,-0.008954541046796952,0.0025193868388849214,0.9902777408015033
2014-12-08,1,0.002417304800042222,0.0028209827326313116,-0.00909704875157648,0.0025193868388849214,0.9892056889378589
2014-12-10,1,0.002391011591293203,0.002824352208008564,-0.007366336507987344,0.004633864383989324,0.988986135103724
2014-12-12,1,0.0011638823304509786,0.0013871716271535042,-0.007366336507987344,0.004633864383989324,0.9895397733804737
2014-12-16,1,0.0011668039002802515,0.0014150387142139614,-0.007529049569250362,0.006129541307648784,0.9894609287059765
2014-12-18,1,0.0024414634190258787,0.002848062812871457,-0.009585187935365532,0.0029757794604058758,0.9895415571381413
2014-12-22,1,0.0027497390270634125,0.0031667285899441965,-0.009585187935365532,0.0029757794604058758,0.9898196088895143
2014-12-24,1,0.0026446030301708933,0.0030374277521137425,-0.009585187935365532,0.004337777361846084,0.9900240279054586
2014-12-29,1,0.0025591902004486492,0.0029266843705884993,-0.009585187935365532,0.010658263585314035,0.9873550545058046
2014-12-31,1,0.0017365202937353781,0.0019833320312319346,-0.009585187935365532,0.010658263585314035,0.9877045114964159
2015-01-05,1,0.0009703717995681927,0.001107160667914396,-0.006618426725475142,0.013317770989746642,0.9876057110136093
2015-01-07,1,0.0018316703516413682,0.002115118689261586,-0.005527660843827217,0.013128172703204329,0.9887842699153395
2015-01-09,1,0.002492397966342469,0.00288599887412241,-0.006216251947138032,0.010658263585314035,0.9892785292177968
2015-01-13,1,0.0016113471561754722,0.0018675915269102295,-5.28006011847053e-05,0.010658263585314035,0.9902078355597173
2015-01-15,1,0.0013768852453933272,0.0015930635224326384,0.0013139147904389346,0.010658263585314035,0.990144797431458
2015-01-20,1,0.0014882131612863657,0.0017491882828526,0.0013139147904389346,0.010042861244844594,0.991152865997028
2015-01-22,1,0.001586605692551226,0.0018273777606658144,0.0016926331869309536,0.00881173812967206,0.9913593636075835
2015-01-26,1,0.001992356042355838,0.0023129078719097,0.0010893582894079413,0.00881173812967206,0.9913055563721027
2015-01-28,1,0.004324198346416111,0.004963146758436293,0.0010893582894079413,0.007244278464583739,0.9947115769061952
2015-01-30,1,0.0035975448276553542,0.00412646759696451,0.0011567262900826004,0.0075773810758808895,0.9951361665168337
2015-02-03,1,0.004329091049024873,0.004942585798136339,-0.0015049992662834258,0.006363993847599085,0.9954354682270501
2015-02-05,1,0.004936020673914534,0.005646135222385054,-0.0028233639064609373,0.005563583638320601,0.9953624466878261
2015-02-09,1,0.004606443366256052,0.005245310240355424,-0.0028233639064609373,0.004924809418840115,0.9954025164656166
2015-02-11,1,0.004592924095929412,0.0052122246676660575,-0.003470280734769731,0.005563583638320601,0.9948692046309914
2015-02-13,1,0.004514732893757638,0.005071415193398487,-0.003768882399525517,0.0044818509594005875,0.9935318286737093
2015-02-18,1,0.004110808078108831,0.0045877747817028025,-0.0047531615218037275,0.006363993847599085,0.9928457687837093
2015-02-20,1,0.003968199492834414,0.004390201725148261,-0.005645051382083538,0.007752016642616743,0.9917160127763178
2015-02-24,1,0.0026515355921109232,0.0027494782550069787,-0.006843536285272382,0.005208408207704785,0.9914844610219565
2015-02-26,1,0.0023736288619017735,0.0023901358777228864,-0.008770163050817379,0.0032121374560968013,0.9901787379671042
2015-03-02,1,0.00299078152027214,0.0031493594691642344,-0.008770163050817379,0.0032121374560968013,0.9897475668125482
2015-03-04,1,0.0025578957160985417,0.0026421134732500227,-0.008770163050817379,0.0029111728815902267,0.989665511680414
2015-03-06,1,4.921583256409603e-05,0.00038812678969535515,-0.008770163050817379,0.0074870901707575705,0.9907303724792069
2015-03-10,-1,-0.00044510661497959027,-5.218790832562693e-05,-0.007844533434430043,0.0074870901707575705,0.991086035804983
2015-03-12,-1,-0.00039234587114599226,-1.2453498877090189e-05,-0.007844533434430043,0.0034295801739838215,0.9916004011257872
2015-03-16,1,8.285215354813396e-05,0.0003959204622963953,-0.007844533434430043,0.0015172560554768146,0.9924470201759773
2015-03-18,1,0.00047763716891816986,0.0007347773438323243,-0.006211101414966582,0.0015172560554768146,0.992914870274928
2015-03-20,1,0.0009671042341967064,0.0011102680590739128,-0.006211101414966582,0.0015172560554768146,0.9928966358892094
2015-03-24,1,0.000723929579877068,0.0008578721580993282,-0.006211101414966582,0.0019580126907828427,0.9932157635266217
2015-03-26,1,0.00023020041363107407,0.0003878564867312036,-0.006211101414966582,0.0019580126907828427,0.9936012997021186
2015-03-30,1,0.001377620738705547,0.0014061886328514436,-0.007579323489120265,0.0014459878067781067,0.9936711283386552
2015-04-01,1,0.0011217412556416726,0.0011366714427203549,-0.00903524431029589,0.0014459878067781067,0.9929267718458579
2015-04-06,1,0.00102040028345493,0.0010224073907675543,-0.00903524431029589,0.0019580126907828427,0.9917366550194396
2015-04-08,1,0.0004522749055301759,0.0005390246886764628,-0.009819851595573515,0.0019580126907828427,0.9911536511798797
2015-04-10,1,0.00024072980371317904,0.0003738258661486717,-0.009819851595573515,0.008247288783742363,0.9905719181773016
2015-04-14,-1,-0.0004906014040438594,-0.00026283069864579305,-0.009873410670832812,0.00841133972180077,0.9903578703060327
2015-04-16,-1,-0.00025948169046314075,-6.847566370463457e-05,-0.009873410670832812,0.008687999292137833,0.990040669490245
2015-04-20,1,0.00023610053157304588,0.0003266697154034264,-0.00903524431029589,0.00841133972180077,0.9907749705124798
2015-04-22,1,3.600893353658367e-05,0.00013816027134919942,-0.00822509851277062,0.00841133972180077,0.9910680355305187
2015-04-24,-1,-0.0006799873156456994,-0.0005113084164980891,-0.005233109775716245,0.00841133972180077,0.9918321528046182
2015-04-28,-1,-0.0011813720054247366,-0.0009423810008463755,-0.005760331875372816,0.008687999292137833,0.9908674828307127
2015-04-30,-1,-0.001981438616494236,-0.0016692564538499854,-0.004844356048065523,0.008687999292137833,0.9914681005212139
2015-05-04,-1,-0.0006034165382421616,-0.00044157771608228854,-0.004844356048065523,0.008247288783742363,0.9932100059797652
2015-05-06,-1,-0.0018771842641813784,-0.0015345697675864197,-0.004844356048065523,0.008247288783742363,0.9929012784137548
2015-05-08,-1,-0.001841204289995173,-0.001455235250618354,-0.005574963559287648,0.007124838162370883,0.9932032732873091
2015-05-12,-1,-0.0022465549500818773,-0.0017928203916077804,-0.004655056733657686,0.007297380697377811,0.9934334929248545
2015-05-14,-1,-0.0007194613598785793,-0.0005083935873016062,-0.005484131622361734,0.0038752028603816807,0.9939406903926338
2015-05-18,-1,-0.0001782773857577875,-5.4384404980576295e-05,-0.0058703656917334195,0.0038752028603816807,0.9927474508225067
2015-05-20,-1,-0.000445206086395267,-0.00028704865910016413,-0.0058703656917334195,0.005745421183986622,0.99226825617421
2015-05-22,-1,-0.000782984271193426,-0.0005824285428729902,-0.006655441718821632,0.007064902144100533,0.9917121605369955
2015-05-27,-1,-0.001305874864710466,-0.0010035228990138516,-0.006655441718821632,0.00506476821423547,0.9919855325695409
2015-05-29,-1,-0.0025063605665956775,-0.00201875495144204,-0.007425232748183519,0.00506476821423547,0.9912902668677371
2015-06-02,-1,-0.0020341143072028015,-0.0016409777729765914,-0.01123463673787138,0.005111723056374211,0.9897981506459055
2015-06-04,-1,-0.002412424232309995,-0.001994806091848389,-0.007425232748183519,0.005111723056374211,0.9907823098901659
2015-06-08,-1,-0.00277508797597125,-0.0022773542889922803,-0.01026585705649,0.0038908544744279275,0.9910421557467424
2015-06-10,-1,-0.002477191527677341,-0.0020140077635705765,-0.01123463673787138,0.003068919257476825,0.99042747907855
2015-06-12,-1,-0.002648305670874224,-0.0021606740361612294,-0.01123463673787138,0.0033344836605727892,0.9900333340943057
2015-06-16,-1,-0.002308379177210813,-0.0018777758045668428,-0.01026585705649,0.0033344836605727892,0.9909187135416814
2015-06-18,-1,-0.0020066051877229004,-0.001619152759884729,-0.01026585705649,0.0024032809378855134,0.9912251138950436
2015-06-22,-1,-0.001078231479331327,-0.0008880148501367117,-0.009572168310175187,0.0024032809378855134,0.9916752890714265
2015-06-24,-1,-0.0020085145849060323,-0.0016843453134746781,-0.009572168310175187,0.001143955430265187,0.9920934362474749
2015-06-26,-1,-0.0025144187887710893,-0.002173293236001338,-0.009572168310175187,0.001143955430265187,0.9925040775561121
2015-06-30,-1,-0.003051980876886258,-0.0026755542584975204,-0.009156248637849215,0.001143955430265187,0.9934068858592632
2015-07-02,-1,-0.0029290699864733642,-0.0025692412882508276,-0.009156248637849215,0.0024058892445312217,0.9932199286189409
2015-07-07,-1,-0.0031964943926823686,-0.0028183231091849677,-0.007742624118876811,0.0024058892445312217,0.9932288080093183
2015-07-09,-1,-0.0036182194571727265,-0.003218298799910895,-0.007742624118876811,0.003076506516420777,0.9923283350044491
2015-07-13,-1,-0.00307527816802566,-0.002743736119977594,-0.007742624118876811,0.0038540600810021346,0.991205871570897
2015-07-15,-1,-0.0024946496865300757,-0.0022481356318941065,-0.009156248637849215,0.003076506516420777,0.991005631827545
2015-07-17,-1,-0.0026219082383425107,-0.0023753840176821014,-0.009492726614807458,0.0038540600810021346,0.9902518591219521
2015-07-21,-1,-0.0022429455478088557,-0.0020556636400450683,-0.009492726614807458,0.0038540600810021346,0.9904898041999797
2015-07-23,-1,-0.0025844064667567444,-0.002374865084403338,-0.008389855325668745,0.0038540600810021346,0.9899915310258321
2015-07-27,-1,-0.0037056587860145656,-0.003368914823509877,-0.012583316194739744,0.0038540600810021346,0.9869752175438593
2015-07-29,-1,-0.002542598776142453,-0.002329577878905302,-0.01330286299374982,0.0038540600810021346,0.9863252611635018
2015-07-31,-1,-0.0023091102649107024,-0.002111198745916341,-0.01330286299374982,0.013282792612365875,0.984577448258716
2015-08-04,-1,-0.002013593173537421,-0.0018595635867430776,-0.01649873637183557,0.013282792612365875,0.9836816078050407
2015-08-06,-1,-0.001296737181582691,-0.0012455721835675324,-0.014463700625654432,0.013124023756916552,0.9844674609084175
2015-08-10,1,1.1840797118669298e-06,0.00013038029946541295,-0.016535723081222652,0.013124023756916552,0.9840822512592802
2015-08-12,-1,-0.000554109858635752,-0.0004838788624455581,-0.01331519189687885,0.013124023756916552,0.9840815332632374
2015-08-14,-1,-0.0006580279928320211,-0.0006192687337463145,-0.01331519189687885,0.012678955053042756,0.984687010897417
2015-08-18,-1,-0.0009644126493099661,-0.000931161740458162,-0.01331519189687885,0.0182580703109854,0.9830742596000969
2015-08-20,-1,-0.001278305922030657,-0.0012363235722099627,-0.01331519189687885,0.0182580703109854,0.9832057447394962
2015-08-24,-1,-0.002918981353746517,-0.00267558603960703,-0.011492205031558666,0.0182580703109854,0.9847393205942953
2015-08-26,-1,-0.0023569912934749706,-0.002187598912584243,-0.008007392398659137,0.015945201933003042,0.9862669946849655
2015-08-28,-1,-0.0011542873103812152,-0.0011201535308875002,-0.012182879183414739,0.009199916348948768,0.987207115752455
2015-09-01,-1,-0.0016085279543311955,-0.0015351331888926595,-0.008007392398659137,0.013722881532914274,0.9856280500339226
2015-09-03,-1,-0.0010360268314982914,-0.001016283995929168,-0.008038311666723991,0.011098844183928681,0.98607265278111
2015-09-08,-1,-0.0002617792601924802,-0.00016327101315931597,-0.006981907134099147,0.011098844183928681,0.9870745407153698
2015-09-10,-1,-0.00016856547227877888,-4.959155872088589e-05,-0.006522987676409896,0.009897839118072098,0.9881127564626638
2015-09-14,1,5.584477039907303e-05,0.00019061855199976045,-0.006522987676409896,0.00985608712849918,0.9883885372926117
2015-09-16,1,0.0007723470772609439,0.0009677320299195097,-0.006522987676409896,0.0030387273511449557,0.9893112171828247
2015-09-18,1,5.84991609505181e-05,0.00014831265544629717,-0.005758807065431849,0.005840939385518608,0.9893714278957293
2015-09-22,-1,-0.0011643834899179354,-0.001062369892454318,-0.002606645922474249,0.008220984860582252,0.9902941731328642
2015-09-24,-1,-0.000753414163203062,-0.0007419257727099624,-0.0005251146719871717,0.00985608712849918,0.9870912379170024
2015-09-28,-1,-0.001858452970393876,-0.001710027862221518,-0.00023866784630094263,0.00985608712849918,0.987425823454224
2015-09-30,1,4.100175156333835e-05,0.0001581770347605684,-0.0007562053444797955,0.008220984860582252,0.9893762459302227
2015-10-02,1,0.00016176809970803123,0.0002967002229206051,-0.00023866784630094263,0.009198047108940788,0.9892787227188304
2015-10-06,1,0.0013251464024094496,0.0016533432942198768,-0.00023866784630094263,0.009198047108940788,0.9901885294025777
2015-10-08,1,0.0015472674586000804,0.0019230761511218695,0.00011930821086749368,0.009198047108940788,0.9898856802614339
2015-10-12,1,0.001584280310683601,0.0019600932296965183,-0.0008771328961550814,0.009198047108940788,0.9893938482909646
2015-10-14,1,0.0015161437235467635,0.0018742219097874812,-0.0008771328961550814,0.010834775009165833,0.989075049000856
2015-10-16,1,0.002298439568207134,0.0027639094809271043,-0.004127402390857975,0.008592251778329344,0.9890839600856023
2015-10-20,1,0.002351113087859586,0.002797523540362435,-0.006909188190581769,0.010563914223735493,0.9885404840940617
2015-10-22,1,0.0025898136283370667,0.0030746692713606648,-0.004127402390857975,0.010563914223735493,0.9912283074025242
2015-10-26,1,0.0025677229157352955,0.003024020537852741,-0.004127402390857975,0.010563914223735493,0.9911330748591155
2015-10-28,1,0.002470868564931998,0.0029220718097590173,-0.004127402390857975,0.00837037989704267,0.992013049650182
2015-10-30,1,0.003179987702400595,0.0037422544953528087,-0.0044902042021569616,0.007909561934689974,0.9921215998387801
2015-11-03,1,0.0037608057807923465,0.004395938125087907,-0.006909188190581769,0.007639032616829019,0.9917525562534791
2015-11-05,1,0.004229078037782582,0.004934641762008444,-0.007629095402176126,0.007639032616829019,0.9911710320627241
2015-11-09,1,0.004016600587413681,0.004707855430696352,-0.007638077484050472,0.007639032616829019,0.9907970266576663
2015-11-11,1,0.004110551118644816,0.004807633954080019,-0.00926370937616609,0.006445223453612226,0.990368900682981
2015-11-13,1,0.0031797512099379674,0.003720969534691413,-0.00926370937616609,0.006445223453612226,0.9905124525060959
2015-11-17,1,0.002814708404164643,0.0032577036638348307,-0.00926370937616609,0.007639032616829019,0.9906336493418259
2015-11-19,1,0.003355089307303831,0.0038302897429273886,-0.010687927002420576,0.006445223453612226,0.9901843562784737
2015-11-23,1,0.0034458161902976093,0.003931228787076937,-0.010687927002420576,0.007797747914980229,0.9897100802970152
2015-11-25,1,0.002819238624114661,0.003192550608073553,-0.010687927002420576,0.008682779780222425,0.9900685453421194
2015-11-30,1,0.002525887510001261,0.002809709206925114,-0.010687927002420576,0.008604213405092017,0.9902175631414691
2015-12-02,1,0.002479265594126262,0.0027773775540779638,-0.010687927002420576,0.008604213405092017,0.9901614996999317
2015-12-04,1,0.0023861250142026835,0.002678775209868955,-0.012610515334310771,0.008604213405092017,0.989691767205092
2015-12-08,1,0.0015671487579859175,0.0017265594883656941,-0.013148970166844716,0.008604213405092017,0.9874230032235825
2015-12-10,1,0.001050153607475022,0.0011435581791495362,-0.012706566771660509,0.008604213405092017,0.9876736212174773
2015-12-14,-1,-0.00010435605926776425,-1.6690547323313005e-05,-0.012706566771660509,0.009385914299404137,0.9875455325660181
2015-12-16,1,0.00022127686115786514,0.0003097357528801549,-0.01460501396971805,0.006403953970565624,0.9863462981917501
2015-12-18,-1,-0.0003899545408569148,-0.0002494055623104753,-0.01460501396971805,0.008541519627073764,0.9865092784478208
2015-12-22,1,0.0005144481924820638,0.0005413819801107442,-0.01460501396971805,0.008541519627073764,0.9861740151325198
2015-12-24,1,0.0008714993295267396,0.0008948384111430062,-0.01828357686285526,0.008541519627073764,0.9848052711117101
2015-12-29,1,0.0010139400810489957,0.0010695599513966193,-0.01828357686285526,0.00666452093533633,0.9841928734017583
2015-12-31,1,0.0009873159930180815,0.0010939474124028869,-0.01828357686285526,0.009875161258501384,0.9841133919384651
2016-01-05,1,1.4584584218271709e-05,7.329345062091137e-05,-0.019879366900270427,0.009875161258501384,0.9822897329430372
2016-01-07,-1,-0.0015895166030707006,-0.0013412224710621194,-0.018465310300746364,0.011614044950589646,0.983974848074566
2016-01-11,-1,-0.002181196629895151,-0.001857799505143746,-0.019707603902452717,0.011614044950589646,0.9832822318836232
2016-01-13,-1,-0.002898866794607007,-0.0024619928547129615,-0.018465310300746364,0.013050537570077467,0.983342025142244
2016-01-15,-1,-0.004362779293315287,-0.003680536618453938,-0.015129446721908293,0.01662042809670491,0.9834181077985508
2016-01-20,-1,-0.003411678324987398,-0.002872358382763754,-0.015129446721908293,0.017012553937410406,0.9832184805325624
2016-01-22,-1,-0.0019529226110750243,-0.0016324280535086949,-0.015129446721908293,0.01576192712338407,0.98405822862762
2016-01-26,-1,-0.0027041862496766274,-0.0022611996140496386,-0.014432891291214016,0.01576192712338407,0.9851933483527405
2016-01-28,-1,-0.002969395374252202,-0.002529337087185758,-0.006922319943904847,0.01576192712338407,0.9850104792917453
2016-02-01,-1,-0.001787402124673533,-0.0015171555900211867,-0.013535689846307914,0.01576192712338407,0.984286197493307
2016-02-03,-1,-0.0037811043923745118,-0.0032453385045877487,-0.0028647163145882754,0.017117114493116918,0.9848494568950881
2016-02-05,-1,-0.0037114842463805697,-0.0031999000962963185,-0.0028647163145882754,0.01576192712338407,0.9859891983934583
2016-02-09,-1,-0.003590200350197699,-0.0031398036759509532,6.061880199882512e-06,0.01576192712338407,0.9861964438395743
2016-02-11,-1,-0.0030960752915148953,-0.00266645940761156,-0.004748145729293476,0.013019506424653288,0.9870237988262738
2016-02-16,-1,-0.0025849668565475032,-0.0021755063942297138,-0.006131644601089456,0.00921674793635896,0.9888932101618154
2016-02-18,-1,-0.0021048890858983843,-0.001728619912914827,-0.006131644601089456,0.00921674793635896,0.989089432686688
2016-02-22,-1,-0.0019440741106585694,-0.001552018659015998,-0.006797948791244253,0.009794073015748158,0.9886704718672353
2016-02-24,-1,-0.0017579700889218185,-0.0014567915162294828,-0.006797948791244253,0.009794073015748158,0.988969579150289
2016-02-26,-1,-0.0013762102844809762,-0.0011217890980789566,-0.006797948791244253,0.009794073015748158,0.989506820965064
2016-03-01,-1,-0.00041224605852168794,-0.0003046703833547563,-0.006082822790960705,0.007086414707162118,0.9914965602747021
2016-03-03,1,0.00028412184507578856,0.0003114222241380375,-0.006082822790960705,0.006431992129960108,0.9920697516767429
2016-03-07,1,0.0004085621734753883,0.00042261242691182626,-0.006775579447133526,0.004595696301311964,0.9918502159149037
2016-03-09,-1,-0.0006500377482645695,-0.0005089108229604066,-0.006775579447133526,0.00720810726488791,0.9918323921262878
2016-03-11,-1,-0.00013510923254270415,-8.982047576413537e-05,-0.006082822790960705,0.008731611497351782,0.9918384831389484
2016-03-15,-1,-0.00031363801636411404,-0.0002612605334914972,-0.0030390834725249147,0.01020785698684121,0.9912207434807927
2016-03-17,1,0.0005871598170144732,0.0006599639063863301,-0.0030390834725249147,0.009623202101096653,0.9925971260971154
2016-03-21,1,0.00082908461252519,0.0009419207283793592,-0.001664024211849404,0.008731611497351782,0.9940848465174287
2016-03-23,1,0.00043913891531468033,0.0004986507384702528,-0.002735265920717257,0.008731611497351782,0.9925588278913418
2016-03-28,1,0.000683862522322633,0.0008054044567979118,-0.005864126791710552,0.008731611497351782,0.9918495948697555
2016-03-30,1,0.001045062469905499,0.0012485543690087593,-0.005864126791710552,0.009623202101096653,0.9917628680452656
2016-04-01,1,0.0016965183770085103,0.002011868380396521,-0.011067948050488604,0.008731611497351782,0.9911059870538593
2016-04-05,1,0.000973387770423613,0.0011735333568347142,-0.006811734068349926,0.008731611497351782,0.9917937266200478
2016-04-07,1,0.0010705101076656962,0.0012901065303154288,-0.005865873113518713,0.006151197628288302,0.9926312530357108
2016-04-11,1,0.001292060400821677,0.001507753892787457,-0.006645573137723525,0.00240650125384646,0.9928619385142904
2016-04-13,1,0.00189949024658054,0.0022022013588263133,-0.006998303678874864,0.0023188094982601027,0.9928344195264174
2016-04-15,1,0.0023888281733786183,0.002804339012532088,-0.008216927726615326,0.0020485895484624855,0.9913460526055664
2016-04-19,1,0.0026330156088856093,0.0030921392829245083,-0.008216927726615326,0.0020485895484624855,0.9907043149585075
2016-04-21,1,0.0016490806589748374,0.001957727302593244,-0.007488579181292569,0.0020485895484624855,0.9927999325274043
2016-04-25,1,0.001372016536356526,0.0016535633427462353,-0.006998303678874864,0.0017427274251121774,0.9938123987402716
2016-04-27,1,0.0017242987084759081,0.0020467998164421086,-0.006998303678874864,0.0014280403914369913,0.9930823522030859
2016-04-29,1,0.0010688013985708246,0.00130054397038947,-0.0046962543070712525,0.0029967047693767084,0.9943720804938424
2016-05-03,1,0.0009757805537698312,0.001167451498569149,-0.006518356572144958,0.0031607730290139505,0.994062054420979
2016-05-05,1,0.000584364208789461,0.0007001412272907137,-0.0046778875624002535,0.006478319791466979,0.9939977045505649
2016-05-09,1,8.580536228535786e-05,0.00010292452572140672,-0.002175635068300135,0.008433775875361883,0.9928671104896201
2016-05-11,1,0.0004796276541884248,0.0005935027596505728,-0.001958392255114686,0.008433775875361883,0.9932770054175282
2016-05-13,-1,-0.0004890969541737202,-0.0004354480108044323,-0.001958392255114686,0.008433775875361883,0.9926725819761222
2016-05-17,1,0.00029218938279771897,0.0003790984340322477,-0.0034773294211991835,0.006861666877003938,0.9931326197956931
2016-05-19,1,0.00024250607799135304,0.0003461488622100965,-0.0024111247410685314,0.006861666877003938,0.9932554072624608
2016-05-23,1,0.0004939450989822138,0.0006458902508649431,-0.0024111247410685314,0.008433775875361883,0.992572807393245
2016-05-25,1,0.0008064671036329254,0.0009720771131271908,-0.0024111247410685314,0.008433775875361883,0.9927544355521584
2016-05-27,1,0.001098280601886173,0.0013351317303440624,-0.00485350072253979,0.007181860205469902,0.9866520613715598
2016-06-01,1,0.00025860730752462366,0.00029082132560594637,-0.0034773294211991835,0.009866876769932307,0.9858921714266972
2016-06-03,1,0.0003035229097210419,0.00032144760758357936,-0.004497987210812334,0.011988907095200514,0.9852657050862478
2016-06-07,1,0.0007293496840775966,0.0007853332752400582,-0.007230319878472152,0.007021851972573795,0.9855584031905674
2016-06-09,1,0.00032690346735689073,0.0003731391663612725,-0.007230319878472152,0.014164668583905034,0.9843144572453177
2016-06-13,-1,-0.00014895872704750925,-6.65932067236299e-05,-0.004170332000555535,0.014816391822947401,0.9842391631554706
2016-06-15,1,0.00010093342859858687,0.00011718252114489643,-0.003438872003688204,0.014816391822947401,0.9839624575197282
2016-06-17,0,-5.828038648827288e-05,2.0971393107289152e-05,-0.004363648190472802,0.014816391822947401,0.9836583192135172
2016-06-21,1,7.57138240813002e-05,0.0001736115764614875,-0.004363648190472802,0.016366646875583455,0.9826663327152203
2016-06-23,1,0.0010869089962527601,0.0011376909862051115,-0.00514188492922649,0.014629315736589349,0.9831102878355844
2016-06-27,-1,-0.003974906435884967,-0.0033322839471432763,-0.004191013667442954,0.014629315736589349,0.9888299798386934
2016-06-29,-1,-0.003212888792555359,-0.002662452310790139,-0.004560032211474589,0.012917527518117209,0.9899887992996793
2016-07-01,-1,-0.0034208436922714427,-0.0027986160980533917,-0.004405331342988026,0.010327886031340154,0.9910370422441268
2016-07-06,-1,-0.003833614883295502,-0.003199802551886983,-0.004405331342988026,0.010327886031340154,0.9897808815967003
2016-07-08,-1,-0.0019710735387701837,-0.001610298662955216,-0.004405331342988026,0.008499925001779415,0.9911818427285186
2016-07-12,-1,-0.0004721574984419345,-0.0003355150175637396,-0.004405331342988026,0.004582695280298641,0.9919400050279673
2016-07-14,1,5.3062873876347845e-05,0.0001018804052142006,-0.004405331342988026,0.004758377761810645,0.9919936130360556
2016-07-18,-1,-0.00040225664074601395,-0.0002681634829847224,-0.003283789874555225,0.004758377761810645,0.9916548777169155
2016-07-20,1,0.0009654854932817543,0.0010102456827098792,-0.004405331342988026,0.004758377761810645,0.9926037944001013
2016-07-22,1,0.001082712478426022,0.001175218501698837,-0.0027196883125457853,0.005856383299744885,0.992174436630073
2016-07-26,1,0.0015057354813914482,0.0017026047151599243,-0.0027196883125457853,0.006118138630044765,0.992024736998755
2016-07-28,1,0.0009830727157597594,0.0011144497280069741,-0.0027018345391334924,0.006118138630044765,0.9924087383645219
2016-08-01,1,0.00044487511107831816,0.00046813564112034643,-0.0015496416421510839,0.006118138630044765,0.9923425840811071
2016-08-03,-1,-0.0004496452552292757,-0.00037061728677376734,0.00014021516854706602,0.006118138630044765,0.9937588213672557
2016-08-05,-1,-0.0002799664343545495,-0.00020483435287405594,0.00014021516854706602,0.006118138630044765,0.9940437693604609
2016-08-09,1,0.0004145767396741913,0.00047442369838085995,-0.0015496416421510839,0.006581702331725478,0.9936058865392258
2016-08-11,1,0.0009697731355571987,0.001132019110374003,-0.0036671190705455225,0.006581702331725478,0.992338122719868
2016-08-15,1,0.0013459236540425672,0.0015333847519060084,-0.006498451207253536,0.006581702331725478,0.9922940569315293
2016-08-17,1,0.0014295987072549584,0.0016271739824008417,-0.0036671190705455225,0.006581702331725478,0.9923868485818188
2016-08-19,1,0.002115194844817109,0.0024065508065818854,-0.006176593031587082,0.00635116136367527,0.9923840952434921
2016-08-23,1,0.002540329011479823,0.002911442676421961,-0.006176593031587082,0.008961485209163147,0.9916004996296955
2016-08-25,1,0.0021424638971755294,0.0024236504656292603,-0.006623351041954441,0.008961485209163147,0.9911280638184123
2016-08-29,1,0.002214017497370731,0.0024981843536782096,-0.006623351041954441,0.01052032546279344,0.9902820647079472
2016-08-31,1,0.002618384871935133,0.0029845642878248233,-0.007748838113449541,0.01052032546279344,0.9892128554692222
2016-09-02,1,0.0028696657296962934,0.003310030598739023,-0.009239143578348596,0.011158084796524716,0.9884521512393081
2016-09-07,1,0.002709466962004965,0.00313405934426708,-0.007748838113449541,0.013163575254975753,0.9890131314137607
2016-09-09,1,0.001630599431956227,0.0019189320881530106,-0.006783263586450179,0.013163575254975753,0.9901614904733962
2016-09-13,1,0.0008931112532263516,0.0010096446880645486,-0.006783263586450179,0.013163575254975753,0.9901201929238435
2016-09-15,1,0.0011811239058694503,0.0013028833606796137,-0.009760955273616423,0.011158084796524716,0.989795661279587
2016-09-19,1,0.0015426681035330993,0.0017350968112283024,-0.009760955273616423,0.008516570783682332,0.9903117449922354
2016-09-21,1,0.0018615323352491335,0.0020463364189899614,-0.009760955273616423,0.005151066619058981,0.9907607978894959
2016-09-23,1,0.0018205672259221058,0.0020046892333347153,-0.009760955273616423,0.002952146108230531,0.9912139128141443
2016-09-27,1,0.0019294419656745068,0.0021139420394757223,-0.012560145391983602,0.002952146108230531,0.9907481061556017
2016-09-29,1,0.0011378852874414358,0.00119022671955474,-0.010831705036198772,0.005968876254703491,0.9907668396037008
2016-10-03,1,0.001195805199104211,0.0012472697360286558,-0.009281241261487971,0.005239749352324921,0.9917384866250494
2016-10-05,1,0.0012481713605747723,0.0012591721324276203,-0.009281241261487971,0.004865297090086462,0.991796161122226
2016-10-07,1,0.0008834462484375104,0.0009072394973223101,-0.008310209462849933,0.004865297090086462,0.9920329307070204
2016-10-11,-1,-0.00017637763505188122,-7.869845779341937e-06,-0.006410987504697463,0.008606286934121684,0.9909691025922799
2016-10-13,-1,-0.0011228889401893797,-0.0008363913805668899,-0.004021793538699578,0.010191402825283403,0.9907781895239146
2016-10-17,-1,-0.0010122237448883012,-0.0007670484385392185,-0.002881597238159883,0.010191402825283403,0.9907323796169877
2016-10-19,-1,-0.000277719269634869,-0.00013622418646017348,-0.004725039888347818,0.009358548722885596,0.991045697295015
2016-10-21,-1,-0.0005084601652514426,-0.0003364358545622366,-0.005983125552212403,0.009358548722885596,0.9906510266132903
2016-10-25,-1,-0.0002869566224448784,-0.00016093885338204077,-0.0032553001227450676,0.008429046369318079,0.9920240128508364
2016-10-27,1,0.0004190166758738296,0.00042478832235355785,0.0003020546295627964,0.008429046369318079,0.992693425624615
2016-10-31,1,0.0008325308073474658,0.0009023847946018663,-0.004770394324031127,0.008026546913899552,0.9927834112957648
2016-11-02,1,0.00025725849433643356,0.00030945310360944536,-0.004907371334140159,0.008026546913899552,0.9923364006645914
2016-11-04,-1,-0.0001622766043876032,-4.419513861513285e-05,-0.002896715383387653,0.009710892109951219,0.990957020172805
2016-11-08,1,0.0013565909173797442,0.0014379123001924579,-0.004569840317196976,0.009298755953770534,0.9922392970570943
2016-11-10,1,0.0022825681936081616,0.0025111377511630017,-0.004569840317196976,0.006729597265947195,0.9932641827778281
2016-11-14,1,0.0021997089532830166,0.0023680089327019213,-0.004569840317196976,0.008143994709588093,0.9930680728951602
2016-11-16,1,0.0001271861645889791,0.00038806857253465346,-0.004569840317196976,0.007231965476363216,0.9924736672574407
2016-11-18,1,0.00030644431514911157,0.0005111727649411519,-0.004569840317196976,0.009747661324808383,0.9919773892766476
2016-11-22,1,0.0004929253762627833,0.0006604030067490698,-0.004569840317196976,0.009747661324808383,0.9917704734020621
2016-11-25,1,0.00039657207633649624,0.0006221261731789865,-0.004569840317196976,0.007195421630080789,0.9924504056819876
2016-11-29,1,0.0003168921157249465,0.0004974206442033759,-0.0030610484034759126,0.007195421630080789,0.9925509358449413
2016-12-01,1,0.0004918715701374859,0.0006106025237052678,-0.0030610484034759126,0.006661800364020528,0.9928399288659547
2016-12-05,1,0.0017202493329659936,0.0017527656245575902,-0.004725183119265072,0.002021367620161446,0.99381369336783
2016-12-07,1,0.002112730824818293,0.0021938268502502763,-0.005413183080461811,0.002021367620161446,0.9939756401334194
2016-12-09,1,0.0033257416299803796,0.0037020075862923517,-0.00859500151418841,0.0023492232886425162,0.9925061980745365
2016-12-13,1,0.0033931065494252335,0.003720627992411092,-0.00859500151418841,0.0046154826167811025,0.9921324903416034
2016-12-15,1,0.0028118773263001184,0.0030855665185285826,-0.007120689950161897,0.005815511535881261,0.9926069833739181
2016-12-19,1,0.002307302736253586,0.002488139183653412,-0.005188102277331202,0.005815511535881261,0.9932360194414588
2016-12-21,1,0.0021189648626467896,0.002256396720456302,-0.005188102277331202,0.006684333900525285,0.9932384837196323
2016-12-23,1,0.0014807739582776318,0.0015118548661243619,-0.005188102277331202,0.008734527451697722,0.9904405738120973
2016-12-28,1,0.0010983818692517449,0.0011580670276339893,-0.004927532512621692,0.008734527451697722,0.9904482806162206
2016-12-30,1,0.0007283646313663795,0.000820504347169092,-0.004308745649406503,0.008734527451697722,0.9908273478793549
2017-01-04,1,0.0004259257363793531,0.0005383982913060398,-0.0031685947897880807,0.008734527451697722,0.9910372272240778
2017-01-06,1,0.00035333163712114775,0.0004494682349293625,-0.003096087779569287,0.009391158272074708,0.9913187324887173
2017-01-10,0,-2.1266529875241756e-05,0.00012230430400898525,-0.003096087779569287,0.009391158272074708,0.9914927499897873
2017-01-12,1,0.0012754814190106107,0.0013271225776175278,-0.003096087779569287,0.00713444749798929,0.9923926677759605
2017-01-17,1,0.0012055559291999178,0.001255949133220223,-0.002761184868391104,0.0064521977651287084,0.9928229820316313
2017-01-19,1,0.001304993830989129,0.0013661502960357458,-0.002761184868391104,0.004883904062557014,0.9931533831558951
2017-01-23,1,0.0017230813977642957,0.001835976242847067,-0.002761184868391104,0.004730816758646064,0.9933387170279216
2017-01-25,1,0.0030465317311116962,0.0033351676568421566,-0.00357379448246386,0.0028943440633879425,0.9946861341015348
2017-01-27,1,0.002556190820620049,0.0027729168446382546,-0.0027970989931406028,0.003822042842064124,0.9953682375725043
2017-01-31,1,0.0022634618474734886,0.002428575286331915,-0.0030613977204607045,0.004730816758646064,0.9944688196836887
2017-02-02,1,0.0016129879331888014,0.0016326113486849212,-0.0043666906644241645,0.004730816758646064,0.9941758818756278
2017-02-06,1,0.0018560575275679179,0.0018960022597490024,-0.004991700666484803,0.0031210178736315874,0.9936146130883644
2017-02-08,1,0.0017367816105057982,0.0017880639935081222,-0.0043666906644241645,0.0031210178736315874,0.9940164824890894
2017-02-10,1,0.0017035876714164896,0.001745544041795459,-0.0043666906644241645,0.004328974845327546,0.9940415165067334
2017-02-14,1,0.002060055887962895,0.002191768361719588,-0.0043666906644241645,0.004879293874410351,0.9929507092199704
2017-02-16,1,0.0017734244011825286,0.0018550352076190891,-0.004580987075313794,0.004879293874410351,0.992853330698155
2017-02-21,1,0.002156395725717593,0.002319846831772902,-0.005634589899153692,0.003099482668641099,0.9912967365002615
2017-02-23,1,0.0010812631951175606,0.001103341348276339,-0.004522504687611759,0.004879293874410351,0.9920149812197778
2017-02-27,1,0.001301857368123504,0.0013027660646016198,-0.004522504687611759,0.003099482668641099,0.9920806593190864
2017-03-01,1,0.0019703512644181137,0.0020859699904853153,-0.00531257290280995,0.003099482668641099,0.9926069837286141
2017-03-03,1,0.0010865124245487752,0.0011145060396836872,-0.004519075751708052,0.004094189797963779,0.9928583485873497
2017-03-07,1,0.00011849038406803905,0.00029391751035712124,-0.004519075751708052,0.004094189797963779,0.9932880452250673
2017-03-09,-1,-0.0006017057419038972,-0.00029781168507293895,-0.00531257290280995,0.004094189797963779,0.9931513979049111
2017-03-13,-1,-0.0004815197565312358,-0.00017158561975689037,-0.00531257290280995,0.0035792051007357177,0.9933069747551083
2017-03-15,1,0.00020715725800365384,0.00040945304020724275,-0.0056487322690712775,0.0022706128094727956,0.9936783671291256
2017-03-17,-1,-0.0004405138982974408,-0.00014827442139423884,-0.006289666006315552,0.0035792051007357177,0.993284783446036
2017-03-21,-1,-0.0016746428101539813,-0.0012363463905320368,-0.00473827034256531,0.004082347073151773,0.9947377045547556
2017-03-23,-1,-0.0014216954235585406,-0.0010012637085108692,-0.006289666006315552,0.004082347073151773,0.9944353647018211
2017-03-27,-1,-0.0012665056079352165,-0.0008915588041083253,-0.006289666006315552,0.005635926451621087,0.9931242456458211
2017-03-29,-1,-0.0015352970377251994,-0.0011259843261527379,-0.004897067470343916,0.005635926451621087,0.9927850133165745
2017-03-31,-1,-0.0018134311285018872,-0.0013614826551898952,-0.006794733670044418,0.005635926451621087,0.9925188429660894
2017-04-04,-1,-0.001810578988187532,-0.0014039185253361076,-0.006978883942995953,0.005635926451621087,0.9921692435117355
2017-04-06,-1,-0.0009525030669254284,-0.0007229472290296951,-0.006794733670044418,0.007172002677522499,0.9922109567396771
2017-04-10,-1,-0.0008497249510756936,-0.0006283762817673662,-0.006794733670044418,0.005820641128637677,0.9923301171584031
2017-04-12,-1,-0.0014936450315047823,-0.0011960701042256282,-0.0036743752886148704,0.006383501379643971,0.9922626628113015
2017-04-17,-1,-0.0014366477160941582,-0.0011384172844266687,-0.003703051569007917,0.005373092685661577,0.9924703493799758
2017-04-19,-1,-0.0012167718994534416,-0.0009488126775065981,-0.006978883942995953,0.0058266891202269425,0.991050215421903
2017-04-21,-1,-0.0007835441766992546,-0.0005860253508188174,-0.003801173000780312,0.0058266891202269425,0.9915450685611067
2017-04-25,-1,-0.00018483951840739282,-3.091400799650829e-05,-0.003801173000780312,0.006141608694079653,0.9921661777258035
2017-04-27,1,0.00025944751541736027,0.00037857902186892674,-0.003801173000780312,0.007000468651879317,0.9917211222307731
2017-05-01,1,0.000783781552549026,0.0007931935674458388,-0.0021960313923269576,0.008433663982369378,0.9916964881018434
2017-05-03,1,0.0002397238334666937,0.0002677979584627363,-0.0011147711377172452,0.010562136189567925,0.9919704319059479
2017-05-05,1,0.0004655795250471809,0.0004702485014550797,-0.0011147711377172452,0.010562136189567925,0.9920632670763782
2017-05-09,1,0.0008019253543840241,0.0008749252426359686,-0.002030522392377945,0.010562136189567925,0.9919896114134074
2017-05-11,1,0.0008016911996377582,0.0008449040776416989,-0.0026312894574221147,0.010562136189567925,0.991961452728711
2017-05-15,1,0.0004252319299502494,0.0004393487600700176,-0.0026312894574221147,0.010562136189567925,0.9915502230587184
2017-05-17,-1,-0.00042652976610676904,-0.00031659553763393143,-0.002030522392377945,0.010562136189567925,0.9932036164546335
2017-05-19,-1,-0.00012014962374739963,-4.321739684585402e-05,-0.002030522392377945,0.010830793877946481,0.9928966417627397
2017-05-23,1,0.00025553337205815084,0.00030646722063870093,-0.00421728817831945,0.007012544903414592,0.9931008012644303
2017-05-25,1,0.0009803758656837394,0.000993444202552304,-0.00421728817831945,0.004122494060965859,0.9941806535024872
2017-05-30,1,0.0010622123122341726,0.001062932238544757,-0.004414340652726037,0.0030136613615054306,0.9942740198283218
2017-06-01,1,0.0011335255934399426,0.0011381980442935137,-0.004785469589886174,0.0030136613615054306,0.99384011026492
2017-06-05,1,0.000764615403291234,0.0008354210441604015,-0.005909091842249503,0.0030136613615054306,0.9937364579553486
2017-06-07,1,0.0009656577267563393,0.000974122135865301,-0.006954680925083867,0.0034416488167179292,0.9933097658290524
2017-06-09,1,0.000725039909085796,0.0007664824012682708,-0.006954680925083867,0.006005533028391807,0.9930766683481268
2017-06-13,1,0.00038192554967696223,0.0004561498519650535,-0.004805109184894784,0.007873854004722543,0.992871168627576
2017-06-15,1,0.0005541694171585825,0.0005880988850443567,-0.004805109184894784,0.007873854004722543,0.9927944270110941
2017-06-19,1,0.0009293663039960541,0.001067969434223749,-0.004805109184894784,0.005208267813025458,0.9935839176444607
2017-06-21,1,0.0004907650756606547,0.0005577427418606537,-0.003358260401960683,0.007873854004722543,0.9932024819773639
2017-06-23,1,0.00040248411860626624,0.0004532580636380586,-0.006376647343711465,0.007873854004722543,0.9927683388452089
2017-06-27,1,0.0002751880885315156,0.00030385985904676316,-0.006376647343711465,0.00930589290972576,0.9908372508760701
2017-06-29,1,0.00039054958192932224,0.00047012414521146247,-0.004855689231709449,0.00930589290972576,0.9911472493398296
2017-07-03,1,0.0003753356044275901,0.0004338692115824957,-0.00637193083229804,0.00930589290972576,0.9905671670861222
2017-07-06,1,0.00045539526275286465,0.0005292100673593293,-0.00637193083229804,0.01010423337593811,0.9903365363866848
2017-07-10,1,0.0009441567132731804,0.0010890251537882879,-0.00637193083229804,0.0086825854095017,0.990393512774917
2017-07-12,1,0.0015979033485200014,0.0018242215504654085,-0.00637193083229804,0.006921724884311802,0.9912805972513944
2017-07-14,1,0.001752513003651886,0.002009499014270287,-0.0067330617816309,0.006921724884311802,0.9897050432907848
2017-07-18,1,0.0014539493010426877,0.0016351028560795053,-0.0075640070006272216,0.0086825854095017,0.9886677933188037
2017-07-20,1,0.0017898235064628416,0.002028766886501079,-0.010288179449599984,0.007488666533448752,0.9882227091602513
2017-07-24,1,0.0017104567707834084,0.0019698347181758224,-0.010288179449599984,0.007860477492800822,0.9886614816103465
2017-07-26,1,0.00025683053449557865,0.00031088217385968626,-0.007516616143627426,0.007349183522566285,0.9906407569201205
2017-07-28,1,0.0004233210173749009,0.0004642909808632462,-0.007516616143627426,0.006658304886978645,0.9911362980412703
2017-08-01,-1,-0.000297179381649583,-0.00024549591494434574,-0.005158393122799615,0.007349183522566285,0.9914140661686638
2017-08-03,-1,-9.366174320420882e-05,-7.974253296603594e-05,-0.0030502841887859616,0.007349183522566285,0.9917834931513546
2017-08-07,1,0.0007176423435074377,0.0008475365420835723,-0.004808905553515349,0.006547283383235912,0.9921938000690703
2017-08-09,1,0.0007173210438483387,0.0008399591642964431,-0.005260275309046204,0.0060203563453414075,0.9923597085182982
2017-08-11,-1,-0.0015567564592876802,-0.0013148063008348145,-0.003970594456392226,0.007349183522566285,0.9921317120570703
2017-08-15,-1,-0.0012435898938878997,-0.0010543844928264886,-0.0030502841887859616,0.0061597871214074664,0.9928945092244907
2017-08-17,-1,-0.0020251662219610933,-0.0017463728595901924,-0.0024475491245323964,0.0062837241078581565,0.9935045920112604
2017-08-21,-1,-0.0016686322078996673,-0.0014342039588310263,-0.0024475491245323964,0.0057421007840446564,0.9938333945979294
2017-08-23,-1,-0.0015648895392226226,-0.0013420812547393348,-0.0026581225035760946,0.0057421007840446564,0.9941149427882986
2017-08-25,-1,-0.0018899396215661776,-0.0016055820387267752,-0.0026581225035760946,0.0057421007840446564,0.9935566882503339
2017-08-29,-1,-0.00199063536790564,-0.001688250559211664,-0.0014000736343601416,0.006547240156876556,0.9932811456549874
2017-08-31,-1,-0.001462922684992554,-0.0012312311799653195,-0.0018516142753821842,0.0057421007840446564,0.9939707587694948
2017-09-05,-1,-0.001955913772186825,-0.0016440766462180742,-0.001239886147989011,0.008778511015449152,0.9930126922115521
2017-09-07,-1,-0.0020258524668852608,-0.0017076165551845892,-0.00045406473659744293,0.009243081374994971,0.992300141319528
2017-09-11,-1,-0.0009480650310078659,-0.0007645933206624004,-0.00045406473659744293,0.008778511015449152,0.9941499309008731
2017-09-13,-1,-0.0006351536930541189,-0.0004876736203017189,-0.00045406473659744293,0.008778511015449152,0.994289140571371
2017-09-15,1,0.00027520739270505415,0.0002873452050526615,-6.057386211734236e-05,0.008159203644191794,0.9946834522966396
2017-09-19,1,0.0007911333190975193,0.0008982680129771606,-6.057386211734236e-05,0.008159203644191794,0.9946834482288134
2017-09-21,1,0.0005721281096209449,0.0006432710363526157,-0.0002285026414774595,0.008159203644191794,0.9946021369108353
2017-09-25,-1,-0.00041542187433595977,-0.0003232146203919601,-0.0002285026414774595,0.008778511015449152,0.9942063046635534
2017-09-27,1,0.0003738235671249379,0.0003859106905345289,-0.0011083646216851419,0.00816265598164899,0.9947874106248342
2017-09-29,1,0.000526216605970365,0.00056650306607504,-0.0012186620938722547,0.008933907103281971,0.9945553180735827
2017-10-03,1,0.0013327095412187559,0.0014939635923795172,-0.0012186620938722547,0.008307695057110216,0.9950326967416218
2017-10-05,1,0.001691759633049575,0.0018757965183620858,-0.0021979086095148077,0.008307695057110216,0.9949989205191332
2017-10-09,1,0.0007604556103864707,0.0007880794211212118,-0.0021979086095148077,0.009500115267701115,0.9942166738702113
2017-10-11,1,0.0010543410943144025,0.0010762278573360688,-0.0021979086095148077,0.009500115267701115,0.9941941834397943
2017-10-13,1,0.0015873724741030791,0.0017135400160529536,-0.00261171754269737,0.009500115267701115,0.9940276113973596
