JNU-Tangyin/eata/results/Batch4_SP500/Batch4_SP500-COP.csv
Date,Action,Predicted_Q25,Predicted_Q75,Actual_Q25,Actual_Q75,RL_Reward
2010-12-14,0,0.0,0.0010587119533538977,-0.00378581581737292,0.00640948966582053,0.9946819609870802
2010-12-16,1,0.0033867995826471838,0.003632474927484386,-0.00378581581737292,0.006212279212717664,0.9935068956264189
2010-12-20,1,0.003399420376503118,0.003642449041087047,-0.003745358014353279,0.005968458901362364,0.9941661016639594
2010-12-22,1,0.005076539152143605,0.005673672092147371,-0.004740138449915959,0.005708308851353445,0.9934506615031414
2010-12-27,1,0.0048954656815589775,0.005455101466779674,-0.004965004510825587,0.006093400612140141,0.993175175019887
2010-12-29,1,0.004974257609941849,0.005512964767680163,-0.004965004510825587,0.006551186324816276,0.9919987336073137
2010-12-31,1,0.004817377818645208,0.0053230857012103675,-0.004965004510825587,0.007036350675899994,0.9914732083710057
2011-01-04,1,0.0037841510474452772,0.004071660598875402,-0.004740138449915959,0.007036350675899994,0.9919175899297247
2011-01-06,0,0.0,0.0,-0.003745358014353279,0.007036350675899994,0.9913812946284406
2011-01-10,0,0.0,0.0,-0.004183653395026466,0.007883680820485107,0.9910303155322733
2011-01-12,1,0.001646271542205344,0.0017279845224006103,-0.005800502183042178,0.006731386162092979,0.9912426360994292
2011-01-14,1,0.000957534808062432,0.0009740861977617989,-0.004774236143418267,0.00967685775922953,0.9900386361652518
2011-01-19,1,0.00030209723748053624,0.000402879521226112,-0.004258208891548415,0.013781630412058949,0.9893125298475087
2011-01-21,1,0.0002689481555620801,0.0003851419119809357,-0.003747933888176449,0.015139595263195334,0.9889913588555469
2011-01-25,1,0.0001644845845398124,0.00030192356908204717,-0.0017470730292350476,0.017577903308919424,0.9884797464313568
2011-01-27,0,0.0,0.0,-0.003747933888176449,0.015139595263195334,0.9889253763930607
2011-01-31,0,0.0,0.0,-0.003747933888176449,0.010129512709608325,0.9899762492510504
2011-02-02,1,0.002818747404157559,0.0028676436205619907,-0.003747933888176449,0.015077632438216027,0.9893680790005277
2011-02-04,1,0.0025677808776980136,0.00257037418258427,-0.003747933888176449,0.015077632438216027,0.9891527754267817
2011-02-08,1,0.002348531852303393,0.0023806155888267304,-0.004797098018713078,0.015077632438216027,0.9888177209878743
2011-02-10,1,0.0011035720161646384,0.0011965312089912816,-0.0035963017218608845,0.015326521456982049,0.987753356674843
2011-02-14,1,0.00324859492447023,0.0033232266718851754,-0.006959745999170544,0.00936737805075683,0.989002204987015
2011-02-16,1,0.003688837923349936,0.003821272887508719,-0.01009211883526544,0.00936737805075683,0.9873471569526682
2011-02-18,1,0.004549762090526094,0.004814423868366396,-0.011168225332804017,0.00945034105701217,0.9856534604779363
2011-02-23,1,0.005383441417682017,0.00575791469110404,-0.011168225332804017,0.00945034105701217,0.9856907934601851
2011-02-25,1,0.004203427877319411,0.004398277459447708,-0.01009211883526544,0.014801571010997465,0.986496660874629
2011-03-01,1,0.005104898651644551,0.005515067708314925,-0.01009211883526544,0.014801571010997465,0.9856130971104403
2011-03-03,1,0.005647896660812012,0.006110995245892644,-0.010492461893958745,0.014801571010997465,0.9843619966214505
2011-03-07,1,0.005068559317852852,0.005439533520535103,-0.010492461893958745,0.014801571010997465,0.9846025056755265
2011-03-09,0,0.0,0.0,-0.009735071526907346,0.014801571010997465,0.9862170989121
2011-03-11,1,0.003457579765716301,0.0036614015271804368,-0.008650317562079329,0.009716512945932017,0.9880140064393744
2011-03-15,1,0.0024169443090705355,0.002472725404256692,-0.008650317562079329,0.009716512945932017,0.9867998457550641
2011-03-17,1,0.0033240905602924618,0.0035060986238640724,-0.0083073416817637,0.007995690046939457,0.9890822165525116
2011-03-21,1,0.00340307921502535,0.003570821557931569,-0.0083073416817637,0.007995690046939457,0.9899118191098261
2011-03-23,1,0.0029307255525082496,0.0029447288046471325,-0.0083073416817637,0.007995690046939457,0.9897266597181414
2011-03-25,1,0.003214629545651317,0.003222183286217877,-0.0083073416817637,0.007995690046939457,0.9898585039654618
2011-03-29,1,0.002101421023320572,0.002220602504744902,-0.004395830991291177,0.008291751864490892,0.9898315836292084
2011-03-31,1,0.003361604659862641,0.0034842470974473217,-0.004395830991291177,0.008291751864490892,0.9891350427851161
2011-04-04,1,0.0030067834211043786,0.0030785127447011877,-0.017244640152283226,0.008291751864490892,0.9864891482414323
2011-04-06,1,0.0034010506120017063,0.0035484077769682774,-0.0182710462037603,0.008255281617907569,0.9848315232703745
2011-04-08,1,0.0029435209566538965,0.0029820175750753532,-0.0182710462037603,0.009611825920287989,0.9841952599974125
2011-04-12,0,-0.00023468253315093936,0.00016225958142002117,-0.0182710462037603,0.01070293795694919,0.9846350927883839
2011-04-14,1,0.0006217610389044553,0.0008875505262595808,-0.0182710462037603,0.01070293795694919,0.9844708967620686
2011-04-18,-1,-0.0008392764273362013,-0.0003380493306159684,-0.017244640152283226,0.009611825920287989,0.9860381970105355
2011-04-20,1,0.0003896209257283111,0.0007480283932240562,-0.017244640152283226,0.009611825920287989,0.9863936720416856
2011-04-25,0,-6.945196829627812e-05,0.0003808066688883805,-0.0177212541152049,0.009476314210781362,0.9861754829409147
2011-04-27,1,0.0007956619656466652,0.0010224390773134586,-0.0177212541152049,0.008771819534835254,0.9867644983245001
2011-04-29,1,0.0001340723636436117,0.0004304286749927679,-0.014749044537218963,0.005888595090764582,0.988874882598588
2011-05-03,-1,-0.0026994594578093724,-0.002079245490679702,-0.011860117393941756,0.008021220973651093,0.9902363142686493
2011-05-05,-1,-0.004618096138054645,-0.0037664881721059264,-0.0017897060648615713,0.008021220973651093,0.9903823646485622
2011-05-09,-1,-0.003147432885655091,-0.0025003878887033307,-0.004974504089517091,0.00439557665507839,0.9916595852222952
2011-05-11,0,0.0,0.0,-0.0017897060648615713,0.005851935301048142,0.9929028699098905
2011-05-13,0,0.0,0.0,-0.00455765478623975,0.005851935301048142,0.9924411883309332
2011-05-17,0,0.0,0.0,-0.010768005342194832,0.008021220973651093,0.9908491990675627
2011-05-19,0,0.0,0.0,-0.010768005342194832,0.008021220973651093,0.9908519413953618
2011-05-23,0,0.0,0.0,-0.00455765478623975,0.008179664147726974,0.9905544282146977
2011-05-25,-1,-0.049539552767398395,-0.039121675701751984,-0.0070635711839864244,0.008069684778577654,0.9568412537981873
2011-05-27,-1,-0.0038128433788271574,-0.0031379448226524767,-0.010768005342194832,0.008069684778577654,0.9896478364336654
2011-06-01,-1,-0.0045339097683271545,-0.003739406036981996,-0.0070635711839864244,0.011453956096609902,0.988568619741471
2011-06-03,-1,-0.004672374069729206,-0.003854566902177929,-0.0070635711839864244,0.014739876388678052,0.9873440683625763
2011-06-07,0,0.0,0.0,-0.0044596081279025,0.014739876388678052,0.9890919423325987
2011-06-09,0,0.0,0.0,-0.0070635711839864244,0.01150026550844407,0.9892193339321811
2011-06-13,0,0.0,0.0,-0.0051063744479917135,0.01150026550844407,0.9893983890850236
2011-06-15,0,0.0,0.0,-0.004172496422007715,0.01150026550844407,0.9902237089087369
2011-06-17,0,0.0,0.0,-0.0051063744479917135,0.010458769293425409,0.9900114974117178
2011-06-21,0,0.0,0.0,-0.0051063744479917135,0.009696009112533198,0.991019792522966
2011-06-23,0,0.0,0.0,-0.005428188799682938,0.009696009112533198,0.9906933467169764
2011-06-27,0,0.0,0.0,-0.007799714697645675,0.009696009112533198,0.9909075411109622
2011-06-29,0,0.0,0.0,-0.007799714697645675,0.009212502124809301,0.9918682316406128
2011-07-01,0,0.0,0.0,-0.009755150277970491,0.0011985828060768582,0.9925704031022256
2011-07-06,-1,-0.0009093630061754699,-0.0007972656401422449,-0.010775204547004293,0.0002017722163663217,0.9920457999436231
2011-07-08,-1,-0.0006220330765057754,-0.0005902107009750695,-0.011191300642578023,0.0002017722163663217,0.9897958427794072
2011-07-12,-1,-0.0005037340307964981,-0.0004506640613803491,-0.011191300642578023,0.0029352210524808764,0.9844645740728453
2011-07-14,-1,-0.000787556406820161,-0.0007620555787718664,-0.01266271620006001,0.0023299044033819115,0.9818573365688069
2011-07-18,-1,-0.0002690663270676577,-0.0001797812392424748,-0.011191300642578023,0.00839678547485492,0.9814094562850911
2011-07-20,0,-5.358641078871923e-05,6.54584839643378e-05,-0.012939269050301239,0.00839678547485492,0.9807009091545323
2011-07-22,1,0.0001670560756800349,0.0003345877846713518,-0.015170391328699559,0.005178274283303124,0.9790908386122057
2011-07-26,0,-9.596840713242357e-06,0.0001465836642747345,-0.015170391328699559,0.009167589487556546,0.9782280603645395
2011-07-28,1,7.155776848414847e-05,0.0002534223595257102,-0.0192351803227598,0.009167589487556546,0.9775128276607515
2011-08-01,-1,-0.00030237087245716065,-0.0001865366958796774,-0.0192351803227598,0.014714681979844157,0.9758354143189079
2011-08-03,-1,-0.0009390335693184257,-0.0009260369725888305,-0.015514054094237163,0.014714681979844157,0.9763493758857283
2011-08-05,-1,-0.0032928445628431398,-0.0029531978474359923,-0.015514054094237163,0.01386425108346558,0.9781320686139332
2011-08-09,-1,-0.003174453308366806,-0.002884836344691836,-0.011835896209802767,0.01386425108346558,0.9826044519972199
2011-08-11,-1,-0.0021890992625731376,-0.002029976303835693,-0.015514054094237163,0.00888411252209702,0.9842391473768443
2011-08-15,-1,-0.0006311952749642128,-0.0005971227808317344,-0.015514054094237163,0.006703309751154958,0.9852801951225757
2011-08-17,-1,-0.00217198850953672,-0.002098467768247158,-0.013419934384847915,0.012051817933137601,0.9843023637361895
2011-08-19,-1,-0.004756682164597203,-0.004348805824272535,-0.008580268378768975,0.012051817933137601,0.985193748891309
2011-08-23,-1,-0.0024077727150304045,-0.0023152925106523048,-0.013419934384847915,0.00888821016845937,0.9861015267333426
2011-08-25,-1,-0.002883847165071604,-0.0027387908372307674,-0.013664629476221792,0.00888821016845937,0.9857252994766598
2011-08-29,-1,-0.00030243437514342313,-9.136153338039181e-05,-0.013664629476221792,0.006170369158359101,0.9870204741289812
2011-08-31,1,0.00018787492574976947,0.00048360195689538135,-0.017332723509472577,0.009671102299100924,0.985616365088342
2011-09-02,-1,-0.001768613176549333,-0.0017027090744716545,-0.01754522368644342,0.009671102299100924,0.9841052771933055
2011-09-07,-1,-0.0006039611469229026,-0.00047905558848505906,-0.01754522368644342,0.015307727889339016,0.9835014684589414
2011-09-09,-1,-0.002735229897652412,-0.002584773133213583,-0.00980296638985257,0.015307727889339016,0.9848298719948541
2011-09-13,-1,-0.001283892873982389,-0.00117240749846128,-0.00980296638985257,0.018193176048367943,0.9833314104998794
2011-09-15,1,0.0005273885944922408,0.0009040103070184111,-0.012960750651325605,0.013795659232832928,0.9841978073489874
2011-09-19,1,0.00047005504718930827,0.0008269769820967992,-0.012960750651325605,0.018768833406003375,0.9829598983115307
2011-09-21,0,0.0,0.0,-0.010050778346601954,0.018768833406003375,0.9835173341144782
2011-09-23,0,0.0,0.0,-0.004569928153637865,0.021290302336797448,0.9837758477111318
2011-09-27,0,0.0,0.0,-0.010050778346601954,0.018768833406003375,0.9839664909334265
2011-09-29,0,0.0,0.0,-0.004569928153637865,0.018086297982755756,0.9841400685239446
2011-10-03,0,0.0,0.0,-0.004569928153637865,0.018086297982755756,0.9845634711530111
2011-10-05,0,0.0,0.0,-0.010050778346601954,0.014295133936545428,0.9848268869759144
2011-10-07,0,0.0,0.0,-0.010050778346601954,0.017182875061527457,0.9841621510351044
2011-10-11,0,0.0,0.0,-0.010050778346601954,0.01643404751123554,0.9849386507023069
2011-10-13,0,0.0,0.0,-0.010875433043355566,0.017182875061527457,0.9835971110441563
2011-10-17,0,0.0,0.0,-0.008383614963313623,0.01643404751123554,0.984692103211921
2011-10-19,1,0.0009831272456418461,0.0011745684857062152,-0.016419235408696022,0.01643404751123554,0.9842595165755292
2011-10-21,1,0.0017260689695260127,0.002010459122799981,-0.016419235408696022,0.014066689323233121,0.9854119686120587
2011-10-25,1,0.001339374334771163,0.0015732024531483735,-0.01154343973722938,0.014066689323233121,0.985576572288629
2011-10-27,1,0.001789951723109588,0.0020517719445334206,-0.015866934588291904,0.010424732393816366,0.9852567661311796
2011-10-31,0,0.0,0.0,-0.01068509966807449,0.013751065591352946,0.9861987663959062
2011-11-02,1,0.000510018872418379,0.0006001956479071003,-0.007152515918463597,0.013751065591352946,0.985781884215658
2011-11-04,1,0.0010429282037837798,0.0012004132410598908,-0.007152515918463597,0.012461056764742809,0.9862847019686423
2011-11-08,1,0.0019446594502000923,0.0022484859549512276,-0.007152515918463597,0.010101017044465187,0.9871590476389683
2011-11-10,1,0.0018507277836894438,0.0021784936838803114,-0.007152515918463597,0.010101017044465187,0.9881413356865705
2011-11-14,1,0.0017858092581669168,0.0020895152106315132,-0.01068509966807449,0.007379254819737327,0.9872857541272141
2011-11-16,0,0.0,0.0,-0.01068509966807449,0.007379254819737327,0.9881298797400822
2011-11-18,1,0.0011602245916703287,0.0014009083898905094,-0.01068509966807449,0.007379254819737327,0.9878709205681497
2011-11-22,1,0.0011205191845457567,0.0013912784509195354,-0.00965486703467204,0.012261605070342237,0.9869657732870186
2011-11-25,1,0.0005462976431958459,0.0007476007567025064,-0.004894039229127536,0.012973388139809073,0.9872510366443547
2011-11-29,0,0.0,0.0,-0.008265365581183896,0.011266150243749072,0.987397233650922
2011-12-01,0,0.0,0.0,-0.008265365581183896,0.011266150243749072,0.9892638019069498
2011-12-05,0,0.0,0.0,-0.008265365581183896,0.012302106720988464,0.9888808892467864
2011-12-07,0,0.0,0.0,-0.008265365581183896,0.012302106720988464,0.988385402111287
2011-12-09,1,0.004731912414799044,0.005580228902897564,-0.00800450738707327,0.01022299260373137,0.9894228494296203
2011-12-13,0,0.0,0.0,-0.00800450738707327,0.01022299260373137,0.9892877279746484
2011-12-15,0,0.0,0.0,-0.007835918544263961,0.01022299260373137,0.9897735042530357
2011-12-19,1,0.0005826817740394127,0.0007204877185576512,-0.0063976404159841885,0.010424731484120302,0.9897385857910687
2011-12-21,1,0.0014684732590249652,0.001714898801951395,-0.007835918544263961,0.007685485777820821,0.9910705216585877
2011-12-23,1,0.0017310543664175915,0.001992810594630464,-0.008224836961051338,0.005130917429689159,0.9915232897896615
2011-12-28,1,0.0011213401728233754,0.0012731002080599053,-0.007835918544263961,0.004055543821524337,0.9922377771707355
2011-12-30,1,0.001296971629748232,0.0014482700926820033,-0.008224836961051338,0.00149487492161735,0.9918984384648715
2012-01-04,1,0.0015919112446742252,0.0017845863961240616,-0.008224836961051338,0.004055543821524337,0.9918248386614987
2012-01-06,1,0.000978586888557998,0.0010811994792196441,-0.0077966402548279145,0.006871565460743224,0.9920424411491998
2012-01-10,1,0.001022048427103376,0.0011091804571068667,-0.0077966402548279145,0.00800362937172208,0.9918070108931625
2012-01-12,-1,-0.0005410008327710197,-0.00038221786561471366,-0.006678192357893884,0.008437408435526938,0.9927351805025624
2012-01-17,1,0.0003005589394158494,0.00030553268571403055,-0.006678192357893884,0.008829287282748881,0.9923835098496178
2012-01-19,-1,-0.00017490753559335767,-7.34936301072042e-05,-0.0077966402548279145,0.008437408435526938,0.9924994152554746
2012-01-23,1,0.00025313722690467367,0.00026635827018028154,-0.006678192357893884,0.008437408435526938,0.9922876771487307
2012-01-25,1,0.00022568470199758856,0.00022711692343046835,-0.0031361685165776487,0.00867672672770704,0.9921200189346202
2012-01-27,-1,-0.0003906800190733988,-0.00029792963815084944,0.0025380217978392197,0.009325637588462153,0.99126729188071
2012-01-31,-1,-0.0007489247912625109,-0.0006278907855386246,0.004457164789147308,0.01005002888404789,0.9908830702216141
2012-02-02,-1,-0.0007634382263257294,-0.0005840415564878011,0.0025380217978392197,0.01005002888404789,0.9907753716019282
2012-02-06,0,-5.650251194758756e-05,2.532868930902582e-05,-0.003350343609371637,0.009325637588462153,0.9912965806370424
2012-02-08,1,0.0003952353246570768,0.0004002381916314697,-0.003350343609371637,0.009325637588462153,0.9915272004968925
2012-02-10,1,0.00048302253583381,0.0005022146080678034,-0.0013788381256407572,0.00827017084522361,0.9923860208799271
2012-02-14,1,0.00025109890463560617,0.0003030888746509765,-0.002332326112983878,0.007584145067567955,0.9927830377772512
2012-02-16,-1,-0.0004541258081453462,-0.0002960108435095863,-0.0016730872271080314,0.007584145067567955,0.992303254868854
2012-02-21,-1,-0.00012095016676180422,-1.982220959879851e-05,-0.004012426562775352,0.007885113796966856,0.9922006716038017
2012-02-23,1,0.0003376048551425728,0.0003793524764854095,-0.006625150349942413,0.0072469481455149625,0.9917683008338786
2012-02-27,-1,-0.00019046549424069537,-2.402834394655e-05,-0.006625150349942413,0.007634278313769328,0.9919449742731455
2012-02-29,1,0.0004508136353419236,0.00048530212127383734,-0.006863146532490475,0.0072469481455149625,0.9919482145882841
2012-03-02,1,0.0004433115902389864,0.0004878067565525335,-0.00648381805979366,0.006159897989458749,0.9931339654968456
2012-03-06,1,0.0006199444464019611,0.000633965397013188,-0.00648381805979366,0.0072469481455149625,0.9930100165685284
2012-03-08,1,0.0007375548456580146,0.0007591605667226589,-0.006862608262062552,0.006159897989458749,0.9927469197896811
2012-03-12,1,0.0008993532715754906,0.0009553080329614707,-0.008154735998015496,0.006159897989458749,0.9916754670100946
2012-03-14,1,0.00101272902524567,0.001101439434060839,-0.008154735998015496,0.0074254337411352525,0.9913484380524142
2012-03-16,1,0.0012679754086320789,0.0014313634321508851,-0.008154735998015496,0.0041202845376171115,0.9914810600497106
2012-03-20,1,0.001084474721277991,0.0011941624243668701,-0.010871008588805318,0.003533902107103408,0.9914710983998442
2012-03-22,1,0.0009288994324559866,0.001052909168190742,-0.008154735998015496,0.003533902107103408,0.9923150452618901
2012-03-26,1,0.0006359651307306109,0.0006706496187680064,-0.008351023743017572,0.0005761893483497677,0.992512490999986
2012-03-28,1,0.0003817798069018941,0.00039039420194820736,-0.008351023743017572,0.002729812574992754,0.9921541494669899
2012-03-30,1,0.000593087913629816,0.0006432953222197001,-0.008351023743017572,0.0005761893483497677,0.9918881969768143
2012-04-03,1,0.0009799850529742101,0.0011166957552479885,-0.01106408345687428,0.0005761893483497677,0.9892444250623968
2012-04-05,1,0.0005056346371749433,0.0005548267854055388,-0.011992228957655062,0.0005761893483497677,0.9887956529697577
2012-04-10,1,1.1072665219786934e-05,3.1894842315017306e-05,-0.008651134171505008,0.0039950815032094595,0.9890812082758977
2012-04-12,1,1.518022792862812e-05,6.71877037418742e-05,-0.011992228957655062,0.0039950815032094595,0.9883925527219729
2012-04-16,-1,-0.0004975714679614768,-0.00037711214351055503,-0.012238854281715103,0.0039950815032094595,0.9881317675649939
2012-04-18,-1,-0.0009643800364033744,-0.0007693058758008692,-0.010981753613026467,0.0007434675164806724,0.9887283779799388
2012-04-20,0,0.0,0.0,-0.01229312479934326,-0.0013353623866089225,0.987158683651101
2012-04-24,0,0.0,0.0,-0.01229312479934326,0.006045669315465457,0.9868246978098846
2012-04-26,-1,-0.0010669783832343495,-0.000977405111666635,-0.01131046367003314,0.004571166787781751,0.988108960519888
2012-04-30,-1,-0.0007516407104980092,-0.0007187846392158789,-0.01131046367003314,0.009603049044548256,0.9871777972798537
2012-05-02,-1,-0.0010567269637202453,-0.0009923776890778432,-0.01131046367003314,0.004571166787781751,0.989344965422641
2012-05-04,0,0.0,0.0,-0.01131046367003314,0.004571166787781751,0.9894192451360644
2012-05-08,0,0.0,0.0,-0.01131046367003314,0.008874186219526188,0.9883094613920747
2012-05-10,0,0.0,0.0,-0.008331434779885015,0.00525161499394561,0.9893961852371671
2012-05-14,0,0.0,0.0,-0.0048052620769798784,0.008874186219526188,0.9897321269148509
2012-05-16,-1,-0.001731540784260187,-0.0014836867973673988,-0.003255737003416532,0.010818467377351747,0.9889246794287342
2012-05-18,-1,-0.0020032076746672586,-0.0017545582681901227,-0.0017336131286060828,0.011899526759640303,0.9889828801647216
2012-05-22,-1,-0.0015801522902955112,-0.001390510714968366,-0.003008718001271701,0.010818467377351747,0.9886003300653033
2012-05-24,-1,-0.00196972512597879,-0.001732644611826047,-0.008061490674059322,0.01141332116089851,0.9869775311818655
2012-05-29,-1,-0.001007946596552988,-0.0009036666221792979,-0.009106479547633321,0.01141332116089851,0.9873199820695048
2012-05-31,-1,-0.001842783103178681,-0.0016203270385414061,-0.007380413939102794,0.012449947780402084,0.9874684222410162
2012-06-04,-1,-0.0020786401614291735,-0.0018426321579144487,-0.0037712841827745014,0.013196111617826568,0.9870586282665234
2012-06-06,-1,-0.001311719604300035,-0.0011192628241454043,-0.007380413939102794,0.012449947780402084,0.9879943663294014
2012-06-08,-1,-0.001140315944074644,-0.0009671375696664081,-0.008715935209183848,0.012449947780402084,0.9877380709006479
2012-06-12,-1,-0.0006278615329408263,-0.0005235728787052819,-0.00997807673715448,0.012449947780402084,0.986970219187205
2012-06-14,-1,-0.0008115367417361363,-0.0006721713909679367,-0.008715935209183848,0.013196111617826568,0.986810686985916
2012-06-18,-1,-0.0007752698355369325,-0.0006276867032637236,-0.008715935209183848,0.013326270274486228,0.9866378209766278
2012-06-20,-1,-0.0012716622932557,-0.0010541763711577907,-0.00785975027776252,0.013326270274486228,0.9874157744713392
2012-06-22,-1,-0.0021651505337407693,-0.001817075698397794,-0.00785975027776252,0.013326270274486228,0.9885565180542293
2012-06-26,-1,-0.0015917104903329679,-0.0013459614399113913,-0.008150282674269574,0.012847625630624552,0.9880696015240036
2012-06-28,0,0.0,0.0,-0.008150282674269574,0.012847625630624552,0.9870360792050638
2012-07-02,0,0.0,0.0,-0.008150282674269574,0.010908874524528595,0.9879031549946412
2012-07-05,0,0.0,0.0,-0.008150282674269574,0.01144038851217633,0.9882733520256286
2012-07-09,0,0.0,0.0,-0.007499800893939997,0.014442167593567756,0.9880112597968235
2012-07-11,0,0.0,0.0,-0.007146444376586392,0.013147890063942857,0.988466637973182
2012-07-13,0,0.0,0.0,-0.007146444376586392,0.011047102456645674,0.9894832685819817
2012-07-17,0,0.0,0.0003230278026698036,-0.007146444376586392,0.010134263466685424,0.9907094340784177
2012-07-19,0,0.0,0.0,-0.006917787360727681,0.010134263466685424,0.9909890728595113
2012-07-23,0,0.0,0.0,-0.0036533615276553586,0.010134263466685424,0.9917004375626928
2012-07-25,1,0.0009997707880894618,0.0013634820020951481,-0.0021958740534326264,0.010134263466685424,0.9932177650055856
2012-07-27,1,0.0019974792539077554,0.0024674982206082377,-0.0036533615276553586,0.004024887952208772,0.993904988336051
2012-07-31,1,0.002198200774594013,0.0027211006045421635,-0.0021335405735450797,0.004024887952208772,0.9944513948788462
2012-08-02,0,0.0,0.0,-0.0021562667394985605,0.003386357595644959,0.9952055601341026
2012-08-06,0,0.0,0.0,-0.0031499056796053305,0.003386357595644959,0.995220168287102
2012-08-08,0,0.0,0.0,-0.004762512995669011,0.0018961943601298467,0.994337863740735
2012-08-10,0,0.0,0.0,-0.006458113498601961,0.001954497546926134,0.9934177457617536
2012-08-14,0,0.0,0.0,-0.006458113498601961,0.003426788295908929,0.9931624027507538
2012-08-16,1,0.00028088034129325956,0.0005195389846173944,-0.006458113498601961,0.005099387243745867,0.9922365607204774
2012-08-20,1,0.00014873467330701526,0.00033719452315823643,-0.007290722493737627,0.005099387243745867,0.9921837940623942
2012-08-22,0,0.0,0.0,-0.008149406740995277,0.006092702789136359,0.9917564552009859
2012-08-24,0,0.0,0.0,-0.005224656073238944,0.009900366713393196,0.9916719542064661
2012-08-28,0,0.0,0.0,-0.008149406740995277,0.009900366713393196,0.9909505082462376
2012-08-30,0,0.0,0.0,-0.008149406740995277,0.009900366713393196,0.9907483923681861
2012-09-04,0,0.0,0.0,-0.00725595361849129,0.00742757403646987,0.9916135786906755
2012-09-06,0,0.0,0.0,-0.00725595361849129,0.00742757403646987,0.9925510691448678
2012-09-10,0,0.0,0.0,-0.004737169185276446,0.005330644965665647,0.9935138411467778
2012-09-12,0,0.0,0.0,-0.007283907509387738,0.005330644965665647,0.9931973554586957
2012-09-14,0,0.0,0.0,-0.008380063400478747,0.003357514656855705,0.993718767255701
2012-09-18,0,0.0,0.0,-0.008297327662707833,0.005330644965665647,0.9929356349610314
2012-09-20,0,0.0,0.0,-0.007256328930130766,0.007168522829953358,0.9930563115931945
2012-09-24,1,0.0012825530194935306,0.0013986155385313555,-0.00846453806105471,0.00468316211999685,0.9927192826219796
2012-09-26,0,-1.1539695895366586e-05,7.849571726277526e-05,-0.00851435037346798,0.00468316211999685,0.9926376796799724
2012-09-28,1,0.0007930193651740013,0.0008696063854945955,-0.00851435037346798,0.005186168736951051,0.9920134576711398
2012-10-02,0,0.0,0.0,-0.00851435037346798,0.009530057229833694,0.9911898791523504
2012-10-04,0,0.0,0.0,-0.00851435037346798,0.008863754148504089,0.9914991498494025
2012-10-08,0,0.0,0.0,-0.00993062781515689,0.009530057229833694,0.9898763620583101
2012-10-10,-1,-0.0009196271479518766,-0.0005997392812893375,-0.01128776039075023,0.009530057229833694,0.9897898680034027
2012-10-12,-1,-0.0009098212985879638,-0.0006964539316392948,-0.008647568508722722,0.009530057229833694,0.9903534903606274
2012-10-16,0,-8.761811017360139e-05,1.9057625720047666e-05,-0.011154142082875435,0.004137565248746678,0.9908339125132584
2012-10-18,1,0.0005401342320148334,0.0005500262879239892,-0.011154142082875435,0.008400641452040187,0.9901508282280378
2012-10-22,-1,-0.0005885848909629784,-0.0004131987870182757,-0.006528754591502763,0.008400641452040187,0.9910740709561127
2012-10-24,-1,-0.0015942399265517185,-0.0012725640593697933,-0.003854076698052965,0.009530057229833694,0.9912496664286041
2012-10-26,-1,-0.00011114521869224475,-2.8871223074614826e-05,-0.006528754591502763,0.009530057229833694,0.991107483988777
2012-11-01,1,0.0005298562740219143,0.0005309055049574448,-0.006528754591502763,0.0076774023439317085,0.9917464721412685
2012-11-05,1,0.00024052501322178755,0.00025742310588709283,-0.005352126531474424,0.0076774023439317085,0.9921300852323586
2012-11-07,0,0.0,0.0,-0.003854076698052965,0.0063737417950550344,0.993548042649043
2012-11-09,0,0.0,0.0,-0.0021673728049941532,0.0076774023439317085,0.9939483782978555
2012-11-13,0,0.0,0.0,-0.0015001333346679486,0.0076774023439317085,0.9939596406226063
2012-11-15,0,0.0,0.0,-0.0015001333346679486,0.0076774023439317085,0.9942059120478381
2012-11-19,0,0.0,0.0,-0.0015001333346679486,0.008219157232076928,0.9938626251633662
2012-11-21,0,0.0,0.0,-0.001473127485760459,0.0070430489303999365,0.9941741918973019
2012-11-26,1,0.00025102017341909616,0.00026344390576219727,-0.0029960960224946123,0.004605281200843518,0.9941387836086649
2012-11-28,1,0.00012084723947311722,0.00016969357702852986,-0.0029960960224946123,0.004066117044419761,0.9950003350909837
2012-11-30,-1,-0.0003383458253932683,-0.00021126015162205162,-0.0038365910325606047,0.004605281200843518,0.9936541229771061
2012-12-04,-1,-0.000461736397242579,-0.0003203532118296344,-0.0029960960224946123,0.0070430489303999365,0.9930743159374609
2012-12-06,0,-5.621491013285592e-06,7.196065719157168e-05,-0.0038365910325606047,0.010242236477649507,0.9923855887583631
2012-12-10,1,0.0006263231329150396,0.00066238256278707,-0.006219865273064237,0.005666624436747417,0.9920307766908467
2012-12-12,1,0.0006893853820515725,0.0007323726387686033,-0.006219865273064237,0.005775653779699582,0.9918172195802809
2012-12-14,1,1.2389097817704992e-05,9.046889828095227e-05,-0.005044869999545941,0.009739909050272513,0.991833719443238
2012-12-18,1,0.0001882937066500722,0.00028481328323317706,-0.005044869999545941,0.0043228171908947215,0.9928228833226481
2012-12-20,1,0.0008382137923583008,0.0008877174379618288,-0.005044869999545941,0.005706179009084012,0.9922131697646911
2012-12-24,1,5.309380590493308e-05,0.00012526173828458442,-0.004740977453650479,0.009971730241402136,0.9919455512080508
2012-12-27,-1,-0.00025949581725124004,-0.00015252169424244676,-0.004217961041297597,0.010858465799185008,0.9916186758826026
2012-12-31,1,0.00022020750248683078,0.000239923056392511,-0.004217961041297597,0.010858465799185008,0.9919233412751245
2013-01-03,1,0.0010000672850698086,0.0011334665672586785,-0.005600012257731572,0.010858465799185008,0.9899521963304139
2013-01-07,1,0.000978951558339948,0.001113528179305812,-0.005798782241457082,0.009873097706920431,0.9900161819154965
2013-01-09,1,0.000526119452702712,0.0005961995253503849,-0.005143252506620528,0.009873097706920431,0.9906568854004582
2013-01-11,1,0.0006966035129325739,0.0007989911515750433,-0.005143252506620528,0.009873097706920431,0.9906487835342034
2013-01-15,1,0.0008778993925248643,0.0009845682188662835,-0.005143252506620528,0.010934955021732041,0.9904238181153484
2013-01-17,1,0.0007786753554316297,0.0008654051483326702,-0.0076878555446848506,0.010934955021732041,0.989335303398232
2013-01-22,1,0.0010655033629894377,0.0011798350815667175,-0.009876372410943421,0.010934955021732041,0.9877718377406488
2013-01-24,1,0.001154556778001587,0.0012802845659320797,-0.009876372410943421,0.00841220283728611,0.988486706957829
2013-01-28,1,0.00114524868669035,0.001255593924252081,-0.012187287791233726,0.00858732459431485,0.9874172018980023
2013-01-30,1,0.0009894277755903627,0.0010680174567148032,-0.012187287791233726,0.006542615832021114,0.9882790579133856
2013-02-01,1,0.0011714288009072621,0.0012683325957087203,-0.011436672107344316,0.0058159644779699924,0.9906045796100131
2013-02-05,1,0.0004742321114533927,0.0004864053719609391,-0.006459966793424815,0.0059675455805630806,0.9913050848888975
2013-02-07,1,0.0006717245005140842,0.0007231274278825875,-0.006459966793424815,0.006542615832021114,0.9909434854771995
2013-02-11,1,0.0008708155657109686,0.0009853812745914004,-0.004641496257501592,0.006542615832021114,0.9912394501798455
2013-02-13,1,0.0013106196517581308,0.001473294211602995,-0.004641496257501592,0.006329893423716169,0.9914637621665938
2013-02-15,1,0.0002694080978178137,0.00029455867538812086,-0.001766438639112283,0.006329893423716169,0.9921699967337506
2013-02-20,1,0.0006201408070877551,0.0007015702430864508,0.00013300014628172055,0.006329893423716169,0.9934807656084681
2013-02-22,1,0.0007761085772032071,0.0008443878167629264,-0.0007568649381796227,0.006490645407306943,0.9934840259794636
2013-02-26,1,0.0006550869823126784,0.000716956659108222,-0.0007568649381796227,0.005745057008535011,0.9945434491434116
2013-02-28,1,0.0006564210101104493,0.0007157495842149658,-0.001347955406249733,0.005745057008535011,0.9945232657783002
2013-03-04,1,0.00047748602035703106,0.000519510594317099,-0.001347955406249733,0.0060031819018281415,0.9946286120194391
2013-03-06,1,0.0008300145357249941,0.0009223629511964195,-0.005164904961833503,0.005302481069279417,0.9939571781326652
2013-03-08,1,0.0007954535463633551,0.0008610870999598941,-0.006017744220179509,0.005302481069279417,0.9935799824223025
2013-03-12,1,0.0005901328278466435,0.0005914629084060098,-0.006017744220179509,0.007877741568170154,0.9930317472950011
2013-03-14,1,0.0013975709942835052,0.0015542243477050747,-0.006879477297344209,0.006707655415050198,0.9928267639187026
2013-03-18,1,0.001178621774691469,0.001322393975702903,-0.006879477297344209,0.006707655415050198,0.991365917247018
2013-03-20,1,0.0014293212704621298,0.0015647545040069616,-0.00819831197262394,0.006707655415050198,0.991277245933802
2013-03-22,1,0.0012774500656073972,0.0013575640226683046,-0.00819831197262394,0.004445670255871144,0.9914845618870819
2013-03-26,1,0.0013928018547194566,0.0015252160949035466,-0.006879477297344209,0.007062244280776876,0.9916385155676088
2013-03-28,1,0.0014065589613446456,0.0015736724813992457,-0.006879477297344209,0.007877741568170154,0.9916754135973194
2013-04-02,1,0.0010095721300519998,0.001091328990592319,-0.006017744220179509,0.008474839526718098,0.9910816305607707
2013-04-04,0,0.0,0.0,-0.002748219282024846,0.009028436470686943,0.9906529882299434
2013-04-08,0,0.0,0.0,-0.0015552020262756074,0.009028436470686943,0.9905712860542646
2013-04-10,0,0.0,0.0,-0.002299193960968246,0.009199303632108134,0.9906617452440278
2013-04-12,-1,-0.0006814484231596276,-0.0005112709795079412,-0.002299193960968246,0.009199303632108134,0.9909607905049097
2013-04-16,-1,-0.001240697569030316,-0.0010303169174578173,-0.0022285943416008036,0.00942966375130156,0.991671180692722
2013-04-18,0,0.0,0.0,-0.0022285943416008036,0.00942966375130156,0.9924851391585237
2013-04-22,0,0.0,0.0,-0.0010437971472421147,0.012053378387224787,0.991463583206941
2013-04-24,0,0.0,0.0,-0.0037665588661648713,0.012053378387224787,0.99079152430513
2013-04-26,0,0.0,0.0,-0.004018973470933426,0.012053378387224787,0.9910960180200241
2013-04-30,1,0.0007204745801943877,0.0007806540713143678,-0.004018973470933426,0.010316610609657691,0.9921298927126814
2013-05-02,1,0.0006670511286830711,0.000710753321746113,-0.004503834926685398,0.006209387858873026,0.9920558878268357
2013-05-06,1,0.0012843606105096333,0.001422125801047325,-0.0058454870031539215,0.006209387858873026,0.9919318580941925
2013-05-08,1,0.0014484013286041346,0.001614226041203184,-0.0058454870031539215,0.004769119954642827,0.9922992098856218
2013-05-10,1,0.0011096711642063241,0.0012137935460725113,-0.004756444355894054,0.0053738603278346495,0.9923587502309188
2013-05-14,1,0.0017657182465609456,0.0019990070568320153,-0.006943566468571021,0.004769119954642827,0.9920648107207276
2013-05-16,1,0.0015154936227939455,0.00171314087773901,-0.006943566468571021,0.0053738603278346495,0.9916655734701856
2013-05-20,1,0.0019397634021970597,0.002167124972870695,-0.006943566468571021,0.004769119954642827,0.9919861819657529
2013-05-22,0,0.0,0.0,-0.006943566468571021,0.004769119954642827,0.9921660544607653
2013-05-24,0,0.0,0.0,-0.008487444102174207,0.004769119954642827,0.9915205947328258
2013-05-29,0,0.0,0.0,-0.008487444102174207,0.006988803732911954,0.9910031470543439
2013-05-31,0,0.0,0.0,-0.0063609664945697315,0.006988803732911954,0.991998020075782
2013-06-04,1,0.0005483331740229661,0.0005987726573158027,-0.005066841452966793,0.00815500727509758,0.9919794446000662
2013-06-06,1,0.000556509947585515,0.0006101190909905996,-0.005066841452966793,0.00815500727509758,0.9919042640245831
2013-06-10,1,0.0008576465805715588,0.0008587812010245023,-0.005066841452966793,0.008554224967067908,0.9914972638503242
2013-06-12,1,1.631790329998978e-05,0.0001146252986184257,0.0003957480878156794,0.009788301494711734,0.9917158343428472
2013-06-14,1,0.00032643930879637116,0.0003647972586690224,0.0007249904803073836,0.008554224967067908,0.9922783171582623
2013-06-18,1,0.0009594398859409015,0.0010118073128051362,0.0003957480878156794,0.008554224967067908,0.9926685962524734
2013-06-20,1,0.0002339023131610282,0.0002662210283773124,0.0007249904803073836,0.00920736195698605,0.9931125918519027
2013-06-24,-1,-0.0002328104032104668,-0.00016026405647418993,0.0007249904803073836,0.00920736195698605,0.9933674671402866
2013-06-26,1,0.0003492568929901749,0.0003611907450319347,0.0003957480878156794,0.00920736195698605,0.9940062860695447
2013-06-28,0,-1.9991603906861224e-05,7.271893449903728e-05,-0.0005297701954969,0.00920736195698605,0.9935848701056502
2013-07-02,1,0.0005837595122597164,0.000611513724778516,-0.0029232346704353785,0.007721340080283588,0.994476291217959
2013-07-05,1,0.0007329691769677362,0.000745948250824434,-0.0029232346704353785,0.009723814221933432,0.9931097138822167
2013-07-09,1,0.0015207351306867037,0.0016377344720876665,-0.0029232346704353785,0.008411356150082996,0.9937697561157617
2013-07-11,1,0.0013825639327504067,0.0014246048512028704,-0.004161889186057878,0.008205605550725388,0.9934966633051399
2013-07-15,1,0.001824137249769052,0.0019392721360896677,-0.004905162364981554,0.0054461869258806295,0.9930899803735609
2013-07-17,1,0.001918548876992289,0.002062156176605325,-0.004316742359489845,0.0054461869258806295,0.9931699650960445
2013-07-19,1,0.0019350339750868958,0.0020637809042052683,-0.0042489126709140705,0.005016300362141112,0.9933717296682341
2013-07-23,1,0.0019093421191545197,0.002036112365784736,-0.006031247806408501,0.004627147354312914,0.9924765226104844
2013-07-25,1,0.0015093816730100452,0.0015645214137189685,-0.005770269174123844,0.007279187626719962,0.9922121327007403
2013-07-29,1,0.0012280720775706484,0.0012515408874413003,-0.0042489126709140705,0.007279187626719962,0.9922991075567721
2013-07-31,1,0.0010490409661661727,0.0010576861697243433,-0.00399983511093771,0.008830500396462737,0.9918807765459269
2013-08-02,1,0.002136417593239545,0.0022969683417166224,-0.005023036494194762,0.006247489853637291,0.9929571753658396
2013-08-06,1,0.0021770339228924874,0.0023618287396391592,-0.005023036494194762,0.007685173834181021,0.9925065642840496
2013-08-08,1,0.0019264454677721363,0.002059314272039527,-0.00399983511093771,0.006984629798800797,0.9930752593701457
2013-08-12,1,0.0016517413092870244,0.0017815488276045933,-0.0035635935128851617,0.007946826912705242,0.9933087070935407
2013-08-14,1,0.0021818044954873056,0.0023941674962056425,-0.0037981479769878933,0.00730934902048005,0.9933807709188097
2013-08-16,1,0.0020468612568899265,0.00222051119741379,-0.0037981479769878933,0.00730934902048005,0.9936834545879952
2013-08-20,1,0.0012592308125713427,0.0013125669589359697,-0.003188505674415103,0.007946826912705242,0.993928881724658
2013-08-22,1,0.0012246353880575435,0.0012651565527646987,0.0004569516432215658,0.00730934902048005,0.9945402970940453
2013-08-26,1,0.0007463289006363033,0.0008001322068714008,-0.0026750287840168795,0.00730934902048005,0.9942970466156519
2013-08-28,1,0.0009906643683679562,0.0010067717789364993,-0.0015974340048478322,0.006579311425909873,0.9949302906431432
2013-08-30,1,0.0008867142542730073,0.0008933245746017254,-0.0015974340048478322,0.006579311425909873,0.9948308909596479
2013-09-04,1,0.0011576808497855751,0.0011584786215555604,-0.0015974340048478322,0.006057065207226641,0.9953130022790818
2013-09-06,1,0.0008395301095405827,0.0009106410216028367,-0.00258783450146811,0.006291381406996499,0.9948758134119323
2013-09-10,1,0.0007925249890669756,0.0008757180910184814,-0.00258783450146811,0.005384135300904876,0.99487108691488
2013-09-12,1,0.0006695250760295438,0.000772520771411834,-0.00258783450146811,0.005384135300904876,0.9942914445174738
2013-09-16,1,0.0010579276174032702,0.0010979316552798633,-0.00258783450146811,0.005800059265055635,0.9940856988637734
2013-09-18,1,0.001641193820983661,0.0016878550183443463,-0.00258783450146811,0.005332806148842692,0.994013384520918
2013-09-20,1,0.0020921004173727917,0.0022383480197734787,-0.00258783450146811,0.00653206558048121,0.9938153783807447
2013-09-24,1,0.0017516804134122192,0.0018679299631848213,-0.0016349667139379427,0.00653206558048121,0.9940717909383354
2013-09-26,1,0.001818812125207693,0.001974439202046997,-0.003319064264004793,0.007934391744146096,0.993122709183521
2013-09-30,1,0.001503757120016603,0.0016233285140003003,-0.002396666770633278,0.00892973142712217,0.9931991209786674
2013-10-02,1,0.0016545491388485004,0.001779866611579287,-0.003319064264004793,0.00892973142712217,0.9926266808522551
2013-10-04,1,0.001997960990896632,0.002189152745038898,-0.003748452943662374,0.006841672933768751,0.9930410159389861
2013-10-08,1,0.0013721374384380366,0.0014583804726403132,-0.003748452943662374,0.006841672933768751,0.9930774940510123
2013-10-10,1,0.0019442749022721326,0.0021527276271053404,-0.003748452943662374,0.006841672933768751,0.9925169858037555
2013-10-14,1,0.0019480775645025223,0.0021109706265648037,-0.003748452943662374,0.006908190556882205,0.9920126728601038
2013-10-16,1,0.0021636033862370324,0.002341564264971155,-0.006396165979886724,0.006411081805087433,0.991932322190988
2013-10-18,1,0.0023063818172941054,0.0025009985977803317,-0.006396165979886724,0.006352781871237682,0.9917342667653551
2013-10-22,1,0.0017547793645023052,0.0018267641570352874,-0.010135873890695639,0.006352781871237682,0.991252355512115
2013-10-24,1,0.001801951518714537,0.0018801811911780054,-0.0063829968045295135,0.006352781871237682,0.9917599547405594
2013-10-28,1,0.0018807854015583118,0.001968417306503507,-0.010135873890695639,0.006352781871237682,0.9910506443221365
2013-10-30,1,0.001576900898878107,0.0016245998135449218,-0.0063829968045295135,0.00526220970706332,0.9918244947558373
2013-11-01,1,0.0009174997234409723,0.0009889941437840899,-0.0063829968045295135,0.00526220970706332,0.9918885522467409
2013-11-05,1,0.0005092834138089307,0.0006291277266316409,-0.0063829968045295135,0.00526220970706332,0.9917773339171344
2013-11-07,1,0.0006650876390972451,0.0007458266187263698,-0.005863594575987913,0.0030179942229315044,0.993046473752684
2013-11-11,0,0.0,0.0,-0.005863594575987913,0.0018557873080947839,0.99378607101721
2013-11-13,0,-0.00023018914019601246,2.8724514447127196e-05,-0.005863594575987913,0.0018557873080947839,0.9936811376797836
2013-11-15,0,-0.00014198026814133844,8.617086191109718e-05,-0.005492727685917197,0.0018557873080947839,0.9938309495582124
2013-11-19,-1,-0.0007795677484715098,-0.0004771031452836822,-0.005492727685917197,0.0030898232850437154,0.9939504951490572
2013-11-21,0,0.0,0.0,-0.005492727685917197,0.0030898232850437154,0.993614046092071
2013-11-25,-1,-0.0002873411679938237,-7.940092942361737e-05,-0.00462393765308192,0.0030898232850437154,0.9945435607796128
2013-11-27,0,-0.0001518209241388132,1.2643845140484459e-05,-0.00462393765308192,0.004019353877787998,0.9944535405210786
2013-12-02,0,-6.264176597034921e-05,7.699609618534378e-05,-0.005201955764336894,0.004988756387185961,0.9938445304547737
2013-12-04,-1,-0.0004354424892910608,-0.000275426112691612,-0.005201955764336894,0.004988756387185961,0.9939485935571754
2013-12-06,-1,-0.000750029111268158,-0.000557183405288418,-0.00462393765308192,0.004988756387185961,0.9940197555801339
2013-12-10,-1,-0.000928600844049148,-0.0007226316797741214,-0.005162982334852203,0.004988756387185961,0.9936770485866337
2013-12-12,-1,-0.001373186979407378,-0.001115542561777892,-0.007237828535133717,0.004446984447690148,0.993624546852996
2013-12-16,-1,-0.0014051831475217578,-0.0011319272274448577,-0.007237828535133717,0.004446984447690148,0.9933812675222945
2013-12-18,-1,-0.0018411491218626665,-0.0015008705139138764,-0.005243026390778847,0.0038605777732051176,0.9939245641902896
2013-12-20,-1,-0.0017567779900363207,-0.0014172706941682055,-0.005243026390778847,0.0038605777732051176,0.9939322883652489
2013-12-24,-1,-0.0010711446806512485,-0.0008684175142316063,-0.007827814069200635,0.003066532440012746,0.9931379609861135
2013-12-27,-1,-0.0009546881401840321,-0.0007587663351302152,-0.00878633671201892,0.003006707162352848,0.9927407415297292
2013-12-31,-1,-0.0008866180255478785,-0.0006961435167762512,-0.00878633671201892,0.0018535058163512933,0.9933134865105716
2014-01-03,-1,-0.0016143025081574568,-0.0013117203723369553,-0.00991377234002099,0.0015770901533791407,0.9929769005347991
2014-01-07,-1,-0.0011371751717734074,-0.0009148873246982262,-0.00991377234002099,-0.002027559523793466,0.9929565542764095
2014-01-09,-1,-0.0016031334361077594,-0.001330030976379263,-0.009036896338739147,0.0025371907531608826,0.9924165210426468
2014-01-13,-1,-0.0029387589678482495,-0.002475355623904511,-0.006403505048842271,0.006126254060851382,0.9927660266589355
2014-01-15,-1,-0.002921926667073491,-0.002456136701654537,-0.007659232846396686,0.0025371907531608826,0.992969952151897
2014-01-17,-1,-0.003196728307902647,-0.0027032598357292145,-0.007659232846396686,0.006590679316034229,0.9923733348879804
2014-01-22,-1,-0.002622254730619079,-0.0022061503568858564,-0.007659232846396686,0.0005309435363005919,0.9929639445015397
2014-01-24,-1,-0.00383322326995941,-0.0032619522196021657,-0.005918445065274661,0.006590679316034229,0.992618759819769
2014-01-28,-1,-0.0035663281452410094,-0.003064067430986458,-0.00586975206086108,0.003734130188715901,0.9930073568239461
2014-01-30,-1,-0.003635326010510806,-0.0031403794975516995,-0.0057108202520898665,0.005435158108274713,0.992629532937919
2014-02-03,-1,-0.004505898084169017,-0.003924236831788415,-0.004277469035030269,0.005435158108274713,0.9930357559042656
2014-02-05,-1,-0.0046070518149282525,-0.004019726332095812,-0.004107064571685836,0.005435158108274713,0.9927616222306416
2014-02-07,-1,-0.0034197482493052243,-0.002988512752923374,-0.004107064571685836,0.0030924210537613493,0.9940158291833214
2014-02-11,-1,-0.0025862253765274786,-0.0022868514822203022,-0.004107064571685836,0.002077328508776474,0.994963796961386
2014-02-13,-1,-0.0028676761971731498,-0.002549851212353611,-0.0030821797383205098,0.0030924210537613493,0.994921330573886
2014-02-18,-1,-0.0026015326593450032,-0.002301972515607393,-0.0030821797383205098,0.0038856726229474373,0.9943870710902071
2014-02-20,-1,-0.002879590952903433,-0.0025458621899828943,-0.0030821797383205098,0.004594798099385149,0.9938165753980756
2014-02-24,-1,-0.0021644636989391407,-0.0018970701978189217,-0.0030821797383205098,0.0038856726229474373,0.9951360665893442
2014-02-26,-1,-0.0019888963226454854,-0.0017674858176787447,-0.002894752903988487,0.004594798099385149,0.994570329503611
2014-02-28,-1,-0.0015011083421154754,-0.0013560672327199653,-0.002894752903988487,0.006959047611315105,0.9937378223172636
2014-03-04,-1,-0.0017226012783645923,-0.0015320041620028749,-0.0011783172285528163,0.006959047611315105,0.9938202404813067
2014-03-06,-1,-0.0014065085424961484,-0.001281100407591571,-0.0012530240609757697,0.008701492604294321,0.9932626426385109
2014-03-10,-1,-0.0006859495221643276,-0.0006713906857335643,-0.0038252200699363925,0.008701492604294321,0.9934523490166282
2014-03-12,-1,-0.000504738878914115,-0.0004625158455258947,-0.0012530240609757697,0.01013385795185175,0.9923053335586203
2014-03-14,-1,-0.00022056128368492354,-0.0001314643493397304,-0.0019728339781716806,0.010779651291190732,0.9907413441532125
2014-03-18,1,0.0005848189485700002,0.0007793992470137317,-0.0019728339781716806,0.010615109515158906,0.9907047788993206
2014-03-20,1,0.0006083471561567805,0.0008159624722203219,-0.0001421496673594757,0.012568613082023474,0.9902813922213876
2014-03-24,1,0.0006597188749009237,0.000893974745312401,-0.0009948526953300198,0.012568613082023474,0.9902101151286197
2014-03-26,1,0.0011298932475054917,0.0014117947104878023,-0.002085204922677583,0.011991758590484661,0.990552863022879
2014-03-28,1,0.002037267785986727,0.002435983936315925,-0.002085204922677583,0.00965202390801376,0.9915107264817918
2014-04-01,1,0.0019528065794298364,0.002328480897757233,-0.002943838373106529,0.00965202390801376,0.9913030129966769
2014-04-03,1,0.0019150614222713709,0.002285436022174306,-0.002085204922677583,0.011991758590484661,0.9909366330146289
2014-04-07,1,0.0018979597314769912,0.00230171014219027,-0.0014117254648987518,0.011991758590484661,0.9914943621649027
2014-04-09,1,0.0029100939549338884,0.003440645438332393,-0.002085204922677583,0.01197787910402021,0.9916113872272626
2014-04-11,1,0.002644337670504877,0.00314154438112639,-0.0014117254648987518,0.01031728357481503,0.9930312632794827
2014-04-15,1,0.0033733975381797223,0.003934126076175018,-0.0015546906743557863,0.009746273468456681,0.993979939522733
2014-04-17,1,0.004509359355333469,0.005251354163288722,-0.002085204922677583,0.006807418973367412,0.9938613409561812
2014-04-22,1,0.00410095706048289,0.004773851553268975,-0.0012558218099391295,0.006807418973367412,0.9946799650888924
2014-04-24,1,0.004176312663128971,0.004852350164544213,-0.0009705730989386307,0.0056717099178511254,0.9945635312001643
2014-04-28,1,0.004178812114681065,0.0048515821258469675,-0.0007029652810837293,0.00787841285881844,0.9945181701096558
2014-04-30,1,0.003659317709766037,0.004226851961949461,-0.00044679915561070634,0.00787841285881844,0.9948588369766066
2014-05-02,1,0.004504593228743984,0.005162286079066013,-0.0007029652810837293,0.005353289367542691,0.995189353127484
2014-05-06,1,0.00455668015178185,0.005203273450091427,-0.0007029652810837293,0.005353289367542691,0.9949996169567991
2014-05-08,1,0.004157889329701678,0.004721122712715465,-0.00044679915561070634,0.005353289367542691,0.9961829941773932
2014-05-12,1,0.004735863613638491,0.005380058147501287,-0.00044679915561070634,0.004780626508898965,0.9958231801188855
2014-05-14,1,0.004615217583140692,0.005225919734611561,-0.00028406783931803477,0.005353289367542691,0.9959844819648294
2014-05-16,1,0.004381066984372454,0.004970646617773423,-0.00015814356917388112,0.006864669508822281,0.9966531718455899
2014-05-20,1,0.004445716500224462,0.005040103257634465,-0.00015814356917388112,0.006864669508822281,0.9965620956274518
2014-05-22,1,0.004436524529532767,0.005039002090008275,0.0005686086473471172,0.007055624345006959,0.9969135021263911
2014-05-27,1,0.004651680286075028,0.005285731074274507,0.0005686086473471172,0.007055624345006959,0.9961451392646885
2014-05-29,1,0.004654065870713558,0.005261274083362418,0.0021705472639058703,0.007674031079026193,0.9961947712307122
2014-06-02,1,0.004599042986223318,0.005206207463749975,0.0006540125971963791,0.007674031079026193,0.9961097898056492
2014-06-04,1,0.004293124330851065,0.00482503882583942,0.0006540125971963791,0.007674031079026193,0.995981058569772
2014-06-06,1,0.004071760489846692,0.004512940154774635,0.0003799394186172147,0.007055624345006959,0.9957989851439867
2014-06-10,1,0.004306430958291883,0.00478228165558927,-0.0012199706815103017,0.006458664348612802,0.995644797596211
2014-06-12,1,0.004499717158691869,0.004973316335831132,-0.002817847377522143,0.006289872502558519,0.994861441964043
2014-06-16,1,0.004835244402349052,0.005373177920418089,-0.002962321397903349,0.006289872502558519,0.9937162842213398
2014-06-18,1,0.004088641011864173,0.004469602554436682,-0.0032226862577497627,0.006458664348612802,0.9918394178880985
2014-06-20,1,0.004134150597533391,0.004501482988295825,-0.0032226862577497627,0.004896696068647415,0.9915117585853547
2014-06-24,1,0.003539131091290518,0.003801764996208446,-0.002962321397903349,0.006867667781126683,0.9919534462552599
2014-06-26,1,0.003217231287928284,0.0033636121604462186,-0.0035607201581635208,0.004896696068647415,0.9915076679471287
2014-06-30,1,0.002710565510364384,0.002762763284077794,-0.005695454887443233,0.004896696068647415,0.9911214996819131
2014-07-02,1,0.0028627391938724524,0.0029743784584687696,-0.006532788566176397,0.0022808957481410892,0.9898632974769221
2014-07-07,1,0.0027734497611953523,0.002885813768223356,-0.00911523839105207,0.0028592447348507197,0.9885411720432766
2014-07-09,1,0.0020995678889912262,0.0021091481926519763,-0.011520205202642114,0.009179659488000123,0.987365566464267
2014-07-11,1,0.0015512343724564661,0.0016182344234579485,-0.012781176044432723,0.011457958626695845,0.986676572608782
2014-07-15,1,0.001102762882091517,0.0012519574852273923,-0.009535562004982274,0.009179659488000123,0.9874468273805987
2014-07-17,1,0.0012902569751265247,0.0013838854885497012,-0.008597417493432862,0.006533928169936043,0.988913806376539
2014-07-21,1,0.0008262598586470562,0.0009916290547849183,-0.009839136304550515,0.006533928169936043,0.9882432777340072
2014-07-23,1,0.0016498437546927796,0.0017204862099064566,-0.009839136304550515,0.00617934020345462,0.9885411032059715
2014-07-25,1,0.0009504319267085355,0.0011128192421904796,-0.010016987135842967,0.006268171684052287,0.9886169549875718
2014-07-29,1,5.429918908097023e-05,0.0003330327207585414,-0.010016987135842967,0.00703043645877489,0.9890538659736074
2014-07-31,-1,-0.0010655144482577025,-0.0006630102906216282,-0.00896027540343192,0.00703043645877489,0.9898949873553365
2014-08-04,-1,-0.0016479817210214933,-0.0011629796563377528,-0.00896027540343192,0.006951800880294546,0.990841142863373
2014-08-06,-1,-0.0024344109736781317,-0.0018586063190483499,-0.00896027540343192,0.006951800880294546,0.9917124599618469
2014-08-08,-1,-0.001812702012248759,-0.001343120714208583,-0.00896027540343192,0.006431978651685938,0.9922392863144618
2014-08-12,-1,-0.0024424958198053038,-0.001894762171421506,-0.00896027540343192,0.006431978651685938,0.9924186526497529
2014-08-14,-1,-0.002866578599586403,-0.002254592741738213,-0.009782545096030024,0.006431978651685938,0.9922794895593171
2014-08-18,-1,-0.003140261890307996,-0.0025138555600381467,-0.005709143950030717,0.00703043645877489,0.9915648763596089
2014-08-20,-1,-0.002216370053231351,-0.0017383311401607021,-0.00851591338547075,0.006431978651685938,0.9923276742849783
2014-08-22,-1,-0.002490247526865405,-0.001975982117645623,-0.008962257199451878,0.006951800880294546,0.9921377937177502
2014-08-26,-1,-0.0025645752528114622,-0.0020325061913430064,-0.009978584711115776,0.006431978651685938,0.9922760551168405
2014-08-28,-1,-0.002931781353369087,-0.0023312150175491143,-0.011121576537973405,0.006979621306549936,0.9917034309445987
2014-09-02,-1,-0.0027007140223550942,-0.002170421709727804,-0.011121576537973405,0.006468908002262,0.9918915533961772
2014-09-04,-1,-0.0033662201038717537,-0.0027274182490969966,-0.011121576537973405,0.005268429905626927,0.9920651117117502
2014-09-08,-1,-0.0031757575585895956,-0.002612498131637278,-0.009978584711115776,0.0031402007263827345,0.9926774095141616
2014-09-10,-1,-0.0027207776660713306,-0.002253444455536771,-0.011121576537973405,0.005475597024298966,0.9917881888548298
2014-09-12,-1,-0.0031475199230503958,-0.0026180663383302666,-0.01415774706439776,0.0036784715043757855,0.9901403527553251
2014-09-16,-1,-0.002095782300545238,-0.0016912935941854257,-0.015577669515497094,-0.0007539234486470157,0.9887560178289266
2014-09-18,-1,-0.0027799471693278474,-0.0022795984451388362,-0.015577669515497094,0.0014385518622370829,0.9886178674603662
2014-09-22,-1,-0.003193983722157059,-0.00263012448647177,-0.015577669515497094,0.0036784715043757855,0.98796575782337
2014-09-24,-1,-0.003041235110348808,-0.0025528688992775906,-0.016457845114241806,0.00741493557529039,0.9862303082062253
2014-09-26,-1,-0.003118157133142457,-0.00263805856494558,-0.016457845114241806,0.008145489071829602,0.9865710950657395
2014-09-30,-1,-0.003939338986328476,-0.003363366843567553,-0.01664252000331234,0.00885742455720118,0.985418899322604
2014-10-02,-1,-0.004501450155289791,-0.003895266573503336,-0.015410998167290637,0.008926446740329563,0.9849280852878094
2014-10-06,-1,-0.004320135350656438,-0.00373874531181528,-0.01664252000331234,0.010452229396754364,0.9839349080524391
2014-10-08,-1,-0.004544974624228749,-0.003929035043586998,-0.018781788175853804,0.011065432347753035,0.9829873240869071
2014-10-10,-1,-0.006559554424600052,-0.005724291272458496,-0.01664252000331234,0.012868660745222166,0.982657287336485
2014-10-14,-1,-0.008970463478790646,-0.007856261044201172,-0.001373651055929672,0.012868660745222166,0.9833327184384755
2014-10-16,-1,-0.008082256955582068,-0.0070928748103268584,-0.008804998071413236,0.012868660745222166,0.984888873652211
2014-10-20,-1,-0.006527953395279709,-0.0057386191362705525,-0.008804998071413236,0.012600366970789863,0.9859067221712964
2014-10-22,-1,-0.0059985373683563575,-0.005274218432347174,-0.0076893117329059,0.011353771955927773,0.9870011982545652
2014-10-24,-1,-0.005456402670281439,-0.004807820782770935,-0.0076893117329059,0.012576716425111135,0.9865913602607436
2014-10-28,-1,-0.0048289424782122035,-0.004284484958332337,-0.0076893117329059,0.011353771955927773,0.9877590343187644
2014-10-30,-1,-0.003957052796240498,-0.0035407103793194065,-0.012090404028061245,0.011353771955927773,0.9856336961936628
2014-11-03,-1,-0.0034542552447729895,-0.0031242543461562034,-0.008804998071413236,0.01499664198030006,0.9846441759339193
2014-11-05,-1,-0.003400175895743363,-0.0031020543079421656,-0.008804998071413236,0.01499664198030006,0.9845143147573803
2014-11-07,-1,-0.0018165536059042656,-0.0017225086423733643,-0.014671622701196417,0.008556967994956114,0.9835817703145249
2014-11-11,-1,-0.0015491213129221527,-0.0015185827640182069,-0.021050148052444352,0.008556967994956114,0.98302116998575
2014-11-13,-1,-0.0022331900439882847,-0.002115843168961007,-0.021050148052444352,0.008556967994956114,0.9828674666771781
2014-11-17,-1,-0.0011349873432334283,-0.0010882751961099834,-0.021050148052444352,0.008556967994956114,0.9819917784622981
2014-11-19,-1,-0.000726353761396308,-0.0006046135581475488,-0.021050148052444352,0.021679686878285996,0.9776262647439549
2014-11-21,1,0.00025783992214665173,0.000509496521893432,-0.021050148052444352,0.021679686878285996,0.9767216002023331
2014-11-25,-1,-0.0004399988439191931,-0.0002730117858302791,-0.02068826962801899,0.022249515452761142,0.9763647846231384
2014-11-28,-1,-0.0032519855194205836,-0.0030710786051066225,-0.018819409873747885,0.022249515452761142,0.9796242393269763
2014-12-02,-1,-0.0014288592765251665,-0.0014099393313288318,-0.018819409873747885,0.01872787966854222,0.9815205495119687
2014-12-04,-1,-0.0011722239480526668,-0.001110202497642664,-0.018819409873747885,0.006877167766992145,0.9813546789510756
2014-12-08,-1,-0.0032724962937420625,-0.003088775690537518,-0.014270562540407185,0.009414154071027563,0.9820397995920673
2014-12-10,-1,-0.003843106548229661,-0.003596480458672581,-0.01256796594217725,0.01872787966854222,0.9814430215594541
2014-12-12,-1,-0.003523599429429318,-0.003371956166619285,-0.01256796594217725,0.01872787966854222,0.980882921093779
2014-12-16,-1,-0.002892547344091654,-0.002809860934569302,-0.014542253020338859,0.009414154071027563,0.9816166195613379
2014-12-18,1,0.0006307296383485141,0.0009838199265718311,-0.014542253020338859,0.004137066880591089,0.984882601913569
2014-12-22,1,0.00021883456344379184,0.00046835819014888914,-0.01256796594217725,0.007949458874561898,0.9852046484553341
2014-12-24,1,0.0005575951442568128,0.0008453083351714166,-0.010601951569164447,0.007949458874561898,0.9855244588132479
2014-12-29,1,0.0003737868192434773,0.0006064930561460499,-0.014161510182452484,0.007949458874561898,0.983403656204527
2014-12-31,1,0.00015881867515453202,0.0003844491203290563,-0.01232241008873514,0.007949458874561898,0.983916985373107
2015-01-05,-1,-0.001577666525712022,-0.0015608430902700086,-0.009962790372374587,0.018914108429847188,0.982179652703713
2015-01-07,-1,-0.002580717527589313,-0.0024413232425106964,-0.009962790372374587,0.022258341074755703,0.9817009002234796
2015-01-09,-1,-0.0016591082749344913,-0.0016158040943332688,-0.009962790372374587,0.018914108429847188,0.9829050022542959
2015-01-13,-1,-0.0024940108812102346,-0.002385705863175165,-0.002276922409627654,0.018914108429847188,0.9840611628696192
2015-01-15,-1,-0.002884945421789673,-0.002734124623888243,-0.0012924618638862307,0.02247522321064966,0.9832701912339148
2015-01-20,-1,-0.0014933546124175675,-0.00146607568005853,-0.004657291797545482,0.018914108429847188,0.9841832215722227
2015-01-22,-1,-0.00021092856375167228,-1.5952253244785452e-06,-0.0048995910464202635,0.008524954351241985,0.9859503363435113
2015-01-26,1,0.0001519472353901486,0.00040643740256160737,-0.0048995910464202635,0.004209825822977902,0.986882466168912
2015-01-28,-1,-0.0013075141567404397,-0.0012480061962072328,-0.0048995910464202635,0.005640197389028731,0.9874554848584273
2015-01-30,-1,-0.0010630916688529955,-0.000982179237306073,-0.007587939270217113,0.005640197389028731,0.9869594965393548
2015-02-03,1,0.0014629637461677327,0.0018834702025238962,-0.008603874655320344,0.0032387727392731796,0.9896792561185644
2015-02-05,1,0.0014356661221364216,0.001845284789293917,-0.008862819621237578,0.002402945955958737,0.991007841589678
2015-02-09,1,0.0022080994824223666,0.0027824983276000413,-0.012467251589863275,0.002136813309984567,0.9892284587170982
2015-02-11,1,0.002190619579788822,0.002748147959563628,-0.012467251589863275,0.002402945955958737,0.9892012085577685
2015-02-13,1,0.003204754995730077,0.003895030717676483,-0.012467251589863275,0.0030460429020223215,0.9893783543642873
2015-02-18,1,0.002125302683721011,0.002654161393775752,-0.010470673870502295,0.004897554660316604,0.9900633270253584
2015-02-20,1,0.0019399109378391468,0.0024329294547099133,-0.012467251589863275,0.006065031546375713,0.9890709395882014
2015-02-24,1,0.0015752537286225384,0.001985079023403909,-0.012467251589863275,0.006065031546375713,0.9883898548498942
2015-02-26,1,0.0006747350091180057,0.0009220641697568059,-0.011133262486729998,0.00619149384530922,0.9896716347470613
2015-03-02,1,0.00014754506695156908,0.000336245753238576,-0.009854958947768524,0.007296581598093167,0.9897324381559804
2015-03-04,1,9.43678738938023e-05,0.00026722638239915766,-0.011330645061133918,0.009046931169609727,0.9884860812790062
2015-03-06,-1,-0.0015893248858147011,-0.0014538481219677538,-0.009854958947768524,0.012237604490196759,0.9874509786268829
2015-03-10,-1,-0.00368684288045734,-0.0032104164459425674,-0.007076325244749705,0.012237604490196759,0.9873723007899935
2015-03-12,-1,-0.0031394165487082983,-0.002746577472941214,-0.007649994540042457,0.013498021708555566,0.9861825427919687
2015-03-16,-1,-0.001917497011434564,-0.001715282612828892,-0.007649994540042457,0.017054371381268148,0.985689921867856
2015-03-18,-1,-0.0009693267951397606,-0.0008961967077426419,-0.007649994540042457,0.01566094490925496,0.9862792990730951
2015-03-20,-1,-0.0005842078894860054,-0.0005735220650976134,-0.007649994540042457,0.013996905781031629,0.9862002355319273
2015-03-24,-1,-0.0011381408235130639,-0.0010687519671004056,-0.0059684266158004625,0.013996905781031629,0.9866485375803505
2015-03-26,-1,-0.00039133180939213976,-0.00033818348628553033,-0.007411054517191599,0.013996905781031629,0.9864764952073554
2015-03-30,-1,-0.00010491280229735561,-3.1876989602593086e-05,-0.007411054517191599,0.012553018001750429,0.9867348532592284
2015-04-01,-1,-0.0006480112481495751,-0.0006391590254397228,-0.006753045964030459,0.01100296964761915,0.9882921159243002
2015-04-06,1,0.001102250191831286,0.0013856871336756051,-0.007027976468286845,0.007122919489515616,0.9893685847201446
2015-04-08,1,0.0008108323924562081,0.0010475653205972092,-0.006753045964030459,0.006733684334025845,0.9903268752236809
2015-04-10,1,0.001344642669645059,0.0016178131021655586,-0.00676607883973335,0.006262567357261909,0.991389040081241
2015-04-14,1,0.002473291395225257,0.002925925217872172,-0.00745015314430027,0.00494250172286781,0.9912881725977264
2015-04-16,1,0.0029431406601703076,0.0034769938128736432,-0.00745015314430027,0.0031953126327656984,0.9918214299154883
2015-04-20,1,0.0031353902949706166,0.003733688209139525,-0.00676607883973335,0.004374401665322697,0.9932480780333602
2015-04-22,1,0.002422584147281688,0.0028796304502210013,-0.00676607883973335,0.004374401665322697,0.9930766455208205
2015-04-24,1,0.0010134349154516176,0.0011387200975159512,-0.00676607883973335,0.004374401665322697,0.9931826958268982
2015-04-28,1,0.0018365314180657797,0.0021561339983317,-0.007092015713054161,0.00307879980869974,0.992717194452609
2015-04-30,1,0.001978592034220229,0.0023217730850078424,-0.007092015713054161,0.002050150584564742,0.9926650277955846
2015-05-04,1,0.0005287562670198391,0.0005653091394273314,-0.005707602584206314,0.00307879980869974,0.9935036944909247
2015-05-06,1,0.0001647800626995329,0.00021309687152675844,-0.007643462920517536,0.0024431802620837415,0.9928191365897826
2015-05-08,-1,-0.00027804060964431253,-0.0001468849392062449,-0.005707602584206314,0.0024431802620837415,0.9934336772597152
2015-05-12,-1,-0.0009520215362837853,-0.0007633472144770584,-0.005374189464591503,0.004492728679251947,0.9938491396662744
2015-05-14,1,0.0007331646922503444,0.0009118294154015896,-0.006166598207185658,0.004492728679251947,0.9933055248108883
2015-05-18,1,0.001007217473099699,0.0012209774044812218,-0.006166598207185658,0.001108411926354829,0.9932411104278752
2015-05-20,1,0.000689990338793062,0.0008811246465697611,-0.005478477782440653,0.001108411926354829,0.9939500709453402
2015-05-22,1,0.0008780236911896666,0.0010955922006229625,-0.005478477782440653,0.001108411926354829,0.994187580057017
2015-05-27,1,0.0001680143847770547,0.00026860936228462597,-0.0053657424878544475,0.002818858447644566,0.994720565285943
2015-05-29,-1,-0.0006529388783150658,-0.0005737279668288241,-0.00549497920381223,0.002818858447644566,0.9945173612660803
2015-06-02,-1,-0.0011023880280241756,-0.0009196368935727618,-0.0064051889393594045,0.002818858447644566,0.9937719967537334
2015-06-04,-1,-0.0012029835893361178,-0.0010443211079931296,-0.0064051889393594045,0.00431331499655259,0.9929757757596012
2015-06-08,-1,-0.00167965803449524,-0.0014084545524580927,-0.008395055099480188,0.004405762242723705,0.9918407872241641
2015-06-10,-1,-0.001615595377676303,-0.0013326157035266368,-0.009339651009176385,0.004094634270543106,0.9915507422221019
2015-06-12,-1,-0.0013612299466340843,-0.00114808194371798,-0.009339651009176385,0.005622943519673318,0.99134863877623
2015-06-16,-1,-0.0008219250264569738,-0.0007176194348261992,-0.011943078332818284,0.006877373894556642,0.9901401299020938
2015-06-18,-1,-0.0008997866253167034,-0.000798152532471431,-0.0143681613917501,0.006877373894556642,0.9895052289869619
2015-06-22,-1,-0.001847531333646112,-0.001568818825562852,-0.0143681613917501,0.006877373894556642,0.989841642760917
2015-06-24,-1,-0.0016563985915022759,-0.0014076518610534345,-0.01868864645073024,0.005622943519673318,0.988539552552665
2015-06-26,-1,-0.0007155650583608925,-0.0006845247043514911,-0.02183760740411333,0.005622943519673318,0.985604048808611
2015-06-30,-1,-0.0010894874755655694,-0.001015872256364942,-0.02183760740411333,0.007921038327293854,0.9847544636743695
2015-07-02,-1,-0.0014097173101951517,-0.0013103462049133298,-0.022250685797268112,0.005943989978014845,0.9840982746662293
2015-07-07,-1,-0.001775071443177112,-0.0016390467062442425,-0.01939109542157269,0.0037419528361623384,0.9851159658414966
2015-07-09,-1,-0.0016500411156553125,-0.001586527297644093,-0.016429029304226354,0.004374127266684465,0.9844882895545939
2015-07-13,-1,-0.0019801451471953124,-0.001831190157155636,-0.02089566234968336,0.0049593853018003575,0.9824223864016218
2015-07-15,-1,-0.0022251243441383317,-0.0020421920926089266,-0.018678620209043477,0.006146557564445803,0.9824101714055872
2015-07-17,-1,-0.002914070720676804,-0.002648605110497834,-0.027718204139713733,0.006146557564445803,0.9819223369928823
2015-07-21,-1,-0.003603056305303115,-0.0032320777478050886,-0.027718204139713733,0.006146557564445803,0.9824046867412576
2015-07-23,-1,-0.005553800001368722,-0.004922630151013137,-0.027718204139713733,0.006146557564445803,0.9824333869088192
2015-07-27,-1,-0.008682438950104867,-0.0076919095352859235,-0.028114531405055977,0.006146557564445803,0.9815569637083206
2015-07-29,-1,-0.00549760507567343,-0.004844699982162599,-0.028114531405055977,0.0034100186699059024,0.9816318226956954
2015-07-31,-1,-0.007323962107517913,-0.0064174259234606856,-0.019912929435015308,0.021187799665162613,0.9793788881949066
2015-08-04,-1,-0.007423063469443779,-0.006521950473694439,-0.02807569905085723,0.022868184264634495,0.9763774353123735
2015-08-06,-1,-0.006429087548348142,-0.005675955971535625,-0.02807569905085723,0.021187799665162613,0.977177531706393
2015-08-10,-1,-0.005661383044646055,-0.0050326052493139106,-0.02224016327170198,0.021187799665162613,0.9776344399580965
2015-08-12,-1,-0.004679693638104432,-0.004176868334062885,-0.02224016327170198,0.01426861840043773,0.9781761118368002
2015-08-14,-1,-0.00582981853556348,-0.005169680258044567,-0.02077871970678631,0.01426861840043773,0.978254133737655
2015-08-18,-1,-0.0055635325622721,-0.004956576018485762,-0.02077871970678631,0.022206760774639366,0.9752483150926439
2015-08-20,-1,-0.006748397473027507,-0.006029224197046628,-0.02077871970678631,0.022206760774639366,0.9748158579986975
2015-08-24,-1,-0.009218312838995367,-0.008197440656926005,-0.013750136053358196,0.022206760774639366,0.9770001363097714
2015-08-26,-1,-0.0078090382788363385,-0.00701647460847994,-0.013348633826570616,0.0151837420408498,0.9788265081776777
2015-08-28,-1,-0.005388363564226479,-0.004876802574130235,-0.016808640056402986,0.011208605133305224,0.9821431388178118
2015-09-01,-1,-0.0038456753525171355,-0.0035551654038303944,-0.013348633826570616,0.012426291987770701,0.9833874421981975
2015-09-03,-1,-0.002837542753877389,-0.002712123630121141,-0.013348633826570616,0.013931913654968216,0.9806850096473024
2015-09-08,-1,-0.002468351958763269,-0.0024411897229482927,-0.012490258506103137,0.01923943790776988,0.979064813549209
2015-09-10,-1,-0.0023220103299558506,-0.002320903976195868,-0.01206544388026284,0.02116730520879253,0.9790506206921188
2015-09-14,-1,-0.003372476769065588,-0.0032471824741306925,-0.005382391650293793,0.02116730520879253,0.9795347899085537
2015-09-16,-1,-0.0012871265641722287,-0.0011479818819688003,-0.006104702768219537,0.01634603016899877,0.9824529723902133
2015-09-18,-1,-0.0016190536840295317,-0.0015086519190158632,-0.004150688968912911,0.01634603016899877,0.984557310619209
2015-09-22,-1,-0.0010994128258847043,-0.000907613009854366,-0.006104702768219537,0.01634603016899877,0.9837848654505084
2015-09-24,-1,-0.0015500128313034398,-0.0014305901707517348,-0.005782595897979704,0.02116730520879253,0.9824764053739132
2015-09-28,-1,-0.0023944617318932874,-0.0023692538146088773,-0.004150688968912911,0.02116730520879253,0.9825655515088354
2015-09-30,-1,-0.0007344201706209107,-0.0004732182376332812,-0.005782595897979704,0.02130406654809286,0.9825955206389488
2015-10-02,1,0.0011281099217153054,0.0015919335485430183,-0.006438142361510979,0.010291559786643131,0.9852885243882337
2015-10-06,1,0.0036649417858491975,0.00447840199993238,-0.006438142361510979,0.010291559786643131,0.9853945502097926
2015-10-08,1,0.0046153625343504905,0.005579254006435374,-0.007817554066605167,0.005844685838473731,0.9849941630320546
2015-10-12,1,0.0038617555537651858,0.004694380717518454,-0.009457913025190058,0.005844685838473731,0.9847357682251882
2015-10-14,1,0.004219251004940947,0.0051165272727186125,-0.013050132056243826,0.001724552360400317,0.9836267806691903
2015-10-16,1,0.003914611295435458,0.004741411419370295,-0.020731593620395502,0.001724552360400317,0.9825051663466398
2015-10-20,1,0.0030896544863957443,0.0038122032485367204,-0.013050132056243826,0.011387788252950221,0.9819533452928276
2015-10-22,1,0.003945956037587642,0.004797628317510785,-0.017730625256651734,0.006627148397916994,0.9822990527908441
2015-10-26,1,0.002859901877499001,0.003541377742365185,-0.013043621111119832,0.00764951636300149,0.9835666728409153
2015-10-28,1,0.0033897607671880313,0.004160766839418013,-0.013043621111119832,0.00764951636300149,0.9834625286511061
2015-10-30,1,0.0037189754654322303,0.00455928670703918,-0.01663439689006976,0.010683795970983852,0.9825714354472143
2015-11-03,1,0.005675279053710969,0.006762968289920038,-0.016913178523416474,0.007549559316924639,0.9821230732734868
2015-11-05,1,0.00554301220522275,0.006617512359190637,-0.017215941184572328,0.007549559316924639,0.9813111926293654
2015-11-09,1,0.004622284867627462,0.005567389785108337,-0.017215941184572328,0.007549559316924639,0.9803011729248289
2015-11-11,1,0.0039054246365704246,0.004747217421180664,-0.016913178523416474,0.010435148049846344,0.9814803631069534
2015-11-13,1,0.0031500481396507817,0.003904737846157755,-0.016913178523416474,0.010683795970983852,0.9810171932124245
2015-11-17,1,0.004442412690280898,0.005356863253908039,-0.017215941184572328,0.010683795970983852,0.9814528043114447
2015-11-19,1,0.004218787909178206,0.005089909592974925,-0.022592108583344046,0.010435148049846344,0.9789511408961317
2015-11-23,1,0.003910270997025039,0.004716655671001402,-0.022592108583344046,0.011862010363387025,0.9777816860940065
2015-11-25,1,0.004461857342465055,0.005317029588561322,-0.022592108583344046,0.011862010363387025,0.9770125124449515
2015-11-30,1,0.004018189490995168,0.004782890409303,-0.025087331026433426,0.0130864561337318,0.9764483104052714
2015-12-02,1,0.003229376850236891,0.0038997717718262177,-0.02407211416520294,0.0130864561337318,0.9774987652125108
2015-12-04,1,0.002333552682503113,0.0028733847193133403,-0.02407211416520294,0.0130864561337318,0.9787823641205421
2015-12-08,1,0.00020449882931076438,0.0004243239741101645,-0.025480640759723554,0.0130864561337318,0.9779878511091737
2015-12-10,1,0.0007343540286631753,0.001003746605864131,-0.028472338117547718,0.011391814442605131,0.9755226857681277
2015-12-14,1,0.000295712138422818,0.000423493086464319,-0.028618087011110363,0.005825124633543928,0.9754675010067537
2015-12-16,-1,-0.0010259146279196318,-0.0008737061495018995,-0.02937338328682614,0.005825124633543928,0.9730616622448129
2015-12-18,-1,-0.0025903229180670585,-0.0023333762589631264,-0.034104177500464405,0.005825124633543928,0.9711735821289676
2015-12-22,-1,-0.0033266624762805135,-0.0029012869945383183,-0.034104177500464405,0.011391814442605131,0.9693382516323351
2015-12-24,-1,-0.0015677274492974366,-0.0013335588652766467,-0.04376918369118029,0.011391814442605131,0.9662505839186312
2015-12-29,-1,-0.001973128228467631,-0.0017065651475612863,-0.04376918369118029,0.021524976697022292,0.9646230810871657
2015-12-31,-1,-0.0026967366218504825,-0.002346204605480194,-0.04376918369118029,0.02521614878968242,0.9640883110829845
2016-01-05,-1,-0.0015272775429386028,-0.0013588346304959842,-0.04545182451735286,0.029316490011792394,0.9597448063363827
2016-01-07,-1,-0.004737664010089484,-0.004139352539477325,-0.05061344552557778,0.029316490011792394,0.9567064567215019
2016-01-11,-1,-0.007185633327206885,-0.006295979067032061,-0.04738174962507565,0.036845377492191494,0.9564943238994035
2016-01-13,-1,-0.009994560674537337,-0.008694421472026514,-0.04738174962507565,0.036845377492191494,0.9569770678879549
2016-01-15,-1,-0.011791780578405388,-0.010122572681811671,-0.04701540712064821,0.032402707987114976,0.9597832237803036
2016-01-20,-1,-0.01573924844660094,-0.013636627313939907,-0.027747493335608053,0.03399520585959342,0.9610816545503658
2016-01-22,-1,-0.010943249250296699,-0.009541141893785576,-0.027747493335608053,0.03399520585959342,0.9634000071855038
2016-01-26,-1,-0.012510008304309494,-0.010971671627876,-0.027747493335608053,0.03277225052719684,0.9670584820084481
2016-01-28,-1,-0.009222418012767835,-0.008092496287261507,-0.027747493335608053,0.032012002339951384,0.9689854711197073
2016-02-01,-1,-0.00836231449178637,-0.007350072053284043,-0.027747493335608053,0.032012002339951384,0.9696157684513781
2016-02-03,-1,-0.008069245181625748,-0.007097532704890976,-0.02464378235993079,0.03282308891810264,0.9685282083693991
2016-02-05,-1,-0.014816698437508876,-0.013001091648170808,-0.009930472339385073,0.03795400511243706,0.9681665880032047
2016-02-09,-1,-0.012175841536523265,-0.010787191868503238,-0.009930472339385073,0.03282308891810264,0.9688834212661925
2016-02-11,-1,-0.01433781688298397,-0.012669621062075215,-0.004739771383881649,0.03587182671805318,0.965946726289418
2016-02-16,-1,-0.01255930508518546,-0.011121761647511028,-0.006769459650869287,0.03587182671805318,0.9690765544276666
2016-02-18,-1,-0.011492551111755752,-0.010157843812956093,-0.005498923097797629,0.040648905953188305,0.9673157783345464
2016-02-22,-1,-0.01118297490546213,-0.00981929231529288,-0.005498923097797629,0.03359108215631684,0.9703149916076633
2016-02-24,-1,-0.011439509946364447,-0.010142394629201737,-0.008931439095289552,0.03359108215631684,0.9703003681065282
2016-02-26,-1,-0.00796586035637206,-0.0072099950460188045,-0.009300210269678024,0.029964289894479232,0.9734338012508511
2016-03-01,-1,-0.00532489353156446,-0.005030110699855773,-0.009300210269678024,0.029964289894479232,0.9742160441216722
2016-03-03,0,-0.0003293949281298939,5.270044763117207e-05,-0.010712803853958855,0.011253194533009526,0.9803532569326633
2016-03-07,1,0.00209549396944423,0.002770858914147429,-0.012272538749318133,0.006359489648100671,0.9824183804929568
2016-03-09,1,0.0005562045738637168,0.0010460428313789874,-0.011140111344019207,0.006478548576026793,0.9839505419593507
2016-03-11,1,0.0020247541807320826,0.0027081489981205993,-0.011140111344019207,0.006478548576026793,0.9843067992900165
2016-03-15,1,0.0011585572100722926,0.001677003488156708,-0.010370204821816567,0.014413547140546696,0.982827692709351
2016-03-17,1,0.004355559685882748,0.005345199358605642,-0.011037982964170814,0.006478548576026793,0.9844153533656553
2016-03-21,1,0.003704420535577404,0.004558026565495022,-0.011037982964170814,0.016719984395697784,0.982325445914867
2016-03-23,1,0.0018382908069094254,0.0024724240605484863,-0.009442646099698141,0.016719984395697784,0.9846580643597364
2016-03-28,1,0.001936466892472549,0.002592283371877151,-0.011037982964170814,0.024554372402599712,0.982508943713086
2016-03-30,1,0.0036869611607992236,0.00471308049509293,-0.011037982964170814,0.029827960111058927,0.9813075751053023
2016-04-01,1,0.0035825014993723673,0.004589617579299035,-0.009558696865499714,0.029827960111058927,0.9813951997836261
2016-04-05,1,0.0027240467080120365,0.0035699340939260417,-0.011037982964170814,0.029827960111058927,0.9796313087623397
2016-04-07,1,0.0036502017598140876,0.004576600768817215,-0.013333152051875416,0.024554372402599712,0.979687920422131
2016-04-11,1,0.004050135833146356,0.004976710982444177,-0.018458176985844163,0.018451282186474398,0.978504597831097
2016-04-13,1,0.006903752407614754,0.008297401982204003,-0.018458176985844163,0.021493686487015735,0.978518842271879
2016-04-15,1,0.007074449196360399,0.008486046234446331,-0.018458176985844163,0.021493686487015735,0.9782243558100798
2016-04-19,1,0.009560622715837378,0.01129000441375845,-0.018458176985844163,0.00661161419777225,0.9783794417694688
2016-04-21,1,0.00944783235620675,0.011209899312799065,-0.017094339025926344,0.00661161419777225,0.9788229917598315
2016-04-25,1,0.009479431247523946,0.011236750424875482,-0.011869698585134975,0.0031564803513321887,0.9807736711980242
2016-04-27,1,0.010413735677720956,0.012242022792145629,-0.011869698585134975,0.0031564803513321887,0.9803515050510035
2016-04-29,1,0.009725071657228652,0.011408909459479182,-0.011869698585134975,0.002126960582429918,0.9804503725195572
2016-05-03,1,0.006767274794105416,0.00794306099212055,-0.010141233585500085,0.005346822014812567,0.984628202064829
2016-05-05,1,0.005772709289852265,0.00685905650637352,-0.009219424848887645,0.006440055268403349,0.9873328221491665
2016-05-09,1,0.004701799083636007,0.0056607462422117675,-0.005081382811206049,0.020330706684805057,0.9869860319284279
2016-05-11,1,0.006404855161692985,0.007588972844229948,-0.007340030697956082,0.006440055268403349,0.9864830423527066
2016-05-13,1,0.00464051681748699,0.005446897708879227,-0.009219424848887645,0.006440055268403349,0.9851521951465733
2016-05-17,1,0.00531607070365509,0.006225610272322189,-0.010583011918749026,0.006440055268403349,0.9852821689854417
2016-05-19,1,0.005955978838236165,0.007055304378677485,-0.01228176932116799,0.007953941144961849,0.9844223677949502
2016-05-23,1,0.005968807178534091,0.007042100964494918,-0.01228176932116799,0.010578227949812974,0.9843497050563836
2016-05-25,1,0.006590629613319649,0.007699660827394587,-0.01287807477529378,0.010578227949812974,0.9832210751827086
2016-05-27,1,0.006217571230700327,0.00729967510227692,-0.015135621860571916,0.010578227949812974,0.9787030335527901
2016-06-01,1,0.004663423899811061,0.005393650972725742,-0.015135621860571916,0.024376104348177528,0.9767119531813031
2016-06-03,1,0.0034875373791967293,0.003925551701071412,-0.015135621860571916,0.024376104348177528,0.9764588661634489
2016-06-07,1,0.0047681239923238776,0.005266318145635809,-0.018403362355957825,0.010578227949812974,0.9770585115816843
2016-06-09,1,0.004305292659289815,0.004751517696834021,-0.015135621860571916,0.013931118737795914,0.9772791154184184
2016-06-13,-1,-0.0004440974183323881,-6.646622591012594e-05,-0.01287807477529378,0.020008172223903536,0.9789603876408065
2016-06-15,1,0.0009134360176448576,0.0009899570793404085,-0.013957262570970784,0.020008172223903536,0.9788806137263522
2016-06-17,0,-0.00024711814991011704,8.441974531976312e-05,-0.01150103976280942,0.013931118737795914,0.9802765039218592
2016-06-21,1,0.0016276994589080533,0.0016389689279130099,-0.0182429669389173,0.00835503132970189,0.9796263328035274
2016-06-23,1,0.002358278602613357,0.002489129015596365,-0.01935644018022015,0.003858646890071266,0.9805754488096238
2016-06-27,-1,-0.001797363747321014,-0.0014209993350703075,-0.01017034493963789,0.007014129087746874,0.9853272560592868
2016-06-29,-1,-0.0025465966248039706,-0.0018090165086394917,-0.013980996415241767,0.003845018516964371,0.9883213153485787
2016-07-01,-1,-0.0027662087425115917,-0.0020291935726805105,-0.017921300727923438,0.004755296158383325,0.986441561144452
2016-07-06,-1,-0.005542756027303641,-0.004387295492288288,-0.013980996415241767,0.006823406190798184,0.9875684827666515
2016-07-08,-1,-0.004872692080177636,-0.0038381721955865404,-0.013980996415241767,0.006673457940116439,0.98808662775015
2016-07-12,-1,-0.003255403993406036,-0.002453463406881641,-0.013980996415241767,0.006673457940116439,0.9885933353880133
2016-07-14,-1,-0.003764822362345669,-0.0029304033962977596,-0.013447890432892313,0.012618776655318213,0.9881096344932779
2016-07-18,-1,-0.00521244275958492,-0.004131214085974882,-0.013447890432892313,0.013218459184991455,0.9870144438134786
2016-07-20,-1,-0.0053432766253615725,-0.004298104605166575,-0.008964158663139208,0.01372838498104107,0.9863765185316086
2016-07-22,-1,-0.006488128287882623,-0.0053184667675735455,-0.006570494684231144,0.01372838498104107,0.9862250148887799
2016-07-26,-1,-0.003910268939515772,-0.003248467489463812,-0.006570494684231144,0.01385742209166952,0.9866391397075814
2016-07-28,-1,-0.002840524024225668,-0.0024235958151389105,-0.0060603599580850535,0.01385742209166952,0.9876627744462568
2016-08-01,-1,-0.004562545120958746,-0.0038523583399494216,-0.0060603599580850535,0.013261471555200938,0.9890011283952734
2016-08-03,-1,-0.0033644436704570683,-0.0028496446601152053,-0.006570494684231144,0.012811626803155701,0.9890850994567041
2016-08-05,-1,-0.003509528752240103,-0.002947936888862829,-0.008515342737203875,0.010230828117053361,0.98904003919848
2016-08-09,-1,-0.0013176007642373235,-0.0011422351640017541,-0.007386133758049915,0.009697649094425791,0.9896267420754883
2016-08-11,-1,-0.0013501287344388382,-0.001155883716744241,-0.007386133758049915,0.009697649094425791,0.9880590602284619
2016-08-15,-1,-0.0019408847428923352,-0.0015788264352988549,-0.011026741462291375,0.009256018883323605,0.9868180918526984
2016-08-17,-1,-0.0013348106602820379,-0.0010350450361941046,-0.012397126042503008,0.008168265506402548,0.9868115045311502
2016-08-19,-1,-0.0011748522042340295,-0.0009049122922234174,-0.01508056008394534,0.003436750830471827,0.9867053902077983
2016-08-23,-1,-0.0014936035290840626,-0.0011705898474326263,-0.01211466398699904,0.003436750830471827,0.986592620612366
2016-08-25,-1,-0.0022718155297288293,-0.0018278059317757926,-0.0170481969521754,0.008396520899892805,0.9846520115978411
2016-08-29,-1,-0.00205922286286928,-0.0016874447659191336,-0.0170481969521754,0.008396520899892805,0.9843879234462221
2016-08-31,-1,-0.002770587860192953,-0.0023448310457234497,-0.014756498754472583,0.014771486992080132,0.9804138328101796
2016-09-02,-1,-0.0017057902086002755,-0.0014972856412793461,-0.014756498754472583,0.014771486992080132,0.9811381976643172
2016-09-07,-1,-0.0011349106760287666,-0.0009991563814152186,-0.014756498754472583,0.024037875385367863,0.9801269304021057
2016-09-09,1,0.0007525063313104754,0.000978065379947619,-0.013356416245405508,0.016410056965471004,0.9822407228622896
2016-09-13,-1,-0.00024121892050796878,-0.0001744147402501848,-0.013356416245405508,0.016410056965471004,0.9832844015009577
2016-09-15,-1,-0.0007740512538725329,-0.0007688617630610073,-0.013356416245405508,0.016410056965471004,0.9829345513027165
2016-09-19,-1,-0.000550382952899842,-0.0004468001984008102,-0.013090482904198356,0.016410056965471004,0.9826548236313067
2016-09-21,1,4.5739736683110554e-05,0.00022282674240448107,-0.013090482904198356,0.016410056965471004,0.9824626636745285
2016-09-23,-1,-0.0007709451957911934,-0.0007500389424024541,-0.011764570743941981,0.006356296051839055,0.9845780112980356
2016-09-27,-1,-0.001845427669282999,-0.0016406051056174426,-0.011058618344511889,0.01463186083636602,0.9841890539742997
2016-09-29,1,0.0006671253071445208,0.0007066055800649348,-0.011058618344511889,0.006356296051839055,0.9864032619817071
2016-10-03,1,0.0012106249629659782,0.0014011524567585517,-0.011764570743941981,0.01463186083636602,0.9840196914472658
2016-10-05,1,0.0012937932336892879,0.0014693440855974133,-0.011058618344511889,0.006356296051839055,0.985353309422782
2016-10-07,1,0.0017321633371140076,0.001994778760985163,-0.011960709430871767,0.005022991217955273,0.9849533498049977
2016-10-11,1,0.000978672155704989,0.0011238399188585112,-0.011058618344511889,0.011214240379956468,0.9847195141209175
2016-10-13,1,0.00031843849956340864,0.00038545821244267736,-0.011058618344511889,0.018149804867645253,0.9837710589784674
2016-10-17,1,9.552623610424506e-05,0.00018548758050576989,-0.010372156113026757,0.018149804867645253,0.9838919237675509
2016-10-19,1,0.00038951231710651065,0.0004990843374879433,-0.012324542845307743,0.018149804867645253,0.9835119896302014
2016-10-21,1,0.00020714698222173625,0.00028328255409640834,-0.01770222026759893,0.02304894110327025,0.9816896596113223
2016-10-25,1,0.00046556640322873306,0.000582159539472798,-0.01770222026759893,0.02613699959731293,0.9810159276737599
2016-10-27,1,0.0030488582801519357,0.0036333280836359214,-0.01770222026759893,0.02304894110327025,0.9831393003379804
2016-10-31,1,0.0024427628747262517,0.0029131880443553464,-0.01770222026759893,0.013516258334873375,0.9839065417427133
2016-11-02,1,0.0014502483232667787,0.001691826212125051,-0.01770222026759893,0.02613699959731293,0.9793233131685255
2016-11-04,1,0.001103647377730472,0.001293212836359428,-0.01324681695164019,0.02613699959731293,0.9797747481661865
2016-11-08,1,0.002215288870339834,0.002567705698922497,-0.01324681695164019,0.02216540889995844,0.9803746135396335
2016-11-10,1,0.002706629781637918,0.0031476300569380023,-0.007661317532653016,0.0201325142583438,0.9818143346800766
2016-11-14,1,0.0027543999343372936,0.0032410435863535958,-0.006201104208834369,0.021781361409577607,0.9814734784846398
2016-11-16,1,0.0012396314302469335,0.0013250329500319497,-0.006201104208834369,0.0201325142583438,0.9821969712175017
2016-11-18,1,0.002736966056374216,0.0031605764033447825,-0.005644111038209847,0.01681730489882828,0.9843328945547566
2016-11-22,1,0.0034396050383609413,0.003936013492712822,-0.005644111038209847,0.012959709401777859,0.9855799969877331
2016-11-25,1,0.0025093251047788936,0.002808425016047661,-0.0038399557922515182,0.012959709401777859,0.9860332518139434
2016-11-29,1,0.0015419498828613412,0.001728057757546083,-0.002628260298459278,0.012959709401777859,0.986962465447812
2016-12-01,1,0.004906087496360314,0.005600080225861568,-0.0036063919069525448,0.006645229010484474,0.9904525722021285
2016-12-05,1,0.004908563277476085,0.005563282596173939,-0.0036063919069525448,0.009308489167980159,0.9909512147174958
2016-12-07,1,0.005283219156372183,0.005966924884283487,-0.003930494074844673,0.005963165224695164,0.9909239898915241
2016-12-09,1,0.005349544437446923,0.006004006105280767,-0.005376307299370447,0.004571812320031208,0.9903424458985747
2016-12-13,1,0.005778636505979247,0.006421134177139661,-0.008004019501140897,0.004018394752291477,0.9886777933962716
2016-12-15,1,0.005024667865364836,0.005558106868935393,-0.008004019501140897,0.004018394752291477,0.9897329584964752
2016-12-19,1,0.004693769834415013,0.0051471758914116705,-0.008185070641122776,0.002913928267084065,0.989415340953658
2016-12-21,1,0.0038313604187818107,0.004130821520824758,-0.00829130200112213,0.005551397259969414,0.989143489250862
2016-12-23,1,0.0037810443623271977,0.0040978489316918516,-0.00829130200112213,0.00845954817406621,0.9893301343571985
2016-12-28,1,0.003271745121287085,0.003525523196376555,-0.00829130200112213,0.00845954817406621,0.9888543397363981
2016-12-30,1,0.002931843610504377,0.0031628243557675177,-0.010416172300505908,0.008901920044509782,0.986617339004033
2017-01-04,1,0.0033601623694336936,0.0036463536077362456,-0.010416172300505908,0.007044686553647433,0.9866654220998162
2017-01-06,1,0.003282199096870926,0.003585246134994636,-0.010416172300505908,0.00845954817406621,0.9852944125811928
2017-01-10,1,0.0028452083616020796,0.003130446660986363,-0.009866998612357184,0.00845954817406621,0.9858741370858022
2017-01-12,1,0.00306440150781468,0.0033771516580018385,-0.00829130200112213,0.007057563527501819,0.988199655177932
2017-01-17,1,0.002858505713630764,0.0031327091648897364,-0.008310816417834245,0.007057563527501819,0.9881721540772829
2017-01-19,1,0.00231651372454605,0.0024928485324150216,-0.013921076625604734,0.007057563527501819,0.9866371667013935
2017-01-23,1,0.0020154181937575427,0.0021250454917164513,-0.013921076625604734,0.007057563527501819,0.9867393549235808
2017-01-25,1,0.001731021082949456,0.001739947440909911,-0.01595983418834161,0.004841009542861489,0.9859991623435551
2017-01-27,1,0.0005402985486534398,0.0006849233713771272,-0.013921076625604734,0.006669530362634598,0.9868498754915154
2017-01-31,1,0.00017711920901479527,0.00034682121361699717,-0.009925541862493528,0.006669530362634598,0.9883925772069379
2017-02-02,1,0.0003609320232256035,0.00048136178341033766,-0.013921076625604734,0.006669530362634598,0.9875633794731444
2017-02-06,1,0.0005701143035032772,0.0007231255398768117,-0.013921076625604734,0.006669530362634598,0.9885370963588408
2017-02-08,-1,-0.0005449720164886806,-0.00020985649946802121,-0.015948659764542558,0.007315308587531841,0.9870047690474897
2017-02-10,-1,-0.0008461346095300414,-0.0004316888638453886,-0.017136560064033975,0.007315308587531841,0.9866044972669028
2017-02-14,-1,-0.0006985644761274181,-0.00033308464585747816,-0.017234282495486898,0.0077160049186298044,0.985496652372868
2017-02-16,-1,-0.0023441724151549628,-0.0017677331425721352,-0.017136560064033975,0.0077160049186298044,0.9871590493499082
2017-02-21,-1,-0.00303156723330505,-0.002342872311399072,-0.01540215369514887,0.00502625529204465,0.9877857057562874
2017-02-23,-1,-0.0015044692731910406,-0.0011781138524940985,-0.013019826043834315,0.00502625529204465,0.9882221722759467
2017-02-27,-1,-0.0016903791945566357,-0.0013291388664631858,-0.013019826043834315,0.004339859707637183,0.988229415895333
2017-03-01,-1,-0.00031389104858014247,-0.00012675189812226127,-0.013019826043834315,0.005845303216615092,0.9879356367400147
2017-03-03,-1,-0.001064680995650904,-0.0008148247562700642,-0.0119024172075404,0.0109458044830597,0.9847599118053006
2017-03-07,-1,-0.0016077577966324636,-0.0012613525043772887,-0.009340098992306737,0.007350592553848083,0.985235574452951
2017-03-09,-1,-0.0030880508589853283,-0.0025210177565785853,-0.009340098992306737,0.007386843363265807,0.9864736823310238
2017-03-13,-1,-0.004138427512979388,-0.0034061658159694665,-0.00845219268911683,0.012375118807383288,0.9865542310347944
2017-03-15,-1,-0.003964113829947402,-0.0032718079387543666,-0.00845219268911683,0.007325018844909666,0.9878226636999965
2017-03-17,-1,-0.004294622105411164,-0.003552290707234375,-0.009340098992306737,0.008168849667038442,0.9868601527118058
2017-03-21,-1,-0.004621740202937229,-0.0038492879796250437,-0.009340098992306737,0.008168849667038442,0.9871931794544394
2017-03-23,-1,-0.004028919660715882,-0.0034113262016865686,-0.00845219268911683,0.008168849667038442,0.987388249449058
2017-03-27,-1,-0.004455881825084992,-0.0037680815070093164,-0.0061709205846008875,0.012375118807383288,0.9865324948693083
2017-03-29,-1,-0.003435406271603208,-0.002856614696166033,-0.009399826548088647,0.0059435373042467645,0.9881706689270647
2017-03-31,-1,-0.0010574375879832559,-0.0007336939309593581,-0.009399826548088647,0.004086252611335153,0.9918066123970649
2017-04-04,-1,-0.0006178636723776021,-0.00039308509108621197,-0.010564067075507597,0.004367529552044745,0.9911656022064544
2017-04-06,-1,-0.0004444238132667984,-0.00025917029617179583,-0.010986637728838611,0.004367529552044745,0.9903095546141238
2017-04-10,-1,-0.0006356790636091704,-0.0004019810510466792,-0.014161003581131117,0.004367529552044745,0.9899638224916496
2017-04-12,-1,-0.0010852914327736433,-0.0008067357069939843,-0.010990056513017205,0.007014839793883851,0.9891495186996672
2017-04-17,-1,-0.001288365866976779,-0.001002217048253017,-0.009599615956520003,0.007807208024004364,0.9893762753011132
2017-04-19,-1,-0.001428582698539197,-0.001165742985075963,-0.009599615956520003,0.007807208024004364,0.9892652964177064
2017-04-21,-1,-0.0018079954047331818,-0.0014869462950556512,-0.009599615956520003,0.008604383672317575,0.9882062406075972
2017-04-25,-1,-0.0019362271399989942,-0.0015381621726446907,-0.010343193732439537,0.007807208024004364,0.9889056683977597
2017-04-27,-1,-0.0007659787848137502,-0.0006483840827043489,-0.012507086421723275,0.007807208024004364,0.9877121765548398
2017-05-01,-1,-0.0007756208006083956,-0.0006762212924905218,-0.01308049074103124,0.007807208024004364,0.9872686528527866
2017-05-03,-1,-0.0006097152534844924,-0.0005609511873244816,-0.011774943584458884,0.006918751692572975,0.9881200190420031
2017-05-05,-1,-0.0004106055819797206,-0.0004104770274681695,-0.011774943584458884,0.004517833287671431,0.9892922068646319
2017-05-09,-1,-0.00011423165210414332,-1.241109137416137e-05,-0.011774943584458884,0.004517833287671431,0.9889841234183646
2017-05-11,1,0.00036493829759363304,0.0005044366811623439,-0.011774943584458884,0.004517833287671431,0.9879046317488129
2017-05-15,1,0.0005341248095539994,0.0007110485058374236,-0.011774943584458884,0.0076068816536771005,0.9871288470191523
2017-05-17,-1,-0.00013828377860314523,-6.380344360662338e-05,-0.011774943584458884,0.0076068816536771005,0.9872343135911404
2017-05-19,1,0.000532945312107784,0.000695400373375692,-0.011774943584458884,0.0076068816536771005,0.9867957086827625
2017-05-23,1,7.51532905235005e-06,8.288410820318155e-05,-0.012605009705438323,0.0076068816536771005,0.9861704898015876
2017-05-25,-1,-0.001210150293370185,-0.0011190123146308175,-0.011823080964584513,0.0076068816536771005,0.9879839305724232
2017-05-30,-1,-0.0009478376524794589,-0.0009181603067806317,-0.012079742766255987,0.005465464283387492,0.9880082512591205
2017-06-01,-1,-0.0009073303316829624,-0.0008758118377734258,-0.012079742766255987,0.004659806303767284,0.9880870377789667
2017-06-05,-1,-0.0017922355311882196,-0.0016292332485013832,-0.011348665747915314,0.011719653079897209,0.9869659258531309
2017-06-07,-1,-0.0017481711311849062,-0.0016079292768391604,-0.012081980294195018,0.005929684742839207,0.9860965893375621
2017-06-09,-1,-0.000728381377365774,-0.0007112501114509742,-0.012081980294195018,0.0034427212392981535,0.9878471596842053
2017-06-13,1,0.0002335071604844758,0.000334613213176282,-0.012081980294195018,0.0009707210074991271,0.9891054406639598
2017-06-15,-1,-0.00028431835870743706,-0.0002444159280149905,-0.008280296832418958,0.0025903541575908718,0.9901012163485803
2017-06-19,1,0.0005883540451058509,0.0007709378869796571,-0.008280296832418958,0.0009707210074991271,0.9908177188782026
2017-06-21,-1,-0.000560996939595194,-0.0005532237342604707,-0.006277386886686253,0.0025903541575908718,0.9914433655630516
2017-06-23,-1,-0.0008100126736500521,-0.0007561975320016679,-0.00783050856294882,0.0025903541575908718,0.99103498901674
2017-06-27,-1,-0.0013489653322386426,-0.0012323435606512757,-0.006277386886686253,0.0032034364177774546,0.9905707931713497
2017-06-29,-1,-0.0006279533868322253,-0.000615653491298975,-0.006277386886686253,0.007544777512307199,0.988940677090949
2017-07-03,1,0.00026141198878817717,0.0003785329488407011,-0.00783050856294882,0.004863579918386667,0.9902240962750358
2017-07-06,-1,-0.000910051356066643,-0.0008976378428180007,-0.006277386886686253,0.007544777512307199,0.9909508633045824
2017-07-10,-1,-0.0008371662144975732,-0.0008361603042426422,-0.006628006578411791,0.0135007636194962,0.9904464304115387
2017-07-12,-1,-0.0013727877007397198,-0.001260756523553019,-0.006628006578411791,0.0135007636194962,0.9900135285946303
2017-07-14,-1,-0.0012406554028947631,-0.0011414962233333083,-0.008882367638125433,0.0135007636194962,0.9895939954927112
2017-07-18,-1,-0.00178865082757308,-0.0016026778290304496,-0.008882367638125433,0.0135007636194962,0.9896196673831174
2017-07-20,-1,-0.0015940814954301021,-0.0014353280344083738,-0.013478770933620602,0.010996562879905962,0.9892809516786047
2017-07-24,-1,-0.001289339717053654,-0.0012250091037274615,-0.013786511637349825,0.010996562879905962,0.9890511008801921
2017-07-26,-1,-0.0008399198348199363,-0.0007913610977821016,-0.013786511637349825,0.012041267409830275,0.9889679492308918
2017-07-28,1,0.00024847746886536677,0.00033540889773349245,-0.013786511637349825,0.007395883260898474,0.9899381820422857
2017-08-01,-1,-0.000481419088543695,-0.0004339607504598756,-0.012658666547652594,0.007395883260898474,0.9900007447599
2017-08-03,-1,-0.0006128624222116918,-0.0005296443941027776,-0.00973528584090952,0.007395883260898474,0.9907578090542434
2017-08-07,-1,-0.00044349445778151404,-0.0003799782524539905,-0.00973528584090952,0.007395883260898474,0.9910041266589894
2017-08-09,-1,-0.00016991630379029489,-0.00013318625727737088,-0.00973528584090952,0.007744118104206579,0.9907163120279631
2017-08-11,-1,-0.000972487493269634,-0.0008255412019968254,-0.00973528584090952,0.010652212035476321,0.9904055375305754
2017-08-15,-1,-0.0014780047589709679,-0.0012482900429620198,-0.00973528584090952,0.011949785015146243,0.9897582873861644
2017-08-17,-1,-0.0026088703144391454,-0.002241338220615029,-0.0011614446369564923,0.013122786215477468,0.9896535129733108
2017-08-21,-1,-0.0021244025688298383,-0.0018705131711796296,0.0008322109776418619,0.013122786215477468,0.9893382138993911
2017-08-23,1,0.00019649290965133683,0.0003986908111739602,0.0008322109776418619,0.013122786215477468,0.9908473967465982
2017-08-25,1,0.00019104114296721812,0.0003922470076602667,0.002820312319205878,0.01346884351891163,0.9903238360031782
2017-08-29,-1,-0.00022003617669325763,-6.581458409624948e-05,0.005166917506776161,0.01346884351891163,0.9899794272069334
2017-08-31,1,0.0006928949468735358,0.0009894613560861895,0.0010822071629445961,0.01346884351891163,0.991316150361867
2017-09-05,1,0.001131161601272451,0.0014609906481582648,0.0007499885559082031,0.01285831605945976,0.9909858294512
2017-09-07,1,0.0015816437521504855,0.0019524571015580839,0.0007499885559082031,0.011422477215344305,0.9915122349685012
2017-09-11,1,0.0011442869127651978,0.001416991868855118,0.0007499885559082031,0.011422477215344305,0.9916081953820298
2017-09-13,1,0.0015718689065536804,0.0018918794636583742,0.0010174834412784428,0.010094667705263419,0.9919015861044232
2017-09-15,1,0.0027318828731241196,0.003253373103248457,-0.00034519869695684565,0.008693395650527413,0.9924963034847374
2017-09-19,1,0.0031732173166211836,0.003714373571114202,-0.0010951872528650488,0.007934331295819115,0.9930407409977315
2017-09-21,1,0.0038268869222765497,0.004437038826846211,-0.0012460642035624662,0.0068355782167644,0.9934955000554823
2017-09-25,1,0.0044398961459484534,0.00510981039950654,-0.0012460642035624662,0.005913013389426773,0.9936842836515908
2017-09-27,1,0.004397945850094909,0.005046153113176621,-0.0012460642035624662,0.005913013389426773,0.9928289332770606
2017-09-29,1,0.00395962040217486,0.004524495393335911,-0.0013654125339065222,0.0068355782167644,0.9918128078161708
2017-10-03,1,0.003913104414233398,0.004522380837747818,-0.001318408895725395,0.0068355782167644,0.9926544600044166
2017-10-05,1,0.004215759661348418,0.0048645262089386555,-0.001318408895725395,0.0075540212001256775,0.9920875447336811
2017-10-09,1,0.0031799898382447143,0.003643431610149732,-5.029231689913916e-05,0.00957550562765749,0.9924696915371831
2017-10-11,1,0.004017622714567497,0.004637181396604336,-0.001035908780356217,0.00957550562765749,0.99234099547492
2017-10-13,1,0.0035052349296126996,0.00402230017622352,-0.001035908780356217,0.00957550562765749,0.9921103848207117
2017-10-17,1,0.0030123677323736385,0.003385215318440186,-0.004717131418293037,0.00957550562765749,0.9904808536463054
2017-10-19,1,0.002822871626072623,0.0031539857010327603,-0.005992217093976085,0.00957550562765749,0.9895413417861443
2017-10-23,1,0.0031162379789995602,0.0034841391652340554,-0.005992217093976085,0.007756848261444077,0.9895513902466456
2017-10-25,1,0.0024210008809894433,0.002651465369830181,-0.004980507367511542,0.004972835395964826,0.9911400058320623
