JNU-Tangyin/eata/results/Batch4_SP500/Batch4_SP500-AEP.csv
Date,Action,Predicted_Q25,Predicted_Q75,Actual_Q25,Actual_Q75,RL_Reward
2010-12-14,0,0.0,0.0,-0.002424756160071098,0.004540192763692871,0.995381341473754
2010-12-16,0,0.0,0.0,-0.004017701415732924,0.004470519400437443,0.9955818747820823
2010-12-20,0,0.0,0.0,-0.004878931928841517,0.004540192763692871,0.9942890226929452
2010-12-22,0,0.0,0.0,-0.0044472492654409,0.004804865912656358,0.993974321120821
2010-12-27,0,0.0,0.0,-0.0044472492654409,0.005547269634569597,0.993543238940091
2010-12-29,0,0.0,0.0,-0.0062923599311601715,0.007255321068170237,0.9931569344610941
2010-12-31,0,0.0,0.0,-0.006704890403413977,0.007255321068170237,0.9919864338642725
2011-01-04,0,0.0,0.0,-0.006909638993908578,0.005645997096668423,0.9919803793988471
2011-01-06,-1,-0.000229288169723963,-0.00017940754989381454,-0.006704890403413977,0.005247520989985339,0.9925792918915255
2011-01-10,-1,-0.0003059741341182127,-0.00024414180052974397,-0.006330537043829791,0.007597998380977728,0.9922245215356149
2011-01-12,-1,-0.0003899369201443474,-0.00030756867711000926,-0.006330537043829791,0.007597998380977728,0.9922662319286872
2011-01-14,-1,-0.0012650230829217369,-0.0010951701484099997,-0.006074980556152689,0.007597998380977728,0.9922833874876552
2011-01-19,-1,-0.0006608091637390432,-0.000549142502589701,-0.005644329073837695,0.007597998380977728,0.9930711973277518
2011-01-21,1,0.00015398932424913104,0.00017394727899533766,-0.005644329073837695,0.007157194139186152,0.9933936765202795
2011-01-25,1,0.0009636569385671769,0.0011111799239134227,-0.005984836847096902,0.004487005148826962,0.9931936634567957
2011-01-27,1,0.0009974855024140715,0.001150617469924882,-0.005984836847096902,0.003942348499330168,0.9932859132886653
2011-01-31,-1,-0.00011744064398829357,-0.00011361743354291094,-0.005984836847096902,0.005386529790769014,0.9935588875286319
2011-02-02,1,0.00026811429675755523,0.0003623728992629047,-0.005644329073837695,0.0073192056953449575,0.9933634273587935
2011-02-04,1,4.316625162407907e-05,6.422377485775981e-05,-0.005984836847096902,0.007997761646320566,0.9925520588334706
2011-02-08,1,0.00011485210690846757,0.00011900809848674637,-0.004760637024581846,0.008343371679569733,0.9924666322952196
2011-02-10,1,0.0002688274165380418,0.00031795711907004745,-0.006751995902560105,0.008343371679569733,0.9919928047145059
2011-02-14,1,0.0001713483749617548,0.00021343454103827592,-0.00869473371193413,0.008343371679569733,0.9915421474454961
2011-02-16,1,0.0007479350842174412,0.0008686009117622802,-0.013197470160245289,0.007997761646320566,0.9901399536500922
2011-02-18,1,0.0008667144208617148,0.0010112531327888536,-0.013197470160245289,0.007997761646320566,0.9897961128307103
2011-02-23,1,0.00028914462812447466,0.0003235473417227253,-0.013197470160245289,0.008384948056911125,0.9896891351739875
2011-02-25,0,0.0,0.0,-0.013197470160245289,0.008916752915608039,0.9896422168159104
2011-03-01,1,9.94347747463358e-05,0.00011243106001198688,-0.012194669386046096,0.008916752915608039,0.9904139678123138
2011-03-03,1,0.0007760640316450088,0.0008736711404557433,-0.012194669386046096,0.008916752915608039,0.9903740654062044
2011-03-07,1,9.470856707738986e-05,0.00010984864019771192,-0.010576798238521328,0.009227451814891088,0.9908821773599893
2011-03-09,1,0.000847456842752373,0.0009237757386659587,-0.010576798238521328,0.007982940522168094,0.9912674598437498
2011-03-11,1,0.0005664615383358834,0.0006421108575931101,-0.0059183529052774355,0.007982940522168094,0.9916746297846394
2011-03-15,0,0.0,0.0,-0.0047488549456428065,0.007982940522168094,0.9919184219601261
2011-03-17,-1,-0.0023780847005302284,-0.0021586916709913744,-0.003212441182767659,0.009124228335348044,0.9926593797547373
2011-03-21,-1,-0.0018777013291214051,-0.0017227994851650831,-0.004230379169207121,0.009124228335348044,0.992992039390103
2011-03-23,-1,-0.0011356480510082726,-0.001090261428427784,-0.004301228440492945,0.009124228335348044,0.9929362923238991
2011-03-25,-1,-0.0009331181875612111,-0.0009217174300459503,-0.004301228440492945,0.008569335830582394,0.9933089740445662
2011-03-29,-1,-0.00043225986648940003,-0.0003633943899611495,-0.004301228440492945,0.008569335830582394,0.9930103301471611
2011-03-31,-1,-0.0002827066979873335,-0.0001846410723298122,-0.004230379169207121,0.008172709071626767,0.9937246415170736
2011-04-04,-1,-0.00037580787853776904,-0.0003165411580800739,-0.004230379169207121,0.008172709071626767,0.9936544798823784
2011-04-06,-1,-0.0003077040551645028,-0.0002589836618406154,-0.004300252951007855,0.008172709071626767,0.993807010507067
2011-04-08,-1,-0.00043488025522270095,-0.0004113846209348423,-0.004446969123729308,0.008172709071626767,0.9934377232308599
2011-04-12,-1,-0.0017429688385307855,-0.0015924961147861431,-7.786060192495315e-05,0.008569335830582394,0.9932218827026518
2011-04-14,0,0.0,0.0,-0.0011764724039083577,0.008622941583653551,0.9937760339038814
2011-04-18,0,0.0,0.0,-7.786060192495315e-05,0.009851650075313762,0.9927299377354204
2011-04-20,0,0.0,0.0,-0.0011764724039083577,0.00854996027638769,0.993072084895319
2011-04-25,-1,-0.00031309081897637936,-0.00030300427640618305,-0.0017043601908988523,0.00854996027638769,0.9928551018201346
2011-04-27,1,0.0007894071976469945,0.0009520483027337359,-0.003161102866964194,0.005640821771827691,0.9931080208475593
2011-04-29,0,0.0,0.0,-0.004150988692008672,0.005632195638497829,0.9929286696850553
2011-05-03,0,0.0,0.0,-0.004292465841238531,0.00382621605268075,0.9931762831053363
2011-05-05,1,0.0004851592064553354,0.0004867918020436754,-0.004292465841238531,0.00382621605268075,0.9928384714385575
2011-05-09,1,0.0012758344289289852,0.001469904966551386,-0.004150988692008672,0.0023310393557016227,0.9932092391179203
2011-05-11,0,0.0,0.0,-0.004292465841238531,0.0019985801075386805,0.9936307905483602
2011-05-13,0,0.0,0.0,-0.004861711018648196,0.001830904849351301,0.9942666626810189
2011-05-17,0,0.0,0.0,-0.00566088711382845,0.0006568703090932822,0.9951628940226526
2011-05-19,1,0.0016505006854986746,0.0019246306307829286,-0.004861711018648196,0.0019985801075386805,0.9943022209069823
2011-05-23,1,0.0016251032959759535,0.0019105184140817567,-0.004861711018648196,0.003075929022321806,0.9942260739986316
2011-05-25,1,0.0015653741162107234,0.0018426146189298612,-0.005845731139329814,0.0019985801075386805,0.9943028962929694
2011-05-27,1,0.0017905054338214206,0.002109292679762252,-0.005884173231529288,0.003075929022321806,0.9941464949625963
2011-06-01,1,0.0013749223619781183,0.0016190493977402479,-0.005884173231529288,0.004084503889967197,0.9946021233670951
2011-06-03,1,0.000754206045193867,0.0008952019025150173,-0.005323508766521815,0.005185553195436028,0.9946417487757714
2011-06-07,1,0.0008650368678030701,0.0010304574652264535,-0.005323508766521815,0.005836450338403065,0.9943317054931994
2011-06-09,0,0.0,0.0,-0.0046504951450213865,0.005836450338403065,0.9942632495760967
2011-06-13,0,0.0,0.0,-0.0046504951450213865,0.00654017693394802,0.9938583090154653
2011-06-15,1,0.0008281533837066484,0.0009493705535985505,-0.005074737468389431,0.00654017693394802,0.9939752998751259
2011-06-17,1,0.0014931948093954493,0.0017127978468025142,-0.005884173231529288,0.00415293828003528,0.9940445126256512
2011-06-21,1,0.0016660387840499171,0.0019086469992269483,-0.005884173231529288,0.005447254924007277,0.9939432095754591
2011-06-23,1,0.0006949862336016679,0.0007558972060889529,-0.005074737468389431,0.0057946275725895965,0.9938313044241672
2011-06-27,1,0.0006825286368021268,0.0007398891469039329,-0.0045547573482441,0.0057946275725895965,0.994269044219458
2011-06-29,1,0.0008321508451816805,0.0009034405316262531,-0.005772659600885435,0.0057946275725895965,0.9937434893654213
2011-07-01,1,0.0013993299525411125,0.00155475601302441,-0.008093292213142738,0.0057946275725895965,0.992527747194236
2011-07-06,1,0.0013385275428558704,0.0014753980691984423,-0.008583205371329969,0.002000822966454611,0.9918912407042251
2011-07-08,1,0.001081630109079551,0.001179151520256574,-0.01003759560251331,0.0056694771825039295,0.9905898093016279
2011-07-12,1,0.0008898280452671109,0.000975399412739421,-0.01003759560251331,0.0056694771825039295,0.986719718277821
2011-07-14,1,0.00043832034478520507,0.0004633466971055235,-0.010919440878950328,0.006257693465428356,0.9844260343094596
2011-07-18,0,0.0,0.0,-0.009630742931076337,0.008451393791660499,0.9827407651878
2011-07-20,0,0.0,0.0,-0.009630742931076337,0.01267995296376536,0.9821592430867697
2011-07-22,0,0.0,0.0,-0.014313414884027154,0.00867367118149379,0.9821056508708195
2011-07-26,1,0.0003800582996661939,0.000406690413748909,-0.014313414884027154,0.014426443296528205,0.9814170623416049
2011-07-28,1,3.378042052705257e-05,6.062653764150109e-05,-0.01535714695916358,0.01736865544196688,0.980572181485171
2011-08-01,0,0.0,0.0,-0.01535714695916358,0.01736865544196688,0.9813266141008105
2011-08-03,0,0.0,0.0,-0.009768535924901633,0.01736865544196688,0.9817782991727887
2011-08-05,-1,-0.0011792123285470683,-0.0009977351823465697,-0.008542704997012958,0.01736865544196688,0.9826954624841762
2011-08-09,-1,-0.0047735475299701905,-0.004000967957215552,-0.0070484853125106686,0.014426443296528205,0.9863287167153846
2011-08-11,-1,-0.0034000010785944865,-0.002817823100844749,-0.008542704997012958,0.007296313525232292,0.9883113010354548
2011-08-15,-1,-0.0007786761618618254,-0.0005294629283419432,-0.008542704997012958,0.006095494602390958,0.9905324928004211
2011-08-17,-1,-0.0002835219309076086,-0.00010241821722520555,-0.007588975363501552,0.006095494602390958,0.9910553083740501
2011-08-19,0,0.0,0.0,-0.00407369594084045,0.006095494602390958,0.9918160683238006
2011-08-23,1,0.0027670567153926066,0.0030083657920569737,-0.007588975363501552,0.006095494602390958,0.9905579215488254
2011-08-25,0,0.0,0.0,-0.007517884342006939,0.006095494602390958,0.9910799305476993
2011-08-29,1,0.0003438900999707223,0.00036840324280880627,-0.007517884342006939,0.006057763081741801,0.9915330287745763
2011-08-31,1,0.00042406974253687,0.0004520769856786811,-0.007517884342006939,0.00858244949942396,0.990724358922452
2011-09-02,0,0.0,0.0,-0.010334219804766117,0.00858244949942396,0.9897902284902197
2011-09-07,0,0.0,0.0,-0.012070538479506577,0.00874364259938435,0.9889718405606137
2011-09-09,0,0.0,0.0,-0.006427751345565601,0.009160327592199057,0.9899091297290831
2011-09-13,0,0.0,0.0,-0.00791323777192851,0.010075184342064104,0.9889032766109926
2011-09-15,0,0.0,0.0,-0.00791323777192851,0.010075184342064104,0.9893301179275837
2011-09-19,-1,-0.000423498954562397,-0.00029430961501068905,-0.009259886977768009,0.010075184342064104,0.9886402615337101
2011-09-21,-1,-0.00038901253791760005,-0.0002730278761274465,-0.007706596409848796,0.009346565681833523,0.9903188915504759
2011-09-23,-1,-8.14712922210462e-05,-8.122682224689476e-06,-0.005772226914872719,0.009443354295370729,0.9904548857733811
2011-09-27,0,0.0,0.0,-0.007706596409848796,0.009443354295370729,0.9904125514558187
2011-09-29,0,0.0,0.0,-0.007706596409848796,0.009443354295370729,0.9903198224814092
2011-10-03,0,0.0,0.0,-0.004478039373196789,0.009443354295370729,0.9914723314406382
2011-10-05,0,0.0,0.0,-0.004478039373196789,0.010036252220336465,0.9911043767706255
2011-10-07,0,0.0,0.0,-0.005012287129506702,0.010036252220336465,0.9911716678496624
2011-10-11,0,0.0,0.0,-0.005086095466767701,0.00717827221802184,0.991855882865475
2011-10-13,1,0.0007301103105931495,0.0008629082853599296,-0.007928021421631796,0.009519152829302806,0.9906793686260396
2011-10-17,0,0.0,0.0,-0.008225514876842864,0.01118584370943769,0.990085799586198
2011-10-19,0,0.0,0.0,-0.010529079289741623,0.01118584370943769,0.9895947853344376
2011-10-21,1,0.0010382444951136962,0.001181420530080506,-0.010529079289741623,0.007167568245966786,0.9897224311376236
2011-10-25,1,0.0005583531747566464,0.0006196322321643504,-0.0131620025504563,0.007167568245966786,0.9890425595026402
2011-10-27,1,0.0011951896405660572,0.0013412238083372967,-0.0131620025504563,0.0043796038486792034,0.9895248087563349
2011-10-31,1,0.0008342958949044875,0.0009275339984388648,-0.0131620025504563,0.011110829174363816,0.9889076230886953
2011-11-02,1,0.0007549936839572429,0.0008246020887738111,-0.012273182582606644,0.011110829174363816,0.9885248583933172
2011-11-04,1,0.0008758913479051211,0.0009527380621287055,-0.012273182582606644,0.007167568245966786,0.9886524428777131
2011-11-08,1,0.0007971238037751766,0.0008884645136264803,-0.01153600460362152,0.007797673463942329,0.9890879659202799
2011-11-10,1,0.000627667104321022,0.0007029254955976479,-0.011339381319031854,0.007930173159705465,0.989460834869976
2011-11-14,1,0.0005339838659471722,0.0005788630322864431,-0.010570646011325967,0.006210544627812884,0.9901806751648212
2011-11-16,1,0.00023307514084575424,0.00023375611177741426,-0.010570646011325967,0.007930173159705465,0.9888745337319982
2011-11-18,1,0.0002964921713485947,0.00031522624943594493,-0.010570646011325967,0.007930173159705465,0.9889723509168035
2011-11-22,-1,-0.00011903121012457141,-0.00010809830958444464,-0.009331626887474437,0.013292867514259683,0.9883424740269391
2011-11-25,-1,-0.00022510038547047512,-0.00020872418205578676,-0.0038421663192445715,0.013512187091678346,0.9881625150686603
2011-11-29,1,0.00041921875181299896,0.0004811496421122421,-0.00899503231667964,0.011581434787459443,0.9891487290004618
2011-12-01,1,0.0010847268821635647,0.0012281698078669217,-0.00899503231667964,0.007930173159705465,0.9905720843311168
2011-12-05,1,0.0007871282915274389,0.00086617745470206,-0.00899503231667964,0.007930173159705465,0.9904422162086175
2011-12-07,1,0.0007661535135510916,0.0008241347941100609,-0.00899503231667964,0.007523561936684313,0.9905122828280791
2011-12-09,1,0.0008858338728975569,0.0009780167348978413,-0.006373520380560428,0.006432019050684359,0.9911748083875979
2011-12-13,1,0.0006689975154254491,0.0007328991314189,-0.004314605287988708,0.006432019050684359,0.9916187169036134
2011-12-15,1,0.0009025520178454584,0.000996143731594225,-0.002486648309809771,0.005200455120667124,0.9938569995816484
2011-12-19,1,0.00032049393698130313,0.0003251778125397375,-0.0015221002061100036,0.005200455120667124,0.9936105483326922
2011-12-21,1,0.0016111494240235256,0.0018027614113282201,-0.004210570119364071,0.0035559765942999207,0.9953060541698524
2011-12-23,1,0.0015795354389014154,0.0017362869873286,-0.004210570119364071,0.0029800184520960824,0.99497378133716
2011-12-28,1,0.0010295499627071126,0.0010883159145837072,-0.004210570119364071,0.0029800184520960824,0.993706697233111
2011-12-30,1,0.0007634704978509981,0.0007767850952043099,-0.004210570119364071,0.002718940725793356,0.9935654936653249
2012-01-04,1,0.000665112142656556,0.0006663812054793505,-0.003941521427578866,0.002718940725793356,0.9939597607623355
2012-01-06,1,0.0011485133123767884,0.0012845859776183669,-0.0034008469079330576,0.002718940725793356,0.9941557848685396
2012-01-10,1,0.0012602060742094995,0.0013937519571055198,-0.004313534077474131,0.0025644763347720924,0.9935231376085013
2012-01-12,1,0.0009844590005514387,0.001040402932629676,-0.004313534077474131,0.0017782677444887686,0.993596050455846
2012-01-17,1,0.0012703721286304146,0.001397157521731965,-0.004313534077474131,0.0028097620661397507,0.9930408047097402
2012-01-19,1,0.0007397611716241786,0.0007756337347016961,-0.004313534077474131,0.003533989704685222,0.9930792884227172
2012-01-23,1,0.0008475863189593919,0.0009279007949768782,-0.004160902913383309,0.003721496215849168,0.9931289119614126
2012-01-25,1,0.0017088366310557713,0.0019117237601883074,-0.004888651245514963,0.0033362637194298502,0.9914806064160068
2012-01-27,0,-1.0468209470271961e-05,4.199216748902547e-05,-0.004569640533588852,0.003721496215849168,0.9925167242553454
2012-01-31,-1,-8.882004899449946e-05,-3.359257921791396e-05,-0.005067106356882143,0.003721496215849168,0.9924438353827822
2012-02-02,-1,-0.00082423982038137,-0.0006252597952472301,-0.005067106356882143,0.004166810876144556,0.9923999013356126
2012-02-06,-1,-0.0007271348860899148,-0.0005517789751378526,-0.005067106356882143,0.006276067594975233,0.9920310792502098
2012-02-08,-1,-0.0008002630074908846,-0.0006330650436628645,-0.004569640533588852,0.004166810876144556,0.9929634162233892
2012-02-10,-1,-0.0011235769722233047,-0.0009957613427782042,-0.004569640533588852,0.0065290290618456575,0.9923319992784351
2012-02-14,0,0.0,0.0,-0.005067106356882143,0.0065290290618456575,0.9916663177387436
2012-02-16,0,0.0,0.0,-0.004569640533588852,0.006547708594687147,0.9917965973639905
2012-02-21,0,0.0,0.0,-0.005326703835447607,0.006547708594687147,0.9917469539994032
2012-02-23,0,0.0,0.0,-0.004926830656551227,0.006547708594687147,0.9938119126199879
2012-02-27,0,0.0,0.0,-0.0027379432778089877,0.005048793426986487,0.9944563091977718
2012-02-29,0,0.0,0.0,-0.001242136794009108,0.005048793426986487,0.9944418000270333
2012-03-02,-1,-0.003195521275433814,-0.0028547449695016176,-0.001242136794009108,0.0054840778656664695,0.9929760967812904
2012-03-06,-1,-0.0026585258334345667,-0.002396349801477714,-0.0014277608237749687,0.005468817629322602,0.9932873926169646
2012-03-08,-1,-0.002562735037628405,-0.0023152635345075304,-0.005233673206052898,0.005468817629322602,0.9928291397128786
2012-03-12,-1,-0.0020789367976622925,-0.001885740612032691,-0.006162857059016482,0.004292626539291608,0.9929668554664566
2012-03-14,-1,-0.002279315360882111,-0.0020688266356231684,-0.005233673206052898,0.003200625314424111,0.9939601163544334
2012-03-16,-1,-0.0015032914532934537,-0.0014122166648086732,-0.005233673206052898,0.003200625314424111,0.9940658159187854
2012-03-20,-1,-0.001873215843527721,-0.0017231001973058244,-0.004842877356947663,0.004292626539291608,0.9939924686294033
2012-03-22,0,0.0,0.0,-0.003355588876616287,0.005047607940666617,0.9939394476877124
2012-03-26,0,0.0,0.0,-0.004842877356947663,0.005859221339370072,0.9935381568790815
2012-03-28,-1,-0.001374932745214435,-0.0012169083214866002,-0.003355588876616287,0.005859221339370072,0.9937416941179544
2012-03-30,-1,-0.001050955287016464,-0.0010286769737043449,-0.003355588876616287,0.00575696953831386,0.9939601345668283
2012-04-03,-1,-0.0010627528680986647,-0.0010181248879437147,-0.003355588876616287,0.004150331411728297,0.9943299612494289
2012-04-05,-1,-0.0019393876911969672,-0.0017753185184499654,-0.002266933381415125,0.004150331411728297,0.9946633717377805
2012-04-10,-1,-0.0025528945100966307,-0.0023297411270823236,-0.00171854055973903,0.004150331411728297,0.9947249328029873
2012-04-12,-1,-0.0025170306337201783,-0.0022809747552696106,-0.00171854055973903,0.004184405681598747,0.994642555041876
2012-04-16,-1,-0.0021251481603837795,-0.0019311716999881334,-0.002266933381415125,0.003628913306712938,0.9952174478443224
2012-04-18,-1,-0.0024309535003551905,-0.002158718249076758,-0.00340645113856451,0.003242637569813902,0.9948687819403368
2012-04-20,-1,-0.0022664065319118435,-0.0019986554780121106,-0.004626307521294262,0.003242637569813902,0.9950022030565049
2012-04-24,-1,-0.0016995288299162478,-0.001545644776035715,-0.0026735521756583755,0.003242637569813902,0.9951925867594529
2012-04-26,-1,-0.0007336721288308846,-0.0007272275596795577,-0.004626307521294262,0.002871905034915777,0.9953113197646654
2012-04-30,-1,-0.0005261292780241862,-0.0005147273642906921,-0.004626307521294262,0.004004177849055318,0.9950122183221399
2012-05-02,-1,-0.0003667102319790712,-0.0003176081954359184,-0.005316984155661749,0.005290766106672308,0.994453321701366
2012-05-04,-1,-0.00047828598703713156,-0.0004433833403580122,-0.004626307521294262,0.005290766106672308,0.9945986566675452
2012-05-08,-1,-0.0010599191253513347,-0.0010057897798018125,-0.0034673416303730446,0.006353980185741763,0.9935301521034136
2012-05-10,-1,-0.0007025683871033108,-0.0007001159959247632,-0.0034673416303730446,0.006353980185741763,0.9936487388251162
2012-05-14,-1,-0.0010077375164878992,-0.0009484251721967068,-0.003281152946417626,0.006353980185741763,0.9935380042195762
2012-05-16,-1,-0.0007682530043742362,-0.0007184754467207947,-0.001156568634510685,0.006353980185741763,0.9942139081633249
2012-05-18,-1,-0.0002964612863668788,-0.00014640294886129939,-0.00012585236593326478,0.0061293228927860165,0.9948226683953795
2012-05-22,0,-2.5888778077860775e-06,0.00017720179373693174,-0.001714859504791956,0.00612876152767813,0.9948549181033043
2012-05-24,1,9.255621549729518e-05,0.0002910672776497784,-0.001714859504791956,0.00612876152767813,0.9946209022593682
2012-05-29,1,0.0003783928121807147,0.000593521894835153,-0.0023077089453991868,0.004436741261091049,0.9949002490014497
2012-05-31,1,0.00047256519529469403,0.0007008793822411884,-0.001445413770977164,0.005179642641270568,0.9950442019673169
2012-06-04,0,0.0,0.0,-0.0008754124907553197,0.0057321985098938676,0.9943248915258495
2012-06-06,0,0.0,0.0,-0.0008754124907553197,0.005179642641270568,0.9949221297188934
2012-06-08,1,0.00201939721106795,0.002493471569174756,-0.0019502908874554482,0.004291097241613453,0.9953494456472307
2012-06-12,1,0.0019593190724020867,0.0024126880551638328,-0.0014231885459928162,0.0041357668881732155,0.9956409317655872
2012-06-14,0,0.0,0.0,-0.0014231885459928162,0.0056001946142637095,0.9946298875313098
2012-06-18,0,0.0,0.0,-0.0014231885459928162,0.0056001946142637095,0.9946542596176722
2012-06-20,1,0.0017369643376779313,0.002087669976016237,-0.00018782105602054377,0.0056001946142637095,0.9958250780611508
2012-06-22,0,0.0,0.0,-0.0009801280182057906,0.0056001946142637095,0.9955783703303569
2012-06-26,0,0.0,0.0,-0.0017373351283442285,0.0051741826127906865,0.9953974827004716
2012-06-28,0,0.0,0.0,-0.0017373351283442285,0.006312635801633624,0.9946426595269919
2012-07-02,0,0.0,0.0,-0.0019502908874554482,0.00445700679185029,0.9947661306359376
2012-07-05,0,0.0,0.0,-0.002792011933267274,0.003771355932197896,0.9950320458549038
2012-07-09,0,0.0,0.0,-0.0025771990225391633,0.00445700679185029,0.9945514557090104
2012-07-11,0,0.0,0.0,-0.005412579769289404,0.005680611563215775,0.9941974503824111
2012-07-13,0,0.0,0.0,-0.005412579769289404,0.004597316727327711,0.9934974302042404
2012-07-17,0,0.0,0.0,-0.005412579769289404,0.004597316727327711,0.9935534347237039
2012-07-19,1,0.0022344378580775926,0.002494544686174371,-0.005412579769289404,0.004597316727327711,0.9930629207653923
2012-07-23,1,0.001573364799424714,0.0017071908208977278,-0.004958731270201712,0.004597316727327711,0.9933822236801801
2012-07-25,1,0.001346777351035262,0.0014629534159235204,-0.004331901508000907,0.004597316727327711,0.9934049458404052
2012-07-27,1,0.002256387399670612,0.0025069352774313445,-0.004331901508000907,0.0036896633797279545,0.9941832986439129
2012-07-31,1,0.002026930339963349,0.0022460988010342487,-0.002593619181709395,0.0026015361249889356,0.9947071014053009
2012-08-02,1,0.0018054635521845682,0.002026820656083591,-0.002593619181709395,0.0026113814834959424,0.9951900254432928
2012-08-06,1,0.0019366941065141496,0.002149157660901038,-0.002593619181709395,0.0036544329834001946,0.9955171612358428
2012-08-08,1,0.0020087196355023044,0.0022501044712261334,-0.002593619181709395,0.0036544329834001946,0.9952530095117423
2012-08-10,1,0.0026295592946480807,0.0029328148998438567,-0.002593619181709395,0.00208854946239878,0.995689809665844
2012-08-14,1,0.0023069298496268156,0.002555434951054934,-0.0022484663138136107,0.00208854946239878,0.9962106826687062
2012-08-16,1,0.0021933437505347805,0.002432942726982384,-0.0022484663138136107,0.002446078654207204,0.9957949212595784
2012-08-20,1,0.0018508785374792569,0.0020207168581334095,-0.0017233488519042735,0.002446078654207204,0.9959477804643788
2012-08-22,1,0.0015340820290602143,0.0016798337397357682,-0.0014366983826302501,0.0037266749800297042,0.9964361981833405
2012-08-24,1,0.0016908663737523592,0.0018628207470489139,-0.0014366983826302501,0.0037266749800297042,0.996226482452262
2012-08-28,0,0.0,0.0,-0.0017141896982166669,0.0037266749800297042,0.9959529012860868
2012-08-30,0,0.0,0.0,-0.0017141896982166669,0.0037266749800297042,0.9955253083722855
2012-09-04,0,0.0,0.0,-0.0017141896982166669,0.0038758999583370446,0.995590949024762
2012-09-06,1,0.0011605638413165363,0.0011984553838656196,-0.0014366983826302501,0.0038758999583370446,0.9961533129044862
2012-09-10,0,0.0,0.0,-0.0013668584060550406,0.0038758999583370446,0.9958654883596756
2012-09-12,0,0.0,0.0,-0.0020339094583699175,0.0038758999583370446,0.9955223704195488
2012-09-14,0,0.0,0.0,-0.0020339094583699175,0.003303049007825303,0.996070570422524
2012-09-18,0,0.0,0.0,-0.0010182286589159656,0.00420261140345683,0.9957356328708674
2012-09-20,0,0.0,0.0,-0.0010182286589159656,0.005645106658894587,0.9954601301811511
2012-09-24,1,0.0017816482166665162,0.0019145029294630128,-0.0021966975727088626,0.004110592204757674,0.9956627004078188
2012-09-26,0,0.0,0.0,-0.005650054181296513,0.004110592204757674,0.994499277102114
2012-09-28,0,0.0,0.0,-0.003383920213605812,0.004110592204757674,0.9950904130265837
2012-10-02,1,0.0012284162890447304,0.0012589644839715568,-0.003383920213605812,0.004110592204757674,0.99494832177335
2012-10-04,0,0.0,0.0,-0.005650054181296513,0.0032819208761895066,0.9941287417496286
2012-10-08,0,0.0,0.0,-0.006639904203711574,0.0024478352504112896,0.9929343459336084
2012-10-10,0,0.0,0.0,-0.005883173525744081,0.0024478352504112896,0.9930839106414725
2012-10-12,0,0.0,0.0,-0.006639904203711574,0.0017855699775360218,0.9926879433852576
2012-10-16,0,0.0,0.0,-0.006639904203711574,0.0011072662856228925,0.9927249061471056
2012-10-18,0,0.0,0.0,-0.006639904203711574,-0.00027245820257294914,0.9927504505636662
2012-10-22,0,0.0,0.0,-0.006720795083173331,-0.0003070573866191418,0.9925506808755237
2012-10-24,-1,-0.0008696756646626139,-0.0006460500101698155,-0.005434043748992629,0.001155867726580096,0.9935376352833434
2012-10-26,0,0.0,0.0,-0.005434043748992629,0.001155867726580096,0.9928066406932671
2012-11-01,0,0.0,0.0,-0.005434043748992629,0.003062931277377583,0.9925094542738362
2012-11-05,-1,-0.0005136391807912957,-0.0003254446760864732,-0.005434043748992629,0.003062931277377583,0.9931789716368883
2012-11-07,-1,-0.0020546682030319506,-0.0016890016733460927,-0.00479599984807908,0.007965966957454128,0.9934754226776146
2012-11-09,-1,-0.0022287180344729165,-0.0018512030232214018,-0.004056219054562295,0.007965966957454128,0.9933486811593141
2012-11-13,-1,-0.0029198868455661787,-0.0024412756073437427,-0.0022320302874560905,0.007965966957454128,0.9934372514690158
2012-11-15,0,0.0,0.0,-0.001846644207096371,0.007965966957454128,0.9940630291942829
2012-11-19,0,0.0,0.0,-0.001124606887791302,0.00914071532894743,0.9935949496344662
2012-11-21,0,0.0,0.0,-0.00018080267374598954,0.00914071532894743,0.9935924652394011
2012-11-26,1,0.003064185450984429,0.007704812732655896,-0.002606675248921107,0.007554888172764035,0.9945929486656893
2012-11-28,0,0.0,0.0,-0.004067580599035956,0.003524102398198633,0.9936344351736442
2012-11-30,0,0.0,0.0,-0.006484136838120978,0.002129128876001909,0.9934906439808948
2012-12-04,-1,-0.00033756899192997545,-0.00017323807854306266,-0.004067580599035956,0.0039156851886964,0.9929045990322382
2012-12-06,1,0.0010325929843333405,0.0010568402022462912,-0.004538325456835225,0.002129128876001909,0.9934252696917366
2012-12-10,1,0.0011377757112936216,0.0011863055926643875,-0.005242863331194954,0.0017276323299619592,0.9931608028578289
2012-12-12,1,0.0011918455223836545,0.0012496055283770435,-0.006094854608520189,0.0037337793278555543,0.9923797692334418
2012-12-14,1,0.0003253626123937371,0.0003963719357894526,-0.005242863331194954,0.0037337793278555543,0.993360342974665
2012-12-18,1,0.001058869493690303,0.0010732365538592256,-0.005242863331194954,0.0006376156226981816,0.9940399915358271
2012-12-20,1,0.0013179588810018072,0.001396245510133388,-0.004368033290591849,0.003185464881060788,0.9936776441440522
2012-12-24,1,0.0007859382354863933,0.0007933472478294853,-0.0036624424746726694,0.003324582214180532,0.9942910381115343
2012-12-27,-1,-0.00018242253961499023,-5.1319941052527e-05,-0.001666116382148958,0.006376459957992348,0.9947702068973985
2012-12-31,1,0.00016900330225544196,0.00023343548051737767,-0.0010962943307202568,0.006376459957992348,0.9951615384245692
2013-01-03,1,0.0006501531788039015,0.0006553245096958371,-0.0012291750739084116,0.0045201871278160825,0.9960877408655461
2013-01-07,1,0.0007798830642137406,0.0008412587485633107,-0.0012905299581598695,0.0045201871278160825,0.9959754296310607
2013-01-09,1,0.0006025528688984795,0.0006194094292261609,-0.0018084710287247546,0.0045201871278160825,0.9957983068108787
2013-01-11,1,0.0005345212286601529,0.0005366443591763083,-0.0012766266227670106,0.003689954631837805,0.9963815988625527
2013-01-15,1,0.00028881763725438167,0.0003287272956605948,-0.0009710988560572274,0.0038480324325531946,0.99628435153733
2013-01-17,0,-7.533085098237894e-05,3.859641108967267e-05,-0.0012766266227670106,0.0045201871278160825,0.9957495021162254
2013-01-22,1,0.0008445700545719482,0.0008448262306998282,-0.0012766266227670106,0.0038480324325531946,0.9963996833369284
2013-01-24,1,0.0009924632692667878,0.0010135314038361733,-0.002179267580437329,0.0045201871278160825,0.9953930942847296
2013-01-28,1,0.0011180085979899312,0.0011445566596516832,-0.0033902983354179963,0.005002967707503617,0.994424839067824
2013-01-30,1,0.001769390428360545,0.0018982846660567177,-0.0033902983354179963,0.004773382455739179,0.9946496183899042
2013-02-01,1,0.001958081064752154,0.0021299830181758,-0.0033902983354179963,0.00735235674572597,0.9940245437224439
2013-02-05,1,0.001389253927499225,0.0014798034033693958,-0.0017309965315181614,0.00735235674572597,0.9943896586209726
2013-02-07,1,0.0011055962749225343,0.0011608371456946279,-0.0004274515360617291,0.00735235674572597,0.9944548075424453
2013-02-11,1,0.0013135511301770532,0.0014040086525490116,-0.0020037266053909595,0.00735235674572597,0.9942970049952933
2013-02-13,1,0.001330585743330442,0.0014116823521932813,-0.0020037266053909595,0.00735235674572597,0.9941752591847286
2013-02-15,1,0.001676427311293908,0.0018281016334905453,-0.0020037266053909595,0.005574985960774777,0.9943780006520921
2013-02-20,1,0.0022539932143154293,0.002504156187170795,-0.0020037266053909595,0.005574985960774777,0.994562922908728
2013-02-22,1,0.0026651978409400765,0.0029627120970809706,-0.0020037266053909595,0.004886424089677683,0.9950241480057703
2013-02-26,1,0.002544708033042452,0.0027983917625557684,-0.0020037266053909595,0.004886424089677683,0.9956552277119308
2013-02-28,1,0.0029554856206387104,0.0032721416073417013,-0.0020037266053909595,0.004886424089677683,0.9954986456678386
2013-03-04,1,0.003564968413437085,0.00397578789345595,-0.00282969313572958,0.004667809558228646,0.9956165172460776
2013-03-06,1,0.0035657508147033715,0.003964734583074023,-0.0035189421648936323,0.004886424089677683,0.9949985689016558
2013-03-08,1,0.0031164206243531585,0.0034375691401941763,-0.00282969313572958,0.005681088708843719,0.995137881978706
2013-03-12,1,0.002832363335449755,0.003110442388526585,-0.0035189421648936323,0.0076012121535436825,0.9947878736884589
2013-03-14,1,0.0032623282726119383,0.0036195544715808712,-0.0035189421648936323,0.0076012121535436825,0.9946544868985441
2013-03-18,1,0.003510110731889944,0.003932876790356495,-0.0035189421648936323,0.008217020515191749,0.993732031282176
2013-03-20,1,0.003531880144723459,0.003933651075302704,-0.003618425539828106,0.008217020515191749,0.9936481096976347
2013-03-22,1,0.0027828262897208658,0.00303772114773118,-0.003332127051001032,0.009367044982997298,0.9938246677595008
2013-03-26,1,0.0028423124997164744,0.003105363615056511,-0.00282969313572958,0.009367044982997298,0.9941892946941121
2013-03-28,1,0.00342532999931954,0.0037881857162182864,-0.003332127051001032,0.008781920838010413,0.9939019761573271
2013-04-02,0,0.0,0.0,-0.0029208181293034845,0.009367044982997298,0.9930786141424852
2013-04-04,0,0.0,0.0,-0.0029208181293034845,0.008781920838010413,0.9936483409582341
2013-04-08,1,0.0018128694390355748,0.002010845635960124,-0.003545906739112755,0.0065341457124070326,0.9937418033368537
2013-04-10,1,0.0021064829744526087,0.0022158186338363133,-0.003545906739112755,0.0065341457124070326,0.9930564103671458
2013-04-12,1,0.0019535884524419914,0.0020192284290202083,-0.0040001143578823764,0.006172841736791204,0.9917985796742267
2013-04-16,0,0.0,0.0,-0.003545906739112755,0.005190828268759028,0.9929750774240184
2013-04-18,0,0.0,0.0,-0.0040001143578823764,0.006172841736791204,0.992350542359899
2013-04-22,0,0.0,0.0,-0.0040001143578823764,0.005190828268759028,0.9924713791756203
2013-04-24,0,0.0,0.0,-0.005072049515293007,0.0027813592393819836,0.992110577001714
2013-04-26,0,0.0,0.0,-0.008416021375941305,0.0027813592393819836,0.991564529441281
2013-04-30,0,0.0,0.0,-0.011889062749912215,-0.0009296206492326769,0.9908533731028015
2013-05-02,0,0.0,0.0,-0.011889062749912215,-0.0013702876448103965,0.9907079402310282
2013-05-06,0,0.0,0.0,-0.008911626833374552,0.000873703945543548,0.9909515214153016
2013-05-08,0,0.0,0.0,-0.00834879612352921,0.00017523495282182754,0.9919256486853338
2013-05-10,0,0.0,0.0,-0.007451188693528465,0.002013916433872008,0.9924292898058897
2013-05-14,0,0.0,0.0,-0.00834879612352921,-0.001134079521026397,0.9920194675948187
2013-05-16,0,0.0,0.0,-0.009085126856575452,-0.001134079521026397,0.9916986562615755
2013-05-20,0,0.0,0.0,-0.009085126856575452,0.0013161910274895163,0.9920377286055753
2013-05-22,0,0.0,0.0,-0.010117632751077046,0.0013161910274895163,0.9899713123341888
2013-05-24,0,0.0,0.0,-0.009085126856575452,0.002734777148236571,0.9899580232783938
2013-05-29,-1,-0.002584885209945505,-0.0021669777828817035,-0.006625727332440214,0.007382119436916511,0.9907606932075951
2013-05-31,-1,-0.002968932214218071,-0.0024917626858530885,-0.006132494290907505,0.007382119436916511,0.9904631843982745
2013-06-04,-1,-0.0029530703488066874,-0.0024637403393436503,-0.007424151389277349,0.007382119436916511,0.9906431225118013
2013-06-06,-1,-0.0031952515070374577,-0.002681908186764471,-0.005631021933436609,0.007382119436916511,0.990989727821722
2013-06-10,-1,-0.003086934014462559,-0.0025789405610495914,-0.005328187294406579,0.00686885206255371,0.9911611620426465
2013-06-12,-1,-0.003930134624051712,-0.0032976357749526742,-0.004235614969681496,0.009267796960078255,0.9892620098189059
2013-06-14,0,0.0,0.0,-0.0030300668130331778,0.009267796960078255,0.9899859237175838
2013-06-18,-1,-0.0029792807510369912,-0.002497164939353075,-0.004235614969681496,0.009267796960078255,0.9897106435166385
2013-06-20,0,0.0,0.0,-0.002758970518198487,0.009267796960078255,0.9927063183772644
2013-06-24,0,0.0,0.0,-0.0019433168562021418,0.007009324949883594,0.9935537675318402
2013-06-26,-1,-0.0033135155495661556,-0.0028284445270143205,-0.0032353010588690493,0.00658796456335316,0.9929016627018417
2013-06-28,-1,-0.0035471752761388436,-0.003030081561784834,-0.0032353010588690493,0.00658796456335316,0.9920532529651156
2013-07-02,0,0.0,0.0,-0.0034211655280540895,0.00658796456335316,0.9928464133381824
2013-07-05,0,0.0,0.0,-0.0030261595870960385,0.00658796456335316,0.9928236779331604
2013-07-09,0,0.0,0.0,-0.004133410058961812,0.005388089620951512,0.9923082481114667
2013-07-11,0,0.0,0.0,-0.004643408954138683,0.0031492730988535093,0.9937399051706439
2013-07-15,0,0.0,0.0,-0.006913794208847596,0.0007582953664876182,0.9941745937045701
2013-07-17,-1,-0.000819837966964182,-0.0006583348240210133,-0.007367053865185879,0.0011632172391117426,0.9943416487165295
2013-07-19,0,0.0,0.0,-0.010907467538917984,0.0007582953664876182,0.9931484096897617
2013-07-23,0,0.0,0.0,-0.011640113325658143,0.0011632172391117426,0.9923327056080262
2013-07-25,0,0.0,0.0,-0.010565703516522446,0.0018355834018128668,0.9928013951540693
2013-07-29,0,0.0,0.0,-0.010907467538917984,0.0011632172391117426,0.9926304460295617
2013-07-31,-1,-0.000929123037614484,-0.0008142654267107017,-0.010907467538917984,0.002930233089706952,0.9927301644187679
2013-08-02,-1,-0.0008189438263969976,-0.0007099390506102145,-0.010907467538917984,0.002635941158461071,0.9925410629082871
2013-08-06,-1,-0.0013046698802831227,-0.001155342991939437,-0.010907467538917984,0.002635941158461071,0.992577047191143
2013-08-08,-1,-0.0014892670480066744,-0.0013204290780830668,-0.010907467538917984,0.002930233089706952,0.9924300681101926
2013-08-12,-1,-0.0019906522165083667,-0.001780486890555053,-0.010565703516522446,0.0037491269613770667,0.9926222213200322
2013-08-14,-1,-0.0022981048905651186,-0.0020468583926065657,-0.01100569200874567,0.0037491269613770667,0.9921703641997917
2013-08-16,-1,-0.003146501252326911,-0.002803064485503201,-0.008207373994318515,0.005269746986444393,0.991669032639583
2013-08-20,-1,-0.003172321785551869,-0.0028610078908980754,-0.007012854620035101,0.007882975615081576,0.9899442841230245
2013-08-22,-1,-0.003415537830633605,-0.0030727648028297735,-0.007012854620035101,0.006427115590874621,0.9898757436695232
2013-08-26,-1,-0.0031201449496024193,-0.002829481759019106,-0.004060888442243579,0.006427115590874621,0.9902314461387473
2013-08-28,-1,-0.0022710719997072327,-0.0021101488055482397,-0.007012854620035101,0.00608550271758428,0.9906537331419859
2013-08-30,-1,-0.002078488157538096,-0.0019635553748737276,-0.005154834649119744,0.00608550271758428,0.9910108986196126
2013-09-04,-1,-0.002274620345168812,-0.002157669761840634,-0.003714848020724838,0.008620027523163274,0.9909713890790819
2013-09-06,-1,-0.001924465869383359,-0.001837151734801117,-0.005154834649119744,0.00600071763054061,0.990971474943604
2013-09-10,-1,-0.0014194754570054998,-0.001394562513962307,-0.005178627113162891,0.008218690542448665,0.9908323947529595
2013-09-12,-1,-0.0017318121833419528,-0.0017141433026286934,-0.003714848020724838,0.008620027523163274,0.9909055189956841
2013-09-16,-1,-0.0004681090768743645,-0.0002879360822451194,-0.004534054206010334,0.008218690542448665,0.9918434556245221
2013-09-18,1,0.0013305827007877077,0.001741185691409024,-0.004590899788732741,0.004944030088826395,0.9929591059015418
2013-09-20,1,0.0009202817450605267,0.0013247935260566315,-0.004534054206010334,0.007030609064023356,0.9932803633914431
2013-09-24,1,0.0014171139437054333,0.001881553837699791,-0.004534054206010334,0.007030609064023356,0.9932607047814975
2013-09-26,1,0.0007718112455709929,0.001134859759530766,-0.00414149064135772,0.008218690542448665,0.9924191856546782
2013-09-30,1,0.0005888953473625184,0.0009235869983492961,-0.0008309565955476055,0.009034210451510578,0.9921903962107123
2013-10-02,1,0.0006580421363604161,0.0009407751191592646,-0.0037013202166744446,0.008717658557839639,0.9924250449576731
2013-10-04,1,0.00034067485924268797,0.0005890599675484096,-0.0037013202166744446,0.008717658557839639,0.9925378616687678
2013-10-08,1,0.0007117220874438488,0.0010242517709793965,-0.0037013202166744446,0.007635094377304643,0.992474250752774
2013-10-10,1,0.0016380743332699542,0.002098711532156442,-0.00414149064135772,0.004891870457221547,0.9926059066831447
2013-10-14,1,0.0013009365270018195,0.0016665249048370267,-0.0037013202166744446,0.00799887795302346,0.9919818752495337
2013-10-16,1,0.0007781467246921998,0.0010295643556898228,-0.0016907290314856656,0.00729593268597999,0.9925194468063041
2013-10-18,1,0.001079348020282903,0.0013043866089676543,-0.0016907290314856656,0.005712505249902195,0.9931723757524956
2013-10-22,1,0.001285514971273889,0.001522912583968133,-0.0016907290314856656,0.005712505249902195,0.9932493914259652
2013-10-24,1,0.0026600859417978662,0.0030885016314257598,-0.004077336041845124,0.0053663639132795465,0.9941448802712272
2013-10-28,1,0.0029335303782647903,0.0033770646018834102,-0.004077336041845124,0.004515704433890834,0.9942865520762174
2013-10-30,1,0.0028090004038676284,0.0032477357418375704,-0.0057439986392777715,0.004515704433890834,0.9940268025298382
2013-11-01,1,0.002402552451240011,0.0027517292444084593,-0.006761519324998322,0.004051147116929486,0.9938293301845385
2013-11-05,1,0.0021135120771775245,0.002446587479322744,-0.003962412363917129,0.0051734425142309455,0.9944360936761035
2013-11-07,1,0.0019985462024798553,0.0023366003865217108,-0.003962412363917129,0.0053663639132795465,0.9940992839678674
2013-11-11,1,0.0008269127166176352,0.0008981235459510335,-0.007866448005716871,0.0051734425142309455,0.9939959511766908
2013-11-13,1,0.0010907934984145447,0.001215501034358958,-0.008078232954288134,0.0031810952605683222,0.993775225937937
2013-11-15,1,0.001967761223306997,0.002260115511582012,-0.008078232954288134,0.002433567519168892,0.9936395110142835
2013-11-19,1,0.002108725789672915,0.00242798922534412,-0.008078232954288134,0.002433567519168892,0.993496179003861
2013-11-21,1,0.0015447919702486716,0.0017712882305092833,-0.007866448005716871,0.0027300654742965437,0.9938373358234038
2013-11-25,1,0.0014110537397400104,0.0015998703445510324,-0.007866448005716871,0.003753495588140949,0.9936002798763323
2013-11-27,1,0.00107578377011648,0.001234793243962671,-0.006993448019866155,0.003753495588140949,0.9940422733043397
2013-12-02,1,0.0015293725333268304,0.0018256005419408363,-0.004395496485477321,0.003753495588140949,0.9945527675066977
2013-12-04,1,0.002319151258388875,0.002788724920742237,-0.006993448019866155,0.003186013113203591,0.9938123950768426
2013-12-06,1,0.0023597064879127385,0.0028165201800363533,-0.004395496485477321,0.003186013113203591,0.9944993504272887
2013-12-10,1,0.0015987214877119327,0.0019588017300681626,-0.0033594965974452534,0.003753495588140949,0.9953842911073294
2013-12-12,1,0.001345151338150898,0.001675249043447988,-0.0033594965974452534,0.0038850013072408074,0.9943628506814396
2013-12-16,1,0.000863103459833149,0.0010556809780481835,-0.0034834661222114573,0.0038850013072408074,0.9942426370490237
2013-12-18,1,0.0017145802357667636,0.0020739607360926128,-0.0034834661222114573,0.0038850013072408074,0.9949726793771302
2013-12-20,1,0.0016731626393621745,0.0020095668481907155,-0.0034834661222114573,0.0038850013072408074,0.994859871259143
2013-12-24,1,0.0017065403891699158,0.0020612044859362835,-0.0034834661222114573,0.003827856368184354,0.9943818214111086
2013-12-27,1,0.0013156374247713523,0.001566232538906742,-0.0018245753828227272,0.004686830628948516,0.9939236012926469
2013-12-31,1,0.0013421907169724025,0.0015904238702052968,-0.0018245753828227272,0.006631411663578481,0.9934244881773365
2014-01-03,1,0.00037738488301953936,0.0004553277336037773,-0.0018245753828227272,0.00743741028508501,0.9927487218195941
2014-01-07,1,0.00044769068638494415,0.0005147385535716207,-0.004080527744960417,0.00743741028508501,0.9923631610368622
2014-01-09,-1,-0.00025466824712964704,-0.0001733451303767244,-0.004396071982400516,0.008833129914669082,0.991850067043753
2014-01-13,-1,-0.00028594646491571354,-0.00017528772598983627,-0.0018245753828227272,0.008253741637844599,0.99274034257946
2014-01-15,-1,-0.0006610611460583551,-0.0004973926563590273,0.0021570943850121333,0.008833129914669082,0.9916597319162859
2014-01-17,-1,-0.0004390657268376817,-0.0002926108748068762,0.0021570943850121333,0.008833129914669082,0.9914377926734486
2014-01-22,1,0.00033878300318486936,0.00037707821559657443,7.221911377059374e-05,0.008378695298177991,0.9921619298230582
2014-01-24,-1,-0.0005900005619034292,-0.00042930411230773265,7.221911377059374e-05,0.008378695298177991,0.9920929975367205
2014-01-28,-1,-0.00038842783860327525,-0.00021448875660121092,-0.0013404670115816644,0.00812454012474196,0.9927800835256606
2014-01-30,1,0.00034167583769814647,0.0004178405169150551,-0.005396934999222527,0.008044841684093813,0.992889039870937
2014-02-03,1,0.0004506696721051055,0.0005021990009045948,-0.005396934999222527,0.007250640922123461,0.99319498352231
2014-02-05,-1,-0.0006076867867127511,-0.000382118065481924,-0.007322634808801092,0.007250640922123461,0.9929712892373458
2014-02-07,-1,-0.0001662666031305861,-2.057153364967484e-05,-0.005420252117733127,0.0067253797627149815,0.9936512915642064
2014-02-11,1,0.0012054726831396858,0.0013230842762317163,-0.007708289776904876,0.0067253797627149815,0.9930852824601869
2014-02-13,1,0.001417782648241161,0.0014828610987374462,-0.007708289776904876,0.00585004398257262,0.9935403653972623
2014-02-18,1,0.0019819504123847957,0.00214018470506373,-0.007708289776904876,0.004238787307244368,0.9937801386921399
2014-02-20,1,0.0015214650203491688,0.0015972089452634983,-0.008828934668361913,0.004238787307244368,0.9926576173791734
2014-02-24,1,0.0010240975019278422,0.0010358688435472218,-0.007708289776904876,0.004054158120711955,0.9930974349129043
2014-02-26,1,0.0012909258968443922,0.0013335662919867364,-0.007708289776904876,0.004664703232036827,0.9926355352693804
2014-02-28,1,0.0008039935762814852,0.000851599293363267,-0.0047598542245804645,0.004671341749560666,0.9929467252588082
2014-03-04,1,0.0005917163225517835,0.000665436639521898,-0.004194762965358265,0.005082766029029212,0.992855117121148
2014-03-06,1,0.00011543850992710932,0.00021916828789771625,-0.00260353420304151,0.005082766029029212,0.9935267298456683
2014-03-10,0,-0.0001290479013495771,1.4520018116927626e-05,-0.00260353420304151,0.005185187500475668,0.9934100868653204
2014-03-12,-1,-0.00018774537056397676,-1.892679187079268e-05,-0.0019755228131014637,0.005185187500475668,0.9938955368227788
2014-03-14,1,0.0007345279437984862,0.0007494078903699556,-0.00260353420304151,0.0040502201291062224,0.9938663963622728
2014-03-18,1,0.00083431787638073,0.0008480844636411536,-0.0019940288644513765,0.008032261226276215,0.9928845343297884
2014-03-20,1,0.00043444852792025014,0.00043996650004489494,-0.00176687977076087,0.008032261226276215,0.9933814461611544
2014-03-24,1,0.000637824213573724,0.0006995004722905121,-0.0016011035252816606,0.008032261226276215,0.9936058475378111
2014-03-26,1,0.0009422423892431464,0.001031299092122777,-0.0016011035252816606,0.00767046586051042,0.9937862227175183
2014-03-28,1,0.001260213006199004,0.0014017203246374883,-0.0016011035252816606,0.009513876296794883,0.9925893335648662
2014-04-01,1,0.0012720448759772941,0.0013892088862636882,-0.0016011035252816606,0.00767046586051042,0.9927802554312094
2014-04-03,1,0.001122032726204136,0.0012083685787126343,-0.00176687977076087,0.00767046586051042,0.991884721712214
2014-04-07,1,0.0010229506386041165,0.0011732127873851361,-0.0037132314451370128,0.008721915867833191,0.9912435949212682
2014-04-09,1,0.001732703358403277,0.001963145476821147,-0.00855764531342454,0.008721915867833191,0.9909186194877917
2014-04-11,1,0.001439679348154354,0.0016472176729078877,-0.009739948152826252,0.008721915867833191,0.9903375037674217
2014-04-15,1,0.002583333268755752,0.0029376080447008,-0.009739948152826252,0.008483975765029284,0.9910548321164236
2014-04-17,1,0.0018653754804418392,0.002102216481574329,-0.00855764531342454,0.009318334923983701,0.9910315546753289
2014-04-22,1,0.0017148376332003787,0.0019248032216200267,-0.009739948152826252,0.009318334923983701,0.989470081821471
2014-04-24,1,0.0018890247425600165,0.0020951701940162405,-0.009739948152826252,0.009318334923983701,0.9895667097020945
2014-04-28,1,0.0030185109749748555,0.003337922385751122,-0.009739948152826252,0.007846322490913592,0.9897320294537789
2014-04-30,1,0.002344266557765954,0.002591107414666436,-0.00855764531342454,0.007846322490913592,0.9903954647538671
2014-05-02,1,0.0016201722554963181,0.0017777413756906333,-0.006926200348122401,0.009318334923983701,0.9910130308406995
2014-05-06,1,0.0011310059810682995,0.001173981017319649,-0.003748392185753185,0.008721095644478174,0.9914860664157866
2014-05-08,1,0.0010003647259358402,0.0010066961008795533,-0.0020928473875525557,0.007726556098679719,0.9922073380363684
2014-05-12,-1,-0.00020414434057644337,-7.040673543918011e-05,-0.0016268044781146324,0.007726556098679719,0.9927115216340631
2014-05-14,1,0.0004357503071114011,0.000478335762650832,-0.0020928473875525557,0.005274270582960187,0.9923956048991359
2014-05-16,1,0.000512966606679553,0.000537085835572115,-0.0016268044781146324,0.004883895086816575,0.9929407760950936
2014-05-20,-1,-0.0010885034893392696,-0.00087076728171766,-0.0016268044781146324,0.0062638385590606865,0.9927357855037401
2014-05-22,-1,-0.0006637105469591959,-0.00047883708979911755,-0.0020928473875525557,0.006555429610248881,0.9923698372226556
2014-05-27,1,0.0002853216847725858,0.00035138428762925087,-0.0020928473875525557,0.004883895086816575,0.9935973453708287
2014-05-29,0,-0.00010719760831111823,3.8595530316920524e-05,-0.0019287713230514581,0.006555131116415136,0.9934001984838604
2014-06-02,1,0.0004154310609056692,0.0004933247762153467,-0.0019287713230514581,0.0064880902687104915,0.9934180143805073
2014-06-04,1,0.0005874625078236089,0.0006550524556865184,-0.005868107213675157,0.005905105620163657,0.992370891422474
2014-06-06,1,0.0006428145425942097,0.0006915378244314278,-0.00758914911439579,0.005905105620163657,0.9921867241543062
2014-06-10,0,-0.00013075163658932826,2.502048861984657e-05,-0.005847720537361835,0.0064880902687104915,0.9919734215836074
2014-06-12,-1,-0.0009249728900464049,-0.0006893531459654242,-0.005847720537361835,0.0064880902687104915,0.9922246267623557
2014-06-16,-1,-0.00029132263116649776,-0.0001574420498276343,-0.00758914911439579,0.006605628365769186,0.9918647965553588
2014-06-18,0,-1.2018767729740057e-05,0.0001263063972332931,-0.007973123602900561,0.00603921265758964,0.9924569638312433
2014-06-20,1,0.00037068951342504076,0.0004367891345913599,-0.007911963573960599,0.00603921265758964,0.9923645919657458
2014-06-24,1,0.0007578754407647659,0.0007629196326177158,-0.007911963573960599,0.00603921265758964,0.992402245507102
2014-06-26,1,0.0008933339458470464,0.0009175012127913085,-0.009216491574256531,0.005393927909186242,0.9921552144771394
2014-06-30,1,0.0011469388209858992,0.0011828076790002288,-0.010092711857983501,0.0034977878102046985,0.9908559446117609
2014-07-02,-1,-0.0005332590488989552,-0.00037440621468501085,-0.01095357651344016,0.0034977878102046985,0.9906480306649613
2014-07-07,-1,-0.0006794206248223753,-0.0005264863167192939,-0.01317139943108546,0.005432675522415505,0.989870463317168
2014-07-09,1,0.0005981654965299545,0.0006338690343577029,-0.013756323384149532,0.0025317534105465354,0.9884647162133278
2014-07-11,1,0.0008247343562538105,0.0008845252556190296,-0.013756323384149532,0.006155455497277429,0.9877744413373682
2014-07-15,1,0.0004671592068004206,0.00047512522657184995,-0.013756323384149532,0.005432675522415505,0.9885333948569835
2014-07-17,-1,-0.00010353674470231798,-3.0235435325177745e-05,-0.011827942950583443,0.007178026055632616,0.9888478822256548
2014-07-21,1,0.00038615250004705564,0.00039730486357232467,-0.011827942950583443,0.006401630888566058,0.9896659638462938
2014-07-23,1,0.00021077441946433848,0.00024891296978981237,-0.011827942950583443,0.007178026055632616,0.9889246508951204
2014-07-25,-1,-0.0005706076187374451,-0.00043000306287233433,-0.01040903053854124,0.007470383568670438,0.9889510721537891
2014-07-29,-1,-0.0004095242321773751,-0.0002523079539066725,-0.011429027869673036,0.007416704243818992,0.989789327525714
2014-07-31,-1,-0.0023524581219788844,-0.0019659089442167436,-0.003903266208997422,0.007857254510761665,0.9900273894866921
2014-08-04,-1,-0.002813032151115717,-0.0023833269279034614,-0.003903266208997422,0.007857254510761665,0.9899305655735671
2014-08-06,-1,-0.004438733839458907,-0.0038454671731916095,-0.0001614050912508891,0.008283006110114502,0.9901343950696881
2014-08-08,-1,-0.003314160411095185,-0.0028572925036322704,-0.003903266208997422,0.007857254510761665,0.9911447263788598
2014-08-12,-1,-0.004093603274299566,-0.003482072405049463,-0.005224915490304266,0.007857254510761665,0.9906840331303598
2014-08-14,-1,-0.0035073578216136356,-0.0029636538642929915,-0.0062819318938116655,0.008283006110114502,0.9904358926986505
2014-08-18,-1,-0.002968980659883814,-0.0025088820629461913,-0.0062819318938116655,0.009402685769799909,0.9897881172335302
2014-08-20,-1,-0.0019785878294436027,-0.0016605174478324168,-0.007581915361712413,0.008283006110114502,0.9904093837762888
2014-08-22,-1,-0.0016980030702129143,-0.0014290996606189901,-0.007581915361712413,0.009367573376629145,0.9902566309294639
2014-08-26,-1,-0.0018861485553625964,-0.0016020030258032535,-0.006995035350900601,0.009367573376629145,0.9909732224093638
2014-08-28,-1,-0.0010257202462868897,-0.0008455924467609713,-0.007366747199148819,0.007614388072414472,0.991502116648612
2014-09-02,-1,-0.0010257027547222696,-0.0008794626590318362,-0.006870541997274795,0.0052704169810416646,0.9924941921593617
2014-09-04,-1,-0.0012561639564881589,-0.0010580564351778698,-0.006405835843227738,0.0034424661908195636,0.993066244828668
2014-09-08,-1,-0.00017832901730588933,-0.00015961044985266678,-0.006174267933454805,0.0034424661908195636,0.9933571728143422
2014-09-10,-1,-0.0009157997709010053,-0.0007890393131819793,-0.005789847391698571,0.005560843373160803,0.9926647264265557
2014-09-12,-1,-0.0013443932772920155,-0.0011620234553295548,-0.005789847391698571,0.004541449539881467,0.9933675241484865
2014-09-16,-1,-0.00013455051235801408,-0.000121828984764559,-0.005789847391698571,0.00619824570687951,0.9936000246323209
2014-09-18,0,-3.39177195890638e-05,5.661372528415593e-05,-0.005962764600959508,0.00619824570687951,0.9937566300231809
2014-09-22,-1,-0.00015347783941555723,-9.026465628854589e-05,-0.0030309370873496523,0.006990768422046454,0.9932317357219118
2014-09-24,-1,-0.0008049246794853864,-0.0007400454094702077,-0.0014820726279696742,0.007118472901893391,0.9929818153963722
2014-09-26,-1,-0.0009117442159144787,-0.000836803325987605,-0.0014820726279696742,0.009598062529140496,0.9918407226722195
2014-09-30,-1,-0.0007962777705875289,-0.0007436690324946831,-0.0021806356528457104,0.009598062529140496,0.9915553234467674
2014-10-02,-1,-0.0013187188468097397,-0.0011564462057898515,-0.0017417560875874853,0.011569353632820162,0.9901419547576833
2014-10-06,-1,-0.0006404189149039526,-0.0005771023924988183,0.00015221557549545146,0.009882026598762614,0.9905819724200755
2014-10-08,1,0.0004637108800568836,0.0005530684840904831,-0.0038453362120299977,0.009882026598762614,0.9905238793926268
2014-10-10,-1,-0.00043675531861423356,-0.00034591325472222226,-0.0038453362120299977,0.009882026598762614,0.9890663655456471
2014-10-14,1,0.0002973061367063504,0.00031245469198398876,-0.006681397727166869,0.008937358780862072,0.9896086585342038
2014-10-16,1,0.00020336225690138022,0.00023809522005842446,-0.007869192704545062,0.008937358780862072,0.988907633212496
2014-10-20,1,0.0010461168101933086,0.00119588873808361,-0.007869192704545062,0.006803583629259877,0.9891894443007644
2014-10-22,1,0.0015968102345497036,0.0018452727370709245,-0.007869192704545062,0.005929292245200353,0.9894435805989353
2014-10-24,1,0.0020995400893098577,0.0024321118095761113,-0.005213998825632877,0.005179989523173762,0.9908233388495075
2014-10-28,1,0.0021144298391189567,0.0024500946953763614,-0.007869192704545062,0.003818360335436935,0.9902681851599523
2014-10-30,1,0.0028470799279460574,0.0032538996283634916,-0.007869192704545062,0.003818360335436935,0.9905126661614774
2014-11-03,1,0.002608632757284309,0.002944365896668229,-0.007869192704545062,0.006469127378531331,0.9903875719386449
2014-11-05,1,0.0033319322403528168,0.0037761055809569857,-0.005213998825632877,0.003998305379880594,0.9916636479604658
2014-11-07,1,0.0026475532412356464,0.0030417856736751885,-0.005213998825632877,0.003998305379880594,0.9924633882032609
2014-11-11,1,0.0023848319038579004,0.0027576056879499667,-0.005791525678508414,0.003998305379880594,0.9924390860867679
2014-11-13,1,0.001432629339884605,0.0016862275954649744,-0.003134480690913812,0.006523370034985401,0.9935493630723717
2014-11-17,1,0.002025689953082952,0.002371980800321912,-0.003980997259249255,0.003998305379880594,0.9937588259505871
2014-11-19,1,0.0023082396904718404,0.0027139584823151703,-0.003980997259249255,0.008699571241493637,0.9923465086127352
2014-11-21,1,0.0019725286158056633,0.00225493404009201,-0.003980997259249255,0.008699571241493637,0.9922073036799177
2014-11-25,1,0.0013215244077621,0.0015017932146693099,-0.0018474377869419159,0.0120413177529076,0.9920214363849716
2014-11-28,1,0.0021671431564318404,0.0024887892037279364,-0.0018474377869419159,0.01202865390602109,0.9917987312078982
2014-12-02,1,0.002455451853143293,0.0027975937038427186,-0.005826690458980208,0.01202865390602109,0.9902760171004441
2014-12-04,1,0.0022838791457493028,0.002587289040619106,-0.010513004680476667,0.01202865390602109,0.9894023398675064
2014-12-08,1,0.00226303987638426,0.0025438437703346525,-0.005826690458980208,0.011867398290346607,0.9900851540712393
2014-12-10,1,0.002113226529241943,0.002389402673391718,-0.004559602377530572,0.011867398290346607,0.9900593091204739
2014-12-12,1,0.002273039263352812,0.0025640160237111907,-0.004559602377530572,0.011867398290346607,0.9904448104180942
2014-12-16,1,0.0014623311611924486,0.0016107617782272602,-0.0013484954544216326,0.014243286048852607,0.9902835238489828
2014-12-18,1,0.002804585407922825,0.0031560309583321742,-0.0013484954544216326,0.009242553552082733,0.9919805781577993
2014-12-22,1,0.0022225268643472702,0.0023907091932444885,-0.001026018321470781,0.009974124733827375,0.9915260663052198
2014-12-24,1,0.0025853348900372808,0.0027631105062018743,-0.001026018321470781,0.008870201556685537,0.9923183327936549
2014-12-29,1,0.002387961041829112,0.0024719595591886127,-0.005048189558555068,0.00692017469436792,0.9921128886675318
2014-12-31,1,0.0014391114526989672,0.0014414254261936477,-0.0022123340620071037,0.00692017469436792,0.9929745364945549
2015-01-05,1,0.0009098997501853718,0.0009807430499044532,-0.0021627253290072983,0.006585169868948771,0.9936052953842535
2015-01-07,1,0.0016611433190700025,0.0017012963932902712,-0.004807030953495957,0.006402995056479492,0.9938603829943093
2015-01-09,1,0.0014638163977660735,0.0015017897565409275,-0.0058679329985010555,0.005616730647816825,0.9910400669550607
2015-01-13,1,0.0017190640496494698,0.0018186085761321433,-0.00983833025408027,0.006402995056479492,0.9896015459504467
2015-01-15,1,0.002262375092629521,0.002431564179838978,-0.00983833025408027,0.004326311026173349,0.9897515522230924
2015-01-20,1,0.0021772181759950717,0.002317817227030342,-0.00983833025408027,0.004326311026173349,0.9890924718296339
2015-01-22,1,0.002612314241623248,0.002842544872200264,-0.012392302594843,0.004312026854554062,0.9886621810449489
2015-01-26,1,0.0025473509057929644,0.002745001458333499,-0.012392302594843,0.004312026854554062,0.9887671055678267
2015-01-28,1,0.0018251789157292414,0.0019232893262723933,-0.01257739967181958,0.004312026854554062,0.9882199126335975
2015-01-30,1,0.0015458791436085031,0.0016210418913357874,-0.012853245845167593,0.0037674793297326993,0.9878675272868092
2015-02-03,1,0.0011689032357351072,0.0011693718772986745,-0.012853245845167593,0.0040992483505986905,0.9877049069850341
2015-02-05,1,0.0005672995522442469,0.0006543795966230384,-0.01588006514884511,0.005555768337187205,0.9862521466650276
2015-02-09,-1,-0.0016997436738542741,-0.0013812007595071455,-0.011654249094305588,0.005555768337187205,0.9893863440634942
2015-02-11,-1,-0.0021101180136361554,-0.0017130419255148362,-0.009534312845886754,0.005555768337187205,0.9896329818443945
2015-02-13,-1,-0.0023884665697644037,-0.001964705781731058,-0.011599891962085822,0.006935064849519938,0.9884511043570535
2015-02-18,-1,-0.0019149351387695121,-0.001530899019602698,-0.011599891962085822,0.006935064849519938,0.9881153905353295
2015-02-20,-1,-0.002309548201977694,-0.0018611141068566907,-0.009534312845886754,0.009210143207972452,0.9879778104960183
2015-02-24,-1,-0.002138558236249845,-0.0017056979145376155,-0.011599891962085822,0.009210143207972452,0.987839139137932
2015-02-26,-1,-0.0034240591947228838,-0.00283980734759049,-0.010728341822262694,0.009210143207972452,0.9877686489972258
2015-03-02,-1,-0.004113159137728169,-0.0034616688713634764,-0.00924379613261238,0.010595464599891342,0.9876193414883504
2015-03-04,-1,-0.003359016627056095,-0.0028423198836606146,-0.00924379613261238,0.010574750005945498,0.9879837332053233
2015-03-06,-1,-0.004589349279180676,-0.003918480013181966,-0.008732856809853275,0.011349971418917323,0.9890953300151608
2015-03-10,-1,-0.004098740936584567,-0.00350886645361979,-0.00924379613261238,0.011349971418917323,0.9891580709072663
2015-03-12,-1,-0.003891102808617734,-0.003286332433731596,-0.009109517968655976,0.010899803023035948,0.9899577113339547
2015-03-16,-1,-0.0032460184658249375,-0.0027613497596643737,-0.009109517968655976,0.010415011664919871,0.9902447612949135
2015-03-18,-1,-0.002150683801504385,-0.0018121331150651137,-0.009380201432250674,0.008368525474073366,0.9911735019609045
2015-03-20,-1,-0.0019044851544298305,-0.001613786405917889,-0.009380201432250674,0.008368525474073366,0.9912363822318961
2015-03-24,-1,-0.0021799099151563993,-0.0018595686276603502,-0.009380201432250674,0.008368525474073366,0.991336232506348
2015-03-26,-1,-0.002832160989612792,-0.002495808149230426,-0.006104002104967551,0.010899803023035948,0.9909031409266862
2015-03-30,-1,-0.001835899375405139,-0.0016240511616996594,-0.006104002104967551,0.008481717584302766,0.991902256632548
2015-04-01,-1,-0.001403318722997082,-0.0012641498980527294,-0.007451174436354648,0.008481717584302766,0.991399268590463
2015-04-06,-1,-0.0014901436191179563,-0.0013006597187700704,-0.007451174436354648,0.006739584684919744,0.9916382519363571
2015-04-08,-1,-0.0024126630417831392,-0.002107070734808843,-0.009700405810251852,0.006739584684919744,0.9905774512795774
2015-04-10,-1,-0.0026484243111660312,-0.0022547199267849644,-0.009700405810251852,0.006739584684919744,0.9903040279409274
2015-04-14,-1,-0.002501443065617424,-0.002160940178168119,-0.008756923919317712,0.005942699038626009,0.9907904884203242
2015-04-16,-1,-0.0026035663050338817,-0.002250895303185928,-0.009408321022908825,0.0072515621152355264,0.9901194135459838
2015-04-20,-1,-0.001980028392387945,-0.0017075212277535374,-0.009408321022908825,0.007077163760111863,0.9901302864515213
2015-04-22,-1,-0.0026185964842845057,-0.0022452390825238844,-0.007137994572062517,0.007077163760111863,0.9905650700320193
2015-04-24,-1,-0.001068432623313284,-0.0009052907771689615,-0.007137994572062517,0.005540491226389293,0.9921715815753723
2015-04-28,-1,-0.0006382416005413876,-0.000553378738658996,-0.007137994572062517,0.005540491226389293,0.9916209620102738
2015-04-30,-1,-0.001385470235604583,-0.0012164048980562183,-0.005970365562873655,0.005540491226389293,0.992304664534789
2015-05-04,-1,-0.0009040585647813865,-0.0007980853438219165,-0.007137994572062517,0.005141638885112453,0.9919244728290298
2015-05-06,-1,-0.0027293452697784585,-0.002396897501985464,-0.005970365562873655,0.005141638885112453,0.9932398709894664
2015-05-08,-1,-0.0018585708017439698,-0.0016397274301245008,-0.007137994572062517,0.0024596021114990795,0.9934600182976808
2015-05-12,-1,-0.002733194116592996,-0.002385622260520413,-0.005168269650538582,0.0037991441640327765,0.9933046132920941
2015-05-14,-1,-0.0017413730479061554,-0.0015919018658356223,-0.005168269650538582,0.0037991441640327765,0.994067196248175
2015-05-18,-1,-0.0010558020633124204,-0.0009943089097934727,-0.0053314743303706814,0.001655961607408069,0.9945170700267387
2015-05-20,-1,-0.0005509422693981792,-0.000509712288218335,-0.0053314743303706814,0.00407560324591092,0.9935753823859167
2015-05-22,0,-0.00014544577707987404,4.734893298026369e-06,-0.005954104130024635,0.00407560324591092,0.993338142562498
2015-05-27,-1,-0.00041535036592247785,-0.0003675551663195112,-0.007028699356257872,0.001965045196945123,0.9930879155941245
2015-05-29,-1,-0.00032458564447166604,-0.0002772942188531308,-0.007028699356257872,0.002496139471282692,0.9927216597761304
2015-06-02,-1,-0.0005582374232654744,-0.0004975275162962658,-0.006673542020501238,0.003792608433271957,0.9934455236278297
2015-06-04,-1,-0.0009111400454191305,-0.000886622717876289,-0.0064563968244535554,0.006066325688666196,0.9929061216465537
2015-06-08,-1,-0.00121220893005506,-0.0012080587733695081,-0.005498905228513654,0.006554813416602689,0.9918630852313975
2015-06-10,-1,-0.0004278260317820865,-0.00027958559413902276,-0.0064563968244535554,0.006066325688666196,0.992079987582542
2015-06-12,0,-0.00013486495265403417,7.146625132193186e-05,-0.005498905228513654,0.005659271872400958,0.9926079041908897
2015-06-16,1,6.799880248532287e-05,0.00032630113594177474,-0.004771860120207295,0.006066325688666196,0.9923932144681088
2015-06-18,1,0.0010372068258259685,0.0014456449564908818,-0.0064563968244535554,0.005659271872400958,0.9921323357998882
2015-06-22,1,0.0005350628527307143,0.000844700077246513,-0.0065959892995578005,0.005659271872400958,0.9919877730709878
2015-06-24,-1,-0.00021882570284641732,-1.9042988186303658e-05,-0.00457476446607888,0.005882664372292032,0.9923298444029736
2015-06-26,0,-7.904656205436544e-05,0.00014563770889846738,-0.0034127587570806864,0.006750474762103676,0.991895473476597
2015-06-30,1,4.675350340358614e-05,0.0002827122066455559,-0.0034127587570806864,0.006750474762103676,0.9920110134136242
2015-07-02,-1,-0.00028723724488540837,-0.0002466478704872656,-0.0034127587570806864,0.006070629942845377,0.9924416178944064
2015-07-07,1,0.0009007329341234691,0.0011071118510230528,-0.005245338044926513,0.006070629942845377,0.9932241155702776
2015-07-09,1,0.00045580218423969175,0.0005884081956525147,-0.004690887357936649,0.006070629942845377,0.9932056083113174
2015-07-13,1,0.0008055364052309932,0.001024624186543182,-0.004143941016649849,0.007260224967539304,0.993019570324833
2015-07-15,1,0.0009354593567828686,0.00116202121627386,-0.004143941016649849,0.007260224967539304,0.9929509276917377
2015-07-17,1,0.0011768625354936437,0.001455025316263162,-0.001600301149944693,0.007260224967539304,0.9935921305397643
2015-07-21,1,0.00017871943993702928,0.00026327721924972045,-0.0005247884434610944,0.007260224967539304,0.9938785869548098
2015-07-23,-1,-0.0003475249872179953,-0.0003156225514346138,-0.0005247884434610944,0.008762671794735059,0.9936701265813022
2015-07-27,1,0.0004999666017066006,0.0006105066886667086,-0.0027493606993204064,0.007260224967539304,0.9919613863024958
2015-07-29,1,0.000543001734166944,0.0005539967349381266,-0.006991558216237798,0.008762671794735059,0.9894965328303259
2015-07-31,1,0.0009805985724552582,0.0010369391610968574,-0.006991558216237798,0.009072712125990971,0.989191524450696
2015-08-04,1,0.0010563817652032043,0.0011464425370697896,-0.008262478321215525,0.009072712125990971,0.988384431102632
2015-08-06,1,0.001052400379032618,0.0011472277697863083,-0.008262478321215525,0.009072712125990971,0.988653717987132
2015-08-10,1,0.0017341449159938974,0.001969998981642498,-0.012129018955134166,0.009645314648072143,0.9869750610869138
2015-08-12,1,0.002297498536140364,0.0026180961753384142,-0.013642241057214856,0.0070843075599241615,0.9865831393544147
2015-08-14,1,0.0025097694463828944,0.0028420795737323125,-0.013642241057214856,0.006636597282435861,0.9866239787456165
2015-08-18,1,0.0019256432695066137,0.002113970075354958,-0.013642241057214856,0.007752437644165513,0.9863045574334859
2015-08-20,1,0.0022951685355094295,0.002576501311165694,-0.013642241057214856,0.009099727586735343,0.9856243437414319
2015-08-24,1,0.0012658447952026784,0.0014013538842677009,-0.011615529287165985,0.009099727586735343,0.9880149133634875
2015-08-26,1,0.0010009903410146083,0.0011284417661725507,-0.008013140204818015,0.007477812260050701,0.9900103508708883
2015-08-28,1,0.0012885609654659704,0.0014134822540293698,-0.008013140204818015,0.007477812260050701,0.9902525349518437
2015-09-01,1,0.00031113243714588805,0.0003201556067140895,-0.0019750147728844264,0.008386921205594311,0.9910869088180237
2015-09-03,1,0.0004250419769428511,0.0004374677920622926,-0.00348651655346745,0.008386921205594311,0.9906410401999116
2015-09-08,1,0.00087053563952311,0.0009343734439551526,-0.00348651655346745,0.008386921205594311,0.9912320654474949
2015-09-10,1,0.000643827935700318,0.0007043688543683584,-0.00348651655346745,0.010418741623992407,0.9906462811222705
2015-09-14,1,0.0006472247090896037,0.0006886682991398429,-0.00348651655346745,0.013367105864995728,0.9902640111684105
2015-09-16,1,0.0017897771586149489,0.002045793920707823,-0.00348651655346745,0.010418741623992407,0.9910685673650654
2015-09-18,1,0.002446664266702538,0.0027957793523255108,-0.0025077467023730637,0.009617920524472624,0.9920399063589521
2015-09-22,1,0.0016224768882964762,0.0018200967966246172,-0.002294865792715944,0.009617920524472624,0.9926472285207719
2015-09-24,1,0.002159626225870761,0.0024441314022540577,-0.002294865792715944,0.009617920524472624,0.9929858414659395
2015-09-28,1,0.0016629488877038866,0.0018066162850168639,-0.0024807503015175526,0.008955327515694222,0.9917449891185303
2015-09-30,1,0.0024579062508732195,0.0027353523694086624,-0.004859973993990997,0.006604584369003052,0.9916256017530047
2015-10-02,1,0.001775093422492617,0.001930646163786492,-0.004859973993990997,0.008039130822356856,0.9912908536917205
2015-10-06,1,0.0019171501379846231,0.0020950274479412593,-0.0027120633917320763,0.00639328575751338,0.9926728791080432
2015-10-08,1,0.0022575207339255517,0.0025054362093393664,-0.0027120633917320763,0.00505871257086081,0.9934424885536131
2015-10-12,1,0.002550749259138868,0.0028408375120653126,-0.0032688853397967025,0.00505871257086081,0.9915910018302226
2015-10-14,1,0.0027351241658703706,0.0030342518550866525,-0.0032688853397967025,0.00639328575751338,0.9911807215780063
2015-10-16,1,0.0029757048255846354,0.0033176917015774925,-0.004414737742720161,0.00505871257086081,0.9910515119722922
2015-10-20,1,0.003033289968596227,0.0033861386147899706,-0.006125922223820367,0.00639328575751338,0.9892288225813921
2015-10-22,1,0.002890965541328047,0.003180465077237304,-0.006125922223820367,0.007958001707645601,0.9885150184804025
2015-10-26,1,0.001720693057582603,0.0018184703355000234,-0.005956826235681462,0.007958001707645601,0.9895605767899927
2015-10-28,1,0.0009090219047003875,0.0009489810170913947,-0.004414737742720161,0.007958001707645601,0.9899170688294598
2015-10-30,1,0.0007587608952692466,0.0008066535640272625,-0.003989426637354999,0.006991768085473697,0.9907829762525435
2015-11-03,1,0.0006885219423699474,0.0007478003602971086,-0.004414737742720161,0.008438927258741062,0.9892776523066011
2015-11-05,1,0.0002673054967605292,0.000388586084224526,-0.005956826235681462,0.009609972454635421,0.9879900690648428
2015-11-09,0,-0.00011194267483123264,1.6745729812440817e-05,-0.005169362730989838,0.009338721272354772,0.9898924263201326
2015-11-11,1,0.00041553437672589555,0.0005069014360129166,-0.007365222293754124,0.006801585168638317,0.9893732069394029
2015-11-13,-1,-0.0006308270935459891,-0.0003677618327886938,-0.007365222293754124,0.006801585168638317,0.9895854853604181
2015-11-17,-1,-0.0008291688814387512,-0.000538231248701871,-0.006017613284129888,0.008720520475174737,0.9893492300762293
2015-11-19,1,5.065872758510531e-05,0.00023952756713007783,-0.007365222293754124,0.007229389745511733,0.9892008089589582
2015-11-23,1,0.00023488396311041615,0.00036182800436555254,-0.006017613284129888,0.0084245743411852,0.9890587905479372
2015-11-25,1,0.0006730347709475582,0.000687603659017225,-0.006017613284129888,0.011967031126322705,0.9884891267558599
2015-11-30,1,0.0006610585562913491,0.0006939773119392606,-0.006017613284129888,0.011967031126322705,0.9884388580579511
2015-12-02,1,1.3661414301945388e-05,0.00013178109028575736,-0.006017613284129888,0.0084245743411852,0.9896055407559796
2015-12-04,1,0.0004551107572035515,0.0005130014703571821,-0.0017326575008240893,0.007564061481446318,0.9908409844847901
2015-12-08,1,0.0004453076985828096,0.00050490715083184,-0.0017326575008240893,0.007451047102822173,0.9907733675593258
2015-12-10,-1,-0.0006891695873625112,-0.00046820975089821484,-0.0006605377488248978,0.008360249894365523,0.9914418175010964
2015-12-14,-1,-0.0011340932179349436,-0.0008495169252163069,-0.0021023077679083765,0.008360249894365523,0.9909553603237174
2015-12-16,1,0.0010797630589390711,0.0010951159869586468,-0.004738749365841298,0.007451047102822173,0.9922739619197315
2015-12-18,1,0.0006312664994155502,0.00066125123499931,-0.004738749365841298,0.008360249894365523,0.9914302101783102
2015-12-22,1,0.0013147256796307745,0.0013958864597085631,-0.005527943970314735,0.008360249894365523,0.9912444388613424
2015-12-24,1,0.001890916320500201,0.0020404681159762925,-0.008259139494184851,0.00790142414080484,0.991067995064121
2015-12-29,1,0.0020365222015922583,0.002198402399888126,-0.008259139494184851,0.008360249894365523,0.990189064303093
2015-12-31,1,0.001710113067161098,0.00186238946610869,-0.005527943970314735,0.013835437794636404,0.9892069296072279
2016-01-05,1,0.0021921315301433875,0.0024338200032688515,-0.005527943970314735,0.015105705204291296,0.9886305865099707
2016-01-07,1,0.0020525137475549526,0.0022950157798159385,-0.005527943970314735,0.015105705204291296,0.9881445534524839
2016-01-11,1,0.0022357661901135145,0.00250368660230137,-0.006079526453720391,0.015105705204291296,0.9880836206390274
2016-01-13,1,0.001757873140163339,0.001963602162678748,-0.006079526453720391,0.015105705204291296,0.9872671513043565
2016-01-15,1,0.0010636979624340957,0.0011338163516784545,-0.007072392300596388,0.013835437794636404,0.9875372381858312
2016-01-20,1,0.0002448100969039876,0.0003062428469716422,-0.00501809404859989,0.01394708798603892,0.9884657642485339
2016-01-22,1,0.0009147291664473391,0.0009594912974936551,-0.006338990421142903,0.013882751165569298,0.9883482417784439
2016-01-26,0,-0.00013810673940824317,7.258438239071718e-06,-0.0028326824954448045,0.013882751165569298,0.9890443595698579
2016-01-28,1,0.000679549565852331,0.0007208000543813954,-0.006338990421142903,0.01357843765654194,0.9876246604916814
2016-02-01,1,0.002205785670475899,0.002382644101920327,-0.006338990421142903,0.008580701501576226,0.9892939252085917
2016-02-03,1,0.0026168510382536926,0.002815611046671073,-0.006338990421142903,0.00818880658651656,0.9900021610654673
2016-02-05,1,0.0023051605286109537,0.0024663508756854417,-0.0028465991265566497,0.009044486649314117,0.9903281919779396
2016-02-09,1,0.0022231108538715684,0.0024015060471331857,-0.0015587141916415326,0.010725444252856013,0.990335407981361
2016-02-11,1,0.0018122541783589042,0.0019636428252430265,-0.0015587141916415326,0.010725444252856013,0.9916608670886935
2016-02-16,1,0.0013275202684029448,0.0013830005549322353,-0.00060091638201411,0.010725444252856013,0.9923527392855307
2016-02-18,1,0.0021898050741636275,0.002381700539769919,-0.00060091638201411,0.010725444252856013,0.9930606061092495
2016-02-22,1,0.0024467457972929627,0.0026804490138623155,-0.00060091638201411,0.007059231731033928,0.9935876798725288
2016-02-24,1,0.002728973771318974,0.0030310492331028084,-0.00035868599981818714,0.007059231731033928,0.9936354179069772
2016-02-26,1,0.0016396305515277818,0.0017718057436303916,-0.00035868599981818714,0.005052362671973391,0.9957945002671827
2016-03-01,1,0.0018210674916242235,0.001982575106961279,-0.00034630024695750925,0.007059231731033928,0.9952588296367068
2016-03-03,1,0.0018024088842074422,0.001967158635376133,-0.00019363773261288467,0.0095612659507621,0.9949307980028558
2016-03-07,1,0.0027511318270656993,0.003061567005723733,-0.0005778434172905919,0.005779606949488739,0.9945080620777411
2016-03-09,1,0.00339678021243049,0.003810052618309181,-0.0011868310343031059,0.004651226186566664,0.9945850076276275
2016-03-11,1,0.0033455266468648956,0.003761516921821398,-0.0011868310343031059,0.0050286615409441135,0.9943939166100045
2016-03-15,1,0.0033620140171466547,0.003780051562383833,-0.002735387301180003,0.006263502402892186,0.9937535700294902
2016-03-17,1,0.003969171013749995,0.004480322951294191,-0.0035298514421262246,0.006070271106301161,0.9935234590443704
2016-03-21,1,0.0030900590149791586,0.003431488707694959,-0.0035298514421262246,0.006070271106301161,0.9940316123381494
2016-03-23,1,0.0028703346634407364,0.00315267149579267,-0.006133242190825333,0.006070271106301161,0.9912907277723244
2016-03-28,1,0.0025329242793947727,0.0027487553700135314,-0.006133242190825333,0.00718743997951393,0.9913504079486566
2016-03-30,1,0.002950405990612266,0.0032178127197054628,-0.006133242190825333,0.00718743997951393,0.9913605630930301
2016-04-01,1,0.003043283095516358,0.003302760436279122,-0.0067731938124864915,0.0069864366178954505,0.9907436628022037
2016-04-05,1,0.0013092769896205564,0.001335204290373264,-0.005259120230542001,0.00718743997951393,0.9916903052220328
2016-04-07,1,0.0015715890941057741,0.0016129878320107131,-0.005259120230542001,0.007728817295480297,0.9911210042206566
2016-04-11,1,0.0013044681486498962,0.0013237584241360388,-0.006489478960069292,0.008180224046668499,0.9907257678547768
2016-04-13,1,0.0011624801426423645,0.0012046822023009116,-0.0042665736825957855,0.00718743997951393,0.9912794711453211
2016-04-15,1,0.0015520566145737612,0.001600257451395623,-0.0042665736825957855,0.007160509627583121,0.9914247863396857
2016-04-19,1,0.0011453559963177605,0.0011666660405251718,-0.005020927349567095,0.007160509627583121,0.9905243067545413
2016-04-21,-1,-0.0013300296955774495,-0.0010011807908236537,-0.003671658685980642,0.007954437161999636,0.9914083072432842
2016-04-25,-1,-0.0009759761325617191,-0.0006975435173013049,-0.005020927349567095,0.007405287781005814,0.991425470806018
2016-04-27,-1,-0.000690686851219873,-0.00041990873689739486,-0.005020927349567095,0.007405287781005814,0.9917193141165467
2016-04-29,-1,-0.0009276495857740608,-0.0006431029943441877,-0.003671658685980642,0.009217135892770425,0.9919633078833175
2016-05-03,-1,-0.00047495721828436804,-0.00023684151048894756,-0.003671658685980642,0.007347832193497896,0.9923266740004111
2016-05-05,-1,-0.0006538959904595591,-0.0003593919080737926,-0.003346142586917282,0.007347832193497896,0.9921813525775037
2016-05-09,-1,-0.0009300251386023242,-0.0005876631252121555,-0.003166445517171035,0.006623430491614081,0.992985340509482
2016-05-11,0,-0.0001719058783175607,7.70073701439561e-06,-0.002039411725747323,0.007347832193497896,0.9924165935894653
2016-05-13,-1,-0.00040581633417240213,-0.0001700308439234095,-0.003166445517171035,0.007070410301204021,0.9925301887957977
2016-05-17,-1,-0.0008506661602801308,-0.000587510383610306,-0.003166445517171035,0.007070410301204021,0.9931622303445216
2016-05-19,-1,-0.0008923468330233583,-0.000657154066027692,-0.002039411725747323,0.00731367410717214,0.9936910041180851
2016-05-23,-1,-0.0013421388812934188,-0.0010669781501646454,-0.002039411725747323,0.00731367410717214,0.9939080007312185
2016-05-25,-1,-0.0013575936613450142,-0.0010558829715574102,-0.002062673845430207,0.00573359685942249,0.9943423342814721
2016-05-27,-1,-0.0007533244905638259,-0.0005346249151012541,-0.002062673845430207,0.00731367410717214,0.9938577029885539
2016-06-01,-1,-0.0007104392270514958,-0.0004740001650079637,-0.002062673845430207,0.006516314439078508,0.994058985990348
2016-06-03,0,-0.00013712288015895244,2.4186269278099698e-05,-0.0016499576650593846,0.006516314439078508,0.9941555045392017
2016-06-07,-1,-0.0006026655308562509,-0.0003564653554479982,-0.0006353277274130475,0.00957968013727898,0.9933799883580287
2016-06-09,1,0.00020935047620498166,0.0003465172062703021,-0.002243006241840405,0.007260258139271023,0.99348723955827
2016-06-13,-1,-0.0004995930904261554,-0.00024183204705810815,-0.0012355530275632888,0.007260258139271023,0.9928153207540487
2016-06-15,-1,-0.000630596567747656,-0.000369526435992944,-0.0012355530275632888,0.007260258139271023,0.9926472748077175
2016-06-17,-1,-0.00036926824988228063,-0.00012130233143150214,-0.0012355530275632888,0.006259016961424064,0.9930830608003582
2016-06-21,-1,-0.0002800949602804468,-9.76450908853376e-05,-0.00294087385611011,0.006259016961424064,0.9929821821735675
2016-06-23,1,0.0006535356957840126,0.0007049302704901122,-0.0007494074676148265,0.00714064560644293,0.9930153469117958
2016-06-27,1,0.0020352035270801948,0.0022086195878815765,-0.0029647839144322434,0.006133776289428947,0.993974653668347
2016-06-29,1,0.0019921833055705374,0.0021367460013551783,-0.004609430111745034,0.006133776289428947,0.9933313987854024
2016-07-01,1,0.0024556724156043733,0.0026376332541965045,-0.004609430111745034,0.0056648795110716705,0.9939387016208616
2016-07-06,1,0.002541169066872403,0.0026907295620050994,-0.006543525215702923,0.0039234888626758545,0.9935608729229578
2016-07-08,1,0.002021617461509818,0.0020895276552321393,-0.006543525215702923,0.003018715533816889,0.994029262094716
2016-07-12,1,0.0016840348509136558,0.0017496424509840865,-0.006543525215702923,0.003617419126201873,0.9944376912474521
2016-07-14,1,0.0015746024302915758,0.001631222661824915,-0.004751173717419113,0.002975352376579344,0.995136393954416
2016-07-18,1,0.0017622784397673538,0.0018428386402776775,-0.006543525215702923,0.0024068902329557273,0.9942741929140698
2016-07-20,1,0.0008565068592156451,0.0009417499645376518,-0.008665338355211816,0.0025858978696729276,0.9938861470854933
2016-07-22,1,0.0011663594442915455,0.0012085225463742202,-0.010614957398378904,0.0025858978696729276,0.9927724579451698
2016-07-26,1,0.0008141599046467037,0.0008959783275244817,-0.010614957398378904,0.0025858978696729276,0.992911549462833
2016-07-28,1,0.0008010101153863215,0.0008373128208271554,-0.008665338355211816,0.0025858978696729276,0.9935347238075425
2016-08-01,1,0.0012153255959448275,0.0012723439214415077,-0.010614957398378904,0.0025858978696729276,0.9921130295662113
2016-08-03,1,0.0006408524866334576,0.0006680059735727094,-0.011788934763066736,0.002975352376579344,0.9920262549659545
2016-08-05,1,0.00024604484955222496,0.00031575118004323224,-0.01089455471167749,0.0036522459614331424,0.9919779816794649
2016-08-09,1,0.00028231377598345904,0.0003109275400077282,-0.005862860823527348,0.004808750249372267,0.9920460361264677
2016-08-11,1,0.0001550309860749912,0.0002103916868867052,-0.012769355192629202,0.004808750249372267,0.9904575969392769
2016-08-15,-1,-0.0004972863388937247,-0.0003721863492123787,-0.012769355192629202,0.008746530604432748,0.9898102443100709
2016-08-17,-1,-0.0005564155096221286,-0.0004296880968106157,-0.0060044893131940575,0.005173938475347305,0.990603388081954
2016-08-19,-1,-0.0002786914570577098,-0.00021105293774825308,-0.002760378505923314,0.007663786124572863,0.9911854219819604
2016-08-23,-1,-2.2578555822179647e-05,-1.7299777005886432e-05,-0.003425186150346666,0.008301648099078247,0.9903362216321028
2016-08-25,-1,-0.0005284032932484622,-0.0004234106632320656,-0.003425186150346666,0.008301648099078247,0.9899193880822942
2016-08-29,-1,-0.0011629194971056326,-0.0009870591578232688,-0.004942155711048016,0.008301648099078247,0.9905832820735703
2016-08-31,-1,-0.0014561805964170241,-0.001251208636825546,-0.004942155711048016,0.008301648099078247,0.9907406834224135
2016-09-02,-1,-0.000998225097367212,-0.0008516940340594717,-0.007425787266075838,0.006628542989776698,0.9908872859258138
2016-09-07,-1,-0.00044911970050481225,-0.0003757244674710752,-0.011416211381012707,0.00482885743041525,0.9905225549614205
2016-09-09,-1,-0.001875051791161982,-0.0016294605977662906,-0.00826759282926793,0.00482885743041525,0.9920068561390452
2016-09-13,-1,-0.0028408580956400748,-0.002363909024530453,-0.00826759282926793,0.00482885743041525,0.9925128019449911
2016-09-15,-1,-0.0024044777590068386,-0.0019930621784460213,-0.00826759282926793,0.007080761221718191,0.991945764063228
2016-09-19,-1,-0.0014104466845552138,-0.0011310966563365115,-0.00826759282926793,0.006344968411889261,0.9921523877499929
2016-09-21,-1,-0.0014933601028368133,-0.0012331367061280084,-0.00826759282926793,0.006233720438510962,0.9929016211848262
2016-09-23,-1,-0.0009220133267381097,-0.0007561125879508752,-0.00826759282926793,0.0024323679358987573,0.9927544655813271
2016-09-27,-1,-0.00138018307636358,-0.0011797406062220876,-0.006973760538292123,0.006803428272194015,0.9927475851287398
2016-09-29,-1,-0.002089345072824912,-0.001818189705917194,-0.005722645154379969,0.006803428272194015,0.9930949133073835
2016-10-03,-1,-0.0026889835664001245,-0.0023448440822437053,-0.0046612474348549544,0.0072537067199664055,0.9921057368829738
2016-10-05,-1,-0.0033777039997713097,-0.002966269978982408,-0.005722645154379969,0.0072537067199664055,0.991614649210005
2016-10-07,-1,-0.0037482894889116648,-0.0032565946955418123,-0.005722645154379969,0.0072537067199664055,0.9913585108706305
2016-10-11,-1,-0.004290106354497319,-0.003724351181603196,-0.0046612474348549544,0.008611976744751702,0.9912023126204529
2016-10-13,-1,-0.003666412432025991,-0.00314614875461039,-0.0071924770813791405,0.006469684352059118,0.9903016471034704
2016-10-17,-1,-0.0032093952648889782,-0.002755713374545874,-0.009235544749003743,0.005301483708803022,0.9897738853019985
2016-10-19,-1,-0.0026746729980782237,-0.0023083188392599343,-0.009235544749003743,0.005418973310544582,0.9891912755984998
2016-10-21,-1,-0.002867507171595795,-0.002495445696627614,-0.009235544749003743,0.005418973310544582,0.9892398291372249
2016-10-25,-1,-0.0019384754964100331,-0.0016993646873392997,-0.009235544749003743,0.0043764121881697884,0.9893007906051684
2016-10-27,-1,-0.0020386206052387455,-0.001790452707516222,-0.009235544749003743,0.006863970819869987,0.9885929221827043
2016-10-31,-1,-0.0006501934361339533,-0.0005972165358933727,-0.009235544749003743,0.007707172776654531,0.9883771301024388
2016-11-02,-1,-0.0020416258767774545,-0.0018189947817885954,-0.009966297964227249,0.007707172776654531,0.987778756117081
2016-11-04,-1,-0.0021419421863290507,-0.001901707297062783,-0.009696313259367444,0.010114096453874396,0.9873769839221958
2016-11-08,-1,-0.001283234245674404,-0.0011674293238243384,-0.009696313259367444,0.010114096453874396,0.9871000368626146
2016-11-10,-1,-0.003499972872383679,-0.0031193952933959842,-0.00622025297072048,0.012730566380663853,0.9885052693107081
2016-11-14,-1,-0.004046943272015414,-0.003598735306138044,-0.0033752964220308173,0.013201787926189403,0.9878104847733338
2016-11-16,-1,-0.0031500304362443625,-0.002855502055641463,-0.0033752964220308173,0.013201787926189403,0.9880419491855488
2016-11-18,-1,-0.0031249801967877903,-0.002845002190936468,-0.0015035364610549282,0.013201787926189403,0.9873278924396125
2016-11-22,-1,-0.0020218159985364043,-0.0019138162027725334,-0.0023501490218146843,0.012479907073992522,0.9881504247810018
2016-11-25,-1,-0.0011330828419635315,-0.0010986157140174424,-0.001120667542659215,0.01151973695572765,0.9891734323305521
2016-11-29,-1,-0.0002866679823261946,-0.00015000805715557306,-0.0024929437798318728,0.009781145408329733,0.990283250266224
2016-12-01,-1,-0.002206416052391638,-0.002080346323462469,-0.001120667542659215,0.01151973695572765,0.9908920285365893
2016-12-05,-1,-0.0013756951492380372,-0.0013474283385045583,-0.001665523555806043,0.01151973695572765,0.992104681520967
2016-12-07,-1,-0.00047019736577467346,-0.0003592588992722798,-0.001665523555806043,0.008072391043926317,0.9930598969438631
2016-12-09,0,-9.099302599225505e-05,5.788822939780476e-05,-0.0036466955020981605,0.0067353927250898655,0.9930434936680801
2016-12-13,1,0.0011002658168602114,0.0014326111471635993,-0.0036466955020981605,0.00571854469835394,0.9935928067580638
2016-12-15,1,0.0008326700461530445,0.001124892077963976,-0.0030811397309723648,0.005808883252579374,0.9941957574514676
2016-12-19,1,0.0011149667702688147,0.0014259923921835025,-0.005163931326925785,0.004569782433848209,0.9937444494990444
2016-12-21,1,0.001247874516439003,0.001590159473876936,-0.003648589030815625,0.0038643777925176483,0.9939330695555794
2016-12-23,1,0.0013205667579559534,0.0016507805196940815,-0.004250841322620675,0.0021431171250873276,0.9940080180618708
2016-12-28,1,0.0008428722522838274,0.001094170393780218,-0.003379907709167157,0.0038290078697497975,0.9945931867006369
2016-12-30,1,0.0010944049128221484,0.0013683241356715645,-0.0031772634165146757,0.004175535679814852,0.9948174958104316
2017-01-04,1,0.0011508163488300228,0.0014462848201107848,-0.003379907709167157,0.005303598439213557,0.9937675226123842
2017-01-06,1,0.0010889061147527196,0.00133793433438837,-0.00345531379935512,0.004256850223946943,0.9936940867769348
2017-01-10,1,0.0006072837578272987,0.0007948896367081724,-0.0032042923086281283,0.004256850223946943,0.9943009297365707
2017-01-12,1,0.0012433734382113172,0.0015139979744926454,-0.00345531379935512,0.004256850223946943,0.9945418538198453
2017-01-17,1,0.0015399998765939676,0.0018480943430367561,-0.004357887361980381,0.0038384095823152647,0.9943624128138248
2017-01-19,1,0.0010357868319264179,0.0012823125113465609,-0.0032042923086281283,0.004256850223946943,0.9950620354159717
2017-01-23,1,0.0007861413172905797,0.0009604185284517258,-0.0026963887768338664,0.006446842212587724,0.9945859968686261
2017-01-25,1,0.0005959044858131478,0.0007218517405826944,-0.002150606166676578,0.008390976211863722,0.9938838073267126
2017-01-27,1,0.001023851145937441,0.0012282751466585501,-0.0026963887768338664,0.008904331312898172,0.9931171764183925
2017-01-31,1,0.001840389115563703,0.002177806775181105,-0.00394880621548903,0.008390976211863722,0.9931638899518715
2017-02-02,1,0.001120151009611015,0.0012902587984759246,-0.0026963887768338664,0.006947842156415711,0.994043355080062
2017-02-06,1,0.0012048601763512234,0.0013861478020201546,-0.002515362920080366,0.006947842156415711,0.9940784901021519
2017-02-08,1,0.0013296763267721112,0.0015398144258548965,-0.005057779700271586,0.006947842156415711,0.9930890893883894
2017-02-10,1,0.0017118669468487086,0.0020071634471363993,-0.003106278656816443,0.0069817920469878395,0.9932466834093954
2017-02-14,1,0.00153721522420424,0.0018358368721806597,-0.0018823118501241432,0.008528800549394332,0.9932564793702409
2017-02-16,1,0.0019468233307029126,0.002309516850782523,-0.003106278656816443,0.008528800549394332,0.9927977638577434
2017-02-21,1,0.0021962534566304145,0.0025556871802862972,-0.004847534560263955,0.008528800549394332,0.992519597396364
2017-02-23,1,0.0025658603520337673,0.0029453815309266364,-0.004847534560263955,0.00689293752631403,0.9928719804795874
2017-02-27,1,0.002587533893521237,0.0029364959905857193,-0.003106278656816443,0.006418716180072771,0.9937167551664051
2017-03-01,1,0.0018590170998347203,0.0020638006147171758,-0.003106278656816443,0.006418716180072771,0.994111401497336
2017-03-03,1,0.0018399598810824925,0.0020279726547858673,-0.0037492618643293384,0.006418716180072771,0.9939898359339573
2017-03-07,1,0.0014973533132757828,0.001620254125617756,-0.0037492618643293384,0.006418716180072771,0.9943073715806681
2017-03-09,1,0.0010871846929694543,0.0011912616140765321,-0.0018803313860800673,0.00689293752631403,0.9949516474783596
2017-03-13,1,0.0016225237537267853,0.0018104490640908862,-0.003175197717220056,0.0054975494145313684,0.9952103451795107
2017-03-15,1,0.002049136810997581,0.002297346088198676,-0.003175197717220056,0.00526452785320369,0.9954917475720938
2017-03-17,1,0.0016872665613710325,0.0018633260935214434,-0.003175197717220056,0.003481079708176357,0.9960228136568816
2017-03-21,1,0.002141895379744288,0.0024053389916260455,-0.003175197717220056,0.003106632104721374,0.9965237766701817
2017-03-23,1,0.00223649713793492,0.002500542005735757,-0.0034423121272746772,0.003106632104721374,0.9963003631828673
2017-03-27,1,0.0027425162629019116,0.0031211129064637787,-0.0034423121272746772,0.0027456417396680335,0.9961435111062134
2017-03-29,1,0.0018787584492200447,0.002081470920789954,-0.003175197717220056,0.003106632104721374,0.996499615406763
2017-03-31,1,0.0016037970864619241,0.0017612102831826137,-0.003569862951856115,0.003106632104721374,0.9962673185480787
2017-04-04,1,0.0017989564566260326,0.001976224724730318,-0.003569862951856115,0.004141185042838741,0.9958479541382523
2017-04-06,1,0.000905171709740962,0.0009747808105813711,-0.003569862951856115,0.004090707489455778,0.9961887121694339
2017-04-10,1,0.0003883624472381544,0.0005488784233572733,-0.0037570717633531917,0.004090707489455778,0.9957409444056526
2017-04-12,1,0.00046849155073418105,0.0006189868259325354,-0.0037570717633531917,0.003106632104721374,0.99598150711379
2017-04-17,1,2.8652662429033715e-05,0.00025352852165879227,-0.0036390751987074067,0.005814524888001914,0.9956242324405273
2017-04-19,1,8.451159356938755e-05,0.00028689522757102584,-0.004080689009403052,0.005814524888001914,0.9952499166633954
2017-04-21,1,0.00019017425497516683,0.0003663902879563596,-0.00287002513013572,0.005800809253441907,0.9953846427243297
2017-04-25,1,0.0006107342064080907,0.0007134770715791404,-0.00287002513013572,0.006015818939536548,0.9950215154019616
2017-04-27,-1,-0.00039358185072097256,-8.602621788605762e-05,-0.0022042407220992264,0.007397314785044651,0.9943830132846079
2017-05-01,-1,-0.0005180959260633196,-0.00022258201269928523,0.0013614896131929526,0.007397314785044651,0.994394468561128
2017-05-03,1,4.613653201248095e-05,0.0002505980239928766,0.0016968632014840324,0.007397314785044651,0.9944564705974613
2017-05-05,1,0.0004911630339184425,0.0006187699292425706,0.0013614896131929526,0.007397314785044651,0.9945434931967922
2017-05-09,1,0.000441829114136092,0.0005049670900662857,0.0019290640434635575,0.007397314785044651,0.9947940897784521
2017-05-11,1,0.00023071384678870606,0.0003313580697684628,0.0004288177055049524,0.007397314785044651,0.9942858840594363
2017-05-15,1,0.0010042793718770496,0.001026471153906789,-0.001866958309725056,0.006476063744778354,0.9947779909015481
2017-05-17,1,0.0006185674593749191,0.0006482549881942567,0.0004288177055049524,0.006476063744778354,0.9950720746266324
2017-05-19,1,0.0009142558549790013,0.000928359469443496,-0.001866958309725056,0.006476063744778354,0.9950930741073154
2017-05-23,1,0.0010565196002230762,0.001061314306348844,-0.0025826077466452792,0.006476063744778354,0.9952048675236886
2017-05-25,1,0.0016755302748947686,0.0017754821678238025,-0.0037188700232838926,0.0050957312807060375,0.9953193876554961
2017-05-30,1,0.0017108193928907496,0.0018080312083825342,-0.004039758285718987,0.00485192709257074,0.9944931893488549
2017-06-01,1,0.00213605722714864,0.002294232164441253,-0.006656696813894065,0.003992632063215719,0.9939895021544681
2017-06-05,1,0.0018397167542096582,0.0019127221950051138,-0.007034242172941499,0.0034909640415904915,0.993898442645408
2017-06-07,1,0.0021429456403107786,0.0022918154174137173,-0.007034242172941499,0.0030197766403761315,0.9940806155257645
2017-06-09,1,0.0018689203323695937,0.0019857228254052356,-0.006387982385942117,0.0030197766403761315,0.9945766310158846
2017-06-13,1,0.001283226986367618,0.0012871148938279442,-0.005419640215594483,0.0026025673520475305,0.9949870476974738
2017-06-15,1,0.001384646288279603,0.0013940060196321708,-0.007034242172941499,0.0019574341462805195,0.9944426054898223
2017-06-19,1,0.001094263162051066,0.001131749192920989,-0.007034242172941499,0.0019574341462805195,0.9945892579158271
2017-06-21,1,0.001241678415251411,0.0012536399675595585,-0.007034242172941499,0.0019574341462805195,0.9948033077234656
2017-06-23,1,0.0010426038890997606,0.001054517276663559,-0.007034242172941499,0.002360762901136677,0.9940886113909113
2017-06-27,1,0.00031150174659815396,0.0004244687085534962,-0.005485348815479999,0.002360762901136677,0.9946296604445337
2017-06-29,-1,-0.0004151961053165032,-0.00021551844887977042,-0.003487020303391747,0.003240130776138354,0.9945297342072955
2017-07-03,-1,-0.0009179704729567681,-0.0006550111720538417,-0.0029278102565083513,0.003240130776138354,0.9947369297188976
2017-07-06,-1,-0.0009714393425595129,-0.0007041853476291886,-0.0029278102565083513,0.0042791093531201665,0.9945064508821916
2017-07-10,-1,-0.0013929279534512964,-0.0010503355598377243,-0.0029278102565083513,0.004685835253362814,0.9941294042061936
2017-07-12,-1,-0.001276823201882426,-0.0009630562046536892,-0.003670621544506915,0.004685835253362814,0.9940941488580421
2017-07-14,-1,-0.0014658150639834764,-0.001159134216089527,-0.003670621544506915,0.005590028530380339,0.9936706999471662
2017-07-18,-1,-0.0009750889199339464,-0.0007735610352116656,-0.003670621544506915,0.006697357633796202,0.9933997925884256
2017-07-20,-1,-0.0005325645673704632,-0.00039839227311386726,-0.003670621544506915,0.0069561548473387885,0.9934413169856809
2017-07-24,-1,-0.0005594614917129343,-0.0004059853660916382,-0.0012692455651199094,0.0069561548473387885,0.9944111208047577
2017-07-26,-1,-0.00030808416506776515,-0.00019463449787577783,-0.0003483193785129632,0.006886522236370568,0.9947085015288585
2017-07-28,1,0.00013497881558621725,0.000209637956308808,0.0007490474814012359,0.00667802420068889,0.9957382846477815
2017-08-01,-1,-0.0005475391594960545,-0.00035947301491938866,-0.0003483193785129632,0.006886522236370568,0.99516954719729
2017-08-03,1,7.149612802929847e-05,0.00016085952163394043,-0.0017601646067333067,0.006886522236370568,0.9955592218094794
2017-08-07,1,0.00043006793354637634,0.0004533862584403912,-0.0013234975947944622,0.006886522236370568,0.9957388149046199
2017-08-09,0,-2.3086747416689807e-05,6.318048118435617e-05,-0.0013234975947944622,0.0069561548473387885,0.9950985839125281
2017-08-11,-1,-0.00014656135844653203,-6.077804630468106e-05,-0.0005138100715022953,0.0069561548473387885,0.9954007838930401
2017-08-15,1,0.0006638892586497,0.0006735417669978212,-0.0017601646067333067,0.006898154548016851,0.9949043416819107
2017-08-17,1,0.0009329741973045147,0.0009831811909633693,-0.0017601646067333067,0.005373853290039737,0.9951356128626889
2017-08-21,1,0.0011141029350337426,0.0011746044630670653,-0.0029304223334339847,0.004858329235276237,0.9947129612707656
2017-08-23,1,0.0012594216397952627,0.0013278469316091585,-0.004051444644697181,0.004416077789314444,0.9945298044962727
2017-08-25,1,0.0014140404714722266,0.0014961726221503322,-0.004904057068761591,0.004858329235276237,0.9936343804334304
2017-08-29,1,0.0015930522475563862,0.0017063820574906461,-0.007936149262146204,0.004416077789314444,0.9933593503981235
2017-08-31,1,0.001285934871764394,0.0013470803315265738,-0.007936149262146204,0.004416077789314444,0.9934217344556613
2017-09-05,1,0.0014726722271186101,0.0015659584983703082,-0.007936149262146204,0.0030964427645089614,0.9936160725816441
2017-09-07,1,0.001222540355949734,0.001275366765807663,-0.004904057068761591,0.0030964427645089614,0.9936207093826283
2017-09-11,1,0.0014395014494262479,0.0015241158591587835,-0.004904057068761591,0.0027030263989202006,0.9938294359628947
2017-09-13,1,0.00037098238886357866,0.00042115708663864165,-0.0037691395043477267,0.0032695218701470517,0.9946956562930174
2017-09-15,1,0.0005342528508310326,0.0005707059163093332,-0.0037691395043477267,0.0034796740753811196,0.9944333812808318
2017-09-19,0,-9.793212193495601e-05,5.799968925818556e-06,-0.0026428549866125963,0.0034796740753811196,0.9950955787727318
2017-09-21,-1,-0.0007437872661493978,-0.0005446239720407003,-0.0021043911122983856,0.005498448685512514,0.9946551602292087
2017-09-25,-1,-0.0008664529606383491,-0.0006632100806535572,-0.0011052702285684712,0.0034796740753811196,0.9954028993144827
2017-09-27,-1,-0.001175421700351235,-0.0009478112824482454,-0.0011052702285684712,0.0034796740753811196,0.9956877712686985
2017-09-29,-1,-0.001765612651044011,-0.0014408497262076967,-0.0006128445317116415,0.003921463693225269,0.995300657373847
2017-10-03,-1,-0.0017094919919814502,-0.0013970679522803085,-0.0004512743649241878,0.003921463693225269,0.9951230031966852
2017-10-05,-1,-0.0006317119144865944,-0.0004733779522816796,-0.0012218807212187664,0.003308130624791598,0.9962736156186858
2017-10-09,-1,-0.0007063588946987379,-0.0005241398755947305,-0.0024895563550255194,0.003864491039626636,0.9960236384199999
2017-10-11,1,4.882535402671732e-05,0.0001273755392481057,-0.0024895563550255194,0.0037408544563362458,0.9956259636498458
2017-10-13,1,0.0002901732901359548,0.00029691993897076023,-0.0029262686530295294,0.003308130624791598,0.9956326224027071
2017-10-17,1,0.0006072966002906157,0.0006806045133280332,-0.0029262686530295294,0.004512440825148378,0.9941329090823001
2017-10-19,1,0.0011531051355198265,0.0012994893724468108,-0.004119951576976735,0.0037408544563362458,0.9942952284658938
2017-10-23,1,0.0014358244466141136,0.0016506008822941985,-0.004781090617593129,0.0037408544563362458,0.9941450102638117
2017-10-25,1,0.0013343284961992185,0.0015374251625475794,-0.004119951576976735,0.004334977660940546,0.9941777088558064
2017-10-27,1,0.001596886370951857,0.001840720128610834,-0.004119951576976735,0.004334977660940546,0.994101221102727
2017-10-31,1,0.001541543155876286,0.0017513171089454174,-0.004119951576976735,0.004334977660940546,0.9940764328941853
2017-11-02,1,0.0010741737651654888,0.001214843363926338,-0.0029396528010599238,0.004512440825148378,0.9940598193981419
