JNU-Tangyin/eata/results/Batch4_SP500/Batch4_SP500-FMC.csv
Date,Action,Predicted_Q25,Predicted_Q75,Actual_Q25,Actual_Q75,RL_Reward
2010-12-14,0,0.0,0.0012705103341659001,-0.005171339061187877,0.003736965252296213,0.9939171698316767
2010-12-16,0,0.0,0.0,-0.004624114884470942,0.0024609007225616904,0.9937964063203774
2010-12-20,0,0.0,0.0,-0.005458027335427074,0.003736965252296213,0.992168772146378
2010-12-22,1,0.001652870144134344,0.0017740367083926936,-0.005810889998666829,0.0035741044251130097,0.992023604956288
2010-12-27,0,0.0,0.0,-0.005810889998666829,0.004650613211004118,0.9917897885340872
2010-12-29,0,0.0,0.0,-0.006932888257423431,0.004650613211004118,0.9916587577973115
2010-12-31,0,0.0,0.0,-0.009553943533538037,0.00552504487405967,0.990438341466085
2011-01-04,0,0.0,0.0,-0.006932888257423431,0.005862525931715475,0.9900320934897471
2011-01-06,1,0.00025611651477209656,0.0003614067187795967,-0.0033938292138137424,0.0093851752830659,0.9905116897344486
2011-01-10,-1,-0.0009907018082392592,-0.0005447534953908696,-0.0011547492034276173,0.011634443398152556,0.9890673003188918
2011-01-12,-1,-0.0010028054783194989,-0.0007015718697315852,-0.004992996233296004,0.010201772096779346,0.9891365736935194
2011-01-14,-1,-0.0010428155222082921,-0.0006913405599689918,-0.0015287486230131514,0.010201772096779346,0.9893004569134505
2011-01-19,-1,-0.0015084772459351148,-0.0011049774328414498,-0.0015287486230131514,0.010201772096779346,0.989419187157387
2011-01-21,0,0.0,0.0,-0.0015287486230131514,0.010201772096779346,0.9901925980739126
2011-01-25,0,0.0,0.0,-0.009232145299233769,0.009600100804446092,0.9874280797509458
2011-01-27,-1,-0.001100437035486322,-0.000875437798107319,-0.009974284549378034,0.010994713786597391,0.9866503163559347
2011-01-31,-1,-0.0011103459495120935,-0.0008828355298228343,-0.009974284549378034,0.010994713786597391,0.986514730513633
2011-02-02,0,0.0,0.0,-0.009974284549378034,0.011801380230685811,0.9868270816551721
2011-02-04,0,0.0,0.0,-0.015156006922311243,0.011801380230685811,0.9858585941290985
2011-02-08,0,0.0,0.0,-0.018059281614814637,0.011801380230685811,0.985731109275675
2011-02-10,0,0.0,0.0,-0.018059281614814637,0.011801380230685811,0.9853497576510049
2011-02-14,0,0.0,0.0,-0.018059281614814637,0.011801380230685811,0.9849715525554297
2011-02-16,-1,-0.0002849847886980262,-4.123232490107977e-06,-0.014758573030483174,0.011342815954517265,0.9862597615455749
2011-02-18,-1,-0.00044131545299028066,-0.0001516119944346354,-0.014758573030483174,0.012300941149453138,0.9845356361272273
2011-02-23,0,0.0,0.0,-0.009810288457945258,0.012898669779977907,0.9864252117527635
2011-02-25,-1,-0.0034017922484624085,-0.00287349030866991,-0.007039019514471168,0.012898669779977907,0.9856270190581343
2011-03-01,-1,-0.0030525033591056274,-0.0025952802173031006,-0.005873900282825697,0.012898669779977907,0.9863525194356781
2011-03-03,-1,-0.0020056224802724606,-0.0016640990533213491,-0.005873900282825697,0.01229548401470906,0.9878974484506841
2011-03-07,-1,-0.003113191712816454,-0.002647028459087263,-0.0011589495794598762,0.012882298375745666,0.9874845316406294
2011-03-09,0,0.0,0.0,-0.0011589495794598762,0.01229548401470906,0.989917348271254
2011-03-11,0,0.0,0.0,-0.004696031764879968,0.01229548401470906,0.9904319654373618
2011-03-15,0,0.0,0.0,-0.005404586959564443,0.01229548401470906,0.9900316562551994
2011-03-17,0,0.0,0.0,-0.005404586959564443,0.01229548401470906,0.9900715163911818
2011-03-21,0,0.0,0.0,-0.006585217676333283,0.009692276171199018,0.9915528385136229
2011-03-23,-1,-0.0019340679001320126,-0.0017047095583964571,-0.006585217676333283,0.009692276171199018,0.991012872402198
2011-03-25,0,0.0,0.0,-0.006958382994341226,0.009122622563691677,0.9916654122749927
2011-03-29,0,0.0,0.0,-0.00685294237596671,0.008941920379194829,0.9920217090039424
2011-03-31,0,0.0,0.0,-0.00685294237596671,0.00888416625937236,0.9921534350561775
2011-04-04,0,0.0,0.0,-0.007492420401395859,0.006248480443383134,0.9910344809262176
2011-04-06,0,0.0,0.0,-0.008075337012331542,0.006248480443383134,0.9907799446006389
2011-04-08,0,0.0,0.0,-0.0076516559439320205,0.008885064514458247,0.9901017642369146
2011-04-12,0,0.0,0.0,-0.0073353340888084725,0.008885064514458247,0.9896695510665654
2011-04-14,0,0.0,0.0,-0.0073353340888084725,0.008661054345926202,0.9896325962074967
2011-04-18,-1,-0.0005233834231743869,-0.0004999710455984372,-0.007955720250061386,0.008196592579917153,0.9898592307079208
2011-04-20,1,0.0008089771637682689,0.0010113851930591102,-0.007955720250061386,0.008196592579917153,0.9902007354294131
2011-04-25,1,0.0007609529548322606,0.0009120402555612492,-0.011249433258178307,0.0061163442945505585,0.9899513675149566
2011-04-27,0,0.0,0.0,-0.011249433258178307,0.0061163442945505585,0.9902947712939854
2011-04-29,1,0.003278318705211362,0.0037007603763484463,-0.011249433258178307,0.005240036195230958,0.9898300916290813
2011-05-03,1,0.0018150291373300771,0.002057282627991801,-0.007719644869259381,0.008267976940722621,0.9904482316480692
2011-05-05,1,0.001493171495168966,0.0017047144593493205,-0.00804223472850749,0.008267976940722621,0.9899566255622312
2011-05-09,0,0.0,0.0,-0.008446440977759418,0.004143610615769934,0.9908902567804077
2011-05-11,0,0.0,0.0,-0.00789748299530129,0.004143610615769934,0.9908147928166503
2011-05-13,0,0.0,0.0,-0.011988098260425448,0.004143610615769934,0.9900014903974446
2011-05-17,0,0.0,0.0,-0.011938497858854296,0.005443556704869003,0.9884427054218492
2011-05-19,0,0.0,0.0,-0.011938497858854296,0.0027313984399603697,0.989233502888188
2011-05-23,0,0.0,0.0,-0.010565790620730174,0.009415712062726515,0.9885514663469926
2011-05-25,1,0.27257783304285477,0.2901611144058347,-0.010565790620730174,0.005825778130448942,0.7799738789162001
2011-05-27,1,0.00038824475842777115,0.0004121468925172432,-0.010565790620730174,0.012119476777982847,0.9880704216338956
2011-06-01,0,0.0,0.0,-0.00789748299530129,0.015458582462760313,0.9888497830845632
2011-06-03,0,0.0,0.0,-0.0060850718268713865,0.01612278117605334,0.9888559771822055
2011-06-07,0,0.0,0.0,-0.0015224927952189934,0.01612278117605334,0.9888179373620115
2011-06-09,0,-0.002244908562909495,0.0,-0.0015224927952189934,0.015458582462760313,0.9896409003159841
2011-06-13,-1,-0.002585404514856859,-0.0021755160080205007,-3.008976754185812e-05,0.015458582462760313,0.9884147937747766
2011-06-15,-1,-0.002142362030985682,-0.0017728024789193946,-3.008976754185812e-05,0.01469160824689651,0.9900865344088479
2011-06-17,-1,-0.0019111979198762057,-0.0015851105527472486,-0.0015224927952189934,0.01469160824689651,0.989301361812976
2011-06-21,-1,-0.0007011718886500432,-0.0005228582186155019,-0.0015224927952189934,0.011761751588860789,0.9897705088387151
2011-06-23,0,0.0,0.0,-0.001825407640032125,0.014753982123712789,0.987614021591045
2011-06-27,1,0.00045903784767334073,0.0005165586596066867,-0.006222212137281944,0.011761751588860789,0.9883255223747388
2011-06-29,1,0.0011940842847678306,0.0013095045553907889,-0.007776544975474792,0.00956376656096223,0.9882099593043144
2011-07-01,1,0.002400835324378918,0.002730601759354985,-0.009444851653569593,0.009018382619098065,0.9884070639189695
2011-07-06,1,0.001961448118964109,0.0021906094090247685,-0.010890207281486626,0.009018382619098065,0.9851567551016126
2011-07-08,1,0.002001145079497701,0.0022342247719726147,-0.013419733000841105,0.006883572469114055,0.9826846848571453
2011-07-12,1,0.0014151852864026683,0.0015671878687334244,-0.013419733000841105,0.009018382619098065,0.9765187369245872
2011-07-14,1,0.0012001564722644309,0.001317839426169728,-0.019191358081004577,0.00956376656096223,0.9728801648615034
2011-07-18,-1,-0.00016592004694233073,-1.4414855490011813e-05,-0.017053967779135742,0.00922988774169508,0.9735250097094543
2011-07-20,1,0.0007600203621635556,0.0007989636827304813,-0.028070123574803804,0.006607338222063454,0.9733308814838182
2011-07-22,1,0.0014576994384371963,0.0014944723291286325,-0.03373094374063237,0.005619773593786757,0.9718084457061335
2011-07-26,1,0.0017517496304954134,0.001885401478371398,-0.03373094374063237,0.006607338222063454,0.9694639512985923
2011-07-28,1,0.0002467608290431416,0.00035604951678289793,-0.031707004899547676,0.008267000104193286,0.9703419604192305
2011-08-01,1,9.392257844127228e-06,0.00015820240322382545,-0.031707004899547676,0.01588660828813089,0.9686655130675429
2011-08-03,-1,-0.0017682313890249894,-0.0014057051980838119,-0.018839167932461015,0.020499768878362357,0.9710529774002674
2011-08-05,-1,-0.0040145967504706965,-0.0033716121861219277,-0.01929457208231706,0.020499768878362357,0.9721689727405071
2011-08-09,-1,-0.004475949651278442,-0.00379688396812272,-0.016138866195085956,0.020499768878362357,0.9773339289890444
2011-08-11,-1,-0.0035236545079511843,-0.00303123551864811,-0.016138866195085956,0.014493366845988679,0.9800964486381333
2011-08-15,-1,-0.0027855006047273648,-0.00241421001008776,-0.016138866195085956,0.020499768878362357,0.9791283252483826
2011-08-17,-1,-0.0034919047086011804,-0.0030663895854769426,-0.014527366326866287,0.02521936167158943,0.9776634622137043
2011-08-19,-1,-0.005434132688240679,-0.0047963413931463375,-0.011011220791229216,0.02521936167158943,0.9803325207824687
2011-08-23,-1,-0.0033385435456365236,-0.0029627230880682467,-0.012193871786591495,0.02281868308338208,0.9810542222506756
2011-08-25,-1,-0.0032881132651497963,-0.0029591098025420004,-0.014679167710151635,0.02281868308338208,0.9793752597852179
2011-08-29,-1,-0.0015668671930122399,-0.0014322063647538488,-0.014679167710151635,0.022496539343024403,0.9779124753770714
2011-08-31,-1,-0.0010682122359302769,-0.0009741617958532432,-0.01894988558390929,0.022496539343024403,0.9771619597405469
2011-09-02,-1,-0.0027065291511988404,-0.0023998418142311155,-0.02787820758288127,0.022496539343024403,0.9757361543803038
2011-09-07,-1,-0.0016159669421128104,-0.0014599570224624546,-0.02787820758288127,0.022496539343024403,0.9749241365689374
2011-09-09,-1,-0.002893883302391914,-0.002591413847136013,-0.01585193723213927,0.02425293045051641,0.9750915578782695
2011-09-13,-1,-0.001588078997335809,-0.0014821878033339539,-0.013974326571135847,0.02493218497943604,0.9744430115336028
2011-09-15,0,0.0,0.0,-0.013974326571135847,0.021683979869017773,0.9761393823467873
2011-09-19,0,0.0,0.0,-0.032238615079240515,0.02448669017216544,0.9740985252717581
2011-09-21,0,0.0,0.0,-0.032238615079240515,0.028219500765857435,0.9733505568937112
2011-09-23,0,0.0,0.0,-0.013566319454518817,0.028219500765857435,0.9750914078040818
2011-09-27,0,0.0,0.0,-0.029917748683410055,0.028219500765857435,0.9762477670910619
2011-09-29,0,0.0,0.0,-0.012491748528337928,0.02977566337886329,0.9737543839716837
2011-10-03,0,0.0,0.0,-0.007366551755906354,0.02977566337886329,0.9752530434491012
2011-10-05,0,0.0,0.0,-0.007366551755906354,0.02977566337886329,0.9758010653201673
2011-10-07,0,0.0,0.0,-0.007366551755906354,0.030776925361383538,0.975676973238659
2011-10-11,-1,-0.0005230582807725607,-0.0005194583695108143,-0.007366551755906354,0.028650519374112986,0.9772102519728172
2011-10-13,-1,-6.199146771736746e-05,-5.312912113614379e-05,-0.013904538606377522,0.028650519374112986,0.9747554656599351
2011-10-17,1,0.00045359836326497815,0.000524205305530389,-0.010060064138856281,0.028650519374112986,0.9761985148897058
2011-10-19,1,0.0012057814244204436,0.001384706732394872,-0.010060064138856281,0.0250072121154175,0.978739685118726
2011-10-21,1,0.0014694175096426217,0.0016436076870309498,-0.014131263426099518,0.0250072121154175,0.9774719031636284
2011-10-25,1,0.000993736442634235,0.0010691093759385801,-0.014891064891165005,0.019634129953114605,0.9785860234826842
2011-10-27,1,0.0021013657630544365,0.002361004658841006,-0.014891064891165005,0.009765132131732596,0.9820374974230043
2011-10-31,1,0.00028153300743138086,0.0003196453696748758,-0.014131263426099518,0.01767329946567036,0.9829359427087964
2011-11-02,1,0.00016428008812812775,0.00020468808361702828,-0.014131263426099518,0.01767329946567036,0.982146772440523
2011-11-04,1,0.0017391775323439898,0.0019167491740172014,-0.014131263426099518,0.01767329946567036,0.9825057937255357
2011-11-08,1,0.00149833072832524,0.001696150428664639,-0.014131263426099518,0.01767329946567036,0.9822890295841219
2011-11-10,1,0.0010540610763617596,0.001203846262855555,-0.014131263426099518,0.01767329946567036,0.9835868709775546
2011-11-14,1,0.0008628442881777772,0.001026040088755196,-0.014891064891165005,0.010774055049841486,0.9835644292794888
2011-11-16,1,0.0007071792379157424,0.0008788424177004514,-0.013736086003776498,0.01787600861060729,0.9828924406800486
2011-11-18,1,0.0005386009754564737,0.0007599014887153202,-0.013657457398783915,0.014914883682001785,0.9837463604216095
2011-11-22,0,-0.00012087255172357395,4.8272756911917286e-05,-0.010826598519373353,0.019816220648638187,0.9830284608731676
2011-11-25,0,-0.00015431624409831604,3.1426611285386655e-05,-0.008388463618872305,0.019816220648638187,0.9830243340960156
2011-11-29,1,0.0009269034698932832,0.0012731073213037263,-0.010826598519373353,0.014914883682001785,0.9836216295408785
2011-12-01,1,0.0014576848393209466,0.001827535837977926,-0.010826598519373353,0.010850263854515544,0.9858548921127048
2011-12-05,1,0.0016583949269582516,0.0020554889155847823,-0.00902435712260229,0.010850263854515544,0.9865266735101832
2011-12-07,1,0.0021216974640424617,0.0025684770052224136,-0.00902435712260229,0.01218709001680901,0.9863382634459363
2011-12-09,1,0.0026024092381273876,0.0031852110688269566,-0.007490887385220519,0.01186742723056611,0.9881847359018657
2011-12-13,1,0.002113386845610456,0.0027046190694769434,-0.0033746512728827834,0.011958888212365012,0.9893647314868933
2011-12-15,1,0.0028456668228046453,0.0035383880636320844,-0.003167443932550921,0.011761399866008018,0.9906011605319931
2011-12-19,1,0.0021421750361747187,0.0026703276092202325,-0.0021807254725271373,0.010394086709781583,0.9912091616498275
2011-12-21,1,0.002665480522196735,0.00326087376205124,-0.0021991911631769633,0.009386180796733229,0.9931671085421345
2011-12-23,1,0.002747693442370087,0.003305793312662257,-0.0021991911631769633,0.010021286914670212,0.9932235303426122
2011-12-28,1,0.0003221488330186242,0.0004451604196442691,-0.0021991911631769633,0.010612513486740935,0.9927434199002481
2011-12-30,1,0.0002360287794371321,0.00030643356212068913,-0.0019480797784342046,0.010612513486740935,0.9931540608189361
2012-01-04,1,0.0011560022714328531,0.0014413422760211373,-0.0018647872144819874,0.009458989722386346,0.9940707226963758
2012-01-06,1,0.001539100549522883,0.0019006508842027519,-0.0018647872144819874,0.009458989722386346,0.9933824002273202
2012-01-10,1,0.0010458824889995667,0.0012907880841274148,-0.0022101946938950356,0.009458989722386346,0.9924573290898687
2012-01-12,-1,-0.0001719745990438218,-4.287307928466756e-05,-0.004929843204358008,0.008394530814611417,0.9909488494192712
2012-01-17,1,0.0007997345510496361,0.0008782309783427642,-0.00904866472048041,0.009458989722386346,0.9891477745944259
2012-01-19,0,0.0,0.0,-0.00904866472048041,0.013160715674708601,0.9885425766416145
2012-01-23,0,0.0,0.0,-0.00904866472048041,0.01612941780520874,0.9870947016222202
2012-01-25,0,0.0,0.0,-0.00904866472048041,0.01612941780520874,0.9877548841268835
2012-01-27,0,0.0,0.0,-0.003319200806191687,0.015429099404631875,0.9888551526975039
2012-01-31,0,0.0,0.0,-0.00838841194340549,0.015429099404631875,0.9881248887927927
2012-02-02,0,0.0,0.0,-0.00838841194340549,0.015429099404631875,0.9877073244755689
2012-02-06,0,0.0,0.0,-0.00838841194340549,0.013304014871030702,0.9876443438246175
2012-02-08,1,0.005076499909196994,0.005506821980065021,-0.004350263122066253,0.013304014871030702,0.9878326289122579
2012-02-10,1,0.0026444377764550256,0.0031496078320921335,-0.0023210292813376433,0.013304014871030702,0.9897361215578315
2012-02-14,0,0.0,0.0,-0.0023210292813376433,0.013304014871030702,0.9903844695133263
2012-02-16,0,0.0,0.0,-0.0023210292813376433,0.009003195685028293,0.9914319062753205
2012-02-21,0,0.0,0.0,-0.0034498535014587262,0.006581036479184487,0.9924750625001194
2012-02-23,0,0.0,0.0,-0.006992534041598237,0.006581036479184487,0.9914611240644918
2012-02-27,0,0.0,0.0,-0.006992534041598237,0.009003195685028293,0.9899585009248005
2012-02-29,0,0.0,0.0,-0.006992534041598237,0.013746036061918382,0.9878778274785699
2012-03-02,0,0.0,0.0,-0.006992534041598237,0.013927642599314045,0.9877696882387035
2012-03-06,0,0.0,0.0,-0.002399858383622642,0.016916067785384334,0.9884838775784766
2012-03-08,0,0.0,0.0,-0.006992534041598237,0.013927642599314045,0.9890532263625392
2012-03-12,0,0.0,0.0,-0.010488375384888393,0.013927642599314045,0.9876259180824499
2012-03-14,0,0.0,0.0,-0.010488375384888393,0.013927642599314045,0.9875010346296121
2012-03-16,1,0.14699089612827812,0.14932912295185985,-0.010488375384888393,0.013927642599314045,0.8730642782809633
2012-03-20,1,0.0011501277914919743,0.0012113270541680057,-0.007927425335455238,0.017009208102244475,0.9867102769671328
2012-03-22,1,0.001388320963020477,0.0015255447693298518,-0.005328471697907949,0.017009208102244475,0.9873905245530677
2012-03-26,1,0.0010978092709082164,0.0011436097513367004,-0.007927425335455238,0.00696540183107475,0.9878421310860219
2012-03-28,0,0.0,0.0,-0.006529482370336223,0.012825130369795632,0.9883809721247879
2012-03-30,0,0.0,0.0,-0.007927425335455238,0.013801785784791897,0.9877016655415679
2012-04-03,1,0.0021799075215010767,0.0024380670937576513,-0.009238105117143717,0.00691601096148149,0.9873228512701259
2012-04-05,1,0.0016288286243741007,0.001882844950279486,-0.010056756511682316,0.00691601096148149,0.986935669450301
2012-04-10,1,0.0005166699865107226,0.0006031823593896509,-0.007812086024562421,0.00691601096148149,0.988814834360464
2012-04-12,1,0.0009690071061446522,0.0010981012825981367,-0.007812086024562421,0.0044040876326740495,0.9896594112863673
2012-04-16,1,0.0006192997196260428,0.0006702546692786353,-0.008545262192822048,0.0036818544126888697,0.9890199684171154
2012-04-18,0,0.0,0.0,-0.010056756511682316,0.002869331912406779,0.9891540041340222
2012-04-20,0,0.0,0.0,-0.014584598429100405,-0.00018401604691433435,0.9874489603137265
2012-04-24,0,0.0,0.0,-0.011587985484822028,0.004273598427855568,0.9862145429466758
2012-04-26,0,0.0,0.0,-0.011587985484822028,0.004273598427855568,0.9872629539364582
2012-04-30,1,0.0024991418882482244,0.0025363680762339248,-0.010855764674734522,0.004273598427855568,0.9864196420189099
2012-05-02,1,0.0018970604185920635,0.001994592182383605,-0.014950099969893604,0.004273598427855568,0.9859329060987642
2012-05-04,1,0.0007705062746164997,0.001028665825794246,-0.014950099969893604,0.004273598427855568,0.9855677292245134
2012-05-08,0,-0.0002502737225049518,0.00016263942800300913,-0.014950099969893604,0.008680338844434,0.984684672164928
2012-05-10,0,-0.00010375160761228776,0.0002804422363879664,-0.014950099969893604,0.015033718778248063,0.9834879658146696
2012-05-14,-1,-0.0008752027304372914,-0.00038490294385290177,-0.014950099969893604,0.01546517065367927,0.9827441959493473
2012-05-16,-1,-0.001817570537710173,-0.0012563596882522404,-0.014950099969893604,0.01546517065367927,0.982844980704666
2012-05-18,-1,-0.003797173834017955,-0.003045383283908254,-0.01222433881694206,0.01546517065367927,0.9834798378727295
2012-05-22,0,0.0,0.0,-0.01222433881694206,0.01546517065367927,0.9843842963185788
2012-05-24,0,0.0,0.0,-0.014950099969893604,0.011032052011579745,0.9837122578978793
2012-05-29,0,0.0,0.0,-0.014950099969893604,0.010366932007720393,0.9839805189325312
2012-05-31,0,0.0,0.0,-0.010802219933431795,0.014162300286687877,0.9840418474970426
2012-06-04,-1,-0.003337346770120127,-0.0026216299141338835,-0.005658024863089023,0.01708743188640402,0.9834073546586347
2012-06-06,-1,-0.0023392681764638967,-0.0017716596000623645,-0.007095449619365609,0.014162300286687877,0.9846370756226038
2012-06-08,-1,-0.0011577110769026028,-0.0006780728663859988,-0.010802219933431795,0.011791685312854731,0.9849166286404298
2012-06-12,-1,-0.0010296805191194807,-0.000606661050014958,-0.014778508271508855,0.009529647054808143,0.9849550048520096
2012-06-14,-1,-0.0022565061357382055,-0.0016757971088542706,-0.008390830512314588,0.012920027835404628,0.9835602601872012
2012-06-18,-1,-0.0011849798740482364,-0.0008025986253832123,-0.008390830512314588,0.014826690043550361,0.9835356431747042
2012-06-20,-1,-0.000390785741765504,-8.351600619455914e-05,-0.008390830512314588,0.012920027835404628,0.9852738302476144
2012-06-22,-1,-0.002591581195908126,-0.002064431663566201,-0.011059547267600505,0.012920027835404628,0.9857980538351125
2012-06-26,-1,-0.002333616814083306,-0.0018331033609902117,-0.007304943246258545,0.011599301163713433,0.9865750337191233
2012-06-28,-1,-0.001134282721366206,-0.0007511506642412641,-0.007304943246258545,0.011599301163713433,0.9871688332902532
2012-07-02,0,-3.865630997571098e-05,0.00016926737238043168,-0.008286562370360465,0.009525918190003826,0.9885945352256655
2012-07-05,-1,-0.0015649794743366442,-0.0011058118051114495,-0.011059547267600505,0.009525918190003826,0.9873777526021353
2012-07-09,-1,-0.001247823838355066,-0.0008095812362992529,-0.009111657389150669,0.009902032364187125,0.9872328528159738
2012-07-11,-1,-0.002353196386908101,-0.0018526244934239044,-0.007875510317392502,0.014249537596126464,0.9874324994368413
2012-07-13,-1,-0.000213590818743935,-2.5215466484742742e-05,-0.008347415113183713,0.007495427197512172,0.9893902190501533
2012-07-17,1,0.00033691869105258193,0.0004633879595789441,-0.008970212024996836,0.004631650520894747,0.9895239885343827
2012-07-19,1,0.0006189378875807558,0.0006919714526336308,-0.008970212024996836,0.010345996572780597,0.9882144787304002
2012-07-23,-1,-0.0003804649583894745,-0.00018202178357939786,-0.008347415113183713,0.010345996572780597,0.9889226298890439
2012-07-25,1,0.00010211516398615648,0.00021511048739376415,-0.008347415113183713,0.015551371867911442,0.9881587335095089
2012-07-27,0,-0.0001966056662582933,2.163486329707844e-05,-0.008970212024996836,0.008881261846797713,0.9880993451760933
2012-07-31,1,0.00010346001896715878,0.0002280572193648365,-0.009777362869170032,0.008881261846797713,0.9879390640318125
2012-08-02,-1,-0.002012456978239419,-0.001639590945185497,-0.00861646539457478,0.009781405760934173,0.9897184852445045
2012-08-06,-1,-0.0010345408282892443,-0.0007861509421930991,-0.009777362869170032,0.008384358178276267,0.9903165916593865
2012-08-08,-1,-0.0004583028875526459,-0.0002865997286866916,-0.00861646539457478,0.009340110438412791,0.9899651770382163
2012-08-10,-1,-0.00020873196561247337,-5.007381123226689e-05,-0.008178806243941066,0.011222714840120974,0.9896329259490726
2012-08-14,-1,-0.0009503006708243545,-0.0006574746619089348,-0.005765435205725219,0.011222714840120974,0.9897244895155006
2012-08-16,1,0.0009840692015395422,0.0009890383650632615,-0.005765435205725219,0.010063673159091083,0.9902898511014567
2012-08-20,1,0.001570701732365364,0.0016675074018607503,-0.005127477044910442,0.010063673159091083,0.9904102614303039
2012-08-22,1,0.002431741586163375,0.0027136787299647915,-0.005014860397921457,0.009156497763565027,0.9915460582713727
2012-08-24,1,0.0020344371098830424,0.002290547828924315,-0.005014860397921457,0.009156497763565027,0.9919803276021892
2012-08-28,1,0.0016407736716338474,0.001808717653132804,-0.00517928012393847,0.009156497763565027,0.9913601436754211
2012-08-30,1,0.0010718627867360151,0.0011342644169854079,-0.005623949919405267,0.009156497763565027,0.9915113345301731
2012-09-04,1,0.001766093543997985,0.0019384862596718293,-0.005623949919405267,0.010063673159091083,0.9907217140424084
2012-09-06,1,0.0027339243525799956,0.0030531437179286505,-0.005623949919405267,0.008551084957283862,0.9912016110683831
2012-09-10,1,0.003643664818613958,0.004124087959831887,-0.0068453406418789355,0.004492892002462726,0.9906974476785666
2012-09-12,1,0.004185141320454633,0.004734321590852535,-0.012195324325126896,0.0014118063249575897,0.9886266710745022
2012-09-14,1,0.0038813275803451413,0.0044039841702796945,-0.012195324325126896,0.0014118063249575897,0.9893030550431219
2012-09-18,1,0.00493342541902028,0.005667361938407932,-0.012195324325126896,0.004987583910701112,0.9884961730679298
2012-09-20,1,0.005458241626804288,0.006217495908720029,-0.012195324325126896,0.00940851210399149,0.9880077835984954
2012-09-24,1,0.0038633258886753346,0.004456956645433002,-0.012195324325126896,0.00940851210399149,0.9885960872517906
2012-09-26,1,0.0025263243161817673,0.0028678042984260892,-0.012778580296605613,0.00940851210399149,0.988838047282594
2012-09-28,1,0.0021654128236859053,0.0024280841568876223,-0.012778580296605613,0.01154730130407095,0.988777101332292
2012-10-02,1,0.002357862084100679,0.0026559195269723083,-0.01263992518709154,0.01154730130407095,0.988751074040461
2012-10-04,0,0.0,0.0,-0.01263992518709154,0.012557854978220769,0.9885506711866751
2012-10-08,0,0.0,0.0,-0.014140110258661999,0.012557854978220769,0.9881916285928141
2012-10-10,0,0.0,0.0,-0.01222368555844623,0.012557854978220769,0.9889878426921249
2012-10-12,0,0.0,0.0,-0.01222368555844623,0.012557854978220769,0.9886008672654355
2012-10-16,0,0.0,0.0,-0.012752736263211998,0.0029193328739160417,0.9894495037822169
2012-10-18,0,0.0,0.0,-0.012752736263211998,0.004713855595352608,0.9880880852990225
2012-10-22,-1,-0.0007280589809595605,-0.0005861159675718643,-0.01222368555844623,0.00725446021598969,0.988492799453865
2012-10-24,-1,-0.0031642432781604788,-0.002687570393974139,-0.010148944357328219,0.012813847869731465,0.9881614587286627
2012-10-26,0,0.0,0.0,-0.010148944357328219,0.00877591440888368,0.9888543877306818
2012-11-01,0,0.0,0.0,-0.008293002091045134,0.00725446021598969,0.9905483399110556
2012-11-05,0,0.0,0.0,-0.008381585246594351,0.004713855595352608,0.9902603999501879
2012-11-07,0,0.0,0.0,-0.008381585246594351,0.004713855595352608,0.9904996849580597
2012-11-09,0,0.0,0.0,-0.005527735719511508,0.004776803720094432,0.9908292966303374
2012-11-13,0,0.0,0.0,-0.0007206947326041962,0.009667906872862831,0.9889477109445554
2012-11-15,-1,-0.004567299831174521,-0.003945782948162132,-0.0005977064093673542,0.009667906872862831,0.9872465307192344
2012-11-19,-1,-0.003247207054898397,-0.0027874359909805272,-0.0005977064093673542,0.010240019459035046,0.9890467877989241
2012-11-21,0,0.0,0.0,-0.0005977064093673542,0.010476645868954634,0.9907748205914689
2012-11-26,0,0.0,0.0,-0.0007206947326041962,0.009587558776054557,0.9912719480416613
2012-11-28,0,0.0,0.0,-0.0011851694713640934,0.009587558776054557,0.9903922988944587
2012-11-30,0,0.0,0.0,-0.004408774888948718,0.009824608647080265,0.9888014629106795
2012-12-04,-1,-0.002729872638467087,-0.002357330218280908,-0.004079693363533374,0.010477916252272998,0.9882111504960241
2012-12-06,0,0.0,0.0,-0.0007767149490590854,0.012792463422219274,0.9891228557199553
2012-12-10,0,0.0,0.0,-0.0007767149490590854,0.014063833432850715,0.9884110782866607
2012-12-12,0,0.0,0.0,-0.003792985885943701,0.010836351756596169,0.9906075607773083
2012-12-14,0,0.0,0.0,-0.003792985885943701,0.010836351756596169,0.9904242727735074
2012-12-18,1,0.0017257264009423188,0.0019019495142913192,-0.00590579224821377,0.009824608647080265,0.9914366568442091
2012-12-20,0,0.0,0.0,-0.00590579224821377,0.010504201416297824,0.9911611141924419
2012-12-24,0,0.0,0.0,-0.00590579224821377,0.00888960039029103,0.9914151590052391
2012-12-27,1,0.000786960855759447,0.0008194013082479597,-0.00590579224821377,0.01035572720832206,0.9915122496192497
2012-12-31,1,0.0018891037898974969,0.0021135329369902484,-0.004383412869108615,0.008161786601733247,0.9927271415784458
2013-01-03,1,0.0019842805568776366,0.0022404882653500203,-0.0037239866382090146,0.008161786601733247,0.993106934799334
2013-01-07,1,0.002598602269604842,0.0029269681481839177,-0.00423604312776951,0.007686554441837049,0.9931201777433236
2013-01-09,0,0.0,0.0,-0.00590579224821377,0.006597639147656351,0.9923251189641241
2013-01-11,0,0.0,0.0,-0.006026700515623707,0.006597639147656351,0.9923475691046801
2013-01-15,1,0.0028069939518936804,0.0031312761529955777,-0.007935926781133973,0.006941528896116567,0.9904361467962823
2013-01-17,1,0.00289384390890742,0.0032681757081426763,-0.007935926781133973,0.007744065122671821,0.9907622771280782
2013-01-22,1,0.0027560365074651614,0.003055427743932413,-0.008579345563884323,0.006941528896116567,0.9902188725293216
2013-01-24,1,0.0022691860184032883,0.002489926004709101,-0.010768529510131164,0.007744065122671821,0.9892827015726476
2013-01-28,1,0.002336025719898429,0.0025648278174946817,-0.012291501245530315,0.007744065122671821,0.9882729550141757
2013-01-30,1,0.0022646458250973975,0.002469334789657398,-0.012291501245530315,0.010594236803302504,0.9875935756236727
2013-02-01,0,0.0,0.0,-0.012291501245530315,0.008403068961786189,0.9878799097854185
2013-02-05,0,0.0,0.0,-0.012291501245530315,0.008781683460195406,0.9878213623158029
2013-02-07,0,0.0,0.0,-0.0070716920152726764,0.008781683460195406,0.9897222399932397
2013-02-11,0,0.0,0.0,-0.0037040812926068287,0.008781683460195406,0.9899587937481372
2013-02-13,0,0.0,0.0,-0.002628575889928702,0.007921510982951916,0.9913155331214832
2013-02-15,0,0.0,0.0,-0.006522262306214407,0.006332138260279423,0.9905330719587305
2013-02-20,0,0.0,0.0,-0.004518232547780034,0.006332138260279423,0.9912698966944682
2013-02-22,0,0.0,0.0,-0.004518232547780034,0.005493769276246837,0.9911290061271649
2013-02-26,0,0.0,0.0,-0.004518232547780034,0.005442782260528075,0.9920436354600933
2013-02-28,0,0.0,0.0,-0.006236199388221309,0.004767924063222605,0.9927430599200955
2013-03-04,0,0.0,0.0,-0.0073085132460659966,0.004567496696988656,0.9923201066214434
2013-03-06,0,0.0,0.0,-0.0073085132460659966,0.004048727117923984,0.992877321258338
2013-03-08,0,0.0,0.0,-0.009606304015535748,0.004449729768236181,0.9906929430520216
2013-03-12,0,0.0,0.0,-0.009606304015535748,0.004567496696988656,0.9903272801093208
2013-03-14,0,0.0,0.0,-0.009606304015535748,0.004841500161826227,0.9894941574429659
2013-03-18,1,6.642456526824434e-05,0.00011493204303825863,-0.00874811526155645,0.006181578813890326,0.9875620228197295
2013-03-20,0,0.0,0.0,-0.00874811526155645,0.006181578813890326,0.9873795715519846
2013-03-22,0,0.0,0.0,-0.006909406965660821,0.006181578813890326,0.9888554572108456
2013-03-26,0,0.0,0.0,-0.006505168490421664,0.009250668606956652,0.9885981602602691
2013-03-28,-1,-0.0021333847833700844,-0.0018014307782616018,-0.006505168490421664,0.012729047314559207,0.9875888247634532
2013-04-02,-1,-0.002472258881505627,-0.0021128292181520235,-0.0049183365741124335,0.013441879762165848,0.987616577465779
2013-04-04,-1,-0.0033538364456484372,-0.0028612730238264045,-0.005040522358924143,0.013441879762165848,0.9856314507310496
2013-04-08,-1,-0.0032582276721495433,-0.0027647615937029654,-0.0027940574904266875,0.013041754569784497,0.9863136538423886
2013-04-10,-1,-0.0033049741096449073,-0.0027677029142756937,-0.0027940574904266875,0.013495377357481953,0.9856812554853599
2013-04-12,0,0.0,0.0,-0.002899736401334779,0.013041754569784497,0.9870875533539684
2013-04-16,-1,-0.002450016025538064,-0.0020210269569585883,-0.002899736401334779,0.013041754569784497,0.9869071525946419
2013-04-18,-1,-0.0028780589219896523,-0.002410883161219437,-0.0008423910279179431,0.013041754569784497,0.986113374614372
2013-04-22,0,0.0,0.0,-0.0029890717268095065,0.014423999518217507,0.9864162941500525
2013-04-24,0,0.0,0.0,-0.0049054569782305026,0.013041754569784497,0.987355169853534
2013-04-26,0,0.0,0.0,-0.0029890717268095065,0.011061918431469652,0.988418762637011
2013-04-30,0,0.0,0.0,-0.0049054569782305026,0.011079750963241687,0.9878182571605478
2013-05-02,0,-1.1202580928012704e-05,0.00017009740372745904,-0.0049054569782305026,0.011079750963241687,0.9891600811698382
2013-05-06,0,0.0,0.0,-0.006433954779941559,0.008116618353332954,0.9895529831686101
2013-05-08,0,0.0,0.0,-0.010620298996294037,0.0035610517523977253,0.9900681574412441
2013-05-10,0,0.0,0.0,-0.010620298996294037,0.0041984096283266175,0.9893220598755302
2013-05-14,1,0.0032277043063022497,0.0036219496879559493,-0.009213315840607115,0.001897633657045543,0.9903679689415109
2013-05-16,1,0.0027127568663743657,0.0030566919103422185,-0.008138104508570679,0.0041984096283266175,0.9905735765109082
2013-05-20,1,0.0033128184906342497,0.0037361072095015817,-0.008138104508570679,0.010482374753123106,0.9901837635319111
2013-05-22,1,0.0029539527645055675,0.00328158681653212,-0.009359817909133409,0.010482374753123106,0.9889496706234324
2013-05-24,1,0.0035255051246109127,0.003899381116737852,-0.010620298996294037,0.005141757625660025,0.9881128425868091
2013-05-29,1,0.004557451006776581,0.004912102911671514,-0.009434249959216599,0.0036769104176361707,0.9885030984118824
2013-05-31,1,0.004058675087951052,0.0043714492308283195,-0.009434249959216599,0.004396214478802987,0.9886975132197476
2013-06-04,1,0.00368169194911343,0.004130347233738581,-0.0088179661615813,0.007841673768616567,0.9892198738584245
2013-06-06,0,0.0,0.0,-0.008138104508570679,0.00926785808535825,0.9903298703308271
2013-06-10,0,0.0,0.0,-0.0088179661615813,0.00926785808535825,0.9902393554757757
2013-06-12,0,0.0,0.0,-0.008186938531412776,0.00926785808535825,0.9904150620764588
2013-06-14,0,0.0,0.0,-0.004047779841707405,0.007841673768616567,0.9910803888119748
2013-06-18,1,0.0040428783005875685,0.004492329678409039,-0.010158952725454043,0.006692605264862995,0.9909672700581647
2013-06-20,1,0.0031617509060413397,0.0034860724842587657,-0.0014544048841426752,0.007841673768616567,0.9925141254804561
2013-06-24,1,0.0022008607163096815,0.0024976487488327734,-0.00271245323306262,0.007841673768616567,0.9927855219923123
2013-06-26,1,0.0022735822163411626,0.0026176349394578377,-0.00271245323306262,0.009058374594421624,0.9928102213214544
2013-06-28,1,0.0017417841024229995,0.002010931504188451,-0.0026314822256852327,0.009058374594421624,0.9936620630070108
2013-07-02,1,0.0016311987404629773,0.0017913381576729116,-0.0026314822256852327,0.010055539321362567,0.9922706041972551
2013-07-05,1,0.001200907380299477,0.0013096218167287677,-0.0026314822256852327,0.010202338402094887,0.991928475859545
2013-07-09,0,0.0,0.0,-0.003380248773396298,0.009427088848552685,0.9918932723652368
2013-07-11,0,0.0,0.0,-0.0038240855798884377,0.010202338402094887,0.9912134708185341
2013-07-15,0,0.0,0.0,-0.005204089870254003,0.010202338402094887,0.9909235940453363
2013-07-17,1,0.0005820140391867185,0.0005971559431622282,-0.005204089870254003,0.010202338402094887,0.9909874249108283
2013-07-19,0,0.0,0.0,-0.0075602367922050235,0.009427088848552685,0.991140821043912
2013-07-23,1,0.0017608573929900244,0.001831302885780304,-0.0075602367922050235,0.009427088848552685,0.9910644870766874
2013-07-25,1,0.0018480510679940707,0.0019237661443300027,-0.0075602367922050235,0.010202338402094887,0.9905804890950642
2013-07-29,0,0.0,0.0,-0.0075602367922050235,0.010202338402094887,0.9905442360949671
2013-07-31,0,0.0,0.0,-0.008069407099153901,0.00665459812021613,0.9917358682246601
2013-08-02,0,0.0,0.0,-0.008069407099153901,0.00665459812021613,0.9920986609600914
2013-08-06,0,0.0,0.0,-0.007065782001703267,0.0068496685427096755,0.9925898449605361
2013-08-08,0,0.0,0.0,-0.004902911813852382,0.006784647672540455,0.9932615925722511
2013-08-12,0,0.0,0.0,-0.002247175981748864,0.007527730291834331,0.992918265003997
2013-08-14,1,0.0018385664107299455,0.0019332627443428853,-0.0016971979747206515,0.007527730291834331,0.9937772356975766
2013-08-16,1,0.001234709369575008,0.0014545703710517246,-0.0010316806593512458,0.007527730291834331,0.9943172974736416
2013-08-20,1,0.0008927048799637996,0.0011578777717373935,-0.0003249063146647093,0.008965654751146497,0.9944144804301795
2013-08-22,1,0.0008402379515001214,0.0011337245916318635,-0.0010316806593512458,0.008314629388311252,0.9946044993947735
2013-08-26,1,0.0003452679842897461,0.0007067560872985493,-0.0010316806593512458,0.008314629388311252,0.9943483643695287
2013-08-28,-1,-0.0006220283443372401,-0.00024580614759880525,-0.0003249063146647093,0.008314629388311252,0.9946077010367393
2013-08-30,-1,-0.0006502026390229686,-0.00029053020300533173,-0.0003249063146647093,0.008314629388311252,0.9948165665075605
2013-09-04,-1,-0.00047527818242191155,-0.0001347199815265129,-0.0010316806593512458,0.007158342375816173,0.995064154888929
2013-09-06,0,-0.00033431627280758585,2.9791968517003725e-06,-0.0015916165402090133,0.008442678834615018,0.9940792560700948
2013-09-10,0,-0.00015027577228906935,0.00018413603374423289,-0.0038121680498305077,0.0035773252011523857,0.994175643726336
2013-09-12,1,7.36530530092396e-05,0.000388847818101283,-0.0038121680498305077,0.0035773252011523857,0.9939819949519941
2013-09-16,1,0.00017916071075016178,0.00042562659914614244,-0.0038121680498305077,0.005081625822678482,0.9937096589214636
2013-09-18,1,0.0002866131572211712,0.0005307468189072725,-0.005358566884469236,0.005081625822678482,0.9934308145487744
2013-09-20,1,0.0010253492064212124,0.0012513320827240138,-0.0038121680498305077,0.005081625822678482,0.9935714661821382
2013-09-24,1,0.0019447995670929116,0.0019467859786685064,-0.00353740407586238,0.008543578663807512,0.9927133596517712
2013-09-26,1,0.0022699585232665406,0.0023363106759264154,-0.005014142116564545,0.008543578663807512,0.9923693702103372
2013-09-30,1,0.002413449754891076,0.002548996371313701,-0.005358566884469236,0.008543578663807512,0.9917851703854126
2013-10-02,1,0.0021752848420630846,0.0022893241501553167,-0.005213728911950719,0.008543578663807512,0.9916917570955435
2013-10-04,1,0.00232209313346401,0.0024757479607494673,-0.004014311756772211,0.0044469994363373925,0.9926691937459724
2013-10-08,1,0.0015018627575080832,0.0015243292365718648,-0.0031706903630369983,0.0044469994363373925,0.9940133880620592
2013-10-10,1,0.002044412531777776,0.0021649251357740546,-0.003678647386772328,0.0029023308635874314,0.9941295963587151
2013-10-14,1,0.002073232020280289,0.0021749826466906236,-0.004014311756772211,0.0029023308635874314,0.9933888922173238
2013-10-16,1,0.0019816298366135024,0.0021196166783289928,-0.004014311756772211,0.0029023308635874314,0.9933551449977184
2013-10-18,1,0.0025102624399779127,0.0027007665056765747,-0.004014311756772211,0.0035488805721518284,0.9929239052546095
2013-10-22,1,0.002550728297286223,0.002708696884381749,-0.005154533455596507,0.0029023308635874314,0.9926258180255384
2013-10-24,1,0.002229910493812971,0.0023164340126410454,-0.0057630114852363825,0.0020285121247141905,0.9924298061757145
2013-10-28,1,0.0013189381306209205,0.0013721999466229007,-0.0057630114852363825,0.0021291387843027244,0.9930909885911787
2013-10-30,1,0.0017588955475372073,0.0017878113321102864,-0.0057630114852363825,0.003506393978930357,0.9932252202986832
2013-11-01,1,0.001266174995475435,0.001318420755966397,-0.0057630114852363825,0.003506393978930357,0.9933046572330101
2013-11-05,1,0.0010460660324941352,0.0011047397944391082,-0.0057630114852363825,0.004298741755805871,0.9927767504235586
2013-11-07,1,0.0012748331143401822,0.0012848138351273797,-0.005653463724258396,0.0055821239622623415,0.9926224693246407
2013-11-11,1,0.0012455227164807799,0.001280418581335006,-0.004860685968122852,0.005229553507787418,0.9934640696769313
2013-11-13,1,0.0010499232521930892,0.0011385932592838793,-0.0060403894705908885,0.004298741755805871,0.9932304590022998
2013-11-15,1,0.001709778547543199,0.0017158879045074983,-0.006829997660736384,0.0029330871155333485,0.9935370929786315
2013-11-19,1,0.00044392252862098197,0.000634549446618868,-0.0058943058806560575,0.003197681496073257,0.9944728254645296
2013-11-21,1,0.00013107882927262352,0.0003597643217330813,-0.004795856938309781,0.0035178789605713194,0.994965409772434
2013-11-25,1,0.00013956072684439245,0.00037094922578944766,-0.0024651794240696575,0.00512080196605097,0.9944861497551833
2013-11-27,0,-4.8275648501041354e-05,0.00020927124326751575,-0.0024651794240696575,0.005722062150282884,0.9942101634179127
2013-12-02,0,-0.00022697215550284778,4.566738573220138e-05,-0.00321659288211731,0.005722062150282884,0.994014327040498
2013-12-04,-1,-0.00034230702579670334,-6.464072152468118e-05,-0.003745706462155376,0.004497366248227246,0.9938760710612082
2013-12-06,1,0.00013178056758567439,0.0003665140489613589,-0.005003823260610731,0.004497366248227246,0.9942490616848375
2013-12-10,-1,-0.00026049420317242745,-7.135614439719479e-05,-0.005003823260610731,0.0034001834408119895,0.9945199571237356
2013-12-12,-1,-0.0015317430527883394,-0.001174934416789796,-0.003745706462155376,0.0034001834408119895,0.9946184547700889
2013-12-16,-1,-0.0015503577566209213,-0.0011986699543894666,-0.0029593478580989285,0.0059378641606541984,0.9928117311146101
2013-12-18,-1,-0.001818123389190053,-0.0014329635425443894,-0.00277553514572828,0.0059378641606541984,0.9929949667376052
2013-12-20,-1,-0.000817234647576041,-0.0006342026156541348,-0.00277553514572828,0.0059378641606541984,0.9931120775400907
2013-12-24,1,0.00017627100946561068,0.00022480731842401105,-0.004232088188555586,0.0029868791848679153,0.991288764485394
2013-12-27,1,0.00025529733694013403,0.0003465406024806748,-0.004232088188555586,0.0020830864118317333,0.9918677510164159
2013-12-31,1,0.00016372472998321837,0.00027327283276756413,-0.004232088188555586,0.002083145477132252,0.9920231098681455
2014-01-03,-1,-0.0008918868899989665,-0.0006280074037529894,-0.009126386641182605,0.002083145477132252,0.9908245241030733
2014-01-07,-1,-0.0007756288881333495,-0.000537446685940452,-0.00635895129086414,0.002083145477132252,0.9909678136723703
2014-01-09,-1,-0.0009454875706458673,-0.0006764670190385165,-0.00635895129086414,0.0029870563807694716,0.9895519055689057
2014-01-13,-1,-0.0019313834716979076,-0.0015423036074067454,-0.001112477179511975,0.005040985950802282,0.9894942802589118
2014-01-15,-1,-0.0002489230871471874,-8.79772979364703e-05,-0.0033955786897819002,0.0029870563807694716,0.9915572625358439
2014-01-17,-1,-0.0005399821993941211,-0.0003352852981317301,-0.0028583298119058183,0.003864967540341157,0.9910495447180866
2014-01-22,-1,-0.0005629095514602848,-0.0003441641179114859,-0.0028583298119058183,0.00499560200448372,0.9910031190637224
2014-01-24,-1,-0.00310029662024661,-0.002589368537604395,-0.00284248564177995,0.00499560200448372,0.9925205757646676
2014-01-28,-1,-0.0028763995586008687,-0.00240959822395565,-0.00284248564177995,0.0066948062529015116,0.9906806918769571
2014-01-30,-1,-0.002511223631276582,-0.0020849819218157683,-0.00284248564177995,0.010010355350554445,0.9896882401253819
2014-02-03,-1,-0.003894487683025846,-0.0033530136224189126,-0.0017508301980808142,0.011052250694275671,0.9897761521214662
2014-02-05,-1,-0.003276063548898139,-0.0028359892382068567,-0.002567123492694951,0.011052250694275671,0.9904400309621237
2014-02-07,-1,-0.0020504634229375996,-0.0017590453406364464,-0.0030417761746648064,0.011052250694275671,0.989152324597413
2014-02-11,-1,-0.002600915810913337,-0.00231645729281792,-0.004409530737293743,0.011052250694275671,0.9882113022588395
2014-02-13,-1,-0.002462854930651609,-0.0021958697845961463,-0.004409530737293743,0.011052250694275671,0.9880823514984423
2014-02-18,-1,-0.0021884308791520744,-0.001956517503574809,-0.005206568904427962,0.010550101798921088,0.9878435089799064
2014-02-20,-1,-0.0019450515449811268,-0.0017488156268953242,-0.006019738763519847,0.012604558618892422,0.9867460679607009
2014-02-24,-1,-0.0021290663688247474,-0.001915056437471395,-0.006091900780730061,0.012604558618892422,0.9868560097764133
2014-02-26,-1,-0.001087264461283364,-0.0009965722021511975,-0.009040734991507787,0.010550101798921088,0.9876910597568089
2014-02-28,-1,-0.0003570703633533338,-0.0003533948349189963,-0.009547057525189638,0.005078808340271267,0.9879221177684618
2014-03-04,-1,-0.00048555721686950197,-0.00044625108451729284,-0.009547057525189638,0.005078808340271267,0.9883591117155615
2014-03-06,-1,-0.0002513489570912728,-0.00024980731468468684,-0.009547057525189638,0.008458955695739349,0.9879729830759756
2014-03-10,1,0.0005997478149935044,0.0007281210853005602,-0.013166472149852176,0.003071577641061721,0.9895414395288472
2014-03-12,-1,-0.0003649073389276717,-0.00035781583058063155,-0.00999789401289515,0.00990742444403764,0.990311029685342
2014-03-14,-1,-0.0006665629400272695,-0.0006573671949755802,-0.013307975046941626,0.00990742444403764,0.9890246944243952
2014-03-18,-1,-0.0003755795059268127,-0.00032660899328245795,-0.013307975046941626,0.00883460693620131,0.9891087775082722
2014-03-20,-1,-0.0003818205969062528,-0.00033205929126965987,-0.00999789401289515,0.00883460693620131,0.9896660697863929
2014-03-24,-1,-0.0006991685789259701,-0.0006931584409106751,-0.00999789401289515,0.00883460693620131,0.9898477807541753
2014-03-26,-1,-0.0017993578479919671,-0.001655508917421015,-0.00999789401289515,0.00883460693620131,0.9900007745137662
2014-03-28,-1,-0.0017818455491581712,-0.001640845170589158,-0.006169213770279341,0.00883460693620131,0.9906712056474504
2014-04-01,-1,-0.0013468785752462063,-0.0012605101056733172,-0.006169213770279341,0.010183083194757643,0.9902218098187555
2014-04-03,-1,-0.0011506616479203078,-0.0010719224090415486,-0.008569651131724448,0.00883460693620131,0.9905505440914115
2014-04-07,-1,-0.0020578319070631707,-0.0018980192516201582,-0.0037194169765511704,0.00883460693620131,0.9917967393711983
2014-04-09,-1,-0.0011245919041165749,-0.001083825005908073,-0.0047684311536888265,0.0028401928747011826,0.9914371739993478
2014-04-11,-1,-0.0023098683797903516,-0.002161419789561787,-0.003569772465800994,0.006992834190039097,0.9927965768231605
2014-04-15,-1,-0.002096655848115316,-0.001947448148942215,-0.0037194169765511704,0.002064227687141285,0.9931917871154172
2014-04-17,-1,-0.0018439755724956883,-0.001711406219225704,-0.0047684311536888265,0.0016561441239683697,0.993624424284612
2014-04-22,-1,-0.0017318544343176523,-0.0016055914803439902,-0.0047684311536888265,0.0036313264624761475,0.9929302138724411
2014-04-24,-1,-0.001976495956930075,-0.00183636914952208,-0.0037194169765511704,0.008722003915064336,0.9920023747642801
2014-04-28,-1,-0.0020834249561468817,-0.001932054266538402,-0.003569772465800994,0.008722003915064336,0.9916162703202789
2014-04-30,-1,-0.0013865449337957633,-0.0013209703851977698,-0.003569772465800994,0.006619035042128534,0.9924385660743587
2014-05-02,-1,-0.0012763377401475164,-0.0012499914680671484,-0.0021676519290152064,0.006619035042128534,0.9923953665541779
2014-05-06,-1,-0.0010632644182098578,-0.0010472862838496024,-0.004056942100155649,0.007137394747789224,0.9916805148088557
2014-05-08,-1,-0.003375857275707692,-0.003088673218151547,-0.0007381963389191503,0.008519646145114147,0.9913756723946567
2014-05-12,-1,-0.003162133894489335,-0.0028932379967803006,-0.0016387026656176271,0.007704194442943949,0.9917691881417323
2014-05-14,-1,-0.00315189027963829,-0.0028881240910540126,-0.003639325423280051,0.007704194442943949,0.9918907423572629
2014-05-16,-1,-0.0032055491984489754,-0.002947308870374034,-0.003639325423280051,0.007704194442943949,0.99188805436738
2014-05-20,-1,-0.0023290928398061236,-0.0022055042536264806,-0.005848352829992871,0.006619035042128534,0.992393896736803
2014-05-22,-1,-0.0012079636514853585,-0.0011749267371356585,-0.005848352829992871,0.0035870031479914447,0.99407625051218
2014-05-27,-1,-0.0005786283113528308,-0.0005069133660989226,-0.007211488222436913,0.0031436329493521858,0.9919958302660633
2014-05-29,-1,-0.00044984668388278195,-0.000382372600128883,-0.007211488222436913,0.0027985993843681707,0.9919913191899361
2014-06-02,-1,-0.0003736818746291698,-0.00029143119294310847,-0.007211488222436913,0.002858997825532114,0.9920401393614043
2014-06-04,-1,-0.00014706434934247164,-2.941100068246707e-05,-0.0068808989407970296,0.0023684861386045397,0.9923824890275261
2014-06-06,0,-3.690193238158133e-05,6.218214115623073e-05,-0.008747419403535702,-0.0006234556564084913,0.9921892075284275
2014-06-10,1,0.00035770635154704533,0.0005633404923995454,-0.009180690366069865,-0.00037663666410830965,0.9915666789468621
2014-06-12,1,3.8840255291067096e-05,0.00020214557258268508,-0.009180690366069865,0.0021250275677084313,0.9918054577410174
2014-06-16,1,8.393802067003012e-05,0.00026568122760079935,-0.008996136384012102,0.0021250275677084313,0.9919113228921581
2014-06-18,-1,-0.001513274841095499,-0.001385157048365208,-0.00682784140550638,0.0022340875141185043,0.9927080431223434
2014-06-20,-1,-0.001484607907285541,-0.001363832281553103,-0.008680012558224624,0.003486954046651767,0.9917645695182777
2014-06-24,-1,-0.003736394367541805,-0.0033602394316431146,-0.006825878455075772,0.0038620413021977287,0.9937546977740214
2014-06-26,-1,-0.004489173651594489,-0.0039579552221310176,-0.006825878455075772,0.0034183095913393018,0.9941017951129218
2014-06-30,-1,-0.004160276712164077,-0.0036805652904111905,-0.006825878455075772,0.002580774285636542,0.9942592424816445
2014-07-02,-1,-0.003620684552825353,-0.003252599066058782,-0.009547341045759378,0.002580774285636542,0.9926995706661905
2014-07-07,-1,-0.003394687727153392,-0.0030749436541672517,-0.009541452194467556,0.002580774285636542,0.9930755965056656
2014-07-09,-1,-0.0034882097136042646,-0.003166106302391963,-0.009481544813461851,0.0019965854406115797,0.993292469707638
2014-07-11,-1,-0.003561606424184483,-0.003247688568785578,-0.008900511147546116,0.002705803370818529,0.9929418827988434
2014-07-15,-1,-0.003374000400884959,-0.0030915335468849415,-0.008900511147546116,0.0019965854406115797,0.9932629132831136
2014-07-17,-1,-0.003583999648280518,-0.0032733310222744835,-0.006552900484320449,0.002705803370818529,0.9926607902990153
2014-07-21,-1,-0.0025292728553120295,-0.002449741130577763,-0.004949519517599262,0.002705803370818529,0.9931965266745109
2014-07-23,-1,-0.0019862579758779544,-0.001981050520625794,-0.004949519517599262,0.0018457244907854593,0.9934908071846814
2014-07-25,-1,-0.0018626680631106329,-0.001823525742348957,-0.007619013866855095,0.0018457244907854593,0.9931315391389093
2014-07-29,-1,-0.0016417574726676552,-0.001565128743624552,-0.007619013866855095,0.0019101530169893946,0.9933908712451229
2014-07-31,-1,-0.002922800257837985,-0.0028161292446737328,-0.0017671801795452894,0.004213172404462144,0.9938769857884648
2014-08-04,-1,-0.003275333816219813,-0.0030735215690340613,-0.002130468114359505,0.0031739876727393647,0.9941347748321756
2014-08-06,-1,-0.003867596469749499,-0.0035747240587174073,-0.0029170944109095593,0.0031739876727393647,0.9944077029629265
2014-08-08,-1,-0.0034911984676611763,-0.0032538616465786433,-0.002130468114359505,0.0031739876727393647,0.9947803002481582
2014-08-12,-1,-0.0034160428764332187,-0.003208945841351302,-0.00399126055000006,0.0031739876727393647,0.9933823641473605
2014-08-14,-1,-0.0025886613606093773,-0.0024610788530980785,-0.004876227340680424,0.0024840221668026774,0.9938722295374508
2014-08-18,-1,-0.002798365973416982,-0.0026102040398723637,-0.004876227340680424,0.0024840221668026774,0.9935287818719691
2014-08-20,-1,-0.0026411603285712466,-0.0024692804566014224,-0.0073728758155726295,0.0024840221668026774,0.9922402633933425
2014-08-22,-1,-0.002768321655330845,-0.002600884873542102,-0.004833975564889577,0.0024840221668026774,0.9926339079050778
2014-08-26,-1,-0.001964694988111984,-0.0019066990265120577,-0.007213828474559343,0.0015560095281658645,0.9922120502966414
2014-08-28,-1,-0.0020566392873610107,-0.001931045895818519,-0.008024033773289106,0.0,0.9919413030215356
2014-09-02,-1,-0.0013970642186091895,-0.0013941838518903107,-0.009803164995164131,-0.0018933256034956924,0.9910436080835612
2014-09-04,-1,-0.0030513566938848,-0.002824274605863818,-0.013766104920215025,0.0003149169996590284,0.9906766290263757
2014-09-08,-1,-0.0020547213319139926,-0.0019702886479941594,-0.013766104920215025,8.778163080204153e-05,0.9907411020768495
2014-09-10,-1,-0.0031142188226506344,-0.002947334722551474,-0.013766104920215025,8.778163080204153e-05,0.9911567825358285
2014-09-12,-1,-0.003655823028151187,-0.0034472852161539103,-0.014222589429991397,-0.0015005815128357617,0.990666529669673
2014-09-16,-1,-0.003227314249523648,-0.0030493179142912484,-0.016959723071715352,-0.0015005815128357617,0.9892270025430814
2014-09-18,-1,-0.004759393697462242,-0.0043922279464102525,-0.014222589429991397,0.0004389928739183923,0.9876636898641651
2014-09-22,-1,-0.004277618470295825,-0.0040166242632005055,-0.014222589429991397,0.005674386033420964,0.9866678979371626
2014-09-24,-1,-0.004820101956679148,-0.0044631302522552515,-0.014222589429991397,0.007428465459694151,0.9846982839339486
2014-09-26,-1,-0.005063876033223535,-0.004634922780953,-0.013377871595899048,0.007428465459694151,0.9855377001031224
2014-09-30,-1,-0.006182839018937007,-0.005544436853053133,-0.014222589429991397,0.012616003262033808,0.9838072271191675
2014-10-02,-1,-0.005889260833684289,-0.005311149801922129,-0.009946000215599179,0.0128407885600125,0.9842831375294652
2014-10-06,-1,-0.006833594349042546,-0.006227605105672139,-0.015127284681230705,0.0128407885600125,0.983725919887363
2014-10-08,-1,-0.00814351448719067,-0.007363181287003939,-0.013394938632270547,0.015652527460752744,0.9840428707013017
2014-10-10,-1,-0.008910332051730672,-0.00811097083648421,-0.008561336739524361,0.015652527460752744,0.9837029096008786
2014-10-14,-1,-0.007398566285689752,-0.00684724142641222,-0.006156779898739161,0.012247431390474586,0.9858414111580197
2014-10-16,-1,-0.003444027997971065,-0.003386468976842011,-0.007021930919027255,0.007413394618283007,0.9901461870122961
2014-10-20,-1,-0.0020094849245508193,-0.0018486676062894657,-0.007021930919027255,0.005796577417115332,0.9905028380084765
2014-10-22,-1,-0.00045279519675013157,-8.033682811490073e-05,-0.006737883962796668,0.00514533577896511,0.9917993637899908
2014-10-24,0,-0.0002534757101981971,0.00015015244285124978,-0.007170930291731823,0.008626258837190759,0.9912195139209262
2014-10-28,1,0.00018349037019621192,0.0007126466594067141,-0.007170930291731823,0.00514533577896511,0.9925097920664541
2014-10-30,1,0.0007969813492292512,0.0014137746793669278,-0.008690437048768047,0.0040728100711102545,0.9914515083791636
2014-11-03,0,-0.00039853836795422496,4.248425534109806e-05,-0.007679680922149464,0.00454741023409167,0.9925267683518401
2014-11-05,1,5.683213332140181e-05,0.0005575587306460334,-0.007170930291731823,0.00454741023409167,0.992589370166894
2014-11-07,1,0.0002173364496866016,0.0006972028868546393,-0.007838296180076285,0.00454741023409167,0.991138205725071
2014-11-11,1,0.0003810475518062546,0.0008622343809852183,-0.009187462766295363,0.00454741023409167,0.9901886840703524
2014-11-13,-1,-0.0009230002887971244,-0.0006960563721850636,-0.00992538775662209,0.006551444806723792,0.9891865352492591
2014-11-17,-1,-0.000686682529487323,-0.0004332045196148341,-0.012098338358900394,0.006551444806723792,0.9890540001249376
2014-11-19,0,-4.402262306318612e-05,0.00027703318505608026,-0.012098338358900394,0.009063765542159503,0.9878743150664032
2014-11-21,-1,-0.00039219388802484527,-8.777086256884939e-05,-0.012098338358900394,0.00833834907333686,0.9878840807057351
2014-11-25,0,-0.00023273188503134326,9.80088130158401e-05,-0.012098338358900394,0.009687712689444499,0.987182084881957
2014-11-28,-1,-0.0014217660288984289,-0.0012731577059821157,-0.008912335511983333,0.009687712689444499,0.9882100898475458
2014-12-02,-1,-0.0016305415923652245,-0.0015336414271960915,-0.008184100029884981,0.009687712689444499,0.98863965053059
2014-12-04,-1,-0.0007373490053545886,-0.00047622646471027184,-0.009913631912605338,0.00833834907333686,0.9888972233965294
2014-12-08,1,0.00024058307049180602,0.0005544413974346039,-0.008184100029884981,0.007652352283246132,0.9902850999469414
2014-12-10,-1,-0.00028633829384539227,-2.6758200609143436e-05,-0.00663828165986115,0.00833834907333686,0.9899323405826141
2014-12-12,0,-9.179033471728624e-05,0.00020908688447782695,-0.0038924451173250898,0.00833834907333686,0.9896418406051503
2014-12-16,-1,-0.0005475176727233138,-0.0003188886297508987,-0.00663828165986115,0.00833834907333686,0.9891513848037558
2014-12-18,1,0.0013118631615651438,0.0017853431380600335,-0.006993040628839144,0.0067179761834884905,0.9905921938739399
2014-12-22,1,0.000680733335034152,0.0009671779613411362,-0.0063358731123572265,0.0076894706181224095,0.9902216114075101
2014-12-24,1,0.001870854924868457,0.0023353167184737705,-0.007163361037723743,0.0067179761834884905,0.9901238776648785
2014-12-29,1,0.001630510239972901,0.002037400993486729,-0.008695061256538777,0.0067179761834884905,0.9892211231188353
2014-12-31,1,0.0013714016573414046,0.001758410998137403,-0.007163361037723743,0.0071262408911076875,0.989486552954908
2015-01-05,1,0.00048064094532303215,0.0007496788909605025,-0.0063358731123572265,0.0076894706181224095,0.988907932244276
2015-01-07,1,0.0011721564806083315,0.0016605021801517524,-0.007163361037723743,0.01054267882814491,0.9866890751409926
2015-01-09,1,0.0023657200950734365,0.0030756862119432457,-0.007163361037723743,0.007326445418092105,0.9879941075561008
2015-01-13,1,0.003997335735690374,0.0049312893666277335,-0.007163361037723743,0.006055644295322965,0.9887434675284439
2015-01-15,1,0.0019647353962220734,0.0025602298012838746,-0.00258594992445799,0.007326445418092105,0.9890305192522694
2015-01-20,1,0.0017118119214087058,0.0022800747779037167,-0.00258594992445799,0.00916197877641981,0.9885473245712315
2015-01-22,1,0.0029965832539935837,0.003787022009979178,-0.004883600283385341,0.006969545095421567,0.9893591541409092
2015-01-26,1,0.002157341220230471,0.0028308370293201033,-0.004334901099859017,0.006969545095421567,0.9903746663839822
2015-01-28,1,0.0030010750506333376,0.00359007432361793,-0.004334901099859017,0.006969545095421567,0.9906963000235789
2015-01-30,1,0.001946592507467826,0.0025980990776301063,-0.004334901099859017,0.008162652599760232,0.9900405268812297
2015-02-03,1,0.0020354656106090566,0.002590811267074205,-0.005661022367756446,0.0066736517462245536,0.9901743152353625
2015-02-05,1,0.0059940702057163075,0.006972041268689807,-0.0069398823614521266,0.005787004381540655,0.9899844786204612
2015-02-09,1,0.004922876383712452,0.0058529621750245085,-0.009340786214006,0.005787004381540655,0.9898689393803637
2015-02-11,1,0.005601357416260718,0.006384222427142233,-0.009340786214006,0.006594812166682485,0.989851503059786
2015-02-13,1,0.005891655958926312,0.006778141161505326,-0.009340786214006,0.004462983577642141,0.9893280685375632
2015-02-18,1,0.0054001019185849816,0.0061151309899834805,-0.010360334070304043,0.002323678429170916,0.989226883903632
2015-02-20,1,0.005306191682427987,0.0059160220778953915,-0.010360334070304043,0.002393147182530875,0.9891327921498985
2015-02-24,1,0.003953810271984175,0.004399471666330334,-0.011750636988734029,0.0034318376185831687,0.989537062936433
2015-02-26,1,0.0037434257891852665,0.004148391948542408,-0.012496477660135947,0.003126660912830761,0.9893162191801489
2015-03-02,1,0.004382143419374649,0.00482311661605736,-0.013456312601287343,0.003126660912830761,0.9883640967796491
2015-03-04,1,0.00285621329176226,0.002978317069846766,-0.013456312601287343,0.003126660912830761,0.9895716827843742
2015-03-06,1,0.0002932023805320255,0.000522807727291226,-0.01021539167799398,0.003755859720464794,0.9914751421790097
2015-03-10,-1,-0.0005604550607163143,-0.00026222911096532276,-0.006956615051971792,0.003755859720464794,0.9926943134439608
2015-03-12,1,0.0018083026150225898,0.00188566963841399,-0.006956615051971792,0.003126660912830761,0.9917726151830513
2015-03-16,1,0.001405829700596716,0.0014477154923889343,-0.00645640694448484,0.00400118248237778,0.992044648759458
2015-03-18,1,0.001804544896362194,0.0019217800643738167,-0.0061304629182674635,0.006267376214401927,0.9915107119273222
2015-03-20,1,0.0015882694437326407,0.0016600085042668838,-0.00853773806568072,0.00400118248237778,0.9912525206748389
2015-03-24,1,0.0007445779989069822,0.0007884403614700634,-0.0061304629182674635,0.00400118248237778,0.9918605068256185
2015-03-26,1,0.00019549458594781956,0.0002657692499808225,-0.004372307273408389,0.006267376214401927,0.9924430698504118
2015-03-30,-1,-0.001515231667542324,-0.0012883865029433995,-0.0034315597942834604,0.004998663383931475,0.9933226305659864
2015-04-01,-1,-0.0019777764515926414,-0.0017081237218821998,-0.0027453357071665213,0.006267376214401927,0.9924857442448327
2015-04-06,-1,-0.001651726449848602,-0.0014341410967578048,-0.001029398460901666,0.0063475717625118295,0.9922080306541925
2015-04-08,-1,-0.000832271467209614,-0.000555975545532943,-0.0027453357071665213,0.0063475717625118295,0.9918779087544118
2015-04-10,-1,-0.0002447566767911078,-1.728613469721837e-05,-0.0027453357071665213,0.0063475717625118295,0.9917030078500575
2015-04-14,-1,-0.0009792146916892674,-0.0007418293012337739,-0.005375359464467834,0.005693554261069343,0.9894727632595488
2015-04-16,-1,-0.0006840320244397961,-0.000523366036296596,-0.00578546974233959,0.005693554261069343,0.9894427652315663
2015-04-20,-1,-0.002028510088312036,-0.0017737309124760375,-0.00578546974233959,0.005693554261069343,0.9895310939880211
2015-04-22,-1,-0.0016538258089426456,-0.0013807190429403352,-0.007013219831703213,0.005693554261069343,0.989693859611891
2015-04-24,-1,-0.0017213474092370043,-0.0013020816365317898,-0.007013219831703213,0.008457778646818853,0.9892918648340465
2015-04-28,-1,-0.0014787509291727921,-0.001082160372543268,-0.0094146873269772,0.008457778646818853,0.9892557558339256
2015-04-30,-1,-0.0011499087584280864,-0.0008573246111956927,-0.0094146873269772,0.005021836739798996,0.989815265550145
2015-05-04,-1,-0.0009100533022663062,-0.0007610096055005904,-0.009881739104075495,0.0030184832424145157,0.9901577098447365
2015-05-06,-1,-0.0011043434812236126,-0.0007825579136755132,-0.009881739104075495,0.005021836739798996,0.9893526758951426
2015-05-08,-1,-0.0006335698078682612,-0.0004127203718086689,-0.009881739104075495,0.0018968651292966651,0.9897654542502895
2015-05-12,-1,-0.002082152771766638,-0.0016446803503689946,-0.0094146873269772,0.004893200977073948,0.9918758621556554
2015-05-14,-1,-0.0030815778253368772,-0.0026442798402522803,-0.0088715451275077,0.0018968651292966651,0.993015704356015
2015-05-18,-1,-0.00354044189050498,-0.0030448873188428072,-0.008398769160127512,0.004893200977073948,0.9930812460119061
2015-05-20,-1,-0.003385485158455966,-0.0029437580926082057,-0.008398769160127512,0.005426414877826753,0.992578156304139
2015-05-22,-1,-0.002766848213380692,-0.0023962276559877536,-0.0088715451275077,0.004162538831651318,0.9926905482529972
2015-05-27,-1,-0.0031594977782892944,-0.002724849361285937,-0.009046898355290548,0.0036006580505385894,0.9921913769351588
2015-05-29,-1,-0.0042250649268789475,-0.003620874301170944,-0.008398769160127512,0.004790358317431493,0.9923345186365048
2015-06-02,-1,-0.004242004383646077,-0.0036620216108477575,-0.008398769160127512,0.005079742650749067,0.9903500939484179
2015-06-04,-1,-0.0038278476260465307,-0.0033247995005141126,-0.008398769160127512,0.004790358317431493,0.9915324277575623
2015-06-08,-1,-0.003629247631722326,-0.0032065289941925037,-0.009829590078046346,0.004790358317431493,0.9908429261723418
2015-06-10,-1,-0.004012174818507998,-0.0035118234318509377,-0.0147439566710454,0.0036006580505385894,0.9904912462426312
2015-06-12,-1,-0.0043184667790684365,-0.0037790865944882105,-0.0147439566710454,0.005079742650749067,0.9889897277016476
2015-06-16,-1,-0.0035701686337219814,-0.003160081677732466,-0.0147439566710454,0.005079742650749067,0.9882759090383659
2015-06-18,-1,-0.0036479859070195205,-0.0031976827108188164,-0.0147439566710454,0.005079742650749067,0.9885407450789659
2015-06-22,-1,-0.004328027810898095,-0.003772120386923042,-0.012456469371132753,0.0008212109890041579,0.9893493335802148
2015-06-24,-1,-0.00541157654911658,-0.004742761731730703,-0.01070504602548996,0.0017292756734120095,0.9903721355904536
2015-06-26,-1,-0.004877271521456668,-0.004317518548922151,-0.01302589366419776,-0.0002937554773630401,0.9896041181237037
2015-06-30,-1,-0.002928192063658036,-0.002686310790217032,-0.011977634651116748,-0.0002937554773630401,0.9901184603842048
2015-07-02,-1,-0.003792243774269419,-0.0035028247884114063,-0.01070504602548996,0.004196175744476327,0.9901782271921291
2015-07-07,-1,-0.004146872141204191,-0.0037768491543929213,-0.009712977837957965,0.005119915851046446,0.9906519655920951
2015-07-09,-1,-0.004252621524819812,-0.00391915680705419,-0.006747516907248648,0.00761887460611355,0.9909963882569326
2015-07-13,-1,-0.0035647973109037834,-0.0033831300838311406,-0.009712977837957965,0.005119915851046446,0.989374940753189
2015-07-15,-1,-0.003239979200341003,-0.0031103135391920356,-0.010894854123178295,0.0038224982002826777,0.9891218984748167
2015-07-17,-1,-0.0029244341605998286,-0.0029157596372185574,-0.01403240014197172,0.0038224982002826777,0.9885520413078618
2015-07-21,-1,-0.0029551621962856907,-0.0028067177121750796,-0.01403240014197172,0.005119915851046446,0.9875406000303102
2015-07-23,-1,-0.002447987523322735,-0.002390581745987669,-0.018627224762146156,0.005119915851046446,0.9863058808629076
2015-07-27,-1,-0.004150926791407804,-0.003917319103063972,-0.01908331264924465,0.005119915851046446,0.9851671444836614
2015-07-29,-1,-0.0034411358902862394,-0.0031952665746312974,-0.020044883063041218,0.0038224982002826777,0.9831378742347942
2015-07-31,-1,-0.0032575802971352248,-0.0030117668523758434,-0.020044883063041218,0.002781986585843068,0.9810450276014777
2015-08-04,-1,-0.002721234751298254,-0.002561907336811376,-0.023792060677698804,0.0008545168170814509,0.9794467008758331
2015-08-06,-1,-0.002225130032524212,-0.0021069448736363784,-0.023792060677698804,0.00519168920581434,0.9778088660023444
2015-08-10,-1,-0.0021763971943080255,-0.002048719389092469,-0.020355918424794988,0.00519168920581434,0.9794139883162388
2015-08-12,-1,-0.002978962949240993,-0.0027769197835421843,-0.022835295308347266,0.00519168920581434,0.9799197713894742
2015-08-14,-1,-0.003506955232510809,-0.0032359632428908044,-0.02458065346993912,0.008495873912013743,0.9790839008242223
2015-08-18,-1,-0.0029567582022847856,-0.0027344510338911097,-0.02458065346993912,0.0032286309142396264,0.9804608419032574
2015-08-20,-1,-0.003986897212454742,-0.0036452123740979762,-0.028400721269621572,0.0032286309142396264,0.9792102048644509
2015-08-24,-1,-0.0062688179793678545,-0.005650360123792323,-0.024356198536573323,0.0032286309142396264,0.9811684752803604
2015-08-26,-1,-0.00854626500061482,-0.007678559586827128,-0.024356198536573323,0.0032286309142396264,0.9822388692058552
2015-08-28,-1,-0.006422799452813253,-0.005806767690104068,-0.027727356469524178,-0.000744390062357197,0.9831871433510568
2015-09-01,-1,-0.007598949484492243,-0.007048351553710924,-0.024356198536573323,0.0016332039051097577,0.9832186990291967
2015-09-03,-1,-0.005886030091352808,-0.0055718120194893465,-0.024356198536573323,-0.000744390062357197,0.983448403581659
2015-09-08,-1,-0.007049230480603796,-0.006488168497383179,-0.024356198536573323,0.0016332039051097577,0.9833318000198654
2015-09-10,-1,-0.005866552442489624,-0.0055142863015956445,-0.020808302099955333,0.014286135431686803,0.9805948324894882
2015-09-14,-1,-0.006244221595978591,-0.00585223225359089,-0.020342049152091007,0.014286135431686803,0.9814840220508919
2015-09-16,-1,-0.005580747054095915,-0.005393453142179361,-0.025154371000937564,0.023916503667813473,0.9773309656643319
2015-09-18,-1,-0.006718664711946198,-0.006413486230260034,-0.01566126987232772,0.023916503667813473,0.9793434322018235
2015-09-22,-1,-0.007154623748720626,-0.006842972704142948,-0.01566126987232772,0.023916503667813473,0.9790140050790659
2015-09-24,-1,-0.007701682881518533,-0.00736296129226084,-0.013181565433736185,0.027008796770431564,0.9782392029225758
2015-09-28,-1,-0.00914966195311202,-0.008633140907607214,-0.009924579805444077,0.027008796770431564,0.9788678818351345
2015-09-30,-1,-0.006879994643020321,-0.006687322225875586,-0.013402233495257439,0.02708807618963766,0.9791062450681784
2015-10-02,-1,-0.005995694803688137,-0.0058402725320410385,-0.013402233495257439,0.02708807618963766,0.9768905662454469
2015-10-06,-1,-0.004546036639603995,-0.004536136408524305,-0.013402233495257439,0.02708807618963766,0.9778117617052319
2015-10-08,-1,-0.0019532107206550846,-0.0016299664295805162,-0.013402233495257439,0.014567843927378425,0.9813199073157501
2015-10-12,-1,-0.0027042291805403256,-0.002485395116840568,-0.011497735609340465,0.014567843927378425,0.9816372440451219
2015-10-14,0,-0.00040876133350039256,0.00016277942938700842,-0.01090117927055027,0.006346699191656502,0.9854134270108271
2015-10-16,-1,-0.000847107174382457,-0.00032124797669574857,-0.010207552302010255,0.013941881066371594,0.9852441765316653
2015-10-20,-1,-0.0009665926427976893,-0.0004792143720905586,-0.010207552302010255,0.021330718086072176,0.9840831760126246
2015-10-22,-1,-0.0009756417833786421,-0.0005058306054288426,-0.009969490812144715,0.021330718086072176,0.9850256765688865
2015-10-26,-1,-0.0010540155741656627,-0.0005770887457768939,-0.009969490812144715,0.021330718086072176,0.9851613871831034
2015-10-28,0,-0.00031010428352947796,0.00023381144252836335,-0.009810472568167316,0.01870779146562355,0.9868255984759322
2015-10-30,1,0.00391718264613798,0.005026596925336039,-0.009969490812144715,0.013133781915998365,0.9892872081131882
2015-11-03,1,0.0045907735296335135,0.005768736444734109,-0.01090117927055027,0.012430595640832123,0.986800999230905
2015-11-05,1,0.004827163757082052,0.006059422504554985,-0.01090117927055027,0.018046733527997526,0.9862130351896649
2015-11-09,1,0.004345768891609128,0.005547115102982089,-0.013585186265296693,0.018046733527997526,0.984498725734065
2015-11-11,1,0.0035159331725673295,0.004590809135723517,-0.01726509702786405,0.018046733527997526,0.9842369465961006
2015-11-13,1,0.0038388687132826648,0.004915494595017377,-0.023521412745650262,0.013778337168795684,0.9817937296910827
2015-11-17,1,0.005173057722412692,0.006411833115884594,-0.023521412745650262,0.018046733527997526,0.9810841127078737
2015-11-19,1,0.005451312284602164,0.006725319705845561,-0.024438258773683955,0.013778337168795684,0.9808700303214903
2015-11-23,1,0.004821032392767108,0.005921205963789931,-0.024438258773683955,0.018046733527997526,0.9811174209260761
2015-11-25,1,0.005118215978193242,0.006194255965410766,-0.024438258773683955,0.018605821688614133,0.9797661075006598
2015-11-30,1,0.004652959417416632,0.005629648741499255,-0.024438258773683955,0.014043342903917885,0.9798881151759683
2015-12-02,1,0.003722206222952414,0.004642567729403848,-0.024438258773683955,0.014043342903917885,0.9804172089416598
2015-12-04,1,0.004833191354447066,0.005923579738711665,-0.024956607823219616,0.011639363301574744,0.979037897399819
2015-12-08,1,0.0024385591074950947,0.0032143088073078026,-0.024956607823219616,0.011639363301574744,0.9797834017689822
2015-12-10,1,0.0017693141261259464,0.0024079804198308048,-0.019246635143257793,0.01067167369798512,0.9806489464040514
2015-12-14,0,-0.00011652723795475026,0.0002723226965920505,-0.016346083117834188,0.011199140180984613,0.9819416677684903
2015-12-16,1,0.0005841036728515749,0.001031246154664273,-0.016346083117834188,0.010564658657943543,0.9819422672076825
2015-12-18,1,0.00037523476748737867,0.0008113054496216073,-0.014727720232007156,0.008902740634915987,0.9835343470847326
2015-12-22,1,0.002026734342850452,0.0026715431947909813,-0.014727720232007156,0.0051451729340534665,0.9840075155029
2015-12-24,1,0.003152989530360829,0.00397227901001911,-0.016346083117834188,0.0051451729340534665,0.9818463942581276
2015-12-29,1,0.0031084655892000845,0.003921409070567854,-0.01505604261724906,0.0009968780637154822,0.9825228866919425
2015-12-31,1,0.0019453275961484105,0.002620883129255249,-0.01147329691715164,0.0051451729340534665,0.9832332680939948
2016-01-05,1,0.0004917520704479173,0.0008811094597312207,-0.010361792036476209,0.009236647513956819,0.9820251348360972
2016-01-07,-1,-0.0013588661621335727,-0.0012210518588294348,-0.010361792036476209,0.015819823817129153,0.9817624944214601
2016-01-11,-1,-0.001411011547271824,-0.001201191573050949,-0.01333469456807849,0.015819823817129153,0.9793882591287559
2016-01-13,-1,-0.0028446564639166136,-0.0028120333253104216,-0.01333469456807849,0.013964346190142937,0.9803385786224631
2016-01-15,-1,-0.0028855221690133174,-0.0027542377050612413,-0.01333469456807849,0.03259693015474565,0.9774380704036558
2016-01-20,-1,-0.0042930450658308136,-0.0038618365336075162,-0.017934745723206073,0.03259693015474565,0.9753574708996005
2016-01-22,-1,-0.002358247537010333,-0.002254249758637478,-0.019992412922531375,0.03683233415908399,0.9722823755979753
2016-01-26,-1,-0.0039376537272570004,-0.0036054097731589864,-0.019992412922531375,0.03436235520875661,0.9742596568019533
2016-01-28,-1,-0.0025111943003530285,-0.002381818233087825,-0.019992412922531375,0.03436235520875661,0.9726374955603263
2016-02-01,-1,-0.0014254699534589055,-0.0013995209684674755,-0.019992412922531375,0.03234512088742559,0.972802908642413
2016-02-03,-1,-0.0014780719087244308,-0.0014535403327037883,-0.017934745723206073,0.022016024494314522,0.9752163570967215
2016-02-05,-1,-0.0003885877685954363,-0.00034321653406143286,-0.013982185715483982,0.022016024494314522,0.9753263784923726
2016-02-09,-1,-0.0027465617434632144,-0.002511393323960837,-0.013245758744568377,0.022016024494314522,0.9753674899265752
2016-02-11,-1,-0.004746595863377374,-0.004150512440239284,-0.010184636296741342,0.025251121245077047,0.9742300092522028
2016-02-16,-1,-0.0012855461452131044,-0.0010732998119783177,-0.013360952501677206,0.018558709615591338,0.9788561238432404
2016-02-18,-1,-0.0015659128134402605,-0.0011858723788948583,-0.010184636296741342,0.02073841221727515,0.9784806868480875
2016-02-22,-1,-0.0020848352651496854,-0.0015134486910249303,-0.00996756400318778,0.018558709615591338,0.9814388185311522
2016-02-24,-1,-0.0027121329420379935,-0.002118436225873915,-0.008585922639339837,0.018558709615591338,0.982316476363773
2016-02-26,-1,-0.0009096410877252638,-0.0005875065659696957,-0.00996756400318778,0.01695452940985771,0.9828663440273853
2016-03-01,1,0.00031438471138836365,0.00043859346859351304,-0.008585922639339837,0.011900184254756294,0.9839971365809832
2016-03-03,1,0.0013398686829080861,0.0015265915577207007,-0.00865239555941149,0.01007085168093905,0.9842924778954397
2016-03-07,1,0.0034312236211033937,0.003736842757852613,-0.02073222136647171,0.008029283817131009,0.984224566697257
2016-03-09,1,0.0016183624986952168,0.0018412040551297377,-0.02073222136647171,0.008029283817131009,0.9851860446194288
2016-03-11,1,0.003108553539924638,0.0033839915233712108,-0.02073222136647171,0.008029283817131009,0.9853667753035968
2016-03-15,1,0.0019274319207203494,0.0020235648895400634,-0.01269892928993469,0.011816558508980448,0.9842983661536823
2016-03-17,1,0.0036259085629652974,0.00393862563292896,-0.01269892928993469,0.009692144760519637,0.9861310703221962
2016-03-21,1,0.003179732010208343,0.003401352637266358,-0.011184342085943441,0.009692144760519637,0.9851446861173834
2016-03-23,1,0.0033423805797112966,0.00361303204557788,-0.010773388240510374,0.011141075668347636,0.9848976331373219
2016-03-28,1,0.00431044504859596,0.004896641514005142,-0.0067892825720665285,0.011141075668347636,0.9858069543988309
2016-03-30,1,0.004878889092786821,0.0055700425497643286,-0.0067892825720665285,0.015867256447930977,0.9846958354688722
2016-04-01,1,0.004032085909868269,0.004613394352275235,-0.0067892825720665285,0.015867256447930977,0.9849653985356184
2016-04-05,1,0.0018389891187152328,0.0020852370561273213,-0.003386586391193129,0.017031335893355506,0.9833360247543863
2016-04-07,1,0.00045193803543088336,0.000456481881287061,-0.0006003132119954678,0.017031335893355506,0.9843963023610655
2016-04-11,1,0.0012559919367919324,0.001410406505586086,-0.0006309994347204219,0.017031335893355506,0.9837975075512723
2016-04-13,1,0.0035502400777961286,0.0041581495304501975,-0.0026354641304396575,0.012206309492865355,0.9864689324575328
2016-04-15,1,0.004080274501462981,0.0047910374041677285,-0.003720985565867039,0.012206309492865355,0.9856422224263982
2016-04-19,1,0.005371048047634486,0.006202512740029505,-0.003720985565867039,0.012206309492865355,0.9864103079457026
2016-04-21,1,0.006389235700467759,0.007412115841664684,-0.006110558893659129,0.010153978655384803,0.9852598986132713
2016-04-25,1,0.006205312698162442,0.007208453579188389,-0.003720985565867039,0.014866775933123827,0.9849766502143973
2016-04-27,1,0.006500415309790937,0.007431131275973524,-0.003720985565867039,0.013011675155650155,0.9846489291554892
2016-04-29,1,0.006237589346374273,0.007192819511730484,-0.0024815461955726894,0.013011675155650155,0.9853797196690925
2016-05-03,1,0.008217642892875143,0.009309072581699057,-0.004966135922722629,0.010153978655384803,0.987375029141541
2016-05-05,1,0.008476215353743884,0.00951839480407882,-0.004966135922722629,0.013011675155650155,0.9874250093989512
2016-05-09,1,0.006400019091591219,0.00704523712292501,-0.0024815461955726894,0.01691029682471403,0.9890417796870037
2016-05-11,1,0.007077095859829434,0.007900138761682034,-0.0020663256669180485,0.01691029682471403,0.9888073050173167
2016-05-13,1,0.005590286978913164,0.0061583868353290595,-0.004477818813181751,0.01691029682471403,0.9882148704915045
2016-05-17,1,0.006667554969231006,0.007445088489537388,-0.006613536739412494,0.015055169478635281,0.9882406428153198
2016-05-19,1,0.006164470324194985,0.0069307749893861865,-0.006613536739412494,0.015055169478635281,0.9894001086064528
2016-05-23,1,0.007047136214490394,0.007916290647036913,-0.00875480154268939,0.008769199006610537,0.9895308786953627
2016-05-25,1,0.007185900460711544,0.007944245482987385,-0.00875480154268939,0.009446779153406946,0.9903384580202543
2016-05-27,1,0.005740336644116903,0.006283551917728543,-0.013245171398080714,0.009446779153406946,0.9835544927809388
2016-06-01,1,0.004186831432577719,0.004407784432418183,-0.009442077633872302,0.012392365928329659,0.9812905008205636
2016-06-03,1,0.004245419554633922,0.0044401768774199445,-0.009442077633872302,0.012392365928329659,0.9807511828641718
2016-06-07,1,0.004063565969610263,0.004161313041870527,-0.013900507734457121,0.010699509497449914,0.979057109091557
2016-06-09,1,0.004426216246240928,0.004586508455581613,-0.013900507734457121,0.012396000439156878,0.9777820347478888
2016-06-13,1,0.002558110311617407,0.0026804855514901216,-0.009036186958983379,0.016161722102075768,0.9781193209097736
2016-06-15,1,0.0027072834239366137,0.0028203586388915545,-0.009036186958983379,0.016161722102075768,0.9785201043233928
2016-06-17,1,0.0016569363668548372,0.0019077804878773266,-0.006054116836399684,0.016161722102075768,0.9793373164480598
2016-06-21,1,0.0008756750315093787,0.0012361956833800648,-0.006907081050269504,0.016161722102075768,0.9790853440765204
2016-06-23,1,0.0019666513786535623,0.002161199223464057,-0.01159507960059284,0.016161722102075768,0.9793444892149111
2016-06-27,-1,-0.0036622180171924537,-0.0028272037339427077,-0.004154458294914929,0.01858724163850919,0.9842411945434961
2016-06-29,0,-0.0002064565138649797,0.00018353966326921443,-0.006907081050269504,0.00905913359937122,0.9880282560286092
2016-07-01,-1,-0.0013863651082855638,-0.0007264500193634696,-0.01097315695739825,0.00583923626152503,0.9886515936513633
2016-07-06,-1,-0.003817441113438516,-0.002801349986351534,-0.00712232767781096,0.00905913359937122,0.9880470291683017
2016-07-08,1,0.00018679488344468904,0.0005422967226817563,-0.00712232767781096,0.004734632658159868,0.9904841123470222
2016-07-12,1,0.0018086392681749843,0.001965998117388994,-0.01084961994197381,0.0044065135824312655,0.9914603081173211
2016-07-14,1,0.002320268716225683,0.0023911068213727017,-0.01084961994197381,0.004239571332845279,0.9912310781408399
2016-07-18,1,0.0015376297921823108,0.0017497728642855898,-0.011062663274275202,0.004451250440303778,0.9901814698237718
2016-07-20,1,0.0015914124819754484,0.0017531529969566175,-0.011334466964808975,0.003992705278945343,0.9894887945367979
2016-07-22,1,0.0009171369749208544,0.0011623967883017203,-0.010992061343677395,0.0065550041410430415,0.9898181294306825
2016-07-26,1,0.0010701583394808162,0.0012883713895636348,-0.010992061343677395,0.0065550041410430415,0.9899653103785147
2016-07-28,1,0.001551755769180629,0.0016055029790077975,-0.010992061343677395,0.0065550041410430415,0.9893398690014047
2016-08-01,-1,-0.0004265385043455167,-5.691342289454015e-05,-0.011589968728941528,0.01028773210259657,0.9891380651985607
2016-08-03,1,0.0008483223423200331,0.0010204745421046484,-0.010992061343677395,0.0065550041410430415,0.9906446791246285
2016-08-05,1,0.00027173652036518667,0.0005885075592245413,-0.010992061343677395,0.01028773210259657,0.9899532765981122
2016-08-09,1,0.0007120609708485663,0.0008444030320259575,-0.011596125403105999,0.01028773210259657,0.9895625306745126
2016-08-11,1,0.0008627718561740409,0.0010035347579617447,-0.013318373838436072,0.010599806286053363,0.9869802196683098
2016-08-15,1,0.00032032812092819263,0.0005100352750390057,-0.013633483273134621,0.010599806286053363,0.9857520092282701
2016-08-17,-1,-0.001155421641737756,-0.0007437829732823168,-0.01051140319977516,0.013212927942861717,0.9843004687356417
2016-08-19,-1,-0.00037287251380347893,-5.606083711840186e-05,-0.01051140319977516,0.013212927942861717,0.984871037884975
2016-08-23,-1,-0.0008862061166871012,-0.00045796460585727943,-0.01051140319977516,0.015128711055062558,0.983975816871834
2016-08-25,-1,-0.0032352317095928986,-0.002418584382950733,-0.00933275661556121,0.015128711055062558,0.9844731957029375
2016-08-29,-1,-0.004489574520726116,-0.00346109174975385,-0.00933275661556121,0.012010459564434486,0.9847970743059624
2016-08-31,-1,-0.004742255310427412,-0.0036879688925840065,-0.007056803063083534,0.012010459564434486,0.9849180912754322
2016-09-02,-1,-0.0032612707240037018,-0.0024936094696884235,-0.007056803063083534,0.008250694682314184,0.9857958590951144
2016-09-07,-1,-0.0038520835573066328,-0.003014622719109093,-0.007056803063083534,0.010639106170848137,0.9852734786530143
2016-09-09,-1,-0.004639307190077027,-0.0038036466880954647,-0.006575609774075093,0.008657434859024093,0.987585107539445
2016-09-13,-1,-0.004298681754265194,-0.003560003502647112,-0.006575609774075093,0.006894437328966864,0.9894707348557333
2016-09-15,-1,-0.00240657729466435,-0.001880718600619292,-0.007765238844706455,0.0058849718058118505,0.9919271703477281
2016-09-19,-1,-0.0011888039990326394,-0.0008213655978672363,-0.007765238844706455,0.004648305223596966,0.9919344999701699
2016-09-21,-1,-0.0014691612052809557,-0.0010464638761759305,-0.006575609774075093,0.0058849718058118505,0.9920198687722592
2016-09-23,1,0.00036175805249604457,0.0003685021441729055,-0.008344294669872222,0.004648305223596966,0.991611248971707
2016-09-27,1,0.0005980227982470919,0.000643671808249852,-0.008127618245037367,0.004648305223596966,0.9915871032515282
2016-09-29,1,8.761717079335804e-06,7.693504541400159e-05,-0.008127618245037367,0.004648305223596966,0.9917271087896433
2016-10-03,-1,-0.0001701942621177441,-0.00010562542381197283,-0.008127618245037367,0.004648305223596966,0.9916403507023775
2016-10-05,-1,-0.0008725940706640628,-0.0006722652416331636,-0.008127618245037367,0.004648305223596966,0.9917836563656474
2016-10-07,-1,-2.5284354534811472e-05,-1.8025651998289117e-05,-0.00680031190283437,0.007065885342907755,0.9858845695567489
2016-10-11,-1,-0.000992675325959958,-0.000810674784882795,-0.005188101967396949,0.010028487853030796,0.9854607302941821
2016-10-13,-1,-0.0009245896825112417,-0.0008119677154349184,-0.003934929308485657,0.01528798309881316,0.985314273152722
2016-10-17,-1,-0.0004657231893649618,-0.0004396505650816807,-0.004597497840394215,0.01528798309881316,0.9838018171664026
2016-10-19,1,0.00045159673771145834,0.0005348486545888459,-0.006450540565405437,0.01049221942979457,0.9838514423397343
2016-10-21,1,1.4198834083812992e-05,2.3792183867085462e-05,-0.004597497840394215,0.01049221942979457,0.9841623004217935
2016-10-25,1,0.00033808173991335536,0.0004369500327294987,-0.003934929308485657,0.010278605886136011,0.9847293255698751
2016-10-27,1,0.00044613472948160543,0.0005934836049501636,-0.003514676394210545,0.014343942343288299,0.9843690718560941
2016-10-31,1,0.0006427847413953607,0.000840292277438989,-0.003514676394210545,0.014343942343288299,0.984549782385126
2016-11-02,-1,-0.00044980909299768997,-0.0004354156574637563,-0.0028876500048349856,0.01789444363444969,0.98419396927947
2016-11-04,1,0.003304264809011385,0.0037896304861488447,-0.0028876500048349856,0.009500194057530616,0.9913481906147998
2016-11-08,1,0.00361776046943192,0.004130920112960228,-0.0028876500048349856,0.009500194057530616,0.991060161406384
2016-11-10,1,0.003975931634839031,0.004526441987517651,-0.0032292076789116205,0.009458187418242213,0.9912066923249626
2016-11-14,1,0.0035467685644565644,0.004074967259699289,-0.0032292076789116205,0.009458187418242213,0.9921107243279893
2016-11-16,1,0.0006620466608085214,0.0007605494016267648,-0.0032292076789116205,0.009458187418242213,0.9916068080845185
2016-11-18,1,0.002023953865044813,0.0022219666098745993,-0.005037045810333226,0.009458187418242213,0.9909763254972266
2016-11-22,1,0.0024847818155438075,0.0027704758389681746,-0.005037045810333226,0.00839094008568408,0.9910495235130362
2016-11-25,1,0.0018509937123551918,0.001954700883922843,-0.0052959152693707896,0.004620661225310815,0.9912434676536619
2016-11-29,1,0.0022832743367589975,0.0025355475959139002,-0.0052959152693707896,0.007819838423988697,0.9906232607798457
2016-12-01,1,0.003616364087037989,0.004105397014069565,-0.0052959152693707896,0.004209804442083768,0.9909201022156415
2016-12-05,1,0.004014705895997764,0.0045737128037971475,-0.0052959152693707896,0.009010573241009356,0.9899237773828
2016-12-07,1,0.0047079755748608496,0.005368615259302701,-0.0052959152693707896,0.004911951878138561,0.9908448122461251
2016-12-09,1,0.004768904623462636,0.005421436832956239,-0.006022404735294694,0.003049404258040884,0.9905690540478694
2016-12-13,1,0.0040162728764589,0.004540400367377075,-0.0052959152693707896,0.00861607807127396,0.99117575780479
2016-12-15,1,0.004244302703954625,0.004820638056820008,-0.0052959152693707896,0.004911951878138561,0.9917136291661801
2016-12-19,1,0.003217068938408615,0.0036218662336452104,-0.003721193499524912,0.00861607807127396,0.9926730132566601
2016-12-21,1,0.0027931944864138707,0.003103750768910265,-0.003721193499524912,0.00992961180154157,0.9921705328331966
2016-12-23,1,0.0027647658302828388,0.0031023191150292492,-0.003434101425566425,0.012378536688732898,0.9918739654194001
2016-12-28,1,0.0026261038956419836,0.0029430956711149316,-0.0035245066907834896,0.012378536688732898,0.9921995220996945
2016-12-30,1,0.0023477958031955545,0.002611689101841208,-0.004640535966881959,0.012378536688732898,0.9909870148464321
2017-01-04,1,0.0032653859277596885,0.0036628692737892266,-0.004640535966881959,0.010153121076952733,0.9916819464570921
2017-01-06,1,0.0031708146739746054,0.0035483316918672857,-0.004640535966881959,0.010153121076952733,0.9915123682687671
2017-01-10,1,0.0027726148074778273,0.002882588671463549,-0.004050475540657692,0.010153121076952733,0.9891058042180813
2017-01-12,1,0.0034069842847145827,0.003633822402333783,-0.004050475540657692,0.007885463639630613,0.9897335460525372
2017-01-17,1,0.003039443869759022,0.003228263042708612,-0.004050475540657692,0.010201992641610768,0.9891607034446488
2017-01-19,1,0.002788328202799062,0.0028997501359138457,-0.004050475540657692,0.007885463639630613,0.9894747701577525
2017-01-23,1,0.003198397623921957,0.0033501024589464926,-0.005526570648153188,0.00701612488535989,0.9896719408016696
2017-01-25,1,0.0037423641780555137,0.003932045620664432,-0.005823893142471007,0.006331235774390492,0.9896580067901748
2017-01-27,1,0.0032253565317809135,0.0033745610166040505,-0.006139935412854235,0.006331235774390492,0.9900039414528381
2017-01-31,1,0.0022736194154717566,0.002298572402573559,-0.0036060407963271262,0.00701612488535989,0.9903545070720507
2017-02-02,1,0.0015597358095048928,0.0017525446033781217,-0.0036060407963271262,0.006331235774390492,0.9906272343810326
2017-02-06,1,0.0011500226231392595,0.0013836940531944918,-0.0035185346268178956,0.00464212168449954,0.9908481734430985
2017-02-08,1,0.0008079815266818527,0.00100448791173545,-0.0035185346268178956,0.007417137432997933,0.9929451556095104
2017-02-10,1,0.0009598708038163619,0.0011257536779247892,-0.0035185346268178956,0.007417137432997933,0.992162390366841
2017-02-14,1,0.0010673562011802476,0.0011991923872866107,-0.0035185346268178956,0.007417137432997933,0.9921750135536325
2017-02-16,1,0.0008766464246955971,0.001049773326563623,-0.0035185346268178956,0.008976467744973349,0.9918437226698397
2017-02-21,1,0.0005976752088647433,0.0008224978011831587,-0.004069713047630667,0.008976467744973349,0.99093434186259
2017-02-23,1,0.00011409215222879575,0.00038725786383669544,-0.0023596494239122045,0.010000246373457271,0.990211278286411
2017-02-27,-1,-0.0003613937342043928,-1.969797887840135e-05,-0.0023596494239122045,0.010000246373457271,0.990165734427351
2017-03-01,1,0.00022787222191342443,0.0005372528906216149,-0.0037693556495842617,0.006623296011060861,0.990965799392625
2017-03-03,0,-0.00017496657010240076,0.00018181981943565264,-0.0032694513964756223,0.010000246373457271,0.9862947970211188
2017-03-07,0,-0.00019119226124610718,0.0002050239564545845,-0.0017488854089441422,0.013376201476409139,0.9852043440244335
2017-03-09,-1,-0.0010429238846729235,-0.0005139954456121051,0.0014248782138759682,0.013874413892393961,0.9847460686890847
2017-03-13,0,-0.00035100274744803966,0.00011520115929964845,-0.00014101000553215753,0.013874413892393961,0.9848843769942998
2017-03-15,1,6.34298256510801e-05,0.00043854498020916874,-0.00014101000553215753,0.01348758670816753,0.9846255104450554
2017-03-17,0,-9.640534283378017e-05,0.00031108821142483527,-0.0012314510747887897,0.013061489215278388,0.9843998408485393
2017-03-21,-1,-0.0011900740506312689,-0.0006274052097844517,-0.0012314510747887897,0.013061489215278388,0.9850160505220255
2017-03-23,-1,-0.0005685567551391402,-6.504664519671271e-05,-0.004614190654537059,0.01168393772242863,0.9864234866573129
2017-03-27,-1,-0.0021217991930690115,-0.0014290561350996738,-0.0019482924658161941,0.012880751335456974,0.9856294889183359
2017-03-29,-1,-0.0028451856997301836,-0.0020599380100225426,-0.0016301083055635327,0.012880751335456974,0.9857806451541831
2017-03-31,1,0.0037989929286672817,0.004048164661038441,-0.003460950732456357,0.01168393772242863,0.9912357057624547
2017-04-04,1,0.00572433706081025,0.006209653460228655,-0.004191794373255263,0.005422627921527796,0.9894224840786793
2017-04-06,1,0.006250481225185886,0.0068224143864670465,-0.004614190654537059,0.004126501839146864,0.9874516573538697
2017-04-10,1,0.0064840785531941406,0.0070366377485840724,-0.005156895097724091,0.003608582382575027,0.9876607636851179
2017-04-12,1,0.00547025431098214,0.005899363960226899,-0.005156895097724091,0.004126501839146864,0.9890989404960524
2017-04-17,1,0.005497626184177222,0.005939773446498215,-0.006358469543153487,0.004126501839146864,0.9879887844679054
2017-04-19,1,0.005226545157805545,0.005645344349230228,-0.007566103223671981,0.00560647905951392,0.9868955081663625
2017-04-21,1,0.004841267526449287,0.005207342925102744,-0.007566103223671981,0.011587850159765644,0.9858955634217584
2017-04-25,1,0.004832729034519128,0.005175543087446345,-0.007566103223671981,0.00560647905951392,0.9861247988545238
2017-04-27,1,0.0049038599566740195,0.00530310715142016,-0.007566103223671981,0.009368942106451759,0.9864128360085435
2017-05-01,1,0.004767118525174321,0.005156085597033446,-0.007566103223671981,0.009368942106451759,0.9862692811867214
2017-05-03,1,0.004116137312483157,0.004465429234778575,-0.006358469543153487,0.010301495580245923,0.9880988971973318
2017-05-05,1,0.00514336830265123,0.005643137902217054,-0.006358469543153487,0.00915102034756939,0.9893108849358454
2017-05-09,1,0.004265645631363181,0.004612896870101556,-0.004347550275818015,0.00915102034756939,0.9902902151224237
2017-05-11,1,0.004469819167567277,0.004841738277906119,-0.0015344600454027506,0.005910106994148813,0.9914103850487411
2017-05-15,1,0.004509910741361653,0.0048330646555723045,-0.0015344600454027506,0.005910106994148813,0.9916800523571994
2017-05-17,1,0.0038134979597493042,0.004028988470123097,-0.0015344600454027506,0.004872676216522605,0.9926162052482774
2017-05-19,1,0.004076245023646691,0.004294525532343752,-0.0015344600454027506,0.004562649939044673,0.9942355600881401
2017-05-23,1,0.003812841273885968,0.003983081012373943,-0.0032043035339880677,0.004562649939044673,0.9941455919262141
2017-05-25,1,0.003778344370865874,0.003924997573157446,-0.004264510443265239,0.004562649939044673,0.9932774144943326
2017-05-30,1,0.003881487214363529,0.00408891857375347,-0.007476120537068701,0.004562649939044673,0.9929684318159944
2017-06-01,1,0.004101904854498492,0.0043293664114432435,-0.009014317853409452,0.00438081566061089,0.9914647718697503
2017-06-05,1,0.0033818131672036194,0.0034788115788933504,-0.007859511652642683,0.004477408488755778,0.9918031291244829
2017-06-07,1,0.0037076841164793714,0.0038969123457635755,-0.007859511652642683,0.004477408488755778,0.991470821574772
2017-06-09,1,0.0033844321036416995,0.0035000285843438347,-0.007859511652642683,0.007031420333419525,0.9906189099424181
2017-06-13,1,0.003344174320626385,0.0034629465404250707,-0.007859511652642683,0.007031420333419525,0.9903586736568236
2017-06-15,1,0.0030406775909073056,0.0031596343815704984,-0.005091821492112859,0.008701619985531206,0.9903009383646091
2017-06-19,1,0.003191825476077397,0.0033813675440636957,-0.005858757831091625,0.008701619985531206,0.9901764460726526
2017-06-21,1,0.00270389849683586,0.0027970812265702047,-0.006379336072298068,0.008701619985531206,0.9901114996435445
2017-06-23,1,0.0015624886495022694,0.0016676463270811084,-0.004598893024281589,0.010659689155416744,0.9909816063620227
2017-06-27,1,0.000957490639122959,0.001134281823691543,-0.004598893024281589,0.01350003708997426,0.9902425195673437
2017-06-29,1,0.00046607600642689585,0.000706630045602096,-0.00452034480301958,0.010659689155416744,0.9916966861279984
2017-07-03,-1,-0.0016555319991404872,-0.0011364775837633889,-0.00452034480301958,0.012887546551169205,0.9911099098869881
2017-07-06,-1,-0.0022384758837993932,-0.0017339468589686077,-0.004883826601702005,0.01396202682166749,0.9867505545917992
2017-07-10,-1,-0.0011838893240110311,-0.0007984045391503675,-0.004883826601702005,0.012264204673306318,0.9876425633503965
2017-07-12,-1,-0.0017530122940847205,-0.0012868689982522628,-0.00452034480301958,0.010326672162413416,0.9892187295000523
2017-07-14,-1,-0.0014162962768651394,-0.000986168417874301,-0.004883826601702005,0.005275818202503888,0.9893555359964424
2017-07-18,-1,-0.0018761911577794498,-0.0013917606148640183,-0.0040911202941636745,0.010326672162413416,0.9887792699826611
2017-07-20,-1,-0.002366232550085165,-0.0018063079838132152,-0.0040911202941636745,0.010326672162413416,0.9878602888459757
2017-07-24,-1,-0.0014663820795966598,-0.001048177058238943,-0.0040911202941636745,0.01056329189025133,0.988151445207069
2017-07-26,-1,-0.0015966743670786402,-0.001158542450055782,-0.0036052009186434085,0.01052900218481954,0.9888233972280227
2017-07-28,-1,-0.0021070021243842396,-0.00159631093401858,-0.003559949409314937,0.01052900218481954,0.9887072686119521
2017-08-01,-1,-0.002053437328210304,-0.0015329331872789204,-0.0029570074017955294,0.00813186755065951,0.9892526178519918
2017-08-03,1,0.00028970068028155954,0.0004989263049374455,-0.002038698667326409,0.00813186755065951,0.9929453699358869
2017-08-07,1,0.0005308390386647569,0.0007090151376887347,-0.0029570074017955294,0.00813186755065951,0.9919688302613472
2017-08-09,1,0.0005628992266017275,0.0007212062911685542,-0.0022770500538693483,0.01052900218481954,0.9911292206116862
2017-08-11,-1,-0.0014532042916908098,-0.0009925244397382268,-0.001428904311031157,0.012436884794943651,0.990451760990443
2017-08-15,0,-2.9293833291834954e-05,0.00020818395533234602,-0.001428904311031157,0.01052900218481954,0.9914797723393208
2017-08-17,-1,-0.001344906025289924,-0.0009467303962499196,-0.001428904311031157,0.01052900218481954,0.9921877388939936
2017-08-21,-1,-0.001287343368562854,-0.0008848190615517175,-0.0008269885215328367,0.012436884794943651,0.9912639338310953
2017-08-23,1,0.001087382706104362,0.001170431605836975,-0.002242476650161448,0.009853734331944709,0.9914463828870683
2017-08-25,1,0.0013013670343335392,0.0014454701161321108,-0.003442252307375533,0.009853734331944709,0.9892447445744762
2017-08-29,1,0.0017094720890569858,0.0019374315116939189,-0.003970490700496815,0.014291172726829721,0.9884759312055338
2017-08-31,1,0.0026293673530805957,0.003035540422028147,-0.003970490700496815,0.014188393684332392,0.9885489347903244
2017-09-05,1,0.0016836926695820867,0.0018892295760600212,-0.0039036360097667523,0.015450686922847514,0.9890546016614932
2017-09-07,1,0.0024834670664876687,0.0028043339003458703,-0.0039036360097667523,0.010460450488199512,0.989524574770179
2017-09-11,1,0.0028037532913030233,0.00316449222164558,-0.004578583353449006,0.008611086599900415,0.9900561842740991
2017-09-13,1,0.0027252081511087867,0.003048524003183622,-0.004578583353449006,0.010460450488199512,0.9894928091106966
2017-09-15,1,0.0028482279070017958,0.0032119161499232635,-0.004578583353449006,0.010460450488199512,0.9894551754846764
2017-09-19,1,0.0034969358800350137,0.003936243993606889,-0.005217415921853273,0.010064573836724542,0.9896233870952178
2017-09-21,1,0.002750651272419841,0.0030863484769639493,-0.004578583353449006,0.010064573836724542,0.9903201282430564
2017-09-25,-1,-0.00021450811246903487,-9.007553691829504e-05,-0.0036501699469381763,0.010064573836724542,0.9921326127532025
2017-09-27,1,0.0006780309495126414,0.000699908269478773,-0.0039565115725950185,0.008583556352815293,0.9926740160352934
2017-09-29,1,0.0011890215735379877,0.0012566174230045609,-0.004578583353449006,0.007486943751234904,0.9932767406329925
2017-10-03,1,0.0016352347651779817,0.0017840922327465442,-0.0039565115725950185,0.005941199349347738,0.9939285491199474
2017-10-05,1,0.0023081725402043386,0.002566883841186621,-0.006131608542680855,0.004778861396525617,0.9926604284548765
2017-10-09,1,0.0015276544062936496,0.0016354012376272767,-0.0044120064220215536,0.005437765594474123,0.9930031488426535
2017-10-11,1,0.0013949808746843506,0.001494788707988776,-0.0044120064220215536,0.005437765594474123,0.9925104754686015
2017-10-13,1,0.0017434278747735883,0.0018888512542534906,-0.006348434388292123,0.004807084973828727,0.991786764219651
2017-10-17,1,0.0020504051137679408,0.0022515689953045213,-0.007621604192281585,0.004807084973828727,0.9908174473691456
2017-10-19,1,0.0017738722279742312,0.0019234862025070535,-0.009725203240867532,0.006804058388276512,0.9901478680359044
2017-10-23,1,0.0019433485138618063,0.002137903164278822,-0.009725203240867532,0.006804058388276512,0.989963674280522
2017-10-25,1,0.0013369169899112997,0.0014378209324792625,-0.009761156863077684,0.010862131093555383,0.9892655619730804
2017-10-27,1,0.0010514714971014622,0.0011219658646306864,-0.009761156863077684,0.01188291272805798,0.9886458282363277
2017-10-31,1,0.0011794756708626527,0.001274543239832466,-0.010649355172843815,0.01188291272805798,0.98795883474723
2017-11-02,-1,-0.00028253084853158193,-0.00019425012956394898,-0.008734011667059484,0.012831743408179963,0.988788158997868
2017-11-06,-1,-0.00037131459369347733,-0.00025040585519932004,-0.01199688859973853,0.012831743408179963,0.987297621073785
2017-11-08,1,0.00028702471165413935,0.00033770974158195096,-0.013341677382228068,0.011818027545728475,0.9874956860471225
2017-11-10,1,0.00011823992526674681,0.00019074818880900752,-0.013341677382228068,0.010201011751218356,0.987914066091628
2017-11-14,-1,-0.0003815010262448974,-0.00022271827070969436,-0.010486279395955114,0.007852931658020734,0.9892255556556278
2017-11-16,-1,-0.0008062852623687342,-0.0005757060682220879,-0.010337534063514148,0.007852931658020734,0.9886358304282085
2017-11-20,-1,-0.001396144301574194,-0.001061801227093137,-0.010337534063514148,0.010201011751218356,0.9875861119025791
2017-11-22,-1,-0.001339557376371233,-0.0010078245429156435,-0.00868442988957916,0.007852931658020734,0.9886950545839006
2017-11-27,-1,-0.001254953830987139,-0.0009292990864142184,-0.006076722512788261,0.006598092788867676,0.989561732448235
2017-11-29,-1,-0.0010394054083084352,-0.000785220059243505,-0.00567044729272332,0.006245300007268117,0.9901475457414219
2017-12-01,-1,-0.0011151785527355048,-0.0008349681347179707,-0.0046205674916937976,0.006245300007268117,0.9902745758696002
