JNU-Tangyin/eata/results/Batch4_SP500/Batch4_SP500-CHTR.csv
Date,Action,Predicted_Q25,Predicted_Q75,Actual_Q25,Actual_Q75,RL_Reward
2010-12-14,0,0.0,0.0,-0.0038836101049899564,0.008285966199446835,0.9902803364085822
2010-12-16,0,0.0,0.0,-0.0014673637776196524,0.008285966199446835,0.99064105252761
2010-12-20,1,0.004172334819252295,0.004669423199256927,-0.0008292269973648111,0.008285966199446835,0.9924154712905717
2010-12-22,1,0.0045140453852450324,0.0050399604926062705,-0.0014673637776196524,0.006511113258576085,0.9915352940945237
2010-12-27,1,0.004553582979327323,0.005098762014399629,-0.0008292269973648111,0.009512220914992108,0.9921901975802004
2010-12-29,1,0.004492477798199616,0.005009169327976256,-0.0014673637776196524,0.011484958898992698,0.9913979025815142
2010-12-31,1,0.004545920617583249,0.0050540839942936535,-0.002126896573991008,0.009831240475697802,0.9912850944471465
2011-01-04,1,0.00517432387235017,0.005759389191046229,-0.002126896573991008,0.005157820911873043,0.9921098866337059
2011-01-06,1,0.0041934710327947685,0.004589255037430956,-0.001239755389433025,0.009003299018114948,0.9930287063710245
2011-01-10,1,0.003624069016957856,0.0038950182410236204,-0.0011884444534959807,0.009958193208361214,0.9914694552601994
2011-01-12,1,0.004490863133992981,0.004862506915068683,-0.000598112933535284,0.012932080134456344,0.9904469417133681
2011-01-14,0,0.0,0.0,-0.000598112933535284,0.012932080134456344,0.990191258670349
2011-01-19,0,0.0,0.0,-0.0022526689032487,0.010448255761707782,0.9898025364644589
2011-01-21,0,0.0,0.0,-0.0021223460457691417,0.010448255761707782,0.989909327693315
2011-01-25,0,0.0,0.0,-0.003804566095574222,0.010448255761707782,0.9889764852443119
2011-01-27,1,0.004270974860422749,0.004562929700018195,-0.003413597523135546,0.009625466590861548,0.988612458843815
2011-01-31,1,0.004190718203798651,0.004463938160568383,-0.003413597523135546,0.012692178383466968,0.9880833155161372
2011-02-02,1,0.003235842664281257,0.003377262834093746,-0.003413597523135546,0.017957237729947315,0.9858487747107461
2011-02-04,1,0.0036193127534726727,0.00396506079601976,-0.003413597523135546,0.017957237729947315,0.986364252378895
2011-02-08,1,0.004799896842853445,0.005265351457802136,-0.0036564300955599597,0.012692178383466968,0.9880027739842324
2011-02-10,1,0.005789924472893437,0.006383681315626328,-0.00666820912918306,0.007074444130853211,0.9888172398061253
2011-02-14,1,0.006072689593266519,0.006667345473637536,-0.01585620432074488,0.005531446486510851,0.9863860076183356
2011-02-16,1,0.005368574842528056,0.005879375131156688,-0.012064585986255148,0.007572795741843442,0.9874010763699007
2011-02-18,1,0.004983638050631086,0.005389136946500965,-0.012064585986255148,0.010685605162919859,0.9865000181554316
2011-02-23,1,0.003669634844387134,0.0038655306958712337,-0.0034105460160018908,0.010685605162919859,0.9879386866131343
2011-02-25,1,0.004177745825905481,0.004486005524242082,-0.0034105460160018908,0.01328361684698464,0.9873885301445942
2011-03-01,1,0.004508477966588781,0.004795139102152377,-0.0059305568905088524,0.009716079328531847,0.9873624130925173
2011-03-03,1,0.004390771936620154,0.00461898556945421,-0.0034105460160018908,0.009716079328531847,0.9893002596202404
2011-03-07,1,0.004977546358136882,0.005312309397528862,-0.0034105460160018908,0.012993738690531758,0.9885809640108182
2011-03-09,1,0.004370518834028237,0.004626003397299216,-0.002126595175692176,0.020633523378011595,0.9863938553277588
2011-03-11,1,0.004068232301033715,0.0042749741754157244,-0.0021553743456326382,0.020633523378011595,0.9861718967497115
2011-03-15,0,0.0,0.0,-0.0014129549917965096,0.020633523378011595,0.986722982643964
2011-03-17,0,0.0,0.0,-0.0014129549917965096,0.017924909587491926,0.9878462230561512
2011-03-21,0,0.0,0.0,-0.0021553743456326382,0.011192108490347446,0.9892197067479198
2011-03-23,0,0.0,0.0,-0.0014129549917965096,0.011192108490347446,0.9895372539161287
2011-03-25,0,0.0,0.0,-0.0009700796937294174,0.007908300764963374,0.990570498929437
2011-03-29,1,0.00017076034454939298,0.00035682000857509245,0.00018024213690829704,0.010711285427866013,0.9902818211024239
2011-03-31,0,0.0,0.0,0.00018024213690829704,0.010711285427866013,0.9890778870995984
2011-04-04,0,0.0,0.0,-0.0006337634061559287,0.008046010812219312,0.9896002815898028
2011-04-06,1,0.008939021008722129,0.00971315470626498,-0.008235957744356698,0.006448988732258519,0.9886880375779572
2011-04-08,1,0.007738364013176918,0.008320947299075485,-0.0038558764448976992,0.00751810774845276,0.9904711140349388
2011-04-12,1,0.005548672180427792,0.005920635513928517,-0.0009198881669238985,0.00751810774845276,0.9922695014987287
2011-04-14,0,0.0,0.0,-0.0038558764448976992,0.006494892081343831,0.9914556156933035
2011-04-18,0,0.0,0.0,-0.0038558764448976992,0.006494892081343831,0.9905427692301723
2011-04-20,1,0.004566179458414372,0.004575848441566399,-0.0038558764448976992,0.007784281349023233,0.9899370757738597
2011-04-25,1,0.0021350831069550493,0.0023890990475556656,-0.010152092958195727,0.007784281349023233,0.9882211972636451
2011-04-27,1,0.003642648581638261,0.0037020463011878343,-0.010152092958195727,0.0058986103682420864,0.988624326466796
2011-04-29,1,0.005053328514624403,0.005213685985143297,-0.010152092958195727,0.0058986103682420864,0.9898677688731856
2011-05-03,1,0.004672789942421092,0.004789312122637831,-0.008438638220618362,0.005675744236423765,0.9906937541962627
2011-05-05,1,0.0032109455058163166,0.0032932831991873152,-0.0030113022981058026,0.007139116823414588,0.9916255862639751
2011-05-09,1,0.003566732300873077,0.0035787792479224545,-0.00494557498218344,0.00717104354716422,0.9914223690028896
2011-05-11,1,0.003970180013658104,0.00403382024885769,-0.00494557498218344,0.005917433457669214,0.9912861949110218
2011-05-13,0,0.0,0.0,-0.005235978270698438,0.005166827826163853,0.9904583058770895
2011-05-17,0,0.0,0.0,-0.00465303793206035,0.007231579679696477,0.9912150819769385
2011-05-19,0,0.0,0.0,-0.00465303793206035,0.007231579679696477,0.9914945840426779
2011-05-23,1,0.00025183168475152853,0.0003988130924038171,-0.004376418663960667,0.007231579679696477,0.9923806524082801
2011-05-25,0,0.0,0.0,-0.00465303793206035,0.008658519280646267,0.9904152814121617
2011-05-27,0,0.0,0.0,-0.00614164247321676,0.007231579679696477,0.9896928388879419
2011-06-01,0,0.0,0.0,-0.00614164247321676,0.00862316513464941,0.9894783285857432
2011-06-03,0,0.0,0.0,-0.00614164247321676,0.00862316513464941,0.9895137079693258
2011-06-07,1,0.000570316010181696,0.0009477533862646099,-0.004975602030189428,0.010332434773911122,0.9871147413910648
2011-06-09,1,0.0005437013486570324,0.0008887574656682007,-0.008755339007617451,0.010332434773911122,0.9862498913558002
2011-06-13,-1,-0.0007172431507546425,-0.00023442719760522553,-0.008755339007617451,0.010332434773911122,0.9870791395310536
2011-06-15,-1,-0.0017440678876176944,-0.001107506891184318,-0.008755339007617451,0.010226372335920553,0.9875613945937084
2011-06-17,0,0.0,0.0,-0.012913223926592068,0.00854985658674141,0.9870320354347374
2011-06-21,0,0.0,0.0,-0.008755339007617451,0.01648341300611914,0.985709950164143
2011-06-23,-1,-0.002249947966251817,-0.0015854157037464608,-0.006275982864272938,0.013415028506490092,0.9870313740336573
2011-06-27,-1,-0.004032738361665259,-0.003117895765581933,-0.004751221832499814,0.013415028506490092,0.9871207842828131
2011-06-29,-1,-0.003972216204597145,-0.0030719097064836544,-0.011068202636490252,0.013415028506490092,0.9845810544976126
2011-07-01,-1,-0.0024266979131543636,-0.0017899139569232995,-0.01337963723086541,0.009436129695391851,0.9847034435992021
2011-07-06,1,0.0010941448764115152,0.0012449055009551174,-0.014760422438225089,0.004838798865492348,0.9851822926244008
2011-07-08,1,0.0004284608804265848,0.0006001269058694771,-0.02182853344690474,0.004838798865492348,0.9811999961951944
2011-07-12,-1,-0.0009233051680075828,-0.0005366409590320852,-0.023199288585055506,0.007552672363257195,0.9749581325667261
2011-07-14,-1,-0.0009798989652053183,-0.0005915392685540638,-0.023199288585055506,0.009436129695391851,0.9714823928233518
2011-07-18,-1,-0.0024211431449381307,-0.0017912616611047694,-0.023199288585055506,0.014333936988194051,0.9706293249824427
2011-07-20,-1,-0.0007842753606203019,-0.00035954011823637836,-0.023199288585055506,0.006126263870037734,0.9717705098035414
2011-07-22,1,0.000226297747770483,0.0004900502375675527,-0.03159613860317749,0.006126263870037734,0.9691416090812315
2011-07-26,0,-2.2882709849445502e-05,0.000244425520166525,-0.031672332017232824,0.008758890456098139,0.9663329110981939
2011-07-28,-1,-0.003039396381150641,-0.002423096772119827,-0.02446518762178983,0.008758890456098139,0.9691280754743813
2011-08-01,-1,-0.004412574164500111,-0.0036230086150855203,-0.02446518762178983,0.02929762191494705,0.9666442406364953
2011-08-03,-1,-0.006108102355543366,-0.005108994325501752,-0.02207875992838479,0.02929762191494705,0.9682481805781377
2011-08-05,-1,-0.011556784248893167,-0.009832056268986235,-0.015980917190794836,0.02929762191494705,0.9710496169282484
2011-08-09,-1,-0.011040450053601937,-0.009443387423791935,-0.015980917190794836,0.02747531510075463,0.9761309832461298
2011-08-11,-1,-0.008307553436989037,-0.007109285896590368,-0.01629500583002684,0.016134101393206098,0.9783066113148341
2011-08-15,-1,-0.006464114814580922,-0.005476881823777497,-0.01629500583002684,0.014111313365604053,0.9799216340647681
2011-08-17,-1,-0.0067292009122030955,-0.005744953817600474,-0.01629500583002684,0.018668088265275752,0.9780835434716068
2011-08-19,-1,-0.00851946860651045,-0.007302620396623494,-0.01481180743368361,0.018668088265275752,0.9802981585001362
2011-08-23,-1,-0.0069568189830721515,-0.00598112132360358,-0.01481180743368361,0.009353752493173502,0.9827812789257449
2011-08-25,-1,-0.006998181638137524,-0.006070237153183292,-0.01481180743368361,0.018668088265275752,0.980776535501783
2011-08-29,-1,-0.002714003489331971,-0.002414021067668766,-0.01481180743368361,0.016751401352892915,0.9824317404478894
2011-08-31,-1,-0.002765530137786675,-0.002438997829791612,-0.017698375497298226,0.016751401352892915,0.9812344506565479
2011-09-02,-1,-0.003595666566211724,-0.003171854471267136,-0.022985185949633235,0.016751401352892915,0.977726504201865
2011-09-07,-1,-0.0026672752704174968,-0.002375688687020012,-0.022985185949633235,0.01988030618941301,0.9769283464677938
2011-09-09,-1,-0.005267219429722021,-0.00465714804652119,-0.018225054163194632,0.01988030618941301,0.9779974135016642
2011-09-13,-1,-0.004187731287588173,-0.0037108551024644366,-0.018225054163194632,0.029420483071693586,0.9772279319412047
2011-09-15,-1,-0.0024741057240616204,-0.002202588923719593,-0.018225054163194632,0.01988030618941301,0.9781657313691653
2011-09-19,-1,-0.002094021519788212,-0.0019138681691111981,-0.018225054163194632,0.01988030618941301,0.977639343949546
2011-09-21,-1,-0.0014386369841482515,-0.0014376748501299108,-0.018225054163194632,0.026363716260396075,0.9765468355866953
2011-09-23,-1,-0.0017830780972282073,-0.0017433133123201858,-0.012988845991949452,0.019230841388878227,0.9786472344004135
2011-09-27,0,-7.254669649562137e-05,7.107652251249079e-05,-0.01584826762716873,0.013927005520968202,0.9800341916495008
2011-09-29,-1,-0.0012454470852655431,-0.001238709968514555,-0.011929077868022232,0.013927005520968202,0.9805014638822549
2011-10-03,-1,-0.0045931439944474906,-0.004248033380586835,-0.010707797320778043,0.013927005520968202,0.9798732088342701
2011-10-05,-1,-0.0019020475871242978,-0.0018527881716527443,-0.010707797320778043,0.013927005520968202,0.9813280895665154
2011-10-07,-1,-0.002329523140599461,-0.002179519914946736,-0.0058352649601505074,0.021284895167123567,0.9778104956068895
2011-10-11,0,-5.819785998025808e-05,0.0001365450642096509,-0.0032095697996429766,0.016431702604120774,0.9802422452567641
2011-10-13,-1,-0.00045781663155573603,-0.00038668774661901366,-0.0037977380689634328,0.021284895167123567,0.9777878955633267
2011-10-17,0,-4.010236465188874e-05,8.856043206309115e-05,-0.013425442673812503,0.021284895167123567,0.9766169017592154
2011-10-19,1,9.156093459125711e-05,0.0002603589846455394,-0.013425442673812503,0.01804760337918835,0.9771523141822368
2011-10-21,1,0.0010772589173918786,0.0013988404871814208,-0.013425442673812503,0.01804760337918835,0.9772702531314381
2011-10-25,1,0.0014850656184412954,0.0019062718282753972,-0.013526940395752241,0.01804760337918835,0.9777534283418778
2011-10-27,1,0.001602822930164291,0.002048364127540453,-0.017316451868721376,0.01804760337918835,0.9768176910812358
2011-10-31,-1,-0.0008749598508767832,-0.000755676376521877,-0.005532994422067071,0.01804760337918835,0.9789750883159263
2011-11-02,1,0.00026039628995046206,0.00044905006190376845,-0.005532994422067071,0.01713856949681922,0.9814881755992885
2011-11-04,1,0.003684733374370263,0.004336568151984609,-0.01680528501447526,0.013680638179343969,0.9855123167620337
2011-11-08,1,0.004618059675964535,0.005438896060097164,-0.01680528501447526,0.014704879944387319,0.9851639842030188
2011-11-10,1,0.003989458577210594,0.004705640616613052,-0.01680528501447526,0.014704879944387319,0.9852022204802131
2011-11-14,1,0.003668123624292456,0.004318244123850125,-0.005957309956659864,0.013680638179343969,0.9864012661653672
2011-11-16,1,0.0024711874869744336,0.0029037234468261438,-0.0025138780339972262,0.01359456457540433,0.9878673906697499
2011-11-18,0,0.0,0.0,-0.005957309956659864,0.012260248184926575,0.9860774649672585
2011-11-22,1,0.0026043737196292374,0.003049248248792876,-0.0025138780339972262,0.01713856949681922,0.9848143331149392
2011-11-25,1,0.004282145352537981,0.005134975494199835,-0.0024587052690279755,0.012333322591578627,0.9866646229157198
2011-11-29,0,0.0,0.0,-0.0026987841610051854,0.010199575580915986,0.9868272525422604
2011-12-01,0,0.0,0.0,-0.0026987841610051854,0.012103961969095686,0.9862437365401132
2011-12-05,0,0.0,0.0,-0.0026987841610051854,0.012103961969095686,0.9869090437712379
2011-12-07,0,0.0,0.0,-0.0029330055948281397,0.010199575580915986,0.9873537175886983
2011-12-09,0,0.0,0.0,-0.0026987841610051854,0.005804590275124622,0.9904901828044055
2011-12-13,0,0.0,0.0,-0.0029330055948281397,0.010199575580915986,0.9891565121667966
2011-12-15,0,0.0,0.0,-0.003984210902628952,0.005804590275124622,0.9893644401002851
2011-12-19,0,0.0,0.0,-0.003984210902628952,0.00564057736067671,0.99136024707441
2011-12-21,0,0.0,0.0,-0.003984210902628952,0.0033419456269482245,0.9939806892916144
2011-12-23,0,0.0,0.0,-0.006316354406315867,0.0033419456269482245,0.993356548715503
2011-12-28,0,0.0,0.0,-0.0063996304119365134,0.00564057736067671,0.9922470443826951
2011-12-30,0,0.0,0.0,-0.007158779223042568,0.00564057736067671,0.9917403992244918
2012-01-04,0,0.0,0.0,-0.008352496840635448,0.009818759519674973,0.9913321767879368
2012-01-06,1,0.003498126877134587,0.00386604906683449,-0.008352496840635448,0.009818759519674973,0.9909930031908301
2012-01-10,1,0.003042232052859626,0.00330837684833869,-0.008352496840635448,0.009818759519674973,0.9907448497034732
2012-01-12,1,0.0024620876503410345,0.0025587249968137948,-0.008104314285751405,0.009818759519674973,0.9916461742992356
2012-01-17,1,0.0021714019193594817,0.0022646704554545975,-0.006751947073410511,0.01120951938554994,0.9912058032425202
2012-01-19,1,0.0016602047155505114,0.0016823372372410197,-0.004130414067661409,0.01202490585581059,0.9902228091993006
2012-01-23,1,0.0027962914132470063,0.0030809210264966516,-0.004130414067661409,0.01202490585581059,0.990307698453149
2012-01-25,1,0.003072263005224048,0.003392937445963246,-0.0026404368716597226,0.01175498197682399,0.9909972949536645
2012-01-27,1,0.002548846028985526,0.002756703683260519,-0.0014234176705182069,0.01120951938554994,0.9920810712138302
2012-01-31,1,0.0027338210734762537,0.0029737292832888737,-0.0014167677448174267,0.007576871752259792,0.9930603356015799
2012-02-02,1,0.0015046587111233575,0.0015334029385484789,-0.002366648708550703,0.005679690666737885,0.9930696054854977
2012-02-06,0,0.0,0.0,-0.002849908148639932,0.004990472637569472,0.9920640998010691
2012-02-08,0,0.0,0.0,-0.002849908148639932,0.006144099791633872,0.9920016550815222
2012-02-10,1,0.0026529926129641246,0.0030468400743919807,-0.0024601829336073546,0.006144099791633872,0.9913404207425344
2012-02-14,1,0.0028917968455728976,0.003257357980941877,-0.0024601829336073546,0.005760148671406224,0.9921873473190017
2012-02-16,1,0.0037095692383917944,0.004160412171570749,-0.0024601829336073546,0.0061967366526344695,0.9933566605746199
2012-02-21,1,0.004370749732442969,0.0050035527397412904,-0.002849908148639932,0.0061967366526344695,0.9925351087051081
2012-02-23,1,0.0038017351371459826,0.00425777462231869,-0.002849908148639932,0.0070112122144394195,0.992642848781848
2012-02-27,1,0.0016682429099172179,0.00172051950761092,-0.003995452802447338,0.0070112122144394195,0.9924563253120307
2012-02-29,1,0.0022925371282547964,0.002431535207169998,-0.006623885609586748,0.0070112122144394195,0.9916993196159289
2012-03-02,1,0.0017050715930378854,0.0017667961833003664,-0.005948198074807776,0.0070112122144394195,0.9921793895144798
2012-03-06,1,0.0012640695296125912,0.0013087069947995674,-0.005948198074807776,0.007971192350122374,0.9918533211313373
2012-03-08,0,0.0,0.0,-0.006623885609586748,0.008327919293047138,0.9905814950768936
2012-03-12,1,0.0015423845168198928,0.0015840034408395429,-0.011449343490968078,0.0070112122144394195,0.9891034541986202
2012-03-14,1,0.0015378032613093786,0.0015941131608258256,-0.011449343490968078,0.008613683426030803,0.9882609887003807
2012-03-16,1,0.0020797759374945207,0.0021142344017818096,-0.011449343490968078,0.008613683426030803,0.9879415792005958
2012-03-20,1,0.0013847394744159556,0.0014469458843633899,-0.010602178081011182,0.01034842187183605,0.9879032561684021
2012-03-22,1,0.0018048047172524264,0.0018254489332672195,-0.010602178081011182,0.008267056689663675,0.9882815386866767
2012-03-26,0,0.0,0.0,-0.012939122238802041,0.008267056689663675,0.9876550418497473
2012-03-28,0,-9.617580203533929e-05,0.00016456888953416066,-0.012131491825606848,0.008267056689663675,0.9880107404988564
2012-03-30,0,0.0,0.0,-0.012131491825606848,0.008267056689663675,0.9877829991689244
2012-04-03,0,0.0,0.0,-0.009105012954152744,0.008498403864316238,0.9881020971222866
2012-04-05,1,0.0007042061008549115,0.0007604397442705357,-0.009105012954152744,0.008267056689663675,0.9892338435957742
2012-04-10,-1,-0.0010632588021104827,-0.0007903469319413141,-0.001717123821925414,0.008498403864316238,0.9888888891302109
2012-04-12,0,0.0,0.0,-0.001717123821925414,0.008529409732663557,0.9883941773299381
2012-04-16,-1,-0.0004307193899389237,-0.00028752377515203065,-0.0026104325424324173,0.008529409732663557,0.9878694871470077
2012-04-18,1,0.001375669120068657,0.0014665842670637422,-0.004500353795759314,0.008309738303302013,0.9883906772613652
2012-04-20,0,0.0,0.0,-0.011507451245366179,0.007818976717273737,0.9860211508801234
2012-04-24,0,0.0,0.0,-0.009315087651316983,0.010829100154548773,0.9851109467348413
2012-04-26,0,0.0,0.0,-0.009315087651316983,0.010829100154548773,0.985407662753422
2012-04-30,0,0.0,0.0,-0.007436578431554874,0.010829100154548773,0.9855527319787108
2012-05-02,-1,-0.0007932502165369492,-0.0005352714837132294,-0.011507451245366179,0.006286220302539919,0.9856987851269129
2012-05-04,-1,-0.001119888571883088,-0.0008378865759952504,-0.013047287975748775,0.006286220302539919,0.9853515836092861
2012-05-08,1,0.0004846581236877077,0.0005957771501252517,-0.013047287975748775,0.006286220302539919,0.9857703694075587
2012-05-10,1,0.0011817351007128616,0.001207237064261433,-0.013047287975748775,0.0040487677641831985,0.9872983773163966
2012-05-14,1,0.0002661703082061002,0.0004501885839648007,-0.011226188842089705,0.005043990341118237,0.9871048173377518
2012-05-16,1,0.0015426717248820236,0.0015557127291184244,-0.00866200720291562,0.007897319027687765,0.9868996049811444
2012-05-18,-1,-0.0004703516220566891,-0.00024121496362456947,-0.0020118016491744366,0.01488305679797015,0.9883263349937144
2012-05-22,1,0.0010533398444453508,0.0011230361237219491,-0.0020118016491744366,0.011993465256793106,0.9897049574568192
2012-05-24,1,0.0009850791512150978,0.0010364102531241755,-0.0023056086346883633,0.011993465256793106,0.9883969540833176
2012-05-29,1,0.001055655177471712,0.0011082122602852943,-0.00866200720291562,0.01488305679797015,0.9869072982243805
2012-05-31,-1,-0.0003866013032539327,-0.00015389378327959223,0.0005835587877186361,0.015473571030021139,0.9863524261519829
2012-06-04,-1,-0.0013474372353528459,-0.0009994789975668484,0.003606646771842319,0.016435442711162998,0.985374885027568
2012-06-06,1,0.0004504010161463356,0.0005665365689822921,0.0019007681978074448,0.015473571030021139,0.9882870624903541
2012-06-08,1,0.0002629312744957471,0.00042596549585658625,0.00010345842029179015,0.015473571030021139,0.9882757735386052
2012-06-12,1,0.00036338478538044944,0.0005208599719098369,0.00010345842029179015,0.01488305679797015,0.9895114846103383
2012-06-14,1,0.0008894222947495583,0.000991604806162397,0.00010345842029179015,0.015473571030021139,0.9896882382734659
2012-06-18,1,0.0020326922018762,0.0020901764910357394,-0.0011780564348868765,0.0134124215477455,0.9904291778720161
2012-06-20,1,0.0029718891990268255,0.0031402356463396267,-0.001785419973621709,0.0134124215477455,0.9901483465251704
2012-06-22,1,0.0018532350450031414,0.0018705238198389196,-0.002827562816139867,0.0134124215477455,0.9908485117332407
2012-06-26,1,0.001597977062185647,0.001613193580289878,-0.002827562816139867,0.013477075062508288,0.9913535704469069
2012-06-28,1,0.0027999611129553162,0.002955088102893276,-0.002827562816139867,0.013477075062508288,0.9914794201011503
2012-07-02,1,0.003560783339484278,0.0037981265248225506,-0.004969797532153495,0.009218485554111975,0.9913667979365778
2012-07-05,1,0.003487143013012903,0.0037260541737771866,-0.004969797532153495,0.015059356086354942,0.9906883294064699
2012-07-09,1,0.003648199035902921,0.003953018948908177,-0.006153961095974906,0.016855217932696717,0.9887557641991124
2012-07-11,1,0.004043549265865221,0.00449199950791878,-0.007268770019105231,0.016855217932696717,0.988074786009203
2012-07-13,1,0.0045210956517707035,0.005031320710136686,-0.007268770019105231,0.01778027899343558,0.9869234170999042
2012-07-17,1,0.004643528416737977,0.005189730578750275,-0.007268770019105231,0.01778027899343558,0.9866524180861734
2012-07-19,1,0.005322873829342943,0.005952893683100335,-0.008305164907886622,0.0168087780649783,0.9863467841665187
2012-07-23,1,0.0044145463447357,0.004911800666727211,-0.008305164907886622,0.0168087780649783,0.9868328714610214
2012-07-25,1,0.004296252334477584,0.004740626429785122,-0.007962502428241754,0.015043876130448802,0.9871432231800051
2012-07-27,1,0.004683974495156672,0.005112777260904658,-0.008782479846340957,0.015043876130448802,0.9866551601387963
2012-07-31,1,0.004744921747461551,0.005174362403305576,-0.008782479846340957,0.013571710504428083,0.9865770042331095
2012-08-02,1,0.005559807369927323,0.006136861205840005,-0.008782479846340957,0.008440754104164793,0.9866838900557668
2012-08-06,1,0.005118049862099974,0.005648956630278099,-0.008782479846340957,0.007894308810898934,0.9883299487146499
2012-08-08,1,0.004486496666982533,0.0049561660676794225,-0.006859596466233033,0.012934433429998312,0.9891295847812611
2012-08-10,1,0.004982684710635266,0.005484808396561196,-0.008007395338239302,0.010936095316094593,0.9894937499731855
2012-08-14,1,0.0054042709705032915,0.006001831095491942,-0.008007395338239302,0.014043279427556671,0.9893456806228695
2012-08-16,1,0.005064262049831528,0.005596987849458909,-0.006653992313613641,0.014043279427556671,0.9901066496794345
2012-08-20,1,0.004254557304284277,0.0046263829904703855,-0.008091734204633374,0.014043279427556671,0.9889149133436397
2012-08-22,1,0.0036922432820381632,0.003985887575126458,-0.007041585592705813,0.014043279427556671,0.9894346528124525
2012-08-24,1,0.0036075338922594933,0.0038599460393882743,-0.009572785756260494,0.011863790690264206,0.9879733088913478
2012-08-28,1,0.002807642853885311,0.0029267785401818824,-0.010542681513565584,0.011863790690264206,0.9876510257257424
2012-08-30,1,0.0014228956363326558,0.00159644182148136,-0.010542681513565584,0.011863790690264206,0.9880406582195318
2012-09-04,1,0.0016793585009880103,0.0017865153131934024,-0.010542681513565584,0.011863790690264206,0.9885928885072752
2012-09-06,1,0.0022224545645348143,0.002302503646800091,-0.010542681513565584,0.008844771634943807,0.9887020448612743
2012-09-10,1,0.0013764418392547694,0.0015432615458069842,-0.010542681513565584,0.008844771634943807,0.98888405427313
2012-09-12,1,0.0026039608833996275,0.0026134465699283542,-0.010542681513565584,0.006233163501935101,0.989646345126374
2012-09-14,1,0.0027365507198612196,0.0028008921592703306,-0.010542681513565584,0.002450168929589056,0.9905940534049428
2012-09-18,1,0.0012710494165132716,0.0014958053644061424,-0.006722689841696461,0.004738048891435849,0.9925978283466763
2012-09-20,1,0.0008163311657957497,0.0011240139984664476,-0.006722689841696461,0.006869659305622024,0.9920380637846032
2012-09-24,-1,-0.0005623280229289835,-0.00014184560746362935,-0.002673579515251793,0.006869659305622024,0.9943507819875976
2012-09-26,-1,-0.001861367855766086,-0.0012588348761063254,-0.0014843983376820998,0.006869659305622024,0.99370732172507
2012-09-28,-1,-0.0008014415135983461,-0.00041914861947494665,-0.0013130376528601054,0.006869659305622024,0.9938787088996455
2012-10-02,1,0.0005176689163272458,0.000624804693771016,-0.0013130376528601054,0.007930267068930718,0.9935720613583597
2012-10-04,1,0.0008652380116881785,0.0009862855533721343,-0.005166604087243914,0.0045409861468633595,0.9915277278498467
2012-10-08,-1,-0.0005586979332627313,-0.0002452838245777519,-0.008057522984098306,0.0045409861468633595,0.9901533208585034
2012-10-10,-1,-0.0022356384523929984,-0.0016205572686175235,-0.01758744795448191,0.005425352653926576,0.9888993637449072
2012-10-12,-1,-0.001201494800865757,-0.0007820229876665534,-0.01758744795448191,0.005425352653926576,0.9890016816713144
2012-10-16,-1,-0.0013545246523988291,-0.0008934898564893997,-0.018794736752364323,0.005425352653926576,0.9876745913289204
2012-10-18,0,0.0,0.0,-0.018794736752364323,0.0045409861468633595,0.9876785894777886
2012-10-22,0,0.0,0.0,-0.018794736752364323,0.005425352653926576,0.9864366412949181
2012-10-24,0,0.0,0.0,-0.01758744795448191,0.005425352653926576,0.9874487534280467
2012-10-26,0,0.0,0.0,-0.01758744795448191,0.004978843837652156,0.9877491368658057
2012-11-01,-1,-0.002331422780695853,-0.0017394401452154112,-0.01758744795448191,0.004740596983702921,0.9876631837110702
2012-11-05,-1,-0.004907207014211322,-0.004027801152039387,-0.007111723429333133,0.004740596983702921,0.9899176673575786
2012-11-07,-1,-0.006571548204745247,-0.005529951529281579,-0.006306118925235668,0.004740596983702921,0.9909057544776907
2012-11-09,-1,-0.006379909614034203,-0.005412259456315445,-0.006306118925235668,0.005718528660490122,0.9911059069532608
2012-11-13,-1,-0.005648451507119321,-0.004816157927982616,-0.006306118925235668,0.005662650029398389,0.9915706764854606
2012-11-15,-1,-0.006377724202334344,-0.005419088381762325,-0.006306118925235668,0.0023954147934996018,0.9930614560511738
2012-11-19,-1,-0.006565427396057838,-0.005573326791853626,-0.0059072890969173,0.005981315402543954,0.9894443506933674
2012-11-21,-1,-0.00506833697222877,-0.004315498016807876,-0.005955481307747335,0.0023954147934996018,0.9909579187544666
2012-11-26,-1,-0.0041538568150994186,-0.003564979041997884,-0.005955481307747335,0.0009668619348488813,0.9912663566999568
2012-11-28,-1,-0.0040637707139306485,-0.0034913661322527245,-0.005955481307747335,0.0037215812549181303,0.9911284194667113
2012-11-30,-1,-0.003775943493962783,-0.003231401026875088,-0.005681916528809087,0.0037215812549181303,0.9901470761920609
2012-12-04,-1,-0.004195934281042769,-0.0035894527705716654,-0.0033882511240377754,0.007384663247868293,0.9887696377186515
2012-12-06,-1,-0.004205600977553881,-0.003636458091633755,-0.003158925345462414,0.007384663247868293,0.9890237319621322
2012-12-10,-1,-0.003991238511302881,-0.0034540220631302737,-0.0025849116986175675,0.008937018643375651,0.9890018324112024
2012-12-12,-1,-0.003453794557653634,-0.003030040020951875,-0.003158925345462414,0.008937018643375651,0.9888560411191307
2012-12-14,0,0.0,0.0,-0.0025849116986175675,0.008937018643375651,0.9895687527702072
2012-12-18,0,0.0,0.0,-0.0025849116986175675,0.005284586782593628,0.9930083083869256
2012-12-20,0,0.0,0.0,-0.002578969838602345,0.005284586782593628,0.9935465401137897
2012-12-24,0,0.0,0.0,-0.002578969838602345,0.005284586782593628,0.9934446702438898
2012-12-27,0,0.0,0.0,-0.0017966419683939992,0.010373618510025252,0.9920005884518276
2012-12-31,0,0.0,0.0,-0.002578969838602345,0.005763453404810162,0.9933199845746227
2013-01-03,0,0.0,0.0,-0.002607754181961825,0.0038372246980689956,0.9923440719540756
2013-01-07,0,0.0,0.0,-0.002607754181961825,0.005763453404810162,0.9887386046865481
2013-01-09,0,0.0,0.0,-0.005358381103568284,0.0038372246980689956,0.9892104927013569
2013-01-11,0,0.0,0.0,-0.005358381103568284,0.0032734596855473748,0.9887240686844895
2013-01-15,0,0.0,0.0,-0.005358381103568284,0.004511600066693114,0.9884990126542911
2013-01-17,0,0.0,0.0,-0.006133604757606358,0.0032734596855473748,0.9885192717835585
2013-01-22,1,0.0038003495951667242,0.004282770461313223,-0.007403781493655335,0.0032734596855473748,0.986603381292921
2013-01-24,1,0.00236696590302288,0.0027208167941562044,-0.009825836304007358,0.00459349184182702,0.9819627256112795
2013-01-28,0,0.0,0.0,-0.01362072799739444,0.002002451950623435,0.9812985812070025
2013-01-30,0,0.0,0.0,-0.01362072799739444,0.003542521772797352,0.9811832272947112
2013-02-01,0,0.0,0.0,-0.009447088831275825,0.0048173952730338945,0.9830542567395005
2013-02-05,0,0.0,0.0,-0.007277532336078158,0.006117583405534752,0.985319121388481
2013-02-07,0,0.0,0.0,-0.008303704584792505,0.006117583405534752,0.9853593341226682
2013-02-11,0,0.0,0.0,-0.007214423163487892,0.006419284591597673,0.9861045515361978
2013-02-13,0,0.0,0.0,-0.007214423163487892,0.005881582351066886,0.9862149446352837
2013-02-15,0,0.0,0.0,-0.0035604847481973474,0.006419284591597673,0.9822992289597124
2013-02-20,0,0.0,0.0,-0.0014264589224401388,0.024663763008030415,0.9795068525479115
2013-02-22,0,0.0,0.0,-0.0014264589224401388,0.012707843833571302,0.9829286717598734
2013-02-26,0,0.0,0.0,-0.0014264589224401388,0.0075924328039892125,0.985254113904553
2013-02-28,0,0.0,0.0,-0.0010998500824771068,0.00989655461580882,0.9852207147484597
2013-03-04,0,0.0,0.0,-0.0014264589224401388,0.00989655461580882,0.9853617844069426
2013-03-06,0,0.0,0.0,-0.002460216689702309,0.00989655461580882,0.9852327355122122
2013-03-08,0,0.0,0.0,-0.0018862277519467309,0.00989880131811614,0.9849530307912767
2013-03-12,1,0.004513563282802599,0.005312057548259568,-0.004633358088365779,0.00989880131811614,0.9849302658082205
2013-03-14,1,0.0048432354968412665,0.005700007866919811,-0.004633358088365779,0.011619998614566184,0.9846344509705288
2013-03-18,1,0.00898174790422437,0.01042370920659922,-0.007294445787168074,0.011619998614566184,0.9863525841176504
2013-03-20,1,0.010985907963141441,0.012684382735431191,-0.009083499748838136,0.008988616851722147,0.9856934945688969
2013-03-22,1,0.00973240134768562,0.011206331956400414,-0.008196943136011487,0.008143466699334148,0.9882824162214663
2013-03-26,1,0.009603965190614181,0.011067708116603377,-0.009083499748838136,0.008143466699334148,0.9881332883265642
2013-03-28,1,0.009254095075125713,0.010617623946682048,-0.011501163048858733,0.006009582452869451,0.9872837365451091
2013-04-02,1,0.007902004169394312,0.008824049486014948,-0.011501163048858733,0.006009582452869451,0.9879879859035399
2013-04-04,1,0.006343445593918581,0.006966529658038111,-0.00928717875142749,0.006009582452869451,0.9898720983472339
2013-04-08,1,0.005938123227016357,0.006475423904517182,-0.00928717875142749,0.006009582452869451,0.9903365024823136
2013-04-10,1,0.005209680255255381,0.005635047052566207,-0.008456081468063922,0.008717199131484162,0.9897156342106359
2013-04-12,1,0.005490666600201634,0.005902550868125112,-0.008456081468063922,0.006009582452869451,0.989484174239677
2013-04-16,1,0.004890311586303559,0.0052147738853318,-0.0025737543939041542,0.009483463882555184,0.9903950601390588
2013-04-18,1,0.004226942682979967,0.004474997869464765,-0.00030645734886005857,0.009483463882555184,0.9912331729525417
2013-04-22,1,0.004295053089783268,0.004549530455796067,-0.0068904649277881855,0.008531464223379418,0.9900748348418335
2013-04-24,1,0.00351629701443609,0.0036527308484740465,-0.0068904649277881855,0.014374814670744473,0.9893822593833277
2013-04-26,1,0.0028112922426739018,0.0028523701116656202,-0.006185301642020599,0.014374814670744473,0.9899185792892633
2013-04-30,1,0.0018432923348162987,0.001986653911994311,-0.006185301642020599,0.014374814670744473,0.9893353004159041
2013-05-02,1,0.0019939203526299952,0.0021548385678533486,-0.006746451317787599,0.011895200999740991,0.9898479394885851
2013-05-06,1,0.002236537120747695,0.002379674984299501,-0.006746451317787599,0.011919163383571851,0.9888848123593171
2013-05-08,1,0.003416077823296542,0.003443778329424711,-0.008264712241060193,0.007712913794321877,0.9893781754042784
2013-05-10,1,0.0025596977216634687,0.0027279249980598245,-0.009044861443035337,0.011148663547087231,0.9887803082710347
2013-05-14,1,0.0046400975989461715,0.004868190047106254,-0.009352291000179279,0.005632323335863572,0.9885968568363951
2013-05-16,1,0.003915225232952627,0.0040068430157174885,-0.009352291000179279,0.006753568927984096,0.986825764925447
2013-05-20,1,0.002943195207387236,0.0029974989772263956,-0.009044861443035337,0.009908348419244558,0.988066993867599
2013-05-22,1,0.003005441978424078,0.0030630358288811334,-0.009098928245023702,0.006364134877504465,0.9877243233219213
2013-05-24,1,0.003167011279206277,0.0031815921135049455,-0.009726104727334789,0.009908348419244558,0.9852992766760456
2013-05-29,1,0.003135755847145488,0.0031737244905571146,-0.009098928245023702,0.009750214459586758,0.9856900402371827
2013-05-31,0,0.0,0.0,-0.009098928245023702,0.01067426166811383,0.9850108310327903
2013-06-04,1,0.003731372948434484,0.0037653341060277343,-0.009726104727334789,0.01067426166811383,0.9839719507566131
2013-06-06,1,0.002825260704696366,0.0029752894222964824,-0.006621313989637575,0.013517933146566616,0.9844732169291031
2013-06-10,1,0.0014528254688221227,0.0016658254352277775,-0.006621313989637575,0.012827492338381874,0.9848694133408827
2013-06-12,0,0.0,0.0,-0.004780780357415271,0.012827492338381874,0.985191855415697
2013-06-14,0,0.0,0.0,-0.004589143272032668,0.009750214459586758,0.987678799166714
2013-06-18,0,0.0,0.0,-0.0057678198205948165,0.005319454815792286,0.9878108509490711
2013-06-20,0,0.0,0.0,-0.004589143272032668,0.012827492338381874,0.9877961676015259
2013-06-24,0,0.0,0.0,-0.0035156281352613627,0.005319454815792286,0.9905119595192919
2013-06-26,0,0.0,0.0,-0.0033737199074077517,0.0035443007833600975,0.9909494087473668
2013-06-28,1,0.0029577668616662086,0.0030427452731406892,-0.004700041575158841,0.003417739587340643,0.9912751823300012
2013-07-02,0,0.0,0.0,-0.004700041575158841,0.003417739587340643,0.9924528828435943
2013-07-05,0,0.0,0.0,-0.004700041575158841,0.0035443007833600975,0.9903474148976266
2013-07-09,1,0.0013306381409199908,0.0016869656132449064,-0.006391984587307568,0.003417739587340643,0.9885067648961638
2013-07-11,1,0.0005066955579051942,0.0009903238758255841,-0.0076807141902232754,0.006600126552563581,0.9874748685072695
2013-07-15,-1,-0.0007913215047355322,-9.730649149449909e-05,-0.009720618215270444,0.006600126552563581,0.9872902042522991
2013-07-17,1,0.00060272550085133,0.001023304871023017,-0.012334974125905264,0.006600126552563581,0.9865598113079064
2013-07-19,0,0.0,0.0,-0.012334974125905264,0.0021104289395734244,0.9874081976543181
2013-07-23,0,0.0,0.0,-0.012334974125905264,0.0073029259941939225,0.9867068866605724
2013-07-25,1,0.0017243773123153702,0.0020570782132463476,-0.01307707609823058,0.0077085814717848325,0.9858885622713108
2013-07-29,1,0.0015374663521029726,0.0018327171191765107,-0.01307707609823058,0.0077085814717848325,0.9860178992855939
2013-07-31,1,0.0007709414793076058,0.0011950230125620442,-0.012334974125905264,0.005437025458018245,0.9867649546431833
2013-08-02,0,0.0,0.0,-0.012334974125905264,0.004551237327622252,0.9894446589038062
2013-08-06,0,-0.0004912570778363497,5.140016815328649e-05,-0.010255154365195635,0.0062570138806212535,0.9910601470114304
2013-08-08,1,0.0015157606300029226,0.0016342358906526048,-0.009642378231211408,0.005437025458018245,0.9921576551148976
2013-08-12,1,0.0025157897556380526,0.0026657234889106334,-0.008633559793014167,0.0062570138806212535,0.99211761031192
2013-08-14,1,0.0011381353301762253,0.0012245776083748736,-0.006908089467447572,0.008692856894294276,0.9920581932892136
2013-08-16,1,0.00017021892748198062,0.00038341491978204523,-0.004846761647049892,0.008692856894294276,0.9924134504963572
2013-08-20,1,0.0009962551647846622,0.0010958560176845592,-0.004846761647049892,0.009338178826944942,0.9923460996250403
2013-08-22,1,0.00033898424780620835,0.0005311355596026593,-0.0004777109175813101,0.009338178826944942,0.9926042876208444
2013-08-26,-1,-0.0003401408792660228,-7.300188598596e-05,-0.00014499318591766576,0.009338178826944942,0.9920346371269588
2013-08-28,-1,-0.001262742057325718,-0.0008868844259832648,0.0032267613473744117,0.013184272820997765,0.9904716569552809
2013-08-30,-1,-0.0012409455475532792,-0.0008393951390338146,0.0023665676723024897,0.013184272820997765,0.989900500753696
2013-09-04,0,-3.6635486816267125e-05,0.00020481803899364593,-0.00014499318591766576,0.009957865129904368,0.9909083708321519
2013-09-06,0,-0.000173401847056913,9.817990369183468e-05,-0.0038486084520589587,0.009957865129904368,0.9898302235003021
2013-09-10,0,-0.0001590949372165918,0.00016242795714410674,-0.006481992502240344,0.008497603905878566,0.9904508448242704
2013-09-12,1,9.140768171686845e-05,0.00037102838018548945,-0.0039019600501791225,0.008497603905878566,0.9896807213092894
2013-09-16,0,-0.00011070281143090951,0.00020919328376231723,-0.0039019600501791225,0.008497603905878566,0.9896125079845297
2013-09-18,1,0.0002455612583906555,0.0005620241940255101,-0.0039019600501791225,0.008441618574480095,0.9902421537329136
2013-09-20,1,0.00010244482766312763,0.00046323695296051313,-0.007319474909072973,0.008441618574480095,0.9901270292591077
2013-09-24,-1,-0.0005350065086464678,-0.0001378450492658832,-0.0038390526115196413,0.008441618574480095,0.9909197290599058
2013-09-26,1,0.00111416671931843,0.0012930958452996072,-0.007319474909072973,0.007356665316799833,0.9909303512183145
2013-09-30,1,0.0016273334718376526,0.0016604435948559472,-0.007319474909072973,0.005713245673526247,0.9911428832353307
2013-10-02,1,0.0010551944466702465,0.0011663798093833038,-0.007319474909072973,0.005551850604539664,0.9911150639236997
2013-10-04,1,0.0013323598762077465,0.001354932524348461,-0.006796101750256637,0.005551850604539664,0.9904219142967311
2013-10-08,1,0.0007396672428684996,0.0008437325417578543,-0.009738574033642679,0.005551850604539664,0.9884157389190031
2013-10-10,1,0.0015012997495148389,0.0015664006201837387,-0.012115646316931045,0.004579312114787893,0.9885203803628693
2013-10-14,1,0.0019447237228472174,0.001953348385267526,-0.012115646316931045,0.004473069354738348,0.9880385166811005
2013-10-16,1,0.0021994326531623865,0.002229946528198458,-0.012115646316931045,0.004473069354738348,0.9879705818140704
2013-10-18,1,0.0013587881825464164,0.0014456787209898793,-0.012115646316931045,0.00468164948611595,0.9884745806812091
2013-10-22,1,0.0006940618755411796,0.0008793225455885328,-0.012115646316931045,0.004894168668141069,0.9884369157882251
2013-10-24,1,0.001535258288000272,0.0015733922480662293,-0.015066672440806908,0.00468164948611595,0.9888620624412255
2013-10-28,1,0.00022216462630094303,0.0004527441610678631,-0.012461518368307414,0.004894168668141069,0.9870347890008663
2013-10-30,-1,-0.0005400874847146348,-0.00021251534607083283,-0.009093034719677161,0.00528203522622999,0.9871488646090186
2013-11-01,0,-9.025279190448857e-05,0.00021240450560207358,-0.012517544932973156,0.00468164948611595,0.9880006065327251
2013-11-05,-1,-0.0013190916893924935,-0.0009667102628506876,-0.009093034719677161,0.00468164948611595,0.9892527934903548
2013-11-07,-1,-0.002299032012668148,-0.001852285531256695,-0.008067482523542991,0.00468164948611595,0.9894441786115962
2013-11-11,-1,-0.0033566599425290736,-0.0027185371155947482,-0.00611277059615253,0.00528203522622999,0.9881853409143733
2013-11-13,-1,-0.0020136442666851264,-0.001602115409661523,-0.007387815724264844,0.00528203522622999,0.9884198041317405
2013-11-15,-1,-0.002046373347502493,-0.0016362700541532663,-0.007387815724264844,0.004479889035999565,0.9888145095971916
2013-11-19,-1,-0.0009926989888538536,-0.0007849840673549421,-0.008660177889188006,0.0033499504758080717,0.9887073709030247
2013-11-21,-1,-0.001477717515721197,-0.0012320804499129376,-0.008621255478146166,0.004571234747027206,0.9887277279369175
2013-11-25,1,0.0011743721439742595,0.001285559974691243,-0.008621255478146166,0.006708395726877662,0.9909768377473476
2013-11-27,1,0.001014818902960936,0.0010727915730547192,-0.007634112118207423,0.006708395726877662,0.9915098354715453
2013-12-02,1,0.00020044104687116365,0.0002547197135897997,-0.004321773136211386,0.0074636415713643794,0.9911900597039938
2013-12-04,-1,-0.0010043757465236446,-0.0007968986858476534,-0.007634112118207423,0.0074636415713643794,0.9912087712179777
2013-12-06,-1,-0.0016716030224089727,-0.0013779494931074451,-0.004321773136211386,0.010257815787936823,0.9902304116644224
2013-12-10,1,0.0003674751980538303,0.00037628347008647825,-0.007634112118207423,0.009242478380304552,0.9912864121277817
2013-12-12,1,0.00030343231887341765,0.00031284106103372425,-0.009399067071015742,0.007762547841589173,0.9911325288565893
2013-12-16,1,4.976934434390416e-05,9.03427694284334e-05,-0.009478145373882686,0.010257815787936823,0.9897851492185709
2013-12-18,-1,-0.0007241934126762864,-0.0005592260703180165,-0.009386504094262884,0.010257815787936823,0.9897571687165303
2013-12-20,-1,-0.0008759378931167347,-0.0006923135797304614,-0.008320453002795904,0.010769242448152814,0.9897141345918913
2013-12-24,1,0.0012114558295915944,0.0014252343567216223,-0.010587811404007058,0.010413386657279144,0.9890244229844074
2013-12-27,1,0.00048293821402250217,0.00048805255580629644,-0.010587811404007058,0.011482385319068648,0.9874799170150608
2013-12-31,1,0.0015144218068760648,0.0016620131921498116,-0.010587811404007058,0.01133587896629887,0.9877667246177493
2014-01-03,1,0.00020084821934413658,0.00024996464061128503,-0.009951026216611838,0.01133587896629887,0.988265383256822
2014-01-07,1,0.001131774801731556,0.0011580016375024702,-0.011007506098507584,0.0056844160548251985,0.9881589442565132
2014-01-09,0,-3.9956975320242926e-06,0.0001403508665379702,-0.009817742357761743,0.008303494258550438,0.9886126815115631
2014-01-13,-1,-0.00023488535112355536,-9.677287194675608e-05,-0.008320453002795904,0.008303494258550438,0.9894352658308384
2014-01-15,1,2.3144299227260924e-05,0.00015181887260220053,-0.00867261296342782,0.004706929122282086,0.9878005089284613
2014-01-17,-1,-0.000788497379145459,-0.0005711554502502031,-0.007536100538814919,0.008303494258550438,0.9875179125196347
2014-01-22,-1,-0.0010770903672887478,-0.0007942313458280362,-0.008764169011969981,0.008177719750640711,0.9874698708211911
2014-01-24,-1,-0.0019177045303296041,-0.0015454640359202146,-0.008764169011969981,0.008177719750640711,0.9857356505447471
2014-01-28,-1,-0.00015087575050136567,-2.2762774618048968e-05,-0.011153747863868073,0.004706929122282086,0.9868322034679725
2014-01-30,1,0.00033581010250205846,0.00040506916346574906,-0.011153747863868073,0.008177719750640711,0.9853212220708318
2014-02-03,0,-3.3239864781509814e-05,4.930218993310734e-05,-0.009108045760231656,0.012205023122164173,0.9849048094978916
2014-02-05,1,0.0003311467255973562,0.00036327845891637753,-0.008175443518828037,0.008177719750640711,0.9857501633277149
2014-02-07,1,0.00043069621040210725,0.00044176458616340393,-0.008175443518828037,0.011081125615123786,0.9857026526653041
2014-02-11,1,0.0008615010740360867,0.0009492695685808805,-0.008175443518828037,0.011081125615123786,0.9852245164326172
2014-02-13,-1,-0.0010629821434529636,-0.0009326816970477029,-0.008175443518828037,0.011081125615123786,0.987587541422422
2014-02-18,-1,-0.0007784597626959224,-0.0006492208103640899,-0.008175443518828037,0.010319223444421535,0.9883065008801836
2014-02-20,1,2.3789183359420013e-05,5.0439856012465226e-05,-0.00686776613884932,0.005402726060388232,0.9886858735372794
2014-02-24,-1,-0.002175732445297913,-0.0019298834419638191,-0.006247093244745521,0.005801076717753526,0.9911891284743164
2014-02-26,-1,-0.0028707312450491134,-0.0025352478759874467,-0.006772261954047386,0.005801076717753526,0.9913168122918747
2014-02-28,-1,-0.0014708695659066187,-0.0012868808733020945,-0.008232807712683912,0.003942636438178822,0.9922504045553169
2014-03-04,-1,-0.0012004305053021033,-0.0010366374488492967,-0.006772261954047386,0.004869156836850465,0.9921991375021211
2014-03-06,-1,-0.0009436603005611562,-0.0008659030242526576,-0.009049932459271012,0.006551489227464656,0.9916944715732712
2014-03-10,-1,-0.00022757768968199835,-0.0002037541442953645,-0.012296149888049024,0.004869156836850465,0.9900743075258429
2014-03-12,-1,-0.0002631028328164476,-0.00021439521144895354,-0.012296149888049024,0.007504660629077096,0.9884535221196888
2014-03-14,-1,-0.00046279078308412004,-0.0004610022072921721,-0.013478453340911654,0.006551489227464656,0.9873470973052229
2014-03-18,-1,-0.0007491173806642387,-0.000711266037304038,-0.013478453340911654,0.0071386248893627715,0.9867714479178198
2014-03-20,-1,-0.0003198515966492861,-0.0002859183438910395,-0.013478453340911654,0.0071386248893627715,0.9869409008218416
2014-03-24,-1,-0.0006624138459701146,-0.0006362074575575039,-0.013478453340911654,0.011758021990678703,0.9839930065071644
2014-03-26,-1,-0.0014748907806325263,-0.0013375153743508798,-0.013242956703189666,0.0185999150541964,0.9834583674851514
2014-03-28,-1,-0.0010905464066077455,-0.0010352619650052684,-0.011578457517969404,0.018944273776771575,0.9807649425442025
2014-04-01,-1,-0.0011338018810982122,-0.0009964755005326875,-0.013617894780901524,0.0185999150541964,0.9807110103363734
2014-04-03,-1,-0.0018218009033330626,-0.0015624981166021124,-0.01299062511071169,0.0185999150541964,0.9809516429903651
2014-04-07,-1,-0.003393714130145594,-0.0029468736266368206,-0.0055643635221198536,0.0185999150541964,0.9820811967084367
2014-04-09,-1,-0.001742241264514419,-0.001509982831572021,-0.011369367627906126,0.00880408702933732,0.9836208949124047
2014-04-11,-1,-0.0031762687987816453,-0.002777041077322599,-0.0043536570719881745,0.00880408702933732,0.984772146227249
2014-04-15,-1,-0.0031591788493730323,-0.0027686061343058944,-0.0034997878204066583,0.00880408702933732,0.9856826058574728
2014-04-17,-1,-0.003464111558814035,-0.003014849684240889,-0.0034997878204066583,0.00880408702933732,0.9850519445757251
2014-04-22,1,8.331230633970416e-05,0.00014727125217950127,-0.0034997878204066583,0.008550294845217651,0.9890422152360389
2014-04-24,1,0.0010042244666626174,0.0012005872871149609,-0.0034997878204066583,0.0061733310983153045,0.9901636659965435
2014-04-28,1,0.002865187201431871,0.00327746077109384,-0.0033223642666600477,0.00808144483656835,0.9927783758452282
2014-04-30,1,0.0014707893125298199,0.001652535946397513,-0.0029797146978327482,0.00808144483656835,0.9938310062873127
2014-05-02,1,0.0015690656348306528,0.001737813466257974,-0.0029797146978327482,0.008146578412382637,0.9929217297006374
2014-05-06,1,0.0022324880926602865,0.0025414161949575977,-0.0029797146978327482,0.0061733310983153045,0.993409316876428
2014-05-08,1,0.0019801947822466947,0.0022565728253422486,-0.0028306435636755905,0.006303534821574821,0.9941603491151089
2014-05-12,1,0.0017732680081468796,0.002011727088957519,-0.0014089755017747188,0.006303534821574821,0.9944572805876383
2014-05-14,1,0.0014059938210029966,0.0015801598589505667,0.000121712706029453,0.006303534821574821,0.9943030764042416
2014-05-16,1,0.0015816840968362073,0.001772434037228546,0.000121712706029453,0.0056855629555104086,0.9945851321918143
2014-05-20,1,0.002101510917593543,0.0023887858283899188,-0.0014089755017747188,0.004483435008667219,0.994586690965628
2014-05-22,1,0.0020236398998249106,0.0023148217176289015,0.000121712706029453,0.0056855629555104086,0.9942174346529478
2014-05-27,1,0.0033081449568703033,0.0038093737266456425,-0.0013780212286530233,0.004483435008667219,0.9948005702822179
2014-05-29,1,0.0028128967222414186,0.003202457133708028,-0.0002351034362871994,0.004849565296961763,0.9952008004602841
2014-06-02,1,0.004175173202861737,0.004803247472493692,-0.0002351034362871994,0.0065273907322036485,0.994334699964438
2014-06-04,1,0.003939407682069259,0.004507074582061064,-0.0002351034362871994,0.008844540882884475,0.9940418704776883
2014-06-06,1,0.003945492257136035,0.004487609519195022,-0.0013780212286530233,0.008074851618313308,0.9935747502550507
2014-06-10,1,0.004053804337654124,0.004630704724326299,-0.0028598836011251173,0.010669842047437702,0.9922646051347961
2014-06-12,1,0.003523796547194394,0.004004018799861843,-0.0028598836011251173,0.010669842047437702,0.9926059694113959
2014-06-16,1,0.0036340861165199074,0.004134166492035666,-0.0033804717815650452,0.010669842047437702,0.992157518240657
2014-06-18,1,0.003124796074309031,0.0035071508775347243,-0.0035019307798427974,0.010669842047437702,0.9918755982104359
2014-06-20,1,0.0037612379758761964,0.0042907856523631115,-0.0037486187192277603,0.009103095946941185,0.9922116058648913
2014-06-24,1,0.003964673731857319,0.004542461576492037,-0.0035019307798427974,0.009103095946941185,0.9924338961444824
2014-06-26,1,0.003793745490236889,0.004314385581656826,-0.004302897202420287,0.009103095946941185,0.9920366906976626
2014-06-30,1,0.004927409878190244,0.0056086221632610875,-0.0055132205007888,0.0056254913638643,0.9927876019552916
2014-07-02,1,0.005395749797654301,0.006135033046661129,-0.006233672125994753,0.004481717283253789,0.9901667830460635
2014-07-07,1,0.005197920054617673,0.0059106730188938136,-0.006233672125994753,0.004663786528453355,0.9890211757978976
2014-07-09,1,0.005371270003670217,0.005971443348320484,-0.007206314374060404,0.004481717283253789,0.9889909270355641
2014-07-11,1,0.005482955048221048,0.006129732960588937,-0.008159792104139824,0.004289139689873052,0.9883302687671983
2014-07-15,1,0.005478948822985737,0.006121108731727652,-0.008159792104139824,0.0037506428343494443,0.9885298219153563
2014-07-17,1,0.003883865511111289,0.004183496543900133,-0.008159792104139824,0.004289139689873052,0.989502282804313
2014-07-21,1,0.003338236324225123,0.0035102967575442435,-0.008159792104139824,0.004289139689873052,0.9895378764134534
2014-07-23,1,0.003907460325476842,0.004232416834329218,-0.008307264455515204,0.004289139689873052,0.9888115588239736
2014-07-25,1,0.0036973761711222453,0.004006909326336475,-0.008108751760891703,0.004743231454462539,0.9888400940314915
2014-07-29,1,0.003175999190227521,0.0033804175123863323,-0.008108751760891703,0.004743231454462539,0.9890554048080697
2014-07-31,1,0.0016522210176810675,0.0016749897526163232,-0.007857163544127752,0.007024790214654001,0.991205058240941
2014-08-04,1,0.001839271918651328,0.0018590720428339504,-0.005931171579517073,0.007024790214654001,0.9928988074909131
2014-08-06,1,0.0007445267742918065,0.0008668893790972596,-0.00524786860049945,0.007988191896968758,0.9932081536619456
2014-08-08,0,-9.531829564023262e-05,0.00014634044935458448,-0.004101937827655425,0.007988191896968758,0.9938396915787616
2014-08-12,0,-4.152527266182502e-05,0.00019005678846480427,-0.00524786860049945,0.007988191896968758,0.993326042892372
2014-08-14,1,0.0004566486720712856,0.000651070054650694,-0.00524786860049945,0.007174420157323034,0.9940936304975985
2014-08-18,0,-6.757628329108782e-05,0.0002337705151299065,-0.004101937827655425,0.007174420157323034,0.9942212403540037
2014-08-20,-1,-0.0009129344517541506,-0.00048773833711568057,-0.002716938909541532,0.007174420157323034,0.9942738248442787
2014-08-22,-1,-0.00068389899471648,-0.0003305451002368029,-0.002716938909541532,0.007174420157323034,0.9945589587783502
2014-08-26,-1,-0.0011382629003392917,-0.0007075186605490979,-0.005855042006133248,0.007174420157323034,0.9928732043285128
2014-08-28,-1,-0.002303617774370984,-0.0016484132834834915,-0.004978830574097015,0.007174420157323034,0.9924838728812492
2014-09-02,-1,-0.0011024611907990214,-0.0006566728407344105,-0.0077583171955501835,0.00549697841041768,0.9919246171055123
2014-09-04,-1,-0.002541201853292897,-0.0018275682603473397,-0.0077583171955501835,0.0048189905215241,0.9915862732577415
2014-09-08,-1,-0.003091272565519545,-0.0022936887624355196,-0.0077583171955501835,0.00599773892668302,0.9900052834298241
2014-09-10,-1,-0.0035096309394137292,-0.0026502589731952197,-0.00787285286947774,0.006080409914236433,0.9892532715883132
2014-09-12,-1,-0.0018079652164379207,-0.0012673110808356584,-0.013835150873390075,0.0051323083293888135,0.9882021934676757
2014-09-16,-1,-0.0008905536635562144,-0.0004977277691537003,-0.01913776230657688,0.003872557703638057,0.9872508200234945
2014-09-18,1,0.000781633662524544,0.0008606516888823554,-0.01913776230657688,0.002420274615929358,0.9859128370910991
2014-09-22,-1,-0.0004911156689792253,-0.00020031745723091935,-0.01913776230657688,0.007961936133757662,0.9842057456714344
2014-09-24,-1,-0.0019585675214425138,-0.001509617514226425,-0.016283147945945885,0.01548081579472417,0.9844229944427899
2014-09-26,-1,-0.0014385187209244557,-0.0010643401162563387,-0.016283147945945885,0.019136228068123026,0.982979933066253
2014-09-30,-1,-0.003182581245079354,-0.0025892296045098026,-0.012995997278960636,0.019136228068123026,0.9839034619373987
2014-10-02,-1,-0.004061107783515537,-0.003355558343422712,-0.012995997278960636,0.019136228068123026,0.9837464043968626
2014-10-06,-1,-0.0030357753970310674,-0.002435843743038398,-0.012995997278960636,0.021953992179387476,0.9829595035048315
2014-10-08,-1,-0.0026949869798300677,-0.00215413070761951,-0.016283147945945885,0.021953992179387476,0.9831066117259131
2014-10-10,-1,-0.004098698911743517,-0.0034139750868474377,-0.01221023548922785,0.021953992179387476,0.9842110141526594
2014-10-14,-1,-0.005932991016963542,-0.0050114458645715565,-0.010723895341676521,0.021953992179387476,0.9821660516626984
2014-10-16,-1,-0.005939197664877095,-0.005082217685260753,-0.009299284945540979,0.025051573612857106,0.9801663049170509
2014-10-20,-1,-0.003692059768527855,-0.0030940847973061607,-0.009299284945540979,0.020902120865441985,0.9825972437021405
2014-10-22,-1,-0.0021640141442292368,-0.0018037869101567175,-0.005686684818348448,0.020902120865441985,0.9834283215174053
2014-10-24,-1,-0.0003972504670213261,-0.00024501633595846686,-0.005686684818348448,0.01712236662189101,0.9853450746920772
2014-10-28,-1,-0.0003624938160090421,-0.0002300138952330146,-0.004223518397852412,0.02148528629261721,0.9837718357595256
2014-10-30,-1,-0.0012005529130358003,-0.0009686600021686387,-0.001948746233026604,0.02148528629261721,0.984338243260984
2014-11-03,1,0.00044525813036886807,0.0005023563302548445,-0.004223518397852412,0.017189819487621626,0.9865551638070104
2014-11-05,-1,-0.00014656202036797422,-2.667533735919948e-05,-0.005164977085674899,0.017189819487621626,0.9870095507400585
2014-11-07,-1,-0.0009744737389682008,-0.0007575082644487913,-0.004674691492115305,0.017189819487621626,0.9870847807730224
2014-11-11,-1,-0.003207715375204823,-0.0027544462385209433,-0.004674691492115305,0.017189819487621626,0.9890976823916158
2014-11-13,-1,-0.001456213911314188,-0.0012144252648327574,-0.006518496368463578,0.00993222124182119,0.9913026989439703
2014-11-17,-1,-0.0006386053398343681,-0.0005037249118191397,-0.007108605579475758,0.007454620224072188,0.9918931617830318
2014-11-19,1,0.001043539137894824,0.0012035496279752692,-0.007108605579475758,0.007454620224072188,0.9922395690672497
2014-11-21,1,0.001845780387893025,0.0021612702755545448,-0.007108605579475758,0.007454620224072188,0.9919405580070686
2014-11-25,1,0.0033538635845604663,0.003849531423439875,-0.007108605579475758,0.003847762388737722,0.9925190288468511
2014-11-28,1,0.003867697134193243,0.004449844288002521,-0.007108605579475758,0.004755608245010318,0.9926456033718973
2014-12-02,1,0.003665803890900228,0.0042205611732309325,-0.007168785289786709,0.004755608245010318,0.9921849882622107
2014-12-04,1,0.0032009535266870484,0.003704566854068967,-0.00658586741643053,0.004755608245010318,0.9912718205195771
2014-12-08,1,0.0031967421902213767,0.0036973881808653707,-0.00795418879545167,0.0033630369565107697,0.990418002383768
2014-12-10,1,0.0027016864341379287,0.0031366849451206335,-0.006261559913517133,0.004755608245010318,0.9894107059844948
2014-12-12,1,0.002398660720517635,0.002794766985157175,-0.003429336862804962,0.007311574829365568,0.9896859437800417
2014-12-16,1,0.0017116116692329356,0.0020040166616114457,-0.002858759985315702,0.010638854213970527,0.9879702281596837
2014-12-18,1,0.002048356062890727,0.0023809643362226714,-0.007822818073105729,0.007613523258640569,0.9868181745107553
2014-12-22,1,0.0017352201777048695,0.0019219663015239974,-0.007822818073105729,0.007613523258640569,0.9862049347763131
2014-12-24,1,0.0025247863229039417,0.002849967701131198,-0.007822818073105729,0.004755608245010318,0.9866743871008846
2014-12-29,1,0.002388423261436222,0.0026436215180405667,-0.016738431857623755,0.003483275188786971,0.9843214003222306
2014-12-31,1,0.001490521453666252,0.001596430606341099,-0.014823993104564441,0.005370777129722079,0.9846472571740913
2015-01-05,1,4.9897868715696736e-05,0.00011952159210928015,-0.007549194614462768,0.012389632792852618,0.9845391891239523
2015-01-07,-1,-0.000355991173819292,-0.00028619605066881654,-0.006013288004252592,0.01949395243286941,0.9810333179721541
2015-01-09,1,0.0010483687435691165,0.0011669980792118767,-0.006642888369932465,0.015957758353190236,0.9826649474767433
2015-01-13,1,0.0013263162926816742,0.0014551162553850798,-0.006642888369932465,0.01949395243286941,0.9820385356278627
2015-01-15,1,0.0003605605600899855,0.0003653711353655968,-0.005338042891686847,0.01949395243286941,0.9839626577585789
2015-01-20,-1,-0.0008707445243903134,-0.0007186018940584678,-0.006642888369932465,0.01949395243286941,0.984776547485063
2015-01-22,1,7.897245444024557e-06,4.838063329918941e-05,-0.006642888369932465,0.012209263392474561,0.9853654041451025
2015-01-26,1,0.00013577400136339246,0.00014075138438290752,-0.006642888369932465,0.012823903394742656,0.9850837161659991
2015-01-28,-1,-0.0019441248727284548,-0.0017030435049989684,-0.0038063066245168737,0.019739450064119486,0.9856103947312047
2015-01-30,-1,-0.001821899222561763,-0.0015909637361059409,-0.0038063066245168737,0.022582471968632507,0.9845828668650825
2015-02-03,1,7.906433571763979e-05,8.943821257723635e-05,-0.00537495676411163,0.013505618044172834,0.9867359029686659
2015-02-05,1,0.0040492311683748665,0.00458107034917565,-0.006590031835400168,0.008325879971161645,0.9906325882939994
2015-02-09,1,0.0037451663911575337,0.00426594185540956,-0.006590031835400168,0.008325879971161645,0.9907168898945673
2015-02-11,1,0.004411614175099015,0.005025666865727029,-0.006590031835400168,0.008325879971161645,0.9890740679745772
2015-02-13,1,0.00465457911910571,0.00528230861040971,-0.00709758933379139,0.007200672062041872,0.9882559768325828
2015-02-18,1,0.002985404143313365,0.003302153892080865,-0.006590031835400168,0.007200672062041872,0.9890658515129013
2015-02-20,1,0.0033836105683292873,0.003771423970470126,-0.006590031835400168,0.005824575847714532,0.9888196952005613
2015-02-24,1,0.0029074526663992674,0.003146945008959717,-0.006590031835400168,0.004665915460460186,0.9887357829794905
2015-02-26,1,0.0032637284175955493,0.0035029570245223114,-0.0072911177916039705,0.003886092723800551,0.9879685658548639
2015-03-02,1,0.004433025154222747,0.004888215515999716,-0.007530103501927977,0.003886092723800551,0.9878791908500116
2015-03-04,1,0.003980650613389969,0.0043853452807435305,-0.010232418646108396,0.003886092723800551,0.9855184787452035
2015-03-06,1,0.002574178692265377,0.002700166126833773,-0.010232418646108396,0.0050588710758488805,0.9857044907534178
2015-03-10,1,0.0011266302117922044,0.0012594578626757128,-0.010232418646108396,0.005822002093615905,0.9856957121713434
2015-03-12,1,0.002925143719053601,0.002956878869842319,-0.010232418646108396,0.004460271593090144,0.9880756714732647
2015-03-16,1,0.0032126427362680295,0.0033924285486263096,-0.010432057859957834,0.004813830712182835,0.9876972993515357
2015-03-18,1,0.002973871810644511,0.0031535394027952966,-0.007530103501927977,0.004813830712182835,0.9881902303718928
2015-03-20,1,0.0034817031618724205,0.0038123782685181252,-0.013268201766932018,0.004813830712182835,0.9865577035552958
2015-03-24,1,0.003016607037262164,0.003270635662815392,-0.013268201766932018,0.006544418156628155,0.98610305902351
2015-03-26,1,0.0013440093194278522,0.0013556478040618813,-0.010918959352445155,0.010374942622702226,0.9871724889892379
2015-03-30,1,0.0024146694657758557,0.002632326130716187,-0.013268201766932018,0.006544418156628155,0.9873720983759305
2015-04-01,1,0.0034314327278270884,0.0037398013502370833,-0.01134476186661599,0.006544418156628155,0.9883891099393829
2015-04-06,1,0.003351531352196112,0.003598658586533736,-0.01134476186661599,0.004813830712182835,0.9893568395986398
2015-04-08,1,0.0012316136124985776,0.0013856689521650476,-0.009798828444490086,0.0029294067052898073,0.9900662936434116
2015-04-10,1,0.002053563697089959,0.0020666274710819297,-0.010837470357040356,0.002115976758694831,0.9888954259481226
2015-04-14,1,0.0019872625173076503,0.0020148146528134406,-0.010323624122200573,0.0007079412023201048,0.9890208634550895
2015-04-16,1,0.0020565675895702035,0.0021314463368175274,-0.010323624122200573,0.0002987670566986649,0.9889888296206243
2015-04-20,1,0.0007748044673364218,0.0008449975799594308,-0.009570207613668426,0.0008039374571383927,0.9902554092768703
2015-04-22,1,0.0017930948429450365,0.0019460054746250626,-0.009570207613668426,0.0008039374571383927,0.9896277075344788
2015-04-24,1,0.0020240986801159165,0.002225317720365401,-0.009844639847684179,0.0008039374571383927,0.9890465546402778
2015-04-28,1,0.0011910935709138976,0.0012686290793347973,-0.009570207613668426,0.0023382819240172444,0.9888343824323096
2015-04-30,1,0.0017180328573878317,0.001827569792298595,-0.009844639847684179,0.0023382819240172444,0.9893113648233225
2015-05-04,1,0.0016719456261436918,0.0017699704686681503,-0.01049656428130339,0.0013592754053186147,0.9885004791816868
2015-05-06,1,0.0005138139786630225,0.0005949845334267369,-0.011081422415184252,0.0013592754053186147,0.9886090413348855
2015-05-08,-1,-0.000565492602875829,-0.00033739125298952596,-0.011915465985686956,0.004845865160815602,0.9881633425306299
2015-05-12,-1,-0.001816997968772371,-0.0014107347568388545,-0.011915465985686956,0.00999634661264316,0.9883199678183439
2015-05-14,-1,-0.0018190572924924463,-0.0014296381507564872,-0.011915465985686956,0.00999634661264316,0.9876012512885254
2015-05-18,-1,-0.0005838445764571291,-0.00036672663371896993,-0.011915465985686956,0.00905821744881054,0.9882445620270579
2015-05-20,-1,-0.0012577505010192944,-0.0009872505522119511,-0.009809250061500284,0.00905821744881054,0.9895075367341031
2015-05-22,-1,-0.0014577638468610446,-0.0011816287617108553,-0.008768955995331711,0.005047822806256506,0.9904799657398761
2015-05-27,-1,-0.001238996128765709,-0.0009555808382073513,-0.009485345472746579,0.0029282373825055196,0.9917262454667372
2015-05-29,-1,-0.002046477169009105,-0.0015948171987670435,-0.0077113388542727765,0.0029282373825055196,0.9918379126398591
2015-06-02,-1,-0.003362811767278593,-0.0027096115966992887,-0.0077113388542727765,0.005047822806256506,0.9911184037424235
2015-06-04,-1,-0.003807449333170508,-0.0031632606045507564,-0.0077113388542727765,0.009447347460373814,0.9913744119764542
2015-06-08,-1,-0.0036284587396404125,-0.0030291120702835832,-0.006440269004539917,0.009447347460373814,0.9917025219525945
2015-06-10,-1,-0.004044849093128737,-0.0033453742594308023,-0.0077113388542727765,0.005881084588655329,0.9915860547740445
2015-06-12,-1,-0.004779227229595052,-0.003941554839751756,-0.006440269004539917,0.008165408078126966,0.9903088689655809
2015-06-16,-1,-0.0050253009868296145,-0.0041898123879625035,-0.005520274150312846,0.01332585033616104,0.9888898811169277
2015-06-18,-1,-0.005199257541231787,-0.0043272257769870984,-0.005520274150312846,0.013715632002683475,0.9877166197022543
2015-06-22,-1,-0.006464504538330576,-0.005350288068581311,-0.008499438967529282,0.013715632002683475,0.9867722919904612
2015-06-24,-1,-0.007046113576168109,-0.00586257537111586,-0.008710947617135765,0.013715632002683475,0.9861779774760053
2015-06-26,-1,-0.005294775327061346,-0.004402584187130612,-0.010720206032178851,0.01332585033616104,0.9872605650248064
2015-06-30,-1,-0.002824544052690253,-0.002418511689479606,-0.008710947617135765,0.01332585033616104,0.9883776275149729
2015-07-02,-1,-0.0030379274049750337,-0.0025822591904426846,-0.008926199254138203,0.013377270146782472,0.9879944076949407
2015-07-07,-1,-0.0019004710508265037,-0.0016120780544865738,-0.008926199254138203,0.01423735536284686,0.9877444191802565
2015-07-09,-1,-0.002189562630490973,-0.0018924673386455878,-0.008926199254138203,0.01423735536284686,0.9876057062111497
2015-07-13,-1,-0.001285305637361491,-0.001054011540038456,-0.011365960943186164,0.012293459942114154,0.9884114979008481
2015-07-15,-1,-0.0005315889607457452,-0.0004051283861285674,-0.01204988844785721,0.0103745225810511,0.9889590012977253
2015-07-17,1,0.0006710394019695113,0.0007081942285457653,-0.01204988844785721,0.005907423693468663,0.9896962427980418
2015-07-21,1,0.000985254303852077,0.0011167825540025773,-0.011469871576546694,0.008297954228884248,0.988419790700053
2015-07-23,1,0.0010720113357930616,0.0012582504976972803,-0.011702307215305192,0.008297954228884248,0.9875576834618905
2015-07-27,1,0.0007536241922920957,0.0008986915087930867,-0.016092890551034536,0.008297954228884248,0.9852773120416246
2015-07-29,1,0.0009135514235925706,0.0010504768474778811,-0.016092890551034536,0.008297954228884248,0.9842104588291763
2015-07-31,1,0.0009295861197534752,0.0010434275740301394,-0.016092890551034536,0.008297954228884248,0.9845676687458234
2015-08-04,1,0.0030489638265323066,0.0035742760236703356,-0.01833894977628483,0.0014016329939954642,0.9838383351173915
2015-08-06,1,0.0021372293551069413,0.0025207985733466864,-0.01833894977628483,0.010040632305043077,0.9844367852254312
2015-08-10,1,0.0015319045327565916,0.00181405504632121,-0.008125345306379655,0.012553179522368455,0.9848821821450323
2015-08-12,1,0.0008837842017771707,0.0010793259575184694,-0.005095251780908484,0.012553179522368455,0.985504402161569
2015-08-14,1,0.0005696565014704801,0.0007110096482026533,-0.004771011264420615,0.012553179522368455,0.9859568725103379
2015-08-18,1,0.0016242949842450033,0.0018402320916871434,-0.004771011264420615,0.012553179522368455,0.9867323439886354
2015-08-20,1,0.0006367036357342953,0.000737861447618015,-0.004159782733407166,0.01785116584056692,0.9873693477864315
2015-08-24,-1,-0.0006643991481089042,-0.0006408476169742629,-0.003612808200072134,0.01785116584056692,0.9891489873674164
2015-08-26,1,0.0009792639856659987,0.0012535437437153933,-0.004626661029939527,0.016639536460959656,0.9890296664899821
2015-08-28,1,0.0015694527009358404,0.0018941041291530487,-0.006964769299925238,0.012163189120604673,0.9864137497810129
2015-09-01,1,0.0009940600399558838,0.0012588339305117287,-0.006964769299925238,0.016639536460959656,0.9839668316650108
2015-09-03,1,0.0019812294784029476,0.0023679074663804983,-0.006964769299925238,0.016681194635275575,0.9831101266147911
2015-09-08,1,0.002640145522085744,0.003109355865479726,-0.00831453990371088,0.017523870583932392,0.9821068753403068
2015-09-10,1,0.0015844961400313835,0.0018383545695936196,-0.00831453990371088,0.017523870583932392,0.9821850891968945
2015-09-14,1,0.0017370636273356657,0.002023185051929904,-0.00831453990371088,0.017523870583932392,0.9816215409678551
2015-09-16,1,0.0024378528600421676,0.0028256454262134056,-0.010576603363785105,0.015251553434404236,0.9814073115940796
2015-09-18,1,0.0027030365992039766,0.00308262187782974,-0.010576603363785105,0.015251553434404236,0.9817783821345805
2015-09-22,1,0.003435709002348482,0.003965568300272305,-0.010576603363785105,0.009541495542358107,0.982026142187173
2015-09-24,1,0.0019156251263722068,0.002248811062447113,-0.008344181704860912,0.015402575717217698,0.9810916525737183
2015-09-28,-1,-0.0009505036023393246,-0.0008744931421051285,-0.005349309529759674,0.01696015606753054,0.9829255803636461
2015-09-30,-1,-0.0003765309619640395,-0.0003361138928311819,-0.005349309529759674,0.0166796265339389,0.9851754903319746
2015-10-02,1,0.0007423760648546345,0.0008031177420184597,-0.0071800818233175995,0.0166796265339389,0.9841881877263812
2015-10-06,1,0.0010948932023479103,0.0011923063970025033,-0.007604269340054328,0.015344572831714089,0.9844671373364873
2015-10-08,1,0.001954983640863429,0.0022169633825562095,-0.007604269340054328,0.011922043360048087,0.9849784143853264
2015-10-12,1,0.0011128613650314488,0.001211270308160882,-0.006935312694468937,0.011922043360048087,0.9851941303708509
2015-10-14,1,0.00021988751854997026,0.0002572951543712053,-0.004714025819255416,0.011922043360048087,0.986155202884631
2015-10-16,1,0.00141261135840723,0.0015632090579956151,-0.006935312694468937,0.00676922452825124,0.9859063710450161
2015-10-20,1,0.0010925483335672975,0.0012082230200576483,-0.007331521178546466,0.00676922452825124,0.9858147467383779
2015-10-22,-1,-0.0007157382674032179,-0.0005766461170899151,-0.006477244395856882,0.00676922452825124,0.9878918408646284
2015-10-26,-1,-0.000199991338280362,-6.497911941274429e-05,-0.006477244395856882,0.00460996004112317,0.9892531994105723
2015-10-28,-1,-0.00029312672885680954,-0.0001416452074826452,-0.005142770100098313,0.00422114857929623,0.990609518156415
2015-10-30,1,0.001224171615567983,0.0012648530207362881,-0.004675484693980281,0.00422114857929623,0.9933662261965657
2015-11-03,1,0.0007741098682964339,0.0007961988243334131,-0.004675484693980281,0.00422114857929623,0.9938465282595627
2015-11-05,1,0.00029339099110963916,0.0004032347602593788,-0.005142770100098313,0.004498863642042886,0.991704364175305
2015-11-09,1,0.00039784004172075397,0.0004949834887953688,-0.005864934799645631,0.004683051032247297,0.9908083259110732
2015-11-11,1,0.00042845563728240155,0.0005289611806435258,-0.007381258375848575,0.004683051032247297,0.9902086114908433
2015-11-13,-1,-0.0009988888806322879,-0.0007071015995047365,-0.008961857827466696,0.003797206182358322,0.9896779887702892
2015-11-17,-1,-0.0011077686047687649,-0.0008345142926971188,-0.008961857827466696,0.01037669379181838,0.9876245998856904
2015-11-19,-1,-0.0009485793683319213,-0.0006870403212107357,-0.009551716369048982,0.0066630778287442545,0.9876507681572965
2015-11-23,-1,-0.0007960536085479076,-0.0005546746444531121,-0.009551716369048982,0.00855246338840018,0.9871400518928263
2015-11-25,-1,-0.0006761929619637073,-0.00048136374732076674,-0.009551716369048982,0.00855246338840018,0.9870562317089735
2015-11-30,-1,-0.000836237492929543,-0.0005932453315513375,-0.009551716369048982,0.01164634506693692,0.9865223986991661
2015-12-02,-1,-0.0002513361418241517,-0.00013923179000635625,-0.007397944499891493,0.01164634506693692,0.9869192012154502
2015-12-04,-1,-0.0004258279214084927,-0.00031950720110383163,-0.010082319995664899,0.00642512450251327,0.9873900779650712
2015-12-08,1,0.0005249975639291867,0.0005838440323514329,-0.010082319995664899,0.005006916548932709,0.9879189777224414
2015-12-10,-1,-0.00011213231340839841,-8.559479079570291e-05,-0.007883128434528461,0.00577141597688022,0.9882814939595075
2015-12-14,-1,-0.002208382083078814,-0.0019226082646755785,-0.005367718394475741,0.00577141597688022,0.9885742124121029
2015-12-16,-1,-0.0005240075669666292,-0.00041613602407239734,-0.007883128434528461,0.005006916548932709,0.9876585690589179
2015-12-18,-1,-0.0012466131672435711,-0.001080601834892544,-0.005367718394475741,0.007910487143397538,0.9872749121385586
2015-12-22,-1,-0.00045987580298548,-0.000401563680500727,-0.006113903105337345,0.008925748226478132,0.986254550105255
2015-12-24,1,0.00030837215198233086,0.0004042132146507368,-0.007985855396299901,0.008925748226478132,0.9857314386437513
2015-12-29,1,0.0005097445127982196,0.0005886223394190764,-0.01337560421868604,0.00848271017674979,0.9839763988658197
2015-12-31,-1,-0.00010283059488373849,-7.840112120684623e-05,-0.01337560421868604,0.0151244681938067,0.9822511299883837
2016-01-05,-1,-0.0020988930816811047,-0.0018068114217557225,-0.008067928231112693,0.02009186806080724,0.9820925487067869
2016-01-07,-1,-0.0027463780166893693,-0.0023628496529327415,-0.015550648692414437,0.02009186806080724,0.9802687530171625
2016-01-11,-1,-0.0011157972366871505,-0.0010160628279362815,-0.024432990956375515,0.02009186806080724,0.9785889968663988
2016-01-13,-1,-0.0035091590173513877,-0.003072155962619166,-0.022001378057598768,0.02009186806080724,0.979236204094266
2016-01-15,-1,-0.005732262043917493,-0.0049153864444429615,-0.015550648692414437,0.02009186806080724,0.9793502994033721
2016-01-20,-1,-0.0035824948711299775,-0.0030849374779978213,-0.015550648692414437,0.019297323287715523,0.9800927528883141
2016-01-22,-1,-0.001995284908618098,-0.0017278890594767792,-0.015550648692414437,0.018242762007850414,0.9803101707724532
2016-01-26,-1,-0.0030871050755816648,-0.0026515415499994187,-0.016602300357751253,0.018242762007850414,0.9796980005838332
2016-01-28,-1,-0.003505067660424273,-0.0030792145833310434,-0.012377736648798893,0.02110408355152482,0.9796544034854546
2016-02-01,-1,-0.0008868694907857161,-0.0008059581540165181,-0.012377736648798893,0.018242762007850414,0.9807223672262987
2016-02-03,-1,-0.000897713828643705,-0.0007955286768968154,-0.011944571138648715,0.015711546376417435,0.981892247883411
2016-02-05,-1,-0.0026585540829076213,-0.002355983511749763,-0.009716360402032628,0.015711546376417435,0.983091217435082
2016-02-09,-1,-0.0028933012729209576,-0.002602555188587006,-0.009716360402032628,0.01819157338060539,0.9838710836081404
2016-02-11,-1,-0.0036403112596027068,-0.003305468173495087,-0.008467780843924624,0.01819157338060539,0.9838801971500075
2016-02-16,-1,-0.0008214760878081064,-0.0007984392123646417,-0.008712603486367133,0.014950123014623352,0.9870442624608147
2016-02-18,-1,-0.0010518799855204668,-0.0009622421722309893,-0.008712603486367133,0.01578578024367175,0.9842638702905646
2016-02-22,-1,-0.0014971902344942513,-0.0012177918148729644,-0.008712603486367133,0.014148191968978806,0.985281460642806
2016-02-24,-1,-0.0012849054719293693,-0.001074088587561466,-0.008616528713140649,0.014148191968978806,0.9856570821426794
2016-02-26,1,0.0008619758254138087,0.0009985371289070466,-0.008616528713140649,0.010894544450816421,0.9875357495776099
2016-03-01,1,0.0017781578720807742,0.002066044290159267,-0.008336812692101365,0.010894544450816421,0.9883061929498491
2016-03-03,1,0.0018843350534483842,0.0022133354933870763,-0.006080648182518748,0.0097819613432362,0.9889689691281631
2016-03-07,1,0.001999897451654403,0.0023214619981297866,-0.008336812692101365,0.010443118428937841,0.9882767940294561
2016-03-09,1,0.001890508618373638,0.0021588731369693056,-0.006080648182518748,0.008578558211558507,0.9891823361237713
2016-03-11,1,0.0025503441803693904,0.002959416795639039,-0.007147617844694839,0.008213210245958889,0.989263539001804
2016-03-15,1,0.002227585413552672,0.00257319290906868,-0.005684249900049905,0.008578558211558507,0.9892975840013117
2016-03-17,1,0.004032051540047375,0.004527321585974008,-0.007182511223291614,0.008213210245958889,0.991407102031338
2016-03-21,1,0.0047995986729860406,0.005460262171384294,-0.007646651118959101,0.00843359594119277,0.9906202748802349
2016-03-23,1,0.004614747577454658,0.0052470049908279505,-0.007809609096583931,0.00843359594119277,0.9895359790033791
2016-03-28,1,0.004431514185065863,0.005117739454915327,-0.007707201827966971,0.009730941827951128,0.9884001376541779
2016-03-30,1,0.0051765913966068805,0.005939902085070847,-0.009065818953579417,0.009730941827951128,0.987834508818046
2016-04-01,1,0.005032812142133629,0.005772335951243261,-0.009065818953579417,0.011974645568200479,0.9875695429582773
2016-04-05,1,0.005027548344417481,0.0057734712613332325,-0.009065818953579417,0.012908997517499077,0.9866537052386404
2016-04-07,1,0.005173047997892484,0.005946806233320785,-0.009065818953579417,0.012908997517499077,0.9866230189660371
2016-04-11,1,0.004023796631679281,0.00458905093885374,-0.007707201827966971,0.012908997517499077,0.9878214020505782
2016-04-13,1,0.004148089604580163,0.004703908804461353,-0.007707201827966971,0.01427028484793022,0.9879125604643296
2016-04-15,1,0.00430044983047651,0.004890401951363775,-0.007707201827966971,0.01427028484793022,0.9878689985192819
2016-04-19,1,0.004377292558921884,0.004982585975619973,-0.010474508962271548,0.012428408011677525,0.9859312324950986
2016-04-21,1,0.0027419914039352134,0.003114417285213043,-0.003688347687008274,0.01427028484793022,0.9832395696887598
2016-04-25,1,0.0038254846612686714,0.004349840530208391,-0.005199444964317366,0.01427028484793022,0.9829243451620846
2016-04-27,1,0.003640602881544678,0.0041311196824650315,-0.004490667022379387,0.014330356602971328,0.9831843009475073
2016-04-29,1,0.004118115227061953,0.004646575928777511,-0.012881466968384887,0.006709309030282984,0.9823414753085474
2016-05-03,1,0.004214663971983667,0.004770086789307592,-0.00655501059904817,0.006709309030282984,0.9820217906251295
2016-05-05,1,0.0036878468532548685,0.004141155456455516,-0.012278944260516619,0.006709309030282984,0.9818424565962355
2016-05-09,1,0.0030182137873741013,0.0032915979140968553,-0.013082428189784992,0.006709309030282984,0.9808408420998517
2016-05-11,1,0.004064284538163195,0.004552039144499933,-0.013082428189784992,0.005765897477573739,0.9804669381335714
2016-05-13,1,0.0031553414788573807,0.003468682413897105,-0.012278944260516619,0.005765897477573739,0.981454094285482
2016-05-17,1,0.001756601510609627,0.0019064683360510836,-0.006586648990563678,0.005765897477573739,0.9839705175742643
2016-05-19,1,0.004492850438799469,0.005005498935825199,-0.006586648990563678,0.0029451123087846126,0.9872830875955257
2016-05-23,1,0.004262695790583663,0.004768094060809759,-0.004692997253753759,0.0029451123087846126,0.989949561514014
2016-05-25,1,0.00397787607884489,0.004418927670668744,-0.00466396179937149,0.0029451123087846126,0.9908092181491817
2016-05-27,1,0.002378557075229947,0.002528124407683743,-0.00466396179937149,0.0016828536196204543,0.9910804079415451
2016-06-01,1,0.002998653601096313,0.0032064210897889854,-0.004141679192085605,0.0037943832661104003,0.9906852575585341
2016-06-03,1,0.0026488308297841767,0.002819417526004645,-0.0027913175835443125,0.008159606011416989,0.9908941518609206
2016-06-07,1,0.0011410123508516475,0.001236252796435095,-0.002015722108067043,0.008159606011416989,0.9918788654572998
2016-06-09,1,0.0009117617121496352,0.001078224206627966,-0.002015722108067043,0.009161230149508029,0.9916216753866242
2016-06-13,1,0.0012786867955414582,0.0013599741518793686,-0.0022785363043105055,0.00973041406225355,0.9909377090813491
2016-06-15,1,0.001179804595181936,0.0012431410330924415,-0.002015722108067043,0.00973041406225355,0.9909395322679072
2016-06-17,1,0.0006177287447673571,0.000778225069301787,-0.0024798161203481517,0.00973041406225355,0.9899996588285561
2016-06-21,1,4.396342699869644e-05,0.0003225407578572592,-0.003112136206929887,0.010132388682074169,0.9889994028968618
2016-06-23,1,0.0010444482500059223,0.001139590221894776,-0.003112136206929887,0.011646542146373982,0.9882419260508025
2016-06-27,-1,-0.00037765577599775386,-0.00011630836405079653,-0.004688199669772871,0.011646542146373982,0.988824917234669
2016-06-29,1,0.00014477933542926145,0.0004038849544847657,-0.004688199669772871,0.010190554931609115,0.9913266638271082
2016-07-01,1,0.00011093753859576388,0.00040699854508736695,-0.006925605837884132,0.00918198027904361,0.9915372420185269
2016-07-06,-1,-0.0007657353410243772,-0.00031216284444643937,-0.006925605837884132,0.00918198027904361,0.9916240713652064
2016-07-08,1,0.0004751340823558729,0.00069931973988501,-0.009448064079428053,0.005967625593044103,0.9917964079928718
2016-07-12,1,0.0006315922751282427,0.0008236726150667934,-0.009448064079428053,0.007468373539000526,0.9883209691491427
2016-07-14,1,0.0010121058054682612,0.0011494245925818775,-0.009448064079428053,0.009592935473869975,0.9876901551562592
2016-07-18,0,-4.6445860510117474e-05,0.00023158563643053032,-0.007276566326371537,0.009592935473869975,0.9884644949343252
2016-07-20,1,0.0005196023117633376,0.0006896923040871771,-0.007276566326371537,0.007642578236067346,0.9891135167125948
2016-07-22,1,0.0015231279165371097,0.0015613549056955481,-0.009487306977170993,0.005007953023319136,0.9892818954674354
2016-07-26,1,0.00047551806675089796,0.0006483767856679415,-0.007114079078024665,0.005007953023319136,0.9906178707350296
2016-07-28,1,0.00036407342188898763,0.0005445565517773525,-0.007114079078024665,0.005007953023319136,0.9905656693231549
2016-08-01,1,1.4472745701868601e-05,0.00023246911802631118,-0.005043885255006626,0.005524229246082117,0.9909663138175205
2016-08-03,1,3.124459091134496e-05,0.00024744779052057416,-0.005043885255006626,0.0059516900598843405,0.9903473701127645
2016-08-05,-1,-0.000561298710053713,-0.00027036690759766333,-0.0026173321306666698,0.009246635442333628,0.9879727252268877
2016-08-09,1,0.0028520289932539803,0.003096629653703285,-0.0026173321306666698,0.010540352505615802,0.9915576039701377
2016-08-11,1,0.003077623884419852,0.0033545646605994965,-0.005550257033553515,0.008111471870051705,0.9899224154187164
2016-08-15,1,0.00309535699295615,0.003364606552446487,-0.008999845232130373,0.010540352505615802,0.988417517930349
2016-08-17,1,0.002308956908284774,0.0024317186478096243,-0.005550257033553515,0.010540352505615802,0.9889297122358258
2016-08-19,1,0.0020033756230270158,0.0021224471810217943,-0.0026173321306666698,0.010540352505615802,0.9892599753718272
2016-08-23,1,0.0017841032788768899,0.0018668837735882839,-0.0026173321306666698,0.010709397821771084,0.9876010608486562
2016-08-25,1,0.0016381865819450462,0.0016888703264570683,-0.0028923638323134237,0.010709397821771084,0.9872113504528051
2016-08-29,1,0.001546844348245698,0.0015822120887453734,-0.0038082005886667003,0.010709397821771084,0.9869928613161073
2016-08-31,1,0.0016173637186485581,0.0016263077404344893,-0.008969063474326964,0.010540352505615802,0.9867341417610199
2016-09-02,1,0.003090631647873578,0.003302213441919388,-0.008969063474326964,0.007110815193421549,0.9884465771341875
2016-09-07,1,0.003450386274627273,0.0037011499234074503,-0.008969063474326964,0.005877470461415674,0.9885551618458118
2016-09-09,1,0.0019866697284468358,0.0020474635361435924,-0.006738944255108343,0.005877470461415674,0.9911028492459427
2016-09-13,1,0.0014216108376879258,0.0014755873456066175,-0.006738944255108343,0.0046288523524032135,0.9909740418947919
2016-09-15,1,0.0018032354408866727,0.0018553455560066491,-0.006738944255108343,0.004123059919130638,0.9908350774418638
2016-09-19,1,0.001226958642851413,0.0012587285133716028,-0.00503222396242995,0.004346609968267496,0.9914967771157921
2016-09-21,1,0.0025431212794609246,0.0027178351308730186,-0.00503222396242995,0.004123059919130638,0.9927255729893373
2016-09-23,1,0.002514584798973728,0.0026833734619416535,-0.007130322782491159,0.003492520326622953,0.9920499449472138
2016-09-27,1,0.0022002180620783844,0.0023156624769581848,-0.007130322782491159,0.003492520326622953,0.991490698480772
2016-09-29,1,0.0017993053899054497,0.0018616077307168186,-0.008441516191110462,0.0015453597198169,0.9899988403535123
2016-10-03,1,0.0015286445404835338,0.0015742191911194913,-0.008441516191110462,0.003492520326622953,0.9899411151348744
2016-10-05,1,0.0010349974812526258,0.0010737889170909678,-0.008441516191110462,0.0042212550229658845,0.9896674757973821
2016-10-07,0,-0.00012259206621305385,0.0001672748399600577,-0.010301972636919137,0.005839959151105481,0.9887070726062611
2016-10-11,1,0.0006851817369726943,0.0007667860407410776,-0.008441516191110462,0.011863648371218973,0.9882649186105973
2016-10-13,0,-1.0953384351480833e-05,0.00018103649162294925,-0.008441516191110462,0.014487194561432052,0.9870149852848445
2016-10-17,1,6.315692948892428e-05,0.0002454175387596947,-0.010301972636919137,0.014487194561432052,0.9853208229853816
2016-10-19,-1,-0.00036932660821727115,-7.628447926106012e-05,-0.011343311790589517,0.014487194561432052,0.9849566543140726
2016-10-21,-1,-0.0005991002121185574,-0.0003393005197474434,-0.01064688728770979,0.014487194561432052,0.9846752202294543
2016-10-25,-1,-0.0007332731522632004,-0.0004280347017819379,-0.01064688728770979,0.014995261457204392,0.9840536825342991
2016-10-27,-1,-0.0037163803524605343,-0.0030192195842615303,-0.0016105264970160123,0.014995261457204392,0.9845043897829833
2016-10-31,-1,-0.00254070394653993,-0.001998154096306303,-0.004568281564362011,0.014995261457204392,0.9839294655462174
2016-11-02,-1,-0.0021436760610336622,-0.0016445069235704367,-0.01064688728770979,0.014948907786921685,0.9836601963000422
2016-11-04,-1,-0.003022041193571691,-0.0023966329395911446,-0.01064688728770979,0.01693904993160892,0.9833208728835042
2016-11-08,-1,-0.0011364418555720294,-0.0007231113357052284,-0.01064688728770979,0.016954664339494996,0.9835363241081122
2016-11-10,1,0.00025032934767311066,0.0004954930228071741,-0.012626393612901465,0.013984579547076199,0.9842958396877777
2016-11-14,-1,-0.0010823020275072051,-0.0006900886946862859,-0.01064688728770979,0.016954664339494996,0.9850939992131248
2016-11-16,-1,-0.0026274916143020533,-0.001957540907165272,-0.010136722058287235,0.016954664339494996,0.9845012442578801
2016-11-18,-1,-0.0014092067341540558,-0.0009818831109544308,-0.009512734541415501,0.016954664339494996,0.9852169422523689
2016-11-22,1,0.0007835363733202337,0.0009140973751010883,-0.009512734541415501,0.015619194693505553,0.986831582667194
2016-11-25,1,0.001007462636088639,0.0011148792488159178,-0.009512734541415501,0.015619194693505553,0.9872994826009187
2016-11-29,1,0.0020896493417048956,0.002150577666889029,-0.0047295475066595795,0.011420426917447692,0.9894568979410601
2016-12-01,1,0.000734704143254593,0.0008344635841656682,-0.0025457739763180523,0.011420426917447692,0.9901014506220862
2016-12-05,1,0.00034482012383741804,0.0004895633842368348,-0.0025457739763180523,0.011420426917447692,0.9905716868187386
2016-12-07,1,0.001799926198525037,0.0018261638610712594,-0.0025457739763180523,0.0075543957231548105,0.9919089424148804
2016-12-09,1,0.0008421583891830821,0.0009720888616600391,-0.0025457739763180523,0.0075543957231548105,0.992284747834197
2016-12-13,1,0.002180074370243341,0.0022800764328147266,-0.003340852931169016,0.0065910028301101355,0.993075333114129
2016-12-15,1,0.002485949145187264,0.0025595907829720345,-0.003340852931169016,0.005453147955900808,0.9928714316561882
2016-12-19,1,0.0018962652960983564,0.0019145539245628723,-0.003340852931169016,0.0065910028301101355,0.9925594542071031
2016-12-21,1,0.0017321751359993406,0.0017962722711589748,-0.003340852931169016,0.006925762002138838,0.9924479851231763
2016-12-23,1,0.00139798330722974,0.0015005501685192535,-0.003340852931169016,0.006925762002138838,0.9923460365945606
2016-12-28,1,0.0007768275158162953,0.0009427037822726446,-0.0066461568309621345,0.007667983543060641,0.987585840578369
2016-12-30,1,0.0019560860053056783,0.0021135865599040283,-0.003555789240618938,0.007667983543060641,0.9883900804381763
2017-01-04,1,0.002421098151874586,0.002654014107590381,-0.003555789240618938,0.007667983543060641,0.989076804613363
2017-01-06,1,0.003210781004644496,0.0035622455205667,-0.00664559906711795,0.007667983543060641,0.9885221758126249
2017-01-10,1,0.0028277459023086475,0.003097699802330484,-0.0038289913626471366,0.007667983543060641,0.9888306850591768
2017-01-12,1,0.00219046396245051,0.0023298194837322195,-0.0021739019072800955,0.007667983543060641,0.9888895545509759
2017-01-17,1,0.002998587334335505,0.003233628761922927,-0.0035544769190028773,0.007360094417873035,0.9894187331142051
2017-01-19,1,0.0027575228367991904,0.002951819052654601,-0.0027521063317898645,0.007360094417873035,0.9896430378903829
2017-01-23,1,0.002834646942680562,0.003032397191912788,-0.0034400557108698942,0.006655643308391462,0.9894322015143194
2017-01-25,1,0.0031205952860400886,0.0033895940738701497,-0.0034400557108698942,0.006655643308391462,0.9893371366818894
2017-01-27,1,0.00565560881957647,0.006365021183469424,-0.0027521063317898645,0.0066188521591048965,0.9931730558449255
2017-01-31,1,0.005960883110091699,0.0067483288042193505,-0.0034400557108698942,0.006686264259104551,0.9927498605157147
2017-02-02,1,0.004801690080152468,0.00532237945945716,-0.003885722150450909,0.006463931567078738,0.9929038832769795
2017-02-06,1,0.004461276002953124,0.00493519645209281,-0.0033062207896337958,0.004984298706402429,0.9942541532236836
2017-02-08,1,0.004657269546584722,0.005158955626199028,-0.0033062207896337958,0.0023800890130624684,0.9938751281118073
2017-02-10,1,0.004066713918999921,0.004454043097617175,-0.0033062207896337958,0.0031185513586876783,0.9945809267671467
2017-02-14,1,0.004310733125717743,0.004814517251666751,-0.0021913471830895953,0.0031185513586876783,0.9949912392619121
2017-02-16,1,0.0045243016337283715,0.005062838521154754,-0.0025757784613631204,0.0031185513586876783,0.994891989875907
2017-02-21,1,0.004356031457024676,0.004859576413499135,-0.002825591885792599,0.0023741989854841263,0.9942479024051409
2017-02-23,1,0.0038245222461767863,0.004223719534445492,-0.002825591885792599,0.0031185513586876783,0.9948455058319084
2017-02-27,1,0.00361394839383822,0.003948081984141752,-0.004071829314017084,0.0031185513586876783,0.9946966314961765
2017-03-01,1,0.0031651171231152245,0.003422600329665448,-0.002825591885792599,0.003306296136431922,0.9956473753151659
2017-03-03,1,0.0026366527688190585,0.002815171053946925,-0.0020944517624395904,0.004710385974360723,0.9961482284483508
2017-03-07,1,0.0019395923842004104,0.0019408636051440739,-0.0020944517624395904,0.005444200661268233,0.9960547497837583
2017-03-09,1,0.0014898617898360038,0.0015640770250123191,8.423501331629121e-05,0.005918575965322713,0.9955942034224216
2017-03-13,1,0.001451074377335841,0.001533447843379197,-0.002457778110771647,0.005918575965322713,0.9946590046782021
2017-03-15,1,0.001527402503872303,0.0015900728281505556,-0.002457778110771647,0.006514220289076829,0.9944052008468316
2017-03-17,1,0.0007980550157753373,0.0009955881049549008,-0.002457778110771647,0.005976610878119169,0.9940562978102878
2017-03-21,1,3.1111472806679016e-05,0.0003115733874994739,0.0002086247202977374,0.00672405268922672,0.9934490604343763
2017-03-23,-1,-0.001164377231540772,-0.0006355451617716492,0.0002086247202977374,0.00672405268922672,0.9927546990152099
2017-03-27,-1,-0.0010108845411416917,-0.0005364223882898173,0.0013360032386771146,0.007276362391608333,0.9924176440775715
2017-03-29,-1,-0.0006837679197517605,-0.0002759360254448915,0.0013360032386771146,0.008919717414249365,0.9923816414406768
2017-03-31,-1,-0.0009634129091868765,-0.0005387513248563548,7.936868298116665e-05,0.008919717414249365,0.9921152233408049
2017-04-04,1,0.0001479128437486824,0.00038065663985084987,-0.0075580636487337805,0.007276362391608333,0.9902948976454118
2017-04-06,1,0.001080536789570625,0.0011499170343187977,-0.0075580636487337805,0.007276362391608333,0.989004332454347
2017-04-10,0,-0.00023470245296391848,2.6138782654602788e-05,-0.0075580636487337805,0.007276362391608333,0.9880014234516863
2017-04-12,0,-0.0002597704224500941,1.6715698896339177e-05,-0.0075580636487337805,0.006604265946422615,0.9883379967660751
2017-04-17,-1,-0.0008411045003881511,-0.0004925957654465736,-0.006959223219550459,0.006604265946422615,0.9885750258695428
2017-04-19,0,-2.38610645859397e-05,0.00017444083134626732,-0.008639213397796122,0.005649401705710619,0.9884054324290994
2017-04-21,1,0.0003842599042893801,0.0005277285252338435,-0.008639213397796122,0.00534917782371541,0.988526318046188
2017-04-25,1,0.001031509454846179,0.0010743758078902556,-0.008639213397796122,0.0032795601650723967,0.9887049622325519
2017-04-27,1,0.0006794482954183623,0.0008135512956595791,-0.008639213397796122,0.0058331434605017884,0.9871760725103373
2017-05-01,0,-8.328636041423992e-05,0.00015431971659995297,-0.006378450173967021,0.007829220339052529,0.9873371822934024
2017-05-03,-1,-0.0011358892345274126,-0.000844557761377206,-0.0030598400315169612,0.009391561629052685,0.9888416859422302
2017-05-05,-1,-0.0006741998290661106,-0.0004048568542014757,-0.0030598400315169612,0.009391561629052685,0.9889660826693258
2017-05-09,-1,-0.0013602521833567904,-0.0010278977097578873,-0.0030598400315169612,0.009428909700165657,0.9900030736377964
2017-05-11,-1,-0.001102297933165776,-0.0008346479131687822,-0.005494123678394294,0.009428909700165657,0.9884345173406494
2017-05-15,-1,-0.0017091102856030141,-0.0013537009643080288,-0.003637433274772475,0.011855589411428773,0.9872733514108988
2017-05-17,-1,-0.0024675166056334743,-0.002029878269118621,-0.0013987899029502488,0.011855589411428773,0.987503893890841
2017-05-19,-1,-0.0023561691036307767,-0.0019236620995902313,-0.0011391541236301253,0.011855589411428773,0.9876942511415492
2017-05-23,-1,-0.0021000099005911736,-0.0016985691437635293,-0.006029312179888394,0.011855589411428773,0.9874749671957561
2017-05-25,-1,-0.0009739847710565891,-0.0006832477410191604,-0.010019955615749122,0.00900523826437139,0.9896856249688222
2017-05-30,-1,-0.0004191137867894353,-0.00020709094505571256,-0.010019955615749122,0.006418539110342306,0.9899079718527232
2017-06-01,1,0.0005312581536660213,0.0006030227345782039,-0.010985828864623338,0.006418539110342306,0.9887330954833653
2017-06-05,1,0.00020052904605230142,0.0003151674982368162,-0.010985828864623338,0.005565546857255613,0.9895649966157666
2017-06-07,1,0.00012454942762136714,0.00026095092967306995,-0.010985828864623338,0.005565546857255613,0.9888585663883439
2017-06-09,-1,-0.000632161158190804,-0.00045369176387923655,-0.009049090119623062,0.006527185973704619,0.9899284525161065
2017-06-13,1,8.25700703549279e-05,0.00018051502473409478,-0.009049090119623062,0.005565546857255613,0.9905162402266695
2017-06-15,-1,-0.000180320681835714,-6.0819987369501415e-05,-0.009049090119623062,0.006966910102470764,0.9899000528835202
2017-06-19,0,-1.3074536918278464e-05,7.894423477707534e-05,-0.009049090119623062,0.007855646725218171,0.9898073439875579
2017-06-21,1,0.00023260683851732906,0.00024293464376342203,-0.008453690507500429,0.007855646725218171,0.9903377772657965
2017-06-23,-1,-0.00014028945170701339,-8.732217793181907e-05,-0.006352759549196499,0.011453565250489676,0.9898594330303151
2017-06-27,-1,-0.00024562688507469245,-0.0001821334856911803,-0.004255751932858184,0.011453565250489676,0.9904090125965537
2017-06-29,1,0.0002890190887137236,0.0003002561712290881,-0.0020168966146459424,0.011453565250489676,0.9897213250847254
2017-07-03,-1,-0.00029069349250942904,-0.0002322348753485027,-0.0020168966146459424,0.012861559112324224,0.9874908779370194
2017-07-06,-1,-3.8772390878283436e-05,-2.9324892107395774e-06,-0.00335710565115209,0.011453565250489676,0.9885482031585254
2017-07-10,1,0.00020321544549212726,0.00022427950011816034,-0.0040477495923180815,0.009640907896010568,0.9887153592434854
2017-07-12,1,0.0008327338759721675,0.0009029279421598313,-0.0040477495923180815,0.011771089469423922,0.9871639764774778
2017-07-14,1,0.0008463220627093769,0.0009197661769233103,-0.005023856292190829,0.01032192199591158,0.9873510523810494
2017-07-18,1,0.0009057511237119374,0.0009811383251753653,-0.005574316879945115,0.014536874842096812,0.986525490886943
2017-07-20,1,0.0010137724899047268,0.0011139901134129687,-0.006351574347601309,0.014536874842096812,0.9857164332041856
2017-07-24,1,0.0011300426971091759,0.001233372285293203,-0.006241254696802277,0.011044665068881436,0.9861756707797041
2017-07-26,1,0.0009759762508063008,0.0010396162408328705,-0.008610711969779848,0.011044665068881436,0.9853952607478846
2017-07-28,1,0.0027555082922288213,0.0030548373128411336,-0.008610711969779848,0.007965282396800753,0.9873887019156472
2017-08-01,1,0.003994011449251884,0.004449521689122575,-0.006241254696802277,0.003052149543793133,0.989944464151057
2017-08-03,1,0.003658711718339589,0.004069485039997463,-0.006241254696802277,0.009567259654239197,0.990071670891191
2017-08-07,1,0.00330757904459164,0.0036708552610291633,-0.006241254696802277,0.009567259654239197,0.9899371992009557
2017-08-09,1,0.0047937684198427755,0.005347416805513042,-0.008891712915438542,0.007965282396800753,0.9895905688502651
2017-08-11,1,0.0038485417293779023,0.004238192250262834,-0.010065664254475932,0.007965282396800753,0.9888873171291901
2017-08-15,1,0.004122717436554811,0.004555543446959214,-0.008995528415144154,0.007965282396800753,0.9896317177385855
2017-08-17,1,0.003534256346962581,0.0038783221075611336,-0.015635326254124476,0.003819086732079163,0.9887338855026683
2017-08-21,1,0.0037380241155891827,0.004117585344145589,-0.015635326254124476,0.00167008432221927,0.9879927648499666
2017-08-23,1,0.0031153765957665606,0.0034135012847572237,-0.015443535380320485,0.003658643206009851,0.9882527639527784
2017-08-25,1,0.0030387821233540326,0.0033444329564370945,-0.015443535380320485,0.003658643206009851,0.9880099709021035
2017-08-29,1,0.0031219318282701292,0.003463685121963724,-0.015443535380320485,0.008492885586364903,0.9879244072674986
2017-08-31,1,0.0034142238221209174,0.0037579572698023672,-0.015443535380320485,0.004773062056187914,0.9881000869094807
2017-09-05,1,0.0029943712562967165,0.003294113921954719,-0.012493439654262261,0.007185765068780592,0.9885781509408582
2017-09-07,1,0.0027995962230513063,0.003041818194105745,-0.008479959273022043,0.004917686456259871,0.990203393594604
2017-09-11,1,0.0016308774084732528,0.0017309407399163238,-0.006593596078427726,0.004917686456259871,0.9918205539485258
2017-09-13,1,0.0020736643488253135,0.0022546415402817303,-0.006593596078427726,0.004131272139964369,0.9917771616211876
2017-09-15,1,0.0009867973421279937,0.0010534605455457442,-0.005495989661090753,0.004394689463869951,0.9927153867851098
2017-09-19,1,0.0006640742056631354,0.0007091256423313356,-0.005495989661090753,0.005274065227760747,0.9922040218495366
2017-09-21,1,7.215294369060192e-05,0.00012652421210393493,-0.005495989661090753,0.004394689463869951,0.9925628207365167
2017-09-25,-1,-0.0015766631814703143,-0.0012292233928533954,-0.005495989661090753,0.004394689463869951,0.9923885450355315
2017-09-27,-1,-0.00052767091324402,-0.0003490060334198049,-0.007988139001696664,0.004394689463869951,0.9916366421491631
2017-09-29,-1,-0.000993683473254021,-0.0007371652703879869,-0.013330378221729526,0.004394689463869951,0.9877493138497684
2017-10-03,-1,-0.0006627625591176099,-0.0004356213729068743,-0.013330378221729526,0.006306038163910927,0.9863131789598649
2017-10-05,-1,-0.0010178491182737874,-0.0007240331302052717,-0.013330378221729526,0.011258096671690532,0.9861261039800978
2017-10-09,-1,-0.001942039337357872,-0.001499389659899848,-0.013330378221729526,0.012389007494386785,0.9844263223150257
2017-10-11,-1,-0.0020790122405268804,-0.0016225617223809068,-0.015040847527534538,0.012389007494386785,0.9833082887000845
2017-10-13,-1,-0.002731515683119507,-0.00220833897595566,-0.014178787701615445,0.012389007494386785,0.9839551038902153
2017-10-17,-1,-0.001864798467634435,-0.001514309786214369,-0.015040847527534538,0.012389007494386785,0.9834787375264088
2017-10-19,-1,-0.002183021754356229,-0.0018172678915371482,-0.014178787701615445,0.013314551540344995,0.9829122805261139
2017-10-23,-1,-0.002400668704104021,-0.002042122870627224,-0.010445944947278536,0.013314551540344995,0.983023402334379
2017-10-25,-1,-0.002441479986141644,-0.0020724694788024477,-0.010026881674433772,0.012389007494386785,0.9837599303803043
