JNU-Tangyin/eata/results/Batch4_SP500/Batch4_SP500-ADSK.csv
Date,Action,Predicted_Q25,Predicted_Q75,Actual_Q25,Actual_Q75,RL_Reward
2010-12-14,0,0.0,0.0,-0.008672170131944197,0.006611654599929449,0.9881753347744814
2010-12-16,0,0.0,0.0,-0.006919311235768268,0.0071741839265804155,0.988359954837186
2010-12-20,0,0.0,0.0,-0.008672170131944197,0.0071413633300841575,0.9878917298181734
2010-12-22,0,0.0,0.0,-0.008672170131944197,0.006420535876525139,0.9878146208214048
2010-12-27,0,0.0,0.0,-0.01144147220190414,0.006420535876525139,0.9870356063292378
2010-12-29,0,0.0,0.0,-0.01144147220190414,0.009965050243366165,0.9866644679016394
2010-12-31,1,0.0011445961872021155,0.0011993223981905637,-0.011162112621220787,0.01358707075803015,0.9860922117699972
2011-01-04,0,0.0,0.0,-0.0076740917712158335,0.013787467346698383,0.9851997837453119
2011-01-06,0,0.0,0.0,-0.0076740917712158335,0.01358707075803015,0.9881991696068297
2011-01-10,1,0.0022025932912368637,0.002230191692101104,-0.0076740917712158335,0.01358707075803015,0.9878684214047279
2011-01-12,1,0.0015135950206816564,0.0016431131242838908,-0.01134451819187501,0.01358707075803015,0.9871707894391417
2011-01-14,1,0.0012773903861074357,0.0014738298431362688,-0.01134451819187501,0.012464735356404232,0.9875534663549363
2011-01-19,0,0.0,0.0,-0.00885980238589142,0.012464735356404232,0.9873295207333032
2011-01-21,0,0.0,0.0,-0.00885980238589142,0.012464735356404232,0.9872747790511189
2011-01-25,1,0.00023890920299957346,0.0005192476379560679,-0.009538201580795264,0.012464735356404232,0.9843653646038818
2011-01-27,0,0.0,0.0,-0.009538201580795264,0.018626845016462598,0.9812941734590174
2011-01-31,1,0.0006849089618000187,0.0008950759662790176,-0.014185902579931865,0.01435973829858005,0.9812941188021076
2011-02-02,1,0.002806884271981159,0.0029098941907079734,-0.016148054973124215,0.00957252288181223,0.9817619501214403
2011-02-04,1,0.0030463691361096667,0.0032392078792631875,-0.016148054973124215,0.00957252288181223,0.9806075796448148
2011-02-08,1,0.002586982225468613,0.0027287072306845543,-0.016148054973124215,0.012608095601463462,0.9807867992343232
2011-02-10,1,0.0026369963742569943,0.002814760357624427,-0.01514733898675985,0.010106795063112546,0.9813601198290234
2011-02-14,0,0.0,0.0,-0.01727477083386974,0.010106795063112546,0.9808566432634476
2011-02-16,1,0.00024733309867048235,0.00025863546245433877,-0.019898490967769782,0.005630225990223921,0.9814137427245209
2011-02-18,1,0.00048503825742040804,0.0005264772561511641,-0.019898490967769782,0.015738727639589615,0.9789761910545569
2011-02-23,-1,-0.001729177093252094,-0.0012650748638649385,-0.01514733898675985,0.015738727639589615,0.9826396775661814
2011-02-25,1,0.0008084141284470096,0.0010113646929185687,-0.01514733898675985,0.013437956582975936,0.9833136213925362
2011-03-01,-1,-0.0012183379932937696,-0.0007650258889138931,-0.011461365335076395,0.013437956582975936,0.9842821875846217
2011-03-03,0,0.0,0.0,-0.010973731129731282,0.012068049016141683,0.9853560629301668
2011-03-07,0,0.0,0.0,-0.00728937405958753,0.012068049016141683,0.9861181106839206
2011-03-09,0,0.0,0.0,-0.007926707769987771,0.010429565602625618,0.9866295462423984
2011-03-11,-1,-0.003368238254154423,-0.002573568971097549,-0.0074917217194481805,0.010429565602625618,0.9865531969383461
2011-03-15,1,0.00035963130793707207,0.00037487738342598776,-0.0074917217194481805,0.010429565602625618,0.9877618822477987
2011-03-17,-1,-0.0023051072756316688,-0.0018668879807663948,-0.006982740865358703,0.010429565602625618,0.9880938506250051
2011-03-21,1,4.999147625731195e-05,0.0001911841428197634,-0.0074917217194481805,0.007063830044845858,0.9903603453882319
2011-03-23,0,0.0,0.0,-0.0074917217194481805,0.007063830044845858,0.9887898555706813
2011-03-25,0,0.0,0.0,-0.006982740865358703,0.00935185336138052,0.9906542238195203
2011-03-29,0,0.0,0.0,-0.0074917217194481805,0.007063830044845858,0.9907513334435543
2011-03-31,0,0.0,0.0,-0.0074917217194481805,0.004502422105517992,0.9914105435733434
2011-04-04,1,0.0014897492671719706,0.0015665076589317251,-0.008892592381499712,0.003593913760653745,0.9908030270565402
2011-04-06,1,0.0014794091196006702,0.0015228917782244083,-0.008892592381499712,0.003593913760653745,0.990506434274788
2011-04-08,0,-0.00010352054556702999,0.00019203988836850167,-0.00794875556225927,0.007063830044845858,0.9906913016781025
2011-04-12,-1,-0.00046512901259686637,-0.00014605044880853623,-0.007164269408156988,0.009837719625368793,0.9903321958811376
2011-04-14,-1,-0.001483380252780443,-0.0009928433356648926,-0.007768824776645459,0.012695004516122356,0.989436928696782
2011-04-18,-1,-0.0015220181908384603,-0.0010498173193994565,-0.00931239367567779,0.012695004516122356,0.9884441262187892
2011-04-20,1,9.101301753624788e-05,0.00035536241457628543,-0.00931239367567779,0.012695004516122356,0.9895115812747795
2011-04-25,1,0.0007470638582971266,0.0009251536075947435,-0.010046315054288985,0.0025299629083067173,0.9882117613765211
2011-04-27,1,0.0014568955706895557,0.0014720985602213387,-0.00931239367567779,0.003585658858437239,0.988102251743884
2011-04-29,0,0.0,0.0,-0.00931239367567779,0.006937212657874143,0.9881487995071031
2011-05-03,0,0.0,0.0,-0.00950652269744755,0.008132621153314843,0.9866786048181898
2011-05-05,1,0.00021929241717376057,0.00028920754976687464,-0.009992483350393726,0.008132621153314843,0.9868567973092426
2011-05-09,1,0.0004886122305550097,0.0005495946128814138,-0.014876897370931098,0.006937212657874143,0.9862217552820924
2011-05-11,1,0.0012227093551181287,0.0012493656180478938,-0.018847207138662222,0.003585658858437239,0.9850205728250365
2011-05-13,0,0.0,0.0,-0.018847207138662222,-0.0007956786344860071,0.9861164968890875
2011-05-17,0,-0.00010899226202630124,1.9248948536697893e-05,-0.014876897370931098,0.003585658858437239,0.986236903258456
2011-05-19,1,0.0002739558307577778,0.0003781993448872027,-0.018923955550954785,-0.0019200839198995961,0.9858387120205669
2011-05-23,-1,-0.0013292083286100245,-0.0010345223815420549,-0.014876897370931098,0.0019326926343286991,0.9870697336123367
2011-05-25,-1,-0.002021698722326535,-0.0015988548759660098,-0.016134407139485267,0.0019798859413829267,0.9862289567822258
2011-05-27,-1,-0.001925072387451418,-0.0015236512248086836,-0.016134407139485267,0.002606332515020158,0.9851280233846778
2011-06-01,0,0.0,0.0,-0.014131250510478987,0.00946792197364884,0.9851432603795224
2011-06-03,0,0.0,0.0,-0.014131250510478987,0.00946792197364884,0.9856460214691509
2011-06-07,0,0.0,0.0,-0.009956642026895694,0.01040428194101118,0.9863667837789055
2011-06-09,0,0.0,0.0,-0.00725637078748984,0.014445986768572597,0.9865842439725864
2011-06-13,0,0.0,0.0,-0.013532411334526144,0.014445986768572597,0.9836918107669148
2011-06-15,0,0.0,0.0,-0.013532411334526144,0.014445986768572597,0.984658331833158
2011-06-17,0,0.0,0.0,-0.013532411334526144,0.014445986768572597,0.9844621045436044
2011-06-21,0,0.0,0.0,-0.013532411334526144,0.014445986768572597,0.984309432352819
2011-06-23,-1,-0.005205309007198017,-0.004702310219056495,-0.012724750523133939,0.014656894104761021,0.9836615513348144
2011-06-27,-1,-0.003542716171507697,-0.003384555052491009,-0.013475303223420065,0.01028762504107427,0.9844932071609888
2011-06-29,-1,-0.0027649022106698735,-0.0027015104905063663,-0.017705226634391592,0.005594523044684945,0.9835577424417904
2011-07-01,-1,-0.0029474413090814318,-0.0028455066125913763,-0.017705226634391592,0.005594523044684945,0.9836934822936554
2011-07-06,-1,-0.0019354298869665556,-0.0019120832675312352,-0.02311818375907017,0.004150317059452823,0.982587519399905
2011-07-08,-1,-0.0015940835771418333,-0.0015513601542132777,-0.0252939929736085,0.0019272325168163238,0.979917159799126
2011-07-12,-1,-0.003443436471821,-0.00334689452797284,-0.02311818375907017,0.004150317059452823,0.9758135678660524
2011-07-14,-1,-0.004080719832707386,-0.003906428939639121,-0.023989206029370512,0.010712770025604485,0.9732590122905855
2011-07-18,-1,-0.006929091014973052,-0.006266743583049185,-0.022418631230897376,0.01667637303019733,0.9716488288783256
2011-07-20,-1,-0.005101061580339222,-0.004726463572984528,-0.022928893221375854,0.015030214435721969,0.972100315740056
2011-07-22,-1,-0.002648166910287482,-0.002305257543885596,-0.049269368269947496,0.00558946519615865,0.9656025542890135
2011-07-26,-1,-0.003959623822440677,-0.0035854118822180184,-0.049269368269947496,0.01667637303019733,0.9627257495967384
2011-07-28,-1,-0.005996373332562612,-0.005256172887122755,-0.04080392344939627,0.023510217084364283,0.961642902481591
2011-08-01,-1,-0.005590136508278893,-0.004918768586180817,-0.04080392344939627,0.03838248988922023,0.957308636769286
2011-08-03,-1,-0.005996078284729058,-0.005278449307707036,-0.04080392344939627,0.03838248988922023,0.9579100648117728
2011-08-05,-1,-0.009633097110444334,-0.008455523047404226,-0.034383204023784614,0.03838248988922023,0.9592847986053674
2011-08-09,-1,-0.010426549121067642,-0.009131631167290313,-0.032006323414601724,0.03436902701092324,0.9647418470389514
2011-08-11,-1,-0.010332364519872513,-0.009164813668913089,-0.03168795267154411,0.03436902701092324,0.9665888614360715
2011-08-15,-1,-0.00805626336303867,-0.0071921223722858085,-0.03168795267154411,0.03838248988922023,0.9643189754593245
2011-08-17,-1,-0.008384935303291957,-0.007550112959698994,-0.03168795267154411,0.03838248988922023,0.961951947419459
2011-08-19,-1,-0.014049254987550542,-0.012575052930461468,-0.023474805393234665,0.03838248988922023,0.9673032690440215
2011-08-23,-1,-0.010044566313040425,-0.009083455676477312,-0.02438115189146162,0.03411076840222842,0.9709984469237439
2011-08-25,-1,-0.008954250747511834,-0.008127337319099785,-0.02438115189146162,0.033316374898044655,0.9722483789003333
2011-08-29,-1,-0.004917202275866929,-0.004553750828636755,-0.02438115189146162,0.0291796390768065,0.9749990758267554
2011-08-31,-1,-0.005867758260841185,-0.005383682962034595,-0.02626282339899378,0.0291796390768065,0.9742068542630642
2011-09-02,-1,-0.0069141603545443435,-0.0062954109407886046,-0.02626282339899378,0.0291796390768065,0.97087954628441
2011-09-07,-1,-0.005610589511727103,-0.005184262996397467,-0.02626282339899378,0.029200917642062972,0.9691937688772766
2011-09-09,-1,-0.008224674409181842,-0.007510239802763879,-0.022712975611938017,0.02984452103020589,0.9683044044343696
2011-09-13,-1,-0.0026624345366763353,-0.0026366022725003604,-0.022712975611938017,0.028022354454193578,0.9712946911264826
2011-09-15,1,0.0008804735261825306,0.0014382701140569628,-0.022712975611938017,0.026127877217973643,0.9738952868709128
2011-09-19,1,0.00015234125492335744,0.0006073241288458505,-0.024246545946009026,0.029913332270278776,0.9709347058034722
2011-09-21,0,-0.00034685758301382396,5.8940917274820284e-05,-0.02688685235775795,0.029913332270278776,0.9703408244912175
2011-09-23,0,-0.00022750566539649574,0.00017365135474641555,-0.0075906530396018974,0.029913332270278776,0.9717519455148823
2011-09-27,1,0.0015775640234475293,0.002177241739530344,-0.02196322654658911,0.029913332270278776,0.9715416352575317
2011-09-29,1,0.002009327059355273,0.002720126018602799,-0.005869079143340332,0.03390189133437883,0.9694452353367147
2011-10-03,-1,-0.002021828697805877,-0.0017806270949160493,0.0041799493661851695,0.03390189133437883,0.9718350778239767
2011-10-05,1,0.0014314583057791674,0.0021400036361015756,-0.005869079143340332,0.029913332270278776,0.9738788190599283
2011-10-07,1,0.0022175762259985157,0.002952039718418576,-0.008130059177450381,0.03390189133437883,0.9733767647841585
2011-10-11,1,0.004966464191878923,0.0061140882328839016,-0.011996944163324044,0.026785588429572713,0.9751566808484105
2011-10-13,1,0.00530100699094947,0.006380507661672621,-0.022721861450805875,0.021483893531911352,0.9725324290049805
2011-10-17,1,0.005594206455075656,0.0067174020978035005,-0.01808232360988519,0.021483893531911352,0.9734996521243201
2011-10-19,1,0.00590817632249189,0.00706984218963465,-0.011166086618528522,0.02836227302260057,0.9737304098887213
2011-10-21,1,0.005910439619261248,0.007050835658569064,-0.02232522691397644,0.02836227302260057,0.9709331709275068
2011-10-25,1,0.0064124563557425894,0.007598010190260035,-0.031551025694006675,0.019317675124916372,0.9700504797975605
2011-10-27,0,0.0,0.0,-0.03202852667740662,0.013993287474787133,0.9720254315142591
2011-10-31,0,0.0,0.0,-0.031551025694006675,0.019317675124916372,0.9709090130110872
2011-11-02,0,0.0,0.0,-0.028552552441355426,0.029679789081244728,0.9698214731491935
2011-11-04,0,0.0,0.0,-0.028552552441355426,0.015719273340280036,0.9716912891587289
2011-11-08,0,0.0,0.0,-0.028552552441355426,0.0146554900031443,0.9722967797429547
2011-11-10,1,0.004358773976985819,0.005149787469780218,-0.025859595407668745,0.015452251451582605,0.9745827744178657
2011-11-14,1,0.005151750665629459,0.006053405932004762,-0.027588247209183295,0.013059407362721123,0.974518498989449
2011-11-16,1,0.007010982653224838,0.008171884163504506,-0.028588637299633818,0.00411694523472569,0.9726939606301648
2011-11-18,1,0.005639574718288831,0.006665126397873556,-0.028588637299633818,0.0046056735136645955,0.9749617093861552
2011-11-22,1,0.0039135255063337555,0.004726726671808198,-0.025871623693761545,0.007866759360059962,0.9755294211985945
2011-11-25,1,0.0031172390867890733,0.003849933091783012,-0.022918689614172018,0.012081911342388996,0.9781010076095137
2011-11-29,1,0.005025786132028396,0.006060983606521518,-0.025871623693761545,0.007275340203803151,0.9789025349818397
2011-12-01,1,0.006392083043138149,0.0074662587750471705,-0.025871623693761545,0.006584259994072902,0.9810068263389513
2011-12-05,1,0.005800947544178056,0.006758873256386731,-0.025871623693761545,0.012081911342388996,0.9804760540455538
2011-12-07,1,0.005918770324316934,0.006851838995762839,-0.025871623693761545,0.012081911342388996,0.9806180142699248
2011-12-09,1,0.00586292281000267,0.00680497328383994,-0.02350292573873873,0.01257434411028618,0.9804668752680125
2011-12-13,1,0.004922414389842773,0.005807926660147936,-0.012937991806157494,0.01257434411028618,0.9828747887102823
2011-12-15,1,0.0033617715843512327,0.004018170681461115,-0.011010609498524985,0.01257434411028618,0.9850407194088792
2011-12-19,1,0.0015469071548102876,0.001855836786269442,-0.004416779328233386,0.017334857460922712,0.9815832033482458
2011-12-21,1,0.0018211034830655087,0.002168745403215312,-0.010780634218538407,0.015965043213782417,0.9843204408070081
2011-12-23,1,0.0022418050214177195,0.002628011942224591,-0.010780634218538407,0.017334857460922712,0.9830470822396308
2011-12-28,-1,-0.00033254688494960526,-0.00022519222608166753,-0.004416779328233386,0.017334857460922712,0.9832459222697253
2011-12-30,-1,-0.00017170981062802535,-5.923361911443827e-05,-0.010780634218538407,0.016917427467819986,0.9831820648273725
2012-01-04,-1,-0.0013706511185039053,-0.0010447871888280666,-0.00633846798600409,0.02208845211172101,0.9829794140624565
2012-01-06,1,0.0003177623254747151,0.0003759257615940147,-0.00633846798600409,0.027826806906349512,0.9831631046218088
2012-01-10,1,0.001006404520437884,0.0010654611283885539,-0.00633846798600409,0.018464608444106214,0.9849930827719849
2012-01-12,-1,-0.0034818276162774543,-0.0025812528207105486,-0.0063598495991029945,0.018464608444106214,0.983707853670644
2012-01-17,-1,-0.0019870472152062413,-0.0014143200512732332,-0.0029995767237128014,0.0237310187831691,0.9831733859152665
2012-01-19,1,0.0011889304060245477,0.0013939381033113733,-0.003923089630576517,0.017115688779236655,0.9875200946816854
2012-01-23,1,0.0019904323728839497,0.0020411626369959486,-0.003923089630576517,0.017115688779236655,0.9867482722858573
2012-01-25,1,0.0031573286309769097,0.003356249929994005,-0.005944655118118958,0.012579510326606192,0.9876025781042557
2012-01-27,1,0.00178218669568849,0.0018844808606776646,-0.010683824276279948,0.012579510326606192,0.9868741480013072
2012-01-31,1,0.0017601802842097585,0.0018199528165367155,-0.005944655118118958,0.012579510326606192,0.9875041314697804
2012-02-02,1,0.0005798954068933513,0.0009013930984478076,-0.010683824276279948,0.011122729590637924,0.98806971035726
2012-02-06,1,0.0027051010592861724,0.0027778440767695658,-0.015308536246645086,0.010711038206657598,0.9869764116014148
2012-02-08,1,0.0036858646909195226,0.003984676682886882,-0.015308536246645086,0.010711038206657598,0.9867604030209572
2012-02-10,1,0.0024691564153777766,0.0025549166660025534,-0.012693072513861267,0.010711038206657598,0.9876614279989677
2012-02-14,1,0.003134847359651519,0.003277257544336464,-0.012693072513861267,0.010887664192023742,0.9857340156669893
2012-02-16,1,0.003256492287794257,0.003398222408800251,-0.012693072513861267,0.01192857842041196,0.9854322505756126
2012-02-21,1,0.0023765842463818482,0.002462862824318044,-0.007730837977326447,0.012357826574777008,0.9864538999974853
2012-02-23,1,0.0021678072937566114,0.002204146340104602,-0.008400587389853553,0.013217017375325157,0.98600947313111
2012-02-27,-1,-0.0009875760915067067,-0.00044704815009433,-0.004664163483984113,0.015345122207578714,0.9856499658463304
2012-02-29,0,-0.0001392921033143309,0.00019769130983591967,-0.006966811253930848,0.015345122207578714,0.9853342098922739
2012-03-02,-1,-0.0004675324636731884,-0.0001424944243617909,-0.004904621708138611,0.015345122207578714,0.9861058034678757
2012-03-06,-1,-0.0005012775861915551,-0.0002618634484273405,-0.0013157525657402009,0.015345122207578714,0.987691795234452
2012-03-08,1,0.000568710987452564,0.000650779232982984,-0.004904621708138611,0.015345122207578714,0.9878734905028811
2012-03-12,1,0.00030643033166917585,0.000431562096764661,-0.007291133342300941,0.015345122207578714,0.9860186095328185
2012-03-14,1,0.0020175717173675583,0.002092557175474158,-0.007291133342300941,0.012818352908663405,0.9881766319381394
2012-03-16,0,0.0,0.0,-0.007291133342300941,0.00805145534456303,0.9889402561651629
2012-03-20,0,0.0,0.0,-0.007781799257776171,0.008644869834003345,0.9886147186590792
2012-03-22,0,0.0,0.0,-0.007781799257776171,0.005088000394891599,0.9888360288056719
2012-03-26,0,0.0,0.0,-0.010413208504066782,0.0036469311756959304,0.9883132276328043
2012-03-28,0,0.0,0.0,-0.010413208504066782,0.008611866222420437,0.9870074506845129
2012-03-30,0,-0.00020586199387801775,3.560850700913749e-05,-0.014224787150176079,0.007039572297635695,0.986631933959948
2012-04-03,0,0.0,0.0,-0.014270414997246073,0.015169716697661432,0.9842205016118106
2012-04-05,0,0.0,0.0,-0.020816895749847356,0.015169716697661432,0.9820039936333532
2012-04-10,1,0.002353966668370784,0.002699996236559585,-0.014460998138041973,0.015169716697661432,0.9826893228206746
2012-04-12,1,0.004446917104471348,0.005197054648309307,-0.016107113475575786,0.007508996415633294,0.9818996428948051
2012-04-16,1,0.0029812001631085543,0.0032227283223217576,-0.016107113475575786,0.0027485219161678194,0.982832921768414
2012-04-18,1,0.0018565315232782452,0.0018782729146339559,-0.016107113475575786,0.0027485219161678194,0.9831610213240252
2012-04-20,0,0.0,0.0,-0.020354982042459484,0.0027485219161678194,0.9786812727772772
2012-04-24,0,0.0,0.0,-0.016107113475575786,0.014468085998135559,0.9773341754739265
2012-04-26,0,0.0,0.0,-0.016107113475575786,0.0027485219161678194,0.9783018304296992
2012-04-30,0,0.0,0.0,-0.016107113475575786,0.009738637227931822,0.9779089131650186
2012-05-02,1,0.0005165806745620438,0.000521302100606267,-0.017440586289759474,0.005932513492232048,0.9789719362133705
2012-05-04,-1,-0.000762791359471535,-0.0005452237137817223,-0.016107113475575786,0.005932513492232048,0.9808801857970247
2012-05-08,-1,-0.0025390317849904934,-0.0020285984715526896,-0.015734611113534344,0.014322022445373271,0.9784924886606006
2012-05-10,-1,-0.004183217330567144,-0.003393222562519764,-0.014260679068566698,0.014322022445373271,0.9788327763983561
2012-05-14,-1,-0.005343236686233313,-0.00436089290777398,-0.01632739999191841,0.014453555068397917,0.9772994935951075
2012-05-16,-1,-0.005497068395844358,-0.00449766015433257,-0.018736591674570983,0.014315674734644556,0.9772593879965684
2012-05-18,0,0.0,0.0,-0.01093130523237272,0.015387995131747618,0.9808473145468295
2012-05-22,0,0.0,0.0,-0.01093130523237272,0.014315674734644556,0.9827830642958172
2012-05-24,0,0.0,0.0,-0.015063742962784222,0.015972390802807306,0.9802749160955543
2012-05-29,-1,-0.007751613071305425,-0.006439706784774802,-0.018736591674570983,0.014315674734644556,0.9790077792275879
2012-05-31,-1,-0.008142430308825287,-0.0068309607777452715,-0.019296960912634182,0.015387745884173399,0.9777229885291461
2012-06-04,0,0.0,0.0,-0.015063742962784222,0.01940590274507662,0.977215341813661
2012-06-06,0,0.0,0.0,-0.015063742962784222,0.015387745884173399,0.9803849237541303
2012-06-08,0,0.0,0.0,-0.023059122219275485,0.015387745884173399,0.9766739218452524
2012-06-12,0,0.0,0.0,-0.02214435323065167,0.013542901698008938,0.9773748510179946
2012-06-14,0,0.0,0.0,-0.02214435323065167,0.01940590274507662,0.9769738807030008
2012-06-18,0,0.0,0.0,-0.02214435323065167,0.01745456064372957,0.9779625980516662
2012-06-20,-1,-0.0017827925468110518,-0.0016576872231216931,-0.02214435323065167,0.01745456064372957,0.9772014586023945
2012-06-22,0,0.0,0.0,-0.02214435323065167,0.01533718637630214,0.978105016758298
2012-06-26,0,0.0,0.0,-0.016217599886095644,0.01745456064372957,0.9781004176955305
2012-06-28,0,0.0,0.0,-0.013906222834683478,0.020664228932045284,0.9760953706901859
2012-07-02,0,0.0,0.0,-0.014022112285951077,0.017769764259910073,0.9789513787792284
2012-07-05,0,0.0,0.0,-0.014022112285951077,0.017769764259910073,0.9787487626578927
2012-07-09,0,0.0,0.0,-0.010678882028087991,0.020664228932045284,0.9812252374733661
2012-07-11,0,0.0,0.0,-0.008818740654865348,0.020664228932045284,0.9817354196127333
2012-07-13,0,0.0,0.0,-0.008818740654865348,0.017769764259910073,0.9832048803055596
2012-07-17,-1,-0.002747726888109998,-0.002486526268584188,-0.009945602076404244,0.016974809666594964,0.9837437513839201
2012-07-19,-1,-5.250787583014951e-05,-4.568161695526774e-05,-0.009945602076404244,0.011061509683381215,0.9849356043931237
2012-07-23,-1,-0.0021442076044769698,-0.0018940985135978273,-0.008574314004304098,0.011061509683381215,0.9856636347549514
2012-07-25,-1,-0.0023015639800047488,-0.0020028595027279717,-0.007801221046894067,0.016818686524467757,0.9849620810270591
2012-07-27,-1,-0.0005479305673672568,-0.0004039337701767703,-0.008574314004304098,0.008831745111692454,0.983904839314881
2012-07-31,-1,-0.0007921320212068553,-0.0006051275811635124,-0.007801221046894067,0.013494793031840686,0.9829910145839514
2012-08-02,-1,-0.0007557461902864841,-0.0005760657185573485,-0.009550950562433663,0.013494793031840686,0.98232478117647
2012-08-06,1,0.0013058405298650706,0.0015138222775982228,-0.009550950562433663,0.013494793031840686,0.9832121387728829
2012-08-08,1,0.0025099443395445262,0.002950424435027658,-0.009550950562433663,0.014170458643651159,0.9817491694620029
2012-08-10,0,0.0,0.0,-0.011193313446661052,0.014170458643651159,0.9804939801644793
2012-08-14,0,0.0,0.0,-0.008300995008291075,0.014170458643651159,0.9807547233010352
2012-08-16,1,0.00606070588941037,0.007065965799983927,-0.008300995008291075,0.01939568469075433,0.9823681581981653
2012-08-20,1,0.0015829060693290957,0.00198911713589813,-0.004619148675537533,0.01939568469075433,0.9823277369592952
2012-08-22,1,0.002827452978410529,0.003416338129384277,-0.004619148675537533,0.012239760527228147,0.9845774211556417
2012-08-24,1,0.0007846798275364034,0.0011097481881837939,-0.004163911218421228,0.012239760527228147,0.9887751049282402
2012-08-28,1,0.0014636812816098978,0.0018514886022505605,-0.008300995008291075,0.008059628233103697,0.9888705950265683
2012-08-30,0,0.0,0.0,-0.004163911218421228,0.011724583105702648,0.9883857854980618
2012-09-04,0,0.0,0.0,-0.004163911218421228,0.005403595040345156,0.989894551969042
2012-09-06,0,0.0,0.0,-0.0063935023361910825,0.005403595040345156,0.9909554667817411
2012-09-10,0,0.0,0.0,-0.004163911218421228,0.005403595040345156,0.9910779508779103
2012-09-12,0,0.0,0.0,-0.014509822115206003,0.0029130518032906465,0.9898426230910117
2012-09-14,0,0.0,0.0,-0.014509822115206003,0.0022342731859365667,0.9908447956744043
2012-09-18,1,0.002612724122763776,0.003123139921751743,-0.014509822115206003,0.0035485029882455343,0.9886281791409545
2012-09-20,1,0.0024411796550277676,0.0028739491692704082,-0.01617795577910343,0.0030937965116352,0.9868564211935779
2012-09-24,1,0.0028191781357453393,0.003387248849741132,-0.01676125781138534,0.007363928890233251,0.9847187231526336
2012-09-26,1,0.003135822107075508,0.00351695768699438,-0.015456387467641086,0.011698441690447647,0.9859476819875965
2012-09-28,1,0.0037439699976907393,0.004178073317023854,-0.015456387467641086,0.011698441690447647,0.9861538529824629
2012-10-02,1,0.003317732376037373,0.003664746866403005,-0.015456387467641086,0.014116019524772119,0.9849446365877922
2012-10-04,1,0.0028513797350838243,0.0031066106065343745,-0.014349798384961115,0.014116019524772119,0.9854381494488934
2012-10-08,1,0.0018139826783896257,0.001926372948501016,-0.014349798384961115,0.014116019524772119,0.9848299780473829
2012-10-10,1,0.0001613771247984674,0.0002800075973650408,-0.014349798384961115,0.014116019524772119,0.985375123784053
2012-10-12,1,0.0004372915209984614,0.0005066340962369819,-0.014349798384961115,0.014116019524772119,0.9850455136636062
2012-10-16,1,0.0016810385832111683,0.0017184547147352828,-0.014349798384961115,0.008486787377141201,0.9868495286083058
2012-10-18,1,0.0008295838329820868,0.0008504515987200938,-0.00869205454874712,0.013477004260500455,0.986748349391041
2012-10-22,0,0.0,0.0,-0.00869205454874712,0.013477004260500455,0.9877091856283406
2012-10-24,0,0.0,0.0,-0.00869205454874712,0.014046841034560931,0.987120534169851
2012-10-26,1,4.888221334365943e-05,9.503314796634299e-05,-0.010347436346966254,0.014046841034560931,0.9861703429847498
2012-11-01,0,0.0,0.0,-0.010279159903996653,0.01354357384202603,0.9865098361096898
2012-11-05,0,0.0,0.0,-0.010279159903996653,0.01354357384202603,0.9867893596732444
2012-11-07,0,0.0,0.0,-0.00737693531537,0.014046841034560931,0.9876514980308316
2012-11-09,0,0.0,0.0,-0.0054437849924295215,0.014046841034560931,0.988937534934917
2012-11-13,-1,-0.0005288165769693562,-0.0004563053850652364,-0.0054437849924295215,0.014814552898325967,0.9881239248231376
2012-11-15,-1,-0.0004364333752530458,-0.0003639597042917204,-0.006194941858608836,0.014814552898325967,0.9874979922561943
2012-11-19,-1,-0.0005773899088325662,-0.0004594438874199694,-0.005552320358548434,0.015348677664584257,0.9871152588641661
2012-11-21,-1,-0.0005179998055914498,-0.00038926414014342107,-0.0031397412146908135,0.014938115545836458,0.9880784403861684
2012-11-26,1,0.0005400981350358375,0.0006065094822199816,-0.005552320358548434,0.013219868584091275,0.9888695348789355
2012-11-28,1,0.0017086594603706545,0.001794169287259737,-0.005552320358548434,0.010401826390522562,0.9904667509156144
2012-11-30,0,0.0,0.0,-0.003832577000476051,0.009877291120253501,0.9907288769287931
2012-12-04,0,0.0,0.0,-0.005159138677019044,0.011646262773284092,0.9881123674255614
2012-12-06,0,0.0,0.0,-0.007952317626568913,0.009877291120253501,0.9887948843476665
2012-12-10,0,0.0,0.0,-0.007952317626568913,0.010216746648516758,0.988359801086991
2012-12-12,1,0.0006882926616012497,0.0008651532699557761,-0.004924295018462819,0.009853352726867905,0.9892921525161608
2012-12-14,-1,-0.000929436063290767,-0.00046682816424164987,-0.003798756082848457,0.008298450745064316,0.9902588850808204
2012-12-18,1,0.00028029056364505716,0.0005954590269358092,-0.003798756082848457,0.007584265539076401,0.9915558258835694
2012-12-20,1,0.001049934562698571,0.0011564951205734618,-0.004924295018462819,0.006280820291615533,0.9904026053118298
2012-12-24,0,-5.439914636046466e-05,0.00022335000023899208,-0.003798756082848457,0.00890937948707841,0.9900053012014053
2012-12-27,-1,-0.0013941092921536489,-0.0009482207348012167,-0.003426040738335966,0.010216746648516758,0.9885439591214095
2012-12-31,-1,-0.0010706780427990744,-0.0006854378637165216,-0.003337004050329624,0.00890937948707841,0.9891219508213446
2013-01-03,-1,-0.000465899127119644,-0.00017760351780666313,-0.0032772697452960672,0.007870641155713398,0.9918958483008239
2013-01-07,-1,-0.0011679997100455001,-0.0007779279511656691,-0.0032772697452960672,0.00890937948707841,0.9908421000095193
2013-01-09,-1,-0.0013807010039254691,-0.0009176250210524012,-0.003337004050329624,0.007870641155713398,0.99132922374055
2013-01-11,-1,-0.0011855130839476414,-0.000762030163335055,-0.0032772697452960672,0.0067775306560856775,0.9915100302641611
2013-01-15,-1,-0.0020013853537779415,-0.0014398499700574165,-0.003337004050329624,0.0067775306560856775,0.9911768926899339
2013-01-17,-1,-0.0005998217361716477,-0.00027744122080566283,-0.003337004050329624,0.0067775306560856775,0.9918770799306003
2013-01-22,1,0.0008358734071792164,0.0008416216567359291,-0.003337004050329624,0.0067775306560856775,0.9928990190156427
2013-01-24,1,0.001957436348365436,0.002158816871701013,-0.004112413636760487,0.0021256118146135384,0.992640105751977
2013-01-28,0,0.0,0.0,-0.0064164300002350185,0.0021256118146135384,0.9934285749755254
2013-01-30,0,0.0,0.0,-0.0070589706032517345,0.004065336173641299,0.9920952755293293
2013-02-01,0,0.0,0.0,-0.0070589706032517345,0.006790586893061436,0.9898100982803483
2013-02-05,0,0.0,0.0,-0.0064164300002350185,0.009991509440882503,0.9893782528989299
2013-02-07,1,0.0029160882413368826,0.0033128168615153167,-0.002788559626572983,0.009991509440882503,0.9897560162180212
2013-02-11,1,0.0034653845543471083,0.003995158158255266,-0.002788559626572983,0.009991509440882503,0.9897632524760639
2013-02-13,1,0.003083388926032927,0.0035502418683617367,-0.0015100485667821186,0.009991509440882503,0.9902383292160261
2013-02-15,1,0.003435985323754999,0.003952622669966228,-0.0036587042337378833,0.007854625011567085,0.9895503230378283
2013-02-20,1,0.0029690572617226954,0.0034185732987490457,-0.004303635508009771,0.014586393274032427,0.9878888019202494
2013-02-22,1,0.0012338658672730767,0.001396146302267319,-0.0028449259083483036,0.014586393274032427,0.9880907576754328
2013-02-26,1,0.000562564402561686,0.0006908942282801028,-0.0028449259083483036,0.014586393274032427,0.9883038995499551
2013-02-28,1,0.0004274182823760706,0.0005459173561176815,-0.0018000967691704185,0.010393465523114761,0.9890079879990552
2013-03-04,1,0.0019430511057113293,0.002237317792785375,-0.004617141781322443,0.007927464943214373,0.9898280222192587
2013-03-06,1,0.0020306356197580607,0.002281065320907617,-0.00899890114209315,0.005507286891728156,0.9896599511125144
2013-03-08,1,0.0010857120580365337,0.001097890462963902,-0.00899890114209315,0.005507286891728156,0.9894800528222386
2013-03-12,1,0.0011903655558103225,0.0012238612525726144,-0.00899890114209315,0.006233903249555548,0.9882375074361256
2013-03-14,1,0.0020402232279604854,0.002273625653374932,-0.01417294123392409,0.006056574534740401,0.9866876419391573
2013-03-18,1,0.0009959828280149399,0.0010120755119148038,-0.01627157108152746,0.007927464943214373,0.9844244789937651
2013-03-20,1,0.0010197793003082832,0.0010730600925754098,-0.023355171168850414,0.006056574534740401,0.9842977326771529
2013-03-22,1,0.0010419136478441405,0.0010778412700041364,-0.023355171168850414,0.005328060718046533,0.9845503673754034
2013-03-26,1,0.0005451340029919561,0.0006053587842318305,-0.018267506827236706,0.007924227648384468,0.9844053037316364
2013-03-28,1,0.001367300421544116,0.001439354726179969,-0.018267506827236706,0.005978919402456014,0.9838505071728323
2013-04-02,-1,-0.0008564145071160554,-0.000623222337658303,-0.01627157108152746,0.012220586122775462,0.9834687447176258
2013-04-04,-1,-0.0022482089766027325,-0.0018090724369818547,-0.01627157108152746,0.012707683102031546,0.9826877576123173
2013-04-08,-1,-0.002981744763896046,-0.002422371705844806,-0.01627157108152746,0.02451519490432369,0.9811683360218768
2013-04-10,-1,-0.0021815294744299734,-0.0016847674819806219,-0.01627157108152746,0.014376491766256112,0.982528118045342
2013-04-12,-1,-0.00383859938915828,-0.003140052908461124,-0.008011490448931636,0.014376491766256112,0.9831150816750458
2013-04-16,-1,-0.0045981650265667605,-0.003854144430597056,-0.008011490448931636,0.011687833122090839,0.9845410963125631
2013-04-18,-1,-0.006705786873674685,-0.005717743955101164,-0.0003787724804645622,0.011687833122090839,0.9843085257290785
2013-04-22,0,0.0,0.0,-0.0038634169489182016,0.011687833122090839,0.9845693265897982
2013-04-24,0,0.0,0.0,-0.008011490448931636,0.011657643791963586,0.9845049077875461
2013-04-26,0,0.0,0.0,-0.0069202251960786354,0.011657643791963586,0.9849708775337793
2013-04-30,0,0.0,0.0,-0.0069202251960786354,0.009459128020678166,0.9862577501037878
2013-05-02,0,0.0,0.0,-0.004802371477252349,0.011657643791963586,0.9868939362550526
2013-05-06,-1,-0.0004622832430048549,-0.00025189366520249334,-0.009562874544140298,0.009439322582566469,0.9870477122179787
2013-05-08,0,-4.077775754960354e-05,0.00011304524128833159,-0.011767695285588551,0.0028260479172918028,0.9866112602056428
2013-05-10,-1,-0.00043809846064058464,-0.00023512157999057816,-0.01640078668983292,0.009969029689627321,0.9851744359310873
2013-05-14,1,0.00012452344940106608,0.00019118414941260716,-0.01630104505249065,0.0028260479172918028,0.9852681299871493
2013-05-16,1,0.0003502399729620045,0.00038857816719436257,-0.017892329013738446,0.003918626391798077,0.9832147779851643
2013-05-20,-1,-0.0004429942944090392,-0.00030098543894890644,-0.01630104505249065,0.01057872215124342,0.9860459201094619
2013-05-22,-1,-0.0011613752753424386,-0.0009070787575669801,-0.01630104505249065,0.009971252634017849,0.9862893224993153
2013-05-24,-1,-0.001619924976449113,-0.001328082960073343,-0.017892329013738446,0.009971252634017849,0.9855584608465441
2013-05-29,-1,-0.00023804780705181418,-0.0001238494095392262,-0.017892329013738446,0.012294276550714068,0.9848031312676429
2013-05-31,1,6.445971621929671e-05,0.00015762499887462617,-0.018282139365638973,0.009971252634017849,0.9842190687110239
2013-06-04,-1,-0.0006457257540669843,-0.0004951123481338735,-0.01798291445361216,0.009971252634017849,0.9851309911637737
2013-06-06,-1,-0.0013321325743812762,-0.0011080899167471522,-0.01798291445361216,0.012294276550714068,0.9851242201170511
2013-06-10,-1,-0.0014368881407414583,-0.0011961288010793468,-0.0129395459061133,0.009971252634017849,0.9865084382049846
2013-06-12,-1,-0.0020357166189255357,-0.0017514035510011957,-0.0094104893668454,0.012294276550714068,0.9861028053805024
2013-06-14,0,-0.0001395916822820168,0.00011992102218737221,-0.008643415578348813,0.012294276550714068,0.9876639545662615
2013-06-18,-1,-0.001600430310596042,-0.0013856107774157286,-0.005386562795490345,0.012294276550714068,0.9877227676462493
2013-06-20,-1,-0.001173496751178435,-0.0009881039069481513,-0.005386562795490345,0.013865623347964269,0.9885303845993777
2013-06-24,0,0.0,0.0,-0.000992630914597772,0.013865623347964269,0.9902607339296273
2013-06-26,0,0.0,0.0,-0.0026263718207152485,0.008666503354456137,0.9912624228638229
2013-06-28,0,0.0,0.0,-0.00367639260778442,0.007582084959746216,0.9922741176525146
2013-07-02,0,0.0,0.0,-0.0026263718207152485,0.010716296846183493,0.9907576727115538
2013-07-05,0,0.0,0.0,-0.004142587362407235,0.010716296846183493,0.9891006504391019
2013-07-09,0,0.0,0.0,-0.006888858989100597,0.010716296846183493,0.988609560887517
2013-07-11,0,0.0,0.0,-0.006888858989100597,0.010716296846183493,0.9892677119235895
2013-07-15,0,0.0,0.0,-0.006888858989100597,0.007871028177544346,0.989794119089697
2013-07-17,0,0.0,0.0,-0.006888858989100597,0.010716296846183493,0.9890856105904463
2013-07-19,-1,-0.00021116260078628876,-6.774909528791512e-05,-0.006888858989100597,0.007871028177544346,0.9892275054660232
2013-07-23,-1,-0.00016491265410359374,-3.531849977954165e-05,-0.009742224783358922,0.008534676289125263,0.9881533551128523
2013-07-25,1,0.0007943899576169124,0.0008577710822047192,-0.009742224783358922,0.008834277058455154,0.9880053195785646
2013-07-29,1,0.000772606787174548,0.0008706923166431694,-0.011344026066955339,0.012290789213493379,0.9838457289134123
2013-07-31,1,0.0003032424365266786,0.0003390879366906084,-0.011344026066955339,0.00950996711777537,0.9846048242443719
2013-08-02,1,0.00047004003499456044,0.0005334802803350076,-0.008022470201028356,0.007243688248301567,0.9867212651259375
2013-08-06,1,0.0004470778735470122,0.0005229371367762462,-0.0039044104702065895,0.008515543549607336,0.9870278919576986
2013-08-08,1,0.0008262469869507736,0.0009247315904822736,-0.0039044104702065895,0.007243688248301567,0.9878088403487271
2013-08-12,1,0.0015551272043551451,0.0017998950239864501,-0.0039044104702065895,0.010144744073298398,0.9871304104338511
2013-08-14,1,0.0022994773519221415,0.002654653660868433,-0.008276083164786868,0.008450403201112839,0.9871770628351321
2013-08-16,1,0.0013384197197398385,0.001527595782498678,-0.0036481623338777414,0.010144744073298398,0.9870156839492013
2013-08-20,1,0.0014117436363565144,0.001644210563197127,-0.0022246127876287044,0.011334588686949922,0.9863736203185742
2013-08-22,1,0.0010825125564644276,0.0011844877218721264,-0.0022246127876287044,0.010144744073298398,0.9866778760301204
2013-08-26,-1,-0.0005727758789752228,-0.0005219816555330186,-0.0022246127876287044,0.008459695584079142,0.9908163206547904
2013-08-28,-1,-0.0013064265784593005,-0.0011656321315478553,-0.0007408159014134369,0.010144744073298398,0.9900298772989022
2013-08-30,-1,-0.0007248871989965477,-0.0007067151539774646,-0.002510460141562443,0.010144744073298398,0.9899228439640985
2013-09-04,-1,-0.0009852356687667452,-0.0008800031348672918,-0.003601039263056457,0.01132923283193067,0.9871697811710247
2013-09-06,-1,-0.0008052872411164894,-0.0007138885278974902,-0.004219454884629753,0.01132923283193067,0.9865997066362298
2013-09-10,-1,-0.0009628090065939902,-0.0007191561344977749,-0.009856546323617713,0.007956402839589264,0.9856120523827255
2013-09-12,-1,-0.0011922899284635114,-0.0009935676950106392,-0.009712040390365865,0.010116400766159026,0.9850964682907127
2013-09-16,1,0.0004944257696090858,0.0005481211480288805,-0.009712040390365865,0.008758508505565369,0.9860609259097182
2013-09-18,1,0.001229343623504416,0.001352928040726939,-0.009712040390365865,0.007925022205150924,0.9875027224188211
2013-09-20,1,0.0031521745161623062,0.003648852565708999,-0.009712040390365865,0.003120657053771232,0.9862283314148582
2013-09-24,1,0.0026978311901747084,0.0031046239602078372,-0.009712040390365865,0.0016417870185158354,0.9863115160791642
2013-09-26,1,0.0034973614622850584,0.0040416988185730356,-0.011172144962795762,0.0016417870185158354,0.9861449675116164
2013-09-30,1,0.0032489991899894155,0.0037719714947826847,-0.009712040390365865,0.0016417870185158354,0.9865150913774442
2013-10-02,1,0.0038469939518195827,0.004440865815159029,-0.009154949694722796,0.0016417870185158354,0.9884304914644724
2013-10-04,1,0.003649909744737229,0.004205135324551651,-0.008425012741592065,0.002333862777236814,0.9867701924279941
2013-10-08,1,0.0024787510332926646,0.0028552397676593275,-0.0064523722349559,0.002333862777236814,0.9895483654427767
2013-10-10,1,0.002251158944760456,0.002578318379002026,-0.0062535782330809635,0.0014832547134607718,0.9903041918080484
2013-10-14,1,0.002299615930701685,0.002609514760046096,-0.0062535782330809635,0.009544489159930909,0.9891256331755637
2013-10-16,1,0.0018665029711858248,0.00208926593979163,-0.0062535782330809635,0.009544489159930909,0.9895142454199334
2013-10-18,1,0.00195751832611345,0.0022464001675574783,-0.005309136820761784,0.014133332372481152,0.9896381701799614
2013-10-22,1,0.002031669299183071,0.0023653779453618744,-0.0062535782330809635,0.014133332372481152,0.987932163054442
2013-10-24,1,0.0016953368962737585,0.0019268547911412293,-0.005309136820761784,0.014133332372481152,0.9881547230365441
2013-10-28,1,0.0008688992432446118,0.0009481552151033516,-0.004169261259445606,0.016120333474761418,0.98583385330913
2013-10-30,1,0.0011600303654595936,0.0012755432903090846,-0.0026917131177850466,0.014372619787391341,0.9866488185006488
2013-11-01,1,0.0021159584204196486,0.0022976593708999835,-0.0028629180576484423,0.00896191793080755,0.9888212888623066
2013-11-05,1,0.0017387701512596632,0.0018790065624796745,-0.0028629180576484423,0.011908562897205145,0.9884710700976812
2013-11-07,1,0.0016991183581668622,0.0018323333190038325,-0.0028629180576484423,0.011908562897205145,0.9882488798952342
2013-11-11,1,0.0026003246035254998,0.002819093698164766,-0.0028629180576484423,0.008428568843568747,0.9897466796848647
2013-11-13,1,0.0019793561194801556,0.002046078157899135,-0.005824723144233936,0.008428568843568747,0.9883521880466201
2013-11-15,1,0.002768558290295909,0.0029996627199405865,-0.008232960477745566,0.008428568843568747,0.9860839632885354
2013-11-19,1,0.000913912139930029,0.0009660594863156661,-0.004447465531133211,0.010676591859544766,0.9872496718367043
2013-11-21,1,0.0014628430639590097,0.0014820523713085232,-0.0047297757349362675,0.010676591859544766,0.9872545498555984
2013-11-25,1,0.002764837197890181,0.0029456155679287834,-0.0042754113337309324,0.008428568843568747,0.9903606392445969
2013-11-27,1,0.002722065976011519,0.002903314577799662,-0.0047297757349362675,0.008428568843568747,0.9901898644532886
2013-12-02,1,0.003042829398155533,0.003314250197114391,-0.0047297757349362675,0.010676591859544766,0.989993695419841
2013-12-04,1,0.0036951501452070655,0.0040891715437900095,-0.006454731062972094,0.008428568843568747,0.988908597420406
2013-12-06,1,0.003754761180576888,0.004165562439539114,-0.006454731062972094,0.009547800888017237,0.988303419267531
2013-12-10,1,0.003901297321523134,0.00433008667976633,-0.006454731062972094,0.015246631110664856,0.9877032076034059
2013-12-12,1,0.002818810974957169,0.0030976115390347458,-0.004977654173936294,0.015246631110664856,0.9889653935058331
2013-12-16,1,0.0038465629955434276,0.004267108423437709,-0.0005338452795979081,0.015246631110664856,0.9908922648599553
2013-12-18,1,0.0041325575188968545,0.004550793887006689,-0.004977654173936294,0.012992372458903171,0.9910302838025914
2013-12-20,1,0.004042811168035728,0.004430938308096315,-0.006357178642127178,0.011541140321897387,0.991177884486986
2013-12-24,1,0.003985217881129245,0.004333222131931429,-0.007119303700703293,0.011541140321897387,0.9890220060075536
2013-12-27,1,0.003543893298621946,0.0038124182065093336,-0.007119303700703293,0.012473144867908955,0.9891143541824381
2013-12-31,1,0.003849773941343102,0.0041958854171479185,-0.0078027250955031244,0.012473144867908955,0.986457616585845
2014-01-03,1,0.0026843741918858737,0.0028998624973871016,-0.0078027250955031244,0.012473144867908955,0.9857976063258266
2014-01-07,1,0.002009132782772609,0.0021080593709345433,-0.007471860738234764,0.012473144867908955,0.9862836797314262
2014-01-09,1,0.003373155606681755,0.0036619354101122253,-0.007471860738234764,0.013639948403306942,0.985731687879842
2014-01-13,1,0.0033571045760799416,0.00361974112084694,-0.007471860738234764,0.013639948403306942,0.9854724576838989
2014-01-15,1,0.003919270498741195,0.004274772849200006,-0.007471860738234764,0.013639948403306942,0.9860222861339579
2014-01-17,1,0.003423183547806795,0.003666466128333533,-0.006365111050235715,0.013639948403306942,0.9862960478134531
2014-01-22,1,0.0023966614267498946,0.0024538461313179105,-0.0037044245756911844,0.013639948403306942,0.9867476455809561
2014-01-24,1,0.0010462160834886476,0.0011678512229602335,-0.001485894334897721,0.013639948403306942,0.9871739956333414
2014-01-28,1,0.0014102170689425674,0.001486751239344489,-0.001485894334897721,0.013184956805269888,0.9877684094516793
2014-01-30,1,0.0013536588003063713,0.0014469336258335396,-0.0037044245756911844,0.009891041820186342,0.9889747070857028
2014-02-03,1,0.000240726535147742,0.00044570973102907546,-0.001485894334897721,0.013184956805269888,0.9884353431328955
2014-02-05,1,0.0002686980462257506,0.0004852244349990415,-0.0009681907310586047,0.009891041820186342,0.989063151011146
2014-02-07,1,0.0017568233787652995,0.0017619533329383868,-0.0038245509082992187,0.006994960647196923,0.9899237591741896
2014-02-11,1,0.0025025663576173267,0.002652723699285833,-0.008255698197431893,0.006519686113286351,0.9899772688038102
2014-02-13,1,0.0030468135264832383,0.0032646784865817085,-0.01053350872648051,0.00454095343416943,0.9886937028215372
2014-02-18,1,0.002954933202554843,0.003144409527382673,-0.01053350872648051,0.006183937065041591,0.9874153427149285
2014-02-20,1,0.003438326861023564,0.003724363013374309,-0.015772610305608913,0.006487239246882321,0.9859566233868882
2014-02-24,1,0.00265274741674273,0.0027893462978297087,-0.01633243548787403,0.00454095343416943,0.9852879202868992
2014-02-26,1,0.0034212720249650456,0.0036973880746440663,-0.019794031461981984,0.00454095343416943,0.9838378471057021
2014-02-28,1,0.0019059277272796245,0.0019632756217960712,-0.01633243548787403,0.00454095343416943,0.9860347136565981
2014-03-04,1,0.0013813549461770974,0.0014808498800530294,-0.011431466692320263,0.006952788447956813,0.9871401558313455
2014-03-06,1,0.0012294980528375638,0.0013451315408629938,-0.019794031461981984,0.005879912176526663,0.9856656574293241
2014-03-10,1,0.00043005368725778986,0.0006425584283007473,-0.020893813762479178,0.005879912176526663,0.985214599127743
2014-03-12,0,-0.0001399931213340224,0.00016074842718597935,-0.020893813762479178,0.013027104457679925,0.9840393137533997
2014-03-14,-1,-0.0020661665608264117,-0.0014971655747053137,-0.020893813762479178,0.013027104457679925,0.9827420271832317
2014-03-18,-1,-0.0009926425477411415,-0.0005349308940691977,-0.020893813762479178,0.012555456286120363,0.9827186309871886
2014-03-20,-1,-0.0017141195058386664,-0.001178318610679461,-0.01784890409740092,0.0160379425333244,0.9827800922495198
2014-03-24,-1,-0.0036704026227052594,-0.0028691038663145206,-0.01581206431152787,0.0160379425333244,0.9835072812277125
2014-03-26,-1,-0.0045291573551732535,-0.0036385482141293745,-0.015548927178204126,0.0160379425333244,0.9836285449124129
2014-03-28,-1,-0.0038516530916430543,-0.0031227837808585836,-0.015548927178204126,0.0160379425333244,0.9832825586801159
2014-04-01,-1,-0.0028941986709592068,-0.002252951149102051,-0.015548927178204126,0.014519776949046695,0.9835104996766137
2014-04-03,-1,-0.004518462237608385,-0.0036808039130564636,-0.015318890853806333,0.014519776949046695,0.9837799046254166
2014-04-07,-1,-0.005041406844612392,-0.004211892296104721,-0.01170273212261786,0.014519776949046695,0.9846667270282904
2014-04-09,-1,-0.003606257372449735,-0.002940687578929601,-0.01170273212261786,0.012993053550228142,0.986796338084445
2014-04-11,-1,-0.00597507028579365,-0.005053385427668811,-0.008641717589972921,0.014519776949046695,0.987086261287072
2014-04-15,-1,-0.0056263578790767535,-0.004667149519678184,-0.008641717589972921,0.010245629521657555,0.989457648547283
2014-04-17,-1,-0.0035789353231243434,-0.002922415954269588,-0.008641717589972921,0.008612301019198534,0.9873487882060588
2014-04-22,-1,-0.002198265742288801,-0.0017901794844641797,-0.009561375355926613,0.003044836757042695,0.9874289685637552
2014-04-24,-1,-0.003109115983725227,-0.002593288040655511,-0.006495684332640694,0.008612301019198534,0.9880164134720658
2014-04-28,-1,-0.003875215589504613,-0.0032679005553649205,-0.005335818269390348,0.009473006944261902,0.9875427879516594
2014-04-30,-1,-0.0026111852263916474,-0.0021788459822236223,-0.005797237043046595,0.009157050978320366,0.9877748244900895
2014-05-02,-1,-0.0029989260023812634,-0.002519465824686173,-0.005797237043046595,0.009157050978320366,0.9885112937515679
2014-05-06,-1,-0.003283340625479576,-0.0027839916183763345,-0.005335818269390348,0.00998159686405066,0.9880733659269341
2014-05-08,-1,-0.0039061330171797346,-0.0032907113743668136,-0.005180568054424413,0.012249475223910108,0.9862548857776062
2014-05-12,-1,-0.0019171110835465664,-0.0015875488407002445,-0.005992715317742475,0.011539968264793301,0.9881748233375143
2014-05-14,-1,-0.001962266738030163,-0.0016713250660779018,-0.0054188749679555115,0.011539968264793301,0.9883037977343725
2014-05-16,1,0.000838444929401991,0.0009080408975905738,-0.004846123547803531,0.00998159686405066,0.9917460580292665
2014-05-20,1,0.00038939140127409544,0.00040835927063126887,-0.003165262710472112,0.011539968264793301,0.9902298483326394
2014-05-22,1,0.0005362951132376656,0.0005649324283249777,-0.004846123547803531,0.010133424290791004,0.990239622622402
2014-05-27,1,0.001248376900889532,0.0013988804233205838,-0.00619518316837592,0.00856991468657737,0.9906451096878534
2014-05-29,1,0.0009062450029663174,0.0009567772933692926,-0.004846123547803531,0.008402772116009006,0.9915809616780169
2014-06-02,1,0.001023262726260493,0.0011199578118409352,-0.003528629068778337,0.008402772116009006,0.9918672779665426
2014-06-04,1,0.0015504475589699165,0.0017572264327825142,-0.0046406023012977755,0.008402772116009006,0.991595971983625
2014-06-06,1,0.0026711132102088097,0.003040205763507231,-0.005578619428858653,0.003520766110281058,0.9917342989397697
2014-06-10,1,0.0026681503207632703,0.003092802972651555,-0.004624077556836639,0.003520766110281058,0.9921906272691684
2014-06-12,1,0.00248019538532157,0.00287547672743127,-0.0038578676365891057,0.003520766110281058,0.9924356246998508
2014-06-16,1,0.0026164379147582536,0.0029999961823857814,-0.005201593829835466,0.002425345950183311,0.991825513178857
2014-06-18,1,0.0032667883572532054,0.003671088748515288,-0.005201593829835466,0.0012460768258589897,0.9930750742594232
2014-06-20,1,0.0028892407921923087,0.003269262774413301,-0.005201593829835466,0.002425345950183311,0.9916136012627135
2014-06-24,1,0.003001864172979612,0.0034047031631850473,-0.005201593829835466,0.0028452099541698343,0.9916108988753763
2014-06-26,1,0.0025165427772686523,0.0027690615448039742,-0.006199407821901211,0.002425345950183311,0.9917044040942711
2014-06-30,1,0.0026822333938748095,0.0029760559739404635,-0.006199407821901211,0.0026038621109503676,0.991504350309344
2014-07-02,1,0.003455789543717546,0.003926123764481541,-0.009281316969349168,0.0023896414335413535,0.9897390491304835
2014-07-07,1,0.00312530381736781,0.003578959020100007,-0.006149833588517803,0.002738096404243961,0.9903481401826282
2014-07-09,1,0.003303825670549489,0.003822083467987022,-0.004822632139732578,0.002738096404243961,0.9905810071893323
2014-07-11,1,0.0033552082460063188,0.0038917568672485045,-0.009281316969349168,0.003803926324007735,0.99019115250733
2014-07-15,1,0.0033912585791183872,0.003947466612074799,-0.0030721534460725593,0.0050932523690149405,0.9908231697298072
2014-07-17,1,0.00313700226454408,0.003637017825209609,-0.0028042272641515186,0.005909767266826782,0.990176603789075
2014-07-21,1,0.004355852666050129,0.0050453821141752935,-0.0028042272641515186,0.005909767266826782,0.9885179950778964
2014-07-23,1,0.003134667105815575,0.0035688984549280293,-0.0013019225767128366,0.005909767266826782,0.988750540550796
2014-07-25,1,0.0031885563148309464,0.0036705534166316563,-0.0013019225767128366,0.005909767266826782,0.9892048528988714
2014-07-29,1,0.0033730120028203476,0.003888324889922657,-0.0013019225767128366,0.008177921199524632,0.988903144699339
2014-07-31,1,0.001549890887948584,0.0017754214798328324,-0.0013019225767128366,0.008177921199524632,0.9903792397002346
2014-08-04,1,0.0019607265609283752,0.002228459381588565,-0.004004323271374818,0.005909767266826782,0.9904566110917244
2014-08-06,1,0.0012203874788456201,0.0013098276255725726,-0.004004323271374818,0.008177921199524632,0.9894885610074349
2014-08-08,1,0.0016709512778857226,0.0019003588461328873,-0.0033223754975834465,0.008177921199524632,0.9902098707598551
2014-08-12,1,0.001752613305726076,0.0019570519986324892,-0.005262714680938188,0.0052637965260890875,0.9895680817466712
2014-08-14,1,0.001977677408863516,0.0021309759192064586,-0.006129290849112584,0.003681749669997051,0.9895465203583265
2014-08-18,0,-0.00012507572402721957,2.751864900920882e-05,-0.005262714680938188,0.003684232877262321,0.9931196550781591
2014-08-20,-1,-0.0005759632066525568,-0.0003520999555995292,-0.005262714680938188,0.006336659874919404,0.9923637392504089
2014-08-22,1,1.0900519595199271e-05,0.0001073236055581892,-0.0054418437210584526,0.006336659874919404,0.9921089488263722
2014-08-26,-1,-0.00035220553911727683,-0.00014516436321322646,-0.0054418437210584526,0.0062982772032937635,0.9921591370313024
2014-08-28,-1,-0.0015188054724427488,-0.0011075927673210612,-0.0054418437210584526,0.005891747237552647,0.9916861551153227
2014-09-02,-1,-0.0011664965834627563,-0.0008645079465152914,-0.0037418393007712363,0.013190993590620577,0.9911746319410036
2014-09-04,-1,-0.002282293690453139,-0.0017382779709761759,-0.0033252873084869,0.013190993590620577,0.989539524487746
2014-09-08,-1,-0.0014976726695348091,-0.0011093362430132244,-0.0033252873084869,0.013190993590620577,0.9894787052124284
2014-09-10,-1,-0.001604215001649245,-0.0012564316457334083,-0.0023038800610412045,0.013190993590620577,0.9884129646782676
2014-09-12,-1,-0.001359334988945801,-0.001050989883369182,-0.005348677656809547,0.010852728512045086,0.9869313654102967
2014-09-16,-1,-0.0012441112470302387,-0.0008953787529222506,-0.018795487261182645,0.009034943600777166,0.9850027509674074
2014-09-18,-1,-0.0014623682968714577,-0.001021594129321338,-0.018795487261182645,0.0079995210055189,0.9850393965609662
2014-09-22,-1,-0.0015901274776690092,-0.0011839792115673924,-0.018795487261182645,0.010852728512045086,0.9836285317434206
2014-09-24,-1,-0.0013492068972930386,-0.0009533158915003813,-0.018795487261182645,0.011122901818500919,0.9830548880585515
2014-09-26,-1,-0.0028708604525871104,-0.0022658038822291563,-0.013776372555492165,0.017114993096659148,0.9816907777630742
2014-09-30,-1,-0.0025547443793034674,-0.0019739187204100652,-0.013776372555492165,0.018257690691708347,0.9810418164466918
2014-10-02,0,-1.5189031220695821e-05,0.0002008415098312846,-0.013776372555492165,0.018257690691708347,0.9825077681549655
2014-10-06,-1,-0.0003444525375700725,-5.652810062017682e-05,-0.013776372555492165,0.018257690691708347,0.982517726624292
2014-10-08,1,0.0006913020924161565,0.0007453169516829447,-0.010930071730186269,0.018257690691708347,0.9839290588625502
2014-10-10,-1,-0.0026657168653693537,-0.0021880403088114604,0.00040631099063604846,0.018257690691708347,0.9846586059096331
2014-10-14,-1,-0.005625762216384175,-0.0048215312422905075,0.0009460615749069571,0.018257690691708347,0.985556636497558
2014-10-16,-1,-0.005311468243111026,-0.004585913515700805,0.0009878050891119288,0.018257690691708347,0.9859068504963668
2014-10-20,-1,-0.0032835583063866745,-0.0028063653002906603,-0.00021129998048525397,0.015518574079001169,0.9887117597672656
2014-10-22,-1,-0.003071605963983649,-0.002611568896014206,-0.00021129998048525397,0.009874094139517411,0.9898764281512321
2014-10-24,-1,-0.0008375217032933564,-0.0006591704608682888,-0.0008011108296878014,0.006459811337714193,0.9897623785760316
2014-10-28,1,0.001173093044931131,0.0013229632845228611,-0.002891558281642514,0.005671653867230257,0.9909583110900775
2014-10-30,1,0.001663869525143907,0.0018419038142198413,-0.002666047448592685,0.005671653867230257,0.9917398223504127
2014-11-03,1,0.0016923422379294185,0.0018614501267462027,-0.004785314448571025,0.005671653867230257,0.9905387000900666
2014-11-05,1,0.00223679912586855,0.002505711496933863,-0.006119412044532232,0.005671653867230257,0.9900613536171133
2014-11-07,1,0.0037608009204602682,0.004329230249932427,-0.007880566970646602,0.0053312755646780655,0.9894800935561265
2014-11-11,1,0.0030801916575509255,0.0035204701433687903,-0.010918972660237523,0.0053312755646780655,0.9890057518629694
2014-11-13,1,0.003059335933878954,0.0034776065463263785,-0.010918972660237523,0.004362166906271793,0.9889277515025628
2014-11-17,1,0.002982559373920444,0.003408149948253711,-0.01145310816964967,0.0038679226188273385,0.9875806531363258
2014-11-19,1,0.002963371285197731,0.0033874299790977395,-0.01145310816964967,0.005610032454211479,0.9857984404650225
2014-11-21,1,0.004825607721911615,0.005508277231956774,-0.01095618145295522,0.005610032454211479,0.9885525031772301
2014-11-25,1,0.0038128156886181367,0.004322743042097163,-0.007238600898003971,0.006882625202155065,0.9897723949878737
2014-11-28,1,0.004198904962932663,0.004744376014022281,-0.007238600898003971,0.005881997462522833,0.9894436751336114
2014-12-02,1,0.003337976274933225,0.003763430883339549,-0.00625300777553181,0.005881997462522833,0.9900831741399916
2014-12-04,1,0.003412308361389144,0.003838251580281484,-0.009463191252112393,0.005032499878165979,0.9894024260915859
2014-12-08,1,0.002670073061026932,0.0029907111117064896,-0.009463191252112393,0.005032499878165979,0.9893932515443414
2014-12-10,1,0.0021585331644541866,0.0024411417206058887,-0.008871810059301703,0.005881997462522833,0.9891354355545586
2014-12-12,1,0.001966305434804336,0.0022070749320741855,-0.009604965991683045,0.005881997462522833,0.9884236941034307
2014-12-16,1,0.0002439520221344018,0.000256741419808586,-0.0098624788173467,0.005881997462522833,0.9892393304054531
2014-12-18,1,0.002258999283185498,0.0025182326498406097,-0.0098624788173467,0.005032499878165979,0.9900424510210489
2014-12-22,1,0.0017164833649418534,0.0018130706769789874,-0.0098624788173467,0.0061150820203872604,0.9897501767359772
2014-12-24,1,0.0023838537654173883,0.0025999958690714796,-0.0098624788173467,0.0017539388723748649,0.9897018607749859
2014-12-29,1,0.002100195022923123,0.0022770932454525303,-0.015015609232517088,0.0017539388723748649,0.986917531183049
2014-12-31,1,0.0013823995444833073,0.0014430929441396126,-0.016368850141402408,0.005268384186593478,0.9860798579325776
2015-01-05,1,0.0006781494144371591,0.0006834030477431135,-0.016368850141402408,0.00903841356597268,0.9867765884125743
2015-01-07,1,0.0004243929600278947,0.00045197505268702734,-0.013361633048634464,0.012909450076239976,0.9863664801662029
2015-01-09,1,1.0486500642499117e-05,0.00010497139080594043,-0.013361633048634464,0.012909450076239976,0.9870535020015706
2015-01-13,-1,-0.0007838374301015436,-0.0005842227208285217,-0.0058928521811042085,0.014274354905732272,0.9866706291242103
2015-01-15,-1,-0.001984951555961022,-0.0016368900555819737,-0.001884417051794064,0.014821126068714581,0.9855250426180581
2015-01-20,-1,-0.0007528488932313784,-0.0005748877025169871,-0.001884417051794064,0.014274354905732272,0.9868128568512899
2015-01-22,-1,-0.00016170030256899641,-4.240951041655731e-05,-0.001884417051794064,0.014788058114515749,0.9869819113941675
2015-01-26,-1,-0.0005606286138642129,-0.00037390055539636056,-0.0034942996663481956,0.014788058114515749,0.9865644928089949
2015-01-28,-1,-0.0026960328289236924,-0.00227896852470075,-0.0015797086292150503,0.014788058114515749,0.9879703964487239
2015-01-30,-1,-0.00278975355518187,-0.00237421225242932,-0.0015797086292150503,0.014839443824158988,0.9870369748846481
2015-02-03,-1,-0.0025178675213645496,-0.0021035475341351475,-0.0034942996663481956,0.014839443824158988,0.9873429359468416
2015-02-05,-1,-0.001733427535780218,-0.0014197108449374137,-0.003498101572301624,0.013607260363376446,0.9877690857033138
2015-02-09,-1,-0.0006751667410104704,-0.0005209636731722296,-0.004485462053619489,0.008988425551386363,0.9872791051233061
2015-02-11,1,5.1854062059971306e-05,9.807803653305531e-05,-0.004485462053619489,0.0070538652023032136,0.9880033317846822
2015-02-13,1,0.0010902957656521218,0.001146804981741493,-0.004485462053619489,0.006014964859904097,0.9889015443747342
2015-02-18,1,0.001335725452552394,0.0014504971871245464,-0.004485462053619489,0.005671946323001024,0.989103456989427
2015-02-20,1,0.0014414454140850804,0.001516931665031474,-0.007606060991317832,0.004103627105306435,0.989280637601607
2015-02-24,1,0.001355085748233767,0.0014420078215463554,-0.005357545553547607,0.004103627105306435,0.9894129705313299
2015-02-26,1,0.0015618033893370165,0.001750189693504183,-0.010320471064051533,0.004103627105306435,0.9883524138930175
2015-03-02,1,0.003008630703422035,0.003397083442500337,-0.010320471064051533,0.004103627105306435,0.9904343522399205
2015-03-04,1,0.0019428873382582828,0.0021549526115186915,-0.010320471064051533,0.004103627105306435,0.99125367942467
2015-03-06,1,0.000382149845563839,0.0004679207067311582,-0.004400416905749157,0.004103627105306435,0.9916744134896296
2015-03-10,-1,-0.0018479272687430613,-0.0014267499189576992,-0.001994091415948635,0.006709445916665517,0.9912969065789781
2015-03-12,-1,-0.0018054536649106158,-0.0013824089636743355,-0.001994091415948635,0.011370488450464893,0.9910019230880136
2015-03-16,-1,-0.000563712820550411,-0.00033950888127143926,-0.004400416905749157,0.005428377374971359,0.9914495278767084
2015-03-18,-1,-0.0006631213150305934,-0.00041946737281554447,-0.008602989744254018,0.005428377374971359,0.9911505689702264
2015-03-20,-1,-0.0004655574564582061,-0.0003030354012077767,-0.008701149317203366,0.010266349272066277,0.9900066348868165
2015-03-24,1,6.64479760176279e-05,0.00012884578164646537,-0.008701149317203366,0.010266349272066277,0.989445707214578
2015-03-26,-1,-0.0006685060525947566,-0.0005487232642641894,-0.0017744633547698686,0.010342630690602934,0.9906070634980916
2015-03-30,-1,-0.00040997169015895556,-0.00031888164572205414,-0.0033949490287835888,0.010342630690602934,0.9895428688948734
2015-04-01,-1,-0.00043303560541121033,-0.0003508611219641013,-0.009912574426279783,0.010342630690602934,0.9870748934954093
2015-04-06,1,0.0002098563390361854,0.00022955101505922504,-0.009912574426279783,0.010342630690602934,0.9873139153699252
2015-04-08,1,0.00090212237844028,0.0009978987034087593,-0.016010293207629454,0.008664680167055946,0.9876929814591869
2015-04-10,1,0.0012651762991519328,0.001415931137765474,-0.016010293207629454,0.008664680167055946,0.9877100190131975
2015-04-14,1,0.0008576792888142084,0.0009440804069354683,-0.012900465037309686,0.008664680167055946,0.9879063324846318
2015-04-16,1,0.0007314634514274259,0.0008017487463427749,-0.012900465037309686,0.009498365031102927,0.9866080890944047
2015-04-20,1,0.0012750302441397825,0.0015014973100830396,-0.010098596813193802,0.008664680167055946,0.9877488522202139
2015-04-22,1,0.0015347044704384443,0.0017636921537892358,-0.01225278725573875,0.0035925671542317776,0.9876067345133217
2015-04-24,1,0.0019687623899585878,0.002283402275888094,-0.015716188828189277,0.0029996552053221303,0.9869040769332993
2015-04-28,1,0.000781292468539114,0.0009040794516952072,-0.015716188828189277,0.0035925671542317776,0.9873188179968331
2015-04-30,-1,-0.0010419034289802847,-0.0009458393198100389,-0.01225278725573875,0.0035925671542317776,0.9894240403654845
2015-05-04,-1,-0.0007950030220976252,-0.0007035556113279121,-0.01225278725573875,0.0034652824322987854,0.990016171098259
2015-05-06,-1,-0.0020054393469717633,-0.0017430542119020347,-0.01225278725573875,0.0045593781107915975,0.9896947954349443
2015-05-08,-1,-0.0013237702088711154,-0.0011430874596423425,-0.01225278725573875,0.0045593781107915975,0.9896427198440139
2015-05-12,-1,-0.0023598754085803753,-0.001998220696166583,-0.009266638074798928,0.005521142599033894,0.9892016546570018
2015-05-14,-1,-0.0001020205171935653,-8.682270584068896e-05,-0.010452615312848003,0.0018903778258330145,0.989924972620708
2015-05-18,-1,-0.00028100912772596065,-0.0002572182528197571,-0.010703864544374558,0.0018903778258330145,0.9899170632643198
2015-05-20,-1,-0.000314233452510074,-0.00030732646236999257,-0.008997733145433407,0.005139288433234918,0.9900174138431411
2015-05-22,-1,-0.0011344051806123116,-0.001027385259476111,-0.008997733145433407,0.008159547397183999,0.989730204671697
2015-05-27,-1,-0.001714093864082757,-0.0015223665839089072,-0.00855295631198667,0.006037962264055059,0.9908917401359415
2015-05-29,-1,-0.002894363100308359,-0.0025328015306318717,-0.008997733145433407,0.006037962264055059,0.9907732124087917
2015-06-02,-1,-0.0030696693677672374,-0.002657473225184102,-0.009705790199750833,0.0046787576033544935,0.9895376039353297
2015-06-04,-1,-0.0030921767701406694,-0.0027043071077435792,-0.008997733145433407,0.00682552010370804,0.9901421423264622
2015-06-08,-1,-0.0030452477807652797,-0.0026398250917361926,-0.008997733145433407,0.00682552010370804,0.9886377246764194
2015-06-10,-1,-0.0030559745500606606,-0.0026067731981636783,-0.009705790199750833,0.003512377098492488,0.9891750146025967
2015-06-12,-1,-0.0031202648913198055,-0.00270280202935967,-0.009705790199750833,0.006213673229218904,0.9890560958643685
2015-06-16,-1,-0.002997265189156855,-0.002627517207447699,-0.01113595181146227,0.006889791420972863,0.9882983316622896
2015-06-18,-1,-0.0024871849333830227,-0.0021773519193725903,-0.01113595181146227,0.006213673229218904,0.988996264740695
2015-06-22,-1,-0.0033307117419890068,-0.0028315591931820628,-0.009153252021958554,0.005453015078823632,0.9899577484253774
2015-06-24,-1,-0.003937422657095374,-0.0033512570034764143,-0.007738502193522413,0.006213673229218904,0.989635613467316
2015-06-26,-1,-0.0045621578061330135,-0.003930105509516112,-0.007631772292361656,0.006213673229218904,0.9898816563624054
2015-06-30,-1,-0.005249538255659479,-0.00457327149138857,-0.007608057465892438,0.006213673229218904,0.9906592249772768
2015-07-02,-1,-0.004300751217743403,-0.0037670799786468953,-0.007608057465892438,0.005476641437846137,0.9911027518164761
2015-07-07,-1,-0.0023754806991050084,-0.002093264402376523,-0.007608057465892438,0.006396099201450808,0.9903790997107494
2015-07-09,-1,-0.002050123642870573,-0.0018661018798836766,-0.007608057465892438,0.006396099201450808,0.9900586636965341
2015-07-13,-1,-0.0016220017890820752,-0.001501392648899453,-0.007608057465892438,0.007224432106466029,0.989089800453351
2015-07-15,-1,-0.0012524240177294674,-0.0012071029616904394,-0.006057256315909112,0.007593464777354123,0.9891666763696405
2015-07-17,-1,-0.0014188229404214882,-0.001351339722349629,-0.006042048248007456,0.007593464777354123,0.9889941916740707
2015-07-21,-1,-0.001658286717637086,-0.001546390461589925,-0.007135444638321887,0.009927850294877163,0.9883728029196377
2015-07-23,-1,-0.0006190687695799005,-0.0005106195390271448,-0.011690709694920774,0.009927850294877163,0.9876137949878059
2015-07-27,-1,-0.0017308778103500102,-0.0016801837789837282,-0.014895763755247484,0.009927850294877163,0.9853616131328835
2015-07-29,-1,-0.0025834228403941754,-0.0023953060425852693,-0.016371386511385057,0.011150835127628302,0.9839398609952951
2015-07-31,-1,-0.0018836589065029325,-0.0017198472283300884,-0.021831873217989517,0.014530694207928647,0.9813916130696343
2015-08-04,1,0.00012443579245671602,0.00021699634824017325,-0.023019986789374,0.0058942505386353535,0.9825115016445433
2015-08-06,-1,-0.00013335199238828361,-4.231102258704352e-05,-0.023019986789374,0.01013029700313801,0.9830761407844808
2015-08-10,1,0.0007061748026252458,0.0009123584165586611,-0.023019986789374,0.01013029700313801,0.9820556226643055
2015-08-12,1,0.0009191157042872444,0.00113392837655166,-0.023019986789374,0.0058942505386353535,0.9822157275933964
2015-08-14,1,0.0007517344148912997,0.0009554501577754477,-0.023019986789374,0.0035981568764441836,0.9824369963320105
2015-08-18,1,0.00014926062639968003,0.00022136973188833841,-0.023019986789374,0.007050577706269831,0.9829889863345841
2015-08-20,-1,-0.0002238388009252844,-0.00018266826303556277,-0.018328130278203597,0.007050577706269831,0.9839404936623026
2015-08-24,-1,-0.000848190957463534,-0.0008153482623394283,-0.012777099817251003,0.010385950673323305,0.9859616251781127
2015-08-26,-1,-0.001219296877159421,-0.0011547941557264586,-0.01069519796133708,0.007050577706269831,0.987936064468264
2015-08-28,-1,-0.0011270259367861094,-0.0011112102774915125,-0.01069519796133708,0.003579537715847996,0.9903726018470094
2015-09-01,-1,-0.0021172124982391316,-0.0020058127347022973,-0.01069519796133708,0.003579537715847996,0.9903533229433005
2015-09-03,-1,-0.0019789721787165995,-0.0018870217637721465,-0.012777099817251003,0.003579537715847996,0.9889451289513254
2015-09-08,-1,-0.0012271534068531219,-0.001226940261894897,-0.011064816022747965,0.006152278813218241,0.9900061604970927
2015-09-10,-1,-0.001676177614353699,-0.0016180490309460108,-0.007340844823263665,0.010516838238110077,0.9879248240045279
2015-09-14,-1,-0.0012585528067075482,-0.0012142893633858983,-0.007340844823263665,0.013620009772983863,0.9837113168918329
2015-09-16,-1,-0.0007369386782569611,-0.000598432817877148,-0.011001559445415095,0.013620009772983863,0.9835604931801293
2015-09-18,-1,-0.001171847429282452,-0.0011308983648275317,-0.011001559445415095,0.01651776021663618,0.9829317400023794
2015-09-22,0,-1.4206340421640969e-05,8.823861916794253e-05,-0.009701118625435028,0.01248089335532583,0.9838080655833111
2015-09-24,1,0.0004816332329831553,0.0006870865012631972,-0.01440738294163705,0.01651776021663618,0.9818174364142139
2015-09-28,-1,-0.0005501101543825143,-0.000532308963141282,-0.009701118625435028,0.020773059697723684,0.9812831739129398
2015-09-30,-1,-0.0026772572562709404,-0.0024833176500544934,-0.0026761994869277175,0.02360358852065108,0.9808556762463566
2015-10-02,-1,-0.0015013400895266316,-0.0014337880948965015,-0.0026761994869277175,0.02360358852065108,0.9828236390749648
2015-10-06,-1,-0.0011281937406710054,-0.0010906713065903099,-0.0026761994869277175,0.02488472536019146,0.981454963945637
2015-10-08,1,0.00022210737676871153,0.00043298341327904853,-0.0026761994869277175,0.023934690944429883,0.979862522386631
2015-10-12,1,0.0018719891338591,0.002274848886954674,-0.004300302428735959,0.019532409525799748,0.9840773474496314
2015-10-14,1,0.0013016185062208552,0.00158591419835271,-0.004300302428735959,0.019532409525799748,0.9838579183583034
2015-10-16,1,0.001546313216004218,0.0018515032752228278,-0.006449123311842863,0.019532409525799748,0.9832790585855214
2015-10-20,1,0.001177396304049489,0.0013962930560985501,-0.0058331640012650515,0.019532409525799748,0.9834979414025916
2015-10-22,1,0.0017140740045053656,0.002014989026181385,-0.004300302428735959,0.018363740663542703,0.9848871206252726
2015-10-26,1,0.001778967067212402,0.002068310155186316,-0.0058331640012650515,0.018363740663542703,0.9830438203778391
2015-10-28,1,0.002839925015627157,0.003283167070277359,-0.0058331640012650515,0.010525556543075411,0.984153348010509
2015-10-30,1,0.0036873164028306702,0.004233461814916256,-0.0033504279894790365,0.010525556543075411,0.9845518071787186
2015-11-03,1,0.003574019811624475,0.0041102193125779965,-0.0034180417422008443,0.006981168293789648,0.9854695246391335
2015-11-05,1,0.005751225042708858,0.006559720236026011,-0.0034180417422008443,0.006981168293789648,0.9892891972508133
2015-11-09,1,0.00632014315448323,0.007172888217987573,-0.0034590526377153595,0.006981168293789648,0.9880205474164007
2015-11-11,1,0.00478151655781954,0.005485366134674858,-0.0034590526377153595,0.006981168293789648,0.9891065233138562
2015-11-13,1,0.0040928561051445655,0.004681511244407694,-0.0034429854814942195,0.006981168293789648,0.9885800669169234
2015-11-17,1,0.0037905810862006633,0.004296289135394353,-0.0034429854814942195,0.008411666387471756,0.9882975498119183
2015-11-19,1,0.003841904578678005,0.004295244528047573,-0.013129310517775584,0.006090517321003849,0.9868495148022872
2015-11-23,1,0.004260621628221016,0.004786313328449089,-0.007194114490890754,0.007684228008158324,0.9891876089213429
2015-11-25,1,0.0050165361890392385,0.005640298598586869,-0.007194114490890754,0.011480116214095896,0.9884996923159968
2015-11-30,1,0.004232050563012312,0.004776769898008427,-0.007194114490890754,0.011480116214095896,0.9885697903512302
2015-12-02,1,0.004510593743034174,0.005100045974651966,-0.013129310517775584,0.007052871287012288,0.9881265948973169
2015-12-04,1,0.004752469918690971,0.005359075613498458,-0.013129310517775584,0.005776580694012875,0.9878867146688923
2015-12-08,1,0.004196247781358932,0.004717142334229885,-0.015360169850267663,0.005776580694012875,0.9854753013793779
2015-12-10,1,0.0036061418041667776,0.004038192800393937,-0.017129611409463584,0.005776580694012875,0.985582262505076
2015-12-14,1,0.0028506310536069385,0.0031883218189758212,-0.017129611409463584,0.005776580694012875,0.9839242963338165
2015-12-16,1,0.0031002222426059424,0.00342066023966059,-0.019432823145617097,0.003770531258348255,0.979773604633623
2015-12-18,1,0.0016586887933533047,0.0017542927341965436,-0.017627009816452745,0.0059932024182360755,0.9802885850369376
2015-12-22,1,0.0024207631085164903,0.002626023819787148,-0.017627009816452745,0.003770531258348255,0.9798391335945627
2015-12-24,1,0.0037094652715127198,0.004192450127054037,-0.021308452637962404,0.003770531258348255,0.9787903578746712
2015-12-29,1,0.003162260559107916,0.003524988586629708,-0.02884159664583618,0.001766712082801792,0.9758091102789536
2015-12-31,1,0.002973217116246248,0.003357236001229439,-0.02884159664583618,0.007230701565417044,0.9750721738338453
2016-01-05,1,0.002704611186502153,0.003068625243200491,-0.03671378589936989,0.01146747591658293,0.9703330512966201
2016-01-07,1,0.0006717809680002248,0.0007544151680576787,-0.03671378589936989,0.01146747591658293,0.9708628429671367
2016-01-11,1,0.0005201329152630529,0.0005719905730260257,-0.037666899238499925,0.01146747591658293,0.968099787160795
2016-01-13,-1,-0.0019900937762757876,-0.0017072998131429239,-0.03671378589936989,0.019353702877387288,0.9705751833858729
2016-01-15,-1,-0.0049691504290598505,-0.004276147352491077,-0.02884159664583618,0.019353702877387288,0.9731259983928598
2016-01-20,-1,-0.0057408665004110085,-0.004930477543803727,-0.02277508255436873,0.02450631324348245,0.9716712558579162
2016-01-22,-1,-0.006606153717097305,-0.00561730633846559,-0.02277508255436873,0.027556028429045552,0.9701749049579595
2016-01-26,-1,-0.006698275812106297,-0.00563214345235998,-0.020542168474921175,0.027556028429045552,0.9711577291851716
2016-01-28,-1,-0.008636729138830306,-0.007357699536922633,-0.011168234774567645,0.03463311236661094,0.9707285477724167
2016-02-01,-1,-0.006652543317648332,-0.005634151570827185,-0.011168234774567645,0.03645475958025499,0.9707369010748058
2016-02-03,-1,-0.005558485409604703,-0.004649355979492837,-0.010328092398227203,0.027950147612816202,0.9755855815843741
2016-02-05,-1,-0.007799440743183684,-0.006623570108735976,-0.0030667703708324,0.03455384306541822,0.9744273529353317
2016-02-09,-1,-0.009924518035571674,-0.008524408445146583,-0.001248328701556852,0.03455384306541822,0.9753585281858433
2016-02-11,-1,-0.009582750712735361,-0.008210515579314893,-0.001248328701556852,0.03455384306541822,0.9760604662595317
2016-02-16,-1,-0.008201115552791117,-0.007005578745145985,-0.00391786546720255,0.028518711124447833,0.9787902107527753
2016-02-18,-1,-0.006231191630371195,-0.005268376815047446,-0.00391786546720255,0.015508978130251854,0.9821335317400905
2016-02-22,-1,-0.004976118165140009,-0.004129328768912603,-0.00391786546720255,0.012133197462799901,0.9843442527529976
2016-02-24,-1,-0.006555125181714452,-0.0054592587716169715,-0.0030589420112823347,0.012133197462799901,0.9838002953338324
2016-02-26,-1,-0.005452111187228395,-0.004480429667373613,-0.0035826877659940705,0.011604976193211903,0.9864981176824883
2016-03-01,-1,-0.0035225877807648063,-0.002794127874075319,-0.00481575410025896,0.011604976193211903,0.9894408518069069
2016-03-03,-1,-0.0024248317174914635,-0.0019024627765577855,-0.005925850578718465,0.011604976193211903,0.9894365997430175
2016-03-07,1,0.0007876872918772173,0.0008038528116074967,-0.007341684757065758,0.007128423137043729,0.9911038877696698
2016-03-09,0,-0.00010312623619999933,2.4695041074553623e-05,-0.007341684757065758,0.00833793835789358,0.9906524850653972
2016-03-11,0,-2.568536537138203e-05,7.813819325248655e-05,-0.005925850578718465,0.007128423137043729,0.9914505431060813
2016-03-15,-1,-0.0002827507221422951,-0.00014451841682803444,-0.006565576552679362,0.00833793835789358,0.9894378319472046
2016-03-17,1,0.00016249829493675825,0.0002362721238557145,-0.006565576552679362,0.007128423137043729,0.9895287081706651
2016-03-21,1,0.0008830934421828367,0.0009196035406459275,-0.006565576552679362,0.007128423137043729,0.9898969040134276
2016-03-23,1,0.000894834350771171,0.0009832359909470222,-0.00481575410025896,0.0083150693409185,0.990074195243577
2016-03-28,1,0.0006850086239822128,0.0007353272748098856,-0.00645611576054108,0.008530903770004965,0.9894770633037222
2016-03-30,1,0.0016260121974750017,0.0018726985133999704,-0.0023325513136369215,0.008530903770004965,0.9901293662973462
2016-04-01,1,0.0030252871321914732,0.003612739148168607,-0.0023325513136369215,0.008530903770004965,0.9900076833294142
2016-04-05,1,0.0027865383144300006,0.0033450629077732344,-0.0023325513136369215,0.01152023659374054,0.989118067684509
2016-04-07,1,0.002201016926540767,0.0026485872790139725,-0.005653743042099386,0.008530903770004965,0.9889280845584677
2016-04-11,1,0.0020866973180442964,0.0024776665071238203,-0.005653743042099386,0.008530903770004965,0.9890524683991734
2016-04-13,1,0.0027063177850002442,0.0032016389876168647,-0.005653743042099386,0.008530903770004965,0.9904637754787046
2016-04-15,1,0.0033682707725892565,0.003984666932187169,-0.008883509883315833,0.008530903770004965,0.9894766835131553
2016-04-19,1,0.0038166455739012508,0.004504015387367897,-0.010906805487560067,0.008530903770004965,0.9880955658036578
2016-04-21,1,0.004316419839672446,0.005076419061645672,-0.010906805487560067,0.006683824774392498,0.9874487390575802
2016-04-25,1,0.004441184015006316,0.005233396594934886,-0.01652006547826644,0.008111220925237783,0.9864120242169067
2016-04-27,1,0.005389073606721422,0.006337695219596967,-0.01652006547826644,0.0090900735049701,0.9855632020652788
2016-04-29,1,0.004875480030492461,0.005775986718905276,-0.014293088058010533,0.013376534766057296,0.985863489138548
2016-05-03,1,0.004853552088196626,0.005718534623777164,-0.014293088058010533,0.0090900735049701,0.9865377888278847
2016-05-05,1,0.003872359732997605,0.004590246097144173,-0.010193741858894198,0.009234540923124297,0.9880740065818762
2016-05-09,1,0.003438640936349985,0.0040329040471106595,-0.010193741858894198,0.009234540923124297,0.9879562498489117
2016-05-11,1,0.0038362647475651173,0.004515331770141627,-0.01287729569220229,0.007745739965935113,0.9878352857010128
2016-05-13,1,0.002746310011033349,0.0032169316792904435,-0.01287729569220229,0.007745739965935113,0.9874378814549336
2016-05-17,1,0.0031512323286139983,0.0037152901235886267,-0.009159709154339755,0.007745739965935113,0.9883326651100792
2016-05-19,1,0.003161319386485708,0.0037505947886375193,-0.009159709154339755,0.007745739965935113,0.9887868866738033
2016-05-23,1,0.003035883769173203,0.003619853431944736,-0.005871145368400835,0.008132728111752903,0.9897714644339405
2016-05-25,1,0.003612071739972965,0.004236838770463297,-0.008969492843899363,0.008132728111752903,0.9889257405620744
2016-05-27,1,0.0035395202279603732,0.004135172585682777,-0.012072403848500324,0.006861862801369363,0.9829529588558458
2016-06-01,1,0.0020813464567777107,0.002369763752474753,-0.008969492843899363,0.01052666207258009,0.9821541741364623
2016-06-03,1,0.001845257855937718,0.002079227688821043,-0.0068420435997876925,0.015683112181605934,0.9820970860527652
2016-06-07,1,0.0007816251311571489,0.0008050246327671563,-0.012072403848500324,0.015683112181605934,0.9807852523186245
2016-06-09,-1,-0.00020113587220500577,-1.982519019032476e-05,-0.0068420435997876925,0.01643801225824658,0.9796084743300577
2016-06-13,-1,-0.0017498619431866402,-0.0013472276865373557,-0.001994164638234719,0.017614800104682714,0.9787497549519537
2016-06-15,-1,-0.0011822707114091606,-0.0008695496740310047,-0.003411048132709857,0.019620158755715295,0.9783427063214779
2016-06-17,-1,-0.0015161495299472662,-0.0011425884910041696,-0.004543224732483206,0.019620158755715295,0.9782905283290951
2016-06-21,-1,-0.0020954402413504514,-0.0015646520921172439,-0.008557125047206916,0.019620158755715295,0.9784980777024668
2016-06-23,-1,-0.0009811289857560757,-0.000642584786159387,-0.008557125047206916,0.01915945541467911,0.9791086662743359
2016-06-27,-1,-0.00567775535749699,-0.004800010793280223,-0.004432882618342588,0.01915945541467911,0.9836106702437339
2016-06-29,-1,-0.005132789606448617,-0.004217398848664874,-0.004432882618342588,0.015428044220339538,0.9858592451690217
2016-07-01,-1,-0.005958221130221859,-0.004833939122143811,-0.004432882618342588,0.013481330268844047,0.9863718125744259
2016-07-06,-1,-0.007004424256598637,-0.005755568844698314,-0.004432882618342588,0.013481330268844047,0.9858773217562684
2016-07-08,-1,-0.005123659488097471,-0.004148189395300367,-0.004432882618342588,0.013481330268844047,0.9874546103395476
2016-07-12,-1,-0.0027652530226848562,-0.0021589724271757456,-0.004432882618342588,0.013481330268844047,0.9894671350972087
2016-07-14,-1,-0.0013958854386021456,-0.001034634602535487,-0.0029122500786522756,0.013481330268844047,0.9900200467669678
2016-07-18,-1,-0.002099433421302113,-0.00161465937935544,-0.0012100343824235377,0.01519092904572892,0.9887891956134798
2016-07-20,-1,-0.0013943767721807975,-0.0010435562920080702,-0.0012100343824235377,0.01519092904572892,0.9897352778849353
2016-07-22,0,-5.208590673789836e-05,5.0573338460252546e-05,-0.00016573133670114918,0.012182761840159517,0.9910345241303566
2016-07-26,1,1.268671064003432e-05,9.607238386359634e-05,-0.00016573133670114918,0.012182761840159517,0.9914891664010271
2016-07-28,1,0.0013075384016205415,0.0014887452667110466,-0.00016573133670114918,0.009119454484507338,0.9922270280110483
2016-08-01,1,0.0009750274134340211,0.0010668688187504948,-0.0016396495715245828,0.012565198428275404,0.9879438132367472
2016-08-03,1,5.42903222479955e-05,8.452846610373971e-05,-0.004326013635441227,0.012565198428275404,0.9885069073955305
2016-08-05,1,0.0006306229719713779,0.0006620587391026322,-0.004326013635441227,0.009951705501738791,0.9892877619311471
2016-08-09,1,0.0012463470700406108,0.0013795303970800447,-0.004603663128804126,0.009951705501738791,0.989286508039752
2016-08-11,1,0.0021280330385000977,0.002408576982293762,-0.0048388211324312215,0.00866751688475082,0.9890461461941796
2016-08-15,1,0.002430461913656305,0.0027214416449632723,-0.005694781084729558,0.007820170438480134,0.9883231370058354
2016-08-17,1,0.002184899510093646,0.0024344904635033014,-0.005293875021924536,0.00866751688475082,0.9871012076991833
2016-08-19,1,0.0026913702115375485,0.0030285097087456216,-0.005293875021924536,0.00797768907396883,0.9873287222237705
2016-08-23,1,0.0024877716749283412,0.0027902599504829846,-0.004603663128804126,0.009546680060923293,0.9855366587320521
2016-08-25,1,0.002404131650955751,0.0026706189005420663,-0.005525415505479722,0.009546680060923293,0.985234510749956
2016-08-29,1,0.004220361212689741,0.004697489978642231,-0.005586920423911315,0.009546680060923293,0.9886405773687148
2016-08-31,1,0.0037873023878867654,0.0042150915286011635,-0.005586920423911315,0.009873350943237868,0.9884906803954394
2016-09-02,1,0.004063686761820074,0.004549325695173901,-0.008523783386683468,0.010360325881228373,0.9877251047388601
2016-09-07,1,0.004321584940708886,0.004857155389706802,-0.008523783386683468,0.010360325881228373,0.9875779594304678
2016-09-09,1,0.003628449107238036,0.004088120409439171,-0.008523783386683468,0.010360325881228373,0.9879838467705377
2016-09-13,1,0.003297972903972626,0.003737343413112558,-0.008523783386683468,0.010360325881228373,0.9878946574531586
2016-09-15,1,0.0038945324626392585,0.004406215315680725,-0.00986384336065756,0.009849741517076524,0.9884473949865529
2016-09-19,1,0.004376469767429088,0.0049883166865917474,-0.00986384336065756,0.009849741517076524,0.9878416536154984
2016-09-21,1,0.005284226803169421,0.005966028883124154,-0.00986384336065756,0.009535571720379473,0.9887695039233387
2016-09-23,1,0.005252345814132937,0.0059391280183020215,-0.009401304308830356,0.009535571720379473,0.9893945973079342
2016-09-27,1,0.0046867990825226365,0.005237498734559646,-0.011421335779504535,0.009535571720379473,0.9892534079177496
2016-09-29,1,0.004452939026980098,0.004974682459237928,-0.010171803656304636,0.006025789531176521,0.9895416429064223
2016-10-03,1,0.004208623732657466,0.004697456223087227,-0.00903887484331917,0.006700635238944738,0.9901956648490859
2016-10-05,1,0.004533784106940465,0.005022837381444031,-0.011421335779504535,0.005169826785663561,0.9882032824126572
2016-10-07,1,0.003911552868213279,0.004313485571537887,-0.012627911048757233,0.006700635238944738,0.987569445227859
2016-10-11,1,0.0029026737406699157,0.0031465184116357464,-0.010334047382970982,0.010840240066986865,0.9873910405656195
2016-10-13,1,0.0021356349373777618,0.002256463717346711,-0.00903887484331917,0.01253334911391853,0.9875906196333932
2016-10-17,1,0.002283835090129125,0.002478206003671901,-0.005094206257044159,0.01253334911391853,0.9878098742650214
2016-10-19,1,0.0029937343268948776,0.0032890411051029285,-0.005094206257044159,0.015492001749498663,0.9866635130148218
2016-10-21,1,0.0027206132569004985,0.002941484188233418,-0.010334047382970982,0.015492001749498663,0.9852776972589798
2016-10-25,1,0.0026193246956924894,0.0028178931869497744,-0.011251904296523067,0.013414492320730153,0.9852095065760796
2016-10-27,1,0.0022272409692211913,0.0023783455376292935,-0.0069735042053356965,0.013414492320730153,0.9854612250047167
2016-10-31,1,0.0024631676302863175,0.0026124230773716577,-0.010323742605525685,0.011565336474860615,0.9857901591574312
2016-11-02,1,0.00012659946605323574,0.00031840033399479833,-0.010323742605525685,0.011565336474860615,0.9844281013684035
2016-11-04,1,0.0005249471528768724,0.0006660089803429959,-0.0052215868692736195,0.011565336474860615,0.9851623345930876
2016-11-08,1,0.0018747527955863075,0.001875547806474858,-0.0052215868692736195,0.01375638733260139,0.9813455251436324
2016-11-10,1,0.002441171962891184,0.0025445977293295048,-0.007923454878804043,0.017945222511698493,0.9807975429967465
2016-11-14,1,0.0026268894804418355,0.0027686738536063385,-0.010915230640751547,0.017945222511698493,0.9787773276769401
2016-11-16,1,0.0011699759138788697,0.001516341655624748,-0.018429763044539513,0.01679743071265888,0.9783242559320438
2016-11-18,1,0.0015323725582142428,0.0017577024143044752,-0.02118841498430612,0.01679743071265888,0.9776076007192495
2016-11-22,1,0.0007118745829307504,0.0010066820223884664,-0.01537845100674631,0.01679743071265888,0.9784796950220407
2016-11-25,0,-9.01183773880862e-07,0.0004366485197553104,-0.01814181960988523,0.017829452675854722,0.9774479934472582
2016-11-29,1,0.00021023581834875814,0.0005578684261950214,-0.01814181960988523,0.017829452675854722,0.9772085639053878
2016-12-01,-1,-0.002375777795319444,-0.0017916511932510682,-0.012710443506434549,0.017829452675854722,0.9805184115139962
2016-12-05,-1,-0.0012431943636163018,-0.0008079232060323963,-0.012710443506434549,0.01795238587217279,0.9796443886480556
2016-12-07,1,0.0031140101958066664,0.0031806022892665394,-0.012710443506434549,0.01746693727523119,0.9830377337712524
2016-12-09,1,0.003158519553971187,0.0032251187087314038,-0.012710443506434549,0.0168384084447649,0.9841407625090879
2016-12-13,1,0.0023625216875817626,0.0023930782426805535,-0.010807869020266545,0.012743298003232772,0.9859734087286097
2016-12-15,1,0.0016402269443725752,0.001766612152175865,-0.010807869020266545,0.0090125524785435,0.9871261450139499
2016-12-19,0,-2.5243251972054213e-05,0.00028314988986339717,-0.0056522777681024365,0.011811857795074886,0.9885618995674444
2016-12-21,0,-0.0002708333028494812,6.543750031722353e-05,-0.003943045913217964,0.014795549847075599,0.9878880459172475
2016-12-23,-1,-0.0010859027478316405,-0.000590333516716978,-0.0018739112483651503,0.011811857795074886,0.9886364363726124
2016-12-28,-1,-0.0013801388955763728,-0.0008846946123302751,-0.0018739112483651503,0.011811857795074886,0.9884569325159875
2016-12-30,-1,-0.0018118218918043614,-0.0012880922442460175,-0.0018739112483651503,0.011811857795074886,0.9884249152374104
2017-01-04,1,0.00020199339217586505,0.00045893758947257077,-0.0018739112483651503,0.0090125524785435,0.9904116562174287
2017-01-06,1,0.001268526331399204,0.00137370100862342,-0.0018739112483651503,0.0090125524785435,0.9906144720222637
2017-01-10,1,0.0012268062018048634,0.001354951057818553,-0.003874956114022657,0.011811857795074886,0.9890085335764995
2017-01-12,1,0.0015630775256241579,0.0016308927971597758,-0.007441172994185505,0.012057583041704659,0.988765317376433
2017-01-17,1,0.00018268474218450072,0.00042947356815992545,-0.0030284368785094898,0.012927718326588648,0.9898991832129429
2017-01-19,1,0.0006272211391158795,0.0008218568086502279,-0.0034315131590846866,0.011745452604261637,0.9902197508599128
2017-01-23,1,0.0027828226468728664,0.0029789717757065393,-0.0034315131590846866,0.011745452604261637,0.9906885900464019
2017-01-25,1,0.0027730470138855666,0.0029293341555789044,-0.007441172994185505,0.011745452604261637,0.9902097114634467
2017-01-27,1,0.0023242175628817455,0.0024319446207048162,-0.0034315131590846866,0.011745452604261637,0.99079776146846
2017-01-31,1,0.002078049261667889,0.0021648208621844445,-0.003534153148814516,0.013161485799591106,0.9889152625104186
2017-02-02,1,0.0019674430777804125,0.0019780222107675877,-0.01072955967838276,0.011745452604261637,0.9875663541808806
2017-02-06,1,0.0013612443498077875,0.0014660007771405926,-0.01197017447416488,0.009798407119621658,0.9873864683712588
2017-02-08,1,0.001690983176657457,0.0017190888831299027,-0.009248928500248681,0.00987318677895333,0.9881556814224897
2017-02-10,1,0.001798666685442986,0.0018004004226077118,-0.009248928500248681,0.01016323187391466,0.9878617707054886
2017-02-14,1,0.0030745207111392684,0.003347617943591718,-0.009370558254479794,0.010709129784360139,0.9869118822342248
2017-02-16,1,0.0031310831728966664,0.0034034285379411417,-0.01197017447416488,0.010709129784360139,0.9859486760571153
2017-02-21,1,0.0037932337465575385,0.004151442812549932,-0.01683508441704779,0.008587902859053429,0.9849026427017201
2017-02-23,1,0.0035036850391525895,0.0038049228056557956,-0.01683508441704779,0.011829365201491769,0.9849467264559525
2017-02-27,1,0.003465740610625043,0.0037384333960173914,-0.01683508441704779,0.011829365201491769,0.9840529983372398
2017-03-01,1,0.004260676179705842,0.004692113070824514,-0.013545467457429423,0.011030198465662507,0.9858119134389911
2017-03-03,1,0.0022661792464871017,0.0023894111480999352,-0.009370558254479794,0.011030198465662507,0.9879011670941866
2017-03-07,1,1.3693001205489978e-05,0.00022194877231470624,-0.006659647784306007,0.011030198465662507,0.9888874479622296
2017-03-09,1,0.0005377823497679702,0.0007208721174076064,-0.009754650446074417,0.009634720486919098,0.9890534274179802
2017-03-13,1,0.0012761002550708252,0.0013964525528380035,-0.009754650446074417,0.00947963596933507,0.9894979831447843
2017-03-15,1,0.00242208773802668,0.002487440871241619,-0.007416734989750965,0.008728051963951853,0.9907509340377714
2017-03-17,1,0.0013049913842144915,0.0013748193509590463,-0.005937753639809854,0.00947963596933507,0.9912507257544597
2017-03-21,0,-0.0001232388210687346,0.00011578323590616293,-0.004515291132067053,0.010415760743413743,0.9916558388286474
2017-03-23,1,0.0003596288160690697,0.0005725933956120055,-0.004515291132067053,0.008728051963951853,0.9926121991540144
2017-03-27,1,0.0005626197209543597,0.0007114711984520957,-0.0017701526350992758,0.008988398716116735,0.9927535446826491
2017-03-29,-1,-0.0004875819644738083,-0.00010986198476618846,-0.0018230046826392466,0.006899265206755852,0.9928362476932239
2017-03-31,-1,-0.00048691041941133304,-0.00013323029809844764,-0.004515291132067053,0.008988398716116735,0.991604666690168
2017-04-04,-1,-0.0003548169461842144,-9.18580070593221e-05,-0.00101483104038783,0.010875327435185376,0.99158509827591
2017-04-06,-1,-0.0007185262314984412,-0.0004267719716031089,-0.00101483104038783,0.010875327435185376,0.9925416499270275
2017-04-10,0,-0.00013450668520205206,9.330613134110285e-05,-0.00101483104038783,0.013153334025151049,0.9928671615665264
2017-04-12,1,0.0009463031161905811,0.000947308447644175,-0.00101483104038783,0.013153334025151049,0.9926238019882739
2017-04-17,1,0.0007882717680001711,0.0008286847950389037,-0.00040635392845154875,0.013363306121911583,0.9929860490877921
2017-04-19,1,0.0009651872902862106,0.0010312989021287688,-0.00101483104038783,0.013363306121911583,0.9913123330028623
2017-04-21,1,0.0012944830295238542,0.0013216728640506044,-0.00101483104038783,0.014861619001522818,0.98586069480158
2017-04-25,1,0.0014028874790349953,0.001407431759350186,-0.0010703612359841508,0.014861619001522818,0.9849929998537595
2017-04-27,-1,-0.0004462790100037877,-7.944049710275334e-05,-0.0016635061055290388,0.014861619001522818,0.9844242738729738
2017-05-01,1,0.0003708294519080965,0.0006033348541259722,-0.0016635061055290388,0.01446368727516717,0.9853705247691318
2017-05-03,1,0.0026987330191074947,0.0029795916690831684,-0.003664625117473734,0.013363306121911583,0.9850242250545482
2017-05-05,1,0.0026696493243286963,0.0029587425657586477,-0.004452600443830018,0.013363306121911583,0.9841650044829028
2017-05-09,1,0.002722826208879488,0.0029824858063315224,-0.004452600443830018,0.0126514556391237,0.9843980061486862
2017-05-11,1,0.0025253115797253265,0.0027408205980132523,-0.005140849630968862,0.0126514556391237,0.9826758643189195
2017-05-15,1,0.002227230976969686,0.0023121465777710707,-0.005140849630968862,0.012917467081379079,0.9826905077755876
2017-05-17,1,0.0011406838964563616,0.0012045661511709022,-0.0062662845266475056,0.011588758811018335,0.9845922562916051
2017-05-19,1,0.004574431064727841,0.004957298373951691,-0.006860352918707951,0.006673809929423053,0.9881258936961899
2017-05-23,1,0.004822955475972075,0.005203902463035253,-0.008559942450265342,0.005666253559682923,0.9888047830073732
2017-05-25,1,0.004488084862916741,0.004787559591643682,-0.008559942450265342,0.007703235564046446,0.9892627137499177
2017-05-30,1,0.004740461136261045,0.005142409749995133,-0.012350754935048945,0.007703235564046446,0.987322881646298
2017-06-01,1,0.004731464897192145,0.005163302724563271,-0.013196164416784702,0.007703235564046446,0.9864891200998122
2017-06-05,1,0.003990007027476222,0.004329354106688636,-0.013034579407791458,0.007703235564046446,0.9866242988223701
2017-06-07,1,0.003956629668109806,0.004295032279261452,-0.013034579407791458,0.009391368552913917,0.9851603859160943
2017-06-09,1,0.0019333779778801083,0.0019500119383444468,-0.011827826468504336,0.01078598025741835,0.9875083487859938
2017-06-13,1,0.002402403213238938,0.0025022072222958282,-0.011827826468504336,0.01078598025741835,0.9870006982891146
2017-06-15,1,0.001967150781172248,0.002034385553486328,-0.007869144126893922,0.012264575819667566,0.9873305281002465
2017-06-19,1,0.002160578089360649,0.0022684690559766512,-0.012310048226748225,0.010846070548748376,0.987157064403847
2017-06-21,1,0.0016526565272931204,0.0016660653618403329,-0.007836701087699962,0.012637173289159346,0.9866161872192588
2017-06-23,1,0.0019212840787238541,0.001952312982998567,-0.007836701087699962,0.012637173289159346,0.9868940381654946
2017-06-27,1,0.0005285027193189459,0.0006410325104775952,-0.003653045069023706,0.013809928745538854,0.9876920578458515
2017-06-29,0,-0.00012671416083371917,7.020625214889699e-05,-0.003653045069023706,0.013713441338734665,0.9884534959006996
2017-07-03,-1,-0.0009407791525610677,-0.0006468399746540064,-0.0018627940893496222,0.013713441338734665,0.9886069298728946
2017-07-06,0,-0.00013128987563778736,7.088303527501717e-05,-0.0039048264561285383,0.012605010820224615,0.989175529400327
2017-07-10,1,0.0005588076222273681,0.000659706472709707,-0.0039048264561285383,0.013112402870993625,0.989181581933314
2017-07-12,1,0.0014610406346957606,0.0014714205974791646,-0.009093378745622032,0.01051509487920984,0.9893370658917885
2017-07-14,1,0.002219097934931932,0.002368047831447592,-0.01193705967399031,0.01051509487920984,0.987591002522366
2017-07-18,1,0.0017824358718040974,0.0018634119238533997,-0.009093378745622032,0.01051509487920984,0.9881298185259659
2017-07-20,1,0.0023422943065336535,0.0025035920532363552,-0.01193705967399031,0.0086129305558055,0.9880219690016725
2017-07-24,1,0.002668344912763482,0.002889353182700061,-0.01193705967399031,0.008938783257491551,0.9880271092930525
2017-07-26,1,0.0026380509816682214,0.0027722741873346013,-0.01193705967399031,0.008246098150953424,0.9884239117904223
2017-07-28,1,0.000917138243981811,0.0010713950197452614,-0.009093378745622032,0.008938783257491551,0.9876928710557458
2017-08-01,1,0.0011139957779956737,0.0012074234098704928,-0.01193705967399031,0.008938783257491551,0.9865645346853625
2017-08-03,1,0.0003907216494886772,0.0005304699796673908,-0.004508824540345062,0.011091441503718233,0.9868295860298877
2017-08-07,1,0.0011955192391641513,0.0012153191093443047,-0.006990987758347962,0.010486022158651446,0.9872606742031487
2017-08-09,-1,-0.0002610270096492079,-2.5056291003007795e-05,-0.0022235937289625664,0.010486022158651446,0.9882055405879892
2017-08-11,-1,-0.0008584852390893694,-0.0005011734354822242,-0.0007420829041603686,0.010486022158651446,0.9894741442604121
2017-08-15,0,-5.721653513593775e-05,0.00017656961848005104,-0.002099667110673537,0.010486022158651446,0.9904265552304922
2017-08-17,-1,-0.0009425055669951689,-0.0005917614322705629,-0.002871176666382116,0.010486022158651446,0.9908673007170526
2017-08-21,-1,-0.0003548154903434906,-8.388719529647348e-05,-0.003960017103898829,0.0051465260152965585,0.9914236487205446
2017-08-23,-1,-0.00029593761942511756,-2.568571872775755e-05,-0.004455164400513764,0.002568584012893115,0.9918175325896325
2017-08-25,1,0.00043003647003301713,0.0006541152999576872,-0.0062215260085323795,0.0009669598474288399,0.9924408339054056
2017-08-29,-1,-0.0011731620688440194,-0.0007399029515329017,-0.00493417248929307,0.0043630600051233715,0.9933923102456462
2017-08-31,0,-0.00010182493710192788,0.0001843711967537278,-0.0049442127649506765,0.002568584012893115,0.9941328716006719
2017-09-05,-1,-0.0005950686985508021,-0.00024333777682078016,-0.00454517712699406,0.0043630600051233715,0.9939203426155174
2017-09-07,-1,-0.0007134048463611673,-0.0003435871121966578,-0.00454517712699406,0.007212168364522867,0.9927916114040307
2017-09-11,1,0.00019576505951001777,0.00042923756620655285,-0.00454517712699406,0.004570593045565872,0.9934999062078338
2017-09-13,0,-1.3639685438630303e-05,0.00024023963649759416,-0.00454517712699406,0.007212168364522867,0.9929911165053689
2017-09-15,-1,-0.00046916967238877516,-0.0001860862636221789,-0.0032971434762681454,0.007212168364522867,0.9933695462431519
2017-09-19,-1,-0.0009387291996386068,-0.0005998437124127052,-0.0036716022915937855,0.007212168364522867,0.9933800367147226
2017-09-21,-1,-0.001097151344342263,-0.0007554235095374548,-0.002035735983744679,0.007212168364522867,0.9931894221216704
2017-09-25,-1,-0.0017294739233875073,-0.001333606478851186,-0.0009552538880958187,0.008029366415475895,0.9924983565974569
2017-09-27,-1,-0.0012427614834003792,-0.0008962776416413834,-0.0009552538880958187,0.006562203604233515,0.9932943214376877
2017-09-29,-1,-0.0009895958664692748,-0.0006932995858882396,0.0009621726911426721,0.010674330721656118,0.9923849434901493
2017-10-03,-1,-0.0005689380163169352,-0.00032904345699557246,0.0009621726911426721,0.00929435251625857,0.9926316538931498
2017-10-05,1,0.0004220904988357124,0.0005298651448241912,-0.0009363259727320572,0.006863697426630816,0.9941163661700968
2017-10-09,0,-0.0001393046311769198,8.664541502248339e-05,-0.0014593913156083589,0.006863697426630816,0.9938269087007021
2017-10-11,1,0.0029197007586677197,0.0032874931787744742,-0.0019851327701490467,0.005668433629218709,0.9945539860053224
2017-10-13,1,0.0037524230199232397,0.004293902781184601,-0.0034426091090928902,0.005932229078577263,0.9936668152645836
2017-10-17,1,0.003537560414675827,0.004066997414854808,-0.0019851327701490467,0.006863697426630816,0.9935734539928907
2017-10-19,1,0.003514738102675702,0.0040231128423593885,-0.0019283490240577625,0.00929435251625857,0.9928309633017542
2017-10-23,1,0.003287580347996,0.003759774983701892,-0.0019283490240577625,0.006468948318878752,0.9935744124028395
2017-10-25,1,0.0030878153181512534,0.0034856285520895557,-0.0019283490240577625,0.00918640244514441,0.9931716775616184
2017-10-27,1,0.004194400279521402,0.004739912703045868,-0.0019283490240577625,0.006468948318878752,0.9934961166673907
2017-10-31,1,0.003333082711199976,0.003654657821622988,-0.004088445706196517,0.005735907610070745,0.9885635894850547
2017-11-02,1,0.002681249885348313,0.002962177208718394,-0.0066957964045521335,0.005735907610070745,0.9877140558595277
