JNU-Tangyin/eata/results/Batch4_SP500/Batch4_SP500-APA.csv
Date,Action,Predicted_Q25,Predicted_Q75,Actual_Q25,Actual_Q75,RL_Reward
2010-12-14,0,0.0,0.0,2.2101475860845043e-05,0.008741004134034712,0.9933718803823838
2010-12-16,0,0.0,0.0,2.2101475860845043e-05,0.008741004134034712,0.9925667662463576
2010-12-20,1,0.00017496083531650725,0.00017619132823099668,2.2101475860845043e-05,0.009388901188749618,0.9909495313037763
2010-12-22,1,0.00017937839880773006,0.0001827199298586881,-0.00047949467877511165,0.010117096398818077,0.9908401510343666
2010-12-27,0,0.0,0.0,-0.006335940154813896,0.010117096398818077,0.9897834882731054
2010-12-29,0,0.0,0.0,-0.008644095596574797,0.00931280245266453,0.9877905425136884
2010-12-31,0,0.0,0.0,-0.010949035467938843,0.011885074035091071,0.9856613076694556
2011-01-04,0,0.0,0.0,-0.010949035467938843,0.011885074035091071,0.9857239338420448
2011-01-06,0,0.0,0.0,-0.012583469281361061,0.00931280245266453,0.9862168811207113
2011-01-10,0,0.0,0.0,-0.012583469281361061,0.00810748045226332,0.9866523096323355
2011-01-12,0,0.0,0.0,-0.012583469281361061,0.008869178307225,0.9859914159680442
2011-01-14,0,0.0,0.0,-0.012583469281361061,0.012526736549812286,0.9851536875650317
2011-01-19,0,0.0,0.0,-0.012583469281361061,0.011726061091897364,0.9859730990997495
2011-01-21,0,0.0,0.0,-0.012583469281361061,0.010380616920886203,0.9862545624970709
2011-01-25,0,0.0,0.0,-0.012583469281361061,0.012526736549812286,0.9846151504053758
2011-01-27,0,0.0,0.0,-0.011744131552052344,0.014535286724118704,0.9857292832394203
2011-01-31,1,0.0015129100764586837,0.0016462971489491778,-0.011744131552052344,0.012526736549812286,0.9863723821106828
2011-02-02,1,0.0021725205827406355,0.0022043089844559064,-0.011744131552052344,0.012526736549812286,0.9859455858941906
2011-02-04,1,0.0006383760854736971,0.0008633543862019573,-0.011981066113929599,0.012526736549812286,0.9863334108774874
2011-02-08,1,0.0004774699547833944,0.00074146728917437,-0.011981066113929599,0.012526736549812286,0.9864047500045087
2011-02-10,1,0.0005193160870783291,0.0007517167221522299,-0.01388817784766868,0.013286746019504051,0.9845085946868314
2011-02-14,1,0.0011410093495588464,0.0013119296800277519,-0.01388817784766868,0.009068842395822441,0.985144664648443
2011-02-16,1,0.0010213091582816347,0.0011432805716293521,-0.014084615889739376,0.012827952405483612,0.9828248345423035
2011-02-18,1,0.0003609765006259287,0.0005820372803511636,-0.014084615889739376,0.02491661239249734,0.98040656989091
2011-02-23,1,0.0007774324109257735,0.000943674328267641,-0.011423194808546852,0.018910127958132978,0.9823673385673702
2011-02-25,0,-1.981406459362206e-05,0.00019660897679781237,-0.011423194808546852,0.010851191559912592,0.98316365292703
2011-03-01,0,0.0,0.0,-0.010729745803931112,0.01427296024193991,0.9841606251926137
2011-03-03,0,0.0,0.0,-0.010729745803931112,0.01427296024193991,0.9845362499441092
2011-03-07,-1,-0.0006841682222698529,-0.00030530457555795975,-0.006059181769213749,0.01427296024193991,0.98546651078669
2011-03-09,-1,-0.00039381861746092927,-0.00022464596051322027,-0.008066103889627297,0.01427296024193991,0.9849133154549211
2011-03-11,0,0.0,0.0,-0.006424998668113191,0.01132470421770067,0.9872569673814336
2011-03-15,0,0.0,0.0,-0.008066103889627297,0.01132470421770067,0.9849589425739246
2011-03-17,0,0.0,0.0,-0.006424998668113191,0.008964955483763182,0.9883815710239163
2011-03-21,0,0.0,0.0,-0.008066103889627297,0.006498962640904111,0.9906525493919378
2011-03-23,0,0.0,0.0,-0.006424998668113191,0.00805570765734203,0.9902821468329702
2011-03-25,0,0.0,0.0,-0.006424998668113191,0.007452750031777017,0.9903163860646512
2011-03-29,0,0.0,0.0,-0.006424998668113191,0.007452750031777017,0.9893747362126162
2011-03-31,1,0.002443011151630821,0.0025749012019255935,-0.006424998668113191,0.008613240153762095,0.9879917495902879
2011-04-04,1,0.002324169187029162,0.002453103832901309,-0.012169272046037486,0.008613240153762095,0.9866893149726318
2011-04-06,1,0.002112784972567457,0.0022168865172016126,-0.01480782010218476,0.008613240153762095,0.9850736606081343
2011-04-08,1,0.0015472422715375714,0.0015769532786682886,-0.01480782010218476,0.012507644866425372,0.9844231204196972
2011-04-12,-1,-0.0012432852689602226,-0.000849900696480111,-0.012424972404964662,0.012507644866425372,0.9856809276620316
2011-04-14,-1,-0.0007718098521276479,-0.00048029173085840124,-0.012424972404964662,0.012507644866425372,0.9853934783144667
2011-04-18,-1,-0.002287166687275468,-0.0017566140260724407,-0.014236746463751785,0.012507644866425372,0.984916264960104
2011-04-20,-1,-0.0012212920691023865,-0.0008266927291281458,-0.014236746463751785,0.012193924216962936,0.9853186671892854
2011-04-25,-1,-0.0018201910875682563,-0.001351744431998155,-0.015813193354223,0.012193924216962936,0.9848898696468398
2011-04-27,1,0.0006639234459807857,0.0007256917131907763,-0.015813193354223,0.012193924216962936,0.9853956802872235
2011-04-29,1,0.0025984455317201076,0.0028134518534994038,-0.015813193354223,0.006943660607491323,0.986967236665903
2011-05-03,1,0.0007594670290033519,0.000833817758849476,-0.015813193354223,0.008438022720758269,0.9871192569098368
2011-05-05,-1,-0.0008909018460693694,-0.000642562288104363,-0.007639240050445886,0.008438022720758269,0.9890011148958832
2011-05-09,1,0.00048211142351400606,0.0005575068924289397,-0.01140328766013619,0.006353974096878278,0.9894092231373799
2011-05-11,-1,-0.0005575229227148818,-0.0003683390499602142,-0.007639240050445886,0.006943660607491323,0.9905253953486196
2011-05-13,-1,-0.00032590847356659915,-0.00016979827109924578,-0.014134167476675952,0.006921256309916251,0.9892074281564177
2011-05-17,-1,-0.0014513932455599652,-0.00117633988352837,-0.014134167476675952,0.008438022720758269,0.9885624662993543
2011-05-19,-1,-0.0006426278366812647,-0.0004655990865981971,-0.014134167476675952,0.007453542493970108,0.9889513324221543
2011-05-23,-1,-0.001049171325546825,-0.0008418028460338919,-0.010857217628225366,0.008438022720758269,0.9886463976066592
2011-05-25,-1,-0.00030569383085745223,-0.0001789072847380225,-0.010857217628225366,0.0068725753181945615,0.9891784680235757
2011-05-27,-1,-0.00014502027228917771,-6.793625330451738e-05,-0.012531682358207884,0.0068725753181945615,0.9886872374012264
2011-06-01,-1,-0.0007202003005863488,-0.000585728266356342,-0.010505079266039618,0.00826671777796713,0.9886233108579392
2011-06-03,0,0.0,0.0,-0.008687316472521902,0.011510708417185638,0.9881270871767325
2011-06-07,-1,-0.0009798261824541718,-0.0008895372755542941,-0.006918564771268471,0.011510708417185638,0.9886195676008321
2011-06-09,-1,-0.00017680541657407115,-0.00017037062175830856,-0.00811513190405504,0.012766854854044817,0.9881923397392545
2011-06-13,-1,-0.0016150324074655417,-0.0014261117149590385,-0.006918564771268471,0.012766854854044817,0.9882050305318181
2011-06-15,0,0.0,0.0,-0.006918564771268471,0.00826671777796713,0.9893250369913061
2011-06-17,0,0.0,0.0,-0.006918564771268471,0.012887755546204561,0.9880052010103682
2011-06-21,-1,-0.0008777184420330594,-0.00058739461507544,-0.006918564771268471,0.012887755546204561,0.9880632996642371
2011-06-23,0,0.0,0.0,-0.005755961985480642,0.019298555217705918,0.9875425815196582
2011-06-27,-1,-0.0015549928579255308,-0.0013565628663361248,-0.0037901007837184207,0.019298555217705918,0.9878327244379651
2011-06-29,-1,-0.0011751267998398923,-0.000952300605235242,-0.005755961985480642,0.009294362555437297,0.9887797103954649
2011-07-01,-1,-0.0003230280081432604,-0.000207802229349227,-0.006524560626274187,0.0039340248476783645,0.989376680396523
2011-07-06,-1,-0.0002730208837942058,-0.00018008179625424853,-0.010344246256084494,0.00286733378894162,0.9877541525520449
2011-07-08,1,0.0003657148328905045,0.00037648260196829864,-0.015489566625875646,0.002207937824856457,0.9841829833069892
2011-07-12,-1,-0.000887928964449281,-0.0007418872382109533,-0.015489566625875646,0.00286733378894162,0.9805134082881378
2011-07-14,0,0.0,0.0,-0.02331890718103842,0.007114016942898987,0.9774155624316769
2011-07-18,0,0.0,0.0,-0.02331890718103842,0.007114016942898987,0.9780601952573833
2011-07-20,1,0.0005505606952314033,0.0006031078998209214,-0.02331890718103842,0.0033788980294543556,0.9784486939690766
2011-07-22,0,0.0,0.0,-0.026877370816301753,0.0013495756977920628,0.9759336962112187
2011-07-26,1,0.0009757441318499004,0.0010852585527067898,-0.026877370816301753,0.0033788980294543556,0.9735498245668978
2011-07-28,1,5.87290000649103e-05,7.130161443438438e-05,-0.02506509010488375,0.0033788980294543556,0.9741900018882063
2011-08-01,-1,-0.00012605897049470526,-9.653720370077828e-05,-0.02506509010488375,0.015353632111374055,0.97267688605356
2011-08-03,0,0.0,0.0,-0.016727845407121713,0.015353632111374055,0.9743870320801892
2011-08-05,0,0.0,0.0,-0.013142660138796915,0.015353632111374055,0.9771341231321724
2011-08-09,-1,-0.007332675304827152,-0.006501767668426028,-0.013142660138796915,0.015353632111374055,0.9793691612459442
2011-08-11,-1,-0.0048961548897898804,-0.004367469479664967,-0.014223110730330085,0.007262186545166055,0.9812426967758705
2011-08-15,0,0.0,0.0,-0.014223110730330085,0.004093137667576116,0.9807769767101296
2011-08-17,0,0.0,0.0,-0.014223110730330085,0.010689258147311925,0.9793200148586717
2011-08-19,-1,-0.005778890294105894,-0.00520183839995397,-0.014223110730330085,0.010689258147311925,0.9822804807487482
2011-08-23,-1,-0.004082886008218696,-0.0037426602375738955,-0.017439148585027566,0.005450658892160989,0.9827321547775292
2011-08-25,-1,-0.004081241737452857,-0.0037326597840918805,-0.026834349161171396,0.005450658892160989,0.9793201439480597
2011-08-29,-1,-0.00259120339807663,-0.0024134200856747784,-0.026834349161171396,0.0037721521951580854,0.9790742907887788
2011-08-31,0,0.0,0.0,-0.03088343428687587,0.0038125995501501284,0.976695045330139
2011-09-02,0,0.0,0.0,-0.03183558959887185,0.0038125995501501284,0.9750193231543115
2011-09-07,0,0.0,0.0,-0.03163465697101074,0.005450658892160989,0.9746758516133673
2011-09-09,0,0.0,0.0,-0.027133338627790736,0.014962213532769468,0.9741691296499122
2011-09-13,-1,-0.005504971806063158,-0.0049316942715726154,-0.027133338627790736,0.03129699304931349,0.9723261221569915
2011-09-15,-1,-0.004079150750003435,-0.003655375647498604,-0.027133338627790736,0.015773210003309834,0.973827982620797
2011-09-19,-1,-0.003008194371745655,-0.0027898423111415204,-0.03227442100866261,0.03129699304931349,0.9709505875885797
2011-09-21,-1,-0.0031751265430030994,-0.003061166976627316,-0.021510381776027022,0.03129699304931349,0.9712902633474864
2011-09-23,-1,-0.007026333090671926,-0.006406213555361284,-0.016605508152950248,0.03507622858516008,0.9720361230004828
2011-09-27,-1,-0.005899792663953315,-0.00535906658504939,-0.020589311163577578,0.03216562962640466,0.9720378227314629
2011-09-29,-1,-0.005502292880729547,-0.0050785534689597065,-0.016605508152950248,0.038303828615979627,0.9694566843361777
2011-10-03,0,0.0,0.0,-0.011024137478819135,0.038303828615979627,0.9708052565210583
2011-10-05,0,0.0,0.0,-0.016605508152950248,0.038303828615979627,0.9699553428833971
2011-10-07,0,0.0,0.0,-0.014850344718331476,0.03412568283803807,0.9704056802524836
2011-10-11,0,0.0,0.0,-0.010439083000612878,0.03159167695511789,0.9712694544998197
2011-10-13,0,0.0,0.0,-0.01737690536207151,0.03159167695511789,0.9692104540407809
2011-10-17,0,0.0,0.0,-0.014130847403988256,0.031161428944681074,0.9710894791445783
2011-10-19,0,0.0,0.0,-0.014130847403988256,0.031161428944681074,0.9720031027373274
2011-10-21,0,-0.0003304494889937008,0.0,-0.018430819220547918,0.03023874679300242,0.9722285935784285
2011-10-25,-1,-0.0004305352601859982,-0.00029994766933789214,-0.03110084487176554,0.03023874679300242,0.9716755355590158
2011-10-27,0,0.0,0.0,-0.03503897791644767,0.01845568968193138,0.9728053198289084
2011-10-31,0,0.0,0.0,-0.03110084487176554,0.025035429229550526,0.9729203722110294
2011-11-02,0,0.0,0.0,-0.019092172059311893,0.025035429229550526,0.9739048888945785
2011-11-04,0,0.0,0.0,-0.023011293545301986,0.018979082487003755,0.9749373927750644
2011-11-08,0,0.0,0.0,-0.023011293545301986,0.008695402350736847,0.9767389468419981
2011-11-10,0,0.0,0.0,-0.023011293545301986,0.01003565784072477,0.9761371792105156
2011-11-14,1,0.001713996849049834,0.0020216362683733204,-0.03110084487176554,0.005065910986905158,0.9755937760238964
2011-11-16,1,0.0012866546283471388,0.0015156792430930327,-0.03304891203034141,0.005362871321480185,0.9735603954558993
2011-11-18,1,0.0006754319751021638,0.0008888759673653196,-0.03236542491661559,0.005607579880707309,0.9741310321393221
2011-11-22,1,5.671205881568528e-06,0.00018138156266723365,-0.023702992746328134,0.01566968455204723,0.975123028845546
2011-11-25,-1,-0.001061439809770802,-0.0010230911079074016,-0.01795651801251403,0.01566968455204723,0.9769780468439839
2011-11-29,1,0.0007168190268509564,0.0010006574158197283,-0.021477826413779433,0.0077532905053284435,0.9792319697072825
2011-12-01,1,0.0018242366644483682,0.002207784059536625,-0.021477826413779433,0.0077532905053284435,0.9821769878913698
2011-12-05,1,0.0013789846867744335,0.0016825698309811351,-0.019024087849175343,0.011506981782761007,0.9803456782254012
2011-12-07,1,0.0020604889349042257,0.0025052687084008204,-0.019024087849175343,0.011506981782761007,0.9804080709664778
2011-12-09,1,0.0032687564281848394,0.003913085478075409,-0.009975667283352445,0.011506981782761007,0.9831903265374817
2011-12-13,1,0.001981431744514725,0.002506438020480298,-0.01040606988116003,0.011506981782761007,0.983569497586564
2011-12-15,1,0.0018349478497078383,0.0023329010939625865,-0.009561659330680365,0.014043103382718516,0.984508436850542
2011-12-19,1,0.00113981023781382,0.0015221154051641528,-0.005269792769197722,0.01690226977214443,0.9851096505850413
2011-12-21,1,0.0024959962966790436,0.003054862787012569,-0.005269792769197722,0.01636507129601279,0.9865569221712495
2011-12-23,1,0.0025203709669780723,0.0030212192513745127,-0.007004736991587868,0.01690226977214443,0.9857117921572701
2011-12-28,1,2.556302150465998e-05,3.060648901106512e-05,-0.007004736991587868,0.01690226977214443,0.9856354321606555
2011-12-30,1,0.001193496261909299,0.0013693490238296737,-0.007004736991587868,0.016773816788504564,0.9865161113334975
2012-01-04,1,0.0021849791872339576,0.0025565990892245736,-0.007004736991587868,0.010662200732818976,0.989322054045038
2012-01-06,1,0.0028678805556516503,0.0033747063252579945,-0.007004736991587868,0.016616372916078558,0.9884297026397554
2012-01-10,1,0.0031447841081129464,0.0036761605330262927,-0.004481503193608818,0.016134795641791124,0.989014709588603
2012-01-12,1,0.0009026445486137165,0.0009991480775400018,-0.0007746044073111065,0.016134795641791124,0.9890635692759879
2012-01-17,1,0.0018218668437363918,0.002120613700943485,0.000739948646203468,0.01575049559259241,0.9903098385453523
2012-01-19,1,0.002510128540311048,0.0029200704015493314,1.2395344579082152e-05,0.015113353527751866,0.9914172347650914
2012-01-23,1,0.0035717087698796425,0.004203717496154349,0.000739948646203468,0.015113353527751866,0.9920030549384826
2012-01-25,1,0.004179927797726798,0.004885918741812781,0.000739948646203468,0.011724309777977232,0.9931178758520444
2012-01-27,1,0.003310020868848064,0.003857595021599473,0.0011067952072222318,0.014955280257816918,0.9927700945576418
2012-01-31,1,0.003484718608106214,0.004058371518430177,-0.0008946339949509278,0.014955280257816918,0.9919369596995209
2012-02-02,1,0.0035511850002400273,0.003975292811047576,-0.00242985473662843,0.014955280257816918,0.9902835782009107
2012-02-06,1,0.0038170775313775326,0.0043330111597625915,-0.006449949185921851,0.010816035788051303,0.9897294544326941
2012-02-08,1,0.0049458386277610915,0.005591798542995265,-0.006449949185921851,0.012211907986530485,0.9887210937125817
2012-02-10,1,0.004443342057151393,0.004989507593420932,-0.005442184877383876,0.010816035788051303,0.989244855741445
2012-02-14,1,0.004218275490766262,0.0047288811355468705,-0.0098044344212827,0.012230458288039134,0.988605244074556
2012-02-16,1,0.0029099915597489636,0.003062400512506168,-0.0098044344212827,0.01515856493404312,0.9879595048500425
2012-02-21,1,0.003770166702154987,0.004092337261989738,-0.010877178280903458,0.012230458288039134,0.9867225265659804
2012-02-23,1,0.00310676155201723,0.0032858996177220086,-0.016402628454657626,0.012230458288039134,0.9846966631617867
2012-02-27,1,0.0013237346746324823,0.0015085646416531707,-0.016402628454657626,0.009218380729176353,0.9858591998948144
2012-02-29,1,0.0017974516948020913,0.0018005688520376039,-0.021044701086962388,0.009218380729176353,0.9854545584982122
2012-03-02,1,0.0013394597981284185,0.0013942421357537517,-0.012468557441429355,0.010292838792311186,0.986430386786778
2012-03-06,1,0.0002767850186821115,0.00044482061738347064,-0.011734632829087464,0.010292838792311186,0.9874542254018697
2012-03-08,1,0.00187844503863044,0.00190795968401309,-0.01714907660881555,0.003842918232308574,0.987009221009894
2012-03-12,1,0.0006332597699715688,0.0008091462452721533,-0.01714907660881555,0.003842918232308574,0.9868160124912355
2012-03-14,1,0.001354406089389236,0.001396377140602206,-0.01714907660881555,0.003842918232308574,0.9862897999098611
2012-03-16,1,0.0025305471335996064,0.0026962080274418165,-0.01714907660881555,-0.00044694098894129523,0.9851663574972924
2012-03-20,1,0.0008444435213034968,0.0009344906003267742,-0.01714907660881555,0.003842918232308574,0.9852157822518728
2012-03-22,1,0.0005879484954457212,0.0006155343176737743,-0.015309618449524911,0.003842918232308574,0.9870558605729963
2012-03-26,1,0.0011555130018335866,0.0011562291133912495,-0.015309618449524911,0.003314881884579877,0.9871559462213099
2012-03-28,1,0.0013184660619272402,0.0014125682802677763,-0.013775740339610211,0.007759650148153745,0.9867009826923461
2012-03-30,1,0.001328692890689069,0.0013937964686758194,-0.013775740339610211,0.00667067070525378,0.9871088570115987
2012-04-03,1,0.0013833189570028651,0.0015108483710559201,-0.013775740339610211,0.011941352633862807,0.9861699371993213
2012-04-05,-1,-0.0010095495519780466,-0.0008698645178121596,-0.013775740339610211,0.011941352633862807,0.9849676513993181
2012-04-10,-1,-0.002166346760072358,-0.001907706288995726,-0.01395792566381427,0.011941352633862807,0.9856378822066136
2012-04-12,-1,-0.001465835908774669,-0.001283479883442077,-0.01395792566381427,0.008735847046226777,0.9863070417995065
2012-04-16,-1,-0.002810234362416314,-0.0024235370054667736,-0.015976130561497794,0.008735847046226777,0.9863886710070227
2012-04-18,-1,-0.003523276319959836,-0.002989019486065788,-0.015976130561497794,0.004481224546362716,0.9874918606629169
2012-04-20,-1,-0.005237026181619499,-0.0044044202044867895,-0.016262955083602315,0.004481224546362716,0.9875323088559531
2012-04-24,-1,-0.0025173278859472754,-0.002251730771185675,-0.016262955083602315,0.008735847046226777,0.9856518254546531
2012-04-26,-1,-0.002144212944717259,-0.0017739177654993044,-0.016262955083602315,0.001736134690323579,0.9870435549990964
2012-04-30,-1,-0.0018936794885155656,-0.0015321661449508833,-0.016262955083602315,0.003243117002034418,0.9864045700664709
2012-05-02,-1,-0.002459315493013275,-0.00203738303123514,-0.016892457441046956,-2.9396036439920852e-05,0.9872756229977185
2012-05-04,-1,-0.0050690275829361284,-0.004378846165264752,-0.01379425239306786,0.002581985324857837,0.9895648121155168
2012-05-08,-1,-0.005661029461118539,-0.004816382454352236,-0.010758805761986623,0.004657124068130324,0.987148195599434
2012-05-10,-1,-0.004798319519647737,-0.003991472497283034,-0.010758805761986623,0.003243117002034418,0.9876363808940376
2012-05-14,-1,-0.005603429620462728,-0.0046675515843988685,-0.010673511141112355,0.0070488880731970505,0.9871882287792387
2012-05-16,-1,-0.008656189418628658,-0.007456688540921125,-0.006994800312113067,0.018194287644268767,0.9850134352096345
2012-05-18,-1,-0.008530821181355046,-0.007379567834839201,-0.006994800312113067,0.020026367416008786,0.983112734069153
2012-05-22,-1,-0.005772937600054582,-0.004894275854270008,-0.010673511141112355,0.018194287644268767,0.9853253364542072
2012-05-24,-1,-0.005340196805258382,-0.004562236760808703,-0.01381494067322988,0.018194287644268767,0.9837709104378143
2012-05-29,-1,-0.004351992380234324,-0.003746068346814184,-0.01381494067322988,0.012883285771891868,0.9845373752425216
2012-05-31,-1,-0.004974491002847976,-0.00430829667817219,-0.010182675493355282,0.018194287644268767,0.9836783880201199
2012-06-04,-1,-0.005717720859951864,-0.005024327040389513,-0.007369257052256661,0.020191611559283573,0.9829502639039526
2012-06-06,-1,-0.0037893956136697896,-0.0032946672322090153,-0.010182675493355282,0.01840093168122226,0.9833245017625536
2012-06-08,-1,-0.0034902266548091287,-0.003069459078016666,-0.01381494067322988,0.01840093168122226,0.9823167005595107
2012-06-12,-1,-0.002837605746972037,-0.002528747220376608,-0.015593870015568504,0.013686823101532465,0.9825529292912398
2012-06-14,-1,-0.001749820104474142,-0.001578211218564871,-0.01824667975082045,0.01110918537612315,0.9831748927961951
2012-06-18,-1,-0.002005653275565416,-0.001774162363217197,-0.014924337309644233,0.01110918537612315,0.9839217642248456
2012-06-20,-1,-0.003405941875127089,-0.003032462235054687,-0.011141987646660498,0.012102044850175537,0.9836460875461898
2012-06-22,-1,-0.002828918249041955,-0.002566188827169375,-0.014619988781184218,0.011899313980970085,0.984549571827466
2012-06-26,-1,-0.002171725011642414,-0.0019131634145259876,-0.015565640675134435,0.011783115037169223,0.9842884295304052
2012-06-28,-1,-0.0014154494653710566,-0.0013211697275412324,-0.015565640675134435,0.015610826448015043,0.9835621828620409
2012-07-02,-1,-0.00015113899328441082,-1.2664705257601952e-05,-0.01714966160475658,0.011783115037169223,0.9844559043298227
2012-07-05,-1,-0.0006440245010684803,-0.000579108666143635,-0.01714966160475658,0.0105190633239217,0.9845116249066515
2012-07-09,1,7.210627151223073e-05,0.00024703890935372274,-0.015423145528421237,0.013959871278309471,0.9838926427198129
2012-07-11,-1,-0.00027639392257410326,-0.00013330291511365832,-0.013949486657930305,0.015610826448015043,0.9838045193166385
2012-07-13,1,0.0003502051082880228,0.0006223173315909105,-0.008832290981075179,0.015610826448015043,0.9849132878172733
2012-07-17,1,0.0012568285237031028,0.0016542036631728226,-0.008832290981075179,0.013959871278309471,0.9866518785803486
2012-07-19,1,0.0018971349741863344,0.0023870754119227036,-0.008832290981075179,0.011612261908366934,0.9868454715712556
2012-07-23,1,0.0006189570854152771,0.0008990899564543735,-0.0009085737755060485,0.011612261908366934,0.9882203168018985
2012-07-25,1,0.0003598648581004373,0.000581723005086904,-0.0009085737755060485,0.011141263388795973,0.9888226770823406
2012-07-27,1,0.0013291680156444579,0.0016394390990523769,-0.004533629206880963,0.005786884556144648,0.9904662291239101
2012-07-31,1,0.0015290119141466824,0.001959549571060675,-0.0038980982585730775,0.005786884556144648,0.99104508769858
2012-08-02,1,0.0014487546882891776,0.0018509857597891147,-0.004924847075962462,0.0038432758472455625,0.9926221041882953
2012-08-06,1,0.0029165155245291985,0.003529863266512106,-0.006031056719755816,0.0034327619906778725,0.9927746350589021
2012-08-08,1,0.00418795144033373,0.005015713128988783,-0.006031056719755816,0.0023202242375461707,0.9918287410162869
2012-08-10,1,0.0038436859933840225,0.00457664986320708,-0.004924847075962462,0.0038432758472455625,0.9906989973433092
2012-08-14,1,0.003287800692161948,0.0038829420347883748,-0.004924847075962462,0.005577859599506343,0.9909473063710876
2012-08-16,1,0.0037518979064538084,0.004416015659610903,-0.004924847075962462,0.005577859599506343,0.9903951847469874
2012-08-20,1,0.0035309615993292525,0.004120370804794009,-0.006103898298499236,0.004569501479684412,0.9893269252981597
2012-08-22,1,0.003909459946192495,0.004590631644530885,-0.007464394431417691,0.00369733137956559,0.9885524847621369
2012-08-24,1,0.0030871555355133484,0.0036299143144496865,-0.008814268784619474,0.00369733137956559,0.9883737709759723
2012-08-28,1,0.002291132826350741,0.0026645567923969053,-0.015779117856996785,0.00369733137956559,0.9880458463883205
2012-08-30,1,0.0011065325167491907,0.0012882899681676725,-0.008814268784619474,0.007822083331971715,0.9885801242524381
2012-09-04,1,0.0011575793037426883,0.001385675128874448,-0.0048216025791205375,0.003762878214714411,0.989633511271956
2012-09-06,1,0.001072768607455129,0.0012192649127425131,-0.0048216025791205375,0.0018011975396165334,0.9906464561808593
2012-09-10,1,0.0020699463789493784,0.0023483368990554867,-0.0066987182905819485,0.0018011975396165334,0.9916221351337675
2012-09-12,1,0.002227196090820077,0.002500891125003765,-0.009397072429561733,0.0005784252275402751,0.9906764200656422
2012-09-14,1,0.002898053142008483,0.0032671102165891448,-0.00951926860058614,0.0005784252275402751,0.9907005194128925
2012-09-18,1,0.003044975881304583,0.003515302307967524,-0.007322253992532343,0.0026776332294435757,0.9910562685357531
2012-09-20,1,0.002716333832326079,0.003173303283723238,-0.0066987182905819485,0.005891601979678289,0.9913981943792809
2012-09-24,1,0.001731008426611267,0.0020375426451361214,-0.007322253992532343,0.005891601979678289,0.9911964215372518
2012-09-26,1,0.0006878571089339433,0.0008082940627877351,-0.008229786806153452,0.005891601979678289,0.9904993227882251
2012-09-28,1,0.0010025082137681287,0.0011444411346899796,-0.008229786806153452,0.005891601979678289,0.9909755868908532
2012-10-02,1,0.0009633120814269642,0.0010918504342026039,-0.01053453006244525,0.005891601979678289,0.9903609088657804
2012-10-04,1,0.00044523411141846845,0.0004528351229056995,-0.01053453006244525,0.005891601979678289,0.9898911897568766
2012-10-08,-1,-0.00038866321720732854,-0.00023232167902347646,-0.01179569590120605,0.005891601979678289,0.987900401798914
2012-10-10,-1,-0.0015081565108000731,-0.0011810245482556186,-0.011068650365703316,0.004740797407650076,0.9885239976366006
2012-10-12,-1,-0.0009910397813443297,-0.0007739808900938054,-0.013244256796485328,0.002059605307870979,0.988257867305541
2012-10-16,-1,-0.00040667111741169126,-0.0002463029564051474,-0.01374770493884037,-5.271453424340777e-05,0.9881084608269001
2012-10-18,1,0.0008436212768643619,0.0008788545556391901,-0.01374770493884037,-0.0024614380744290435,0.9869535518372491
2012-10-22,-1,-0.0009393152321720903,-0.0007176457479456327,-0.012685027308434274,0.0011882541510088095,0.9884779352372438
2012-10-24,-1,-0.00270245929033369,-0.0022249734682332437,-0.01101738369420501,0.004927372416793906,0.989938367134268
2012-10-26,-1,-0.0019482975690902813,-0.0016061369927779612,-0.01101738369420501,0.005242192154872141,0.9893926071433622
2012-11-01,-1,-0.0023280653567187386,-0.0019407374576567446,-0.009713404344573382,0.005242192154872141,0.9897400498408659
2012-11-05,-1,-0.002745385264078224,-0.0023151611332529283,-0.010231350054352804,0.005242192154872141,0.9897377859659089
2012-11-07,-1,-0.0025573708278042104,-0.0022339761145608377,-0.010231350054352804,0.005242192154872141,0.9907342150246069
2012-11-09,-1,-0.003522390748571187,-0.003024365472443516,-0.010399166101804485,0.005242192154872141,0.9903970143924146
2012-11-13,-1,-0.0034121312549394277,-0.0029724287369577314,-0.00895145060903012,0.010107145162761035,0.98905327183828
2012-11-15,-1,-0.0045050949605415416,-0.0038913191585450784,-0.008227846369362794,0.010107145162761035,0.9896205100549036
2012-11-19,-1,-0.0047050926797050155,-0.004034513873070432,-0.008227846369362794,0.010107145162761035,0.9886059012234648
2012-11-21,-1,-0.0034993547111093434,-0.0030671700996758983,-0.005981526449206707,0.010107145162761035,0.9896221466898263
2012-11-26,0,0.0,0.0,-0.005981526449206707,0.006736246594038748,0.9900550334269764
2012-11-28,0,0.0,0.0,-0.0062238579946892105,0.002803087836988519,0.9904965694556014
2012-11-30,0,0.0,0.0,-0.00656157670774904,0.008547309472567507,0.9893034927205488
2012-12-04,0,0.0,0.0,-0.005349971958579703,0.01749277942492565,0.9877823411327208
2012-12-06,0,0.0,0.0,-0.005349971958579703,0.01691237787570654,0.9870828399486528
2012-12-10,0,0.0,0.0,-0.0053208905454372,0.01691237787570654,0.987633589715936
2012-12-12,0,0.0,0.0,-0.0053208905454372,0.013518402292818619,0.9886341083101996
2012-12-14,0,0.0,0.0,-0.00427856623531756,0.013518402292818619,0.9889434862353725
2012-12-18,0,0.0,0.0,-0.00427856623531756,0.00789063245071964,0.9903714459957279
2012-12-20,-1,-0.0006309096694278093,-0.0006057551252940836,-0.00427856623531756,0.010310604597798626,0.989732522327121
2012-12-24,-1,-0.0010827729040407343,-0.0009826229653994492,-0.00427856623531756,0.013518402292818619,0.9895023183212197
2012-12-27,-1,-0.002172474226592515,-0.0018979522456050875,-0.004157338145972588,0.013518402292818619,0.9888504249450628
2012-12-31,-1,-0.0011025674816824203,-0.0010193894745548985,-0.004157338145972588,0.013518402292818619,0.9890990921873928
2013-01-03,1,0.0006765657122842271,0.0008677031460519226,-0.005112293583457281,0.011685399179699461,0.9902076051581665
2013-01-07,1,1.3731150817504652e-05,0.00011093957863494286,-0.005112293583457281,0.011685399179699461,0.9905886492144659
2013-01-09,0,0.0,0.0,-0.005317543068667396,0.011685399179699461,0.9901260515247795
2013-01-11,1,0.00042623464645394316,0.0006056319197444187,-0.006500821192815324,0.010883331996742891,0.9900177558798078
2013-01-15,1,0.0005300586097872802,0.0007361674064169801,-0.006500821192815324,0.010883331996742891,0.9899867511287319
2013-01-17,0,0.0,0.0,-0.010429083132851945,0.010883331996742891,0.9858894813656949
2013-01-22,0,0.0,0.0,-0.012404755435467492,0.010883331996742891,0.9852113620470528
2013-01-24,0,0.0,0.0,-0.012404755435467492,0.007108470149949654,0.9857898975861206
2013-01-28,0,0.0,0.0,-0.015577027550897293,0.004774991024404482,0.9849731459177871
2013-01-30,0,0.0,0.0,-0.015577027550897293,0.004774991024404482,0.9858969565567159
2013-02-01,0,0.0,0.0,-0.01561535220452776,0.004277731572017025,0.9861586201736972
2013-02-05,0,0.0,0.0,-0.01379213830320216,0.004277731572017025,0.9876046468661761
2013-02-07,1,0.0023328773133018997,0.0028175238423382327,-0.01090006067845916,0.004774991024404482,0.9871444404710219
2013-02-11,1,0.0027204122240096088,0.0032953230242892912,-0.008708692889165367,0.004277731572017025,0.9875648210899115
2013-02-13,1,0.00268594986005567,0.003222217734705087,-0.008708692889165367,0.003953774159458166,0.9875195597815465
2013-02-15,0,0.0,0.0,-0.003609343958275092,0.003953774159458166,0.9923009466644034
2013-02-20,0,0.0,0.0,-0.003609343958275092,0.003953774159458166,0.9925910916326306
2013-02-22,0,0.0,0.0,-0.0041342037696335335,0.004252929518511249,0.9920131244177812
2013-02-26,0,0.0,0.0,-0.0031059749762616723,0.0030714998260205142,0.9933689046409184
2013-02-28,0,0.0,0.0,-0.0031059749762616723,0.005614120479603085,0.9921794126233281
2013-03-04,-1,-0.0017613850711218763,-0.0017007242364637837,-0.0031059749762616723,0.005614120479603085,0.9920821979214657
2013-03-06,0,0.0,0.0,-0.0038418688133457753,0.0030714998260205142,0.9921737027740511
2013-03-08,0,0.0,0.0,-0.00616652251224838,0.0030714998260205142,0.9927624981967469
2013-03-12,0,0.0,0.0,-0.00616652251224838,0.0047191673182951505,0.992357914201838
2013-03-14,-1,-0.0004912697283607517,-0.00025029536861623637,-0.008044027532656045,0.0068249054457153215,0.99104428915197
2013-03-18,0,0.0,0.0,-0.01149975826951036,0.0068249054457153215,0.9891564018578506
2013-03-20,0,0.0,0.0,-0.009279664386354542,0.0047191673182951505,0.9894678229463957
2013-03-22,0,0.0,0.0,-0.009279664386354542,0.0055136047866584095,0.9888401300191547
2013-03-26,0,0.0,0.0,-0.009279664386354542,0.011482933862264282,0.9876037761806628
2013-03-28,0,0.0,0.0,-0.009279664386354542,0.007294458053979986,0.9884768282618535
2013-04-02,-1,-0.0009854859928481816,-0.0009668821676590923,-0.009279664386354542,0.011482933862264282,0.9879439693015917
2013-04-04,-1,-0.0016974150933514757,-0.001573456684683862,-0.008450055186221777,0.011482933862264282,0.9883141250435304
2013-04-08,-1,-0.0020121588106912103,-0.0018322099159384549,-0.007968713335385926,0.011904613975142721,0.9874761133528617
2013-04-10,-1,-0.0019453662372212396,-0.0017558696697812085,-0.007968713335385926,0.01235860007434494,0.9870306943712276
2013-04-12,-1,-0.0025158218620680746,-0.0022238372081252204,-0.006631993806945396,0.01436008835742232,0.9847940639129941
2013-04-16,-1,-0.003783431428261288,-0.0033733863306034716,-0.0029235629357467047,0.01436008835742232,0.9858320533745017
2013-04-18,-1,-0.004421895666437666,-0.003926282173551694,-0.0029235629357467047,0.01436008835742232,0.9850858269491717
2013-04-22,-1,-0.004883969396908876,-0.004331371810621474,-0.001174406330199784,0.016500179156256355,0.9840814982588482
2013-04-24,-1,-0.0034513613241448325,-0.003091872127585797,-0.0029235629357467047,0.01436008835742232,0.9860312888675574
2013-04-26,0,0.0,0.0,-0.003808016150013092,0.012691307467444849,0.9871098650824448
2013-04-30,0,0.0,0.0,-0.003808016150013092,0.015243140816842344,0.9866304984741494
2013-05-02,0,0.0,0.0,-0.005185289510806679,0.015243140816842344,0.9854166660023007
2013-05-06,0,0.0,0.0,-0.005185289510806679,0.016072734037676225,0.9857089312599322
2013-05-08,0,0.0,0.0,-0.005185289510806679,0.015089308329825002,0.9855721143955253
2013-05-10,1,0.0012906617258519528,0.0014583432350502052,-0.011854421498611914,0.009301064147573151,0.9879796353051332
2013-05-14,0,0.0,0.0,-0.01227634211291543,0.009301064147573151,0.9873509708036894
2013-05-16,0,0.0,0.0,-0.004960428820347718,0.009301064147573151,0.9880975777120051
2013-05-20,1,0.002843368427904404,0.00324461895479708,-0.004960428820347718,0.009301064147573151,0.98929900243557
2013-05-22,1,0.0023125337849308238,0.002627950865591597,-0.007852589225211629,0.009301064147573151,0.9884609033130317
2013-05-24,1,0.0016088134751907539,0.0018373775776744884,-0.007852589225211629,0.009301064147573151,0.9878410087341334
2013-05-29,1,0.003290337844309107,0.003826208830012485,-0.007852589225211629,0.007184602060230455,0.9889754695440581
2013-05-31,1,0.0021395187349429155,0.0024837624486451814,-0.003630359114549453,0.008546792878924597,0.9899994770945879
2013-06-04,1,0.0029840645355226876,0.0034248315968283738,-0.007859442826972823,0.007184602060230455,0.9903182681728553
2013-06-06,1,0.003462924505289547,0.003980392243583587,-0.012864565688012704,0.007184602060230455,0.9884572201334406
2013-06-10,1,0.003201925522083781,0.003681851601436543,-0.010083174634973859,0.006543729211530326,0.9888394209761092
2013-06-12,1,0.0029887605819227375,0.003458739231900731,-0.01003970414439249,0.007184602060230455,0.9883824073457849
2013-06-14,1,0.0032575017823062106,0.0037888445809000533,-0.01003970414439249,0.007404618425110036,0.9884636591773944
2013-06-18,1,0.004202474615534676,0.004879006330977208,-0.011965020413909861,0.0065088237947151665,0.9884215472624802
2013-06-20,1,0.0034441756655891245,0.004035525831984103,-0.009404109156255619,0.009285608935992298,0.9890614330771318
2013-06-24,1,0.0027633549918024865,0.0032877906044268324,-0.009404109156255619,0.009285608935992298,0.989795145990277
2013-06-26,1,0.0033342482850636295,0.003971460304298451,-0.01166805615340472,0.009285608935992298,0.989246102911346
2013-06-28,1,0.003630588240432056,0.004305146907824266,-0.01166805615340472,0.007299902174664556,0.9884929656971
2013-07-02,1,0.002684284357225476,0.0031986321921895957,-0.011149405403986854,0.007299902174664556,0.9891639160792776
2013-07-05,1,0.002542881107680011,0.003040032785345053,-0.009344102482326906,0.007299902174664556,0.990719321777
2013-07-09,1,0.0025669579528235804,0.003084407312386466,-0.009205832042684466,0.007299902174664556,0.9912152683729235
2013-07-11,1,0.0008599184216039272,0.000988357066642095,-0.007412513381668531,0.007299902174664556,0.9915928930027769
2013-07-15,1,0.0010879724491390172,0.0012137897287301603,-0.007412513381668531,0.004401182662220788,0.9918464304132807
2013-07-17,1,0.0008440490026039817,0.0009370148701040745,-0.007412513381668531,0.0038147745154857625,0.9914683693198624
2013-07-19,1,0.0011292790381807172,0.0011906559317296605,-0.009205832042684466,0.0009680681764383174,0.9915316757495874
2013-07-23,1,0.0007771977200125926,0.000796430806607166,-0.009205832042684466,0.0033084144119000162,0.9897584897334585
2013-07-25,-1,-0.000237677401547045,-9.384437341041716e-05,-0.007412513381668531,0.005923545276227393,0.989181725353239
2013-07-29,-1,-0.0008208450803535795,-0.000621104394297293,-0.005868281097866395,0.010676148710874727,0.9896583028785397
2013-07-31,-1,-0.0007182367077983049,-0.0005690264771753726,-0.005868281097866395,0.010676148710874727,0.9890269217575903
2013-08-02,-1,-0.00027585746359253937,-0.00017677461045901405,-0.006180821630382149,0.010676148710874727,0.9853977345685424
2013-08-06,1,7.176875502847263e-05,0.00013222091596074684,-0.007617700071803436,0.010676148710874727,0.9846319017792533
2013-08-08,1,0.0004324514742391688,0.00044950107294380913,-0.007617700071803436,0.00910919637575923,0.98496864094645
2013-08-12,1,5.750786118849835e-05,0.00012877523311228192,-0.007617700071803436,0.00910919637575923,0.9849077641855057
2013-08-14,-1,-0.0007859873650415931,-0.0005972404989126179,-0.006039487123201772,0.00910919637575923,0.9857510722089488
2013-08-16,-1,-0.001477628224115003,-0.0012061931704849533,-0.003094997150524613,0.00910919637575923,0.9862072276378134
2013-08-20,-1,-0.001473234477736799,-0.0012518928884809335,-0.0013168517085557546,0.00910919637575923,0.9877733360206803
2013-08-22,-1,-0.0005808256853392297,-0.00044229538144702213,-0.004647502005045122,0.0077081978199421185,0.989369912329188
2013-08-26,-1,-0.0006218313025298975,-0.00045713862176090215,-0.005245400595117069,0.0076537087917564915,0.9895028912520822
2013-08-28,-1,-0.0008925143087772933,-0.0006907641532314349,-0.004647502005045122,0.007119040179731732,0.9903752221305313
2013-08-30,1,0.0009873121121701102,0.0010260775414792206,-0.004647502005045122,0.004515440938595387,0.9941579550594979
2013-09-04,1,0.0007374814887178581,0.0007439151804187701,-0.004510827513413353,0.004515440938595387,0.9941116387767037
2013-09-06,1,0.0002762542008259626,0.0003964963338905335,-0.004747461149049661,0.0033724349952677078,0.9936968444369422
2013-09-10,0,-7.35182730458037e-06,0.0001774535777380289,-0.005127259159272104,0.0020121753369136486,0.9936662149080017
2013-09-12,-1,-0.0005827546087809374,-0.0003010699217969189,-0.005127259159272104,0.0035678835668048405,0.9930635425249199
2013-09-16,-1,-0.0003300862390915176,-0.0001194065073754038,-0.005127259159272104,0.0076398696821266794,0.9926996561024249
2013-09-18,1,0.00031154579256840884,0.0004368317912782951,-0.005127259159272104,0.004729155573283588,0.9926757658491633
2013-09-20,1,0.00015681906500188516,0.0002788982370206535,-0.004346153697283678,0.0076181341275296036,0.9928076110374955
2013-09-24,-1,-0.00029851352529011623,-0.00011840937852434944,-0.004346153697283678,0.0076181341275296036,0.9923756241315052
2013-09-26,0,-9.723847598172439e-05,2.1744745953721075e-05,-0.004747461149049661,0.008615564794637827,0.9915308019130722
2013-09-30,-1,-0.00028495601418281405,-0.00016856402395816792,-0.0027244217844227055,0.008615564794637827,0.9918346452485504
2013-10-02,1,0.0008483777673947889,0.0009591849735775099,-0.0028459835437180427,0.0076181341275296036,0.9917439793249119
2013-10-04,1,0.000979597263407774,0.0011004006071427632,-0.002074375747751443,0.007585695749472239,0.9924989627783685
2013-10-08,1,0.000350258098108534,0.00035451182765810206,-0.0016189937414921635,0.0076181341275296036,0.9915736232351808
2013-10-10,1,0.0011431949330302908,0.0012960135309605125,-0.0030036720544594905,0.007585695749472239,0.9925228839645704
2013-10-14,1,0.001261319365207769,0.0014185335681791706,-0.0030036720544594905,0.007585798932280648,0.9922976389303829
2013-10-16,1,0.001379726410284566,0.001522305635130014,-0.0030036720544594905,0.007585798932280648,0.9923917467877104
2013-10-18,1,0.001916255557116432,0.002161374510059714,-0.0030036720544594905,0.008582920050963646,0.9920679805762479
2013-10-22,1,0.0011994436223228557,0.001313958574558678,-0.0024747289144717334,0.011217888381958595,0.9921927062857349
2013-10-24,1,0.0014062799706566784,0.0015723583091315188,-0.001111686570310849,0.00929167185028142,0.9929669601023818
2013-10-28,1,0.0017279707792820756,0.0019587400013555876,-0.0024747289144717334,0.00929167185028142,0.9926275179859275
2013-10-30,1,0.0014347632567457526,0.0016226755411096615,-0.0024747289144717334,0.00929167185028142,0.9927172995502744
2013-11-01,1,0.0013219825088181796,0.0014708671423461885,-0.005629076419109802,0.00929167185028142,0.9924021343442231
2013-11-05,1,0.001453464295410188,0.0016326149341070264,-0.006236156240066005,0.006195085692531049,0.992848818441671
2013-11-07,1,0.0015888534298551431,0.0018157928927657946,-0.006236156240066005,0.006195085692531049,0.9926814181889125
2013-11-11,1,0.0017121797948519942,0.0019254132878941683,-0.0071127505200660026,0.004771844971317418,0.9925229481049872
2013-11-13,1,0.001734101763012859,0.0018889388011479277,-0.007830626021662521,0.004155810174912535,0.9919430303402782
2013-11-15,1,0.0022553423036050495,0.0024978755382785737,-0.007830626021662521,0.0015903033498087717,0.9922196911106044
2013-11-19,1,0.0023320700991619927,0.002593964484920711,-0.009341439484103918,0.0015903033498087717,0.9921602845268055
2013-11-21,1,0.002249766854864214,0.00246780113506617,-0.009341439484103918,0.00020365749857119135,0.9920302172810684
2013-11-25,1,0.002168138320226183,0.002362713340389685,-0.007830626021662521,0.00020365749857119135,0.9925185070937539
2013-11-27,1,0.0014419868146656454,0.0015155668629426113,-0.0071127505200660026,0.0012477448050302966,0.9939487253353121
2013-12-02,1,0.0011482299056611185,0.001185827414587135,-0.0071127505200660026,0.0012477448050302966,0.9941190178034746
2013-12-04,1,0.0009037209659597198,0.0009366884497741014,-0.005514180146312565,0.0012477448050302966,0.9946999031474476
2013-12-06,1,0.00036396240637050713,0.000409054632569669,-0.005243977695452285,0.0032529733257934653,0.9940879842295095
2013-12-10,1,0.0002485066845082535,0.0002714897330890011,-0.005514180146312565,0.0032529733257934653,0.9937002988705004
2013-12-12,-1,-0.0008452066118063658,-0.0006605094344145691,-0.005514180146312565,0.0032529733257934653,0.9936437606510794
2013-12-16,-1,-0.0010279614195703008,-0.0008071498253632067,-0.006114989002842639,0.004944786910495472,0.9922628055176207
2013-12-18,-1,-0.0014828509377112463,-0.0011730078756817311,-0.006114989002842639,0.0053113518255216135,0.9913793880853562
2013-12-20,-1,-0.0015628344877880302,-0.0012229947771138414,-0.006114989002842639,0.0032529733257934653,0.9916423214849375
2013-12-24,-1,-0.001369557203117116,-0.001076244074210692,-0.01183947309043197,0.002672962514901537,0.9909215921258667
2013-12-27,-1,-0.00123694929575238,-0.0009636384937398635,-0.014052827491115909,0.0038516356342218412,0.9900575373066024
2013-12-31,-1,-0.0012612035077765966,-0.0010108092306272702,-0.014052827491115909,0.004657232337523737,0.9896215126396944
2014-01-03,-1,-0.0016087378214618125,-0.001304708010139254,-0.014312395333396614,0.004657232337523737,0.9885399393962144
2014-01-07,-1,-0.001119549753918332,-0.0008460947122866637,-0.014312395333396614,0.0014920502467631132,0.9895583664103089
2014-01-09,-1,-0.0024052713268576643,-0.001944678736372891,-0.014144517724388222,0.0049012822421876335,0.9885041643559228
2014-01-13,-1,-0.00327826323834272,-0.0027030629265561066,-0.012911095686557243,0.00834581691368015,0.9890123497526299
2014-01-15,-1,-0.002712227310677598,-0.00227201410672438,-0.01201033756576764,0.004357288900247035,0.9902935553930985
2014-01-17,-1,-0.0027072659020710875,-0.002283079748790091,-0.011297937583156354,0.004357288900247035,0.9903680095974023
2014-01-22,-1,-0.0027500725530548087,-0.002313124442841696,-0.011297937583156354,0.008101727744656263,0.9898921342744366
2014-01-24,-1,-0.003036255991664177,-0.0026241291180221847,-0.00658233847901334,0.008101727744656263,0.9905626510055014
2014-01-28,-1,-0.003188266828835183,-0.0027519560839625676,-0.008946639000511333,0.00453759384267962,0.9894123167797477
2014-01-30,-1,-0.0034152062132671,-0.0029810746049352575,-0.00658233847901334,0.00453759384267962,0.9900597177073096
2014-02-03,-1,-0.004409250853243774,-0.0038783917657439697,-0.0038111963534005785,0.0077731713497670935,0.9897818214417166
2014-02-05,-1,-0.004645480621006601,-0.0040898217749840895,-0.0038111963534005785,0.0077731713497670935,0.9886053741171567
2014-02-07,-1,-0.0025397694206367814,-0.0022288362651966386,-0.0038111963534005785,0.006796002278277181,0.9908702930333142
2014-02-11,-1,-0.0017272927523056488,-0.0015618269663429138,-0.004084118930687683,0.00650737477563538,0.9910809778668264
2014-02-13,-1,-0.0021369240549242163,-0.0018966498732722243,-0.003958311105567935,0.00650737477563538,0.9909424662917395
2014-02-18,-1,-0.001484730999455267,-0.0013064149119777918,-0.003958311105567935,0.00650737477563538,0.991903943993523
2014-02-20,-1,-0.001151066058617534,-0.0010025253289254136,-0.005611735684843283,0.00650737477563538,0.9917564276590176
2014-02-24,-1,-0.0015698302048965187,-0.0013453300570003901,-0.005611735684843283,0.006796002278277181,0.9914596363640397
2014-02-26,-1,-0.003191761853187711,-0.0028034390789761898,-0.003958311105567935,0.007332502657410573,0.9926802134479673
2014-02-28,-1,-0.003036023465174056,-0.0026911011288391754,-0.0030255876506044086,0.007883914730891294,0.9915216898061194
2014-03-04,-1,-0.002643608135583358,-0.002318594152417795,-0.0030255876506044086,0.008293961138796165,0.9919986338083104
2014-03-06,-1,-0.002616921652983572,-0.0023360008583105498,-0.0012637822935279435,0.008600096643681308,0.9920042148310223
2014-03-10,-1,-0.0017409691202163677,-0.0015875178640562973,-0.0030255876506044086,0.008600096643681308,0.9922832000933944
2014-03-12,-1,-0.001881260499721775,-0.0017444784126129196,-0.0012637822935279435,0.009248265463597504,0.9913148137741443
2014-03-14,-1,-0.0014655046185685096,-0.0013986906539435427,-0.006206492740888696,0.009248265463597504,0.9909716255946237
2014-03-18,-1,-0.001345326000877931,-0.0012656901493401955,-0.006206492740888696,0.009344498431409836,0.9907891460960028
2014-03-20,-1,-0.0010571105295312157,-0.0010213371204589442,-0.0020665298330207246,0.010352245232725274,0.9906089659625535
2014-03-24,-1,-0.0007174813532450544,-0.0007029017841255847,-0.0020665298330207246,0.010352245232725274,0.9905643144499787
2014-03-26,-1,-0.0006030707718060195,-0.0005973240365049752,0.0007557085315503358,0.010352245232725274,0.9905322419333146
2014-03-28,1,0.0002787959084683471,0.000411213234795693,-0.005942764754137776,0.009843825908260351,0.9912805732802878
2014-04-01,1,0.0005700364529148627,0.0007343946882768505,-0.007644782373606675,0.010352245232725274,0.9907541761587969
2014-04-03,1,0.0011504882230597888,0.001384304469838934,-0.007644782373606675,0.009423342811175432,0.9916033683730585
2014-04-07,1,0.0008213358767971002,0.0010386075627991428,-0.006561349921195529,0.009423342811175432,0.9919927397424533
2014-04-09,1,0.0011411901790095579,0.001438508057056128,-0.005591177036398444,0.009423342811175432,0.992799419242565
2014-04-11,1,0.000759159678265377,0.001036348155172511,-0.00022978466858108602,0.010352245232725274,0.9926760409089386
2014-04-15,1,0.0015965529576506053,0.002003703907450224,-0.0011059111654794108,0.010352245232725274,0.993408004529908
2014-04-17,1,0.0025405804226507297,0.0030917559933956065,-0.00259591697438659,0.008522739021160826,0.9935772532156486
2014-04-22,1,0.002949873288242547,0.003548008399992689,-0.00259591697438659,0.007088693549045004,0.9936358132880645
2014-04-24,1,0.0033204049346229015,0.003941830167110115,-0.00259591697438659,0.006206571986565914,0.9939211466808188
2014-04-28,1,0.0027910582103835555,0.0033257480925918473,-0.0015973887431650251,0.006206571986565914,0.9947094170359355
2014-04-30,1,0.0025065845779262885,0.002974732665440602,-0.001082964533552882,0.007123039178030232,0.9947237125755802
2014-05-02,1,0.0023927119811973305,0.0028259573887650926,-0.0015973887431650251,0.007123039178030232,0.9944047393739364
2014-05-06,1,0.0019535811438812344,0.0023042883803381852,-0.0015973887431650251,0.007123039178030232,0.994318815277313
2014-05-08,1,0.0023322297689644007,0.002695510280835909,-0.0015973887431650251,0.007874768552410065,0.9942810339661698
2014-05-12,1,0.003001102107863223,0.003450055486296031,-0.0015973887431650251,0.006206571986565914,0.9950615135929542
2014-05-14,1,0.0027738427478352637,0.0031946710609283965,2.1679829840738694e-05,0.0064914940736777536,0.9950680380782073
2014-05-16,1,0.00237690981027866,0.002740328360713927,0.0019268485873872566,0.0077906448733821585,0.9950725645225105
2014-05-20,1,0.0026255964380786445,0.003018607599111534,0.0014279503183384644,0.010133604830924974,0.9945443264787659
2014-05-22,1,0.002893694557948438,0.003334555228290464,0.0019268485873872566,0.010133604830924974,0.9946870529965238
2014-05-27,1,0.0026982550489423203,0.003092048557808787,0.0031337206947815643,0.010133604830924974,0.9930532586179662
2014-05-29,1,0.003588019919331163,0.004085687266030796,0.0027693842142603974,0.007691817751527357,0.9945523468784864
2014-06-02,1,0.0038112282923371665,0.0044015513589069554,0.003483728677703174,0.008724921857062229,0.9948820215007419
2014-06-04,1,0.0033076598809908893,0.003779978526939392,0.002515087565255238,0.008724921857062229,0.9944927891040231
2014-06-06,1,0.0035670401069555044,0.004026487772475263,0.00025332323722615063,0.0071792127456253695,0.994421069057009
2014-06-10,1,0.0036551216288363995,0.004125449868153294,-0.0013290782606724771,0.008724921857062229,0.9935675393894792
2014-06-12,1,0.0038392577235351706,0.0043259272469924805,-0.00472548625527454,0.0071792127456253695,0.9923322853203437
2014-06-16,1,0.004347452495800386,0.004911152161100922,-0.006014909938115175,0.0071792127456253695,0.9918746480625912
2014-06-18,1,0.0042013628295039344,0.0046857736866359675,-0.006283954820319162,0.0071792127456253695,0.9913534808994064
2014-06-20,1,0.004222444802997738,0.004699572358346333,-0.006283954820319162,0.006176409007041584,0.9908375222042134
2014-06-24,1,0.0025655521674991092,0.002816785181039557,-0.006014909938115175,0.006176409007041584,0.9910020791650491
2014-06-26,1,0.002277258185088507,0.002427356944170181,-0.006752395725286759,0.004773487033075632,0.9901876978138366
2014-06-30,1,0.002271259447927124,0.002409511813001985,-0.006752395725286759,0.0022248014002754926,0.9900845872411173
2014-07-02,1,0.002370001945819396,0.0025874949094568866,-0.00646980345495095,0.005570062386044251,0.9899985099062105
2014-07-07,1,0.0021603174385842437,0.0023570167009381747,-0.00646980345495095,0.011876785563990546,0.9886186202864823
2014-07-09,1,0.0024806825013542503,0.0026921701433144218,-0.0076084826382587945,0.007253417422158386,0.9877414189414951
2014-07-11,1,0.001678130991530787,0.001809135037692229,-0.0076084826382587945,0.012236634694404891,0.9876599978091857
2014-07-15,1,0.0019228257662538347,0.002099618707429421,-0.008781200952508984,0.007683055115918057,0.9873759603226313
2014-07-17,1,0.0018715930562780766,0.002029030474512801,-0.0076084826382587945,0.004052202526548639,0.9883571276306661
2014-07-21,1,0.0008752294146643824,0.0009168855069666523,-0.0076084826382587945,0.006190574250522702,0.9884824925735273
2014-07-23,1,0.002067811624677253,0.00216342575458781,-0.0076084826382587945,0.0076210244362530195,0.9897145470253979
2014-07-25,1,0.0015778120073888524,0.0016307985666799366,-0.008258653940930234,0.007831228708566238,0.989757808017764
2014-07-29,1,0.001057346577207323,0.0010951388020307858,-0.008258653940930234,0.00859960074120979,0.9894481741668053
2014-07-31,1,0.0014691340268903486,0.0014894519407825026,-0.008258653940930234,0.007831228708566238,0.9898789867213192
2014-08-04,1,0.0012621275829661032,0.0013018705857174994,-0.008258653940930234,0.0076210244362530195,0.9909783795608358
2014-08-06,1,0.0001829264601397043,0.00034518983297365704,-0.008258653940930234,0.0076210244362530195,0.9918500370378569
2014-08-08,1,0.0004119781525813815,0.0005493237318615273,-0.008258653940930234,0.007615879400043655,0.9922454207830874
2014-08-12,-1,-0.0005216685948800856,-0.0002740018674821632,-0.007113585062458782,0.007615879400043655,0.9926805177680709
2014-08-14,-1,-0.0009196704877163192,-0.000618080430232565,-0.009518393623379886,0.007615879400043655,0.9921506144261715
2014-08-18,-1,-0.0006647837621440194,-0.0003983755436538617,-0.009518393623379886,0.0078017896940765375,0.9917776116897264
2014-08-20,1,0.0002866315894861378,0.00041386610005888965,-0.009518393623379886,0.00520525357018737,0.9923623203967659
2014-08-22,-1,-0.00020311316087037008,-2.480282569874184e-05,-0.009839348850990765,0.003832840289149634,0.9921555511035993
2014-08-26,1,0.00045815759113334946,0.0005371654179729192,-0.009839348850990765,0.003832840289149634,0.9924564464738465
2014-08-28,0,-9.181285966723695e-05,8.867513612257326e-05,-0.014663713705720904,0.004831638534985314,0.9912058151204468
2014-09-02,-1,-0.0005120800522105549,-0.0002801976505197245,-0.009975685742110805,0.004126656272994316,0.9918484458840975
2014-09-04,-1,-0.0016083186075042935,-0.001193914669310375,-0.014696950870760724,0.004126656272994316,0.9903313711298813
2014-09-08,-1,-0.0016657467699580702,-0.0012707703932283727,-0.014737108945725799,0.002212391484628809,0.990221596283283
2014-09-10,-1,-0.00152804221756853,-0.0011707719698419192,-0.0172199536334205,0.004126656272994316,0.9888306708546049
2014-09-12,-1,-0.0019962107921454686,-0.0015973340613380676,-0.02120789625521821,0.0019038388129119952,0.9868109631224982
2014-09-16,-1,-0.0012563280380212174,-0.0009575203465707027,-0.023244286168772305,-0.0030057640377117983,0.9840816905356731
2014-09-18,-1,-0.002164567439499957,-0.001712140175387189,-0.023454430099297482,-0.0014983187285058336,0.9833557820865111
2014-09-22,-1,-0.003395852061340042,-0.002788716387826082,-0.023454430099297482,0.0007501101999656317,0.9845814553593856
2014-09-24,-1,-0.0033074443019194617,-0.002712081426771997,-0.023454430099297482,0.0007501101999656317,0.9822048230754805
2014-09-26,-1,-0.0035561573404697022,-0.002922395530979683,-0.023454430099297482,0.0007501101999656317,0.9821558525055707
2014-09-30,-1,-0.003432641014111679,-0.0028501132378553496,-0.02438732435919618,0.002750164054599505,0.9793455980925198
2014-10-02,-1,-0.005023770879247004,-0.004295344015485776,-0.023042588884699816,0.009401506385869656,0.9810438014168857
2014-10-06,-1,-0.0061610918461843705,-0.005296323185253031,-0.023042588884699816,0.01468681487398601,0.980740531760938
2014-10-08,-1,-0.006538384699798402,-0.0056132820680846,-0.023454430099297482,0.01601123243072289,0.9803193585187785
2014-10-10,-1,-0.008309098006353457,-0.007203766974434148,-0.020607084047507464,0.01601123243072289,0.9813960653929015
2014-10-14,-1,-0.010617954884110804,-0.009258085829125835,-0.012411280766329049,0.01601123243072289,0.9821335470925548
2014-10-16,-1,-0.010999444582393474,-0.00960166444958816,-0.019412405068526505,0.01601123243072289,0.9823634315448151
2014-10-20,-1,-0.01020294106950616,-0.008956966976440604,-0.019412405068526505,0.017868269824874005,0.9816190574030121
2014-10-22,-1,-0.009581027193285555,-0.008407098885656238,-0.01752276189924959,0.015903456357991907,0.9836077052466455
2014-10-24,-1,-0.00876564401637396,-0.007688908240920686,-0.01752276189924959,0.017868269824874005,0.9826400495450863
2014-10-28,-1,-0.008164992373930938,-0.007200810199042517,-0.01752276189924959,0.015903456357991907,0.9843232095627238
2014-10-30,-1,-0.007886345850371582,-0.006976074936536347,-0.019447075849111747,0.015177074989359409,0.980650797820443
2014-11-03,-1,-0.006884454548398418,-0.0061221823202736265,-0.019447075849111747,0.006674907894585242,0.9817295469203215
2014-11-05,-1,-0.006430318437695856,-0.005763650286425435,-0.01752276189924959,0.006674907894585242,0.9822834218021897
2014-11-07,-1,-0.005391149043538209,-0.004880663637537945,-0.022256521094985986,0.002121809041877806,0.9793882539127748
2014-11-11,-1,-0.005408463641032904,-0.004926001685540211,-0.022256521094985986,0.00552995779853222,0.9784246841663171
2014-11-13,-1,-0.007104408462536365,-0.006401900400817775,-0.017387202469947016,0.00552995779853222,0.979715485738699
2014-11-17,-1,-0.006615812936326427,-0.005997891226190068,-0.01900378346921925,0.005803835429651346,0.978940504124541
2014-11-19,-1,-0.0065678102854035535,-0.005999232505068627,-0.01900378346921925,0.020887358702698443,0.9744072069477189
2014-11-21,-1,-0.004172266021057124,-0.0038729579444182916,-0.01900378346921925,0.020279909527852715,0.9739427737525364
2014-11-25,-1,-0.005097478759360535,-0.0046691633124831804,-0.01878403444717653,0.02504220414396236,0.9735522129328809
2014-11-28,-1,-0.00873574853796913,-0.007909356309528874,-0.016999865049046436,0.02504220414396236,0.9786261871428716
2014-12-02,-1,-0.009442438821660114,-0.008502478792914268,-0.016999865049046436,0.02504220414396236,0.9787235495161045
2014-12-04,-1,-0.008733289216202061,-0.007904030631622688,-0.01878403444717653,0.02504220414396236,0.9765299822508027
2014-12-08,-1,-0.011380081404210002,-0.010269004164144595,-0.013770745690657641,0.02504220414396236,0.9799911330089645
2014-12-10,-1,-0.010486174370758106,-0.009495530429083758,-0.011554809648131326,0.026724215968063653,0.9794072148579341
2014-12-12,-1,-0.009872851294156774,-0.009076667115627234,-0.012518392316925309,0.026724215968063653,0.9777977104347416
2014-12-16,-1,-0.00896630445711143,-0.008257568170970245,-0.010921564562466197,0.020510769720874632,0.9781849670134802
2014-12-18,-1,-0.004896409430634618,-0.004664811032971324,-0.012518392316925309,0.018354759409018706,0.9806111990363502
2014-12-22,-1,-0.0034022676881691367,-0.0033806884810490315,-0.010921564562466197,0.01965891577106965,0.9802109752307527
2014-12-24,-1,-0.0027541402652812184,-0.002669072081519618,-0.010921564562466197,0.01965891577106965,0.980694331891614
2014-12-29,-1,-0.00316925731691383,-0.0031628688442628416,-0.011803447361076982,0.01965891577106965,0.9781410980230485
2014-12-31,-1,-0.0031558310882542863,-0.0031237197188228633,-0.011803447361076982,0.022190156007685855,0.9771538679361398
2015-01-05,-1,-0.004778693503788546,-0.004608570119768093,-0.010921564562466197,0.025872419651634025,0.9760229263277662
2015-01-07,-1,-0.005069404612681466,-0.00486400112714982,-0.004972767326583375,0.025872419651634025,0.9752242638091946
2015-01-09,-1,-0.0029649169032626324,-0.0029126902860659473,-0.011715195147483757,0.023651459083757043,0.9773744592463969
2015-01-13,-1,-0.003456655892085576,-0.003394785713351976,-0.013958847154297781,0.023651459083757043,0.9775062699702967
2015-01-15,-1,-0.0022904019511397096,-0.0020805504451820844,-0.013958847154297781,0.025872419651634025,0.9774425445713227
2015-01-20,-1,-0.0012809582391952955,-0.0008913744674564233,-0.013958847154297781,0.023651459083757043,0.9803236040754277
2015-01-22,1,0.00126524660232262,0.0019951927779121507,-0.013958847154297781,0.0172822567823758,0.9822862172876663
2015-01-26,1,0.0017871084229858017,0.0025768873345926036,-0.011872328428135253,0.013975018769681236,0.9835478335920367
2015-01-28,0,-3.0714768948184035e-05,0.0005059755975889424,-0.011872328428135253,0.014249366083376097,0.9842421613307734
2015-01-30,1,0.0014592167797411672,0.002191122051676798,-0.011872328428135253,0.013475437749705164,0.9849880918392103
2015-02-03,1,0.0040375118157707016,0.00511326788434819,-0.011872328428135253,0.011160884227353165,0.9872241715832962
2015-02-05,1,0.004184981171765146,0.005263268571375775,-0.015739580929953045,0.0037458029094771007,0.9854460135692059
2015-02-09,1,0.00415752217757355,0.005282009212415099,-0.017529854811641335,0.0037458029094771007,0.9839660875876387
2015-02-11,1,0.003415102812405827,0.0044343409635666485,-0.01627377634593614,0.011160884227353165,0.9849365844980404
2015-02-13,1,0.004463995351159093,0.005584407390635909,-0.01627377634593614,0.008543320035660247,0.9854991627343843
2015-02-18,1,0.004045909527921351,0.005143437671116673,-0.01627377634593614,0.011160884227353165,0.9845059980840931
2015-02-20,1,0.004571076086714546,0.005751088825744521,-0.017529854811641335,0.008543320035660247,0.9832420138356025
2015-02-24,1,0.005034817466514488,0.00626774599556229,-0.017529854811641335,0.006452848167218882,0.9825585280203397
2015-02-26,1,0.0037897702385334105,0.004759711923214205,-0.01627377634593614,0.006452848167218882,0.9844885157412412
2015-03-02,1,0.003588798743772969,0.00447417570305036,-0.01627377634593614,0.009326478416799905,0.9834507201150633
2015-03-04,1,0.004045891341820297,0.004995357585266091,-0.01627377634593614,0.006452848167218882,0.9835218352897643
2015-03-06,1,0.001278762168348085,0.0017274470711251889,-0.013748751937279641,0.013407882541592956,0.9836517707318723
2015-03-10,-1,-0.0013038941327310394,-0.0012855172614481946,-0.009256822354971115,0.013407882541592956,0.9852123800468885
2015-03-12,-1,-0.0011138169577156597,-0.0011130190371309047,-0.007070809706750851,0.014838696388426262,0.9848059760900995
2015-03-16,-1,-0.000854603543965242,-0.0008397161777767308,-0.0058052569435257904,0.019175684543842955,0.9840139503272928
2015-03-18,1,0.000476178958870025,0.0006844973747371783,-0.0058052569435257904,0.019175684543842955,0.9853721607952792
2015-03-20,-1,-0.0005332378874728174,-0.0003908095060109684,-0.0051663744723138205,0.019175684543842955,0.9862267901712982
2015-03-24,-1,-0.00041265137917324336,-0.00024353802030810325,-0.006226412402573218,0.019175684543842955,0.9853277166052643
2015-03-26,1,3.4928762456849544e-05,0.00027411365492093496,-0.007070809706750851,0.019175684543842955,0.9842517679043805
2015-03-30,1,0.0009177540209270136,0.0012858338277136707,-0.006609351908780445,0.014694095984036436,0.9856504103895558
2015-04-01,1,0.0007730040067043578,0.001126288071631645,-0.0051663744723138205,0.019175684543842955,0.9848543974781943
2015-04-06,1,0.003874271363107761,0.004666877090884435,-0.0051663744723138205,0.011614565564698047,0.988006466198394
2015-04-08,1,0.0033520812749990216,0.00405197751186836,-0.008281766809650315,0.010758354063976135,0.9873978849135155
2015-04-10,1,0.003975175468336882,0.004671570191543548,-0.00846059165050604,0.006290591957241356,0.9867268899869248
2015-04-14,1,0.004947805432520868,0.005767907605684288,-0.008848214119949675,0.006290591957241356,0.9860896349691306
2015-04-16,1,0.005135967954123369,0.005980856253677775,-0.010366607768540072,0.004598222989185217,0.9861780154203768
2015-04-20,1,0.005968737500892609,0.007023041540760489,-0.010366607768540072,0.006290591957241356,0.9861445763771557
2015-04-22,1,0.004179483567633265,0.004930730275569746,-0.010448281459012916,0.006290591957241356,0.9871079525344147
2015-04-24,1,0.0015169888164267447,0.0017004413032576464,-0.008925847221333709,0.006290591957241356,0.9889865032680222
2015-04-28,1,0.001397595669610797,0.001536273501733916,-0.011508949901179857,0.006109990529478724,0.9877047554354141
2015-04-30,1,0.0021852179069461793,0.0024290308332075667,-0.015109514948702,0.005704985467777438,0.9879348710489065
2015-05-04,1,0.00032253451822371554,0.00047568267143679083,-0.01614725622124519,0.006109990529478724,0.9871438554521352
2015-05-06,-1,-0.00019604429210419547,-9.034267256751013e-07,-0.01614725622124519,0.006109990529478724,0.9870154502802139
2015-05-08,-1,-0.0014637525582243583,-0.0010727073205476082,-0.01614725622124519,0.0063625734924805605,0.9874547931748272
2015-05-12,-1,-0.00239865333927068,-0.0019274374510953923,-0.015109514948702,0.006303058374090133,0.9889369407607136
2015-05-14,-1,-0.0011450618300463252,-0.0009689587800505122,-0.014335157385414358,0.006303058374090133,0.9887557374276389
2015-05-18,-1,-0.0002079172160855394,-0.00015633209107954876,-0.014335157385414358,0.006303058374090133,0.9885162013623825
2015-05-20,-1,-0.0012868279816978002,-0.0011179900555370109,-0.014335157385414358,0.006303058374090133,0.9888345361135692
2015-05-22,-1,-0.0008835876438300853,-0.0007423177189554593,-0.014335157385414358,0.006303058374090133,0.9881421952904091
2015-05-27,-1,-0.0019057634376811014,-0.0016347382071761067,-0.01247696391084539,0.008094065526874892,0.9883714718423153
2015-05-29,-1,-0.0036166073214191465,-0.003067899450515634,-0.01247696391084539,0.011923582560153592,0.9880719948625748
2015-06-02,-1,-0.003900564478860415,-0.0032890963452992562,-0.01247696391084539,0.008447234336504692,0.9880806555393479
2015-06-04,-1,-0.004165182723093494,-0.0035791858012951296,-0.014178542881768641,0.011944061864493087,0.9868448901105029
2015-06-08,-1,-0.0049016964512538,-0.004167153201167176,-0.014178542881768641,0.008447234336504692,0.9873709376892861
2015-06-10,-1,-0.0037956064859096224,-0.0032365363690924215,-0.01705414292451655,0.008447234336504692,0.98615807133225
2015-06-12,-1,-0.004335961965902819,-0.003715137457130899,-0.01782940140533596,0.008447234336504692,0.9857414476098674
2015-06-16,-1,-0.0025838444720408275,-0.002265475539780349,-0.01797746915076571,0.008447234336504692,0.9848679873506656
2015-06-18,-1,-0.0033947731234236257,-0.003003130981361707,-0.01797746915076571,0.008447234336504692,0.9838062076964813
2015-06-22,-1,-0.004233837156269918,-0.0036596261172594305,-0.022449853003309934,0.0070261876476977745,0.982695032134305
2015-06-24,-1,-0.0029092309202368204,-0.002531676712749715,-0.022449853003309934,0.006263708363377652,0.98348430464849
2015-06-26,-1,-0.0012139509938823186,-0.0011866312530214847,-0.023631271061655686,0.0042138563028595736,0.9815269280486729
2015-06-30,-1,-0.001474000622511244,-0.001430393383304882,-0.023631271061655686,0.006254968962478291,0.9804165712045783
2015-07-02,-1,-0.002155426746853892,-0.0020077945034158167,-0.022449853003309934,0.0042138563028595736,0.9817191989249242
2015-07-07,-1,-0.0028140842258726783,-0.0025354481059671062,-0.01815295092093648,0.0028364914602849777,0.9825066627608331
2015-07-09,-1,-0.003622441633336977,-0.0033196693247283613,-0.017564797950104183,0.0028364914602849777,0.9817096910284506
2015-07-13,-1,-0.004427499579085049,-0.0039999888633277855,-0.017564797950104183,0.0030468872621062237,0.9801204341701447
2015-07-15,-1,-0.003577691488943361,-0.0032612371731546336,-0.01678127613078565,0.0030468872621062237,0.9793793544072075
2015-07-17,-1,-0.005022325420531197,-0.004562864024666055,-0.019108418845414546,0.0030468872621062237,0.9802135829199651
2015-07-21,-1,-0.0073479750547943735,-0.006600284864447293,-0.013925865377999194,0.009685885755324005,0.9813152568821829
2015-07-23,-1,-0.0071186680014038465,-0.006409791198371629,-0.019108418845414546,0.009685885755324005,0.9788651463733313
2015-07-27,-1,-0.00917596792241233,-0.008268273171933568,-0.02170475120813493,0.009685885755324005,0.9775897251314624
2015-07-29,-1,-0.00702113335776988,-0.006272969949123549,-0.026787071794486254,0.007497120482596199,0.9777021172067386
2015-07-31,-1,-0.008146980230723432,-0.007199692982410446,-0.026787071794486254,0.021531935557277983,0.9714000730221894
2015-08-04,-1,-0.008078927893730863,-0.007148764361958339,-0.027926822603272235,0.021531935557277983,0.9694800258008975
2015-08-06,-1,-0.006706214886887425,-0.00593518938654367,-0.027926822603272235,0.01666774461122944,0.971825044848135
2015-08-10,-1,-0.004678827923105101,-0.004191830466679661,-0.027926822603272235,0.016499427181666644,0.9729692920649946
2015-08-12,-1,-0.004739031742359899,-0.004205544413396618,-0.03220281706489279,0.010401941677082043,0.9730138318834668
2015-08-14,-1,-0.006151087766814729,-0.005445486308850226,-0.03220281706489279,0.010401941677082043,0.9740405867886962
2015-08-18,-1,-0.004968084754799321,-0.0044263754000708685,-0.03220281706489279,0.010401941677082043,0.9717537735922384
2015-08-20,-1,-0.007103278146318951,-0.0063493122010818085,-0.03220281706489279,0.010401941677082043,0.9715844034693997
2015-08-24,-1,-0.009878896655442074,-0.008805936757576167,-0.01963479701004487,0.010401941677082043,0.9747836568359114
2015-08-26,-1,-0.008782555090794418,-0.007957571542294997,-0.01963479701004487,0.01044488315557225,0.9749381801015741
2015-08-28,-1,-0.003973463915744154,-0.003732495556239738,-0.027098372758737475,0.005653157086263282,0.9784086270296919
2015-09-01,-1,-0.0040304246946610695,-0.0038527948175047975,-0.01963479701004487,0.010427557889325815,0.9768026685517758
2015-09-03,-1,-0.0030238066885075665,-0.003018262482185837,-0.01963479701004487,0.016628251617137265,0.9726799071876394
2015-09-08,-1,-0.0025146580530808057,-0.00236737525096543,-0.01963479701004487,0.02709874800508964,0.9703135399655914
2015-09-10,-1,-0.003912440238994491,-0.003902950197039237,-0.016265113193210702,0.02795965251939813,0.9709318529468259
2015-09-14,-1,-0.0043903577552264214,-0.004252901146218154,-0.01963479701004487,0.02795965251939813,0.9698682916364678
2015-09-16,-1,-0.001781651789812894,-0.0016094981892876472,-0.01963479701004487,0.025701281695075115,0.9720399129642534
2015-09-18,-1,-0.004480833818248569,-0.004348982696530082,-0.009612199981644698,0.025701281695075115,0.9740331023243295
2015-09-22,-1,-0.004213755554134551,-0.004174730200925108,-0.009612199981644698,0.025701281695075115,0.9730287525700994
2015-09-24,-1,-0.003876034129556616,-0.0038559545021295606,-0.009612199981644698,0.025701281695075115,0.9737312466251495
2015-09-28,-1,-0.005628320406128374,-0.005426782159112587,-0.009612199981644698,0.025701281695075115,0.9745149294893295
2015-09-30,-1,-0.0022081984526729965,-0.0020027331287133386,-0.015389698428943405,0.0251424270808871,0.9760398727843673
2015-10-02,1,0.0007597253465542672,0.0013149979774988328,-0.015389698428943405,0.023567185255265147,0.979561814341468
2015-10-06,1,0.0028794016147341036,0.003692484395772376,-0.015389698428943405,0.020606962919773614,0.9810296724870254
2015-10-08,1,0.004050460051995938,0.005071992548030176,-0.015389698428943405,0.017825506249491436,0.9817199775028788
2015-10-12,1,0.0018472565327282953,0.002493029170237771,-0.011791913045753093,0.020606962919773614,0.977639719745494
2015-10-14,1,0.0029258802511183983,0.0037144720110147537,-0.019688481593420737,0.017825506249491436,0.9750129056245945
2015-10-16,1,0.002805493836903475,0.003529623441506873,-0.019688481593420737,0.014058299507040697,0.9755997989456289
2015-10-20,1,0.0025100454482416953,0.0031645912247267793,-0.016159641886661913,0.017825506249491436,0.97522128452128
2015-10-22,1,0.00282745730056965,0.0035444058393138416,-0.012621858707001351,0.01315233274627684,0.9761239708998937
2015-10-26,1,0.0019115747433496593,0.002464151373878,-0.011303095597033963,0.01315233274627684,0.9769320297836588
2015-10-28,1,0.003292283951294096,0.004037243252029921,-0.011044272017173805,0.01315233274627684,0.9775749025690916
2015-10-30,1,0.003691489624434227,0.004512241574533341,-0.011303095597033963,0.010180732146633504,0.9766947370802431
2015-11-03,1,0.005417178956796145,0.006453777478127871,-0.012621858707001351,-9.961279207123619e-05,0.9757854160571804
2015-11-05,1,0.005455088685349267,0.006542185067837865,-0.016204168831392654,0.0008496099766973428,0.974802140022849
2015-11-09,1,0.007119094104172481,0.008390751315963705,-0.016204168831392654,0.0008496099766973428,0.9777614439264871
2015-11-11,1,0.004872391894603174,0.005860538237209722,-0.01224536087694146,0.0032985999300743536,0.9825364695016736
2015-11-13,1,0.005129675581111578,0.006197241252312415,-0.016204168831392654,0.009204269900924067,0.979390281229707
2015-11-17,1,0.0056604355651544,0.006797710449425109,-0.013000875161610269,0.009204269900924067,0.978971692103273
2015-11-19,1,0.005531507977884051,0.006636109552405194,-0.02209479931430166,0.004657378041998367,0.9770268783938231
2015-11-23,1,0.0050054816112573,0.006019152537475833,-0.02209479931430166,0.0077288039014419855,0.9780350350394531
2015-11-25,1,0.005735523644576569,0.006816777912282897,-0.02209479931430166,0.0077288039014419855,0.9770576490974914
2015-11-30,1,0.004576423899687317,0.005446603007745078,-0.02265226363061836,0.012169259734570451,0.9776809212111333
2015-12-02,1,0.003324961484061176,0.004010982317507603,-0.015364545216643226,0.012169259734570451,0.9787560679434021
2015-12-04,1,0.002572383804771916,0.0031718621603757705,-0.015364545216643226,0.012169259734570451,0.9794799322499181
2015-12-08,1,0.0012206069058956675,0.0015263344381802992,-0.019474652478841534,0.007358355734066766,0.9746674425697728
2015-12-10,1,0.0010761175576702738,0.0012580667293858733,-0.025516115570573785,0.0035215815405647767,0.9737370923333464
2015-12-14,-1,-0.00027678335938258875,-0.0002607073802218036,-0.019474652478841534,0.005280963591712345,0.9773163573094288
2015-12-16,-1,-0.0010678157507631766,-0.000893384446506059,-0.025516115570573785,0.005280963591712345,0.9758654698231966
2015-12-18,-1,-0.0016990286733146059,-0.0015282912032138843,-0.02120719744935475,0.005280963591712345,0.9767012314113486
2015-12-22,-1,-0.0019344752909649496,-0.0016996136463696087,-0.02120719744935475,0.010650717899356935,0.9706898560348581
2015-12-24,1,0.00011317055387144867,0.00012333129811207012,-0.0288900423688114,0.010650717899356935,0.9708862788252173
2015-12-29,1,0.000893472136876783,0.0011054331540124127,-0.0288900423688114,0.015840279532189725,0.9693146959258536
2015-12-31,1,0.00043319325843636835,0.000612097306520354,-0.04117026104013704,0.022064548623831417,0.9662301413184351
2016-01-05,1,0.000705087786667651,0.0009421153589547128,-0.044014679260474456,0.04207224050505277,0.9615173881371856
2016-01-07,-1,-0.0044534475917877075,-0.003966017545451267,-0.04069507909007527,0.04207224050505277,0.9652380572065358
2016-01-11,-1,-0.0047601468375316446,-0.00428854355044638,-0.04069507909007527,0.04207224050505277,0.9635191312474597
2016-01-13,-1,-0.0058076886954681346,-0.005104951274159551,-0.04069507909007527,0.04207224050505277,0.9636957452935141
2016-01-15,-1,-0.006509664503997269,-0.005625981525749954,-0.03834112577973804,0.048586626415417354,0.9631794080015541
2016-01-20,-1,-0.007333448664390684,-0.0063135709607114055,-0.03834112577973804,0.05261369271503295,0.9598828729954161
2016-01-22,-1,-0.0010388653916783412,-0.000969000111034797,-0.0385230393484055,0.048586626415417354,0.9611048664966457
2016-01-26,-1,-0.003265940103346649,-0.0028504702940888795,-0.0385230393484055,0.048586626415417354,0.9615935044320882
2016-01-28,-1,-0.0009588341191095436,-0.0008141376573905267,-0.0385230393484055,0.045287987548037895,0.9614037612486894
2016-02-01,-1,-0.0010931830206972926,-0.0009475731615190038,-0.037704618258935355,0.03041330998751031,0.9637074965615934
2016-02-03,-1,-0.0003056274688669419,-0.00016357399875435632,-0.03300064986296954,0.04861137079997319,0.9618862056513098
2016-02-05,-1,-0.0038164875275328164,-0.0032424908132339244,-0.030475374409454407,0.062157794649300276,0.958342905528023
2016-02-09,-1,-0.004651338468212954,-0.004109486712360177,-0.02770439742241567,0.062157794649300276,0.9575873943660015
2016-02-11,-1,-0.007766434092233366,-0.0067027008566798415,-0.02327568053952428,0.062157794649300276,0.9547644701091814
2016-02-16,-1,-0.0055642110090088955,-0.004720829594020799,-0.02327568053952428,0.06131554202340209,0.9594992467736196
2016-02-18,-1,-0.004454596908464581,-0.00373552861581283,-0.0171922272578451,0.0593773394453635,0.9614655228258986
2016-02-22,-1,-0.0048990763197134055,-0.004026764157484784,-0.01610701718427308,0.048044868559001586,0.9650164825091573
2016-02-24,-1,-0.0031627330009487246,-0.0026533295263352083,-0.01610701718427308,0.048044868559001586,0.9656117518521216
2016-02-26,-1,-0.0011032957559632263,-0.0009960178158160702,-0.010737395677017526,0.03535782644724282,0.9676227717311384
2016-03-01,0,-2.3940155922545564e-07,0.00012443107982807784,-0.0062982409052044,0.03535782644724282,0.969553271655808
2016-03-03,1,0.0047354977020769235,0.005506196207707694,-0.010737395677017526,0.021706865087619244,0.9759796821616462
2016-03-07,1,0.006977417265498835,0.007943957710963076,-0.01471888988150925,0.008587271114277439,0.9795289071271195
2016-03-09,1,0.004176105714046993,0.004815776957437888,-0.01217018260680933,0.013340941750295373,0.9824500463161228
2016-03-11,1,0.005878047476159094,0.006748902024383817,-0.014090186932729783,0.013340941750295373,0.9827654987838016
2016-03-15,1,0.004967287263177472,0.005704993053274874,-0.014090186932729783,0.021706865087619244,0.9805746089041003
2016-03-17,1,0.006195106535177644,0.007092061813235783,-0.014630644150302024,0.010014506846873368,0.9809517633851931
2016-03-21,1,0.005440916412300544,0.006193359463259253,-0.014090186932729783,0.022190235471038617,0.9801254827105174
2016-03-23,1,0.004619805751079358,0.005332131428810144,-0.01209497961824009,0.022190235471038617,0.9821709461261537
2016-03-28,1,0.005017527117725171,0.00578176551215746,-0.014090186932729783,0.02611769954395196,0.9807621475911257
2016-03-30,1,0.0058679143651639174,0.00684621463795303,-0.014090186932729783,0.027654312039710083,0.9789716842782749
2016-04-01,1,0.004933952735913619,0.005759803516314053,-0.014630644150302024,0.027654312039710083,0.9773683872679991
2016-04-05,1,0.006586561063145863,0.007758910773630171,-0.016023481364342257,0.027654312039710083,0.9760588138332842
2016-04-07,1,0.006117582493092067,0.007057988644453497,-0.0176717623509285,0.027654312039710083,0.9738758750845513
2016-04-11,1,0.006173228947448093,0.007109691020505153,-0.020650471338690555,0.026783088682011513,0.9729448737240053
2016-04-13,1,0.007874479004332769,0.009045935120709758,-0.020650471338690555,0.02611769954395196,0.9757403115807546
2016-04-15,1,0.007357841347617874,0.008459140056348319,-0.024393532849104945,0.02611769954395196,0.9754116881635112
2016-04-19,1,0.008675383475898649,0.009906524207560835,-0.024393532849104945,0.020438667818721654,0.9756539123556608
2016-04-21,1,0.008349274113422284,0.009581115378123948,-0.024393532849104945,0.02619570830237482,0.9758631249271783
2016-04-25,1,0.007654715935145846,0.008746513410173795,-0.0198296603548054,0.02071247003702341,0.9783988970208924
2016-04-27,1,0.00867338949700324,0.009827905349268386,-0.0198296603548054,0.012795819087687697,0.9791046456416908
2016-04-29,1,0.006615879935617547,0.007471690939450539,-0.008846854140484363,0.012795819087687697,0.9826827274994213
2016-05-03,1,0.004873826016966457,0.005456981776634669,-0.017201072525257485,0.012795819087687697,0.983158619811847
2016-05-05,1,0.00733505946886882,0.008278854070574139,-0.017201072525257485,0.009256109226407148,0.9857889887409603
2016-05-09,1,0.004066811054381702,0.004479749740515217,-0.005846431150685659,0.017649502418362377,0.98652462833473
2016-05-11,1,0.005502868745998006,0.006115091653606257,-0.017664144594582105,0.009256109226407148,0.9853459974280279
2016-05-13,1,0.0034622554747734107,0.0037066619258921143,-0.017664144594582105,0.009256109226407148,0.9844618578399118
2016-05-17,1,0.004446623598588749,0.004820002416344155,-0.017664144594582105,0.009256109226407148,0.9849346472441022
2016-05-19,1,0.006654112925567168,0.00742980617113272,-0.019928296441600473,0.009256109226407148,0.98330449676126
2016-05-23,1,0.006152367817174222,0.006832728169579074,-0.019928296441600473,0.016583213915965064,0.9819883947188192
2016-05-25,1,0.005367106821770333,0.005887622084062308,-0.019928296441600473,0.017579361077526796,0.9813216963840382
2016-05-27,1,0.005332658675440286,0.005833104138485873,-0.02123120319065551,0.017579361077526796,0.9757941236679455
2016-06-01,1,0.0012960473197746688,0.0015497298829724477,-0.02123120319065551,0.024489488877388096,0.9750634760763012
2016-06-03,-1,-0.0007636174704982223,-0.00021226931847984423,-0.02059141049667577,0.024489488877388096,0.9755422828527095
2016-06-07,1,0.0013442981541684357,0.001653128994399346,-0.022604575240844027,0.019392355081940857,0.9763655111935617
2016-06-09,-1,-0.000539296338003543,-2.15726483970796e-05,-0.012439405823705355,0.019392355081940857,0.977833176503111
2016-06-13,-1,-0.0017997575552829836,-0.0011048293912921104,-0.0049584113376755995,0.024489488877388096,0.9778679562507717
2016-06-15,1,4.525883904238294e-05,0.0003717422777983211,-0.009769727370793162,0.024489488877388096,0.9777879338664782
2016-06-17,-1,-0.0016477556440401546,-0.0010471260969252547,-0.008882544253980421,0.024489488877388096,0.9790064601882466
2016-06-21,1,0.0015430112326690444,0.0016778445982821681,-0.014717664832544993,0.01313352983226611,0.9797265109876097
2016-06-23,1,0.0016186004629055338,0.0017705519286477184,-0.018448937448199358,0.007391010185242979,0.9800884957328201
2016-06-27,-1,-0.0013732326469311665,-0.0009372990311226918,-0.014717664832544993,0.012394939377741202,0.98340225939025
2016-06-29,-1,-0.0010285721606295218,-0.0004857460454211241,-0.01772636172001844,0.005191839731022128,0.9860426083484803
2016-07-01,-1,-0.002388708190737227,-0.0015661559630152622,-0.01949038005930503,0.005191839731022128,0.9841651751559338
2016-07-06,-1,-0.004408850452098752,-0.00326751400362971,-0.01772636172001844,0.005191839731022128,0.9844135914405089
2016-07-08,-1,-0.003537971428601914,-0.0026235965250585606,-0.01949038005930503,0.005014596957847862,0.9832924010617793
2016-07-12,-1,-0.0016236006317584912,-0.000979417196297766,-0.01949038005930503,0.005014596957847862,0.9839340551392326
2016-07-14,-1,-0.0021889285142613177,-0.0014645024196306084,-0.02173807210769306,0.006694105479866306,0.9829575499971767
2016-07-18,-1,-0.003376394099213528,-0.002470404203783178,-0.02173807210769306,0.013300767625549974,0.9826044238170323
2016-07-20,-1,-0.004468170176787969,-0.0034445824916550247,-0.0195703449231503,0.015407774905358933,0.9818122365535832
2016-07-22,-1,-0.00586454209342287,-0.004631258043297633,-0.013463908573253323,0.016891779949746086,0.9808142418037558
2016-07-26,-1,-0.0021405915089213025,-0.0016940064411625298,-0.010994944064163945,0.016891779949746086,0.9827755675208133
2016-07-28,-1,-0.0009534783273832648,-0.0008112074090106266,-0.010994944064163945,0.016891779949746086,0.9829908119818949
2016-08-01,-1,-0.00389106165046266,-0.0032489716827299154,-0.009203028745396392,0.016891779949746086,0.9854862372803046
2016-08-03,-1,-0.0012269160927092081,-0.0009649988907586096,-0.010994944064163945,0.013862891233054484,0.9846240714491729
2016-08-05,-1,-0.0032855749283001124,-0.0027381932393346856,-0.007849516285900826,0.016891779949746086,0.9848877881642483
2016-08-09,-1,-0.0027565427117322598,-0.0023336205558393197,-0.006660119262318688,0.016891779949746086,0.9824482788657654
2016-08-11,-1,-0.0027755022975870895,-0.0023519549159539913,-0.004859892598387666,0.01877676406966873,0.9806669442713107
2016-08-15,-1,-0.0034730007026240036,-0.0028971276137818155,-0.004859892598387666,0.015174704693379235,0.9796179217085708
2016-08-17,-1,-0.002184152652559464,-0.0017834438772571773,-0.006660119262318688,0.014408471844507425,0.9795038943945548
2016-08-19,-1,-0.0017312689409383832,-0.0013769524451053073,-0.008709704715358526,0.008605410859289616,0.9809076423169774
2016-08-23,-1,-0.0021300691843888953,-0.001696046259564809,-0.008709704715358526,0.014408471844507425,0.9783332353099631
2016-08-25,-1,-0.0028160393655220373,-0.0022899572431187313,-0.008709704715358526,0.014408471844507425,0.9780446974274735
2016-08-29,-1,-0.0017588032689593409,-0.0014213867019077964,-0.008709704715358526,0.013844763870472,0.9784356978414288
2016-08-31,-1,-0.003688719267737752,-0.0031240874438467903,-0.005935094203686608,0.031185209889551736,0.977107613673321
2016-09-02,-1,-0.0015359262241234433,-0.0013026409976356727,-0.005935094203686608,0.014903442881969164,0.9790137841715526
2016-09-07,-1,-0.00020751090838706153,-0.00011022974448155224,-0.005935094203686608,0.009683567731961079,0.9820278246698909
2016-09-09,1,0.002633801530840099,0.002982818531742597,-0.009461139553466351,0.0036339964023128827,0.9840543436921468
2016-09-13,1,0.0017457746110249677,0.0019679500460363496,-0.009461139553466351,0.004806114721711253,0.9851917243334519
2016-09-15,1,0.002145223697796153,0.002409312664650223,-0.00904800456233459,0.0018647829315969213,0.9864671425178555
2016-09-19,1,0.002459465657661867,0.0028459373592889196,-0.0068327280342253115,0.0018647829315969213,0.9868219953562871
2016-09-21,1,0.00295699999167832,0.003325952603669947,-0.006544886971710787,0.004806114721711253,0.98811549973058
2016-09-23,1,0.001958592657588612,0.0021300863938964283,-0.00904800456233459,0.004806114721711253,0.9876417188935552
2016-09-27,1,0.002390777067378889,0.002692355211777819,-0.010618834225576575,0.004806114721711253,0.9865220535421333
2016-09-29,1,0.0033586319293016243,0.003706476255995949,-0.010618834225576575,0.004806114721711253,0.9885112952480521
2016-10-03,1,0.003815584698425135,0.00430723680983527,-0.01376560262144925,0.004247816590754337,0.9863783700378289
2016-10-05,1,0.00366314975447903,0.004064665584709627,-0.01376560262144925,0.0009542281465999536,0.9868027131276812
2016-10-07,1,0.0036401511660740485,0.0040922326325430166,-0.016012839838501037,0.0037631031319373624,0.9844546539399947
2016-10-11,1,0.003894456091372533,0.004428833686996602,-0.01376560262144925,0.0037631031319373624,0.9843830056118477
2016-10-13,1,0.0036047194488615765,0.004114424357796563,-0.01376560262144925,0.012336555842285844,0.9847492518903596
2016-10-17,1,0.0035070020328864275,0.004009484276623513,-0.01376560262144925,0.01646510884923937,0.9838098292387075
2016-10-19,1,0.004617796222508466,0.0052746769004658614,-0.015092436552333381,0.01295682425319201,0.9807022542300592
2016-10-21,1,0.003061637980038825,0.003448746857078519,-0.015092436552333381,0.01295682425319201,0.9816555427454401
2016-10-25,1,0.0018670763809319575,0.0020457683680691723,-0.013190362224107294,0.018531016216417003,0.981725667886898
2016-10-27,1,0.003144643735297741,0.003594265687912183,-0.01325160325803396,0.018953384106019114,0.9810699623718824
2016-10-31,1,0.00154450125536607,0.0017137021694278317,-0.012664624698561715,0.018953384106019114,0.9812244397452491
2016-11-02,1,0.0008887538005387483,0.0009160836933945126,-0.012664624698561715,0.019151939901419106,0.9766275450636294
2016-11-04,-1,-0.00047245567556781473,-0.00035278542182636197,-0.012372549298839778,0.01936815823750121,0.9794002433817639
2016-11-08,-1,-0.00034612183916111534,-0.00022315355658267998,-0.012372549298839778,0.019151939901419106,0.9808851740555045
2016-11-10,1,0.0009978788038376308,0.0011107606463258784,-0.012372549298839778,0.018959001387643795,0.9818673930352088
2016-11-14,1,0.0016358094026004322,0.001873304922659302,-0.012372549298839778,0.013028460263401225,0.9828895602660296
2016-11-16,1,0.0016361200671168607,0.0016923321303228644,-0.012372549298839778,0.012109052320484584,0.9853070387979765
2016-11-18,1,0.002392047046162243,0.002659770438429181,-0.010527672574376336,0.010091198894741181,0.9861166698661312
2016-11-22,1,0.0026448536832748963,0.0029745878605310907,-0.006418881063250566,0.0055981188975659695,0.9873148462206811
2016-11-25,1,0.0020607024245560407,0.0022707265568303716,-0.005131808254584467,0.003759019852598331,0.9885960328648423
2016-11-29,1,0.001684141463000835,0.0018234018696867925,-0.002509547278062022,0.003759019852598331,0.9890380203889351
2016-12-01,1,0.0033535872912943813,0.003788904266479548,-0.005131808254584467,0.00210655878505539,0.9920027530239437
2016-12-05,1,0.003448549917591742,0.0038491053001087103,-0.005131808254584467,0.00210655878505539,0.992563915714014
2016-12-07,1,0.003313660397998558,0.003678903991172898,-0.00526984524295522,0.00210655878505539,0.9922926323301552
2016-12-09,1,0.0028083403297969357,0.0030726428158774862,-0.005575737620966399,0.003759019852598331,0.991732625133099
2016-12-13,1,0.0027599284187371457,0.0029696695175706134,-0.007483813287472034,0.0022927683142688554,0.9907480311676735
2016-12-15,1,0.0023487337222501785,0.0024878271018361786,-0.005575737620966399,0.0022927683142688554,0.9924253640170085
2016-12-19,1,0.0013528155957416414,0.0013932251260723673,-0.007439021014073267,0.0009373975705219025,0.9925537541876835
2016-12-21,1,0.00034663174142231105,0.0005636730337306884,-0.011012820065205675,-0.00030262508793920675,0.991965769800063
2016-12-23,1,0.0011835160155101465,0.0012185105390867933,-0.011012820065205675,0.0035659297349737544,0.9914395012255848
2016-12-28,-1,-0.0007129296321223954,-0.0003819756557627267,-0.00837746752035636,0.00493740900937457,0.9922900158579581
2016-12-30,-1,-0.0015490802416614404,-0.0011066981009472676,-0.00837746752035636,0.00493740900937457,0.9916347179609133
2017-01-04,-1,-0.0018086318553321963,-0.0013135202281431028,-0.011166274860697874,0.005750368428589504,0.989328890042357
2017-01-06,-1,-0.002126226854688187,-0.0015948934149736516,-0.01183089487052918,0.007827068530230697,0.9877223344861553
2017-01-10,-1,-0.0017652490282088135,-0.0013232614095360046,-0.012449586001158336,0.005750368428589504,0.9879486217325415
2017-01-12,-1,-0.0014928186702666691,-0.0011122633300364427,-0.011854844794485439,0.005750368428589504,0.9886189774459226
2017-01-17,-1,-0.0014255716663457007,-0.0010509189859981677,-0.015092914548948951,0.004272388533632375,0.987545115214888
2017-01-19,-1,-0.0025527624673582832,-0.0020089831317943083,-0.015092914548948951,0.004272388533632375,0.9879739637833606
2017-01-23,-1,-0.0032760500679336196,-0.0026595099121902964,-0.00926428452303489,0.007802887698793061,0.9879981075622036
2017-01-25,-1,-0.004129630792851665,-0.0033159903050781693,-0.020496052890629016,0.004599559156897298,0.9866236126252931
2017-01-27,-1,-0.003390970676549219,-0.0027025042316388397,-0.020496052890629016,0.004599559156897298,0.9870075481250407
2017-01-31,-1,-0.0037255095052703678,-0.0030737658160524496,-0.015270080515956339,0.0071544568721491186,0.9879088346592302
2017-02-02,-1,-0.0021864025783110263,-0.0018448163907681578,-0.015270080515956339,0.004290521742953815,0.9894132802926587
2017-02-06,-1,-0.004034572613500422,-0.0034188060085793793,-0.015245543854943049,0.0033154521123021346,0.9904897602856556
2017-02-08,-1,-0.0037097456850847983,-0.0031814767285629686,-0.01746082467322239,0.004290521742953815,0.9881031908463119
2017-02-10,-1,-0.0041643341432513765,-0.003538871633600463,-0.01746082467322239,0.0033154521123021346,0.9885619535010818
2017-02-14,-1,-0.003571573678285256,-0.0031349433390819702,-0.011099376397467832,0.004290521742953815,0.9885161742871191
2017-02-16,-1,-0.004573258368539564,-0.003970949596446154,-0.011099376397467832,0.004290521742953815,0.9883186135260486
2017-02-21,-1,-0.004287340741957694,-0.003714893757964324,-0.01363652729963918,0.0033030283848907273,0.9888342116704798
2017-02-23,-1,-0.003941563503327625,-0.0035154512954197813,-0.00892465824011449,0.00373474699888732,0.990301382014602
2017-02-27,-1,-0.004146792695385673,-0.0037099095565046947,-0.009265471917913094,0.0033030283848907273,0.990471608176235
2017-03-01,-1,-0.003925770334197009,-0.0035271153597526764,-0.009265471917913094,0.00373474699888732,0.9874036581727059
2017-03-03,-1,-0.004646029240077372,-0.004141783560867567,-0.010855230526673677,0.00373474699888732,0.987215338471504
2017-03-07,-1,-0.005207505809234175,-0.0046317351986286635,-0.009265471917913094,0.007254283278551235,0.9870002797909797
2017-03-09,-1,-0.005010359453685976,-0.0044578188788432305,-0.008151326555014837,0.007254283278551235,0.9885093492737487
2017-03-13,-1,-0.005736975280766532,-0.005095738888457455,-0.0073339388260270375,0.01519058181648267,0.987191266428327
2017-03-15,-1,-0.0038740278919308594,-0.003519779126775555,-0.0073339388260270375,0.007741947613458596,0.9884308006688003
2017-03-17,-1,-0.0046634700760205434,-0.004159410391948098,-0.009265471917913094,0.007741947613458596,0.987519674670361
2017-03-21,-1,-0.0055917720702614564,-0.004941435610523234,-0.011122319054654013,0.007741947613458596,0.9852732160029571
2017-03-23,-1,-0.0051621151597061815,-0.004600911982170075,-0.011122319054654013,0.006409373822419781,0.9856146681320392
2017-03-27,-1,-0.005876930589618297,-0.005175718215703754,-0.00846754908332213,0.018583016236500015,0.9844255096819478
2017-03-29,-1,-0.002795025556029094,-0.0024671702991077276,-0.015202828375511351,0.0006205894155369411,0.9865858750219771
2017-03-31,-1,-0.005054477204980339,-0.004389967973493217,-0.006234376296427372,0.0039685623119816325,0.9871804714414022
2017-04-04,-1,-0.004568576058657686,-0.00396835184101311,-0.006171396478794097,0.0039685623119816325,0.9877413611994461
2017-04-06,-1,-0.003268945598095023,-0.00286981344837903,-0.009529680087863531,0.0039685623119816325,0.9868419812163274
2017-04-10,-1,-0.0022479556126319225,-0.001995061097245414,-0.009529680087863531,0.004640713584620036,0.986951399134925
2017-04-12,-1,-0.001425938549469082,-0.0013541430756591345,-0.009529680087863531,0.0066689562007908945,0.986046556579681
2017-04-17,-1,-0.0020681410218310768,-0.0019207481724018364,-0.007251395260715396,0.006966417600265331,0.98669203170136
2017-04-19,-1,-0.0038158982017444812,-0.003488822066138122,-0.005923625679520863,0.006966417600265331,0.9886804716507985
2017-04-21,-1,-0.0036460153202026698,-0.0033443660162695253,-0.005923625679520863,0.009346688079912537,0.9874198154790302
2017-04-25,-1,-0.002950672636691907,-0.0027150287340659855,-0.007251395260715396,0.006966417600265331,0.9882390928347434
2017-04-27,-1,-0.0034866721351482707,-0.003330778455798652,-0.007251395260715396,0.006966417600265331,0.9876460510410155
2017-05-01,-1,-0.002258592526006055,-0.002208607594900889,-0.010265376543825021,0.008095785025107022,0.9874212604607621
2017-05-03,-1,-0.0018673539194731597,-0.0017513510764627434,-0.013630688819281776,0.010432668851178648,0.9867242694626873
2017-05-05,-1,-0.0010084824170678883,-0.0007638742118920498,-0.010265376543825021,0.008095785025107022,0.9886008277953346
2017-05-09,1,0.0003664291775177962,0.0008373904880616902,-0.013630688819281776,0.008095785025107022,0.9868166579413434
2017-05-11,1,0.0008712119515264258,0.001403785634151935,-0.013630688819281776,0.008095785025107022,0.986014512456822
2017-05-15,1,0.0010398647038219707,0.0015972025087442542,-0.013630688819281776,0.010432668851178648,0.9860473051642618
2017-05-17,1,0.0006957470809871792,0.0012151501528350358,-0.014010126703385736,0.010432668851178648,0.9853815068559065
2017-05-19,1,0.0017883307653224392,0.00245730917300506,-0.014010126703385736,0.010432668851178648,0.9848766330155433
2017-05-23,1,0.0005951706675551079,0.0010457522956729452,-0.01917273795386832,0.010432668851178648,0.981839029774169
2017-05-25,-1,-0.0011815379748315884,-0.0009947810517557025,-0.014010126703385736,0.010432668851178648,0.9832629703264978
2017-05-30,-1,-0.0008853627532410041,-0.0006466001909179744,-0.009120625157706442,0.010283550046458017,0.9842534672140355
2017-06-01,-1,-0.0008271199938257984,-0.0005844140511898112,-0.0057883179821143224,0.0115270025606234,0.984276536582361
2017-06-05,-1,-0.0011095042217443584,-0.000899448041778765,-0.00016425087273940964,0.01742300170878318,0.9826141414965948
2017-06-07,-1,-0.0006111804256492938,-0.000321435131920878,-0.008111606553603056,0.01171746674640131,0.982078899353958
2017-06-09,1,0.0009544996202722885,0.0014693904873842505,-0.018433795613523228,0.01171746674640131,0.9813886700590526
2017-06-13,1,0.0015216674152017746,0.002088323982271402,-0.018433795613523228,0.009925437490059976,0.9819202573194626
2017-06-15,1,0.00022638267331978948,0.0005787129332150798,-0.004097733177597696,0.011054768953457179,0.9821405822858521
2017-06-19,1,0.0021412263876029185,0.0027807774528648597,-0.015693745894366222,0.009925437490059976,0.9835743670211817
2017-06-21,-1,-0.0003669450181904429,-1.9246669818244163e-05,-0.0030499233461934758,0.011054768953457179,0.9843773732520986
2017-06-23,-1,-0.00042602061895798344,-0.00015370580227049588,-0.011276492743305208,0.011054768953457179,0.9834826112986176
2017-06-27,-1,-0.00030868123577457835,-3.318123659558651e-05,-0.011276492743305208,0.01509494564113012,0.9827480378445169
2017-06-29,1,0.0003613520166699853,0.0006743542831265071,-0.011276492743305208,0.01509494564113012,0.9826210288641999
2017-07-03,1,0.0018449600383528442,0.0023339021841114168,-0.014958028290963972,0.009505995164368619,0.9830200324822862
2017-07-06,-1,-0.0006054861233141864,-0.0004196958354924454,-0.01466820926112159,0.009505995164368619,0.982020434424496
2017-07-10,1,0.0003267607072733583,0.0005773905748370359,-0.015702889361775135,0.009505995164368619,0.9826875279318565
2017-07-12,1,0.0005049669400566812,0.00076956600894056,-0.015702889361775135,0.008442962156935135,0.9821394684998976
2017-07-14,1,0.001541925917854548,0.0019772077394984945,-0.017017947413935502,0.0006177869053292875,0.9811860973421814
2017-07-18,1,0.0001653232614744798,0.0003222564939587246,-0.017017947413935502,-0.0005412336934767299,0.9818706652243703
2017-07-20,1,0.0012426930424224492,0.0015285164707849771,-0.01852796067862205,-0.003316655168813602,0.9818098915743501
2017-07-24,1,0.0003916494316215756,0.0005687269233657515,-0.018602107233518204,-0.0005412336934767299,0.9823649972956932
2017-07-26,1,0.000769226294570783,0.0009653822184459167,-0.018602107233518204,0.0016523128982360907,0.9822720743113866
2017-07-28,1,0.0013410928450747956,0.0015781940304663952,-0.018602107233518204,-0.000353858007059956,0.9831776116309953
2017-08-01,1,0.00027306679912334397,0.00035836564885543344,-0.018602107233518204,-0.000353858007059956,0.9836217000584074
2017-08-03,-1,-0.003663415342949847,-0.0032514422594204853,-0.018248575447960966,0.002755673650963143,0.9884478637757378
2017-08-07,-1,-0.0028661503938924907,-0.0025923039756536705,-0.017845910938100274,0.002755673650963143,0.9893631016963241
2017-08-09,-1,-0.003431348701889646,-0.0030951919856433098,-0.017845910938100274,0.009653991910398828,0.9881514838353209
2017-08-11,-1,-0.004782343450653832,-0.004259592892348181,-0.017845910938100274,0.010822956269844856,0.9868581311737702
2017-08-15,-1,-0.005425104583759886,-0.0048253249285841356,-0.014078415017665455,0.012924731230037829,0.9841202345118606
2017-08-17,-1,-0.007093571832201606,-0.006295740884747384,-0.006963622259695328,0.012924731230037829,0.9841302325344269
2017-08-21,-1,-0.005172951112762683,-0.004752098347708265,-0.006963622259695328,0.012924731230037829,0.9858969279618365
2017-08-23,-1,-0.005172267781153463,-0.004686027559897592,-0.006963622259695328,0.015332987651981376,0.9849561815461852
2017-08-25,-1,-0.0048101929741679655,-0.004393699009116244,-0.006930100783981974,0.016861190631687575,0.9829574700701896
2017-08-29,-1,-0.005225431374954825,-0.0048116994428797424,-0.001848387256095046,0.018287112837751574,0.9819374035632593
2017-08-31,-1,-0.004427732806761562,-0.004158848919570218,-0.001848387256095046,0.018287112837751574,0.9830548057033073
2017-09-05,-1,-0.0035053851192350387,-0.0033489513283196815,-0.003419146676306943,0.018287112837751574,0.9843733756612464
2017-09-07,-1,-0.0024077741894202617,-0.00234163988572997,-0.0054116210617487556,0.016076874318543165,0.9855885274107893
2017-09-11,-1,-0.004605655201849994,-0.0041652321926478365,-0.0054116210617487556,0.016076874318543165,0.9858638782704177
2017-09-13,-1,-0.0018277878352931077,-0.001709422757550161,-0.007437516190633439,0.009164282611237445,0.9859385041292799
2017-09-15,-1,-0.0009352272750327658,-0.0008913947662282463,-0.010401779687368445,0.009164282611237445,0.9855263035814236
2017-09-19,-1,-0.002438644377892681,-0.0022267893448823287,-0.007437516190633439,0.015056748063643705,0.9846226879390026
2017-09-21,-1,-0.0004511035947034784,-0.00039976165705984544,-0.010388664630958866,0.008659110731648639,0.9862277054714362
2017-09-25,1,0.0010841098060073366,0.0013429037908013306,-0.012108767859607487,0.0050730225869303515,0.9856521558999182
2017-09-27,1,0.0022239045097933842,0.002664814720157071,-0.013377272406898693,0.00017551357136818364,0.9850644126219589
2017-09-29,1,0.002262721663476493,0.002753226409463929,-0.013377272406898693,0.0026656953474359295,0.9844862035478541
2017-10-03,1,0.002186802917333425,0.002690537320445577,-0.013377272406898693,0.006871689579589046,0.9845840629748437
2017-10-05,1,0.0026307814355595524,0.003192609035421402,-0.013377272406898693,0.006871689579589046,0.9838374062379216
2017-10-09,1,0.0024775834088778537,0.0029874194258266975,-0.013044849977142389,0.015488556464623427,0.980963380538209
2017-10-11,1,4.725297975676792e-05,0.00029587530996979627,-0.013044849977142389,0.015488556464623427,0.9840465229375847
2017-10-13,-1,-0.0005105853287102687,-0.00038284150416397617,-0.013445283022011941,0.017497670115416655,0.9828610889173736
2017-10-17,-1,-0.0002911853229055238,-0.0002297558833774216,-0.014793972968942984,0.014391771194453559,0.9817350835163059
2017-10-19,-1,-0.0008068357605655658,-0.0008014510949160224,-0.015209461609242837,0.014391771194453559,0.9808899257943521
2017-10-23,-1,-0.002485099548046573,-0.0022826345327807444,-0.014638839843417187,0.01656096616607808,0.9822494321634264
