JNU-Tangyin/eata/results/Batch4_SP500/Batch4_SP500-RHI.csv
Date,Action,Predicted_Q25,Predicted_Q75,Actual_Q25,Actual_Q75,RL_Reward
2010-12-14,0,0.0,0.007387635424833646,-0.002961514202805845,0.008850400086045422,0.9945130188650284
2010-12-16,1,0.006465667635086151,0.00732296102741658,-0.0016267483749580216,0.008850400086045422,0.9918545413372939
2010-12-20,1,0.005702427566253763,0.006334260242823428,-0.0016267483749580216,0.011872273272715748,0.9901260190437556
2010-12-22,1,0.0068278997201753466,0.007669802105875626,-0.0028542944672777606,0.008850400086045422,0.9895972190325484
2010-12-27,1,0.007075211261207524,0.007995252557741956,-0.0028542944672777606,0.01272211252048452,0.9896008324554432
2010-12-29,1,0.005864043293341604,0.006504775140561882,-0.004618064488787283,0.01272211252048452,0.9864384194543538
2010-12-31,1,0.00500624518497345,0.005500724906741008,-0.004618064488787283,0.014477730552098406,0.9853171114319573
2011-01-04,1,0.0032565942541248737,0.0033689481361168037,-0.0030819274487566177,0.014477730552098406,0.9856920120372329
2011-01-06,1,0.004573571160835402,0.004826618787075021,-0.0030819274487566177,0.01588506262088709,0.9852981790049951
2011-01-10,1,0.004825977525938861,0.005138002471479701,-0.003712358900404213,0.01588506262088709,0.9852595274781485
2011-01-12,1,0.004544713688451385,0.004670083752970394,-0.004697713477969454,0.014477730552098406,0.9852803731528152
2011-01-14,0,0.0,0.0,-0.005553658321909117,0.014477730552098406,0.9854273742334206
2011-01-19,1,0.0014435398611893418,0.001628147607218962,-0.005553658321909117,0.01385959335899492,0.9871903642253929
2011-01-21,1,0.0007819501678559836,0.001060935066303957,-0.004697713477969454,0.01385959335899492,0.9874013306277942
2011-01-25,1,0.002021224493103679,0.0021109816915847084,-0.010696758809505038,0.0030762544203827213,0.9860571070456483
2011-01-27,1,0.0006978808698672038,0.0008679808351340064,-0.006552378048856604,0.010072629388198279,0.9888101638012167
2011-01-31,0,-0.000242874424137616,8.316338680890818e-05,-0.006552378048856604,0.00455267615023665,0.9901255028771503
2011-02-02,1,0.00010767914652102314,0.00039650765483062954,-0.006552378048856604,0.007509839865999874,0.9880172462716013
2011-02-04,1,0.0019222363142774102,0.00199159145367054,-0.011523850647901394,0.0030762544203827213,0.9885181065961429
2011-02-08,1,0.0014216070396420887,0.0015629699004231442,-0.01386235350916022,0.004062597365390626,0.9857901346700727
2011-02-10,1,0.0016897609060756746,0.001735509757603485,-0.01784261600098684,0.007509839865999874,0.9837730264727121
2011-02-14,1,0.000699331485398062,0.0008953521607602969,-0.01784261600098684,0.007509839865999874,0.9836880437194403
2011-02-16,1,0.0005697126941739018,0.0007598673450778566,-0.01784261600098684,0.007509839865999874,0.9834701155017196
2011-02-18,1,0.00038004312522507363,0.0005949675455298252,-0.01784261600098684,0.010072629388198279,0.982718801412708
2011-02-23,-1,-0.0008598745735746931,-0.0005364451665713291,-0.01660369401041436,0.010072629388198279,0.9836843762461055
2011-02-25,-1,-0.0008078497514729054,-0.0004437925757034857,-0.01660369401041436,0.007899078672341178,0.9842416674281514
2011-03-01,-1,-0.0009635414199393865,-0.000625705276539502,-0.013910192813021164,0.010629424003309476,0.983978620723624
2011-03-03,1,0.0010614377340346023,0.0011489282546081972,-0.013910192813021164,0.012079729167320221,0.9847760718150079
2011-03-07,0,-7.26005303957162e-05,0.00013746406780339106,-0.009558813846396938,0.01541936878065738,0.985773268762301
2011-03-09,-1,-0.000971464813596045,-0.0006596200948769585,-0.008320268023768755,0.012549555809252634,0.9884825698056888
2011-03-11,-1,-0.0017070331639147352,-0.0013107316753242818,-0.008672405039343587,0.011083181985287908,0.9897236680294167
2011-03-15,-1,-0.002545103886863604,-0.0020453956829649964,-0.008584215033622195,0.011083181985287908,0.990038724412507
2011-03-17,-1,-0.0030775485880787778,-0.002526745635608049,-0.007360542747680266,0.011083181985287908,0.9900804171217178
2011-03-21,-1,-0.0023295414510242354,-0.0018645082036393133,-0.009307836989852842,0.010629424003309476,0.9901615734035086
2011-03-23,-1,-0.003562167070228413,-0.0029401838047921317,-0.006043685867907685,0.012217562283860867,0.9890479092347476
2011-03-25,-1,-0.0033348312103877974,-0.0027380852495077924,-0.006043685867907685,0.014080859755638619,0.9882994925400129
2011-03-29,-1,-0.0030785810395218636,-0.002543412998584956,-0.006043685867907685,0.014080859755638619,0.9891655600735779
2011-03-31,-1,-0.0016385573811106807,-0.0013010464160071002,-0.009307836989852842,0.01146767736385757,0.9902041014067896
2011-04-04,-1,-0.0018932298127274868,-0.0014734189688480133,-0.009307836989852842,0.006582440222345734,0.9906236384799624
2011-04-06,-1,-0.0015173246424608137,-0.001146571068267071,-0.01103709105328663,0.0029960408971572822,0.9897886614715748
2011-04-08,-1,-0.0029772911110952692,-0.0024182349091176293,-0.009503729564754879,0.0029960408971572822,0.9912704017442338
2011-04-12,-1,-0.004106732526877205,-0.0033737948596751417,-0.007781850038844653,0.005724165091144568,0.991044728165247
2011-04-14,-1,-0.003977344318695248,-0.003265917474044115,-0.01103709105328663,0.006415953084047143,0.9902302145837998
2011-04-18,-1,-0.0052598300366472235,-0.004387124660345892,-0.01103709105328663,0.006415953084047143,0.9905412589617907
2011-04-20,-1,-0.0035759448044264904,-0.0029394312104374072,-0.012575278725921835,0.005200762233999186,0.9903593679611018
2011-04-25,-1,-0.002883477366116576,-0.0023099372142523344,-0.013466789447462714,-0.0027661126402474434,0.9905804318061076
2011-04-27,-1,-0.0017735211480309793,-0.0014683674759796486,-0.013466789447462714,0.0029006488170237247,0.9899745049643937
2011-04-29,-1,-0.0023243207388845824,-0.0019392287235748002,-0.012961635880113533,0.0031286940495154824,0.9901014719682801
2011-05-03,-1,-0.002653114949068549,-0.0022463956709374345,-0.015314086441037758,0.0031286940495154824,0.989079859614497
2011-05-05,-1,-0.0037170387869083815,-0.0032056801698308922,-0.009562593055362592,0.0031286940495154824,0.9901944975082204
2011-05-09,0,0.0,0.0,-0.011839078854716228,0.005884897931474459,0.9883765477353356
2011-05-11,0,0.0,0.0,-0.013649861411113486,0.0031286940495154824,0.988063470492094
2011-05-13,-1,-2.5975514749620154e-05,-2.4251313552416577e-05,-0.013649861411113486,0.0019646323538339444,0.9881819159258406
2011-05-17,0,0.0,0.0,-0.013649861411113486,0.0031286940495154824,0.9874915280822982
2011-05-19,0,0.0,0.0,-0.013082046062357605,0.006064814462143128,0.9886863636137246
2011-05-23,-1,-0.0063976927149045956,-0.005627124469271922,-0.008455002336058887,0.009762568330716915,0.9874892741783028
2011-05-25,-1,-0.006093577116746624,-0.005342460395195394,-0.011905452150239493,0.009762568330716915,0.9877622589441853
2011-05-27,-1,-0.005740475408264181,-0.005023952714776049,-0.013992461043608575,0.008780796678009607,0.9872398974120866
2011-06-01,-1,-0.004591375776456094,-0.0041033038730060156,-0.011905452150239493,0.009686036384520718,0.9879680490597653
2011-06-03,-1,-0.004403125233498997,-0.003955330723113496,-0.011905452150239493,0.01671987123837751,0.9858703995103361
2011-06-07,-1,-0.0033007260035430508,-0.0030463954686766933,-0.013992461043608575,0.012746402956890505,0.9858930978392747
2011-06-09,-1,-0.0037263842035023887,-0.0034324264789654217,-0.013992461043608575,0.0180093136120264,0.9837528650312879
2011-06-13,-1,-0.0043193128433893935,-0.003961659698806633,-0.014587817723946782,0.0180093136120264,0.9833363646426982
2011-06-15,-1,-0.004182944094297603,-0.003840917001422541,-0.014155449031717846,0.012746402956890505,0.9847594100380954
2011-06-17,-1,-0.002649302153496988,-0.00254722683571298,-0.01897709977232434,0.012746402956890505,0.9848194186161385
2011-06-21,-1,-0.0026486722172898653,-0.0024382324501654317,-0.01897709977232434,0.009712558472302258,0.9847987295590285
2011-06-23,-1,-0.0025593169834344444,-0.0023400384729942705,-0.01897709977232434,0.01300588132058699,0.9800447241047378
2011-06-27,-1,-0.002501779031944643,-0.0023197218952783123,-0.01897709977232434,0.01300588132058699,0.9795920973278975
2011-06-29,-1,-0.0010575682045054434,-0.0009614851876765171,-0.020154400068850217,0.01166657553767146,0.9788105202732541
2011-07-01,1,0.00041384393831555286,0.0007115835673739996,-0.020154400068850217,0.0055269447605080894,0.9793769992778077
2011-07-06,1,9.803499759944716e-05,0.00034675025720874427,-0.022098608935625482,0.002944540137230724,0.9786118699443767
2011-07-08,-1,-0.0005249718685014805,-0.0003806623642837408,-0.02552007485495287,0.000316365728673543,0.9789678015059362
2011-07-12,-1,-0.001404254180525819,-0.0013840798943161414,-0.026421770437292182,0.002944540137230724,0.9739368547786803
2011-07-14,-1,-0.0016738236334019818,-0.0016553490448028441,-0.032375346416973455,0.0055269447605080894,0.9690674795990595
2011-07-18,-1,-0.0029105749252082563,-0.0026905834643867707,-0.032375346416973455,0.009762728881422116,0.9695401725995675
2011-07-20,-1,-0.0010669431126163493,-0.0010295729662509032,-0.032375346416973455,0.001748984442856106,0.9699295562653905
2011-07-22,1,0.0012161236965100805,0.0015323624516397894,-0.0345300718468248,-0.00106690768922324,0.971224023721627
2011-07-26,1,0.0009197820581679562,0.0012935255054602013,-0.032375346416973455,0.009762728881422116,0.9712168082309722
2011-07-28,-1,-0.00027063320834720526,-0.00010050923116635704,-0.027079390318715715,0.01203209688589334,0.9714962836823796
2011-08-01,-1,-0.0007649492872438734,-0.0006913014689427944,-0.027079390318715715,0.021132049344048814,0.9702159247784334
2011-08-03,-1,-0.002406899247638755,-0.0022617263082807763,-0.023659671758671605,0.021927655967369966,0.9712230393897424
2011-08-05,-1,-0.004547117289009968,-0.00413097117370551,-0.023557430917181193,0.021927655967369966,0.9710685976668755
2011-08-09,-1,-0.0053043733656875655,-0.004782442815352752,-0.018843398679503486,0.021927655967369966,0.9754845149386204
2011-08-11,-1,-0.004961242611604655,-0.004526293404221266,-0.023557430917181193,0.02054455528395582,0.9783553954283886
2011-08-15,-1,-0.004796063838426631,-0.004345315527670791,-0.023557430917181193,0.021927655967369966,0.9775707541406614
2011-08-17,-1,-0.005332024395069847,-0.004842894789691141,-0.023557430917181193,0.02411945840207689,0.9755591829545364
2011-08-19,-1,-0.007099196202303559,-0.006409791700033053,-0.02344270527109867,0.02411945840207689,0.9762811673389422
2011-08-23,-1,-0.00426975992514358,-0.003969085109550243,-0.02390331143366372,0.021381477262004647,0.9772855667633699
2011-08-25,-1,-0.004219346082732107,-0.003964705013950729,-0.02544155134990005,0.021381477262004647,0.9761879120561827
2011-08-29,-1,-0.0018320659723888525,-0.0017656220079792046,-0.02544155134990005,0.022453635036357056,0.9761362509678624
2011-08-31,-1,-0.0014117858462828882,-0.0013424975834164096,-0.02544155134990005,0.0253255574164891,0.9743012505515022
2011-09-02,-1,-0.0033623508677685736,-0.0031767225659797373,-0.028815739126392587,0.0253255574164891,0.9744743925454833
2011-09-07,-1,-0.002685102670471769,-0.002606538309250972,-0.028815739126392587,0.02630016327997442,0.9720237767348905
2011-09-09,-1,-0.005498753417603755,-0.0050581713737601515,-0.020611953892587808,0.02630016327997442,0.9732463153649099
2011-09-13,-1,-0.0038824373316147217,-0.0036968761337992937,-0.020611953892587808,0.02904642607738044,0.9732283377514709
2011-09-15,-1,-0.0013195375293313404,-0.0011294863076866443,-0.020611953892587808,0.026218301531102817,0.9749717359944318
2011-09-19,-1,-0.001681264567307312,-0.0015554732636724488,-0.02185140879750118,0.02904642607738044,0.9710656290654458
2011-09-21,-1,-0.0033102151903601964,-0.003232089315142934,-0.018988248549198936,0.02904642607738044,0.9709475407079432
2011-09-23,-1,-0.004075917634542162,-0.003899915160800586,-0.011911517219123955,0.030253227932248165,0.9714747129614387
2011-09-27,-1,-0.002446844832875849,-0.0024180125496279774,-0.018988248549198936,0.030253227932248165,0.9720420165895195
2011-09-29,-1,-0.001391202927407631,-0.0013037261615633207,-0.011911517219123955,0.030253227932248165,0.9714664057330233
2011-10-03,-1,-0.0029716654504468674,-0.0028757063179578966,-0.0042383716801879445,0.030253227932248165,0.9722393833342037
2011-10-05,-1,-0.0002336975669984244,-1.1735418410601219e-06,-0.011911517219123955,0.025970936551338357,0.975340180685818
2011-10-07,1,0.00023006207581949853,0.0004706516816369784,-0.012155823194679703,0.02837870254856173,0.9748083563617381
2011-10-11,1,0.001261547508384688,0.0016678246995627797,-0.014461944102271026,0.025970936551338357,0.9758432716704161
2011-10-13,1,0.0016377539479786585,0.0020481715625972393,-0.020721250256261394,0.02837870254856173,0.9731390703585125
2011-10-17,1,0.002025221433415244,0.002502897277120357,-0.01752048051038414,0.025970936551338357,0.9767375221668354
2011-10-19,1,0.0023962479982396765,0.0029378558755608804,-0.014035446761005843,0.025520919991664455,0.9776616675546838
2011-10-21,1,0.002973477845223663,0.0035452228767935156,-0.018568702553654313,0.024279987467052316,0.9774744773907911
2011-10-25,1,0.002859910703932618,0.0034106912222798417,-0.018568702553654313,0.02167279274422438,0.9788345135115871
2011-10-27,1,0.005014502179974428,0.00585835853128327,-0.02350442059911469,0.012634619479467183,0.9789325360368358
2011-10-31,1,0.003848700773277478,0.004502042763772984,-0.018568702553654313,0.0159912525171486,0.9787445932268791
2011-11-02,1,0.003333459707155339,0.0038745070464816156,-0.014690180088921017,0.0159912525171486,0.9776501017013923
2011-11-04,1,0.0038727429251150013,0.0044836895219912435,-0.014690180088921017,0.021522133091335577,0.9772851289661213
2011-11-08,1,0.004028912794307425,0.004683779025484929,-0.014690180088921017,0.021522133091335577,0.9772458314581175
2011-11-10,1,0.004090304563405445,0.004811869631485293,-0.013170520350454778,0.021522133091335577,0.9797875544272837
2011-11-14,1,0.003991919337636597,0.004682060711451768,-0.0142182779202134,0.016648468145448684,0.979553658986567
2011-11-16,1,0.0038869101729599106,0.00454347762712015,-0.016111697269287083,0.01353225394719943,0.9789817684949365
2011-11-18,1,0.0030282101168999584,0.003581482339024191,-0.015646767051690824,0.017105236633601802,0.9798606912790269
2011-11-22,1,0.003078962221783164,0.0037093445365154404,-0.013499885875146472,0.024369694479054384,0.9798433247361398
2011-11-25,1,0.0018398024252676455,0.0022930370547256202,-0.008357364627314505,0.02490982410963231,0.9809497086490735
2011-11-29,1,0.0026172127229460835,0.0031454249107032094,-0.013499885875146472,0.023673823186428477,0.9819064694999874
2011-12-01,0,0.0,0.0,-0.013499885875146472,0.021543471622047207,0.9839804393827027
2011-12-05,0,0.0,0.0,-0.013499885875146472,0.011402739499654752,0.9859821337335787
2011-12-07,0,0.0,0.0,-0.00825030464587772,0.011402739499654752,0.9865322814071056
2011-12-09,1,0.003111945963388092,0.0035824804211611033,-0.00825030464587772,0.009890430318929035,0.9879209969739785
2011-12-13,1,0.0032704985008507716,0.003875734553119409,-0.0036618518484102395,0.009890430318929035,0.9895575289040053
2011-12-15,1,0.003011310855830547,0.0035227078391313663,-0.0036618518484102395,0.009799671070256064,0.9900910416867128
2011-12-19,1,0.002732793401864813,0.0032124086462010206,-0.0026269636171401367,0.012609873416450972,0.9897010129973725
2011-12-21,1,0.0023623186844099406,0.002718520046349958,-0.0036618518484102395,0.009799671070256064,0.9904427223569074
2011-12-23,1,0.0029893402152816164,0.0033761000598223363,-0.0036618518484102395,0.009799671070256064,0.9908556322059384
2011-12-28,1,0.0009860672824445998,0.0009971949718026452,-0.005375627389764979,0.009799671070256064,0.9876000673663937
2011-12-30,1,0.00151571291061493,0.0016146150560201597,-0.005375627389764979,0.007716406774003651,0.9885728471564558
2012-01-04,1,0.0033603008652046524,0.0036685963628724765,-0.006358369940711777,0.009799671070256064,0.9874038029809272
2012-01-06,0,0.0,0.0,-0.006358369940711777,0.012014612336015215,0.9849203250077688
2012-01-10,0,0.0,0.0,-0.006358369940711777,0.012014612336015215,0.9855528375274073
2012-01-12,0,0.0,0.0,-0.010222737822837582,0.012014612336015215,0.9846673521332313
2012-01-17,1,0.002172254317213668,0.0022251513463854115,-0.00550620799076375,0.010296218592181623,0.9854467047927927
2012-01-19,0,0.0,0.0,-0.009863755740484684,0.006454655676873182,0.9867655049652337
2012-01-23,1,0.0020675068108422967,0.0021990123845821354,-0.005538388683630742,0.006454655676873182,0.9869807172524628
2012-01-25,1,0.002393966023468328,0.0026313715052988236,-0.0055415392093628385,0.0039214747401180436,0.9872833858994895
2012-01-27,0,0.0,0.0,-0.004098040120020137,0.004205262294598212,0.991356282897325
2012-01-31,0,0.0,0.0,-0.006823327074680513,0.004205262294598212,0.9905430741240326
2012-02-02,0,0.0,0.0,-0.006823327074680513,0.004205262294598212,0.9905553262456339
2012-02-06,0,0.0,0.0,-0.008225961470672415,0.0036635395546196336,0.9922982689215373
2012-02-08,-1,-0.0003302111011806918,-0.00012796913649155918,-0.008225961470672415,0.006454655676873182,0.9903501595261041
2012-02-10,0,0.0,0.0,-0.006823327074680513,0.006786300071102373,0.990791461352716
2012-02-14,0,0.0,0.0,-0.006823327074680513,0.007998219136213739,0.989919783747346
2012-02-16,0,0.0,0.0,-0.004710430408615044,0.01246957005861514,0.9897722012403309
2012-02-21,-1,-0.0005908643506794441,-0.0005213342823249213,-0.006823327074680513,0.01246957005861514,0.9891993563894095
2012-02-23,-1,-0.00048371829394198973,-0.00039760464779864873,-0.008057230318931198,0.01246957005861514,0.9889283616703883
2012-02-27,-1,-0.0024910926223572828,-0.00183421365446354,-0.008057230318931198,0.0134561276354998,0.9880303358373429
2012-02-29,0,0.0,0.0,-0.007600617782469838,0.0134561276354998,0.9882833948686175
2012-03-02,0,0.0,0.0,-0.007600617782469838,0.013262996094142636,0.9891848426431286
2012-03-06,0,0.0,0.0,-0.006240580224231179,0.015920222547525446,0.9891641981803706
2012-03-08,-1,-0.0002148953921230003,-7.901749721885796e-05,-0.008036517359460583,0.009562536446497731,0.9899962127216063
2012-03-12,-1,-0.0007732718158284189,-0.0007503485845758338,-0.009644178108523829,0.007776290239973788,0.98862957949833
2012-03-14,-1,-0.00021836494953664324,-0.00012025541195047145,-0.009644178108523829,0.010249119815148094,0.9879275718960119
2012-03-16,-1,-0.0003380982967533181,-0.0002455279706408238,-0.011118616689011566,0.007776290239973788,0.9881520622372766
2012-03-20,-1,-0.0005389617083943158,-0.0004973830538136743,-0.011124357472362005,0.010249119815148094,0.9870615388112138
2012-03-22,-1,-0.00036865990684975807,-0.00036117436424578135,-0.012331596590050556,0.010249119815148094,0.986103351362463
2012-03-26,1,0.001371120885967326,0.0014572628211853293,-0.015318732085940775,0.006891451609560159,0.9855862777180754
2012-03-28,1,0.0008694014672530437,0.000884634216738352,-0.015318732085940775,0.013268234892384633,0.9835057219287044
2012-03-30,0,0.0,0.0,-0.017576313713091637,0.013268234892384633,0.9826885863343705
2012-04-03,0,0.0,0.0,-0.017576313713091637,0.01216313410098546,0.9828642674921003
2012-04-05,0,-2.6916693633161797e-05,7.201233165091635e-05,-0.01587802690186723,0.01216313410098546,0.9830463111437567
2012-04-10,0,0.0,0.0,-0.011980531719142954,0.01216313410098546,0.9848428011651277
2012-04-12,0,0.0,0.0,-0.015086550935702221,0.007173061280913045,0.9853960274777223
2012-04-16,0,0.0,0.0,-0.012166963324451772,0.010174511012733273,0.9848000809588
2012-04-18,-1,-0.000758910974006927,-0.0005395795267331675,-0.011572074173804871,0.007173061280913045,0.9862755568998476
2012-04-20,-1,-0.002091385145428386,-0.0016679162183914824,-0.011572074173804871,0.007173061280913045,0.9870702437506279
2012-04-24,-1,-0.0019519459777906365,-0.0015620931272100679,-0.009179435289788308,0.007173061280913045,0.9870404522022099
2012-04-26,0,-0.00010234960587016752,4.2822116610076065e-06,-0.009179435289788308,0.00629616673221496,0.9896435517836192
2012-04-30,-1,-0.00022201462153831006,-0.00014949233308450744,-0.008161001769903,0.00629616673221496,0.9899821596715378
2012-05-02,1,0.00022988982350020452,0.0002752558156801614,-0.009179435289788308,0.0009614448061414307,0.9892958399199754
2012-05-04,-1,-0.0001342586923155155,-8.42597242538629e-05,-0.009445457298626354,0.0009614448061414307,0.9869800527933626
2012-05-08,-1,-0.0009256040539915448,-0.0007165359020016673,-0.009445457298626354,0.009375107697026515,0.9851573238314443
2012-05-10,-1,-0.0015014899715804107,-0.0012182080196653472,-0.008161001769903,0.01896168592676347,0.9850357026211053
2012-05-14,-1,-0.0014412853796625575,-0.001147573771951438,-0.008771928786988365,0.020520693162856127,0.9843600406707217
2012-05-16,-1,-0.0012555480021016934,-0.0010300358881939718,-0.012065292470288815,0.020520693162856127,0.9835631429133441
2012-05-18,-1,-0.0011545388154525554,-0.000988725431982567,-0.007518488617503155,0.020520693162856127,0.9833329466682074
2012-05-22,-1,-0.001169726876827717,-0.0009527641874556024,-0.011433860531245852,0.017627998386783274,0.9834787431196125
2012-05-24,-1,-0.000926321632017488,-0.0007808807230468193,-0.01253215901437902,0.017627998386783274,0.9820343942423171
2012-05-29,-1,-0.0004048786359441499,-0.00031341197616446907,-0.015328329600459982,0.014307582456854007,0.9818204300817283
2012-05-31,-1,-0.0012321359807700124,-0.0010439505250761129,-0.01253215901437902,0.014721744864995966,0.9823003246495424
2012-06-04,-1,-0.0027364756629246496,-0.002396349612782643,-0.008421825458668387,0.017627998386783274,0.9834406897572872
2012-06-06,-1,-0.0013765207864195623,-0.0011897090574507418,-0.008421825458668387,0.014721744864995966,0.9845989555109795
2012-06-08,0,0.0,0.0,-0.01253215901437902,0.013577040472937663,0.9846810039286549
2012-06-12,0,0.0,0.0,-0.008764637383425915,0.013266893911820067,0.9864356716359876
2012-06-14,-1,-0.00011970245693656542,-0.00011454569833249146,-0.008764637383425915,0.013577040472937663,0.9859240641333415
2012-06-18,1,0.0006736113571514262,0.0009163158898986123,-0.008764637383425915,0.007231037567195659,0.9867712190231852
2012-06-20,-1,-0.0013012981311196843,-0.0010207858224007688,-0.007376462228031672,0.01136320688981098,0.9869231001272862
2012-06-22,0,0.0,0.0,-0.00827700701269074,0.01136320688981098,0.9866393387323774
2012-06-26,0,0.0,0.0,-0.012308319159274123,0.01136320688981098,0.9852275350214998
2012-06-28,-1,-0.0010667858124242906,-0.0009549453245649977,-0.012308319159274123,0.01136320688981098,0.9844642240121033
2012-07-02,-1,-0.0002851053739647004,-0.0002582583407509655,-0.012308319159274123,0.009720772996821782,0.9863111693609126
2012-07-05,1,0.00019129742587712824,0.00020133878992077123,-0.012308319159274123,0.006026644827365829,0.9870819986210824
2012-07-09,-1,-0.00040310310227249275,-0.00036436161980619736,-0.007763389951807539,0.009720772996821782,0.9869573831490407
2012-07-11,-1,-0.00037979615600466563,-0.0003352226200107294,-0.007763389951807539,0.01136320688981098,0.9862958422668467
2012-07-13,-1,-0.00040736288734417707,-0.0003526854914631347,-0.006934798720797007,0.01136320688981098,0.9870709763796053
2012-07-17,-1,-0.00032567269240322427,-0.0002721372083741237,-0.007299769770460173,0.01136320688981098,0.9866970703807002
2012-07-19,1,0.00014459376964063192,0.000158103816556355,-0.007299769770460173,0.011558740782923238,0.9863812228404835
2012-07-23,-1,-0.0008544477993514619,-0.0007109323351584715,-0.006416346569798095,0.011558740782923238,0.9880344990925183
2012-07-25,-1,-0.003116279882567527,-0.0027009186424139736,-0.006416346569798095,0.011558740782923238,0.989248966318038
2012-07-27,0,0.0,0.0,-0.006416346569798095,0.007660220821563094,0.99066519318771
2012-07-31,0,0.0,0.0,-0.007299769770460173,0.007660220821563094,0.9884209709233943
2012-08-02,0,0.0,0.0,-0.008227709500321692,0.011558740782923238,0.9868136823982276
2012-08-06,1,0.00022954958668094653,0.0002999693070582794,-0.0096046290452499,0.007660220821563094,0.987564621524938
2012-08-08,0,0.0,0.0,-0.009779148004024846,0.007660220821563094,0.9855509565985192
2012-08-10,0,0.0,0.0,-0.009779148004024846,0.0056767092367696215,0.9864407305599238
2012-08-14,-1,-0.2367960855601291,-0.2365159000894525,-0.01250838801872741,0.003353271507048198,0.8100717473237415
2012-08-16,1,0.0006262002054116423,0.0007614049291499725,-0.01250838801872741,0.002215682241632834,0.9867368474084169
2012-08-20,0,0.0,0.0,-0.012579922602749077,0.0022224247218788967,0.9860855637654958
2012-08-22,0,0.0,0.0,-0.012579922602749077,0.0022224247218788967,0.9866766977108946
2012-08-24,1,0.00036950605547547363,0.00044559235766388166,-0.012579922602749077,0.0033563324097830674,0.9865183564071822
2012-08-28,-1,-0.0007324271840369606,-0.0006731720584944898,-0.01250838801872741,0.0033563324097830674,0.9881220478171384
2012-08-30,0,0.0,0.0,-0.009766102016869841,0.0033563324097830674,0.9891187231180232
2012-09-04,0,0.0,0.0,-0.01185457552982009,0.0033563324097830674,0.9889186984437591
2012-09-06,0,0.0,0.0,-0.01185457552982009,0.0033563324097830674,0.9910334259956157
2012-09-10,0,0.0,0.0,-0.01185457552982009,0.004254030106775894,0.9907112303913931
2012-09-12,-1,-0.0006857308909901599,-0.0004770278905008765,-0.011960224791400135,0.004254030106775894,0.9901628938737864
2012-09-14,1,9.798814742165303e-05,0.0004168227894889088,-0.011960224791400135,0.0025216572875431725,0.9906705488324011
2012-09-18,-1,-0.0008537141930441466,-0.000749487639477951,-0.007927958519158703,0.004254030106775894,0.9911429785037368
2012-09-20,-1,-0.0015467427245459853,-0.0015402305598997937,-0.00651495791433565,0.007021143742814984,0.9911864904829235
2012-09-24,-1,-0.0004218700061012422,-0.00020806474309597624,-0.007927958519158703,0.006925828522308377,0.9888654999779366
2012-09-26,-1,-0.0014511733827169994,-0.00142954063050341,-0.00651495791433565,0.006925828522308377,0.9896652841548815
2012-09-28,-1,-0.0009837488132916456,-0.0009065079300501937,-0.007695944311456015,0.006925828522308377,0.9896221675761551
2012-10-02,-1,-0.002021711919225045,-0.0019562361519012243,-0.0051448940947249515,0.008477898402295138,0.988770533957634
2012-10-04,-1,-0.0011656916272337345,-0.0011054409105800253,-0.0051448940947249515,0.006925828522308377,0.9895770525620344
2012-10-08,-1,-0.0016231972890416054,-0.00159452680469144,-0.005203335610027753,0.008477898402295138,0.9879404968826948
2012-10-10,-1,-0.002760029040849992,-0.002572176810550947,-0.007057764894379902,0.008477898402295138,0.9884287528144844
2012-10-12,-1,-0.002352374478278488,-0.0022514848063087123,-0.004755486931289988,0.010637716908845591,0.9881376309394192
2012-10-16,0,0.0,0.0,-0.008527568674274252,0.010637716908845591,0.9882041050079774
2012-10-18,0,0.0,0.0,-0.008527568674274252,0.011970451916226213,0.9878899504762371
2012-10-22,0,0.0,0.0,-0.007353267149296681,0.00965978176717154,0.990572582735958
2012-10-24,0,0.0,0.0,-0.007353267149296681,0.011970451916226213,0.9894854594349348
2012-10-26,-1,-0.0001893280254081444,-0.00018091886728263017,-0.007353267149296681,0.00966762826940827,0.9899502800589859
2012-11-01,1,0.001239812126085379,0.001460510056097035,-0.007353267149296681,0.00966762826940827,0.9909713527551097
2012-11-05,1,0.0007538507382652187,0.0009092220943015083,-0.007353267149296681,0.00966762826940827,0.9911747400377722
2012-11-07,1,0.00035365167713980047,0.0004442913686403122,-0.003711195984375564,0.009228263102593448,0.9925128007476276
2012-11-09,1,0.0004621974936948172,0.0005968623031199805,-0.0022990516419158645,0.010675895922491935,0.9922475412946049
2012-11-13,1,0.0007171850776102073,0.0008710926254239806,-0.0024952917207984957,0.010206971819168215,0.992390499716552
2012-11-15,1,0.00014798559008213832,0.00019108901620053706,-0.0024952917207984957,0.010206971819168215,0.9921874480009513
2012-11-19,-1,-2.5141410717411723e-05,-1.224534786214982e-05,-8.539679791787268e-05,0.010206971819168215,0.9920535944009592
2012-11-21,1,0.0003325552174612864,0.0003796682424822409,0.0009847991458385302,0.01441731598163605,0.9911674204266128
2012-11-26,1,0.00142933160016619,0.0016632503700161378,-8.539679791787268e-05,0.011084868292312797,0.9926989543277622
2012-11-28,1,0.0015644886305203813,0.0018610583737026887,0.0009847991458385302,0.011084868292312797,0.9932593949233914
2012-11-30,1,0.00147717671533695,0.0017113212849001632,-8.539679791787268e-05,0.010699019840865033,0.9928525155447279
2012-12-04,1,0.0015002446831639351,0.0017442764904336224,0.0005697456215374387,0.013259770627292758,0.9915616969717719
2012-12-06,1,0.0017996956372481995,0.0020916896749981323,0.0003447685549094336,0.016284293126132877,0.9904467545156234
2012-12-10,1,0.0020053929380405384,0.002317776086236216,-0.0017597474070430317,0.013094661262708826,0.9914048699453973
2012-12-12,1,0.002459686809433745,0.002864851888283073,-0.0012213178371455339,0.013094661262708826,0.9919600245437801
2012-12-14,1,0.00236665339716719,0.002720012796812127,0.0008808981625073735,0.013094661262708826,0.9917168002063911
2012-12-18,1,0.001858916845491491,0.002011055170982189,-0.0012213178371455339,0.013094661262708826,0.9910824373207294
2012-12-20,1,0.003204365439471152,0.0036258670677030043,-0.0012213178371455339,0.010260273457233463,0.992468118314198
2012-12-24,1,0.0025542786778706946,0.002861773084647361,-0.0012213178371455339,0.01168944205407209,0.9914270373741431
2012-12-27,1,0.0027156318803621877,0.003037636848566361,-0.0027341705755965524,0.01168944205407209,0.9908709990058165
2012-12-31,1,0.0030014807374491997,0.0033663884492853655,-0.0033450598873188556,0.01187008650788266,0.9881813442625964
2013-01-03,1,0.0040460304573377145,0.004571392982488455,-0.009789048873288941,0.009341385338627457,0.9886531627813954
2013-01-07,1,0.0036811858646051705,0.004185883514466511,-0.009789048873288941,0.009341385338627457,0.9885161293587547
2013-01-09,1,0.0036606553070997042,0.004143017946280168,-0.009789048873288941,0.009341385338627457,0.9880360040094363
2013-01-11,1,0.004118898542384119,0.004718317103034274,-0.009789048873288941,0.009341385338627457,0.9877248771693831
2013-01-15,1,0.004423981514972801,0.005042818577024639,-0.009789048873288941,0.007471362060029008,0.9875373985423886
2013-01-17,1,0.003790182843852466,0.00426404164000793,-0.008910059791164424,0.007471362060029008,0.9884786936608302
2013-01-22,1,0.0038937356372655417,0.004390355981174615,-0.009789048873288941,0.007593383145397167,0.9855430332985196
2013-01-24,1,0.0035076371782957402,0.0038661319709157836,-0.009789048873288941,0.007593383145397167,0.9846403115451675
2013-01-28,1,0.003184630382884632,0.00348463473678184,-0.011026271801853945,0.007593383145397167,0.9842063804482225
2013-01-30,1,0.004905098889545974,0.005393921007273675,-0.009981057388133164,0.007593383145397167,0.9868871420525268
2013-02-01,0,0.0,0.0,-0.00915587585371118,0.007538099860470201,0.9877534188708894
2013-02-05,0,0.0,0.0,-0.007279144918454087,0.007538099860470201,0.9883910931159828
2013-02-07,1,0.005797282727251872,0.006480480509615777,-0.004042445806516012,0.009809273676746806,0.9877258440037858
2013-02-11,0,0.0,0.0,-0.007790253119776306,0.009809273676746806,0.988000260977731
2013-02-13,0,0.0,0.0,-0.007790253119776306,0.009809273676746806,0.9875970496603124
2013-02-15,0,0.0,0.0,-0.011795405745054294,0.008013455040024382,0.9869881182820714
2013-02-20,1,0.00020627324454025245,0.00024394462315282877,-0.007790253119776306,0.00805862090471209,0.988849772985444
2013-02-22,1,0.0010268611188914707,0.0010945697143473383,-0.007790253119776306,0.006711530663368628,0.9905166084137867
2013-02-26,1,0.0038435887651623027,0.004017852840252863,-0.006531149556860098,0.00805862090471209,0.9913015164308753
2013-02-28,1,0.0035952922580611184,0.0036556560278065728,-0.006531149556860098,0.00805862090471209,0.9913659278116039
2013-03-04,0,0.0,0.0,-0.0048058275082918465,0.00805862090471209,0.9909762236930925
2013-03-06,1,0.00010315902398009085,0.00012342045221979002,-0.007099718087046352,0.006711530663368628,0.9916202463812475
2013-03-08,1,3.828575497349906e-05,4.756761466039779e-05,-0.009254124584432213,0.006711530663368628,0.9902721238042781
2013-03-12,0,0.0,0.0,-0.008772545511404488,0.007751118702812003,0.9891286009010587
2013-03-14,0,0.0,0.0,-0.008772545511404488,0.007751118702812003,0.9892601784008227
2013-03-18,0,0.0,0.0,-0.008772545511404488,0.011426430403448764,0.9872894948859109
2013-03-20,0,0.0,0.0,-0.009635894607865644,0.005372531927280367,0.9875783717222273
2013-03-22,1,0.0023805673965624375,0.002500535913883693,-0.009225468135698623,0.012516966829489882,0.9861999235042469
2013-03-26,1,0.0025471977978666445,0.0026584989831166988,-0.009635894607865644,0.01109789736909271,0.9818024708004665
2013-03-28,1,0.003335465960426436,0.0033818954329890077,-0.011394748197179607,0.00617288540130847,0.9806829306677937
2013-04-02,1,0.002353499112915613,0.002449230612362529,-0.011394748197179607,0.01109789736909271,0.9812982684035623
2013-04-04,1,0.0012985735916420573,0.001552139268328886,-0.01647789079516749,0.01109789736909271,0.9800922054056584
2013-04-08,0,-5.606883558281414e-05,0.0003806452108299199,-0.01130877885097884,0.012668505414531683,0.9793086212082607
2013-04-10,0,0.0,0.0,-0.01130877885097884,0.012256825562130046,0.9805638386472408
2013-04-12,0,0.0,0.0,-0.01130877885097884,0.012668505414531683,0.9800235317646357
2013-04-16,-1,-0.0012312647186222781,-0.0007780994501287101,-0.008282350614789095,0.012668505414531683,0.9817048515051356
2013-04-18,-1,-0.002369966865570729,-0.0017867819793449026,-0.003437532807355965,0.01381444885275365,0.9813759651121925
2013-04-22,-1,-0.0006630305079800031,-0.0003134945296597248,-0.0072079471755620884,0.01381444885275365,0.9822978721520378
2013-04-24,-1,-0.003831808799876127,-0.0030947007658733766,-0.0072079471755620884,0.01381444885275365,0.9855699053180864
2013-04-26,-1,-0.004722353319024309,-0.003894470312563478,-0.0058194920200094515,0.01381444885275365,0.9858369410806099
2013-04-30,-1,-0.004241306203930101,-0.003474607445144049,-0.007090707934719944,0.01319493519851469,0.9859267303116825
2013-05-02,-1,-0.005562140488793313,-0.004649132865046011,-0.0058194920200094515,0.01319493519851469,0.9870469672919946
2013-05-06,-1,-0.003184272050708501,-0.0025824768661451315,-0.007090707934719944,0.0070516020354640845,0.9903922631391007
2013-05-08,-1,-0.0031179106229879934,-0.00252601512046563,-0.008868797887911763,0.01160261203911533,0.9892495425379338
2013-05-10,-1,-0.002379584828791896,-0.0018797784590950878,-0.010373965702820079,0.008120598457389687,0.9896916484305306
2013-05-14,-1,-0.001575704129631932,-0.001210644820171807,-0.011993807341310184,0.005850320743881294,0.990189634304771
2013-05-16,-1,-0.0006190443489297702,-0.00040978111024543215,-0.013514472065908393,0.005850320743881294,0.9887953071990844
2013-05-20,-1,-0.0009208561082164076,-0.00065922087229699,-0.011993807341310184,0.005850320743881294,0.9892132036210288
2013-05-22,-1,-0.0011784091407646433,-0.0008927369091094023,-0.013831767715107416,0.0051279953371730705,0.9881738822392475
2013-05-24,-1,-0.0014661610959750672,-0.0011539914881430495,-0.014618038653466352,0.0051279953371730705,0.9877286763237838
2013-05-29,-1,-0.001027960814880715,-0.0008089010877201986,-0.014618038653466352,0.0051279953371730705,0.9877339596201867
2013-05-31,-1,-0.001359136875351143,-0.0010837761366903837,-0.014618038653466352,0.007978618390093402,0.9872321712867129
2013-06-04,-1,-0.0019330858816914692,-0.0015958132572180227,-0.012255897654096496,0.0083109854508258,0.9875448611523362
2013-06-06,-1,-0.0017422415887449303,-0.0014364263095303538,-0.012255897654096496,0.0083109854508258,0.9855720779943232
2013-06-10,-1,-0.0017222057400332813,-0.001450482766464553,-0.012255897654096496,0.012464944793304063,0.9844569504951489
2013-06-12,-1,-0.0022107330970411124,-0.0018843102695690916,-0.010662527278026496,0.015491736911840592,0.9839420205338386
2013-06-14,-1,-0.0017913803315900746,-0.0015229875357196802,-0.006608543430998548,0.012133794845903326,0.9853440748287134
2013-06-18,-1,-0.0010315602937862386,-0.0008543511368033837,-0.006608543430998548,0.01152191030466013,0.9861469853509535
2013-06-20,-1,-0.0024554891756326715,-0.002102780984713338,0.0010299593775398806,0.013847234421574806,0.9855373317894444
2013-06-24,-1,-0.001664295383946428,-0.0015123161868251921,0.0012581990071184588,0.013847234421574806,0.9861159385568847
2013-06-26,-1,-0.0013597845015437926,-0.001214064405231856,-0.0016213641185962037,0.013847234421574806,0.985823748116089
2013-06-28,-1,-0.0008104477736736351,-0.0007321041045676702,-0.0030854349788434527,0.013847234421574806,0.9862098960220171
2013-07-02,-1,-0.0009558724978845853,-0.00085454134128317,-0.0024865165963155198,0.01671878507783047,0.9853989718326952
2013-07-05,-1,-0.0014125592429143556,-0.0012480377761763342,-0.002143061573327559,0.01671878507783047,0.9875936197891814
2013-07-09,-1,-0.0005254685959371084,-0.00046057729073164264,-0.0024865165963155198,0.013847234421574806,0.9888452841541261
2013-07-11,-1,-0.00017299494524065316,-0.0001668100384693573,-0.0030854349788434527,0.015405432534965421,0.987906811636091
2013-07-15,1,0.00025981914823194544,0.00030443895921114294,-0.0030854349788434527,0.015405432534965421,0.9885609770832134
2013-07-17,1,0.000661178584756739,0.000775359136591666,-0.0038685695913475183,0.015405432534965421,0.9885987515986122
2013-07-19,1,0.001425506945460286,0.0016099190093693456,-0.005945525986753954,0.008706425168943719,0.9887947639505015
2013-07-23,1,0.0010515258256209733,0.0012073134966141376,-0.005945525986753954,0.008706425168943719,0.9892774313954553
2013-07-25,1,0.0013449222412049878,0.0015143206421970154,-0.007384439935826071,0.008706425168943719,0.9894274236725997
2013-07-29,1,0.0013487251634413358,0.0015545489109359632,-0.007384439935826071,0.008706425168943719,0.9896009607396863
2013-07-31,1,0.0023231144969857592,0.0026793959302984166,-0.009643256808478846,0.007447824084824632,0.9885703003891264
2013-08-02,1,0.0026047267791248115,0.002972179310613692,-0.011011461588710476,0.00325869811738577,0.9888741286353249
2013-08-06,1,0.002798378701175955,0.003209359931518314,-0.011011461588710476,0.006826404544111039,0.9888695197114855
2013-08-08,1,0.0027631728423506427,0.003146150438826006,-0.009643256808478846,0.006886513097840085,0.9896247369001618
2013-08-12,1,0.003035656605515226,0.003496087851790769,-0.009643256808478846,0.007447824084824632,0.9884894670552876
2013-08-14,1,0.0027927048079620844,0.0031989976955562075,-0.009643256808478846,0.006886513097840085,0.9885522158471673
2013-08-16,1,0.002642154921080945,0.0030548955104872906,-0.007643619000892511,0.007328425540117091,0.9896104241975016
2013-08-20,1,0.0025825563973900963,0.0030099141114626384,-0.003640206302583251,0.008092676604841628,0.9900372900755852
2013-08-22,1,0.0023252585386781153,0.002688903231435483,-0.003640206302583251,0.007048228756620481,0.9907413943045449
2013-08-26,1,0.0018220776175548593,0.002098681711369698,-0.003640206302583251,0.008092676604841628,0.9905059989170023
2013-08-28,1,0.0007948409273811192,0.0009137156944122147,-0.0022007287185232907,0.008963261620420668,0.9917418856864895
2013-08-30,1,0.0006970655612658627,0.0008419329979428964,-0.0009146998480611177,0.008963261620420668,0.9924082811680613
2013-09-04,1,0.0009898778424946284,0.0011528438715599386,-0.0009146998480611177,0.008092676604841628,0.9933361955241796
2013-09-06,1,0.0018007214630615625,0.002067635492448289,-0.0021491503877087027,0.008092676604841628,0.9934325800254235
2013-09-10,1,0.002008349737424943,0.002249639516855755,-0.006170242364939493,0.004666286367903345,0.993638257166885
2013-09-12,1,0.0023080278142024605,0.002656940669699704,-0.006239086726737401,0.008092676604841628,0.9921587706700197
2013-09-16,1,0.0013669893294922055,0.0014541027397127451,-0.006239086726737401,0.007474843489626694,0.9923348837660599
2013-09-18,1,0.001284620127480369,0.0013077006266997717,-0.006239086726737401,0.007785034938212513,0.9914681372819051
2013-09-20,1,0.0009890502980786802,0.000993345326808969,-0.003199074975860636,0.00925725186490185,0.9915549205822873
2013-09-24,1,0.0002429234687180878,0.0003836969000243017,-0.003199074975860636,0.007785034938212513,0.9917680243219892
2013-09-26,1,0.001317482460605552,0.0013992284782083316,-0.006239086726737401,0.005542464208123118,0.9901585810533361
2013-09-30,1,0.001278925460206277,0.0013557157905067405,-0.006239086726737401,0.005542464208123118,0.9903214805459111
2013-10-02,1,0.0014696043716406813,0.001603510696419132,-0.007982881253023546,0.005542464208123118,0.9894253996286982
2013-10-04,1,0.00202364420313014,0.002244168137404032,-0.007982881253023546,0.005542464208123118,0.9899852479074296
2013-10-08,1,0.001336609182554369,0.0014858217612165716,-0.004517673095098542,0.005542464208123118,0.9908565461275669
2013-10-10,1,0.0017634131919446005,0.0019649697170319126,-0.008775456645271934,0.002570515491642572,0.9909019585641446
2013-10-14,1,0.0016782392965552896,0.0018522042767513444,-0.008775456645271934,0.006037735931815308,0.9896609113398772
2013-10-16,1,0.0021627533576861376,0.002383614748893731,-0.008775456645271934,0.008158812884953124,0.9901300183230786
2013-10-18,1,0.002163201064709404,0.002378839157218209,-0.009129374754058305,0.005642878579969901,0.9897254799191401
2013-10-22,1,0.001929086920494823,0.0021026636998385056,-0.010313740475987185,0.00407113240867776,0.9891685963266088
2013-10-24,1,0.0005818856923913843,0.000612019069214547,-0.008865480745462081,0.007817667872786304,0.9905268653769317
2013-10-28,1,0.0006302492103032215,0.0006537519420362497,-0.008865480745462081,0.007817667872786304,0.9903391637834691
2013-10-30,-1,-0.0001699043049753775,-3.5863646910354785e-05,-0.008775456645271934,0.008319949903988887,0.9907632553819026
2013-11-01,-1,-0.0002889202704743682,-0.00011387102763248526,-0.008775456645271934,0.007817667872786304,0.9910300180393774
2013-11-05,-1,-0.0005280048525686534,-0.00033430394028219096,-0.008580698638141293,0.007817667872786304,0.9908148632000335
2013-11-07,-1,-0.001211460745296761,-0.0009671815336126811,-0.0071667470652497355,0.008359570795412963,0.9904507717620222
2013-11-11,-1,-0.0008105104086340548,-0.0005575457952822763,-0.008606695273562563,0.007817667872786304,0.9908955412560917
2013-11-13,-1,-0.0007588100918183145,-0.00048499384124861696,-0.008943470651725894,0.006184435101485356,0.9911546914749286
2013-11-15,-1,-0.0009625163524199939,-0.0006829399887349204,-0.008606695273562563,0.007071471385011127,0.9913150590460249
2013-11-19,-1,-0.0016465173251500192,-0.0013026253863631203,-0.0034516058879738923,0.008416412099438008,0.9913012889524557
2013-11-21,-1,-0.0016609057520713868,-0.0013126549803679395,-0.0034516058879738923,0.010475969060029915,0.989517215470754
2013-11-25,-1,-0.0022813282018707467,-0.001808507394243699,-0.0034516058879738923,0.01275626870328041,0.9887011854129305
2013-11-27,-1,-0.001434742196136468,-0.0011114156261780278,-0.004887535191054497,0.01275626870328041,0.9891077548313454
2013-12-02,-1,-0.001284748433168061,-0.0009865129908783047,-0.004887535191054497,0.01275626870328041,0.9893842513996474
2013-12-04,-1,-0.0009568070168055825,-0.0007201577921169706,-0.005441019723707635,0.01275626870328041,0.9891367698674326
2013-12-06,-1,-0.00044148929446932825,-0.00027528447183982805,-0.005441019723707635,0.010320146033310593,0.9898325969882734
2013-12-10,1,0.00038008489626547193,0.00039391875571211343,-0.004718143743482395,0.007597462499863697,0.9909026006232496
2013-12-12,-1,-0.00046000380819044177,-0.00031260138796633356,-0.004718143743482395,0.010320146033310593,0.9895569659749502
2013-12-16,1,0.0003789705449448258,0.00040855894741385717,-0.004718143743482395,0.013444358977691468,0.9874480169446274
2013-12-18,1,0.0005747675001216525,0.000605250002041554,-0.006827497034632272,0.010360239663328828,0.9877458902252788
2013-12-20,1,0.0015813782989547132,0.0017300515065815816,-0.006374014448081224,0.007597462499863697,0.9898307386358988
2013-12-24,1,0.002170046603275763,0.002434112181001396,-0.009572429972145498,0.003231605592800951,0.9882095753894076
2013-12-27,1,0.002094547717982558,0.002351998754068361,-0.009572429972145498,0.0056436072661743735,0.9871347076509918
2013-12-31,1,0.002197950142650949,0.0024790594294818984,-0.009572429972145498,0.010574031273485255,0.9866878708264576
2014-01-03,1,0.0014936454971931144,0.0016765944216976842,-0.009572429972145498,0.010574031273485255,0.9841036840722064
2014-01-07,1,0.0013494944069922122,0.0015086918713004376,-0.008159828388573978,0.01224074597313243,0.9843235338194033
2014-01-09,1,0.0009144301867655625,0.000992909694072384,-0.008159828388573978,0.014085733808160746,0.9838789783480307
2014-01-13,1,0.00030122274875061774,0.0003190406402201633,-0.008159828388573978,0.01224074597313243,0.9851323908730785
2014-01-15,1,0.00203518353340074,0.0022430947156974134,-0.008159828388573978,0.010258121252961732,0.9867869271508026
2014-01-17,1,0.0010361830739182443,0.0010869456389578894,-0.007474254921294611,0.010994415379842215,0.9866187763725858
2014-01-22,1,0.00015544681085933075,0.0002622737545525884,-0.010609383412913682,0.010994415379842215,0.9858616064205008
2014-01-24,-1,-0.0014095972550995195,-0.0010885796383954785,-0.007302610144904806,0.010994415379842215,0.9876852503996897
2014-01-28,-1,-0.00022558697880224342,-6.372268060466193e-05,-0.007547105748797674,0.010258121252961732,0.988835964330666
2014-01-30,1,0.000882592213252407,0.0008995512115073901,-0.007547105748797674,0.010258121252961732,0.988678738217589
2014-02-03,-1,-0.0008215957619672342,-0.0006775959263881184,-0.007547105748797674,0.010836921252013857,0.9905969916836779
2014-02-05,-1,-0.0006477541712366899,-0.0005102107743332174,-0.0039403640114725625,0.010836921252013857,0.9905703240933732
2014-02-07,-1,-8.485347254561746e-05,-1.9936728243460293e-05,-0.007911960223035946,0.010836921252013857,0.9906871244582303
2014-02-11,-1,-0.0002724888865378659,-0.00021209190163513244,-0.007911960223035946,0.010836921252013857,0.9908603742786746
2014-02-13,1,0.0001539486724780129,0.00019048453573558763,-0.009356215818994845,0.008188909599630761,0.9906718436569923
2014-02-18,1,0.0007519038554022412,0.000800066170524091,-0.009356215818994845,0.00896176455152105,0.9906187651771596
2014-02-20,0,-3.663947223801852e-05,4.334319037220568e-07,-0.007911960223035946,0.00896176455152105,0.991002550974013
2014-02-24,-1,-9.678527435153013e-05,-5.465439064850482e-05,-0.009356215818994845,0.011456562816546952,0.9897550980244694
2014-02-26,-1,-7.138734017758268e-05,-2.968661065397232e-05,-0.009774654764668683,0.011456562816546952,0.9895990435877792
2014-02-28,1,0.000798936917628889,0.0008998810449482289,-0.01036517719135456,0.009304547926525134,0.9897229216395149
2014-03-04,1,0.00047813326990293995,0.00047980885635786957,-0.01036517719135456,0.013031293946140048,0.9893600034481785
2014-03-06,1,0.0012946653694791525,0.001435172588042352,-0.01036517719135456,0.009850928931105977,0.9900524657108047
2014-03-10,1,0.0013388300692713136,0.0014860621280005837,-0.010503501494316147,0.006879102024194544,0.9896517406459046
2014-03-12,1,0.001661867077586364,0.0018958951394499064,-0.010488904374646979,0.009850928931105977,0.9894503792224884
2014-03-14,1,0.0010971556616989025,0.0012617252544832392,-0.011118799769961111,0.009850928931105977,0.9879160649345399
2014-03-18,1,0.0017378038392875403,0.001980348624494885,-0.011118799769961111,0.007019797544897002,0.9884792126648594
2014-03-20,1,0.0007768644972350543,0.0008198712840327975,-0.010488904374646979,0.016417946617355225,0.986793494175249
2014-03-24,1,0.0009134693165036295,0.000979721188247758,-0.010122954281335358,0.016460799508886088,0.9872855015535315
2014-03-26,1,0.0002947698270379179,0.000341220028379262,-0.007216050804017846,0.016460799508886088,0.9867869356964902
2014-03-28,-1,-7.788881602976538e-05,-2.0068867409081667e-06,-0.007216050804017846,0.016460799508886088,0.9860452009750326
2014-04-01,1,0.0009391397028967891,0.0009638119391402616,-0.007216050804017846,0.015318789770558797,0.9866916000480297
2014-04-03,-1,-0.0002909002121015713,-0.00010797459610931614,-0.003640749645948512,0.015318789770558797,0.9866287059293141
2014-04-07,-1,-0.00031965225446437136,-0.00020022160508906435,-0.0016251541758025233,0.015318789770558797,0.987406225964927
2014-04-09,1,0.0005532454241970728,0.0005632136078405868,-0.002573779809784049,0.015318789770558797,0.9870820956581985
2014-04-11,-1,-0.0015931543510370706,-0.0013301666029787251,-0.0016251541758025233,0.01684861521788398,0.9877381918797327
2014-04-15,-1,-0.0016742656440983774,-0.0013540221975544594,-0.002573779809784049,0.01684861521788398,0.9878838006571731
2014-04-17,0,-5.367790058580219e-05,7.744698192219048e-05,-0.005759965144889665,0.012263557474614772,0.9900246214338412
2014-04-22,1,0.00028901059165761274,0.00037989682536357616,-0.00877887487462069,0.010691528290293822,0.9896183299176828
2014-04-24,1,0.0011851546772761806,0.00121589409350392,-0.00877887487462069,0.008200449434423366,0.9894462554606712
2014-04-28,1,0.000908066083482906,0.0009094176251331586,-0.005759965144889665,0.007299676332570626,0.9905847330376427
2014-04-30,1,0.0017370585582782338,0.0018445677977210176,-0.005759965144889665,0.007005388608198963,0.9914265363162659
2014-05-02,1,0.0014900231266240268,0.001589308289317342,-0.00877887487462069,0.007005388608198963,0.9910134697781795
2014-05-06,1,0.001200878670072634,0.0012748787502370072,-0.005759965144889665,0.007005388608198963,0.9914019986766585
2014-05-08,1,0.001397563987754085,0.0014664755860036385,-0.0049071396541936485,0.007005388608198963,0.9919513167224346
2014-05-12,1,0.002083146602295367,0.0022690296741280256,-0.0012611789961723715,0.007005388608198963,0.9926758589545427
2014-05-14,1,0.0017264992134967117,0.0018922970431836227,-0.0026641187249814187,0.007005388608198963,0.9927239858395591
2014-05-16,1,0.0017832821810756904,0.001994535989561688,-0.0004128882482592124,0.007005388608198963,0.993175333113588
2014-05-20,1,0.0013528213787355262,0.0015206853598132807,0.00021034087093693845,0.0068629519675181576,0.9941527886801151
2014-05-22,1,0.002087073715712681,0.002344024928174101,-0.00031535201395620346,0.00551058725341414,0.9949751475020154
2014-05-27,1,0.002319643586375606,0.0026071353653738354,-0.0019966326437198508,0.004912046476448852,0.99479941323035
2014-05-29,1,0.0024622114085382733,0.0027469060740507095,-0.0026641187249814187,0.004912046476448852,0.9942559153807119
2014-06-02,1,0.0019202739700997637,0.0021212974807560225,-0.0026641187249814187,0.005609800091848353,0.9942798472055837
2014-06-04,1,0.0016930907758891634,0.0018443059283183108,-0.0019966326437198508,0.007270017742160914,0.9942406588806096
2014-06-06,1,0.002102175832614499,0.002275251739088073,-0.0027231326026491013,0.007270017742160914,0.9939920925240029
2014-06-10,1,0.00357434771617376,0.004057299507263674,-0.004461469708022794,0.005609800091848353,0.9938678833792381
2014-06-12,1,0.002650801631012747,0.0029644102341628465,-0.005995512497174926,0.005609800091848353,0.9938564747356637
2014-06-16,1,0.0026224559692172977,0.0029136593777688838,-0.005995512497174926,0.006679883276352033,0.993391554156871
2014-06-18,1,0.0019479478862614826,0.0020755269727870413,-0.006157954915726316,0.006679883276352033,0.9928815931294008
2014-06-20,1,0.002383531429554008,0.0026240489340514615,-0.006157954915726316,0.006679883276352033,0.9920051644096046
2014-06-24,1,0.002639166540044156,0.002937251716170507,-0.005995512497174926,0.007790069659679896,0.988976579821128
2014-06-26,1,0.0008877636601803685,0.0009150852073787701,-0.006157954915726316,0.007790069659679896,0.9885958392762011
2014-06-30,1,0.0011653323303290712,0.0011746488419876878,-0.007380300348350532,0.006717166331196525,0.9883768722091821
2014-07-02,1,0.001480060050914787,0.0015560866383765792,-0.009498753487918524,0.004465647078342629,0.9874525784653566
2014-07-07,1,0.001369595035451639,0.001399344017631934,-0.009498753487918524,0.004465647078342629,0.9879608472908666
2014-07-09,1,0.0013188856375420193,0.0013728932185762951,-0.010058464486846726,0.004465647078342629,0.9874139673147394
2014-07-11,1,0.0010933564783941537,0.0011461257146782714,-0.00962756260196461,0.0067924441626680924,0.987378900899329
2014-07-15,1,0.0005204147493566402,0.0005839793369674031,-0.010667904691164569,0.0077595792601277535,0.9870097758009507
2014-07-17,1,1.2517221196795502e-05,0.00014274323481462182,-0.00962756260196461,0.0077595792601277535,0.9875672616892859
2014-07-21,1,0.0004169139008248409,0.0005032423030267605,-0.010667904691164569,0.0077595792601277535,0.9873263112981802
2014-07-23,1,0.0025856081618174103,0.0027980382802694397,-0.010667904691164569,0.007448165230812592,0.9902016003550249
2014-07-25,1,0.001912229593602968,0.0020407099913472464,-0.007380300348350532,0.007448165230812592,0.9911166712184554
2014-07-29,1,0.0015990136799641284,0.0017134293239691302,-0.004248705854433883,0.007448165230812592,0.9919531164018646
2014-07-31,1,0.001033791601754385,0.0010720041801152444,-0.003658829091722834,0.007448165230812592,0.9929634276160046
2014-08-04,1,0.001222286621877924,0.0012739091153614545,-0.003658829091722834,0.009135312993913647,0.9924688252550924
2014-08-06,1,0.0002488194076743767,0.0003471017921151744,-0.0021532129306388982,0.009135312993913647,0.9931716598628899
2014-08-08,1,0.0011661680056955512,0.0012086825765994734,-0.0025512585209051183,0.007448165230812592,0.9940141987527858
2014-08-12,1,0.0006601297860124879,0.0006993515672265338,-0.0025512585209051183,0.005294875476115582,0.9941998673185779
2014-08-14,1,0.0008539444569635845,0.0008693324129442915,-0.002847255349554831,0.004287953183655312,0.9941663116644155
2014-08-18,1,0.0006177913794642305,0.0006730098753070123,-0.002847255349554831,0.0036771176830478936,0.9953728568074228
2014-08-20,1,0.00033512652477487925,0.0004458388705651413,-0.0028062693209129287,0.0036771176830478936,0.9954195762880235
2014-08-22,1,0.0006302051462159468,0.000661505486092999,-0.003646647396824206,0.0036771176830478936,0.9949814090194014
2014-08-26,1,0.00032807590434326525,0.0004127004951412532,-0.003646647396824206,0.0036771176830478936,0.994887536764492
2014-08-28,-1,-0.00022515529138280351,-4.6208996866001586e-05,-0.004091310510978304,0.004287953183655312,0.9937106102829649
2014-09-02,1,0.0005982699615178954,0.0006594212322042544,-0.0052070516108045865,0.0032502207203267304,0.994399342495892
2014-09-04,-1,-0.0004196918906120057,-0.0001733404399739143,-0.005724484771404568,0.0024238965264806603,0.9940579134753553
2014-09-08,-1,-0.00035547257146443416,-0.00012588478266631526,-0.005724484771404568,0.0024238965264806603,0.9934152964625597
2014-09-10,1,3.6811619212604515e-05,0.00015954486221443019,-0.005724484771404568,0.0024238965264806603,0.9919898638025202
2014-09-12,1,3.418085503187015e-05,0.00013775553599795607,-0.00988860947519767,0.002176450340109164,0.9904833902102455
2014-09-16,1,0.0002544780622558822,0.00031286158289090324,-0.01491112275195533,0.0031884305871962026,0.9896753827658713
2014-09-18,1,0.0003093998709457963,0.0003771310020522113,-0.01491112275195533,3.8606580336085126e-06,0.9897401943203329
2014-09-22,1,0.00025693155435636014,0.0002965317909495214,-0.01491112275195533,0.002013557157518317,0.9896743925408247
2014-09-24,0,-5.2803344976679414e-05,5.824457099136177e-05,-0.01491112275195533,0.00805904205570074,0.9862229382430512
2014-09-26,-1,-0.0007717927553059968,-0.0005612637637544103,-0.007753858733335367,0.00939625599018977,0.9873928035317173
2014-09-30,-1,-0.0009104518598873272,-0.0007053360239624921,-0.007334528459522607,0.013446393746538285,0.9850375568780791
2014-10-02,-1,-0.0009205468437743328,-0.0007397160939988294,-0.004735664518113145,0.013446393746538285,0.9852260875612675
2014-10-06,-1,-0.0009855050298868667,-0.0007680930624111485,-0.004735664518113145,0.013631555519027942,0.985134018944464
2014-10-08,-1,-0.0005567351284734679,-0.00038184278721675594,-0.004363999123032472,0.00939625599018977,0.9869123019701265
2014-10-10,-1,-0.002397308218127175,-0.0019822792270659875,-0.003760029084027143,0.011817721838568185,0.9873010729773031
2014-10-14,-1,-0.002104292331773439,-0.0017631659959517188,-0.0022592355134701068,0.011817721838568185,0.9876470008771914
2014-10-16,-1,-0.0018709585459826027,-0.0015669046788009799,-0.0009713632119848277,0.013623170647900145,0.9869610940490366
2014-10-20,-1,-0.0017396322909935544,-0.0014700434286298975,-0.0014855990473799968,0.013400441110409129,0.9877031108248514
2014-10-22,-1,-0.00017586229633468372,-6.965892154134324e-05,-0.00206256662457795,0.009287935672420087,0.9911930125463481
2014-10-24,0,-3.97517768248419e-05,5.4470215265734585e-05,-0.0017810313297509175,0.009229137318879418,0.991649517624578
2014-10-28,1,0.002136007635324291,0.0023536875071010336,-0.0031455323605828686,0.007843661170800445,0.9935323548271083
2014-10-30,1,0.0018540901866043167,0.002054183502725254,-0.00300153834151989,0.007814197658962721,0.9935574629352464
2014-11-03,1,0.0017439045363040484,0.0019031612887835843,-0.00300153834151989,0.006139096339552491,0.9936580791982665
2014-11-05,1,0.0019764749221635944,0.0021766796412350372,-0.0031692471469796694,0.006139096339552491,0.993384930671645
2014-11-07,1,0.0025040759678606143,0.0027775813053078973,-0.00340048155561201,0.0052937769445003235,0.9934013230021187
2014-11-11,1,0.0024754304582472403,0.0027403757297137284,-0.0047321538799170275,0.0052937769445003235,0.9932135582898389
2014-11-13,1,0.002599665569935291,0.0028595543616897223,-0.005407849213109929,0.0052937769445003235,0.9931612904341732
2014-11-17,1,0.0022198223546012552,0.002425279547616673,-0.007126186905159391,0.005831861764673398,0.9929170299569213
2014-11-19,1,0.0021349339286645067,0.0023445732241485434,-0.005407849213109929,0.007760472738070891,0.991960480551785
2014-11-21,1,0.0020797019597392167,0.002278463731623834,-0.006049652004210986,0.007760472738070891,0.99176941122704
2014-11-25,1,0.0019591780309978846,0.002155646538789436,-0.005121888392383031,0.007760472738070891,0.9923741852062391
2014-11-28,1,0.001837999920410439,0.0019982404281338206,-0.005121888392383031,0.0067064496216285695,0.9925639103931927
2014-12-02,1,0.0013525937316358483,0.0014251770780830475,-0.005121888392383031,0.0067064496216285695,0.9931304517062376
2014-12-04,1,0.0012450423610235908,0.0012929380818192805,-0.0060695285270175,0.0067064496216285695,0.991976566437144
2014-12-08,1,0.0009655035161163176,0.0009771520448524466,-0.00584254057336377,0.0077764215654244455,0.991717807497707
2014-12-10,1,0.0011510456685402063,0.0011881750537839069,-0.0057703166910862596,0.009186932960920047,0.9910570094685439
2014-12-12,1,0.0033537218167036045,0.0038013708046759605,-0.00584254057336377,0.004706873094607636,0.9902920274914583
2014-12-16,1,0.0026145082657347356,0.0029039327131294727,-0.00584254057336377,0.001996864078794629,0.9904589366796676
2014-12-18,1,0.0036370980040232063,0.004021785022741059,-0.00584254057336377,0.001996864078794629,0.9910340871313092
2014-12-22,1,0.0028877021712914426,0.003124869501918473,-0.00584254057336377,0.0029540510578763553,0.9907274978858429
2014-12-24,1,0.0030097724584536535,0.0032863076170152974,-0.00584254057336377,0.008149128484199537,0.9902964001062019
2014-12-29,1,0.0023430781012842936,0.0024834614684881486,-0.00874606444823249,0.008149128484199537,0.9892592483411069
2014-12-31,1,0.002356960253494688,0.00254749734752005,-0.010363328242501527,0.00988590544735228,0.9873680740035654
2015-01-05,1,0.0011079243369242747,0.0011170659973801132,-0.006822318872162117,0.015225795166524244,0.9871898390528687
2015-01-07,1,0.0014481199407940927,0.0015116655424207634,-0.005099442041338396,0.012186462554700456,0.9877297604287197
2015-01-09,1,0.0021227297851387425,0.0022664217597391316,-0.009475709317871107,0.00988590544735228,0.9880357928520139
2015-01-13,1,0.0014053262763125036,0.0014620354724731266,-0.009475709317871107,0.012186462554700456,0.9874706255097501
2015-01-15,1,0.0006852531037050758,0.0007315888029948473,-0.008924063598008255,0.015742334165713617,0.9874419009617521
2015-01-20,1,0.0011995148507738483,0.0012091323776667394,-0.008924063598008255,0.015742334165713617,0.9876926905985384
2015-01-22,1,0.0016989960949201255,0.0017662073166772882,-0.008924063598008255,0.011071195984356668,0.988537980019563
2015-01-26,1,0.0020560036110710512,0.0022146276489384037,-0.008924063598008255,0.015030957436051845,0.9880794682488419
2015-01-28,1,0.0009981867670484257,0.001012539986680048,-0.005619544166476883,0.015030957436051845,0.988640260866108
2015-01-30,1,0.0012977191832673385,0.0013482083114615669,-0.004187973890998929,0.01372511801082247,0.9904116455865113
2015-02-03,1,0.0023915534997535214,0.0025643354670174196,-0.005619544166476883,0.009656539487964496,0.9910683099638253
2015-02-05,1,0.00242526833792084,0.0025919226993751793,-0.009109245382561172,0.007388321290656849,0.9896590457566677
2015-02-09,1,0.0015994305016045767,0.001649581228918908,-0.006486797835675635,0.011897654796835948,0.9894319531832261
2015-02-11,1,0.0017624335112432319,0.0018522285386734527,-0.004187973890998929,0.011897654796835948,0.9900385787386322
2015-02-13,1,0.001759558819243468,0.0018209047868587862,-0.006486797835675635,0.011897654796835948,0.9890003858160529
2015-02-18,1,0.001595706346494468,0.001623922962482246,-0.0061160158223403675,0.014042910213730353,0.9887313330821439
2015-02-20,1,0.0009666038660358851,0.0010498969316941583,-0.006043921383615463,0.014042910213730353,0.9886846105779133
2015-02-24,1,0.0014826702776045214,0.0015305118166269245,-0.012787565363628418,0.00935374600389377,0.9883821966657006
2015-02-26,1,0.0002485037175795179,0.00047984222831548074,-0.015238529211693948,0.00935374600389377,0.9879716568570436
2015-03-02,1,0.0008347707904617218,0.0009786161684800104,-0.015238529211693948,0.008160692925365538,0.9881348950938604
2015-03-04,1,2.382856273646012e-05,0.0002576112559495591,-0.015238529211693948,0.008160692925365538,0.9879471749843833
2015-03-06,-1,-0.0022031227910390945,-0.0016344274790672285,-0.007283804225115164,0.008160692925365538,0.9884814480041586
2015-03-10,-1,-0.0025318851148927544,-0.0019019313702517073,-0.0039941555603613494,0.007437255359148873,0.989821668907888
2015-03-12,-1,-0.0019416461567785736,-0.0013695564606296274,-0.005928940150879775,0.007437255359148873,0.9904249775571006
2015-03-16,-1,-0.0022794138693615204,-0.0016556752877620042,-0.005928940150879775,0.006814322954520862,0.9915171540358213
2015-03-18,-1,-0.00033879300125637727,-7.386944775333664e-05,-0.008968549869049868,0.0038270089695789295,0.9920898761654143
2015-03-20,0,-0.00010453791647574656,0.00013106859368361033,-0.008968549869049868,0.0038270089695789295,0.9918535441707653
2015-03-24,1,3.771296833560671e-05,0.00018409750909965348,-0.005928940150879775,0.0034244951126130058,0.9929383834853913
2015-03-26,-1,-0.0008083192466176495,-0.0005750587183466469,-0.005928940150879775,0.0034244951126130058,0.9923664072692754
2015-03-30,-1,-0.00024183940251720315,-8.301571644226492e-05,-0.008968549869049868,0.0023585121097195044,0.9919349679412192
2015-04-01,-1,-0.0011090126131562193,-0.0008549832028855633,-0.008258457744760412,0.0023585121097195044,0.9928881652362199
2015-04-06,-1,-0.0007408326553543994,-0.0005570723714953949,-0.008258457744760412,0.0023585121097195044,0.9923152101965549
2015-04-08,-1,-0.0005544074805092294,-0.00041408072137596427,-0.008968549869049868,0.0023585121097195044,0.991119982933398
2015-04-10,-1,-0.0003189457810299238,-0.00022810207146762716,-0.00830897334533801,0.0034244951126130058,0.9908992641189615
2015-04-14,-1,-0.0006693359818409938,-0.0005302766754147702,-0.00830897334533801,0.006022663545003884,0.9906172651255705
2015-04-16,-1,-0.0010288715501955053,-0.0008384055410519931,-0.007971690902558032,0.009005274375421224,0.9903635282550713
2015-04-20,-1,-0.0006713040623294894,-0.0005183723193718328,-0.007971690902558032,0.00865481121106411,0.9903778933900552
2015-04-22,-1,-0.0007463144612358765,-0.0005764522044742922,-0.008546170908249382,0.00865481121106411,0.9897521806880697
2015-04-24,-1,-0.0021406936408029306,-0.0018148823564841932,-0.008086387523291452,0.00865481121106411,0.9911232787123564
2015-04-28,-1,-0.003110803021108571,-0.002646402436041407,-0.007971690902558032,0.00865481121106411,0.9911648514068322
2015-04-30,-1,-0.003378819935032375,-0.002887713429809677,-0.008019479522326359,0.00865481121106411,0.9907263960785062
2015-05-04,-1,-0.0026635293157033805,-0.002255594138135148,-0.008019479522326359,0.008514834166534294,0.9913121281203332
2015-05-06,-1,-0.003609771974728354,-0.003093409650760013,-0.006755549569394937,0.008514834166534294,0.991375834145775
2015-05-08,-1,-0.0026935807930753035,-0.0023005016562530722,-0.006755549569394937,0.006581026592565386,0.9924134282140236
2015-05-12,-1,-0.0027750199885665312,-0.0023725985429297694,-0.00620055081786413,0.006581026592565386,0.9926182577901935
2015-05-14,-1,-0.001493330709647079,-0.001303458451823723,-0.006755549569394937,0.005840618897675865,0.9930601783179328
2015-05-18,-1,-0.0010123737367228143,-0.0008791417803855333,-0.008387056409050166,0.005840618897675865,0.992837599659229
2015-05-20,-1,-0.0010209714862587874,-0.0008885319454309397,-0.006755549569394937,0.005840618897675865,0.9930198997684953
2015-05-22,-1,-0.0015773874758104724,-0.0013745091943373584,-0.005988896988915906,0.006016166780676161,0.9928778867353062
2015-05-27,-1,-0.0017202891750313079,-0.0014936806540199491,-0.008931347868805548,0.005840618897675865,0.992660204767659
2015-05-29,-1,-0.0024379170574353954,-0.002076304293817814,-0.006658800446591354,0.006214284939812695,0.9925197534614766
2015-06-02,-1,-0.0020029379057175992,-0.001706370885205599,-0.008931347868805548,0.006214284939812695,0.9921282167550354
2015-06-04,-1,-0.0019117348207680265,-0.0016673204172206173,-0.006782998552952706,0.006214284939812695,0.9924056854954799
2015-06-08,-1,-0.002166014796905468,-0.001861633378135816,-0.008931347868805548,0.007257942006171721,0.9915121969883339
2015-06-10,-1,-0.002127241748827762,-0.0018098732507251468,-0.00927408855683812,0.007986578577303368,0.9909310338441912
2015-06-12,-1,-0.0019240917724932761,-0.0016530765931952992,-0.008931347868805548,0.010553745046494176,0.9904160014631708
2015-06-16,-1,-0.0016207415238372975,-0.0014113109165048965,-0.008616231521783757,0.00953884141022791,0.9908112381560447
2015-06-18,-1,-0.0008856441751562687,-0.0007826290690018045,-0.00951585603664997,0.00953884141022791,0.9896110671568955
2015-06-22,-1,-0.0012331455009123534,-0.0010468738487401817,-0.010892427465382062,0.00953884141022791,0.9895042661451824
2015-06-24,-1,-0.001798874815706712,-0.001556601649849774,-0.009258080897192067,0.00953884141022791,0.9897429954527701
2015-06-26,-1,-0.0007549251410999978,-0.0007065842506948081,-0.012414489609334674,0.007939380295865823,0.987336674498307
2015-06-30,-1,-0.0009736296318301826,-0.0009272024694793244,-0.009258080897192067,0.00953884141022791,0.9870619994570439
2015-07-02,-1,-0.0013154132245433527,-0.0012021292624279337,-0.009258080897192067,0.010941725518950365,0.9860095320346933
2015-07-07,-1,-0.0009617261654140206,-0.0008992594987352535,-0.006960380084934916,0.01018981055964165,0.986828545799296
2015-07-09,-1,-0.000693665843528584,-0.00069138748881913,-0.005899543590419439,0.01074902826471644,0.9871402216105972
2015-07-13,1,7.964549555503552e-05,0.00018473109921748448,-0.005899543590419439,0.010847985236121467,0.9874308532499564
2015-07-15,0,-6.096307246791427e-05,2.0696220141007643e-05,-0.005899543590419439,0.010847985236121467,0.9874304499871072
2015-07-17,1,0.0007985805316505394,0.001045049568637544,-0.005548397164626467,0.010511438872205056,0.9890030127920635
2015-07-21,1,7.6477960707248e-05,0.00020184938163232214,-0.005548397164626467,0.01176643991548984,0.9888487957299796
2015-07-23,1,0.00043411806130727235,0.0006350593541075705,-0.005879952649875558,0.01176643991548984,0.9881271168332586
2015-07-27,-1,-0.0020162925830071814,-0.0018912838692898008,-0.0064087971719319166,0.01176643991548984,0.9867953388386478
2015-07-29,-1,-0.0015951706135621554,-0.0014563981150904637,-0.00681157053043866,0.01176643991548984,0.9861203788381566
2015-07-31,-1,-0.00044567486524501855,-0.0004402822821819909,-0.00991567072852781,0.01176643991548984,0.9861196609397681
2015-08-04,1,0.00014097828614779604,0.00027236895985675364,-0.01652429217071745,0.01176643991548984,0.9852648373191958
2015-08-06,1,0.00039397083429415416,0.0005572122680646057,-0.01652429217071745,0.01176643991548984,0.98453630796935
2015-08-10,1,0.0012251074933317659,0.0015282606591712764,-0.019849256857472786,0.01176643991548984,0.9836908651338512
2015-08-12,1,0.0012844555384507665,0.0016117105466440151,-0.019849256857472786,0.01176643991548984,0.9840001930716867
2015-08-14,1,0.0014264982397435648,0.0017447311015838074,-0.019849256857472786,0.006956670370717062,0.9839344554285702
2015-08-18,1,0.0011781734079916754,0.0014175780304979996,-0.019849256857472786,0.0073216832919578805,0.9838453589503826
2015-08-20,1,0.0006262632793251254,0.0008127708402547737,-0.019849256857472786,0.0073216832919578805,0.9838540197506596
2015-08-24,-1,-0.0018973662839466027,-0.0017346478048827897,-0.010732056664369782,0.008831537541476794,0.9872237158519903
2015-08-26,-1,-0.0013789114361003464,-0.0012851613788705646,-0.010883202032255478,0.006984640204808896,0.9881384092967671
2015-08-28,-1,-0.001458101682742938,-0.001355056945058403,-0.01087657577843015,0.0058948956447671215,0.9887180405627596
2015-09-01,-1,-0.0021507563835744523,-0.001972679049840691,-0.007437600705383364,0.006984640204808896,0.9884766508593763
2015-09-03,-1,-0.0011892852569979561,-0.0011165754121469683,-0.010159044509237169,0.0058948956447671215,0.9897315845285034
2015-09-08,-1,-0.001290206035459992,-0.0011998742443331911,-0.009930674861720341,0.0058948956447671215,0.98966756191746
2015-09-10,-1,-0.0010150668697699043,-0.0009764351840520187,-0.009930674861720341,0.009281399904073388,0.9881056573469826
2015-09-14,-1,-0.0008880277965822595,-0.0008726589977480002,-0.009930674861720341,0.009932884525199711,0.987977078834279
2015-09-16,-1,-0.0007639968728203827,-0.0007089514263241348,-0.012065982890975987,0.007486295544166156,0.9884819702694867
2015-09-18,-1,-0.0017640397180346964,-0.001569777841819162,-0.009878947351798378,0.009208042441431832,0.9889025012539151
2015-09-22,-1,-0.001887233966200033,-0.001668847418328559,-0.007136200786767882,0.009208042441431832,0.9890693544944188
2015-09-24,-1,-0.0017868899530207433,-0.0016062553150219569,-0.012065982890975987,0.009208042441431832,0.987266299625231
2015-09-28,-1,-0.0024759817848387052,-0.0021815974823563224,-0.007136200786767882,0.013143671353617771,0.986916939215036
2015-09-30,-1,-0.0013202372658998028,-0.0011900971522359977,-0.007398083853909159,0.013143671353617771,0.9874402278228114
2015-10-02,-1,-0.0017160570528847712,-0.001541061046755859,-0.005597476944386261,0.013143671353617771,0.9869937269325808
2015-10-06,-1,-0.001073154129012367,-0.000996708366812284,-0.005597476944386261,0.013143671353617771,0.9873619556263767
2015-10-08,1,2.43033657287216e-05,0.00010309514294633244,-0.009480006878144022,0.00882664231431225,0.988307797237779
2015-10-12,1,0.00031549057923848853,0.00043107916256024777,-0.009480006878144022,0.010159717409160517,0.9881484050941453
2015-10-14,-1,-0.00023915326948262353,-0.0002163659601216755,-0.008025946266991657,0.010159717409160517,0.9884037349579602
2015-10-16,1,0.00019015376170960173,0.0002719006218424052,-0.010069151387301956,0.00882664231431225,0.9877693579642233
2015-10-20,1,0.0002340841959828268,0.0003166462489818179,-0.010069151387301956,0.00882664231431225,0.98770195794014
2015-10-22,-1,-0.0012129678460577004,-0.0011313669704312564,-0.00941672956785573,0.009419497353199552,0.9900885637404836
2015-10-26,-1,-0.0007079550488503733,-0.0006676318712032648,-0.00941672956785573,0.008706658168312951,0.9907477737306827
2015-10-28,-1,-0.0003381448508113185,-0.00032959580510255257,-0.00941672956785573,0.007746304379879023,0.9915828114043717
2015-10-30,1,0.0002717403808314933,0.00037638580386112916,-0.00941672956785573,0.0035881262768104206,0.9923419154525472
2015-11-03,1,0.0005635792921988972,0.0007022862265311936,-0.009859515379082886,0.0035881262768104206,0.9923908501010864
2015-11-05,1,0.00012813269115474955,0.0002156154077430882,-0.008152449100637947,0.005119786089474372,0.9913301386153814
2015-11-09,1,0.0005487251113541957,0.0007149551905907322,-0.008152449100637947,0.0035881262768104206,0.9915108036008625
2015-11-11,1,0.0005110823266506695,0.0006755765365986449,-0.009879319456437084,0.0035881262768104206,0.989777344797447
2015-11-13,-1,-0.00040304006534610555,-0.0003862818354276499,-0.010354684286139067,0.0035881262768104206,0.9897580835764566
2015-11-17,-1,-0.0003978661912170168,-0.00036893708041501347,-0.008246015281867749,0.004774373768441448,0.9896520731529634
2015-11-19,-1,-0.0005404059406834507,-0.0005262360330389349,-0.014783590343507383,0.0034729888364661127,0.988569810796469
2015-11-23,-1,-0.00038485188042937325,-0.00037841402056881595,-0.014783590343507383,0.005836763837040646,0.9878711907873348
2015-11-25,-1,-0.00019844488412573306,-0.00015735318151850815,-0.014783590343507383,0.011772828357558041,0.9868851328922789
2015-11-30,-1,-0.00014803483321548864,-0.00010394260997652915,-0.014783590343507383,0.011772828357558041,0.9862595528648491
2015-12-02,1,0.0002932803612032328,0.00043284202737787705,-0.013715818800281223,0.010850136652708793,0.9869803890737299
2015-12-04,-1,-0.00019723705485510194,-0.0001270916166007623,-0.013715818800281223,0.006796947374061919,0.9879113066636606
2015-12-08,-1,-0.00022317802893591615,-0.0001313663030448337,-0.018896848318224767,0.006796947374061919,0.986989566031868
2015-12-10,-1,-0.0016651366334531482,-0.0015560997468761911,-0.018896848318224767,0.006796947374061919,0.9879595603196076
2015-12-14,-1,-0.0024172317721478367,-0.0022272487459977248,-0.018896848318224767,0.006796947374061919,0.987348245833082
2015-12-16,-1,-0.002847803063937826,-0.0025217005493221,-0.018896848318224767,0.006796947374061919,0.9870824669130587
2015-12-18,-1,-0.003462776346887653,-0.003087453648761981,-0.01116756876676592,0.006796947374061919,0.9879085862386346
2015-12-22,-1,-0.002055554749926542,-0.0018885283677797051,-0.01116756876676592,0.0051533787386520225,0.9868977133749894
2015-12-24,-1,-0.001197565491143387,-0.0011413262225217504,-0.013271902167919361,0.0049142439373806935,0.9863732897449862
2015-12-29,-1,-0.0005742282468805162,-0.0005400142647665675,-0.013271902167919361,0.003556970656428915,0.9865369749685097
2015-12-31,-1,-0.0005974684463607536,-0.000533729935906003,-0.013271902167919361,0.004611857807196882,0.9861906810359679
2016-01-05,-1,-0.0009586390504351712,-0.0009434325018133772,-0.01670733614092557,0.004611857807196882,0.9827931605531623
2016-01-07,-1,-0.0015079398380207273,-0.0014945925510667709,-0.013271902167919361,0.006441634841570853,0.983576371494413
2016-01-11,-1,-0.001881036740910402,-0.001837957700378757,-0.014937219092668989,0.006441634841570853,0.9831930681278197
2016-01-13,-1,-0.0030854289171178433,-0.002866485117953198,-0.014937219092668989,0.006030633641113344,0.9836699405540191
2016-01-15,-1,-0.004541503957020278,-0.00403998863013653,-0.014937219092668989,0.011263470514469152,0.983112735377582
2016-01-20,-1,-0.0043158434313349744,-0.003862534710196576,-0.014937219092668989,0.01153824678988747,0.9830071472890667
2016-01-22,-1,-0.003305265656385118,-0.0029664080065390465,-0.014937219092668989,0.01153824678988747,0.9840380910827707
2016-01-26,-1,-0.0035255630977643246,-0.0031213419014291953,-0.014614377320521222,0.010789554435126348,0.9851036059308713
2016-01-28,-1,-0.003182402427013853,-0.002875494612984797,-0.014614377320521222,0.010789554435126348,0.984879177062144
2016-02-01,-1,-0.0030784195877571383,-0.002781971365717214,-0.014614377320521222,0.010789554435126348,0.9837400682456869
2016-02-03,-1,-0.006089010720501095,-0.00544456861309528,-0.006528435330442648,0.013004923326098936,0.985613208948311
2016-02-05,-1,-0.0055164918232071935,-0.0049464967878517715,-0.006528435330442648,0.013004923326098936,0.9863195206814701
2016-02-09,-1,-0.005970310252004119,-0.0053933719590035295,-0.005004134494590016,0.013108996331077923,0.9859866932057317
2016-02-11,-1,-0.007683133449416357,-0.006869807677296437,-0.0030025906931232128,0.01900754288046328,0.9843301188404192
2016-02-16,-1,-0.006147697965929443,-0.005520282069999145,-0.00370667034769897,0.011099021712204327,0.9876142124266564
2016-02-18,-1,-0.005849823931401163,-0.005252612868643852,-0.00370667034769897,0.011809805913888952,0.987037245813258
2016-02-22,-1,-0.005110225760620926,-0.004591011400671561,-0.00370667034769897,0.011331093275614984,0.9879084177699655
2016-02-24,-1,-0.004266072507784505,-0.003898851130521552,-0.00370667034769897,0.011331093275614984,0.9882769562037534
2016-02-26,-1,-0.004132236198024606,-0.00376398665640992,-0.00370667034769897,0.011809805913888952,0.9878672207229391
2016-03-01,-1,-0.0024084993250816328,-0.0022715890825538835,-0.002609866585134765,0.011809805913888952,0.988872245847329
2016-03-03,-1,-0.0009364517103711195,-0.0008249002348716888,-0.0020365693017944894,0.012398070154248375,0.9895718943599481
2016-03-07,-1,-0.0005029887960692769,-0.0002979968510374803,-0.0035945971282346175,0.012398070154248375,0.9880546153116113
2016-03-09,-1,-0.0007509338438584226,-0.0006033421848306425,-0.0035945971282346175,0.012398070154248375,0.9876108826660037
2016-03-11,1,0.0005902346715122705,0.0009533486023689088,-0.006710102133884385,0.011809805913888952,0.9889151633718167
2016-03-15,1,0.0005062612756859335,0.0008717081973630663,-0.0002721468346378335,0.012398070154248375,0.9883652887699698
2016-03-17,1,0.0003623362333380467,0.0005922654185791851,-0.006710102133884385,0.011784414536300417,0.9883586799514624
2016-03-21,1,0.001280576962978002,0.0016848819626967047,-0.007647024033401308,0.011784414536300417,0.9886163745394785
2016-03-23,1,0.0015311580553508837,0.0019895167554799696,-0.00881009757428999,0.01342080020413172,0.9858279078674929
2016-03-28,1,0.0025041592465821637,0.003128939268034225,-0.00881009757428999,0.013963196867008443,0.9856385988439254
2016-03-30,1,0.003554983432067346,0.004321930946802922,-0.011536400878914336,0.013963196867008443,0.981201273151113
2016-04-01,1,0.003619794941569859,0.004328079404512962,-0.015016885430364443,0.008767245717754429,0.9807857108155505
2016-04-05,1,0.0026910785994537843,0.0032900795665144304,-0.00881009757428999,0.01244155795388964,0.9825744381932457
2016-04-07,1,0.002217842248465823,0.0027535907789847432,-0.007763219165949472,0.01244155795388964,0.9836064120327283
2016-04-11,1,0.001948984597907552,0.002407052240575817,-0.007763219165949472,0.01244155795388964,0.9841277705252083
2016-04-13,1,0.00254064620958193,0.0030718924110575458,-0.008283833548699611,0.009936126016633934,0.984151088574437
2016-04-15,1,0.00273272216486375,0.0032984077719818957,-0.008348817192064309,0.008007129266920248,0.9841873219599281
2016-04-19,1,0.0027524836060328233,0.003330356380039396,-0.007609459038540912,0.011101934658295029,0.9837727859936082
2016-04-21,1,0.0018937020580267762,0.0023659363370248762,-0.007417392717094936,0.008007129266920248,0.9870197368003386
2016-04-25,1,0.002269057700283842,0.0027982071686488714,-0.007609459038540912,0.008007129266920248,0.9865978932307734
2016-04-27,1,0.00046469421299471657,0.0007622993393152632,-0.007417392717094936,0.008007129266920248,0.9904500017814843
2016-04-29,0,-0.00014402410644788217,4.807370108994883e-05,-0.004554677456170502,0.009212406113700465,0.9908186842699631
2016-05-03,1,0.0003067805122136876,0.0005473443506498093,-0.004554677456170502,0.009212406113700465,0.9908761807110003
2016-05-05,-1,-0.0003535729365751597,-0.00025986521167742436,-0.004554677456170502,0.009212406113700465,0.9891469841605844
2016-05-09,-1,-0.0004802447030007314,-0.00044656923516396725,-0.004554677456170502,0.010056183386391838,0.9884805998118874
2016-05-11,-1,-0.000148405668740016,-4.363015640724324e-05,-0.004554677456170502,0.010056183386391838,0.9891042665667676
2016-05-13,-1,-0.0006619475160164585,-0.0006469131452287814,-0.004821352703788575,0.010056183386391838,0.9878288060393629
2016-05-17,1,5.827309958885503e-05,0.00017557567490709324,-0.007309863908334167,0.009285604967628015,0.9880825904730447
2016-05-19,1,0.00036212875709060557,0.000558738259730138,-0.007309863908334167,0.009285604967628015,0.9878799819153222
2016-05-23,1,0.0005480181081146072,0.000795966277332576,-0.005706137951046074,0.009285604967628015,0.9879092543486807
2016-05-25,1,0.0014750320853229805,0.001824491780151279,-0.005706137951046074,0.009285604967628015,0.9892143773634792
2016-05-27,1,0.0014520044669552156,0.0017752804894008857,-0.014252463073053315,0.006550421217460676,0.9831644181627722
2016-06-01,1,0.0014697407110401614,0.001748163758753464,-0.014252463073053315,0.010056183386391838,0.9812051357139592
2016-06-03,1,0.0004925748863862915,0.000607889503974416,-0.00768886470288116,0.01225550172021252,0.9811353547962754
2016-06-07,1,0.0005888313395004529,0.0006724456443688558,-0.014252463073053315,0.012423867913740531,0.9800493208319815
2016-06-09,1,0.0004423549269154801,0.0005081970149372703,-0.014252463073053315,0.017864736573708562,0.9788462051278024
2016-06-13,-1,-0.0007894323774583485,-0.0006963214860165638,-0.005202477489342492,0.02031625018290205,0.9793758206628665
2016-06-15,-1,-0.0007220632733124268,-0.0006767908016362253,-0.004441875108834391,0.02031625018290205,0.9782709080355662
2016-06-17,-1,-0.0004966595211291894,-0.0004887437027357004,-0.004391211783837019,0.02031625018290205,0.9781210214404763
2016-06-21,-1,-0.00022748890512572123,-0.00021769691677785122,-0.004190343931805952,0.018947380400296223,0.9783834049281359
2016-06-23,1,0.00016472716941454311,0.0002341715745104607,-0.0034106234523593494,0.018947380400296223,0.9786603568330904
2016-06-27,-1,-0.0044960260043052855,-0.00389580708087089,-0.0010731220027602555,0.018947380400296223,0.9822338019993281
2016-06-29,-1,-0.001998614368386783,-0.00172235055556345,-0.002269023602956988,0.013744918455126764,0.9814191540152174
2016-07-01,-1,-0.0016876631890162335,-0.0014161504407538344,-0.0034106234523593494,0.013296602258592733,0.9828617290687451
2016-07-06,-1,-0.002492060987203979,-0.0020905106047191977,-0.0013128112291072545,0.013296602258592733,0.984004182754825
2016-07-08,-1,-0.0014882735936092508,-0.00123611240400898,-0.0013128112291072545,0.013296602258592733,0.9854127600793435
2016-07-12,-1,-0.0008751666741788874,-0.0006997381756327988,-0.0015003970762704321,0.010674410483797197,0.9871235317085647
2016-07-14,-1,-0.0009033161009306527,-0.0007406583814372331,-0.0015003970762704321,0.010674410483797197,0.9877035319952204
2016-07-18,-1,-0.0007733280723907711,-0.0006274229791824362,-0.002124078371306916,0.009629640843772635,0.9877294515352549
2016-07-20,-1,-0.0004907265220670735,-0.0003831948264294861,-0.0008839628687564436,0.008703496134154004,0.9885981173716887
2016-07-22,1,0.00014181156837063226,0.00014588029227433088,-0.0008839628687564436,0.009629640843772635,0.9879930165269352
2016-07-26,1,0.00043196092582270713,0.0004809443454355178,-0.0057688266696955,0.008703496134154004,0.9880651447418418
2016-07-28,-1,-0.0010368073894483785,-0.0009102060677797163,-0.0022318452268546406,0.006223569175088069,0.9930915781205786
2016-08-01,-1,-0.0013477297066287438,-0.0011814817942713929,-0.0011942954621140345,0.006223569175088069,0.993699518585122
2016-08-03,-1,-0.0009131416444490965,-0.0008199434050760397,-0.002600085465437881,0.005921678334786323,0.9935636350022663
2016-08-05,1,0.0003086817242838875,0.00032081667949884567,-0.0035805566046699304,0.005862683680666175,0.9940338884530936
2016-08-09,1,0.00028786225078693116,0.0002980064232609356,-0.005129455638791244,0.005862683680666175,0.9938831274715729
2016-08-11,1,0.00038680191813087145,0.0004157041344632602,-0.0057688266696955,0.003944368419670072,0.9937298619197711
2016-08-15,1,0.00014320883749307486,0.00016705638715288642,-0.0057688266696955,0.00443213224383694,0.9928667076637062
2016-08-17,1,3.0706932902755074e-05,6.300979713275353e-05,-0.006458504617466207,0.007101730035586352,0.9921811030673283
2016-08-19,1,0.0003079148234076066,0.0003251232463525399,-0.008102618588498459,0.0018262969289974803,0.9930175412858846
2016-08-23,0,-2.349618915243691e-05,3.3539654118242202e-06,-0.008102618588498459,0.0037144288640121115,0.9927578252539995
2016-08-25,0,-9.837922334786353e-07,4.26653031259362e-05,-0.008102618588498459,0.007101730035586352,0.9920171848529429
2016-08-29,-1,-0.0003996324110664406,-0.00029360286450220345,-0.008102618588498459,0.007384969807286926,0.9912985831269953
2016-08-31,-1,-0.0005186247670371963,-0.0004198577243955382,-0.008469721782513097,0.008292256460156073,0.9893463094533245
2016-09-02,0,-5.393557197149444e-07,2.8287207515615513e-05,-0.008469721782513097,0.01180361169936597,0.9883555410175483
2016-09-07,-1,-0.00029935366027270726,-0.00021676246553393278,-0.008469721782513097,0.01180361169936597,0.9882984761044181
2016-09-09,-1,-0.0005796208708348531,-0.00046515309504775786,-0.006269044775122106,0.01180361169936597,0.9895037736611592
2016-09-13,-1,-0.0008401205837529927,-0.0006588385673866395,-0.006269044775122106,0.01180361169936597,0.9885047320884652
2016-09-15,-1,-0.00023263680542484535,-0.00016566571458263304,-0.006269044775122106,0.01180361169936597,0.9882339459663292
2016-09-19,-1,-0.000864649499708936,-0.0007055170836519817,-0.006125299324515337,0.01367730967094613,0.9878211611198764
2016-09-21,-1,-0.00010071026371168964,-6.30573072880343e-05,-0.006125299324515337,0.01180361169936597,0.9883368619935357
2016-09-23,1,0.00021197168967655754,0.0002444236829384143,-0.004292113713040461,0.01367730967094613,0.9882563425344859
2016-09-27,1,0.0003160712868459449,0.0003563304038499538,-0.0057626008458342304,0.009937221678348715,0.9888216695004824
2016-09-29,-1,-0.0005192686606786256,-0.00046374327364655764,-0.0057626008458342304,0.009973385695202838,0.987189103109048
2016-10-03,1,0.00014884440257455044,0.00016067520482132845,-0.004187980322433331,0.009973385695202838,0.9875045930590545
2016-10-05,1,8.045377070435033e-05,9.122459458974373e-05,-0.005812899152693948,0.009973385695202838,0.9872046390201143
2016-10-07,1,8.19379458966991e-05,9.29053709192289e-05,-0.005812899152693948,0.009973385695202838,0.9871193048630228
2016-10-11,-1,-0.0003013834024878778,-0.0002607532902414714,-0.003412987714599292,0.011210455325510463,0.9875291151015695
2016-10-13,-1,-0.00012183484651801856,-0.00010439422300927307,-0.002093911772072925,0.018455330527626615,0.9851474660553106
2016-10-17,1,0.00034098743659431306,0.0004205625950593995,-0.0016524269005576118,0.020016479574505055,0.9841109481797622
2016-10-19,1,0.0004919302270793052,0.0005968909309485336,-0.002854739443752044,0.020016479574505055,0.9840327912240349
2016-10-21,1,0.0009149533055050122,0.0010943476198924324,-0.0035429724798577106,0.023989655724234303,0.983213258940588
2016-10-25,1,0.0005971232110566587,0.0007076300197447532,-0.0035429724798577106,0.023989655724234303,0.9831116039946273
2016-10-27,1,9.017973424964529e-05,0.00015200533422185088,-0.002854739443752044,0.022795589565146726,0.9867028254762623
2016-10-31,1,0.00031839723391506136,0.00040520783122250943,-0.0035429724798577106,0.015845751319173165,0.9867638620194853
2016-11-02,-1,-2.1579390701287354e-05,-1.7495429203982753e-05,-0.002854739443752044,0.019280799236471576,0.9864507426067544
2016-11-04,-1,-0.00014781910889675282,-0.00012375579267001534,-0.0005269802964907105,0.022074258196977264,0.9858221017518632
2016-11-08,1,0.0004680294776617125,0.0005227974199336943,-0.0005269802964907105,0.019433140542889492,0.9865705043424461
2016-11-10,1,0.0015903142060355467,0.0018061739797848107,-0.0035429724798577106,0.015731241296783976,0.9891771836193759
2016-11-14,1,0.002422899912615049,0.0027584025370221126,-0.0035429724798577106,0.01274825692612851,0.9912789008637072
2016-11-16,1,0.0009961922548741883,0.001029242316623325,-0.0012111972512819777,0.01274825692612851,0.9904497282585323
2016-11-18,1,0.0016110657589562703,0.0017719517689045042,-0.0010275126526456888,0.011103093572965229,0.9919425769779301
2016-11-22,1,0.0016621078285945423,0.0018590461898636795,-0.0010275126526456888,0.011103093572965229,0.9917477497083845
2016-11-25,1,0.0015416230151238457,0.0017077403684932786,-0.0010275126526456888,0.011103093572965229,0.9920956834155081
2016-11-29,1,0.0014688959513396982,0.0016475251569717723,-0.0010275126526456888,0.011103093572965229,0.9927548927898118
2016-12-01,1,0.0018479523993085026,0.0020960442324950285,-0.0019477725358179765,0.009965900038206096,0.9933134279802999
2016-12-05,1,0.002015028830717687,0.002274879287371202,-0.0019477725358179765,0.011103093572965229,0.9922694098432426
2016-12-07,1,0.002676927823830188,0.0030258991998762174,-0.005667391104132208,0.00640343693956341,0.990797263383564
2016-12-09,1,0.0027646373831231915,0.0031321381072564507,-0.003993904352554891,0.00640343693956341,0.9914281615606028
2016-12-13,1,0.0027725287559210135,0.003150942209683577,-0.003993904352554891,0.00640343693956341,0.9915904377610639
2016-12-15,1,0.003155752399679048,0.003592784964478045,-0.003993904352554891,0.00640343693956341,0.9910966935605796
2016-12-19,1,0.004119075017461251,0.00455850029519181,-0.005667391104132208,0.004838884094869921,0.9904537592188846
2016-12-21,1,0.0036553213218630445,0.00399862194801291,-0.0053624910690939845,0.005106786355798534,0.99060583361253
2016-12-23,1,0.0035780873954593872,0.003913295148735163,-0.0053624910690939845,0.009418717237123736,0.9901513038091928
2016-12-28,1,0.003407881839135165,0.003735396073671259,-0.005530968701595331,0.009418717237123736,0.9868490868683377
2016-12-30,1,0.0024848309476879753,0.0027147841025553427,-0.005530968701595331,0.011667709464818779,0.9862260303068724
2017-01-04,1,0.0031743682558513313,0.003489330606705922,-0.005530968701595331,0.008960837698140912,0.987789688773543
2017-01-06,1,0.0020879401244733053,0.002248231854000628,-0.0023682269064789906,0.009564196651639992,0.989117759370794
2017-01-10,1,0.0023181896023038596,0.002506514237334123,-0.006362687617199711,0.008960837698140912,0.9881236275814784
2017-01-12,1,0.002565548518726083,0.0028159954515770504,-0.006362687617199711,0.008960837698140912,0.9879905623298161
2017-01-17,1,0.0021959121706154163,0.002378420762669666,-0.00503222186569719,0.007013042493936132,0.9888987841627885
2017-01-19,1,0.0019011612220642855,0.002040514100725353,-0.0024804569446035055,0.008960837698140912,0.9890461704497948
2017-01-23,1,0.0017603716904109178,0.0018737721084724165,-0.001549282496027522,0.009534129664454036,0.9890709774144825
2017-01-25,1,0.002050138343087433,0.002195694865536598,-0.005101933734370879,0.0070425066697920626,0.9892460292911491
2017-01-27,1,0.0005777662806473521,0.0006224737636902811,-0.0024804569446035055,0.0070425066697920626,0.9929528573241435
2017-01-31,1,0.0007660603960443085,0.0007962741097067749,-0.0024804569446035055,0.006064387427450929,0.9935880965164645
2017-02-02,1,0.0004937831494041579,0.0005881202668259846,-0.005101933734370879,0.005870604510469167,0.9933132804123295
2017-02-06,1,0.000691205033773787,0.0007623873356884895,-0.004241674548610999,0.0049471567002006295,0.9940689991807825
2017-02-08,-1,-0.00018963578347378678,-5.0383945729240995e-06,-0.002193703882683545,0.005870604510469167,0.9938402710758192
2017-02-10,-1,-0.00036000645965401066,-0.00014336802978046276,-0.002193703882683545,0.0059673319864867545,0.9933587200252463
2017-02-14,-1,-0.000190752303567849,-9.172971251175405e-06,-0.0029662196399687646,0.007077467172237687,0.9930454179394392
2017-02-16,0,-4.580955446958099e-05,0.00012207483648383663,-0.0029662196399687646,0.007077467172237687,0.9929817330546085
2017-02-21,1,0.0001451641686656449,0.00028214279855736675,-0.00592911837396104,0.0049471567002006295,0.9926752519631535
2017-02-23,-1,-0.0006169908949376358,-0.0003594016373182085,-0.0032561737185362863,0.0049471567002006295,0.9930329340523343
2017-02-27,-1,-0.0006400345111650491,-0.00037700427809314705,-0.007568487067526129,0.0049471567002006295,0.9915319876230024
2017-03-01,-1,-0.0005700394228539942,-0.0003193167557954431,-0.007568487067526129,0.007470769601141772,0.991008005643355
2017-03-03,-1,-0.001188288547528385,-0.0008524724727199703,-0.0045749285129622575,0.010994116026948084,0.9908357523909993
2017-03-07,-1,-0.0013129714288020059,-0.0009526969824590107,-0.00978433949903038,0.010994116026948084,0.9884395459895098
2017-03-09,-1,-0.0015885594677187411,-0.0011798666585425028,-0.007568487067526129,0.007470769601141772,0.9900146435568443
2017-03-13,-1,-0.0013031892981552223,-0.000928531077990102,-0.00978433949903038,0.004830116428049533,0.9903378563988232
2017-03-15,-1,-0.0012233402275189488,-0.0008569281932465265,-0.010685331713980643,0.004830116428049533,0.9891184833954754
2017-03-17,-1,-0.0007646653514845125,-0.0004652196547696258,-0.010685331713980643,0.004756628398809387,0.9893156989048901
2017-03-21,-1,-0.0014335973526183859,-0.0010446571639984167,-0.010685331713980643,0.0061421918476327825,0.9895032647887373
2017-03-23,-1,-0.0028635533513308065,-0.0021795814882388733,-0.010685331713980643,0.007740817755967678,0.9874335324498331
2017-03-27,-1,-0.00405116406226515,-0.003222372686913975,-0.0073040214870804835,0.010210188994195601,0.9876609007539727
2017-03-29,-1,-0.0037444874265473794,-0.0029431666941340676,-0.008191060236931624,0.007280503316609522,0.9886025487809053
2017-03-31,-1,-0.003453224251528871,-0.002678255207139219,-0.009689568112805105,0.006960295243099927,0.9887405240579609
2017-04-04,-1,-0.004871434300071791,-0.003983945644857879,-0.008191060236931624,0.008789250334308659,0.9898302122692458
2017-04-06,-1,-0.003592052358979584,-0.0029729018622704313,-0.008191060236931624,0.008789250334308659,0.9897530400978687
2017-04-10,-1,-0.0029476674289436273,-0.002476436682019357,-0.0073040214870804835,0.01080299107066932,0.9890334715068313
2017-04-12,-1,-0.0034189539364470477,-0.0028804226851401773,-0.0073040214870804835,0.009763904026448205,0.9894409155653779
2017-04-17,-1,-0.0029216771566561014,-0.002484150978275752,-0.005887784798781066,0.009763904026448205,0.9897082908094881
2017-04-19,-1,-0.00268808818691391,-0.002274357370070613,-0.00768958500389459,0.009763904026448205,0.9883762747695375
2017-04-21,-1,-0.0013018318216318752,-0.0010628278429479165,-0.00768958500389459,0.008789250334308659,0.989969595724573
2017-04-25,-1,-0.0015265888407832565,-0.0012401806318131266,-0.007012360837541443,0.007872972751128648,0.9901469714943216
2017-04-27,-1,-0.0016603040656064595,-0.00138534318840303,-0.006892597332088161,0.007872972751128648,0.9898771425689786
2017-05-01,-1,-0.0014550582045704881,-0.0012314395923763303,-0.005662043409996683,0.0071564531537114656,0.9905263046845831
2017-05-03,-1,-0.0005727857240515981,-0.0005013852760700095,-0.00526899202180285,0.008199243647652241,0.9905636644953487
2017-05-05,-1,-0.00032401737756296067,-0.00029708523504297954,-0.005662043409996683,0.008199243647652241,0.9897829310393159
2017-05-09,1,0.0003208451172827347,0.0003785984210621259,-0.005662043409996683,0.0067773616864052234,0.9904242346872322
2017-05-11,1,0.000134199447644436,0.00017225923507870042,-0.005418407138061547,0.007681413886791864,0.9905209545388548
2017-05-15,1,0.00021518438714926308,0.00027465814689807866,-0.005251319276817129,0.007681413886791864,0.9905978115727208
2017-05-17,-1,-0.0009749159729954375,-0.0008874479525453598,-0.005109929011369976,0.01012909255330327,0.9913531986254283
2017-05-19,-1,-0.0004648502682496847,-0.0004400020303129298,-0.005251319276817129,0.01049176109389979,0.9904894261914948
2017-05-23,-1,-0.0004533395712968694,-0.00042762013935109,-0.0058180708172080025,0.01049176109389979,0.9897970281920901
2017-05-25,-1,-0.00048709167554951833,-0.0004575600358499589,-0.005251319276817129,0.01049176109389979,0.9903422572377696
2017-05-30,1,0.0001888632890812096,0.00032181161513871706,-0.0051597340501228755,0.01049176109389979,0.9903262129162235
2017-06-01,1,0.0003060218804615954,0.0003665024567970972,-0.0058180708172080025,0.006737936591990813,0.9907951621535118
2017-06-05,0,-1.4860305188061065e-05,2.9246424866219e-05,-0.0051597340501228755,0.012471078886418572,0.9908858009612843
2017-06-07,-1,-0.00014506904972347762,-0.00010461315177235682,-0.005577070474255052,0.012471078886418572,0.9905231512142126
2017-06-09,1,0.0005414364453186867,0.0006657807427441994,-0.005577070474255052,0.006737936591990813,0.9904717634702751
2017-06-13,1,0.00017749350278883544,0.000236514729523499,-0.007120922919915256,0.013183078890991861,0.9891036230042799
2017-06-15,1,0.0009208600813782066,0.0010803953286195314,-0.007120922919915256,0.006737936591990813,0.9901598309441608
2017-06-19,1,0.0017887656693593343,0.002102957099456001,-0.00774867046404238,0.004567267620171097,0.9908502333284699
2017-06-21,0,-3.2830882595667174e-05,1.8893936324735868e-05,-0.004592681954052535,0.004567267620171097,0.9919767854654435
2017-06-23,1,0.0001818525817298243,0.00018903214304473727,-0.005984977845665545,0.004567267620171097,0.9907008989578752
2017-06-27,1,0.00045861671375493007,0.0005301465213355993,-0.00774867046404238,0.006459027501813652,0.986871111967676
2017-06-29,1,0.0009206395907937479,0.0010860233556599923,-0.009254174558744919,0.006694715877239244,0.9863536640143892
2017-07-03,1,0.0010243111249420777,0.0011369008836920706,-0.009254174558744919,0.005754207981314615,0.9865721799131241
2017-07-06,1,0.0005633345204386651,0.0006268517894398569,-0.009254174558744919,0.005754207981314615,0.9866532712246476
2017-07-10,1,0.0016849322008024958,0.0019069597183591675,-0.009254174558744919,0.0029457673371499644,0.9870128828996927
2017-07-12,1,0.0017295452493152027,0.00198387853045753,-0.008229848513038209,0.0029457673371499644,0.9879801457234083
2017-07-14,1,0.00184604930014461,0.0021390827267365963,-0.009254174558744919,0.0029457673371499644,0.9874840188780921
2017-07-18,1,0.0010533304836641989,0.00121291515217273,-0.008309695448155876,0.005359277866964193,0.9878451855746984
2017-07-20,1,0.001267886164426212,0.0014541163407615384,-0.01002264329912371,0.0019358156215580394,0.9871308946346236
2017-07-24,1,0.00030675605986341234,0.000381497800521825,-0.008309695448155876,0.00608958547226357,0.9887975120571436
2017-07-26,-1,-0.002444503038139173,-0.002157379223545152,-0.008035194077331831,0.00608958547226357,0.9924873626409874
2017-07-28,-1,-0.001806836820165721,-0.0015980182413636856,-0.007234203572490906,0.005810891746033552,0.9934916776214748
2017-08-01,-1,-0.001487865039852074,-0.0013194239860407305,-0.007234203572490906,0.005810891746033552,0.993515578839251
2017-08-03,-1,-0.001613289797705834,-0.0014640441789695072,-0.006303408183153777,0.0074736131390365735,0.9927318661999558
2017-08-07,-1,-0.0018913219352333552,-0.001728669416174962,-0.005126407005060624,0.0074736131390365735,0.992495099196811
2017-08-09,-1,-0.001274845395263189,-0.0012219378888841807,-0.004663248252673101,0.0074736131390365735,0.9926055556963025
2017-08-11,-1,-0.0020300080616899715,-0.001861586838367222,-0.002830158261161829,0.008690892430731675,0.9917138070156338
2017-08-15,-1,-0.001462627192833343,-0.001363001310599389,-0.0027395399911101966,0.008690892430731675,0.9919125995130369
2017-08-17,-1,-0.0027543501107449493,-0.0024440251325892814,-0.0024776744534853986,0.008690892430731675,0.9916394485533312
2017-08-21,-1,-0.001906557481721953,-0.0017338864996045847,-0.0024776744534853986,0.010595974964575466,0.9912762911404612
2017-08-23,-1,-0.0012277583413184382,-0.0011719313948774252,-0.0008693588545412411,0.010177594711471357,0.9918091209809944
2017-08-25,-1,-0.0022497340928318574,-0.0019597219263380915,-0.0008693588545412411,0.010694373184791276,0.9906545970837655
2017-08-29,-1,-0.0019523700639305038,-0.001688375137400604,-0.0008693588545412411,0.010694373184791276,0.9908623782811629
2017-08-31,-1,-0.0014022854341357782,-0.0011835549557173307,-0.0006782852424332151,0.010694373184791276,0.991516256342023
2017-09-05,-1,-0.0022364213947470785,-0.0019020785991739997,0.00041849848459465174,0.011688220101646152,0.9905366398017473
2017-09-07,-1,-0.0020864642078042275,-0.001765536791647424,0.00041849848459465174,0.011688220101646152,0.9910552598773084
2017-09-11,-1,-0.0009537410164697205,-0.0007835997055953327,-0.00029931530685773435,0.010694373184791276,0.992722001238618
2017-09-13,1,0.00040268918658897053,0.00048288487270704833,-0.00029931530685773435,0.010210394118209962,0.991424048842916
2017-09-15,1,0.0005223925509677103,0.000622561585737648,0.00041849848459465174,0.010210394118209962,0.9917311106580019
