JNU-Tangyin/eata/results/Batch4_SP500/Batch4_SP500-LKQ.csv
Date,Action,Predicted_Q25,Predicted_Q75,Actual_Q25,Actual_Q75,RL_Reward
2010-12-14,0,0.0,0.0,-0.006739568844431545,0.006615665295971526,0.9921912790979621
2010-12-16,0,0.0,0.0,-0.006739568844431545,0.005830161556412115,0.9915172913600909
2010-12-20,0,0.0,0.0,-0.004848683312107784,0.006615665295971526,0.9913214126831181
2010-12-22,0,0.0,0.0,-0.005546300847193351,0.006701449903555062,0.9910542027828764
2010-12-27,1,0.3027859690797524,0.30314036860168025,-0.0040092975869239385,0.008059131442026593,0.7694495794159567
2010-12-29,1,0.001358635868423599,0.0014684039886704067,-0.00426443085030144,0.007301249967078337,0.9906435256261428
2010-12-31,0,0.0,0.0,-0.00426443085030144,0.010095480547525423,0.9896269987450773
2011-01-04,0,0.0,0.0,-0.005546300847193351,0.010095480547525423,0.9889277728889053
2011-01-06,1,0.0006132953519519926,0.0006141974145159011,-0.005546300847193351,0.0111080690282616,0.9886402956811916
2011-01-10,0,0.0,0.0,-0.005546300847193351,0.0111080690282616,0.9889788757006842
2011-01-12,0,0.0,0.0,-0.005546300847193351,0.0111080690282616,0.9886266170551512
2011-01-14,0,0.0,0.0,-0.00426443085030144,0.012457571081367583,0.9889623700836601
2011-01-19,-1,-0.0023887065761576433,-0.0018885902525773253,-0.00426443085030144,0.012457571081367583,0.9889961840761328
2011-01-21,-1,-0.0012244518299895756,-0.0006807502085351164,-0.0019543608635205715,0.01402680250076657,0.9891595346047857
2011-01-25,1,0.001916123611014976,0.0020343012029993943,-0.006746345251527845,0.012457571081367583,0.9890837111351176
2011-01-27,1,0.002381073711807581,0.0023984960962921457,-0.01102825917519667,0.012457571081367583,0.9866296211392607
2011-01-31,1,0.0015511953870624288,0.0016810250391855902,-0.010727503056540338,0.010566856962632688,0.9878020758753814
2011-02-02,0,0.0,0.0,-0.008966421960101242,0.010566856962632688,0.9885287088787305
2011-02-04,0,0.0,0.0,-0.006183236820923923,0.009681075681419595,0.989248219497826
2011-02-08,1,0.0007802768411907933,0.0008736659572502537,-0.006183236820923923,0.004690075465422456,0.9901021802827695
2011-02-10,0,0.0,0.0,-0.010107472937663578,0.0030513886583504626,0.9894125912313407
2011-02-14,0,0.0,0.0,-0.010107472937663578,0.002624241519177375,0.9893005934106793
2011-02-16,1,0.0010831495661805055,0.0010902162852921575,-0.011472542159568812,0.0030513886583504626,0.9877230729472019
2011-02-18,0,0.0,0.0,-0.011472542159568812,0.0030513886583504626,0.9863622448448551
2011-02-23,0,0.0,0.0,-0.010107472937663578,0.0030513886583504626,0.9867550684273898
2011-02-25,0,0.0,0.0,-0.009305056339490006,0.005602824866640936,0.9884423358832193
2011-03-01,0,0.0,0.0,-0.009305056339490006,0.007487326126023561,0.9873980299682553
2011-03-03,-1,-0.0005663756674068675,-0.0003469655416076051,-0.009305056339490006,0.012395557509398192,0.9871213014519992
2011-03-07,0,0.0,0.0,-0.009305056339490006,0.012395557509398192,0.9869121390469806
2011-03-09,-1,-0.0003528013672717817,-0.00010960309681013012,-0.01025957620794335,0.012395557509398192,0.9866816794253122
2011-03-11,-1,-0.0012911749550666937,-0.0009662731374425857,-0.009833282043767873,0.012395557509398192,0.987040135083212
2011-03-15,-1,-0.0023153978686589294,-0.001896786117873138,-0.009833282043767873,0.012842647019991434,0.9866444889959962
2011-03-17,0,0.0,0.0,-0.009176907325090479,0.011903886689627028,0.9876469660975756
2011-03-21,0,0.0,0.0,-0.009176907325090479,0.008213851028167704,0.9897097418644161
2011-03-23,-1,-0.0015872361956498259,-0.0012889000359501673,-0.008995277235182871,0.011903886689627028,0.9894481379470202
2011-03-25,-1,-0.0015337731237249608,-0.001239107059192682,-0.009833282043767873,0.011903886689627028,0.9893509526024261
2011-03-29,-1,-0.0008278916373102682,-0.0006127794983203388,-0.008995277235182871,0.011903886689627028,0.9900442926023744
2011-03-31,1,0.0012299459322656467,0.0012321793942699066,-0.008995277235182871,0.009416821554882479,0.9893532201803726
2011-04-04,1,0.0005615207111068775,0.0005949566011166858,-0.008995277235182871,0.009416821554882479,0.9895437014057322
2011-04-06,0,0.0,0.0,-0.008535642723437965,0.009416821554882479,0.9894965070059356
2011-04-08,0,0.0,0.0,-0.008141518179675435,0.009416821554882479,0.9898742622863334
2011-04-12,0,-0.00013955093629376193,4.2435176163497265e-05,-0.008141518179675435,0.009494962163939774,0.9888658163785915
2011-04-14,-1,-0.0010634066686254194,-0.0007353910035921555,-0.0036813737584280378,0.013054140985858631,0.9885495341711551
2011-04-18,-1,-0.0018722663587856505,-0.001408504719378583,-0.0036813737584280378,0.013054140985858631,0.9875901233119622
2011-04-20,-1,-0.00092357020365337,-0.0005998944794075398,-0.0030053141380580583,0.009712361098579671,0.9890826145204662
2011-04-25,-1,-0.00130342144209582,-0.0009144435538552499,-0.005746846826706302,0.00851123631798318,0.9892224231019503
2011-04-27,0,-0.00020399496524908453,4.788704335077559e-05,-0.007382409728006947,0.008484709645829192,0.9895665135002227
2011-04-29,1,0.0020414501688609662,0.0021109296323404436,-0.007382409728006947,0.008484709645829192,0.9908183209165882
2011-05-03,0,0.0,0.0,-0.008053590080882838,0.009083540383812037,0.9887430720777489
2011-05-05,0,0.0,0.0,-0.007518052627401898,0.009083540383812037,0.9883175098525808
2011-05-09,1,0.0014369810400054767,0.0015400747653589587,-0.01029018940051945,0.010367854608129352,0.9872488171772013
2011-05-11,0,0.0,0.0,-0.015703108871578823,0.009083540383812037,0.9877843415625747
2011-05-13,0,0.0,0.0,-0.015703108871578823,0.007918318445766136,0.9881394416568259
2011-05-17,0,0.0,0.0,-0.012389629743832047,0.009083540383812037,0.9876132632417286
2011-05-19,0,0.0,0.0,-0.012389629743832047,0.00730653478245454,0.9878509149280693
2011-05-23,0,0.0,0.0,-0.009213718713071556,0.010367854608129352,0.988288824709739
2011-05-25,1,0.0016851046079254504,0.0016938769203662806,-0.006037120187665438,0.007526133613204972,0.9888923604994392
2011-05-27,1,0.0024950795587358418,0.002623235939881241,-0.006037120187665438,0.006737982313928347,0.9888858554045845
2011-06-01,1,0.0013351180459495898,0.001379149374246593,-0.004038742580727082,0.006737982313928347,0.9901952612226577
2011-06-03,1,0.00098618223969309,0.0009884862754973964,-0.003626433994237215,0.00877002397354958,0.9900252997744635
2011-06-07,1,0.0008827566386157566,0.0009096602670313985,-0.002952358428082999,0.00877002397354958,0.9909036210593983
2011-06-09,0,0.0,0.0,-0.002952358428082999,0.011845051539195435,0.9908835579448794
2011-06-13,-1,-0.00042067991139998925,-0.00032658428073300606,-0.002952358428082999,0.011845051539195435,0.9902905492249278
2011-06-15,1,0.00046859944882478283,0.0005872882458668942,-0.003971067367978615,0.00877002397354958,0.990542809686839
2011-06-17,1,0.00025432913247731685,0.0003578442518138679,-0.005873579315492998,0.00877002397354958,0.9902263580440775
2011-06-21,1,0.0012115356236857455,0.0013253643331898927,-0.005873579315492998,0.009157117328369132,0.9895338757828501
2011-06-23,1,0.0011292702909739486,0.001233196092117364,-0.005873579315492998,0.009157117328369132,0.9893953735384488
2011-06-27,1,0.001376847250955254,0.0015298458887014203,-0.007871220898496234,0.013423123750170681,0.9884799026944131
2011-06-29,1,0.002124558223040504,0.0023762082447333355,-0.014098764469548539,0.00866778979699028,0.985933963546032
2011-07-01,1,0.003298232667180534,0.0037552526736513315,-0.014098764469548539,0.0065735421009286855,0.9863141628685328
2011-07-06,1,0.004044526017061238,0.004624678797167236,-0.016737229348002917,0.006050674521247161,0.9846608503193208
2011-07-08,1,0.004207451193964668,0.004827578467099783,-0.022807032599082566,0.006050674521247161,0.9818361216097007
2011-07-12,0,0.0,0.0,-0.0250498249670751,0.007523252479700532,0.9748929427409702
2011-07-14,0,0.0,0.0,-0.030622080875946568,0.010261099999519097,0.9722240388221461
2011-07-18,0,0.0,0.0,-0.030622080875946568,0.01682657395478534,0.970244733320596
2011-07-20,0,0.0,0.0,-0.03259324863456271,0.010261099999519097,0.9698392272187021
2011-07-22,0,0.0,0.0,-0.035411553642485466,0.010261099999519097,0.9677092978261022
2011-07-26,1,0.0024542079836834293,0.0026917849570087292,-0.035411553642485466,0.015137295086002592,0.9662464742474537
2011-07-28,-1,-0.0004536853604318951,-0.0003158208365760251,-0.03259324863456271,0.018776975747323933,0.9687511997466491
2011-08-01,-1,-0.0007075804840249524,-0.0005201471731546996,-0.03259324863456271,0.02785321395766525,0.9666121030382421
2011-08-03,-1,-0.0022666310264472965,-0.0018370275866964043,-0.017766779603787884,0.02785321395766525,0.9671628185294915
2011-08-05,-1,-0.004759237048731003,-0.004008130538179165,-0.01714073651338709,0.02785321395766525,0.9691040686358922
2011-08-09,-1,-0.0037643397455603194,-0.003149119976806453,-0.011608622551925267,0.02785321395766525,0.976091068013368
2011-08-11,-1,-0.005390156210958179,-0.0046991574699292915,-0.012240872963317401,0.020657627935494013,0.979217075102087
2011-08-15,-1,-0.0036437151843596418,-0.003015124257919657,-0.012240872963317401,0.016192674861774007,0.9806599759018315
2011-08-17,-1,-0.005103732423192073,-0.004422072287562874,-0.01153891073111483,0.020657627935494013,0.9787654062311364
2011-08-19,-1,-0.00634774831011451,-0.00551351401297149,-0.01153891073111483,0.020657627935494013,0.9796975513038677
2011-08-23,-1,-0.0035989159599461047,-0.0031355664343226137,-0.012955663135325044,0.01790206551865869,0.9805499910123612
2011-08-25,-1,-0.0028010061918301837,-0.0024148024115227948,-0.0159261556010277,0.018732889033848333,0.9789840128514656
2011-08-29,-1,-0.0009225676753693702,-0.0007225920801483114,-0.0159261556010277,0.016039900462001617,0.9799631742329084
2011-08-31,-1,-0.0004760137084704573,-0.00029164781529483535,-0.020860731645048855,0.018732889033848333,0.9787452324168263
2011-09-02,-1,-0.0018515369704572473,-0.0015398998678365543,-0.021743030320885412,0.018732889033848333,0.9765687808526277
2011-09-07,-1,-0.0007640687668160085,-0.0005371375314798123,-0.021743030320885412,0.021900330331004185,0.9720156995344726
2011-09-09,-1,-0.0021447115408630684,-0.0017418492589529337,-0.021743030320885412,0.023791555519070078,0.9709120659862878
2011-09-13,-1,-0.0009131590202898907,-0.0006816378351702034,-0.021743030320885412,0.030528297666075718,0.9698297442963953
2011-09-15,1,0.0014686724942020776,0.0015125647219493754,-0.021743030320885412,0.023791555519070078,0.9720381531283893
2011-09-19,1,0.0004865083653774818,0.000519151635601379,-0.023207551433971706,0.023791555519070078,0.9722656775936006
2011-09-21,-1,-0.0012531285688214958,-0.0010927142372352582,-0.017384184558006322,0.028443366735624143,0.9729342504162768
2011-09-23,-1,-0.0016057114129152616,-0.001410970624156608,-0.014334601550871944,0.028443366735624143,0.9738879240826996
2011-09-27,-1,-0.0006745278146309899,-0.0005557516260406216,-0.015032421807113578,0.028443366735624143,0.9740457634971146
2011-09-29,1,7.228880259962909e-06,1.9069998907272758e-05,-0.014257123874988762,0.03331218853442839,0.9726795060121403
2011-10-03,-1,-0.00268230732128618,-0.002436067357484922,-0.013879139531740347,0.03331218853442839,0.9758295507416472
2011-10-05,1,0.0030419309637148666,0.0035478574777115263,-0.013973823361871864,0.027393354898080948,0.9784129060262291
2011-10-07,1,0.003415736379212029,0.003959378511963837,-0.013973823361871864,0.022700604076848332,0.9797526684849255
2011-10-11,1,0.005043792063714084,0.005798156459803889,-0.014257123874988762,0.022700604076848332,0.9788433243623704
2011-10-13,1,0.004782539166779462,0.005452096755637119,-0.015032421807113578,0.022700604076848332,0.9773980136051169
2011-10-17,0,0.0,0.0,-0.014257123874988762,0.02725471010658155,0.9778125901504531
2011-10-19,0,0.0,0.0,-0.014257123874988762,0.022700604076848332,0.9786785717170352
2011-10-21,0,0.0,0.0,-0.015177943857825522,0.017146091946945722,0.9793849105937988
2011-10-25,0,0.0,0.0,-0.014556164243138419,0.013328492964152793,0.9804803267382121
2011-10-27,0,0.0,0.0,-0.01639597142508569,0.012399200142473383,0.9831007134814475
2011-10-31,0,0.0,0.0,-0.01639597142508569,0.016563191773299436,0.9815050366828996
2011-11-02,1,0.004401888516118285,0.004786239519255089,-0.01639597142508569,0.016563191773299436,0.9811553406882962
2011-11-04,1,0.005314726356581019,0.005878482906735816,-0.01639597142508569,0.014217676472407303,0.9816485613046959
2011-11-08,1,0.00553798463487935,0.006132082073176614,-0.013707984286218283,0.012399200142473383,0.9834406679660801
2011-11-10,1,0.004714731468408957,0.005222990583168573,-0.013707984286218283,0.012514804811494534,0.9843471565131806
2011-11-14,1,0.004418853144512723,0.004960429196050007,-0.01639597142508569,0.010643568793709028,0.984297789986216
2011-11-16,1,0.004103905944473278,0.004604655876010347,-0.01741809407194312,0.010643568793709028,0.9827785994998194
2011-11-18,1,0.003634136405972597,0.004113593975557524,-0.014088294007453322,0.014117879482217915,0.9830497274825206
2011-11-22,1,0.0035396792672731667,0.0040495354134700325,-0.013279329373334852,0.019026900484577447,0.9830495496516395
2011-11-25,1,0.002894086405840956,0.00334953547155224,-0.008914428865624706,0.019026900484577447,0.9838601954677444
2011-11-29,1,0.004874385406628938,0.005595459849765069,-0.013279329373334852,0.010643568793709028,0.9850402961685554
2011-12-01,1,0.00491450497767642,0.005580966607494453,-0.008914428865624706,0.010643568793709028,0.9874711836717271
2011-12-05,0,0.0,0.0,-0.008914428865624706,0.012813126478089586,0.9860616962124564
2011-12-07,0,0.0,0.0,-0.011741749852634108,0.01504469420103062,0.9850851532493228
2011-12-09,0,0.0,0.0,-0.00714209971868451,0.019387184192383566,0.9852281127119373
2011-12-13,0,0.0,0.0,-0.0043979489931814855,0.019387184192383566,0.9866468810748131
2011-12-15,0,0.0,0.0,-0.0043979489931814855,0.01504469420103062,0.9892166118258174
2011-12-19,0,0.0,0.0,-0.003101825980802263,0.013807452612369538,0.9893898528086559
2011-12-21,0,0.0,0.0,-0.003101825980802263,0.013371850255937097,0.990783153577304
2011-12-23,0,0.0,0.0,-0.0032495622499512456,0.013371850255937097,0.9909884025699872
2011-12-28,0,0.0,0.0,-0.00277257856681966,0.013371850255937097,0.9917136072341457
2011-12-30,0,0.0,0.0,-0.0018378702942575067,0.007698214094043058,0.9925458673436721
2012-01-04,1,0.0020774094783365827,0.00221312579637788,-0.00277257856681966,0.007466141515268024,0.9912569382964231
2012-01-06,1,0.002916638930173436,0.002971766627635426,-0.00277257856681966,0.006929066016005345,0.9917056708783498
2012-01-10,1,0.003297607786359146,0.0033116359972696686,-0.005272729539404261,0.005067855264806253,0.9913584300209193
2012-01-12,1,0.0012723810451230316,0.0016106354416921252,-0.007568151010938799,0.005865125947461235,0.9913667878480353
2012-01-17,1,0.001773677659475221,0.001948072375770936,-0.005605371655784222,0.005865125947461235,0.9913812417587864
2012-01-19,1,0.001081153979557633,0.0012358960663995282,-0.005605371655784222,0.005067855264806253,0.9913558895377134
2012-01-23,1,0.0023015305417715386,0.0024395353714358205,-0.007568151010938799,0.005067855264806253,0.9904287233607916
2012-01-25,1,0.0024315996467128994,0.002644722682739875,-0.007568151010938799,0.005865125947461235,0.9900482939398604
2012-01-27,0,0.0,0.0,-0.009096960992793085,0.004788904368386589,0.9894872401493545
2012-01-31,0,0.0,0.0,-0.011747333583845193,0.007909031072932319,0.987985595205777
2012-02-02,1,0.00098539834796175,0.0010955489534316487,-0.009096960992793085,0.007909031072932319,0.989253705975681
2012-02-06,1,0.001725174837529315,0.00175763776479963,-0.012432314211235928,0.004788904368386589,0.9874060270864333
2012-02-08,1,0.0018404804731015243,0.001998168798784529,-0.012432314211235928,0.00872600237062747,0.9879118690558777
2012-02-10,1,0.00041396968003744474,0.0005275038305723218,-0.01084061247579863,0.00872600237062747,0.9882946929253295
2012-02-14,-1,-0.0017844011333577085,-0.001234175742115137,-0.012432314211235928,0.009457508003336756,0.9873188280727768
2012-02-16,-1,-0.001287401958844592,-0.0007351774958311733,-0.012432314211235928,0.00872600237062747,0.9885449719449177
2012-02-21,0,0.0,0.0,-0.011339040946321443,0.009457508003336756,0.9880555022114154
2012-02-23,0,0.0,0.0,-0.011339040946321443,0.00872600237062747,0.9880818678614877
2012-02-27,-1,-0.002472351944686838,-0.0018448430858721897,-0.009011103243718477,0.00872600237062747,0.9890301351868918
2012-02-29,0,0.0,0.0,-0.008338904850004653,0.00815758203363321,0.9899710813471682
2012-03-02,0,0.0,0.0,-0.008932542869985472,0.0072685398723156824,0.9901298774930231
2012-03-06,0,0.0,0.0,-0.00821114417010384,0.0077683983146379434,0.9918231946621848
2012-03-08,0,0.0,0.0,-0.008338904850004653,0.007011394230911479,0.9914525930530481
2012-03-12,0,0.0,0.0,-0.008932542869985472,0.00656645698373898,0.9900126247223855
2012-03-14,0,0.0,0.0,-0.008338904850004653,0.007178013711685566,0.990600246955631
2012-03-16,0,0.0,0.0,-0.008338904850004653,0.007178013711685566,0.9905550278518922
2012-03-20,0,0.0,0.0,-0.008338904850004653,0.00656645698373898,0.9907553061829357
2012-03-22,0,0.0,0.0,-0.007010817872264273,0.007178013711685566,0.9909590367157279
2012-03-26,0,0.0,0.0,-0.010292591755992349,0.006497837469773104,0.9904147153562425
2012-03-28,0,0.0,0.0,-0.010292591755992349,0.008494938553979231,0.9846010850865071
2012-03-30,-1,-0.36045865868824495,-0.36025920158664954,-0.011622690468434177,0.01115647633027324,0.7330217281883245
2012-04-03,0,0.0,0.0,-0.011622690468434177,0.012099325779546801,0.9837253612808546
2012-04-05,0,0.0,0.0,-0.011416214961068307,0.012099325779546801,0.9838394474619583
2012-04-10,0,0.0,0.0,-0.0048937532227744905,0.012768907079579053,0.9848211781243028
2012-04-12,0,0.0,0.0,-0.0048937532227744905,0.012422863033009587,0.9853407221696117
2012-04-16,0,0.0,0.0,-0.006297205794802262,0.012620303329345264,0.9847852377317456
2012-04-18,0,0.0,0.0,-0.004764636394008348,0.014882114664334051,0.9842457980064859
2012-04-20,-1,-0.004777892793576287,-0.003902846561865338,-0.011416214961068307,0.014882114664334051,0.9815866039391039
2012-04-24,-1,-0.00389754956535422,-0.003184529946034338,-0.004959556387353321,0.01872362065591117,0.9807689461124096
2012-04-26,0,0.0,0.0,-0.004959556387353321,0.014579350383267214,0.98668005960606
2012-04-30,0,0.0,0.0,-0.00449961520636006,0.017401609294233466,0.9868058923109785
2012-05-02,0,0.0,0.0,-0.004959556387353321,0.013863352658067048,0.9868987460036456
2012-05-04,0,0.0,0.0,-0.005667218577367488,0.013863352658067048,0.9852656237120301
2012-05-08,0,0.0,0.0,-0.005667218577367488,0.013863352658067048,0.9847037107711651
2012-05-10,0,0.0,0.0,-0.005667218577367488,0.013863352658067048,0.9846254287587961
2012-05-14,0,0.0,0.0,-0.006186907474417145,0.013863352658067048,0.9845020573629709
2012-05-16,0,0.0,0.0,-0.006716472031810889,0.010335074544214652,0.9853092918533585
2012-05-18,0,0.0,0.0,-0.004785215111831389,0.013863352658067048,0.9862971678993324
2012-05-22,0,0.0,0.0,-0.005669398820976805,0.011392966722805787,0.9872442539232876
2012-05-24,0,0.0,0.0,-0.0063384117229671015,0.009871111716360851,0.9864588450657134
2012-05-29,0,0.0,0.0,-0.007134817065600545,0.009871111716360851,0.9858074995821737
2012-05-31,0,0.0,0.0,-0.021943295745677476,0.0071760751075870335,0.9825927822554819
2012-06-04,0,0.0,0.0,-0.010242836746950682,0.011043629459110329,0.9826922980458332
2012-06-06,0,0.0,0.0,-0.010242836746950682,0.011043629459110329,0.9833524973951349
2012-06-08,0,0.0,0.0,-0.01173884665335014,0.011043629459110329,0.983574882105985
2012-06-12,0,0.0,0.0,-0.007255426725556577,0.011043629459110329,0.9838375814975433
2012-06-14,1,0.004247934206145789,0.004637393646750688,-0.011261193288272141,0.011870095973560079,0.9815918274859042
2012-06-18,1,0.006332804625575903,0.007031035323455878,-0.011261193288272141,0.011870095973560079,0.981992372453842
2012-06-20,0,0.0,0.0,-0.011261193288272141,0.011870095973560079,0.9828782182302818
2012-06-22,0,0.0,0.0,-0.013180950093288579,0.011870095973560079,0.9831438327022987
2012-06-26,0,0.0,0.0,-0.012611393713998918,0.010223217778625256,0.9839350066678231
2012-06-28,0,0.0,0.0,-0.006783695494454876,0.013256215996625255,0.9853415718318392
2012-07-02,0,0.0,0.0,-0.009402051192240099,0.00952799295333427,0.9873118868576064
2012-07-05,0,0.0,0.0,-0.009402051192240099,0.009231218621832168,0.9880783081082998
2012-07-09,0,0.0,0.0,-0.007434310054738939,0.011221441055978512,0.9867680562724362
2012-07-11,0,0.0,0.0,-0.007097433599183469,0.01580408840495842,0.9860616816622986
2012-07-13,0,0.0,0.0,-0.005377443574088058,0.015444656454403282,0.9868034162406132
2012-07-17,1,0.0016839499752276136,0.0018392079720658937,-0.0037547920846898713,0.013593262655821963,0.9881582551942599
2012-07-19,0,0.0,0.0,-0.007097433599183469,0.013593262655821963,0.9868709330891346
2012-07-23,1,0.0019975896083657585,0.0020157369709653365,-0.0016159197115097278,0.01444721181935269,0.9881532365373003
2012-07-25,1,0.000248957328921125,0.00027682153727137584,-0.001223351403346538,0.01444721181935269,0.988512364884383
2012-07-27,1,0.0009317237360432682,0.000950583271929668,-0.0019358134635811932,0.013282200175273401,0.9904570178246013
2012-07-31,1,0.0003155744085045784,0.0003913398078476603,-0.0019358134635811932,0.013282200175273401,0.9900967132734856
2012-08-02,1,7.584591428681483e-05,0.00019623723591796538,-0.0009640452791110526,0.013282200175273401,0.9890243514163997
2012-08-06,1,0.0010392230558993955,0.0010406414754513035,-0.0016202723503096744,0.012326004020054914,0.9900658291790952
2012-08-08,1,0.0017255034416162002,0.001796869793143573,-0.0021697833015871066,0.011965951310907788,0.9905330665367661
2012-08-10,1,0.0025719046911743854,0.00278679175074664,-0.004301536786517339,0.011965951310907788,0.9897023352344764
2012-08-14,0,0.0,0.0,-0.004301536786517339,0.011965951310907788,0.989218898043534
2012-08-16,0,0.0,0.0,-0.004301536786517339,0.011114945552075456,0.9901446448135879
2012-08-20,0,0.0,0.0,-0.012221718837264105,0.0075703964978748855,0.9891934410026565
2012-08-22,0,0.0,0.0,-0.012221718837264105,0.009099878042817939,0.9886941730336906
2012-08-24,0,0.0,0.0,-0.008604400789416537,0.009099878042817939,0.9892968706553694
2012-08-28,1,0.0018975813922366335,0.0020996331740592415,-0.012221718837264105,0.009099878042817939,0.9884932040348481
2012-08-30,1,5.237546275208905e-05,0.0001874985068818152,-0.012221718837264105,0.009099878042817939,0.9889667375258714
2012-09-04,0,0.0,0.0,-0.012221718837264105,0.007301367760594701,0.9894594359948998
2012-09-06,0,0.0,0.0,-0.012221718837264105,0.009099878042817939,0.9888008687268558
2012-09-10,0,0.0,0.0,-0.005720867339070712,0.007301367760594701,0.9903874815257396
2012-09-12,0,0.0,0.0,-0.007754352620427047,0.005374903036387655,0.9905997225516562
2012-09-14,0,0.0,0.0,-0.004664050101877273,0.007301367760594701,0.9900792805146718
2012-09-18,0,0.0,0.0,-0.0019522532140197992,0.011440694892372368,0.9896683341745881
2012-09-20,0,0.0,0.0,-0.0019522532140197992,0.013346735716810833,0.9893549171706127
2012-09-24,0,0.0,0.0,-0.0031240196763381712,0.013346735716810833,0.9888275957962912
2012-09-26,0,0.0,0.0,-0.0041900139137738025,0.013346735716810833,0.9896981348828777
2012-09-28,-1,-0.00034230119911623006,-0.00024394526393439026,-0.0033854312515263687,0.016894987568848538,0.9889299883520672
2012-10-02,0,0.0,0.0,-0.0033854312515263687,0.021150192120668633,0.9870876211778289
2012-10-04,0,0.0,0.0,-0.0042837873964913075,0.016894987568848538,0.9867162260946031
2012-10-08,0,0.0,0.0,-0.006978183973540211,0.021362582285122583,0.9849850447280051
2012-10-10,0,0.0,0.0,-0.007854798518975548,0.021362582285122583,0.9847733460969902
2012-10-12,0,0.0,0.0,-0.008185832752483583,0.016894987568848538,0.9853179650836388
2012-10-16,0,0.0,0.0,-0.00902211292704283,0.011512331212605715,0.9857383134269361
2012-10-18,0,0.0,0.0,-0.00902211292704283,0.011512331212605715,0.9852318919008846
2012-10-22,0,0.0,0.0,-0.008185832752483583,0.01205086451952909,0.9851214838178057
2012-10-24,0,0.0,0.0,-0.008341029197158487,0.013395678583560357,0.9844234166713767
2012-10-26,1,0.004058293088622531,0.004445337068338635,-0.008341029197158487,0.01238345411157022,0.9860407953762539
2012-11-01,1,0.005153173347267704,0.005695646794049104,-0.008341029197158487,0.011760444309439778,0.9871857248955467
2012-11-05,1,0.003464478013863046,0.0037342206668433964,-0.008341029197158487,0.011760444309439778,0.9880157398171752
2012-11-07,1,0.0033610330546666855,0.0035911881723653684,-0.008341029197158487,0.011222636718774243,0.98881636444601
2012-11-09,1,0.0034126005656089746,0.003735709802714429,-0.006879524934563193,0.011222636718774243,0.9896538269779132
2012-11-13,1,0.002868100582616066,0.0031410218240990628,-0.006918078997403619,0.011222636718774243,0.9897193620160523
2012-11-15,1,0.0015616110472372454,0.0015759357459434963,-0.009978686123724167,0.010767283035549316,0.9899793870373164
2012-11-19,1,0.00233107331435781,0.0024121308810419817,-0.009978686123724167,0.010077466578252228,0.9908305472888782
2012-11-21,1,0.002527661708820934,0.0026432664710272632,-0.009978686123724167,0.009171769311935122,0.9899360029342656
2012-11-26,1,0.003865132572852094,0.004178140969932128,-0.00706890292790606,0.007799832226688311,0.9905156075781884
2012-11-28,1,0.004936326879745809,0.005418785228259694,-0.009978686123724167,0.004322379802961618,0.9894660628560351
2012-11-30,1,0.0047499761709840615,0.005187014535293628,-0.011262190409554576,0.004322379802961618,0.9887696195480772
2012-12-04,1,0.003968321866228541,0.004295840695598597,-0.011262190409554576,0.007799832226688311,0.9877850644059514
2012-12-06,1,0.003490809860051543,0.003761529149230944,-0.00740567053920098,0.007799832226688311,0.9886265792395372
2012-12-10,1,0.0036155106332755693,0.003925679318751839,-0.00740567053920098,0.010960406705993173,0.987355323790459
2012-12-12,1,0.0031874492328052124,0.003483465387866411,-0.01060750188294262,0.010960406705993173,0.9865993907962872
2012-12-14,1,0.0012691817878406788,0.0014073137416352774,-0.007278508180978878,0.010960406705993173,0.9870817934174683
2012-12-18,1,0.0013077058387148783,0.0013696006755845804,-0.007278508180978878,0.010960406705993173,0.9870422857860194
2012-12-20,1,0.0009068403893053278,0.0012280728489567285,-0.005260927512908053,0.009352495117790644,0.9884318529370005
2012-12-24,1,0.0002289546378616055,0.0006749443416476264,-0.005260927512908053,0.010960406705993173,0.988221580883466
2012-12-27,-1,-0.001158110031712447,-0.0005712626739189646,-0.0028678957478228653,0.012182467302733004,0.9881465827495755
2012-12-31,0,-0.00030314084650809076,0.00011722481670099348,-0.004136562630987807,0.010960406705993173,0.9881402446815152
2013-01-03,1,0.0016392880863841728,0.0017513744617600586,-0.0065907974501666,0.010960406705993173,0.9889127342387996
2013-01-07,1,0.0022067621567280144,0.002214341101561306,-0.008930997238340978,0.012182467302733004,0.9872392805084826
2013-01-09,1,0.003536177118646784,0.0037105931762405515,-0.008930997238340978,0.007251528889144763,0.9879388257985819
2013-01-11,1,0.002094906446794083,0.0021443131463680723,-0.00791509813004995,0.010188041204342638,0.9878926826841473
2013-01-15,1,0.001972557493393559,0.002006802783155014,-0.0064243135570006505,0.010188041204342638,0.9885149515892774
2013-01-17,1,0.0017742921386640128,0.0018476392010624643,-0.007741118630305225,0.009051599378303223,0.9882266405184689
2013-01-22,1,0.0008566389673011197,0.001072053038995967,-0.00791509813004995,0.00988611977294868,0.9866027483021927
2013-01-24,1,0.0015257766423242254,0.0016623540460374458,-0.01073569200735005,0.01048921198417841,0.9849134965372706
2013-01-28,1,0.0013817033741163462,0.0015865366761323722,-0.01073569200735005,0.007643861370250375,0.9853342596272847
2013-01-30,0,-6.843837013784755e-05,0.0002814553686981133,-0.01073569200735005,0.011929497740432931,0.9825074537008699
2013-02-01,1,0.0018458868990890026,0.0020324751924738612,-0.017827678998496105,0.009173269177326793,0.981824845576976
2013-02-05,1,0.0018020134190346918,0.0020045863687596015,-0.015777299408663722,0.007643861370250375,0.9826348715051507
2013-02-07,1,0.0016394221603195662,0.001853642329282909,-0.015777299408663722,0.009173269177326793,0.9805491963932239
2013-02-11,1,0.0009250731036740908,0.0012550566969062454,-0.010384469664871387,0.008071979043760287,0.9818164381567036
2013-02-13,0,-0.00015364259272098542,0.00036684084707930666,-0.010384469664871387,0.009173269177326793,0.9811048868626484
2013-02-15,0,-0.00054511044080032,1.705552211546282e-05,-0.01770648524568757,0.009173269177326793,0.9802323767202541
2013-02-20,0,-8.354807250203196e-05,0.00013583155023686702,-0.010540948952787291,0.009613166382643291,0.9816044355155585
2013-02-22,-1,-0.0010208315056138432,-0.0006483871741867009,-0.009613915832321504,0.008218611445532452,0.9832485817278354
2013-02-26,-1,-0.00200995189642816,-0.001477831922878638,-0.009613915832321504,0.009613166382643291,0.9820999645806276
2013-02-28,-1,-0.003006696315533905,-0.0023688519661038783,-0.008852554978700695,0.009613166382643291,0.9858729810667892
2013-03-04,-1,-0.0022976601156380902,-0.0018256690351019815,-0.008852554978700695,0.00840784902867776,0.9874739517535119
2013-03-06,-1,-0.0032927779813076027,-0.0027147526243972396,-0.008852554978700695,0.00840784902867776,0.9873348113125477
2013-03-08,-1,-0.0007185015049263973,-0.0004180977460956616,-0.008852554978700695,0.00840784902867776,0.9899550388383309
2013-03-12,-1,-0.000523953665171945,-0.0002855524952995012,-0.008898732307027889,0.00840784902867776,0.9901613880175584
2013-03-14,1,0.000974747370909128,0.0010120197510514704,-0.008898732307027889,0.00926117174225357,0.9896247061395972
2013-03-18,0,-5.927023699630186e-05,7.847865573797189e-06,-0.007534626751604338,0.010528465810565116,0.9883695673432439
2013-03-20,1,1.416675335793097e-05,0.00011130148971499556,-0.011728559791526996,0.010528465810565116,0.98692701864651
2013-03-22,-1,-0.0014812680130943919,-0.0011685351503469875,-0.009803613134823575,0.013106263322267471,0.9865196021245255
2013-03-26,1,0.0006865755288856432,0.0007069029748160557,-0.009803613134823575,0.013106263322267471,0.9871312017860081
2013-03-28,1,0.0022189154589440357,0.0024613367567268233,-0.009803613134823575,0.01483049418804999,0.985048984750159
2013-04-02,1,0.0008137159342462328,0.000816379982941559,-0.005350656703742973,0.015498614704871369,0.9833929253762261
2013-04-04,1,0.000716437620856893,0.0007177143983220531,-0.005350656703742973,0.015926242011065104,0.9829951658998315
2013-04-08,1,0.000784613595398719,0.0008052741883058917,-0.005350656703742973,0.0181185650318102,0.9824129622057153
2013-04-10,-1,-0.0003844882861351272,-0.0001887494732211619,0.0005211732219091952,0.0181185650318102,0.9819857536624081
2013-04-12,1,0.0008515665628967498,0.0009320679652954652,-0.006802019522626806,0.015926242011065104,0.9836780844184558
2013-04-16,1,7.324972033446845e-05,0.00019743553087253894,-0.004335802949632324,0.015785050187977136,0.9854951821185939
2013-04-18,-1,-0.0014380850574744874,-0.001185288619783166,-0.0011939487336326397,0.016254311332482757,0.9861493196968384
2013-04-22,-1,-0.00046229525297238457,-0.0003075991951556498,-0.0011939487336326397,0.016846590109403453,0.9868273545603042
2013-04-24,1,0.0006037630151349663,0.0006182987569712017,-0.004335802949632324,0.016846590109403453,0.9865578889248976
2013-04-26,1,0.0026087263472513167,0.002869597626909642,-0.004608312074981884,0.016254311332482757,0.9895323968539719
2013-04-30,1,0.004041449056139163,0.004443129827529124,-0.006802019522626806,0.013605706175393688,0.9891823029246571
2013-05-02,1,0.003970421399685372,0.004341792692929017,-0.006802019522626806,0.009066497012226254,0.9896688513833937
2013-05-06,1,0.004863030871665732,0.005351313602010266,-0.00845608683094528,0.007670812821575304,0.9889360837481739
2013-05-08,1,0.004332604502771529,0.004704471101939945,-0.00845608683094528,0.008525429160044213,0.9891284813731327
2013-05-10,1,0.003060726337368168,0.0031923468353762825,-0.0067163792856794816,0.011406100261964373,0.9894730797428253
2013-05-14,1,0.0034314603727396684,0.003630107105951131,-0.007277622261915527,0.008525429160044213,0.9895169538590863
2013-05-16,1,0.004259294290105999,0.004607558550266933,-0.007277622261915527,0.010806506095100272,0.9891398207423538
2013-05-20,1,0.004707146594470076,0.00511269416711471,-0.007277622261915527,0.010806506095100272,0.9883173314346241
2013-05-22,1,0.0026780327447282967,0.002749153053327239,-0.007124026408025891,0.010806506095100272,0.987801184995409
2013-05-24,1,0.0023851686176847966,0.0024098693634004085,-0.007124026408025891,0.01141222283129563,0.9876604948422073
2013-05-29,1,0.002998415812515396,0.003213063578291625,-0.0059060104147239285,0.010877825874682815,0.9892736175564676
2013-05-31,1,0.0028729580244156398,0.003084509596797262,-0.0059060104147239285,0.010877825874682815,0.9887763857008466
2013-06-04,1,0.0027786677499136284,0.0030679859841877067,-0.0038043038109968294,0.01145060322599708,0.9878664471578269
2013-06-06,1,0.002315947435110269,0.002461261562898722,-0.0025251910049183773,0.01145060322599708,0.9881319715341201
2013-06-10,1,0.002917965155429339,0.003119567646817265,-0.0025251910049183773,0.010819299560000755,0.9890214941576783
2013-06-12,1,0.0025789374012975446,0.0027515732317566046,-0.0028523033122827106,0.010819299560000755,0.9886561904268631
2013-06-14,1,0.003827656724124368,0.004115256273946984,-0.005158212753355614,0.010355804809826853,0.9892962727282913
2013-06-18,1,0.004552051739103705,0.005147039247807534,-0.009523450054078522,0.004434816012730357,0.9897473134094691
2013-06-20,0,0.0,0.0,-0.0029877780008922186,0.007220322826738883,0.9921940786202887
2013-06-24,0,0.0,0.0,-0.0048077106475829055,0.006165142214401446,0.9921532016730816
2013-06-26,0,0.0,0.0,-0.0048077106475829055,0.006280462827825288,0.9921208607863731
2013-06-28,0,0.0,0.0,-0.004030547299880577,0.006165142214401446,0.9931788509289414
2013-07-02,0,0.0,0.0,-0.004030547299880577,0.006165142214401446,0.9941743919255206
2013-07-05,0,0.0,0.0,-0.004030547299880577,0.006556800917037919,0.989055947216806
2013-07-09,0,0.0,0.0,-0.005360846993025827,0.006556800917037919,0.9885506662352098
2013-07-11,0,0.0,0.0,-0.00451261199065586,0.007604173542280072,0.9876677413602354
2013-07-15,0,0.0,0.0,-0.00451261199065586,0.010816742821419652,0.9863423992109329
2013-07-17,0,0.0,0.0,-0.004904040854255492,0.010816742821419652,0.9862481676143046
2013-07-19,0,0.0,0.0,-0.006119589770866398,0.007604173542280072,0.9851109822755411
2013-07-23,1,0.001007504015108853,0.001064474919932467,-0.004904040854255492,0.011152702769515757,0.984969609851616
2013-07-25,1,0.0007145289174403796,0.0008495889952498643,-0.004904040854255492,0.012992025906968643,0.9840414305813175
2013-07-29,0,-0.00012898705437981478,0.00014942216691442506,-0.006189434736842423,0.012992025906968643,0.9837854451586392
2013-07-31,1,0.0008444683633119352,0.0009183068725804863,-0.006189434736842423,0.011481646156573658,0.9836013066997432
2013-08-02,1,0.0037325372603113135,0.004014895900594417,-0.006888112641267262,0.005418484273597483,0.9875527568057493
2013-08-06,1,0.0032148409807220887,0.00343797399508468,-0.006888112641267262,0.007608525646971152,0.9875693392212525
2013-08-08,1,0.003135257811927762,0.003275949301401785,-0.006888112641267262,0.006489920721475613,0.9886007314625138
2013-08-12,1,0.00409471555955716,0.004364701211207428,-0.006888112641267262,0.01062304129165573,0.9875041479581519
2013-08-14,1,0.0030995928957355838,0.0031912117350814517,-0.006194525737798509,0.01062304129165573,0.98802427725781
2013-08-16,0,0.0,0.0,-0.004515760165844313,0.01062304129165573,0.9896675661804487
2013-08-20,0,0.0,0.0,-0.004515760165844313,0.00965997039931348,0.9900943355209405
2013-08-22,0,0.0,0.0,-0.006194525737798509,0.008132419475409441,0.9909437378668858
2013-08-26,0,0.0,0.0,-0.0037023763830894263,0.008132419475409441,0.9910977878107479
2013-08-28,0,0.0,0.0,-0.0037023763830894263,0.00965997039931348,0.9913596429418199
2013-08-30,1,0.0002176117491889854,0.0005100754967258775,-0.00286085006016964,0.009898596036690771,0.9917543419486256
2013-09-04,1,0.0007927174418200437,0.000963734687022217,-0.00286085006016964,0.009898596036690771,0.9892237696808504
2013-09-06,1,0.00024060000270421955,0.0005193506865620991,-0.004629431565262637,0.009898596036690771,0.9892135912420736
2013-09-10,1,0.000696862072211946,0.001001559829366924,-0.008254015834450637,0.006849914186580501,0.9894068057352285
2013-09-12,1,0.0008431124969857057,0.0011122473804482864,-0.008254015834450637,0.007386795029289848,0.9875742933152604
2013-09-16,1,0.0010764354963052527,0.0012827966424012473,-0.008254015834450637,0.00760067489013823,0.9870923899968947
2013-09-18,1,0.0022259265603931876,0.0022708583719006615,-0.008987445359767008,0.00760067489013823,0.9858294174537653
2013-09-20,1,0.0025399789938286127,0.00269427474235055,-0.010683052130251934,0.010079143011969525,0.9839704012679212
2013-09-24,1,0.0021485648580604655,0.0022397161993737073,-0.010683052130251934,0.010079143011969525,0.984578881387056
2013-09-26,1,0.002450833118675686,0.0026217302462790814,-0.010683052130251934,0.00760067489013823,0.9846194240068813
2013-09-30,1,0.0023979153463246916,0.0025628643542689126,-0.010683052130251934,0.008268118459573582,0.9847640827564903
2013-10-02,1,0.0028249613059946914,0.0030174544927197584,-0.009580060706180959,0.004423379930827305,0.9875431528223522
2013-10-04,1,0.0025519921355535518,0.002716332547693222,-0.009938176625167475,0.004423379930827305,0.9871718810279507
2013-10-08,1,0.001297574380711177,0.0013179474936287888,-0.007299857012015033,0.006813923684381594,0.9889785167741847
2013-10-10,1,0.0024570014240567883,0.0026492325458934204,-0.009938176625167475,0.004408010528077873,0.9889257078576985
2013-10-14,1,0.0017778514450491347,0.0018435635950808022,-0.009938176625167475,0.004408010528077873,0.9890953454291741
2013-10-16,1,0.001471141898475933,0.0014776461590284469,-0.007299857012015033,0.004408010528077873,0.9888318695733466
2013-10-18,1,0.0019396377314184333,0.0019654371725542677,-0.004779616907326119,0.006381304235776234,0.9906218147556968
2013-10-22,1,0.001657007141878697,0.0016818383284959626,-0.007299857012015033,0.007192562027988568,0.9898491959302363
2013-10-24,1,0.0006674842559426296,0.0008451354828663824,-0.004779616907326119,0.008511029157151791,0.9895918340793588
2013-10-28,1,0.001033780701798567,0.0011647690133344646,-0.007710821949145297,0.007192562027988568,0.9892497928216744
2013-10-30,1,0.0013086282007122737,0.0013507948710299333,-0.005867885797502307,0.008511029157151791,0.9888402549563301
2013-11-01,1,0.00027761776382509266,0.00046051495427404626,-0.0040863230815442134,0.008511029157151791,0.9897337848564621
2013-11-05,0,-8.865736976579287e-05,0.00012252907919994436,-0.0044036999135247615,0.008511029157151791,0.9898040489203704
2013-11-07,-1,-0.0008806008861844121,-0.0006427697858341619,-0.0044036999135247615,0.00944553924605092,0.989002369566437
2013-11-11,-1,-0.0007896549308056623,-0.0005202407820825714,-0.0044036999135247615,0.008511029157151791,0.9893477365856426
2013-11-13,1,0.00022730261649880922,0.0003710705553226692,-0.0057622407358996815,0.006775311982132639,0.9903505465167523
2013-11-15,1,0.0007133825341254793,0.0007915389079834468,-0.008513137924149235,0.0058642478051472696,0.9890635585095112
2013-11-19,1,0.00015554928930561825,0.0003263126133522494,-0.009087499405378171,0.00615633613918748,0.9889417334128617
2013-11-21,1,0.0006287942088064321,0.0007390566860830212,-0.013948895610486128,0.005787361292924807,0.9888688275888488
2013-11-25,1,7.996398564924674e-05,0.0002477922185606406,-0.009087499405378171,0.008981789624806637,0.989042980837651
2013-11-27,1,0.0006446126735454949,0.0007457696783525417,-0.01231110853184242,0.005994767207968869,0.9889301138306738
2013-12-02,1,0.00018568073591273507,0.00037028490740837036,-0.01231110853184242,0.008981789624806637,0.9882439409937914
2013-12-04,-1,-0.0008614927875305309,-0.0005482328372482931,-0.01231110853184242,0.008981789624806637,0.988491880504603
2013-12-06,-1,-0.0003035567337569693,-2.9939488624553998e-05,-0.013754197829493515,0.008981789624806637,0.9894619241732523
2013-12-10,1,4.1712325451624265e-05,0.000269933130855214,-0.013754197829493515,0.009555653374181546,0.9888126032679788
2013-12-12,-1,-0.0007849797892652728,-0.0004561151863789008,-0.01231110853184242,0.010172346782649526,0.9886156008674495
2013-12-16,-1,-0.0007865380601858407,-0.00046707870620269246,-0.01231110853184242,0.009555653374181546,0.9862250074751037
2013-12-18,-1,-0.0013708007186073218,-0.0009740490789567925,-0.012792231816746326,0.008804102695002267,0.9850240615868402
2013-12-20,-1,-0.00208623211630817,-0.0016174898471283305,-0.012792231816746326,0.009639285993236416,0.9815032460044104
2013-12-24,1,0.00012417498068588846,0.00020821817282667181,-0.014816324148606123,0.0030420101066419413,0.980728876733148
2013-12-27,-1,-0.0011594783906151882,-0.000899225985261433,-0.014816324148606123,0.009639285993236416,0.9813111251964931
2013-12-31,-1,-0.0006606105135265558,-0.0005365944644256499,-0.014816324148606123,0.009639285993236416,0.9804182049254129
2014-01-03,-1,-0.0007072491868373488,-0.0005768796908936084,-0.015080476178589153,0.009639285993236416,0.980146818311239
2014-01-07,-1,-0.001370491968517706,-0.0011415410333302488,-0.011608784353202884,0.004638067418797387,0.9810073824924261
2014-01-09,-1,-0.0022493100434063614,-0.0018453599423012338,-0.011608784353202884,0.014684640151765512,0.9785096155511858
2014-01-13,-1,-0.0018200135914286184,-0.0014901727003028696,-0.015080476178589153,0.0071853134253699455,0.9780396437823635
2014-01-15,-1,-0.004705910269903272,-0.00408318559433417,-0.011608784353202884,0.018282268461040783,0.9807129606271273
2014-01-17,-1,-0.007074937228066907,-0.006158551110556036,-0.009508595233373145,0.018282268461040783,0.9812355377865907
2014-01-22,-1,-0.00926841854694617,-0.008078828997866286,-0.007075536913626169,0.012567809473774234,0.9842355155058492
2014-01-24,-1,-0.010003990311343722,-0.008715938103487468,-0.004413386352320054,0.014556741697179246,0.982601133688082
2014-01-28,-1,-0.008965960792857771,-0.007816564387080643,-0.007075536913626169,0.012642803021950297,0.9841934752188827
2014-01-30,-1,-0.005701390464656053,-0.004916448846289644,-0.009508595233373145,0.012642803021950297,0.9821185141258334
2014-02-03,-1,-0.005527471972274669,-0.00486909335865574,-0.004285040107010486,0.017473472946295875,0.9812026166405368
2014-02-05,-1,-0.005801091961630012,-0.005116176803404361,-0.0027384622045135967,0.017473472946295875,0.9800038970409769
2014-02-07,-1,-0.003421252365393367,-0.0030185639980024074,-0.005114539208159056,0.01005536911539739,0.9840586804815168
2014-02-11,-1,-0.0038601607006361876,-0.003431073921009465,-0.005114539208159056,0.01005536911539739,0.9848590506132338
2014-02-13,-1,-0.002511175437281375,-0.0022373271069698764,-0.0105213117256503,0.005204443943270182,0.9858559656557779
2014-02-18,-1,-0.0024198201682953378,-0.002143915534860859,-0.010597521913276143,0.002504938320391794,0.986020381747355
2014-02-20,-1,-0.002090790674266325,-0.0018626332182270513,-0.012248398424298073,0.0026157298412017005,0.9844427930705385
2014-02-24,-1,-0.0014688244454367032,-0.001326248477285903,-0.015904566001279964,-0.00018920478095947463,0.9842532869937343
2014-02-26,-1,-0.0012440145215372289,-0.001182870984990442,-0.017961293651817024,-0.0015751652067695506,0.9840382352738866
2014-02-28,-1,-0.0022579631571987106,-0.002063753684387162,-0.012903870577756415,0.0020824015548871772,0.9873643630547352
2014-03-04,-1,-0.0024456957100772335,-0.002161420522632791,-0.012903870577756415,0.010706326012312695,0.9862877059590294
2014-03-06,-1,-0.002743447988522127,-0.0024861530811802167,-0.010597521913276143,0.015342122256911273,0.9858428401615577
2014-03-10,-1,-0.002772798370864381,-0.002521429137618522,-0.012903601804553124,0.015342122256911273,0.9857510265736911
2014-03-12,-1,-0.002917653458272422,-0.0026601949625593333,-0.012252957101372378,0.01600151425699821,0.9849902934168684
2014-03-14,-1,-0.0031878318450465496,-0.002958650937931283,-0.012252957101372378,0.01600151425699821,0.9846785993366653
2014-03-18,-1,-0.0037781071468246416,-0.0034765452897965636,-0.01787017614204512,0.018861765010261173,0.9825828163754402
2014-03-20,-1,-0.0037212968831653675,-0.003413498959360876,-0.01787017614204512,0.018831406566571597,0.98237962157703
2014-03-24,-1,-0.0038163195760770193,-0.003534829726089029,-0.012390998904153634,0.018831406566571597,0.9824376952528746
2014-03-26,-1,-0.004296172575714534,-0.003948578813402023,-0.008918454208084296,0.018831406566571597,0.9823386400376828
2014-03-28,-1,-0.002775312874395438,-0.002589210193139807,-0.012390998904153634,0.018672726535109825,0.9828588103761001
2014-04-01,-1,-0.0012122425999456364,-0.0011906525915150298,-0.015381142043456721,0.016906724273540365,0.9805592146897804
2014-04-03,-1,-0.0007030793653117524,-0.00068706487916747,-0.015381142043456721,0.011605168660070263,0.9820721636727283
2014-04-07,-1,-0.0013738563969211738,-0.0013027389004024077,-0.01683567327230584,0.011605168660070263,0.9817722307905271
2014-04-09,0,-4.728730907960948e-05,0.00011060814011456946,-0.01683567327230584,0.01250381297372206,0.9821615526043672
2014-04-11,-1,-0.00018982956817904757,-3.1663727929311255e-05,-0.011561410462358599,0.019206920406957644,0.9826593149555046
2014-04-15,1,0.00012668339455802215,0.0003249025415262999,-0.011561410462358599,0.01250381297372206,0.9839780287852067
2014-04-17,1,0.0004443123581220045,0.0007300888981942028,-0.006587147819123652,0.0061897390572629805,0.9858614694787476
2014-04-22,0,-0.00010102866329432135,8.131998897145665e-05,-0.007583862198891347,0.0061897390572629805,0.9857558731227306
2014-04-24,1,0.0008024838735853137,0.0011534585778384316,-0.007583862198891347,0.004948873196705715,0.9858944303195979
2014-04-28,1,0.0008495304969390193,0.0012145150751187819,-0.005204011523479947,0.004948873196705715,0.9872721029540216
2014-04-30,1,0.0026475903973734605,0.003214861647280496,-0.0061552349500263335,0.0030722338582091753,0.9902663437339603
2014-05-02,1,0.0033911557105047703,0.0041357014455934375,-0.009302543927314508,0.003213435845653806,0.989179697233253
2014-05-06,1,0.0027278891187853694,0.003391722519031375,-0.0061552349500263335,0.004557427983511646,0.9907935336271809
2014-05-08,1,0.00306953981393392,0.0037511982922224874,-0.0061552349500263335,0.004557427983511646,0.9910326783050254
2014-05-12,1,0.003823896426802225,0.004620036641552277,-0.009302543927314508,0.002941752120477819,0.9899348720401224
2014-05-14,1,0.002956888322635038,0.003637867634123787,-0.011251766884272716,0.002941752120477819,0.9901526482745708
2014-05-16,1,0.0029236273468443985,0.003588854436379956,-0.012951688635270589,0.002941752120477819,0.9891001038188086
2014-05-20,1,0.0027506117714359976,0.0034243405825083,-0.012908583149035311,0.004557427983511646,0.9885087891217692
2014-05-22,1,0.0027992337177428443,0.003446859512822275,-0.012908583149035311,0.0037019939306131137,0.9878072564939899
2014-05-27,1,0.0036721364769927056,0.0044604090366936675,-0.012951688635270589,0.002742516170583722,0.9866165407660957
2014-05-29,1,0.002726115912222207,0.003354361606567595,-0.012950329919174481,0.0037019939306131137,0.9874033203250383
2014-06-02,1,0.002799777127622511,0.0034313264014142818,-0.012950329919174481,0.0037019939306131137,0.987815975430112
2014-06-04,1,0.002823847027036865,0.0034663935137267173,-0.012950329919174481,0.0048715044909042535,0.987134772212028
2014-06-06,1,0.0033928518206358307,0.004130897626794033,-0.012950329919174481,0.00571697695841095,0.986958661668355
2014-06-10,1,0.0010722012544842631,0.0013538299260150832,-0.012950329919174481,0.012350301835995676,0.987283408060213
2014-06-12,-1,-0.001284234779111671,-0.001132359244953389,-0.01190568213250094,0.012350301835995676,0.9878374555292759
2014-06-16,-1,-0.002438512279810232,-0.0021138153762159557,-0.00844359649188691,0.012350301835995676,0.9884229583441967
2014-06-18,-1,-0.0014424595036665318,-0.0011776109548803375,-0.012153488297809933,0.006751808911055282,0.9893607342387014
2014-06-20,-1,-0.0017122675728268432,-0.0014472582812895835,-0.011524456896496097,0.007165655423772241,0.9895079781484083
2014-06-24,-1,-0.0019535681837969544,-0.0017065456383587015,-0.008797365313998365,0.008663734348677905,0.989817281211414
2014-06-26,-1,-0.0019264663719021423,-0.001631909403534965,-0.011524456896496097,0.0059383414168225415,0.990390644870277
2014-06-30,-1,-0.0017670152972149506,-0.0014680158692197953,-0.011524456896496097,0.005205874402683198,0.9908714913519204
2014-07-02,-1,-0.0003956254571877149,-0.0003754614327492143,-0.009588997983468305,0.005205874402683198,0.9900221533678801
2014-07-07,-1,-0.0003563254644481916,-0.00029677369266218885,-0.013925087122110043,0.005205874402683198,0.9879564244028521
2014-07-09,1,0.00043608147632607223,0.0005503717204451807,-0.012261671965129372,0.004947432804968987,0.989238525933749
2014-07-11,1,9.386441102402415e-06,7.850952295344275e-05,-0.009043103670209458,0.005205874402683198,0.9889201640874309
2014-07-15,1,0.00010261921998674684,0.00019642119836318233,-0.010823700502160128,0.005205874402683198,0.9887341760690976
2014-07-17,-1,-0.0005612159197316306,-0.000531556573060189,-0.00602739744189391,0.0059383414168225415,0.9897028225144645
2014-07-21,-1,-0.0006782267077716597,-0.0006706558361917146,-0.00602739744189391,0.008251100359743224,0.9887227650404579
2014-07-23,-1,-0.0015184877639874046,-0.0013731024862578753,-0.0050640135013490985,0.008483423975028504,0.9890097282843832
2014-07-25,-1,-0.0015313005264238194,-0.0014276104446605902,-0.004549892765113315,0.008483423975028504,0.9892574490287654
2014-07-29,-1,-0.002111594311240164,-0.001881253809954915,-0.0050640135013490985,0.01350634092300025,0.9880566888405262
2014-07-31,-1,-0.0008365234734310093,-0.0007562610366996824,-0.005326239388322657,0.008483423975028504,0.9894839295053156
2014-08-04,-1,-0.0005488628502834825,-0.00048171226393565266,-0.0050640135013490985,0.01286291474517228,0.9901762152085848
2014-08-06,-1,-0.0019707603812405155,-0.0016699372896839555,-0.005029581979574935,0.01286291474517228,0.9904650101479122
2014-08-08,-1,-0.0017653519099673103,-0.0014485617606796227,-0.005215831242873023,0.008483423975028504,0.9914574523389783
2014-08-12,-1,-0.0021171166259563185,-0.001764072071362615,-0.005326239388322657,0.008483423975028504,0.9914412893172847
2014-08-14,-1,-0.002516100863080441,-0.002070694639058591,-0.005354767718223268,0.007865425922272821,0.9914362810907893
2014-08-18,-1,-0.0018539902376890518,-0.0014458678869639766,-0.005354767718223268,0.004417256202768076,0.992642259987886
2014-08-20,-1,-0.0007365650287397631,-0.0005455774960655782,-0.006647448217152203,0.0032402074191323327,0.9920847466894294
2014-08-22,1,0.0002846816931113019,0.00030703692202371265,-0.007226874509690515,0.0013449876175490132,0.9909262665978025
2014-08-26,1,0.0015942767444420503,0.001853625283736245,-0.008965402792095657,0.0013449876175490132,0.9909420122126289
2014-08-28,1,0.0009149311908189951,0.0010253867648437724,-0.009427282588005036,0.004305082901294172,0.9903219908929298
2014-09-02,1,0.0027623721020474507,0.0031619043287116518,-0.009427282588005036,0.0007248201870593703,0.9911416001375732
2014-09-04,1,0.0021935555982491046,0.0024828171092935035,-0.009427282588005036,0.0019326504237793245,0.9913228993003554
2014-09-08,1,0.0017236232791195136,0.0019500376573191203,-0.009990246145254914,0.004305082901294172,0.9912019251521226
2014-09-10,1,0.0010441544735913357,0.0011752832418105157,-0.010457563849435275,0.007731123409417835,0.9905505812181724
2014-09-12,1,0.0008626022140197553,0.0009528875628255597,-0.013963994721386049,0.004305082901294172,0.9895355830920349
2014-09-16,1,0.0010760653576857063,0.0012072384905264014,-0.014461752454402416,0.008233127794954909,0.9868932497242354
2014-09-18,1,0.0002318202742104576,0.00023892037846412204,-0.014461752454402416,0.010536317321588837,0.98705127450998
2014-09-22,1,0.0007435722960423171,0.0009772975004255992,-0.013963994721386049,0.010536317321588837,0.9878889141299941
2014-09-24,1,0.0006931116879221122,0.0009322492549092023,-0.011143314971915692,0.01154008059278908,0.9877826292988835
2014-09-26,1,0.0001547448885797624,0.0002636076870510553,-0.006448354379124425,0.011476305418926564,0.9882894409924887
2014-09-30,1,0.0006084770898362606,0.000821389518901767,-0.006448354379124425,0.012793113969075657,0.9874215947423647
2014-10-02,1,0.0016632178106876503,0.0020525004115714823,-0.011501212706029678,0.011476305418926564,0.986544004758429
2014-10-06,1,0.0009003809801911917,0.0011066887164363692,-0.00895180201858125,0.012819431219407807,0.9841389890368939
2014-10-08,1,0.000615180535408206,0.0007865096118935977,-0.00895180201858125,0.017191550124528936,0.983833545087048
2014-10-10,-1,-0.0009664117042883485,-0.0009045599405747506,-0.0044739566164604585,0.017191550124528936,0.9845912829470703
2014-10-14,-1,-0.00010422052829276403,-4.1481656621684574e-05,-0.003881311135127052,0.012819431219407807,0.987179094420665
2014-10-16,1,0.0007586639583063434,0.000975614243398089,-0.00411966105496487,0.009458891872682711,0.9880258336095933
2014-10-20,1,0.0004172246878925458,0.0005444174905777115,-0.005430218928781982,0.008662797251403866,0.9878242269496154
2014-10-22,1,0.0008157766787613159,0.0010001892608057508,-0.006322188475065831,0.00687814719913473,0.9883840029477169
2014-10-24,1,0.001335767308105599,0.0015817912525325933,-0.006322188475065831,0.006345040806494699,0.9888707208418209
2014-10-28,1,0.0022580005322295734,0.002646504052261145,-0.006931974437573697,0.006345040806494699,0.9891001216296204
2014-10-30,1,0.00066267195839906,0.0007690345567738286,-0.004360873607772941,0.006345040806494699,0.9902993839442427
2014-11-03,1,0.002057389007683947,0.002282761244585882,-0.006426978773994795,0.006223529141929255,0.9931798914438068
2014-11-05,1,0.001513099096758711,0.0016135783424620128,-0.006426978773994795,0.006223529141929255,0.9929520257999253
2014-11-07,1,0.0026170706258167656,0.0029637361115470943,-0.007506580294843334,0.004952390641565947,0.9925933897292106
2014-11-11,1,0.002088134799222722,0.0023226633055629326,-0.00837063629601178,0.006327106051572662,0.9912052696780019
2014-11-13,1,0.0014909895227510372,0.001594620466421769,-0.01018979099037546,0.006327106051572662,0.9896583330808921
2014-11-17,1,0.0014269042162963312,0.0015576954917761484,-0.01111726903608938,0.006327106051572662,0.9886061887254213
2014-11-19,1,0.0016155546508184785,0.0017947905974936883,-0.01111726903608938,0.0064996344732089605,0.9884378426879703
2014-11-21,1,0.0014571219426251568,0.001604934149712907,-0.01111726903608938,0.0064996344732089605,0.9884546367899849
2014-11-25,1,0.0016971286044875663,0.0019099196621599895,-0.01111726903608938,0.006932410264933668,0.9888160864279558
2014-11-28,1,0.0020077003543122183,0.0022650266223057853,-0.01111726903608938,0.007089838121719466,0.9888738101804302
2014-12-02,1,0.001324494994978515,0.0014468372827218803,-0.010946253264439374,0.007089838121719466,0.9891835677591947
2014-12-04,1,0.0013998178621929278,0.0015218983550283113,-0.011589737261578295,0.004622139151843735,0.9899968032332185
2014-12-08,1,0.0006523149328746447,0.0006911657653604523,-0.012128039121349316,0.004622139151843735,0.9894049384995266
2014-12-10,1,0.0003921502661374835,0.00046346531461112825,-0.011589737261578295,0.004622139151843735,0.9901877784955568
2014-12-12,-1,-0.0009937435474434739,-0.0007582084048514885,-0.011113355334675286,0.004622139151843735,0.990734166478431
2014-12-16,-1,-0.0025702981823101318,-0.002118653727230634,-0.012128039121349316,0.004622139151843735,0.9897680346533205
2014-12-18,-1,-0.0017391289777201652,-0.0013874278036123846,-0.012128039121349316,0.004546037441935676,0.9901473432830823
2014-12-22,-1,-0.0009151710471297906,-0.0007128743022584255,-0.012128039121349316,0.009421723796323767,0.9881446717546888
2014-12-24,-1,-0.0004013341792639656,-0.0002822230372448583,-0.012128039121349316,0.010738160310141317,0.9878479716866945
2014-12-29,-1,-0.0005648462281770205,-0.0003881003063287339,-0.015861029930004305,0.010738160310141317,0.9860246275356642
2014-12-31,-1,-0.00035608628211177793,-0.00023925317102690388,-0.015861029930004305,0.010878539507517253,0.9849522636820676
2015-01-05,-1,-0.0015210295475163648,-0.0012408282332412503,-0.015861029930004305,0.013908695477559137,0.9841175428138902
2015-01-07,-1,-0.001317551990992456,-0.0010800044886740696,-0.015388924813779686,0.011800761696326184,0.9850110661749528
2015-01-09,-1,-0.0007181027079319296,-0.0006045283144243778,-0.015388924813779686,0.013303749377797727,0.9851629000255744
2015-01-13,-1,-0.001581500435644573,-0.001367855530556933,-0.011357246272948894,0.013303749377797727,0.9853677110634594
2015-01-15,-1,-0.003478751974717308,-0.0030366581755485716,-0.0026568560855839795,0.013303749377797727,0.9866503851035302
2015-01-20,-1,-0.002410651948267211,-0.0021300699247139426,-0.006749787468407194,0.011620386164366198,0.9873202520616794
2015-01-22,-1,-0.0006010113689052059,-0.0005287394663918994,-0.006749787468407194,0.010871345848113162,0.9899486560984792
2015-01-26,1,0.0005337040916092796,0.0006840720082243229,-0.006749787468407194,0.008485778081321591,0.9905173754073704
2015-01-28,-1,-0.0011589012595618357,-0.001067700748325382,-0.00547544171410066,0.010871345848113162,0.9867193007721016
2015-01-30,-1,-0.0008458957418236099,-0.0007645768837267476,-0.00547544171410066,0.010095673798277381,0.9872093790182763
2015-02-03,-1,-8.89320686280828e-05,-8.518787169773406e-05,-0.006749787468407194,0.005252688830646849,0.9873608239146864
2015-02-05,-1,-0.00038052932048587807,-0.00033822320431198526,-0.006749787468407194,0.00567402294189745,0.9870927111507274
2015-02-09,-1,-5.253582864743192e-05,-4.7035864392543274e-05,-0.006832325978215949,0.0053189275750272925,0.9872015855787559
2015-02-11,-1,-0.000309270436876391,-0.00026167716696335084,-0.006589682110141603,0.006649666034537578,0.98674765373724
2015-02-13,-1,-0.0004139056595316472,-0.0003380989052181811,-0.006589682110141603,0.008227220731376331,0.9863197090353563
2015-02-18,-1,-0.00042142342091932477,-0.00034795672440555536,-0.007021929361224901,0.00716193463076586,0.9862798731934999
2015-02-20,-1,-0.0002726912823016593,-0.00021482677759761072,-0.007021929361224901,0.008631703082283795,0.9859800059750196
2015-02-24,-1,-0.00037007421412941577,-0.00029416812020413444,-0.007021929361224901,0.008631703082283795,0.9860051190804073
2015-02-26,-1,-0.0012697929989901164,-0.0011117464622563634,-0.007021929361224901,0.008631703082283795,0.9897632742973289
2015-03-02,-1,-0.0024259243603893046,-0.002120413252647487,-0.005677075376961564,0.009527772784406347,0.9888396479734654
2015-03-04,-1,-0.0030478091543907695,-0.002672007847979723,-0.00557396398914129,0.011912155954004862,0.9893788649652406
2015-03-06,-1,-0.0034901026153713547,-0.0030240900450254384,-0.004713354266913507,0.011912155954004862,0.9890622605932846
2015-03-10,-1,-0.0031037314372637835,-0.002714947959440707,-0.004713354266913507,0.011912155954004862,0.9888795629415807
2015-03-12,-1,-0.0022314331999537663,-0.00196337597222791,-0.004804572319810218,0.010643279597597867,0.990251134901888
2015-03-16,-1,-0.002234191156327239,-0.0019534300725343955,-0.00557396398914129,0.00930004767613977,0.9904653560031023
2015-03-18,-1,-0.002501009838859321,-0.002193556556360294,-0.004804572319810218,0.00930004767613977,0.9905892011043954
2015-03-20,-1,-0.002028681489904443,-0.0017981353573286584,-0.00557396398914129,0.01059280621111389,0.989868137601777
2015-03-24,-1,-0.0019590199771674,-0.0017580782263155298,-0.005033176012986209,0.01059280621111389,0.989910571952607
2015-03-26,-1,-0.0017693903774001472,-0.0015707261982239062,-0.003209255817492143,0.00930004767613977,0.9918121244852515
2015-03-30,-1,-0.000814545563284691,-0.00076885301324312,-0.006435646606332778,0.004418719885021811,0.9928530661317866
2015-04-01,-1,-0.0005987286171259174,-0.0005848358273736106,-0.005209047550649723,0.007813970097809968,0.9902132769846855
2015-04-06,0,-4.793027050906386e-05,1.678168310456136e-05,-0.005209047550649723,0.0051460636883787275,0.9898234198364815
2015-04-08,0,-5.3878061856688515e-05,3.3894309252357796e-06,-0.005084614287747952,0.002649873352551486,0.9901675171757403
2015-04-10,-1,-0.00027084425979680366,-0.0002450336435304069,-0.0048736821377382,0.003333286960213438,0.9900202018275005
2015-04-14,-1,-0.00045895750444967557,-0.0004566727894635794,-0.00433953385008749,0.004369955369449539,0.9901191393801871
2015-04-16,-1,-0.00028866033465838406,-0.0002622967361665162,-0.00433953385008749,0.004173824581118246,0.9902305168842666
2015-04-20,-1,-0.00031383809512233035,-0.00029361079767224177,-0.0019673083594853704,0.007325395923861278,0.9904300527636744
2015-04-22,-1,-0.00016447384474190695,-0.00011982181771150519,-0.001892506992180079,0.007325395923861278,0.9901819578158549
2015-04-24,0,-6.409663855453114e-05,5.585057963399822e-06,-0.001892506992180079,0.007325395923861278,0.9902498749098327
2015-04-28,-1,-0.00035345718826998565,-0.00032739488038846873,0.0005141381532154707,0.008969159626185096,0.989574487664572
2015-04-30,1,0.0010351336139974433,0.0012485579812523797,-0.0023839950627535674,0.006193440977185594,0.9936734730334645
2015-05-04,1,0.0010510232884828486,0.0012679992290335492,-0.0023839950627535674,0.006193440977185594,0.9946026067333443
2015-05-06,1,0.0009365013507392319,0.001132804856179902,-0.001241053279104849,0.0072687791989896715,0.9941583517795748
2015-05-08,1,0.0006681846792844556,0.0008041367461951562,-0.001241053279104849,0.008457028824338403,0.9927705580389644
2015-05-12,1,0.0006346936730549634,0.0007441613930798546,-0.001241053279104849,0.008457028824338403,0.9927642403418208
2015-05-14,1,0.0006834216365115548,0.000815062867378336,-0.0009430042457761898,0.008457028824338403,0.992758115551375
2015-05-18,1,0.0010343785199537422,0.0012153572755020715,-0.0022347691451684816,0.005868618877784786,0.9935789166239231
2015-05-20,1,0.0011371010612665849,0.0013351506163620697,-0.0022347691451684816,0.006337546119787348,0.9935677704570047
2015-05-22,1,0.001105332887837459,0.0013063970406878718,-0.0022347691451684816,0.006337546119787348,0.9933669326765345
2015-05-27,1,0.0013208388370473138,0.001545474883337272,-0.0009430042457761898,0.006337546119787348,0.9946189277729527
2015-05-29,1,0.0008712845755297041,0.0010292430467670807,0.0,0.008396274807162265,0.9939230263979006
2015-06-02,1,0.0010401081130120278,0.0012224580444662836,-0.00016995630278553514,0.007976054572584145,0.9933880318415821
2015-06-04,1,0.00099228740196451,0.0011643501500796622,-0.00016995630278553514,0.007976054572584145,0.9935284928400948
2015-06-08,1,0.0007468183394204464,0.0008763825467048322,-0.00016995630278553514,0.007976054572584145,0.9942185885193968
2015-06-10,1,0.00048660867006090056,0.0005528740660581206,-0.004121444941436673,0.007976054572584145,0.993583717264376
2015-06-12,1,0.0005741587088339652,0.0006608343824549342,-0.004121444941436673,0.008793667871214692,0.9928066734586318
2015-06-16,1,0.0007175527107366656,0.0008526325041643896,-0.0013153555427074866,0.008793667871214692,0.9927310190644203
2015-06-18,1,0.000814635252757525,0.0009628350761153924,-0.0025184170667249344,0.008793667871214692,0.9929130247183752
2015-06-22,1,0.0005410158870481306,0.0006328165631930605,-0.0025184170667249344,0.008793667871214692,0.9927737982992634
2015-06-24,1,0.0004993816084484422,0.0005843053732852838,-0.0025184170667249344,0.008730873764303733,0.9928118163209995
2015-06-26,1,0.0010575832758946608,0.001232362868879931,-0.0056785074205310355,0.005584391039567191,0.9929372872237008
2015-06-30,1,0.0008233866003045697,0.0009566189331794411,-0.005321471793111542,0.007127465872269755,0.9929736334268486
2015-07-02,1,0.0008812979518356637,0.0010273126131466995,-0.0025184170667249344,0.005584391039567191,0.9936275799495251
2015-07-07,1,0.001069632981008387,0.0012396296761602449,-0.001997709307164177,0.005584391039567191,0.9937670111769582
2015-07-09,1,0.0007981272203068,0.0009348467147179483,-0.0016006640790970123,0.005584391039567191,0.9941966804562457
2015-07-13,1,0.0010172810408394005,0.0011804646083713997,-0.0018381831839692257,0.004717277064800025,0.9947597781018761
2015-07-15,1,0.0010851481587750983,0.0012627626503713993,-0.00375934851442927,0.004512983921628198,0.9941649904688912
2015-07-17,1,0.0010625912375941448,0.0012374579401086406,-0.00375934851442927,0.005748914958948864,0.9938900615427405
2015-07-21,1,0.002060366909695845,0.0022150378284903913,-0.0056274688955215875,0.005748914958948864,0.9933519996446846
2015-07-23,1,0.0018420041115641914,0.0019437305046701256,-0.007772431179183331,0.004772118371260583,0.9923082081373995
2015-07-27,1,0.0012947490964419271,0.0013385930325563794,-0.008844441540200778,0.004772118371260583,0.9906680357407907
2015-07-29,1,0.0011126194956088188,0.0012027396679214829,-0.008844441540200778,0.004226934017812187,0.9902624968295968
2015-07-31,1,0.0009227194864857245,0.001042660591972072,-0.008844441540200778,0.0058963140752443695,0.98923346381926
2015-08-04,1,0.0013819227272212284,0.0014163681871190938,-0.010992731754950753,0.0033652784823063886,0.988809421283771
2015-08-06,1,0.0010452082195629053,0.0011063819341148077,-0.010992731754950753,0.007500870944719924,0.9879665161103726
2015-08-10,1,0.0006445202078754467,0.0007693458450657063,-0.012058530476465084,0.00810203398879013,0.9865052268436255
2015-08-12,1,4.263652899903325e-05,0.00023729414260088247,-0.012058530476465084,0.00810203398879013,0.9868849513568964
2015-08-14,1,2.5064504112820595e-05,0.00024093749473735263,-0.012058530476465084,0.0045543814436168825,0.9873928247975924
2015-08-18,-1,-0.0005029124532869628,-0.00022658050944751303,-0.012058530476465084,0.006255362887647653,0.9874157112254512
2015-08-20,-1,-0.0007513782031345394,-0.0004943477253635864,-0.010405061623421601,0.006255362887647653,0.9874135471218215
2015-08-24,-1,-0.001834265546923724,-0.0014808993692814396,-0.0074575999494588775,0.011404173884525904,0.9876019039319703
2015-08-26,-1,-0.0014156257030918207,-0.0011254595918079725,-0.011070653096542316,0.006255362887647653,0.988126338600995
2015-08-28,-1,-0.0006845410129774187,-0.0005207137167659172,-0.013298418699564,0.004851926124643056,0.988234084747466
2015-09-01,-1,-0.001283559330626001,-0.0010295630344980605,-0.011424869645187668,0.006255362887647653,0.9879706737118792
2015-09-03,-1,-0.000990273797815354,-0.0007565083989359827,-0.011424869645187668,0.004851926124643056,0.9890302573655622
2015-09-08,-1,-0.000685643336646973,-0.00048547248915651947,-0.01096919789694907,0.004851926124643056,0.9900267439227153
2015-09-10,-1,-0.0011513390227002116,-0.000889462030655551,-0.01096919789694907,0.004851926124643056,0.9903012877764593
2015-09-14,-1,-0.001187342029046229,-0.0009217611850012544,-0.011348219632031413,0.004851926124643056,0.9898192028121593
2015-09-16,-1,-0.000953031996384762,-0.0007069496579759886,-0.011499285204498638,0.002266078130387846,0.9892794271927682
2015-09-18,-1,-0.0020777406285702547,-0.0016778246202394107,-0.011348219632031413,0.0036979349240639234,0.9897896171086602
2015-09-22,-1,-0.0009325004066089907,-0.0007455793584952753,-0.01096919789694907,0.003554501378293381,0.9912155456091939
2015-09-24,-1,-0.0012938636769947488,-0.0010701405928065066,-0.008729367002476576,0.005898823898400893,0.9911091689841096
2015-09-28,-1,-0.002234641585100145,-0.0018946120813670049,-0.008032848965950712,0.007191111497584234,0.9916927424814268
2015-09-30,-1,-0.0019489987965408354,-0.0016378553688977497,-0.008032848965950712,0.007191111497584234,0.9901234738835826
2015-10-02,-1,-0.0016101343489888737,-0.00135105677757262,-0.008729367002476576,0.009679379487907595,0.9893674877921533
2015-10-06,-1,-0.0018882240116750721,-0.0015803391402731078,-0.008729367002476576,0.008719152986489037,0.9897102337678381
2015-10-08,-1,-0.001509698124482467,-0.0012786035953172398,-0.008729367002476576,0.008719152986489037,0.9895927466098571
2015-10-12,-1,-0.0018315081108909905,-0.0015716498672003808,-0.008032848965950712,0.008719152986489037,0.9899316384382584
2015-10-14,-1,-0.002448408786421657,-0.0021105311705418425,-0.0045953365342295705,0.0095683285085376,0.9899283120128601
2015-10-16,-1,-0.0022096225986293315,-0.0019178301754708663,-0.0069090586353296474,0.008719152986489037,0.9888743106515624
2015-10-20,-1,-0.0025631022585742864,-0.0022025758609524352,-0.0069090586353296474,0.0095683285085376,0.9878401718280135
2015-10-22,-1,-0.001982145511970325,-0.0017063582856877194,-0.0031696206777725574,0.008719152986489037,0.9890818934685858
2015-10-26,-1,-0.0015860627678498654,-0.001360547652274965,-0.0031696206777725574,0.007690784071970229,0.9894725372750802
2015-10-28,-1,-0.00023842878215043215,-0.00016819902139126697,-0.0012636020150946581,0.004666141631619443,0.9926937565913543
2015-10-30,1,0.000303834955560619,0.00031108429497726396,-0.0012636020150946581,0.004666141631619443,0.9926501913206796
2015-11-03,-1,-0.0003719522434805537,-0.0003017889359794138,-0.0031696206777725574,0.004586410973954745,0.991721781587635
2015-11-05,-1,-0.00020809145306586202,-0.0001502901629315246,-0.009404612711467177,0.007200822331153257,0.9903268893986404
2015-11-09,1,6.947858205994571e-05,8.15126027366079e-05,-0.009404612711467177,0.007553933283991773,0.9898378257365127
2015-11-11,-1,-2.7826299573041898e-05,-1.4744116557201594e-05,-0.018212614821487248,0.007200822331153257,0.9894376793071102
2015-11-13,-1,-0.0011384509277442998,-0.0010032841349040017,-0.00597515706287125,0.007553933283991773,0.9901242155075489
2015-11-17,1,7.657971781609746e-05,0.00013103403715335565,-0.00597515706287125,0.007200822331153257,0.9910805660183734
2015-11-19,-1,-0.00024997573070877576,-0.0002313418066898622,-0.01823337229479152,0.007200822331153257,0.9887257598613892
2015-11-23,1,0.0002456415771395469,0.00029821740434661146,-0.01823337229479152,0.007314741310997679,0.9865500607869115
2015-11-25,1,0.00023007973456431912,0.0003061365537808903,-0.01823337229479152,0.008525929827910894,0.985566977082619
2015-11-30,-1,-0.0004224600554323698,-0.00037465874185957913,-0.017821221866763257,0.008675866637214553,0.9859409321510558
2015-12-02,-1,-0.00034014205550600657,-0.0003367902853141656,-0.011193531858311716,0.008675866637214553,0.9866827333764262
2015-12-04,0,-2.2372323802150994e-06,6.092613987625047e-05,-0.011193531858311716,0.007060411988529441,0.9867842285870835
2015-12-08,1,0.0003717860986367732,0.0004867603129681881,-0.011193531858311716,0.006688452520315705,0.98658376341279
2015-12-10,-1,-0.0002875045449344265,-0.00025321036637401166,-0.014963019080771259,0.006688452520315705,0.9852437785270317
2015-12-14,-1,-0.00027293805886560013,-0.0002213383971876455,-0.016586355733080187,0.006688452520315705,0.9831808086498486
2015-12-16,-1,-0.00016172875660000892,-0.0001238604578312605,-0.016586355733080187,0.007798806309694051,0.9825389074939453
2015-12-18,-1,-0.001379217861532331,-0.0013116738011435141,-0.008603668597184425,0.010999868671488212,0.9839492130365138
2015-12-22,1,0.0011163342407134072,0.001380948184011339,-0.008603668597184425,0.010999868671488212,0.9854259373776737
2015-12-24,1,0.0012516696915569876,0.0015459472512377949,-0.010247519769791612,0.010999868671488212,0.9837756495336758
2015-12-29,1,0.001734220618034309,0.002077400332118939,-0.016485144896348898,0.011100616696764517,0.9827153453697701
2015-12-31,1,0.001360145558397472,0.0016647438195263704,-0.016485144896348898,0.011998998368497646,0.981748101481046
2016-01-05,1,0.00023428341301365508,0.0003601937179393431,-0.015633452599866465,0.011998998368497646,0.9820450882788921
2016-01-07,1,0.0003041874204514112,0.00046946302718760063,-0.021334481719194835,0.011998998368497646,0.9803406205896503
2016-01-11,-1,-0.001641123224795214,-0.0015455053601517931,-0.021334481719194835,0.011998998368497646,0.9810318183496659
2016-01-13,-1,-0.003582239537484215,-0.0032268292713981944,-0.014042165790305133,0.012941201566344672,0.9837203039123013
2016-01-15,-1,-0.003698024082686451,-0.0032562890800422696,-0.014042165790305133,0.01493285128171016,0.9824010878192814
2016-01-20,-1,-0.0033434814761313172,-0.0029514382082740332,-0.014042165790305133,0.01493285128171016,0.9825693954818682
2016-01-22,-1,-0.0017986524922902825,-0.0016390006214971732,-0.014042165790305133,0.01431493401989671,0.9826269707214982
2016-01-26,-1,-0.0019939693117878247,-0.001787369158734329,-0.011810751894636849,0.01379186678697895,0.9845797823921913
2016-01-28,-1,-0.0014164946061830342,-0.0013225977267371856,-0.009537146893741511,0.014545295473509766,0.9819336841119796
2016-02-01,-1,-0.00019918662734090832,-0.00011931585339538492,-0.011810751894636849,0.014545295473509766,0.9810283708802272
2016-02-03,-1,-0.0010938985268950383,-0.0010497109135261347,-0.009537146893741511,0.014965752174328155,0.9808171239887854
2016-02-05,-1,-0.0029171589849797275,-0.0026658837994939276,-0.006170305585702697,0.016924349031961432,0.9809772139284815
2016-02-09,-1,-0.003887350705282998,-0.0035523625961692996,-0.0015078146678689204,0.016924349031961432,0.9819383299371346
2016-02-11,-1,-0.003787428251538224,-0.0034243002163054847,2.4307557660484735e-07,0.021138835866345237,0.9814407572387984
2016-02-16,-1,-0.0017852518013189394,-0.001664825730491023,-0.004503084239897216,0.014965752174328155,0.9843058197249545
2016-02-18,-1,-0.001905127317867619,-0.0017364472083211374,-0.0029363438617002226,0.014965752174328155,0.9841861420291497
2016-02-22,-1,-0.0024509616179345817,-0.002160835326306981,-0.0017084879925826219,0.014965752174328155,0.9850091500622524
2016-02-24,-1,-0.0018104281398438307,-0.001612567310528552,-0.0024270713588204437,0.014965752174328155,0.9851418625648648
2016-02-26,1,0.0010386282522276034,0.0012120987577023362,-0.003203628073486742,0.014921767600013021,0.9890388138382
2016-03-01,1,0.001638305250721146,0.0019031656623355712,-0.0022025312683424513,0.013918786988994878,0.9911065683246029
2016-03-03,1,0.0024905259722389,0.002863824799503441,-0.0022025312683424513,0.011284677874023728,0.9911021912610457
2016-03-07,1,0.0032221598162710096,0.003656439802692357,-0.003203628073486742,0.007770930915882868,0.991099429435603
2016-03-09,1,0.00244483927152332,0.002726573940815713,-0.005041300320190626,0.007770930915882868,0.9907498361266254
2016-03-11,1,0.00327166185194113,0.00365956233639506,-0.008612471962456958,0.007554157758503885,0.9908706184787239
2016-03-15,1,0.0025719792664442584,0.002867892657567879,-0.003203628073486742,0.009729305231497839,0.9895591776943514
2016-03-17,1,0.0030556680492339187,0.0034351774935756016,-0.003886859941881777,0.008823676032477558,0.9897437073623894
2016-03-21,1,0.0031879887844914944,0.003610319262685358,-0.0032132396704478,0.008823676032477558,0.9900417891390928
2016-03-23,1,0.0030162671900742354,0.003504146742452744,-0.0016389802618545593,0.008823676032477558,0.9910523501717061
2016-03-28,1,0.0037419283171335567,0.004351087992626473,-0.004289721286810964,0.007554157758503885,0.991270627003864
2016-03-30,1,0.0037340047035590847,0.004303355127984635,-0.004289721286810964,0.007554157758503885,0.9904671670250975
2016-04-01,1,0.00491266742516369,0.005652046877148971,-0.0077287090149945874,0.006044153463878558,0.9878367491202998
2016-04-05,1,0.0041101720963358564,0.004750069603663124,-0.0059239656962099185,0.006790880647054404,0.9890156438003475
2016-04-07,1,0.00399211874448582,0.004602195026782005,-0.004289721286810964,0.006790880647054404,0.9889996217240676
2016-04-11,1,0.0029469932473664886,0.0033278714396380066,-0.003290849045884414,0.006044153463878558,0.9898129065554331
2016-04-13,1,0.005483610185459292,0.006247676554827579,-0.004289721286810964,0.005441699765174422,0.9902200576891305
2016-04-15,1,0.004970073039909581,0.005659166700110612,-0.0059239656962099185,0.006044153463878558,0.9893774286660831
2016-04-19,1,0.005223362146248035,0.005969822450177482,-0.008852923023007995,0.0076290305979281525,0.9882325735046716
2016-04-21,1,0.005038994974224527,0.0057386116852394305,-0.013823473998598013,0.0076290305979281525,0.9869754404089487
2016-04-25,1,0.004382089194672182,0.004974787564897384,-0.013823473998598013,0.012143000515883852,0.9874632645728402
2016-04-27,1,0.005116456050099048,0.005773806621125428,-0.013823473998598013,0.012143000515883852,0.9873313945499952
2016-04-29,1,0.0031692738470349975,0.003575254492502419,-0.005803405980782773,0.012718247331830204,0.9900954454416103
2016-05-03,1,0.0036322143856814476,0.004116551392523686,-0.007300931074386573,0.012143000515883852,0.9895254647961339
2016-05-05,1,0.002698143724634083,0.0030054111147070264,-0.007300931074386573,0.01235052728522202,0.9893072943783033
2016-05-09,1,0.0028109270653455948,0.0031162321387723816,-0.011875685227555931,0.012820706253121955,0.9879571049649045
2016-05-11,1,0.002728389662425963,0.0030401919135097715,-0.007300931074386573,0.012820706253121955,0.9888052402132117
2016-05-13,1,0.0014177727398496866,0.0014534590382954717,-0.007300931074386573,0.01235052728522202,0.9889118922840017
2016-05-17,1,0.002497623878471956,0.002812907870152195,-0.005803405980782773,0.011522970710240433,0.9897075213563562
2016-05-19,1,0.0016473932797153171,0.0018394679978507129,-0.00392045937426938,0.011522970710240433,0.9910619768260295
2016-05-23,1,0.002479129019997603,0.0028138262524408384,-0.003945192994841182,0.01029327968096077,0.9911986063073822
2016-05-25,1,0.0030880985178751126,0.0034686470096497437,-0.003945192994841182,0.009626881055917419,0.9912930226568828
2016-05-27,1,0.0023434410648079424,0.002576192062427172,-0.006499172165576753,0.006009600058781126,0.9860384492122457
2016-06-01,1,0.0016277688068501287,0.0017515022792734996,-0.003945192994841182,0.010531024456784334,0.9842643903230072
2016-06-03,1,0.0008809380864838824,0.000945510830323787,-0.003170444764368602,0.011685503084714619,0.9838912998795337
2016-06-07,0,-4.143673225403784e-05,0.0001978853986361567,-0.003170444764368602,0.010263044785960136,0.9842072209064662
2016-06-09,1,0.0002728828385528216,0.0004262555564371282,-0.0030064488856914144,0.011685503084714619,0.982613571639626
2016-06-13,-1,-0.0006343195637191764,-0.0003717824841395678,-0.0013788420877964215,0.014318838465950636,0.9825289426764265
2016-06-15,-1,-0.0002003401673160393,-8.520154122233239e-06,-0.004458438815853993,0.014318838465950636,0.9824822636505544
2016-06-17,-1,-0.00021694337991804476,-2.277244406439019e-05,-0.00863218657216214,0.014318838465950636,0.9816604505989429
2016-06-21,-1,-0.0005964286494481833,-0.00032804097163029297,-0.00863218657216214,0.014318838465950636,0.9815251690756335
2016-06-23,1,0.0006875757264753126,0.0007681102152429318,-0.00863218657216214,0.011685503084714619,0.9822382594925416
2016-06-27,-1,-0.0034984063332980037,-0.0028960403017606814,-0.0049360130086672956,0.011685503084714619,0.9864295446017434
2016-06-29,-1,-0.002429544060171747,-0.0018745092374104536,-0.007245200370933945,0.010953475568378742,0.9888495506924951
2016-07-01,-1,-0.0029596538417422224,-0.0022685638327796433,-0.007245200370933945,0.009377850517865513,0.9887236289086865
2016-07-06,-1,-0.003368195942532511,-0.0026474067977394506,-0.0049360130086672956,0.01055503151178643,0.9888332661700014
2016-07-08,-1,-0.00110918710875381,-0.000720367687766523,-0.00580990122543594,0.01055503151178643,0.9906514252051283
2016-07-12,-1,-0.0018214553749475702,-0.0013394866526294199,-0.006232358932329774,0.009257619306124372,0.991263710992721
2016-07-14,-1,-0.0018114910290899246,-0.0013317674225356649,-0.0063701048053594975,0.009257619306124372,0.9912531432075332
2016-07-18,-1,-0.002556489845874494,-0.0019853054659515253,-0.004576554642656591,0.01055503151178643,0.990823364402867
2016-07-20,-1,-0.0010949510970401665,-0.0007866831512819468,-0.005181570678338809,0.009257619306124372,0.991404840783346
2016-07-22,-1,-0.000593294076490987,-0.0003621772729861298,-0.005181570678338809,0.008515019173164926,0.9918018192310094
2016-07-26,1,0.00017449188519165645,0.000278570230757783,-0.005181570678338809,0.007402168225349292,0.9923063493732084
2016-07-28,1,0.0008257846358615288,0.0008459100280320628,-0.002744805376477476,0.006633440812021173,0.9933960116966687
2016-08-01,1,0.0008290168852998813,0.0008309962671506438,-0.0048285216673722275,0.006633440812021173,0.9939288550985109
2016-08-03,1,0.0015363344068429136,0.0016732663618474173,-0.0048285216673722275,0.006633440812021173,0.9939517157600611
2016-08-05,1,0.0014235626974473993,0.0015022424193908213,-0.0048285216673722275,0.006485886357408941,0.9938866360319009
2016-08-09,1,0.0010183795265575146,0.0010588125731520312,-0.0024378647571566504,0.006633440812021173,0.9941554663392748
2016-08-11,1,0.0008815663420226161,0.0008977679549445969,-0.004083316443146044,0.006485886357408941,0.9929344130423906
2016-08-15,1,0.0009893552655393931,0.0010049790626440107,-0.0048285216673722275,0.006485886357408941,0.9929152999311724
2016-08-17,1,0.0011154679694679623,0.001135606588786757,-0.004083316443146044,0.006957526330446547,0.9929022635363954
2016-08-19,1,0.0014304290667862946,0.0015144629791134876,-0.005166627413314618,0.006957526330446547,0.9926940676976279
2016-08-23,1,0.0018642854461507479,0.0020589494325216236,-0.0065973189586242985,0.006957526330446547,0.9925487041785728
2016-08-25,1,0.001441919009346569,0.0015389179702067707,-0.0065973189586242985,0.007015470997167794,0.9920479365434591
2016-08-29,1,0.001412128031066234,0.0014980741672521577,-0.007608225961534497,0.006957526330446547,0.9919945010140786
2016-08-31,1,0.0013154411103758745,0.0013794064356399335,-0.008228237000578656,0.006597244092289288,0.9919639342281716
2016-09-02,1,0.001876318538615903,0.0021145872439274757,-0.007262837375606555,0.006428421715513116,0.9925040885900379
2016-09-07,1,0.0020383942475816247,0.002286859178103644,-0.009610865583801533,0.004944799585242465,0.9904460910079067
2016-09-09,1,0.0011056161313924898,0.0012352908638515782,-0.008228237000578656,0.004944799585242465,0.9916600084447331
2016-09-13,1,0.0014675475844806844,0.0016499805540197855,-0.009610865583801533,0.004944799585242465,0.9915650203868654
2016-09-15,1,0.0015432291113862203,0.001712825881782926,-0.010543131086073108,0.0034658161892217507,0.9912856170107222
2016-09-19,1,0.0018529350783489402,0.002115632643278427,-0.010543131086073108,0.0037841820108096284,0.9913370093950498
2016-09-21,1,0.0007533569873183957,0.0007742376330026187,-0.010543131086073108,0.003783519859729757,0.9918560401953564
2016-09-23,1,0.0010274444516278985,0.0011025518491969697,-0.010543131086073108,0.003108904428968162,0.9921239882003463
2016-09-27,1,0.0006484510192469628,0.0006568034126083933,-0.008538992168002515,0.0036988951380920684,0.992503316915599
2016-09-29,1,0.0005369010786979428,0.000545503433252616,-0.010706246225791877,0.005553491987101476,0.9905159643047083
2016-10-03,1,0.00023163163675476295,0.00025759242963594884,-0.010706246225791877,0.005553491987101476,0.9905759431802874
2016-10-05,-1,-0.0009146518411948587,-0.0007456296958794019,-0.006388979097032292,0.005553491987101476,0.9922645886585628
2016-10-07,-1,-0.0011932572740890358,-0.0009905478866768047,-0.006388979097032292,0.005849312601457057,0.9915573508230333
2016-10-11,-1,-0.0016008947484530702,-0.00132623435118528,-0.004059930206049705,0.005849312601457057,0.9917538677253152
2016-10-13,-1,-0.0014870433342217765,-0.0012468410957956397,-0.004059930206049705,0.005553491987101476,0.991991462179333
2016-10-17,-1,-0.0008925243050987278,-0.0007579664364719665,-0.003830901895843525,0.007008152822426136,0.9913730483523849
2016-10-19,-1,-0.000869750238510062,-0.0007418683146031814,-0.003830901895843525,0.008953842283394145,0.9906719107522711
2016-10-21,-1,-0.0012819334873898946,-0.0010801205431573647,-0.007542636011477701,0.008953842283394145,0.9897610229089577
2016-10-25,-1,-0.0011415276264629994,-0.0009690154069980024,-0.007542636011477701,0.010042049553199654,0.9885890639306881
2016-10-27,-1,-0.0009526262228114668,-0.0008089276494890634,-0.005702039947766991,0.010042049553199654,0.9907625564261724
2016-10-31,-1,-0.0016523176691542424,-0.0014197455861286192,-0.007095500724906111,0.010042049553199654,0.9909339962573489
2016-11-02,-1,-0.0025059704911203004,-0.0021395929488931932,-0.006969382036554105,0.010042049553199654,0.9909518118802519
2016-11-04,-1,-0.0026540307363017426,-0.0022855368340533146,-0.006969382036554105,0.010687209449475725,0.9909985172800982
2016-11-08,-1,-0.0020009391503874444,-0.0017137748062256383,-0.006969382036554105,0.011644912025064043,0.9905477685912915
2016-11-10,-1,-0.0022031707581014097,-0.001896483387048081,-0.005917199657181331,0.012097197847703979,0.9898719954587415
2016-11-14,-1,-0.001246384355636052,-0.0010878029468915197,-0.00743655624793123,0.012097197847703979,0.9895848051920081
2016-11-16,-1,-0.0031574433387357398,-0.002593158560579492,-0.008546045177379166,0.012056960341212135,0.9888563842920065
2016-11-18,-1,-0.002691983597232582,-0.0022837913625344958,-0.00743655624793123,0.012056960341212135,0.9891173629329062
2016-11-22,-1,-0.0013620328330446472,-0.0011352009889307839,-0.00743655624793123,0.006667797744857883,0.990026960474769
2016-11-25,-1,-0.0016339496965906588,-0.001350643592165769,-0.008546045177379166,0.006667797744857883,0.9883573977360126
2016-11-29,-1,-0.0011538518947062284,-0.0009998315700249032,-0.01144650797374631,0.011105840272295591,0.9874825300735821
2016-12-01,-1,-0.0015864956919094926,-0.0013714663713749748,-0.01144650797374631,0.011105840272295591,0.9875859372516828
2016-12-05,-1,-0.00134410412632875,-0.0011625083680554585,-0.008978054076053872,0.011105840272295591,0.9877261000840742
2016-12-07,-1,-0.000798274296720055,-0.0006493076028241332,-0.008978054076053872,0.00780836605122214,0.9885746981992573
2016-12-09,-1,-6.175621094479199e-05,-1.3583509441841395e-05,-0.01376658906688136,0.005627046254567233,0.9888580843339676
2016-12-13,-1,-0.0007339643851461985,-0.0006234564292324663,-0.008978054076053872,0.00780836605122214,0.9895313390550466
2016-12-15,-1,-0.0010867543448767748,-0.0009526587986583838,-0.006578997231202437,0.00780836605122214,0.9905876225953015
2016-12-19,-1,-0.001501342929663896,-0.0013329751241422383,-0.006578997231202437,0.009140893765909753,0.9902402853533301
2016-12-21,-1,-0.0008298590334134773,-0.0007503678492352245,-0.006578997231202437,0.00721179046582736,0.9906850321989781
2016-12-23,-1,-0.0018105513987470762,-0.001637039231348751,-0.005836380925391472,0.00721179046582736,0.9921267732819092
2016-12-28,-1,-0.0016402417948161298,-0.001500442096253197,-0.004270377040251299,0.005484567605907263,0.9933452504921232
2016-12-30,-1,-0.0020085538103315993,-0.0018035729843800651,-0.0028690582053764093,0.00721179046582736,0.9927602742018172
2017-01-04,-1,-0.001378841739053208,-0.0012482948360981229,-0.004270377040251299,0.004599703350946904,0.9936544045998605
2017-01-06,-1,-0.00032080314233971254,-0.00028711535125484276,-0.005836380925391472,0.004599703350946904,0.9935021077693779
2017-01-10,-1,-0.0008749206909306696,-0.0008420687997936611,-0.006362199361612818,0.004599703350946904,0.993043981915517
2017-01-12,-1,-0.00016299534411925586,-8.970236847763652e-05,-0.006362199361612818,0.004599703350946904,0.992912362565449
2017-01-17,-1,-0.00033823869537427946,-0.00028593743424036794,-0.0059093079477227075,0.005338583814341377,0.9927053468850995
2017-01-19,-1,-0.0003298063789887065,-0.00026908485594345945,-0.004270377040251299,0.005338583814341377,0.993207428167885
2017-01-23,1,1.542315087821295e-05,0.0001307829756858376,-0.004270377040251299,0.00725153714521261,0.9921495564632506
2017-01-25,1,2.781148128374423e-05,0.0001485003575803782,-0.004494267867212571,0.00725153714521261,0.9901220636658492
2017-01-27,0,-1.8677028553324348e-05,8.592472981451652e-05,-0.006959043875515415,0.008534111662403126,0.9894163626058972
2017-01-31,1,0.000555271165166968,0.0007531045869621008,-0.006959043875515415,0.008534111662403126,0.9891368645821353
2017-02-02,0,-1.2033266629788667e-05,5.712964031688209e-05,-0.008344071018305043,0.008534111662403126,0.9881002265107841
2017-02-06,1,0.00013470294458793332,0.00026756685815773525,-0.009976012464452231,0.008534111662403126,0.987932042286301
2017-02-08,-1,-0.00028783205932245056,-0.00020021727650810047,-0.008625942320792548,0.008534111662403126,0.9885052491894842
2017-02-10,1,5.2243016372910725e-05,0.00017219627909319458,-0.009976012464452231,0.007803054176051347,0.988460386098186
2017-02-14,1,0.0006927486862266633,0.0008959548388666748,-0.009976012464452231,0.0069424942653663665,0.9889648447557637
2017-02-16,1,0.0008285445058699994,0.0010606990884090431,-0.009976012464452231,0.0069310628573218,0.9888279295281684
2017-02-21,1,0.001638016430347073,0.0019719130163487024,-0.011656414555036798,0.005239906916044323,0.9887877161733989
2017-02-23,1,0.0006558856309226025,0.0008493741780701393,-0.010752450793343204,0.0019344956729744353,0.9913686876431439
2017-02-27,1,0.0005030652620858873,0.0006793685780443698,-0.010752450793343204,0.0007546756935648495,0.9920230932063326
2017-03-01,1,0.0006958328129169121,0.0008368571212519656,-0.010752450793343204,0.00099948272905769,0.992645785297198
2017-03-03,1,0.00014157725298814732,0.00019714683179802023,-0.010705332888892976,0.0007546756935648495,0.9934488853820092
2017-03-07,-1,-0.0005663545998454596,-0.0005302273225443999,-0.010705332888892976,0.0007546756935648495,0.9933925794628756
2017-03-09,-1,-0.0009582112793312069,-0.0008726689841020023,-0.011195763831922651,0.00099948272905769,0.9931792936393342
2017-03-13,-1,-0.0007692538462624423,-0.0007183832762701787,-0.010705332888892976,0.00099948272905769,0.9936923033791933
2017-03-15,-1,-0.0008139839579155074,-0.0007589031554919787,-0.011195763831922651,0.0021907165551235163,0.9925153407040261
2017-03-17,-1,-0.0007383533090707163,-0.0006894856121787102,-0.011195763831922651,0.0020122697848310262,0.9924384337283761
2017-03-21,-1,-0.0013105697239609998,-0.0011962084024077749,-0.008117621501291436,0.0051891621236362,0.9926943635036427
2017-03-23,-1,-0.0021892966721418633,-0.0019541620246722484,-0.008117621501291436,0.006249836968463266,0.9918264631857191
2017-03-27,-1,-0.0019833107665749475,-0.0017748155277709306,-0.008117621501291436,0.009074034629152015,0.9906491872775813
2017-03-29,-1,-0.002182661025247837,-0.0019280137434601074,-0.008117621501291436,0.011100892821413624,0.9887198575717825
2017-03-31,-1,-0.002550722802100926,-0.0022340640852374642,-0.003110895335276547,0.011100892821413624,0.9884376309078252
2017-04-04,-1,-0.003025166228931267,-0.002689596548164265,3.2372872476247954e-05,0.011100892821413624,0.9890322341839406
2017-04-06,-1,-0.0032470193822468673,-0.0028762304485787345,3.2372872476247954e-05,0.012191672960820231,0.9889185588845448
2017-04-10,-1,-0.00241732768528288,-0.002181020500290716,-0.0010318571491183769,0.012191672960820231,0.9897697141388164
2017-04-12,-1,-0.002287511385605307,-0.002093888555825953,-0.0033345520075346944,0.012191672960820231,0.9907947277823997
2017-04-17,-1,-0.002651420377397358,-0.002379542825750221,-0.0010348573280979253,0.012191672960820231,0.9908148449518583
2017-04-19,-1,-0.001410908528090146,-0.001340526070590087,-0.004067239296754984,0.012191672960820231,0.9915918122791334
2017-04-21,-1,-0.0006970187433871426,-0.0006741307663398614,-0.004067239296754984,0.00768976541973601,0.9921591516962842
2017-04-25,-1,-8.318731512754244e-05,-1.1244475510642678e-06,-0.005036650820860403,0.00597365707928304,0.9926960104909619
2017-04-27,1,0.0010004144523662998,0.0012078297507979435,-0.005036650820860403,0.005084396112536324,0.9945225534823615
2017-05-01,1,0.0012852964733034336,0.0015415031629228838,-0.005816440462184962,0.00462578259085788,0.9943353635020782
2017-05-03,1,0.0016651192897067038,0.0020288082299294635,-0.005036650820860403,0.005084396112536324,0.9934216061413726
2017-05-05,1,0.0023864344361441492,0.002886400585775931,-0.004296149021112474,0.00462578259085788,0.994045121285585
2017-05-09,1,0.0017810505336038854,0.0021497971596979937,-0.005816440462184962,0.00462578259085788,0.9936204358148375
2017-05-11,1,0.0011895789727717709,0.0014410660337758415,-0.005816440462184962,0.005084396112536324,0.9932612870758929
2017-05-15,1,0.0010026271873049102,0.0011949920623190147,-0.005816440462184962,0.008316496844693537,0.9925812232716973
2017-05-17,1,0.0008385145768567044,0.0010360094202963822,-0.0020124155472125553,0.008316496844693537,0.9930706912161221
2017-05-19,1,0.00047241142494051176,0.000540313813972545,-0.0029175402897195805,0.00992677813920679,0.9926295274508399
2017-05-23,1,0.000541847899320015,0.0006148633163700794,-0.004800776973513957,0.008316496844693537,0.9922789001054122
2017-05-25,1,0.0007092653665957066,0.0007928826103033777,-0.004800776973513957,0.006055566174068035,0.9924296792942808
2017-05-30,1,0.000798244991682674,0.0009271369412546262,-0.005454352226402953,0.00992677813920679,0.9917126518038101
2017-06-01,1,0.002232511638291447,0.0025827742077205625,-0.005454352226402953,0.00833884251236431,0.9924865388907315
2017-06-05,1,0.001645346524310361,0.001884088851612428,-0.005454352226402953,0.009686664620004422,0.9919910764205536
2017-06-07,1,0.0014539125939152556,0.0016962501454897152,-0.009163784354038503,0.009686664620004422,0.9898697045166595
2017-06-09,1,0.0016754170756525784,0.001938106622164889,-0.005454352226402953,0.009209669483601534,0.9907293314060484
2017-06-13,1,0.0021887259283678334,0.0025114626141991264,-0.005454352226402953,0.007722903685551676,0.9912437898960912
2017-06-15,1,0.002110882168197192,0.0024349309738510836,-0.004083892583420099,0.007722903685551676,0.991208541284058
2017-06-19,1,0.002458732977228685,0.0028220235245627404,-0.005626940886029493,0.007722903685551676,0.9909148185419513
2017-06-21,1,0.001512375167228355,0.001743669850395214,0.0007517253014984443,0.008317510641021778,0.9915444776014548
2017-06-23,1,0.0019520959195370366,0.0022683627275433653,-0.00045570249583555935,0.008317510641021778,0.9911198217128138
2017-06-27,1,0.0018330296575919105,0.0021215036099764472,-0.002200869056549959,0.007722903685551676,0.9917178036825509
2017-06-29,1,0.002079897999141157,0.002381993595319973,-0.002200869056549959,0.00946311523972822,0.9898222930395854
2017-07-03,1,0.0021536481340501713,0.002415047737550786,-0.0036286995132247,0.007514628239256768,0.9899847406070679
2017-07-06,1,0.0006254770396496645,0.0007175847714942286,-0.0021704744017134194,0.007514628239256768,0.9923516622049712
2017-07-10,1,0.001299304404949862,0.0015141732808227947,-0.0021704744017134194,0.0080975547853574,0.9925025511206296
2017-07-12,1,0.0016880400493689003,0.0019666658221477846,-0.0032410426712773735,0.0080975547853574,0.9924748230790646
2017-07-14,1,0.002627845493368204,0.003086529353576153,-0.0036286995132247,0.00554682740233178,0.9915840857588322
2017-07-18,1,0.002740644348513294,0.0031441794280579016,-0.0032410426712773735,0.002814885285495779,0.9922636413354303
2017-07-20,1,0.0029888569815731967,0.0034189426612958916,-0.003731040766299031,0.002814885285495779,0.9908271375422716
2017-07-24,1,0.0029870535205360612,0.003463836946951836,-0.0032410426712773735,0.0025750607326634656,0.9913922859218237
2017-07-26,1,0.0024598150698834356,0.002828213367816754,-0.0035741656841309704,0.0048201173068872305,0.99159089300684
2017-07-28,1,0.0036815494082345786,0.004151645033345204,-0.004730409804859821,0.0025750607326634656,0.9924377014794041
2017-08-01,1,0.002955580916139678,0.0032938502717031167,-0.004730409804859821,0.0025750607326634656,0.9926256703275909
2017-08-03,1,0.0025326490346339768,0.0027978107338617057,-0.004730409804859821,0.007773035817490217,0.9925320933981006
2017-08-07,1,0.002854166599067865,0.0031501017295610776,-0.004730409804859821,0.005433776771131349,0.9927234714599316
2017-08-09,1,0.0027466765641960458,0.0030321331629295503,-0.0029423346284677314,0.005433776771131349,0.9927025716079322
2017-08-11,1,0.0015032691656456307,0.0015714098733466647,-0.0023147438754975687,0.007862052585023007,0.9934372162676929
2017-08-15,1,0.0011828941094126886,0.0011954452387230234,-0.002258635964763945,0.007862052585023007,0.993290106298869
2017-08-17,1,0.0013189184543960079,0.0013352933065046185,-0.002258635964763945,0.006849156116577907,0.9946226089160684
2017-08-21,1,0.0013010825880749473,0.0013261187607516568,-0.0037121260027304726,0.006849156116577907,0.9938013871933662
2017-08-23,1,0.0009243273041411261,0.0009761521120914394,-0.00393726611787917,0.0076648829795552455,0.9930943681443902
2017-08-25,1,0.00017773508677866806,0.00038292855725807025,-0.0025713410002518155,0.007400379639901374,0.9932870688911997
2017-08-29,-1,-0.0007132078864897429,-0.000383906028676572,-0.002284646082002523,0.009563091157361397,0.9926725268211843
2017-08-31,1,6.64475456540717e-05,0.00029760056486379373,-0.002284646082002523,0.00673085847624401,0.993409303807592
2017-09-05,0,-7.184789727074554e-05,0.00019832511639568666,-0.002284646082002523,0.006963072258132096,0.9931451522166881
2017-09-07,-1,-0.0005667650599145704,-0.00022840491971928476,-0.0022545436706425167,0.007891096158366825,0.9927000188951853
2017-09-11,1,0.00024854099452499806,0.0004712639925545277,-0.0025590641178875302,0.006963072258132096,0.9933586360010205
2017-09-13,1,0.0005248843548910484,0.0006880203379130527,-0.0025590641178875302,0.006910497819620786,0.9934592737214514
2017-09-15,1,0.0006897315607805006,0.0007928955050390151,4.199285126279292e-05,0.006910497819620786,0.9935990613769211
2017-09-19,1,0.0010101542700806311,0.0010135775409221117,0.001464930056350189,0.006910497819620786,0.9943254525954739
2017-09-21,1,0.0008967915003384,0.000898191179287804,0.001464930056350189,0.00616929822168894,0.9949896928146749
2017-09-25,1,0.0011370765476287669,0.001148836491310123,0.000278447113218819,0.005758333432461706,0.9951842351290803
2017-09-27,1,0.0018706616058219877,0.001997137042101345,0.000278447113218819,0.005243871202049961,0.9957346113801676
2017-09-29,1,0.001930671381352129,0.0020519030526926444,-0.002695737972338857,0.005243871202049961,0.9947530007493534
2017-10-03,1,0.0019577851530977125,0.002048628415868629,-0.006185728095284076,0.005243871202049961,0.9932673616976448
2017-10-05,1,0.0022428274338487098,0.0023714200334061077,-0.006874985328576669,0.005243871202049961,0.9929482105854909
2017-10-09,1,0.001463892404281706,0.0014672514950610411,-0.006281971754676288,0.005243871202049961,0.9929674231986811
2017-10-11,1,0.0018958751291392373,0.001957720036859047,-0.00724744428786275,0.0038807507077236415,0.9921158306414097
2017-10-13,1,0.002127281139688405,0.0022274039238080624,-0.00724744428786275,0.0038807507077236415,0.9920008453985848
2017-10-17,1,0.0022287444308886073,0.0023516278475972318,-0.00724744428786275,0.0041632730538474156,0.9920569493138481
2017-10-19,1,0.0017569493357667992,0.0017970233742165876,-0.00724744428786275,0.006283011990423756,0.9916509582729599
2017-10-23,1,0.0020350102081920403,0.002178405995119666,-0.006281971754676288,0.006283011990423756,0.9920606496006622
2017-10-25,1,0.0013344319468490376,0.001377338241582016,-0.003088064709282029,0.006973984139538583,0.992477609507956
2017-10-27,1,0.0010839916242268161,0.0011142716473785056,-0.002180983323009143,0.006973984139538583,0.9931862583776905
2017-10-31,1,0.0020552945493300086,0.002149280724493759,-0.00174758111815199,0.00858196498829096,0.9937261232502654
2017-11-02,1,0.0023077155398651813,0.0024779305393582297,-0.002049372269728654,0.007004278225102085,0.9940174925854657
2017-11-06,1,0.0019186202754548905,0.0020198724530352003,-0.0017235716599344117,0.007004278225102085,0.994141310876559
2017-11-08,1,0.0013044554298722933,0.001344754133129129,-0.001028318442246315,0.009087412848626415,0.9947782531820701
2017-11-10,1,0.0008185750631769995,0.0008970336895097068,-0.001028318442246315,0.010482311825756641,0.9943622370373622
2017-11-14,1,0.00109747546948879,0.0011383776726750458,-0.0013002196634146813,0.010482311825756641,0.9937662442987759
2017-11-16,1,0.0012077963590078004,0.0012371834925793592,-0.0013002196634146813,0.009087412848626415,0.9936826692769967
2017-11-20,1,0.0013572397231907804,0.0013600888379489,-0.0013002196634146813,0.010482311825756641,0.9922703427664411
2017-11-22,1,0.0019688055365714883,0.0020916245260462762,-0.0016092370211806028,0.010347247474273418,0.9927574803243545
2017-11-27,1,0.0006103545269652231,0.0007837096817087187,-0.0015919050473371557,0.010347247474273418,0.9928528548868839
2017-11-29,1,0.0018336772310762841,0.001849741060093136,-0.0015919050473371557,0.006605416219084864,0.993819131810543
2017-12-01,1,0.0016090104433581329,0.0016359499332366805,-0.0011313242281682887,0.008410028472113609,0.992740233435066
