JNU-Tangyin/eata/results/Batch4_SP500/Batch4_SP500-ABC.csv
Date,Action,Predicted_Q25,Predicted_Q75,Actual_Q25,Actual_Q75,RL_Reward
2010-12-14,0,0.0,0.0018492106734506826,-0.002993504583251457,0.01166960326473953,0.9920186844125313
2010-12-16,0,0.0,0.0,-0.002993504583251457,0.01166960326473953,0.9915907699299612
2010-12-20,0,0.0,0.0,-0.0038367009579393526,0.01166960326473953,0.9907704426072423
2010-12-22,0,0.0,0.0,-0.0038367009579393526,0.01088059187369528,0.9911249335362603
2010-12-27,0,0.0,0.0,-0.005791318710066776,0.01088059187369528,0.9909231357653947
2010-12-29,0,0.0,0.0,-0.005791318710066776,0.011659889650915667,0.9905458828532314
2010-12-31,0,0.0,0.0,-0.005791318710066776,0.011659889650915667,0.9900010200430791
2011-01-04,0,0.0,0.0,-0.005791318710066776,0.011860102431433843,0.9892040999392491
2011-01-06,0,0.0,0.0,-0.005791318710066776,0.011860102431433843,0.98872527994545
2011-01-10,0,0.0,0.0,-0.004413653425631642,0.011860102431433843,0.9888891743410422
2011-01-12,1,0.0020599026670346486,0.002140896248206007,-0.0037171729338353896,0.011860102431433843,0.9899528676730214
2011-01-14,1,0.0015072930408340248,0.00156277173409901,-0.0037171729338353896,0.010932775880209375,0.9901987484788554
2011-01-19,1,0.0011753287980305288,0.0012747901056946588,-0.004487689141071676,0.006955772121193464,0.9912695753111729
2011-01-21,1,0.0010990830013758973,0.0012384993578746142,-0.004487689141071676,0.010167587723580111,0.990144675136062
2011-01-25,1,0.0012767559688798078,0.0013729780755845427,-0.006543865439902416,0.010167587723580111,0.9894698545032863
2011-01-27,1,0.0021104079272593907,0.002154220053498717,-0.006543865439902416,0.006700709402317043,0.9893064407298752
2011-01-31,1,0.0008142369900462144,0.0010245829337790795,-0.006543865439902416,0.010211248484556002,0.9895288574063145
2011-02-02,1,0.0005512907762172155,0.0007750726291863634,-0.0045863431575855935,0.01024093132094991,0.9903726524918484
2011-02-04,1,0.001996661350444547,0.0020203720164188974,-0.006543865439902416,0.006700709402317043,0.9913802583388457
2011-02-08,1,0.002621890671868479,0.0027587426361508757,-0.006543865439902416,0.01024093132094991,0.9902782889867955
2011-02-10,1,0.0027351515482408146,0.0029166824154481874,-0.009946627348777225,0.01024093132094991,0.9882663659113925
2011-02-14,1,0.0025275617586593612,0.0026602074181490843,-0.010441383436676976,0.01024093132094991,0.987609819509863
2011-02-16,1,0.0024494973150669974,0.0026163979669994153,-0.010441383436676976,0.01024093132094991,0.9883717027049613
2011-02-18,1,0.0036351595339319575,0.00393457805124027,-0.010441383436676976,0.012559230634496325,0.9884586509061397
2011-02-23,1,0.0022197933233043354,0.0022919293864123317,-0.006142044400621687,0.012559230634496325,0.9893310376362333
2011-02-25,1,0.0024666768775570575,0.0025695704102723154,-0.006142044400621687,0.012559230634496325,0.9891380786830747
2011-03-01,1,0.0026009860969626163,0.0027597833057670306,-0.004244146788016986,0.011944246242475448,0.9903001011063117
2011-03-03,1,0.002971419781553596,0.0031913233899815334,-0.0053854873957543264,0.009638055047668565,0.9906103893130394
2011-03-07,1,0.0027152607505250706,0.002917748160623344,-0.004166130873423626,0.012603114267104443,0.9903366404377307
2011-03-09,1,0.0037060277840020497,0.004046107498573048,-0.004166130873423626,0.009638055047668565,0.9912554538983799
2011-03-11,0,0.0,0.0,-0.0011639569328977886,0.009638055047668565,0.9922823620830624
2011-03-15,0,0.0,0.0,-0.000558002443564726,0.009638055047668565,0.9923205107200977
2011-03-17,0,0.0,0.0,-0.0005623383694407743,0.009638055047668565,0.9924890348920258
2011-03-21,0,0.0,0.0,-0.001687754880971226,0.005561333407541598,0.993957909478738
2011-03-23,0,0.0,0.0,-0.0013191425683236804,0.006125137353926599,0.9935069095662962
2011-03-25,0,0.0,0.0,-0.0013191425683236804,0.0057981058318755324,0.99440341254849
2011-03-29,0,0.0,0.0,-0.0013191425683236804,0.0057981058318755324,0.9936684137274495
2011-03-31,1,0.002739393082640046,0.0028944149398555693,-0.001687754880971226,0.0057981058318755324,0.9920469296041496
2011-04-04,1,0.0027838761614811906,0.002875699231646549,-0.001687754880971226,0.003906179622264969,0.9923169073044241
2011-04-06,1,0.0030391673886396827,0.003211171365595915,-0.003900104560997605,0.006676978270607828,0.9917315383838847
2011-04-08,1,0.0022983055740565285,0.0023456627520861096,-0.001687754880971226,0.010264208002945719,0.9914257020050987
2011-04-12,1,0.0010708533216646444,0.001221755903825351,-0.0015143260027209269,0.010264208002945719,0.9921743640888603
2011-04-14,1,0.0010740920819410499,0.0012178317612508687,-0.0022958692543033963,0.010264208002945719,0.991513638136728
2011-04-18,1,0.0005942112543488102,0.0008048770310787496,-0.0031329711916683357,0.010264208002945719,0.9911599132673978
2011-04-20,1,0.0011800795781454411,0.001334707871573129,-0.004928344073570775,0.007495857247205985,0.9920376855404845
2011-04-25,0,0.0,0.0,-0.005745826198033441,0.005759264962965627,0.9918388493301018
2011-04-27,0,0.0,0.0,-0.006523119377845412,0.005759264962965627,0.9918636233523133
2011-04-29,1,0.0010859653296477294,0.001198379299326151,-0.005745826198033441,0.005759264962965627,0.9927870704412872
2011-05-03,1,0.00073363544439335,0.000919208225761746,-0.006560668874891175,0.0054544435183268595,0.992750598195663
2011-05-05,1,0.0007558624810529376,0.0009225783190772493,-0.006560668874891175,0.004284783232668145,0.9930000765640346
2011-05-09,1,0.001419631410965648,0.0015315921960765704,-0.006560668874891175,0.0028329618320255615,0.9935335692967067
2011-05-11,1,0.0014755868759789839,0.001541127034609172,-0.006560668874891175,0.004284783232668145,0.9931096971394835
2011-05-13,1,0.0013352197801760693,0.001395165546808973,-0.008069245630823233,0.0028329618320255615,0.9928559529179882
2011-05-17,1,0.0016833003606528726,0.0017044203527213806,-0.008069245630823233,0.0028329618320255615,0.9924846688098826
2011-05-19,1,0.0011950528701269191,0.001237016039061555,-0.008069245630823233,0.0028329618320255615,0.9928570964181549
2011-05-23,1,0.0009044256244766849,0.0009669878458983326,-0.008069245630823233,0.005820949943008546,0.9930046438389635
2011-05-25,1,0.0005141561819041596,0.0006602879532330988,-0.007940961234142474,0.004070184438878104,0.9937977406887143
2011-05-27,0,-0.00024772505343986296,6.410920047646563e-06,-0.007940961234142474,0.005820949943008546,0.9923009102585798
2011-06-01,-1,-0.000231864952093786,-2.3911284033699713e-05,-0.007561490187425735,0.009830228617881066,0.9918007415174509
2011-06-03,-1,-0.0008232109481579623,-0.0005292595324099024,-0.005509248019929008,0.010931290681365153,0.9909668662542703
2011-06-07,-1,-0.00030099783162823546,-6.997226779851954e-05,-0.005509248019929008,0.011264676338015653,0.990634833267401
2011-06-09,1,0.0005140054841715207,0.0006238782183112955,-0.007561490187425735,0.009830228617881066,0.9909386891404925
2011-06-13,-1,-0.0004843802632080647,-0.00025828000602261215,-0.005509248019929008,0.009830228617881066,0.9913657408796517
2011-06-15,0,-4.134976041594466e-05,0.00010819460343795633,-0.0036441735913543064,0.008036381128553722,0.9919723437506611
2011-06-17,-1,-0.0003781941239251248,-0.00016968738138187754,-0.007608933525920191,0.008036381128553722,0.990903707807823
2011-06-21,1,0.0005456373399943218,0.0005999490452666433,-0.007608933525920191,0.008834732083581662,0.9905681239516504
2011-06-23,-1,-0.0002937212348681692,-0.00011390611082378102,-0.007608933525920191,0.013473348837362458,0.986730975531737
2011-06-27,-1,-0.0011559856851989286,-0.000851669539612962,-0.007608933525920191,0.009602496865504614,0.9882238888325945
2011-06-29,-1,-0.0003043664185419108,-0.00011831658815469827,-0.008301767597584463,0.004735112227470127,0.9878351595106154
2011-07-01,0,0.0,0.0,-0.010453867385701317,-0.00029531127106154027,0.9876476887989739
2011-07-06,0,0.0,0.0,-0.010453867385701317,-0.0005318351398070366,0.9882118158310385
2011-07-08,1,0.0010216266974042952,0.0010632534409350965,-0.011726553394156954,0.00023652386874549634,0.9850444808752957
2011-07-12,-1,-0.0001797768502974692,-2.3409056725593683e-05,-0.016058279202559967,0.0035587652876094725,0.9804160400569012
2011-07-14,1,0.0004828553587165874,0.000554709059852057,-0.01987061080487411,0.012339659623940548,0.9755054318839821
2011-07-18,-1,-0.0008376788192824888,-0.0006123696549871471,-0.017114865621898744,0.015497688818121217,0.97518198142476
2011-07-20,-1,-0.0003039039168330866,-0.00016026528623460642,-0.017114865621898744,0.01522741174691092,0.97524692922442
2011-07-22,-1,-0.00115765320956518,-0.0009123027846253799,-0.017114865621898744,0.012339659623940548,0.9784228301946192
2011-07-26,-1,-0.0015072352486438256,-0.001229476634940282,-0.017114865621898744,0.01522741174691092,0.9777700154131379
2011-07-28,-1,-0.0025392515920946747,-0.002128590867011371,-0.015347944208489788,0.01522741174691092,0.9784886528838685
2011-08-01,0,0.0,0.0,-0.011514373129233313,0.020360509195568293,0.9772602284586525
2011-08-03,-1,-0.002178947927374676,-0.0016930266468313056,-0.011514373129233313,0.020360509195568293,0.9774182455566356
2011-08-05,-1,-0.003278655769433656,-0.0026460849472482615,-0.011514373129233313,0.020360509195568293,0.9797112430464363
2011-08-09,-1,-0.0031023071100894787,-0.002488444321184863,-0.0055039011639766745,0.020360509195568293,0.9836530800006335
2011-08-11,-1,-0.0015784505742627232,-0.0012077848863981454,-0.006822795423593101,0.0164261892029654,0.9869043888036022
2011-08-15,0,-0.0001359676145195871,6.0297484491383274e-05,-0.008757061133489636,0.008809222504504405,0.9877186311814998
2011-08-17,1,0.00028407332394187894,0.0003814239171980432,-0.010015607561101413,0.012884511764124473,0.9868050870380305
2011-08-19,-1,-0.0002823109883474208,-0.00013521366975603814,-0.006399059345014242,0.01738614560917131,0.9872496777111749
2011-08-23,1,0.0001544794125677944,0.0002596268893833591,-0.010015607561101413,0.012884511764124473,0.9866309588691958
2011-08-25,0,-3.1554725178100556e-05,5.0986636889502714e-05,-0.008660724454360814,0.012884511764124473,0.9866900139101996
2011-08-29,1,0.0015655625645106144,0.0016779714127367102,-0.008660724454360814,0.008809222504504405,0.9871235254190197
2011-08-31,1,0.0013800522652422558,0.001457949550782712,-0.014490869939601967,0.0082172199000919,0.9854973204497899
2011-09-02,1,0.000476982858053602,0.0005428725763616452,-0.014490869939601967,0.0082172199000919,0.9839559266802751
2011-09-07,1,0.0018866529972683768,0.00199573196187065,-0.014490869939601967,0.0082172199000919,0.9844150449199602
2011-09-09,0,0.0,0.0,-0.012522608223466146,0.0082172199000919,0.9856598544542121
2011-09-13,0,0.0,0.0,-0.012522608223466146,0.00853015295384687,0.9847700985793083
2011-09-15,0,0.0,0.0,-0.010214699600723727,0.009581158785249682,0.9851071414158502
2011-09-19,0,0.0,0.0,-0.010214699600723727,0.007455100067313641,0.9854733311042324
2011-09-21,1,0.0016914068028215756,0.0017838968305919924,-0.009058924049950496,0.009480669607952264,0.9864948295603619
2011-09-23,1,0.0014510677558683413,0.001524749218095707,-0.007988520188754645,0.013270628326032678,0.9856574520553846
2011-09-27,1,0.002906166291452463,0.0031659889831533684,-0.009630700997963298,0.013270628326032678,0.9849958023139841
2011-09-29,1,0.002080928235243736,0.0022878915151850355,-0.007620869690576917,0.018279457158255567,0.9843150888176575
2011-10-03,1,0.0006924344442998771,0.0007056345851282652,-0.0052227194231617485,0.018279457158255567,0.984977903251536
2011-10-05,1,0.0011525265163697485,0.00123411546183057,-0.007620869690576917,0.018279457158255567,0.9846813892950538
2011-10-07,1,0.0006539699811902296,0.0006677338629554625,-0.0052227194231617485,0.018279457158255567,0.9845513555769675
2011-10-11,1,0.0016228108471291064,0.0017369593323746445,-0.0052227194231617485,0.015118183007760676,0.9858239415189515
2011-10-13,1,0.0025460503007347923,0.0027630974840324746,-0.010080466406179194,0.013474940843761775,0.9846091184197077
2011-10-17,1,0.0021297244130364617,0.0022899609164051685,-0.01345860804701631,0.016915591043721333,0.9835206933056622
2011-10-19,1,0.002113600002053897,0.0022496900686840866,-0.0178080984207597,0.016915591043721333,0.9825651866272653
2011-10-21,1,0.0030904193959248516,0.003329966301586284,-0.0178080984207597,0.012831131476886888,0.9827921347214258
2011-10-25,1,0.002575923300294853,0.0027239504219622166,-0.015649794297659277,0.0062491521151852225,0.9841997725093269
2011-10-27,1,0.004556759673774866,0.004988392528648647,-0.015649794297659277,0.0015360777969628582,0.9844405452369365
2011-10-31,1,0.003933464656936241,0.004303824168242115,-0.014784786839589161,0.001961210083343481,0.9859534894858197
2011-11-02,1,0.003040286145194672,0.0032639730258889445,-0.012751338849864218,0.0062491521151852225,0.9869097274928311
2011-11-04,1,0.0025085353275119456,0.002665631455288029,-0.011130824445688076,0.0062491521151852225,0.9870669756995767
2011-11-08,1,0.0024933299403517854,0.0026396851067096777,-0.011130824445688076,0.004091102221318102,0.9874365152804657
2011-11-10,1,0.0021566100255767584,0.0022727374409554657,-0.010744287341544931,0.0028812000344536053,0.9893146261116628
2011-11-14,1,0.002412891753241618,0.0025387355405089513,-0.010744287341544931,0.0024371387611949098,0.9900725746789462
2011-11-16,1,0.0010088721717719648,0.001102362665153294,-0.009035000004329835,0.0024371387611949098,0.991704471302111
2011-11-18,1,0.00038970095602402095,0.0005350949648103048,-0.00818334722858567,0.0028896318546794897,0.9913637663494236
2011-11-22,1,0.00029124151987244433,0.0004081990194521187,-0.0077360184050961995,0.0047038258423910285,0.9913382399169842
2011-11-25,1,0.00011579886627408308,0.00020622899763052743,-0.0065369370035921305,0.007141898823462034,0.9917470854247284
2011-11-29,1,0.00019687929247858064,0.000296040040869185,-0.0077360184050961995,0.006787055549455873,0.9909415830426966
2011-12-01,1,0.0006407814098837428,0.0007060203995343706,-0.0077360184050961995,0.006787055549455873,0.9911962066780069
2011-12-05,0,-9.6067853410449e-05,5.5953233740178604e-05,-0.005387449192198763,0.008104734501099116,0.9907500620614151
2011-12-07,-1,-0.0005413739731711995,-0.00030762557623300755,-0.004717568979948162,0.008104734501099116,0.990593346681692
2011-12-09,-1,-0.0006417935712620436,-0.0004091566488965236,-0.002150493827131292,0.009728896843520251,0.9905062479343373
2011-12-13,-1,-0.0013193922063333059,-0.0012532072056951225,-0.002150493827131292,0.009728896843520251,0.9900826598393268
2011-12-15,1,0.0012121860766587667,0.001240984458006516,-0.002150493827131292,0.011862724177169118,0.9896209230221074
2011-12-19,-1,-0.0006135084769190967,-0.0005044727996495228,-0.0007930068649079894,0.011862724177169118,0.9893547613635957
2011-12-21,-1,-0.0006336932493853568,-0.00046506740935561825,-0.0013263157577705134,0.011862724177169118,0.9890960151362161
2011-12-23,-1,-0.0001832203113220179,-7.510879696907911e-05,-0.004383167168185714,0.011862724177169118,0.9892455227059112
2011-12-28,-1,-0.0014525903132715746,-0.0011263869518206827,-0.004383167168185714,0.011862724177169118,0.989579148648486
2011-12-30,0,0.0,0.0,-0.0046488506849536974,0.009767943771056262,0.9903007564325101
2012-01-04,0,0.0,0.0,-0.006519492099188835,0.009767943771056262,0.9899927147880101
2012-01-06,0,0.0,0.0,-0.00658794226876944,0.009767943771056262,0.9900427437612407
2012-01-10,0,0.0,0.0,-0.00658794226876944,0.010003206100066577,0.9898837468819174
2012-01-12,0,0.0,0.0,-0.007798948476891865,0.010003206100066577,0.9897396930861576
2012-01-17,0,0.0,0.0,-0.007798948476891865,0.009158331473762424,0.9894878263752507
2012-01-19,0,0.0,0.0,-0.009535128740045844,0.004926338473846326,0.9894566047266898
2012-01-23,0,0.0,0.0,-0.010194168988241926,0.003972621916342033,0.9896432347589209
2012-01-25,1,0.0016638164678780135,0.0019722269032620802,-0.010194168988241926,0.007391933486499902,0.9880971902286837
2012-01-27,1,0.0008913834247531878,0.0010669069347956756,-0.009535128740045844,0.007492709567610888,0.9889525297584223
2012-01-31,0,0.0,0.0,-0.009535128740045844,0.007492709567610888,0.9890189519219802
2012-02-02,0,0.0,0.0,-0.009535128740045844,0.006843725675494189,0.9896283861236196
2012-02-06,1,0.0007356478841273765,0.0007813773306439829,-0.009535128740045844,0.006843725675494189,0.9893848143237883
2012-02-08,1,0.0011724573936738526,0.0012861806102297242,-0.009535128740045844,0.007492709567610888,0.9885317006333253
2012-02-10,1,0.0007829646289449034,0.0008633552076246288,-0.007870134562252655,0.00958998131962659,0.9889638209458081
2012-02-14,-1,-0.00046999474184303183,-0.000415177331817678,-0.007434296369971649,0.008301344980206366,0.9906346252025774
2012-02-16,-1,-0.0017579945129720738,-0.0015832139287906444,-0.007434296369971649,0.010848294858439935,0.9909939132640959
2012-02-21,0,0.0,0.0,-0.002197250093265593,0.010848294858439935,0.991530306436265
2012-02-23,0,0.0,0.0,-0.006581750471442658,0.0070631641211374805,0.9925539705291352
2012-02-27,0,0.0,0.0,-0.006581750471442658,0.010848294858439935,0.9912267336678864
2012-02-29,0,0.0,0.0,-0.006581750471442658,0.010848294858439935,0.9910102034381943
2012-03-02,0,0.0,0.0,-0.0039875675145650494,0.011144612280934909,0.9913099681990593
2012-03-06,0,0.0,0.0,-0.006581750471442658,0.011144612280934909,0.9905056036723043
2012-03-08,0,0.0,0.0,-0.006818056491173608,0.008268134507478916,0.9914909243991168
2012-03-12,0,0.0,0.0,-0.006818056491173608,0.0067173394977266855,0.9918380975422961
2012-03-14,1,0.0006573225234122675,0.0006628424274531337,-0.006818056491173608,0.00740227164617211,0.9919527745998729
2012-03-16,1,0.0012319739309053675,0.0013768181159750236,-0.006818056491173608,0.006318169465610195,0.9911105553572521
2012-03-20,0,0.0,0.0,-0.00778447833384561,0.00685678037166173,0.9898872678176519
2012-03-22,1,0.001759002250522587,0.001971911019584306,-0.007600448514133075,0.007942610715095966,0.9900478908669814
2012-03-26,1,0.0020158882037867687,0.0022012027574283303,-0.007698443167565833,0.0037419678035277336,0.9909006560218249
2012-03-28,0,0.0,0.0,-0.008128220076916442,0.006118024007188355,0.9905142415849495
2012-03-30,0,0.0,0.0,-0.008128220076916442,0.006118024007188355,0.990735574004624
2012-04-03,0,0.0,0.0,-0.005567166179900825,0.006118024007188355,0.9917197105715276
2012-04-05,0,0.0,0.0,-0.007764716133555982,0.006118024007188355,0.9909233871262224
2012-04-10,0,0.0,0.0,-0.007764716133555982,0.006182029234721137,0.9906844947750724
2012-04-12,0,0.0,0.0,-0.007764716133555982,0.006182029234721137,0.9902408416769671
2012-04-16,0,0.0,0.0,-0.006283581172295485,0.006182029234721137,0.9918319677348403
2012-04-18,0,0.0,0.0,-0.006267058512607745,0.006182029234721137,0.9930546478821526
2012-04-20,0,0.0,0.0,-0.006936661248256839,0.003274386822829413,0.9924914464637965
2012-04-24,-1,-0.0001697332413332245,-8.594462490539454e-05,-0.006887093269193622,0.004994130721188723,0.9925320145889769
2012-04-26,-1,-0.0006771658929640886,-0.0005937794287538124,-0.006267058512607745,0.004276197796740244,0.9937902606786214
2012-04-30,-1,-0.0010348240289204307,-0.0008920116363529064,-0.006887093269193622,0.004276197796740244,0.9931793273088442
2012-05-02,-1,-0.001055766889869027,-0.0009122777411256666,-0.006887093269193622,0.004994130721188723,0.9926702222620825
2012-05-04,-1,-0.0020405943255892307,-0.0017708363798500022,-0.006267058512607745,0.004994130721188723,0.9926205600602694
2012-05-08,-1,-0.0020490037015217723,-0.0016898734437812118,-0.004816524757258157,0.008509433133810012,0.991880268413936
2012-05-10,-1,-0.0016898508297395712,-0.0013705223938766543,-0.006887093269193622,0.005594209739598127,0.992464156411837
2012-05-14,-1,-0.0020331271076327487,-0.0017060293842958512,-0.0073917093755721894,0.008509433133810012,0.991099155261324
2012-05-16,-1,-0.001680744236982075,-0.0014176111224208279,-0.008877241017528351,0.009318915834598172,0.9904864036381915
2012-05-18,-1,-0.0022809498301147543,-0.0019666894560459378,-0.0008369066081937706,0.01002059537312985,0.9897304563336646
2012-05-22,-1,-0.002163138221396286,-0.0018405573276067933,-0.003655637460975962,0.01002059537312985,0.9899517834670766
2012-05-24,-1,-0.001680307645661354,-0.0014267072629470464,-0.007412886202022698,0.01002059537312985,0.9898870813224017
2012-05-29,-1,-0.0011783354011579079,-0.001001159371308743,-0.005337384607061755,0.009318915834598172,0.9909171109221221
2012-05-31,-1,-0.0004805405238116458,-0.00040062897272587954,-0.005337384607061755,0.011839453922012503,0.9903157307448796
2012-06-04,-1,-0.0008309093240370495,-0.0007280681295174383,-0.0027637211240329916,0.013956507732246989,0.989903425067894
2012-06-06,1,3.490543744949821e-05,4.841305806648413e-05,-0.005337384607061755,0.01301605290850677,0.9907933490030146
2012-06-08,-1,-0.0003626680768823315,-0.00031366415046499795,-0.005337384607061755,0.01301605290850677,0.9902407476116697
2012-06-12,1,0.00011851020899417947,0.0001865029580347513,-0.0027637211240329916,0.011529881811181746,0.9913425284148929
2012-06-14,1,0.0003130772304975711,0.00043181271596176026,-0.002404512395783332,0.011417610080267964,0.9920645441434015
2012-06-18,1,0.0010792878031297545,0.0012989387519476308,-0.0036679657933037903,0.01001610798180877,0.9925129389315257
2012-06-20,1,0.0006749579907906044,0.0008476598654268308,-0.0036679657933037903,0.01001610798180877,0.9927162555894116
2012-06-22,1,0.0011187404397466716,0.0013502873735117059,-0.005009746113822846,0.01001610798180877,0.9919162163076701
2012-06-26,1,0.0009091488457328949,0.0011233305153583056,-0.0069194358437248095,0.01001610798180877,0.9913417248548613
2012-06-28,1,0.0015312498009827956,0.0018034209155154335,-0.0069194358437248095,0.00915174701853366,0.9915118829543359
2012-07-02,1,0.0025312226228745884,0.0029495472347618604,-0.0069194358437248095,0.004956101961417747,0.9907209457563008
2012-07-05,1,0.00191695588554463,0.0021938474585390597,-0.009711761163362361,0.004956101961417747,0.9903782623355367
2012-07-09,0,0.0,0.0,-0.007175383184168438,0.00915174701853366,0.9911178561011363
2012-07-11,0,0.0,0.0,-0.009711761163362361,0.004705289562405316,0.9906607209857614
2012-07-13,1,0.0010320438008199683,0.001086816093436712,-0.009711761163362361,0.0009625043102074163,0.9909391626377871
2012-07-17,1,0.001647658967416209,0.001847637081034986,-0.009711761163362361,6.586509441501191e-05,0.9907243153896451
2012-07-19,0,0.0,0.0,-0.01159035730567215,6.586509441501191e-05,0.9908215857019169
2012-07-23,0,0.0,0.0,-0.008097517511016443,0.0009625043102074163,0.9918917183260043
2012-07-25,0,0.0,0.0,-0.007232099669111113,0.0034268405918047562,0.9921192968830235
2012-07-27,0,0.0,0.0,-0.007232099669111113,0.0030846094751148696,0.9928069183823787
2012-07-31,1,0.0013791841535885142,0.0015355271370000572,-0.008097517511016443,0.0019516451066364413,0.9931843518844513
2012-08-02,1,0.0007959549816397864,0.0008885726285749252,-0.004999692646753729,0.0033696573552092243,0.9938213109880653
2012-08-06,0,0.0,0.0,-0.004912468734449626,0.0041321440284957395,0.993937548268902
2012-08-08,0,0.0,0.0,-0.004912468734449626,0.005083764717873847,0.993533065582318
2012-08-10,0,0.0,0.0,-0.007232099669111113,0.005083764717873847,0.9927649454408592
2012-08-14,0,0.0,0.0,-0.0068903632725401,0.005083764717873847,0.992768890027366
2012-08-16,0,0.0,0.0,-0.0048587694082347236,0.005083764717873847,0.9925723341719302
2012-08-20,0,0.0,0.0,-0.0048587694082347236,0.008116836039458593,0.9916028275921716
2012-08-22,1,0.0010592115373263982,0.001328106998523335,-0.0048587694082347236,0.00696916966238373,0.9922525982419621
2012-08-24,0,0.0,0.0,-0.0048587694082347236,0.010261680328588901,0.9908047044434776
2012-08-28,0,0.0,0.0,-0.005570111084984645,0.010261680328588901,0.990691400288099
2012-08-30,0,0.0,0.0,-0.007113667678184635,0.009681718440770305,0.9906145771938285
2012-09-04,0,0.0,0.0,-0.007113667678184635,0.00811395728016584,0.991081619777588
2012-09-06,0,0.0,0.0,-0.005570111084984645,0.007640809258293493,0.9920191157259614
2012-09-10,1,0.0005152116852264209,0.0005614172754395132,-0.004027843080185011,0.007640809258293493,0.9925067153112171
2012-09-12,0,0.0,0.0,-0.004027843080185011,0.007640809258293493,0.9922970003066938
2012-09-14,0,0.0,0.0,-0.0027989612820658,0.007640809258293493,0.993273880764683
2012-09-18,0,0.0,0.0,-0.0027989612820658,0.008153619770797694,0.992971406214631
2012-09-20,1,0.00013215376745751332,0.00015260139938136282,-0.003172322521294506,0.008153619770797694,0.9929746782128539
2012-09-24,0,0.0,0.0,-0.005210645838913272,0.006742513675191005,0.9935581453852428
2012-09-26,0,0.0,0.0,-0.005739563376677039,0.006742513675191005,0.9935076251815574
2012-09-28,0,0.0,0.0,-0.005739563376677039,0.004693503738206984,0.9937264553505452
2012-10-02,0,0.0,0.0,-0.005739563376677039,0.004693503738206984,0.9921584219575469
2012-10-04,0,0.0,0.0,-0.006898506155064829,0.0038092370281720845,0.9917775805641296
2012-10-08,0,0.0,0.0,-0.006898506155064829,0.0037067426241781556,0.9916914858187114
2012-10-10,0,-6.955557702076131e-05,7.409530928871876e-05,-0.007529603247141285,0.0037067426241781556,0.9915568778376956
2012-10-12,1,5.042934629228581e-05,0.00016869103316928655,-0.009907398627562165,0.005270664329280533,0.9903993171390639
2012-10-16,1,0.0012759396607510585,0.0013115965224345313,-0.010164189180107568,0.003528759485937288,0.9910979178877002
2012-10-18,0,0.0,0.0,-0.010164189180107568,0.003534502100327104,0.9910068286441691
2012-10-22,0,0.0,0.0,-0.010164189180107568,0.0028953730034196857,0.9914798344167978
2012-10-24,0,0.0,0.0,-0.006977214809626571,0.005081195962260033,0.9916992420597548
2012-10-26,0,0.0,0.0,-0.005643124013730764,0.005081195962260033,0.9920460686623143
2012-11-01,0,0.0,0.0,-0.005643124013730764,0.00830292353396063,0.9928064634125237
2012-11-05,1,0.0005578472674880488,0.0005822739658647169,-0.000674772544086498,0.008490422044871895,0.9932230388815818
2012-11-07,1,0.0008407578872487824,0.0008430097694038415,-0.0023198003445027903,0.007829482243891487,0.9929335903954428
2012-11-09,1,0.0009073437690513418,0.0009615479496187509,-0.0023198003445027903,0.007829482243891487,0.9932034710735786
2012-11-13,0,0.0,0.0,-0.0023198003445027903,0.007829482243891487,0.9927837959556475
2012-11-15,0,0.0,0.0,-0.0006004891520251986,0.008682881636039847,0.9927022676152852
2012-11-19,0,0.0,0.0,-0.0006004891520251986,0.008434311690601999,0.9927276371371141
2012-11-21,0,0.0,0.0,-0.002096950168318892,0.008434311690601999,0.9924602085650387
2012-11-26,1,0.002465325836962516,0.0028127407799393017,-0.004480708220801139,0.007829482243891487,0.9932383029939309
2012-11-28,1,0.001861262627899527,0.0021167642637199675,-0.0045737885607681095,0.007829482243891487,0.9931051008992725
2012-11-30,1,0.0023603753766904176,0.0026498168848739516,-0.006144355957749171,0.007328483185740822,0.993313412953263
2012-12-04,1,0.0028858787572517792,0.0032616549454818613,-0.006144355957749171,0.007119058348476405,0.9932041577257514
2012-12-06,1,0.002839425350436249,0.003224277984620481,-0.0045737885607681095,0.006806290811704847,0.9939504381566112
2012-12-10,1,0.00257374823976441,0.0029285153103092492,-0.0037708892946533915,0.006806290811704847,0.9942587694681594
2012-12-12,0,0.0,0.0,-0.0024653246637801793,0.004247770324181462,0.9951426347285712
2012-12-14,0,0.0,0.0,-0.0024653246637801793,0.006806290811704847,0.9945143911388927
2012-12-18,1,0.0033230739980897655,0.003651933941130797,-0.0024653246637801793,0.006806290811704847,0.9944805106839566
2012-12-20,0,0.0,0.0,-0.0024653246637801793,0.007196840299908821,0.994392348881496
2012-12-24,0,0.0,0.0,-0.0015440786713358016,0.007538962893953611,0.9936780114955551
2012-12-27,1,0.0017426035765257825,0.0019310896100894728,-0.0015440786713358016,0.007538962893953611,0.9936307720356614
2012-12-31,1,0.002487473949649718,0.0027668329637794823,-0.0011966348909322414,0.007820203018099903,0.9941342606978143
2013-01-03,0,0.0,0.0,-0.0011966348909322414,0.00971534982070848,0.992694572754633
2013-01-07,0,0.0,0.0,-0.0021785543308296814,0.00971534982070848,0.9924060610241965
2013-01-09,0,0.0,0.0,-0.0022815930105578816,0.00971534982070848,0.9921971706437933
2013-01-11,0,0.0,0.0,-0.0032311885537526334,0.010338536540640911,0.9917321354748804
2013-01-15,0,0.0,0.0,-0.004709597455936321,0.007820203018099903,0.9925582186729082
2013-01-17,0,0.0,0.0,-0.004709597455936321,0.00572198815628202,0.9928436736137436
2013-01-22,0,0.0,0.0,-0.005159086409488819,0.0062926741919818955,0.9921562432305391
2013-01-24,0,0.0,0.0,-0.003877975090750165,0.0062926741919818955,0.9926159286326202
2013-01-28,0,0.0,0.0,-0.003877975090750165,0.008716966110736326,0.9922230984491514
2013-01-30,0,0.0,0.0,-0.003877975090750165,0.008803296832695316,0.9920714234159439
2013-02-01,0,0.0,0.0,-0.003000555701860774,0.008803296832695316,0.9924663527763709
2013-02-05,0,0.0,0.0,-0.0027766327070577277,0.008803296832695316,0.9930073367827382
2013-02-07,0,0.0,0.0,-0.003000555701860774,0.008803296832695316,0.9924673487005019
2013-02-11,1,0.0017170115112231522,0.001752544005623896,-0.003000555701860774,0.008350865001130359,0.9934949739835016
2013-02-13,1,0.0019159296237734969,0.001945541178512328,-0.00038639303817784864,0.008534066096548007,0.9936205489910304
2013-02-15,1,0.001648549887074187,0.0016608566571284873,-0.004120659738745997,0.008534066096548007,0.9926891385957144
2013-02-20,0,0.0,0.0,-0.00038639303817784864,0.008534066096548007,0.9914946774183636
2013-02-22,1,0.001206543233299396,0.0012103062112342965,-0.0017179288461603133,0.008350865001130359,0.9921174515604206
2013-02-26,1,0.0008541354610885818,0.0008976672043028334,0.0005555088902333026,0.008439729991763109,0.992458421776924
2013-02-28,0,0.0,0.0,0.0002615871953522376,0.008439729991763109,0.9919305672424621
2013-03-04,0,0.0,0.0,0.0002615871953522376,0.008439729991763109,0.9921051928451741
2013-03-06,1,0.0018924943761780078,0.0020024199125898007,-0.002176719038155738,0.008439729991763109,0.9921792942529868
2013-03-08,0,0.0,0.0,0.0004025788262348278,0.00924066101698081,0.9915889291235097
2013-03-12,0,0.0,0.0,0.0004025788262348278,0.00924066101698081,0.9911374739530912
2013-03-14,0,0.0,0.0,0.0004025788262348278,0.009816555603038292,0.9909740688610771
2013-03-18,1,0.0019558684652281827,0.002112509808687143,0.0020368869947936215,0.01156869960980031,0.9921314338139642
2013-03-20,1,0.002278580828333924,0.002461297532712733,0.0016519997119965708,0.009816555603038292,0.9938141097867798
2013-03-22,1,0.001578029714286219,0.001620699611369052,0.0025560276704040914,0.009816555603038292,0.9934552579297429
2013-03-26,1,0.0018198589232127234,0.0018704756534391102,0.0019462062507595848,0.0088856305907959,0.993825999054859
2013-03-28,1,0.002555803902149401,0.002742451229295103,0.00068850717959592,0.007550003006261333,0.9924191562589102
2013-04-02,1,0.0025924281267455775,0.002738509922167699,0.00018638253105257878,0.007550003006261333,0.9923730438503146
2013-04-04,1,0.002302300116503766,0.0024304942169226856,0.00018638253105257878,0.0088856305907959,0.9919398051635854
2013-04-08,1,0.002582529141051529,0.0027174092152775497,-0.0028851763740682743,0.007550003006261333,0.9918422466130908
2013-04-10,0,0.0,0.0,-0.0028851763740682743,0.0088856305907959,0.9912840204836515
2013-04-12,0,0.0,0.0,-0.0036126257567601983,0.007340634061537012,0.9918067735959664
2013-04-16,0,0.0,0.0,-0.005122023345505564,0.007340634061537012,0.9920059211819585
2013-04-18,0,0.0,0.0,-0.005196025591344591,0.005919899874416785,0.9918536474763461
2013-04-22,0,0.0,0.0,-0.005196025591344591,0.00383958542697578,0.9918402733694912
2013-04-24,0,0.0,0.0,-0.005122023345505564,0.00383958542697578,0.9920236452763231
2013-04-26,0,0.0,0.0,-0.0038837380308362817,0.0038552679984415255,0.9940557753345309
2013-04-30,0,0.0,0.0,-0.005122023345505564,0.0021878199735103484,0.9943622103581207
2013-05-02,1,0.0029865551178081,0.0030655182500514528,-0.005144383289715157,0.0021878199735103484,0.9930257033897925
2013-05-06,0,0.0,0.0,-0.0055884697014131485,0.0038552679984415255,0.9927997786617818
2013-05-08,0,0.0,0.0,-0.006652033643191831,0.0012331796467985748,0.9927735997683195
2013-05-10,0,0.0,0.0,-0.006652033643191831,0.0077687599571297115,0.991978078413541
2013-05-14,0,0.0,0.0,-0.006652033643191831,0.008277516551422243,0.991673126357929
2013-05-16,0,0.0,0.0,-0.0042616107608182035,0.008277516551422243,0.9917590240351554
2013-05-20,0,0.0,0.0,-0.0042616107608182035,0.008318577167522228,0.9916141731387044
2013-05-22,0,0.0,0.0,-0.006652033643191831,0.008318577167522228,0.9904184110096824
2013-05-24,0,0.0,0.0,-0.007230531937270119,0.008318577167522228,0.9898125942370478
2013-05-29,0,0.0,0.0,-0.006652033643191831,0.01157978313888526,0.9888820672150269
2013-05-31,0,0.0,0.0,-0.005681991713921504,0.009803630486676596,0.9894986259216
2013-06-04,0,0.0,0.0,-0.005681991713921504,0.007916509596278464,0.990426605431805
2013-06-06,0,0.0,0.0,-0.0033216251190881893,0.00874902776917386,0.9904316141301642
2013-06-10,0,-0.00016854307815163594,0.0,-0.003945359804721363,0.00874902776917386,0.990641994265919
2013-06-12,0,0.0,0.0,-0.003945359804721363,0.009912911550709416,0.9897038834579592
2013-06-14,0,0.0,0.0,-0.0037966903720472807,0.009912911550709416,0.9898357188792876
2013-06-18,0,0.0,0.0,-0.0037966903720472807,0.00874902776917386,0.9904698413302641
2013-06-20,-1,-0.0007884772517518945,-0.0004754811517426405,-0.0026107812418672705,0.008781534463520669,0.9913940263229019
2013-06-24,-1,-0.0011119657986202334,-0.0007728018587624645,-0.0026107812418672705,0.008781534463520669,0.9908734234823442
2013-06-26,0,0.0,0.0,-0.0028703496908048646,0.008781534463520669,0.9909534412680073
2013-06-28,0,0.0,0.0,-0.0028703496908048646,0.009292883098797252,0.9908557855234238
2013-07-02,0,0.0,0.0,-0.0026107812418672705,0.009292883098797252,0.9915696932843071
2013-07-05,0,0.0,0.0,-0.002737380693997381,0.0096834157216076,0.9915075422851911
2013-07-09,0,0.0,0.0,-0.002737380693997381,0.009172904304487948,0.9916973279926014
2013-07-11,0,0.0,0.0,-0.002737380693997381,0.008705035853820065,0.992813904294054
2013-07-15,0,0.0,0.0,-0.0034156874285494313,0.008705035853820065,0.9924081353197066
2013-07-17,-1,-0.0004092414871718461,-0.00027328790968726837,-0.0056486241528600325,0.008705035853820065,0.9921679179868713
2013-07-19,-1,-0.0005878685965215261,-0.0004073127253202848,-0.010005487690716946,0.004569423928873684,0.9915289143796795
2013-07-23,0,0.0,0.0,-0.006959375296488881,0.009172904304487948,0.9918281567649556
2013-07-25,0,0.0,0.0,-0.006354602480602117,0.0070049322314314905,0.992655016718261
2013-07-29,1,0.0008281083567942163,0.0009305238697568893,-0.006354602480602117,0.005822542758705678,0.9933230212199498
2013-07-31,0,0.0,0.0,-0.00721923866564825,0.005822542758705678,0.993034283115753
2013-08-02,0,0.0,0.0,-0.00721923866564825,0.003916964267163681,0.9933883004497212
2013-08-06,1,0.0017794531101894958,0.0019550090679222843,-0.00721923866564825,0.005822542758705678,0.9929734635742568
2013-08-08,1,0.0004588353015171253,0.0006958781677654623,-0.00721923866564825,0.003916964267163681,0.993895540828539
2013-08-12,0,0.0,0.0,-0.004672033139508735,0.006533916815746749,0.9936491988543916
2013-08-14,0,0.0,0.0,-0.001378133352121787,0.007472936311325801,0.9932329516734599
2013-08-16,0,0.0,0.0,-0.00025457434251954157,0.008831451166145976,0.9938215529652549
2013-08-20,-1,-0.0005609620750163033,-0.0003787633205190252,-0.0007778983153970576,0.008818018609437272,0.9939287671252313
2013-08-22,0,0.0,0.0,-0.0007778983153970576,0.010654007705989923,0.9936072064980177
2013-08-26,0,0.0,0.0,-0.0019620065879885516,0.010654007705989923,0.9930401141639797
2013-08-28,-1,-0.0005257864750750405,-0.00033609278663290754,-0.0013791621168794271,0.010654007705989923,0.9933669918551454
2013-08-30,-1,-0.0003396367328720488,-0.00019476591332805837,-0.0013791621168794271,0.010654007705989923,0.9935161965325613
2013-09-04,1,0.0008786449023250478,0.0009121992960496097,-0.0019520470301832495,0.010654007705989923,0.993374486293371
2013-09-06,1,0.0011702785265027948,0.0012719720606139645,-0.0029473014109615983,0.01134473357781753,0.9920406286711629
2013-09-10,1,0.0020063850950758017,0.002236839110741941,-0.005362021337593925,0.010654007705989923,0.9916426001813174
2013-09-12,1,0.002897043594753591,0.003273651484814178,-0.005362021337593925,0.010654007705989923,0.9914372344491299
2013-09-16,1,0.0029451492517620255,0.00330866475200695,-0.005362021337593925,0.008131872631644972,0.9918944721320412
2013-09-18,1,0.0020843456819394823,0.0022269270197035657,-0.0055661549333994465,0.008515383145217692,0.9916773347987438
2013-09-20,1,0.002353180380882231,0.0025600619509492154,-0.004549459086165388,0.008918548101721633,0.9920164255780718
2013-09-24,1,0.0020041396312267543,0.002190608195126428,-0.004549459086165388,0.008918548101721633,0.9920251409656254
2013-09-26,1,0.001865273722206945,0.0020099952824758813,-0.004549459086165388,0.012929214792448877,0.9915057450787581
2013-09-30,1,0.0019491021981248213,0.002128379429055891,-0.004549459086165388,0.012929214792448877,0.9912679939433727
2013-10-02,1,0.002378175562546208,0.00259769639525184,-0.0055661549333994465,0.010134095796635741,0.9916892803559124
2013-10-04,1,0.0024563342772636666,0.0026849461356305104,-0.0024800915968799095,0.010134095796635741,0.992436252448393
2013-10-08,1,0.0013765626755731517,0.0014332337460921715,-0.0008904156040316122,0.011194464336325587,0.9928994649637802
2013-10-10,1,0.0021288703383594123,0.0022972209671578577,-0.002111463896341535,0.00963561087956356,0.9933250761610577
2013-10-14,1,0.0022414014641060744,0.0024031530081279513,-0.002111463896341535,0.011194464336325587,0.9927689447915607
2013-10-16,1,0.002439528323628382,0.0026196756394474847,-0.0008904156040316122,0.00963561087956356,0.9937062939418391
2013-10-18,1,0.0025549191392737554,0.002718999014887184,-0.0008904156040316122,0.00962625093387085,0.9939130010903808
2013-10-22,1,0.001972876290540412,0.002057925225614649,-0.0012796215985235715,0.00962625093387085,0.9940129738442708
2013-10-24,1,0.0019711142493666926,0.0020130068955372857,-0.0012796215985235715,0.009222449697917958,0.9940995498783566
2013-10-28,1,0.0017652211275707196,0.001788776620746311,0.0003934715559819979,0.007418905911742868,0.9942667439705984
2013-10-30,1,0.0019927851725296893,0.002037162731605129,0.0008237766194757959,0.006573459854657048,0.9950279527668866
2013-11-01,1,0.0028168479578171276,0.0030068168667568515,-7.032945649379984e-05,0.0059069634351038265,0.9958046387608996
2013-11-05,1,0.0028961935754979002,0.0030965380679113547,-0.0021806839023836948,0.005256333685508137,0.9952041232845387
2013-11-07,1,0.002935291112798573,0.003170333829437295,-0.0021806839023836948,0.0059069634351038265,0.9946966972451994
2013-11-11,1,0.0028020852942974824,0.0029438905661217096,-0.004165370940032202,0.005256333685508137,0.9946814929804135
2013-11-13,1,0.002546664529489122,0.002622654655816819,-0.0045372645996620605,0.005256333685508137,0.9936860705705688
2013-11-15,1,0.0032491240089084555,0.00347057676474015,-0.004618519676816225,0.004903843378279033,0.9935042798538277
2013-11-19,1,0.0029435847538951416,0.003146402330988043,-0.0045372645996620605,0.005256333685508137,0.9933754276010021
2013-11-21,1,0.0027549826852697346,0.0028891520285901683,-0.0045372645996620605,0.0036809176866136515,0.9936256651012647
2013-11-25,1,0.003033003420005083,0.0032232033926011773,-0.0045372645996620605,0.0027984883135479593,0.9935625321045901
2013-11-27,1,0.0029286032681968993,0.00310946820017192,-0.0045372645996620605,0.0027984883135479593,0.9936171537153317
2013-12-02,1,0.0036113049947368876,0.003954079071504571,-0.0045372645996620605,0.0024981471084673888,0.9931236541795307
2013-12-04,1,0.0027421721082488883,0.002967818735709132,-0.002247414541405497,0.0024981471084673888,0.9944739495966323
2013-12-06,1,0.0030443741675755852,0.003310369824005607,-0.001989296689146959,0.0024981471084673888,0.9945957765836243
2013-12-10,1,0.002715970856847068,0.0029421832607615037,-0.001325437518836227,0.0027984883135479593,0.9953075491974507
2013-12-12,1,0.0017103350529385996,0.0017503222570362596,-0.001325437518836227,0.0027984883135479593,0.9957372272784512
2013-12-16,1,0.0012357468581203975,0.0012513248545188292,-0.0010660183246797553,0.0027984883135479593,0.9959779503303942
2013-12-18,1,0.0018570823746328548,0.0019437275829707282,-0.0009921666102356,0.0024981471084673888,0.9966979484383236
2013-12-20,1,0.001735513623153954,0.0017949058041206866,-0.0010660183246797553,0.0023162235242555626,0.996492968217652
2013-12-24,1,0.0017825920274364556,0.0018466631149444278,-0.003446067861556264,0.0011068912542278116,0.9942126767480922
2013-12-27,1,0.0017165852513931676,0.0017679916997890431,-0.004174249195700261,0.001141910565456406,0.9934235909935235
2013-12-31,1,0.001824330394058707,0.0019191594239568752,-0.0061158367263758435,0.001379990066829282,0.9928361972819757
2014-01-03,1,0.001150712412278601,0.0011748455626026965,-0.0071234011268320905,0.0011625358158249678,0.9915159548881648
2014-01-07,1,0.000981352310442223,0.0010525848195334117,-0.0071234011268320905,0.00021272401539137767,0.9918738086217859
2014-01-09,1,0.0006534217638160533,0.0008171467537981107,-0.0071234011268320905,0.00021272401539137767,0.9913448935585812
2014-01-13,1,0.0003437828015929675,0.0005221904768136214,-0.006605255945059952,0.002214744374877964,0.9911045442451293
2014-01-15,1,6.246651351834857e-05,0.00028763449392934517,-0.006605255945059952,0.0038938356860171953,0.9910857054685066
2014-01-17,0,-0.00019202303310792486,7.033853176838332e-05,-0.006605255945059952,0.007410314307264149,0.9907637126311901
2014-01-22,-1,-0.0007592270034498848,-0.000409677252088856,-0.006605255945059952,0.007410314307264149,0.9904970005538405
2014-01-24,-1,-0.002622439377719359,-0.00204692605272039,-0.004769005021328248,0.007410314307264149,0.9921373037648853
2014-01-28,-1,-0.0021056378111878075,-0.0016198449650608477,-0.004769005021328248,0.004921469512159042,0.992751496713714
2014-01-30,-1,-0.002224820948145284,-0.0017221454642103874,-0.003862066720601832,0.0030259720004531185,0.9933527204084709
2014-02-03,-1,-0.003376122620213291,-0.002771235963300417,-0.002831736733119766,0.004921469512159042,0.9934642196752675
2014-02-05,-1,-0.0033056392280837177,-0.002739910765307497,-0.0024031934019319956,0.004921469512159042,0.993249438385595
2014-02-07,-1,-0.0022041803420644332,-0.0017774090434932199,-0.0024031934019319956,0.0026891452298559867,0.9948966891838859
2014-02-11,-1,-0.0015604828318181822,-0.0012192924535635737,-0.0040364540317062705,0.0026397632664246244,0.9951840697519715
2014-02-13,-1,-0.0014109936457658463,-0.0010907268128848339,-0.0040364540317062705,0.002398496654032276,0.995330449565882
2014-02-18,-1,-0.0014525144883190567,-0.00110411963190591,-0.0040364540317062705,0.002398496654032276,0.9953739695816051
2014-02-20,-1,-0.0015833461854837159,-0.0012200334704847511,-0.005326862114760026,0.0021112521740612386,0.9950001343220535
2014-02-24,-1,-0.00164185919548713,-0.0012655372773075272,-0.0069487796093613335,0.001928296198751629,0.9938052083621481
2014-02-26,-1,-0.0015529880998784802,-0.0012144101740520533,-0.006302568954652875,0.0024315187852080667,0.9936640542673759
2014-02-28,-1,-0.001807572265377298,-0.001443185767403156,-0.008199635704429987,0.003005581428436865,0.9927575563649266
2014-03-04,-1,-0.0018800724289265562,-0.0014655199679246543,-0.008199635704429987,0.003921472523554255,0.9929735842122136
2014-03-06,-1,-0.001575316597673572,-0.0012284500938448204,-0.008199635704429987,0.003921472523554255,0.9927196944935524
2014-03-10,-1,-0.0012648567212167879,-0.0009692643597910238,-0.011098481925733952,0.003921472523554255,0.9919376321697969
2014-03-12,-1,-0.001944230619727008,-0.0015844932724204828,-0.00863479543362277,0.0045886959804711126,0.9916541157400749
2014-03-14,-1,-0.0017640922516740523,-0.0014484444345073252,-0.01140136073979492,0.0045886959804711126,0.9909203927390906
2014-03-18,-1,-0.001957185748000881,-0.0015938954855864397,-0.01140136073979492,0.0045886959804711126,0.9910169884119974
2014-03-20,-1,-0.002431286388426937,-0.002038550089971329,-0.01016215129452994,0.004983800336367308,0.9910930483512653
2014-03-24,-1,-0.003499742063072805,-0.002997047916569684,-0.006192677030814407,0.004983800336367308,0.9921074107575365
2014-03-26,-1,-0.003152296656955443,-0.002691650776837624,-0.006192677030814407,0.004983800336367308,0.9923958491414985
2014-03-28,-1,-0.002683388495568935,-0.002311470298526267,-0.006192677030814407,0.004983800336367308,0.9914942171013791
2014-04-01,-1,-0.0018751005731799035,-0.0016113897884818557,-0.006192677030814407,0.006101529179853958,0.9910736390584719
2014-04-03,-1,-0.001960561357580113,-0.0016838462791256632,-0.009374556881907775,0.006101529179853958,0.9909757849010382
2014-04-07,-1,-0.0023838390971652117,-0.002094980729355133,-0.00483430516427642,0.008849959521872418,0.9910514780873263
2014-04-09,-1,-0.0013675006256099061,-0.001208810698062738,-0.00483430516427642,0.006101529179853958,0.9922116542565248
2014-04-11,-1,-0.0018236505178623468,-0.001639699025708317,-0.004241604569936515,0.01024268730770022,0.9913165399060602
2014-04-15,-1,-0.0018893982103075405,-0.00168396600796411,-0.003702468795354666,0.01024268730770022,0.9911612030435161
2014-04-17,-1,-0.0012583797342345603,-0.0011518240990694504,-0.002514631164521536,0.010400901117902695,0.9911323839692765
2014-04-22,-1,-0.000987150984690899,-0.0009309223972818344,-0.002514631164521536,0.01222854714744751,0.99020800976062
2014-04-24,-1,-0.0007570722400655032,-0.0007330492569325769,-0.002514631164521536,0.012981317309140936,0.989347792292124
2014-04-28,-1,-0.0013359344378274579,-0.001258349206909112,0.0014826052664204227,0.012981317309140936,0.9903437499387436
2014-04-30,-1,-0.0006647175749014811,-0.000632334321005687,0.0014826052664204227,0.01222854714744751,0.9913802367582748
2014-05-02,-1,-0.0008575492364955146,-0.0008273822843548609,0.002127385091407142,0.01222854714744751,0.9918007778222397
2014-05-06,-1,-0.000638859788769817,-0.0006242824412491061,0.002127385091407142,0.010956462300986014,0.9923406777252081
2014-05-08,-1,-0.0011065145701846773,-0.0010137700289978018,0.002127385091407142,0.010956462300986014,0.9916178519248288
2014-05-12,1,0.00011925407809105132,0.00016835886857844714,-0.0014332454847661427,0.008454269990220644,0.9936800304340027
2014-05-14,1,0.0007728157256588836,0.0009447229525182107,-0.0017811051726973448,0.008454269990220644,0.9939037158399204
2014-05-16,1,0.0013590048335829726,0.0016154337342986385,-0.002560762473261729,0.007912865034102585,0.9942032074832237
2014-05-20,1,0.002185404048997629,0.0025609458126884537,-0.002560762473261729,0.005713273502100796,0.9949321717816817
2014-05-22,1,0.0029504378554592076,0.0034287368647735843,-0.002673910419784988,0.004505473871528863,0.9954056569592543
2014-05-27,1,0.0034381209017495112,0.003982464455711775,-0.002673910419784988,0.004020046143085706,0.9954818467542025
2014-05-29,1,0.003713504734076642,0.004281601970648844,-0.002673910419784988,0.0030524535452448173,0.9952536696591411
2014-06-02,1,0.003763294249192104,0.0043511374447574415,-0.0030669259565323176,0.0030524535452448173,0.9952315143573812
2014-06-04,1,0.004139362100837184,0.0048017826542120015,-0.0030669259565323176,0.0030524535452448173,0.9951465369062861
2014-06-06,1,0.00336976992137799,0.003906720730148188,-0.002488816171191041,0.0030524535452448173,0.9965174725927077
2014-06-10,1,0.003094937687053071,0.0035925712789063643,-0.0020276055923929117,0.0030524535452448173,0.9969958385738303
2014-06-12,1,0.0028029438321796867,0.003260269082913946,-0.0010960448586011667,0.0030524535452448173,0.997548847625829
2014-06-16,1,0.0027324161513962476,0.003171884236607984,-0.0010960448586011667,0.0027252534593735483,0.9974791938651063
2014-06-18,1,0.0020988235220363556,0.002364695648385299,-0.0020276055923929117,0.0025027553146560588,0.9975657939089707
2014-06-20,1,0.002257779180454168,0.0025555808330664,-0.002158610771308688,0.0025027553146560588,0.9973831907205527
2014-06-24,1,0.0024122439549893486,0.002728952489490342,-0.002158610771308688,0.0028925968404863163,0.9967738577717831
2014-06-26,1,0.001520287654306225,0.0016445201684019495,-0.002158610771308688,0.004456050966053373,0.9954411399313119
2014-06-30,1,0.0012788194235509246,0.0013536095729088586,-0.0010960448586011667,0.0046969632566006385,0.9952356811987869
2014-07-02,1,0.0017766134474623014,0.00196548905793774,-0.00218921528669081,0.0046969632566006385,0.9946480098222231
2014-07-07,1,0.0018571110054019934,0.0020821066230619386,-0.0010960448586011667,0.005178019784626219,0.9945666098476823
2014-07-09,1,0.0018513807800467589,0.0020815488558986184,-0.0038701463380899637,0.005178019784626219,0.993465143615179
2014-07-11,1,0.0019496237321469903,0.002206159661369866,-0.004652962536587763,0.005692144906646206,0.9926874415186068
2014-07-15,1,0.0017703484717563856,0.001997738126907469,-0.0038701463380899637,0.006141274648628147,0.9926571651913887
2014-07-17,1,0.0017496297345087884,0.0019769585945852625,-0.0017867771505251022,0.006278575439358669,0.992673100212723
2014-07-21,1,0.0016264147250240027,0.0018266993110570614,-0.0016380188315461856,0.006278575439358669,0.9927064396290964
2014-07-23,1,0.001986852743726636,0.0022209499471265207,-0.0016380188315461856,0.006141274648628147,0.9933054257399336
2014-07-25,1,0.003209384269251439,0.0036251526233882477,-0.00391110270636853,0.0053277296986202,0.9947137543633757
2014-07-29,1,0.003408071410715789,0.003845475206797037,-0.00391110270636853,0.00449880195582256,0.9946309616612451
2014-07-31,1,0.0031221009582990504,0.0035264763516882104,-0.00391110270636853,0.00470491192415265,0.9950429599874698
2014-08-04,1,0.003014820067540541,0.003362598932275864,-0.00391110270636853,0.004376821307481055,0.9946750623571301
2014-08-06,1,0.0021889955425334773,0.0024198426758680397,-0.0027253353645937534,0.004376821307481055,0.9959174357825367
2014-08-08,1,0.0019328806114470003,0.0021332771131939484,-0.0013418038372686619,0.004376821307481055,0.9964842568458648
2014-08-12,1,0.0016103669488130722,0.0017282241214672126,-0.0027253353645937534,0.004242418207389015,0.9963542450347177
2014-08-14,1,0.0012346022100803331,0.001241229077299202,-0.0033702776816939696,0.0036973066772032184,0.9960239194638145
2014-08-18,1,0.0012090448560413375,0.001219756008903835,-0.003267114492807524,0.0036797734487754937,0.9960522617439662
2014-08-20,1,0.001121403502218551,0.0011263742891525971,-0.003582445837232175,0.0036797734487754937,0.9955643916950593
2014-08-22,1,0.0011562546203930228,0.00117735578427913,-0.003267114492807524,0.0036797734487754937,0.9956227570409846
2014-08-26,1,0.0010314889578800029,0.0010350687123068648,-0.003582445837232175,0.003781120819952034,0.9949061324694214
2014-08-28,1,0.00036725947508715873,0.0004875304611849225,-0.003582445837232175,0.0029199313674463877,0.9950412118911404
2014-09-02,1,0.0007834104709402998,0.0008249551739317883,-0.004222441225967109,0.0027148387928488307,0.9951683654677477
2014-09-04,1,0.00026817073280438654,0.00041002496226008833,-0.004451423192393194,0.002622929562692126,0.9949449304949411
2014-09-08,1,0.0004978837010796094,0.0006215404481230332,-0.004826021786964645,0.002622929562692126,0.994567648707127
2014-09-10,1,0.00029390806006101075,0.0004413431018584388,-0.005551762703107643,0.0029128118930330338,0.9933618940221389
2014-09-12,-1,-0.00027565048650470523,-5.13763480263521e-05,-0.005551762703107643,0.0029128118930330338,0.9934217451614148
2014-09-16,-1,-0.000394202791482664,-0.00015651523215087684,-0.00716621663912255,0.00399435995284453,0.992596809634882
2014-09-18,-1,-0.0010185217494851485,-0.0006693621758913288,-0.007908589317211227,0.002622929562692126,0.9925550329018406
2014-09-22,-1,-0.0006369407431217614,-0.0003765439000386544,-0.007908589317211227,0.004638519036404996,0.9918715043930632
2014-09-24,-1,-0.0007107437430648488,-0.00041859416033274046,-0.007908589317211227,0.004638519036404996,0.9921622087705456
2014-09-26,-1,-0.0009956172360153915,-0.0006777070214344249,-0.007908589317211227,0.010639520566446299,0.991408208319779
2014-09-30,-1,-0.0013843816200314815,-0.0009992721631304309,-0.007908589317211227,0.010867898598866907,0.9908081636963415
2014-10-02,-1,-0.0010276288111881024,-0.000738869746468553,-0.005552827402135904,0.011515089125440602,0.9880136120185949
2014-10-06,-1,-0.0007357013144862125,-0.0004898503030474584,-0.005451303530355086,0.011934392054830637,0.987679334478831
2014-10-08,-1,-0.0004327236407542938,-0.00023963074935090306,-0.004385440105524065,0.011908976056328464,0.988329862836125
2014-10-10,-1,-0.000546671017112361,-0.00037039894572919995,-0.004628501010953681,0.011908976056328464,0.9883061442190103
2014-10-14,-1,-0.00031058601063844164,-0.00019447569575041312,-0.004385440105524065,0.012185703821108887,0.988817362461337
2014-10-16,-1,-0.0007649845815620125,-0.0006164245252883705,0.0008800337596874495,0.012185703821108887,0.9889043479713098
2014-10-20,-1,-0.0003757938987519445,-0.00029002649165451547,0.0008800337596874495,0.012185703821108887,0.9896179249182702
2014-10-22,1,3.875148670819666e-05,7.892137069218463e-05,0.00014580661769464463,0.010960141187127046,0.9899164202598907
2014-10-24,1,0.0007186171134218303,0.0007714948591192491,-0.0031820829814857804,0.009477855344513189,0.9908475846414868
2014-10-28,1,0.0008927744478029153,0.0009390474177893422,-0.0031820829814857804,0.009477855344513189,0.9908802918321177
2014-10-30,1,0.0024909527744627425,0.00273312816175672,-0.0031820829814857804,0.009317030415488863,0.993714360127676
2014-11-03,1,0.002863297544190842,0.003136654727681068,-0.0031820829814857804,0.009317030415488863,0.9938598733890515
2014-11-05,1,0.0030072324785155626,0.0032933990113701832,-0.0026115203882951304,0.008537184180338057,0.9944224959098441
2014-11-07,1,0.0026004342561235243,0.0028403716399439858,-0.0019264868186387903,0.008537184180338057,0.9953221302706152
2014-11-11,1,0.0028133378417190876,0.0030795909811475093,-0.0026115203882951304,0.005234698532854581,0.9945817967873817
2014-11-13,1,0.002927131584456202,0.0032125883605841105,-0.0032803929985246003,0.004953255277887892,0.9931707291200359
2014-11-17,1,0.0027456066580486263,0.003005336079793002,-0.004752127371848234,0.004953255277887892,0.992419157955788
2014-11-19,1,0.0026626807201339826,0.0029033005898782627,-0.0035661862318406698,0.008626929200171074,0.9923597252232166
2014-11-21,1,0.0024198073770360542,0.0026298183095642184,-0.002706784799400487,0.008626929200171074,0.9928316831456112
2014-11-25,1,0.002716810938442478,0.002957991563519828,-0.0036600929392998785,0.00527423922349695,0.9930016124112672
2014-11-28,1,0.002752308304925067,0.0029902561269471717,-0.0036600929392998785,0.003942284871753943,0.993365562681815
2014-12-02,1,0.0028491118998836577,0.0030927613924141483,-0.0052223277372326704,0.0030758976331966463,0.992996029117431
2014-12-04,1,0.0026006739397326697,0.002796707691577075,-0.006369934754510523,0.003444442075913412,0.9928374753541247
2014-12-08,1,0.002583172004303796,0.0027689672710170645,-0.006369934754510523,0.0046524128865650365,0.9919111163259424
2014-12-10,1,0.00192547107421287,0.0020182685078398385,-0.004278747082694002,0.006085064718374069,0.9927241365114781
2014-12-12,1,0.0020287920740771626,0.002156527988003593,-0.004278747082694002,0.006049477290672468,0.9929802912367162
2014-12-16,1,0.0021557162135518284,0.002344242978802105,-0.004278747082694002,0.006049477290672468,0.9934528647821477
2014-12-18,1,0.00282573834837579,0.0031146778393204917,-0.004278747082694002,0.005130533685848288,0.9936727736436987
2014-12-22,1,0.0027561991033954163,0.003012655449698858,-0.004278747082694002,0.006049477290672468,0.9931283665840758
2014-12-24,1,0.002687945547720385,0.0029491338301637633,-0.0016917928820594686,0.008052689437037389,0.9929882715509454
2014-12-29,1,0.0021759441099701987,0.0023207795766580224,-0.0007925860842890485,0.008052689437037389,0.9928730420625174
2014-12-31,1,0.00134528559843133,0.0013638824779430574,8.449553440205873e-05,0.008052689437037389,0.9926668711874852
2015-01-05,1,0.0011029318892597283,0.0011119433491221394,0.0006018408524560132,0.008052689437037389,0.992970808634829
2015-01-07,1,0.0018503318770352647,0.0019516920054844888,0.0006018408524560132,0.006572349792333766,0.9941436536265039
2015-01-09,1,0.0019903752450099277,0.0021032402964517556,8.449553440205873e-05,0.006436796524003906,0.9934277638322759
2015-01-13,1,0.001448915295986012,0.0014914450741827536,0.0006018408524560132,0.00823941083470767,0.9932775909633476
2015-01-15,1,0.0011733977066363521,0.0011812378337517366,0.0009716224749862217,0.011069274864130757,0.9931163900813058
2015-01-20,1,0.0013735359981957513,0.0013865800497517929,0.0009716224749862217,0.008209268954851662,0.9936402058383409
2015-01-22,1,0.0017241103085856562,0.001777122603195405,0.0009716224749862217,0.007850241080005734,0.9940689856922316
2015-01-26,1,0.0021562691991323917,0.002267920402179348,0.0009716224749862217,0.007361622288556526,0.9946744554151244
2015-01-28,1,0.0021567280832012863,0.0022650283302109333,0.0009381645875817008,0.007361622288556526,0.9945662699395723
2015-01-30,1,0.0017557441274154099,0.0018266943285391317,0.0017957062754276095,0.007361622288556526,0.9949788651806758
2015-02-03,1,0.0016851533972108248,0.0017304780239306976,0.0016818090964604386,0.007361622288556526,0.9948902295744002
2015-02-05,1,0.001532702093737654,0.0015357606000032157,0.00030187089013983715,0.007361622288556526,0.9942626307305588
2015-02-09,1,0.001010886795466744,0.001079295802197256,0.00030187089013983715,0.008137165110543413,0.9944926951768056
2015-02-11,1,0.0018099452859137591,0.0018320778052350424,0.00030187089013983715,0.007946640065796921,0.9952154036422882
2015-02-13,1,0.0020967847764635297,0.0021439709802099404,0.00030187089013983715,0.007946640065796921,0.9938926403574103
2015-02-18,1,0.00206545832035797,0.0021248865677634086,0.0010141316862365799,0.00903144635065156,0.9934950119322981
2015-02-20,1,0.002100139481536262,0.0021384509957703183,0.0010141316862365799,0.009055707245444166,0.9933609272839764
2015-02-24,1,0.0021071938549776714,0.002132954565813625,0.0010141316862365799,0.009055707245444166,0.9936011533639404
2015-02-26,1,0.0017240206099627406,0.0017648066822010312,-0.0004799077343468106,0.009055707245444166,0.9928499153656636
2015-03-02,1,0.0016205249672293866,0.0016682843731331302,0.0010481409719480478,0.009728448163408924,0.9926486229669099
2015-03-04,1,0.001501066927533206,0.0015598712450331357,0.0010481409719480478,0.009728448163408924,0.9920586577573036
2015-03-06,1,0.0005849124097357037,0.0007808214227253822,0.0015231971307428356,0.009728448163408924,0.9922584198244906
2015-03-10,1,0.00042659820461945683,0.0006599426555609072,0.0015231971307428356,0.009055707245444166,0.9926356152108597
2015-03-12,1,0.00046620087281110806,0.0007426029254928402,0.0015231971307428356,0.007905213830994734,0.9929393291358046
2015-03-16,1,0.0017317872644341654,0.0018669734364481336,0.0009549339582141168,0.005226918672809172,0.994898427547264
2015-03-18,1,0.002113478324461434,0.0021927945461773977,-4.566531034774645e-05,0.003652523937908048,0.995109215892975
2015-03-20,1,0.0026463442133005345,0.0026536421236310827,-0.0011677511466036002,0.0027911353504817267,0.9946717259371233
2015-03-24,1,0.0026616388564520295,0.002694230550792273,-0.0013601634995428476,0.003652523937908048,0.9944063438733179
2015-03-26,1,0.002977493184218732,0.003152122698061689,-0.00010980276132749557,0.005014987212999093,0.9949231893204551
2015-03-30,1,0.0035388561390203846,0.0038184418879034527,-0.0018192281409695574,0.003652523937908048,0.9940602181452268
2015-04-01,1,0.002719016814788331,0.002921044000553856,-0.0018192281409695574,0.005014987212999093,0.9938689940622586
2015-04-06,1,0.0022389292613928012,0.002364950614700359,-0.0018192281409695574,0.005258939194483298,0.9938895222828728
2015-04-08,1,0.0023909758718347078,0.0025492868174929718,-0.004974137601804375,0.005258939194483298,0.9933081014946998
2015-04-10,1,0.0028244530167368304,0.003052245539653328,-0.004974137601804375,0.005258939194483298,0.9933349549207352
2015-04-14,1,0.0023345437600164535,0.0024885971543562122,-0.0037299215151197374,0.005258939194483298,0.9939576126273523
2015-04-16,1,0.0021765093961179085,0.0023063641341340853,-0.004974137601804375,0.005258939194483298,0.9938005242542681
2015-04-20,1,0.0017849389342855016,0.0018437756960797231,-0.004974137601804375,0.0037582460675453597,0.9938266566111532
2015-04-22,1,0.001978266069056183,0.00208243436655632,-0.004974137601804375,0.0037582460675453597,0.9931910013972942
2015-04-24,1,0.0023015313559378546,0.0024510560361191112,-0.0058145522744281215,0.0028215075496295684,0.9929978567627454
2015-04-28,1,0.0019291790671365772,0.0020396187018064888,-0.0058145522744281215,0.0036675102987725446,0.9933809207874041
2015-04-30,1,0.0018261990130784991,0.0019152749700818744,-0.00497585001343158,0.0028215075496295684,0.9942432526962092
2015-05-04,1,0.001958751351559242,0.0020683384484149695,-0.0058145522744281215,0.0017011574696468657,0.9937541037791482
2015-05-06,1,0.0012875792906383561,0.0013034726844141375,-0.0065673160726734715,0.0017011574696468657,0.9941484829720993
2015-05-08,1,0.0014914359446668195,0.0014978670444850772,-0.006756112304107604,0.0003718698393673586,0.9938640429434844
2015-05-12,1,0.0008812514175432452,0.000994792680450707,-0.006922574554371746,-0.0006443975573400874,0.9936761293665021
2015-05-14,1,0.0009198208031830268,0.0010055845794332166,-0.006922574554371746,-0.0006443975573400874,0.9932599173047068
2015-05-18,1,0.0004594569440396112,0.000596111863959957,-0.006756112304107604,0.004511130008989341,0.9937750420870002
2015-05-20,1,0.000554679286839489,0.0006927786058246354,-0.006756112304107604,0.003846987280402216,0.9944327218979786
2015-05-22,1,7.939303320817338e-05,0.00027755305561668285,-0.005302607527211709,0.003846987280402216,0.9946680325534812
2015-05-27,-1,-0.0005003332657652441,-0.00020459267102283275,-0.005302607527211709,0.0031453233112437437,0.9944022330533255
2015-05-29,-1,-0.0011510209691530406,-0.0007561694310382653,-0.007144987003685892,0.0031453233112437437,0.9938583243668603
2015-06-02,-1,-0.0009083121879577916,-0.0005764961027788895,-0.008434671543479145,0.002895087636151525,0.9935727366467648
2015-06-04,-1,-0.0011623002999881949,-0.0008159120998862474,-0.006742527256926283,0.0031453233112437437,0.9930005364766182
2015-06-08,-1,-0.0020331444672684815,-0.0015522450568777818,-0.00443136667317399,0.004511130008989341,0.9926747226443302
2015-06-10,-1,-0.0025709777371523005,-0.0020296795454234516,-0.00443136667317399,0.00511716549261262,0.9921753181483501
2015-06-12,-1,-0.002098454345572767,-0.0016285074585171558,-0.00443136667317399,0.00552223891260174,0.9924061642196306
2015-06-16,-1,-0.0016267320645088645,-0.0012372118857590492,-0.00443136667317399,0.00552223891260174,0.9927950703349303
2015-06-18,-1,-0.0012828839534825007,-0.000952668536775119,-0.00443136667317399,0.006350482297191089,0.9920377838055624
2015-06-22,-1,-0.0014126857361841068,-0.0010648954696620616,-0.005685311916217216,0.00890062257794121,0.9913762235799164
2015-06-24,-1,-0.0023276743028740983,-0.0018558148615583354,-0.005685311916217216,0.00890062257794121,0.9896470192331346
2015-06-26,-1,-0.002544922735398033,-0.0020717334981240716,-0.006154474995430503,0.00890062257794121,0.989569064778622
2015-06-30,-1,-0.0028478609088645,-0.002348617881758085,-0.005685311916217216,0.00890062257794121,0.9899370196139946
2015-07-02,-1,-0.003044598249863758,-0.0024988796366336875,-0.006154474995430503,0.00890062257794121,0.988694333537231
2015-07-07,-1,-0.0021732593125633006,-0.0017721465041349552,-0.006154474995430503,0.007975209557728286,0.9894281965411027
2015-07-09,-1,-0.001918239418197669,-0.001566385368672476,-0.007440386623213321,0.008035176843927327,0.9886892302296572
2015-07-13,-1,-0.001710706658327889,-0.0013794084757252478,-0.007440386623213321,0.008035176843927327,0.9891211629994238
2015-07-15,-1,-0.0014369929894615138,-0.0011542697020436865,-0.007440386623213321,0.008035176843927327,0.9894766409165809
2015-07-17,-1,-0.0006710311807167697,-0.0004887055986827556,-0.007440386623213321,0.004231007206362089,0.9904010653676087
2015-07-21,-1,-0.000539741488160294,-0.000369481833873452,-0.006719655534240594,0.004231007206362089,0.9908214647000809
2015-07-23,-1,-0.0015867729447797945,-0.0012938411896149062,-0.006719655534240594,0.004231007206362089,0.9914404209409444
2015-07-27,-1,-0.002745768554634616,-0.0023001645409557155,-0.0073896812842978625,0.004231007206362089,0.9901557167491101
2015-07-29,-1,-0.0019206581016787056,-0.001600065812688504,-0.012322324096177631,0.004399683118162877,0.9885250580892107
2015-07-31,-1,-0.002352181570107942,-0.001984379153544922,-0.006434404088184065,0.00410594064196281,0.9901730314402554
2015-08-04,-1,-0.0019866258377099185,-0.0016857630517347149,-0.009013084777865976,0.003707480020697587,0.990003708392377
2015-08-06,-1,-0.0015207638487379663,-0.001326908730905403,-0.007829830585728935,0.003707480020697587,0.9909361333604899
2015-08-10,-1,-0.0012852456370159465,-0.0011346262580303273,-0.008696328393426225,0.005661011259138372,0.9896979396316602
2015-08-12,-1,-0.0010672138411621538,-0.0009586273812486965,-0.008696328393426225,0.007450252528408186,0.9889004750685682
2015-08-14,-1,-0.0011471484203884597,-0.001036434130950021,-0.008696328393426225,0.01046540961834963,0.987828456867049
2015-08-18,-1,-0.0010602351944961732,-0.0009441898670703852,-0.008696328393426225,0.01046540961834963,0.9875285949008622
2015-08-20,-1,-0.0011619375429430354,-0.001048008440297298,-0.007829830585728935,0.009282209437863028,0.9888193065917491
2015-08-24,-1,-0.002234470344670138,-0.001984339228626509,-0.007704861701203038,0.009282209437863028,0.9898922543753541
2015-08-26,-1,-0.0016611077761489934,-0.00148520832093313,-0.007704861701203038,0.007432859667042478,0.9915579164944077
2015-08-28,-1,-0.001545402030450787,-0.0013930825637536856,-0.00823803788616051,0.007432859667042478,0.9892589276661617
2015-09-01,-1,-0.0016392199080182141,-0.0015010165251355565,-0.008725149840507682,0.007432859667042478,0.9893504100681231
2015-09-03,-1,-0.00155263466247656,-0.0014147975585696536,-0.008725149840507682,0.005186389334723073,0.9895219452622781
2015-09-08,-1,-0.0012384968541804958,-0.0011391089611793416,-0.009163028793293625,0.004326781567336603,0.9899354758118163
2015-09-10,-1,-0.001032016987386543,-0.0009539919314334221,-0.009163028793293625,0.004326781567336603,0.99030767064759
2015-09-14,-1,-0.00027038108597864406,-0.0002483907531270879,-0.009163028793293625,0.004326781567336603,0.9906073693668693
2015-09-16,1,0.000308141429269656,0.0004281801209790112,-0.011862637820156199,0.0016902251120108746,0.9903996440691534
2015-09-18,1,0.0001581001776990881,0.00024245619569079674,-0.011862637820156199,0.004321313827002758,0.989946936984047
2015-09-22,-1,-0.0003907703857044981,-0.00036445872288123535,-0.011862637820156199,0.004321313827002758,0.9904325998056267
2015-09-24,-1,-0.0005171588515842034,-0.0004912798848772799,-0.011862637820156199,0.004321313827002758,0.9907451419217598
2015-09-28,-1,-0.00214771467483643,-0.001969659381818328,-0.005660708573233333,0.00478331340355863,0.9928603163908699
2015-09-30,-1,-0.002311766194835499,-0.002140155229216358,-0.005046290113519777,0.0056405698949083555,0.9911182528055955
2015-10-02,-1,-0.0021861858223295293,-0.002030997889868733,-0.005526600982980141,0.0056405698949083555,0.9913125484548274
2015-10-06,-1,-0.002617359602998094,-0.0024107450248742604,-0.003662347935930374,0.007211502488702117,0.9914695973407739
2015-10-08,-1,-0.002476056448705041,-0.002274774623376958,-0.003662347935930374,0.006396311049847055,0.9916666217852942
2015-10-12,-1,-0.002005952364523966,-0.0018818004115917024,-0.0029457039043348154,0.00478331340355863,0.9925320607230631
2015-10-14,-1,-0.0022103982261586423,-0.002058009800695401,-0.0029457039043348154,0.006657643346365004,0.9922694108662105
2015-10-16,-1,-0.0014313045001940253,-0.0013721944651688017,-0.0037375846856557908,0.0037442287426917003,0.9927985956717089
2015-10-20,-1,-0.0020177655200843245,-0.0018825209514886545,-0.003226871516976351,0.005864311362860866,0.9921992616306169
2015-10-22,-1,-0.0020023179246180453,-0.0018747599466850066,-0.003226871516976351,0.008386896898324376,0.9913777802977257
2015-10-26,-1,-0.001724117136625106,-0.0016216765116907972,-0.0034099695019548077,0.008386896898324376,0.9918558999918933
2015-10-28,-1,-0.000579820356824144,-0.0005585838881494541,-0.0034099695019548077,0.0051117958001937296,0.9934378471534667
2015-10-30,-1,-0.0009868096965291234,-0.0009413870255790184,-0.0033605050349443475,0.0051117958001937296,0.993765201783121
2015-11-03,-1,-0.00034645866893539434,-0.00029005412494307074,-0.003585159806682545,0.0051117958001937296,0.9936510660219877
2015-11-05,0,-6.356385256138227e-05,4.8651461785661067e-05,-0.003585159806682545,0.00769269011138042,0.9932714282663506
2015-11-09,0,-1.5739489921056489e-06,0.00013350433953043767,-0.003585159806682545,0.00769269011138042,0.9932451782032425
2015-11-11,1,0.0003058798666468757,0.0004842591375628255,-0.0033605050349443475,0.00769269011138042,0.9936392690380471
2015-11-13,-1,-0.0003044271071169926,-0.0002354015972897717,-0.0016446157787077574,0.00769269011138042,0.9940120985943898
2015-11-17,1,0.00023650511745334493,0.00035505070717126554,-0.0026311385805364903,0.004531447592635327,0.995009986637124
2015-11-19,1,9.846592123230707e-05,0.0001789587341124284,-0.0026311385805364903,0.004531447592635327,0.9955088546438827
2015-11-23,1,0.00013530078280887695,0.00023446039202407583,-0.0016446157787077574,0.005521373165024763,0.9951643889185581
2015-11-25,1,0.0004512899232747568,0.0006170406294583815,-0.001091650933285476,0.007427227019215849,0.9952616403156738
2015-11-30,1,0.0004773308381826513,0.0006540260433366152,-0.0001737428402139707,0.007427227019215849,0.9951408917812887
2015-12-02,1,0.0007656759656425031,0.001001385261149579,-0.0001737428402139707,0.006020677115305549,0.9953120416596085
2015-12-04,1,0.0011801022499785354,0.0014801358738693714,-0.0001737428402139707,0.006020677115305549,0.9945452119253185
2015-12-08,1,0.0016987955185930094,0.0021034046639546704,-0.005419281414606734,0.006020677115305549,0.9923983326549013
2015-12-10,1,0.0022827494061522613,0.002781459623769886,-0.00926296426143703,0.0046978822427289225,0.9904266802684419
2015-12-14,1,0.0021199094524135646,0.0025525108455384375,-0.01140046834601477,0.003359826765994286,0.9898923741572585
2015-12-16,1,0.001573139497279483,0.0018951056783564168,-0.01140046834601477,0.005731824094696741,0.9898029080533548
2015-12-18,1,0.0017434282549373562,0.0020956305287550573,-0.013176942580892715,0.003359826765994286,0.9891992933095922
2015-12-22,1,0.0017712777475011629,0.002094495210970949,-0.013176942580892715,0.002976562579655371,0.9891884093072102
2015-12-24,1,0.002034219498230062,0.0023991709453354045,-0.013176942580892715,0.0025313835140937818,0.9893349090125542
2015-12-29,1,0.002003284928738248,0.0023410661373994535,-0.015895311341189915,0.0015534028187236186,0.9871294899488678
2015-12-31,1,0.0018201107327930057,0.002135682583275231,-0.015895311341189915,0.0016986070065766298,0.9863685362511428
2016-01-05,1,0.0017085570945627967,0.002005506210163227,-0.012697353318826458,0.0002368240286347371,0.9872452935009359
2016-01-07,1,0.00033034741467212974,0.00042545531946778565,-0.01124060525865935,0.0016986070065766298,0.9881434495902551
2016-01-11,-1,-0.0004739068229598683,-0.0004705426883886806,-0.01124060525865935,0.0031138590752408674,0.9892997725037115
2016-01-13,-1,-0.0008185797370567377,-0.0007662964115790852,-0.011942329955765149,0.00385276413597856,0.9888985605789803
2016-01-15,-1,-0.0018122899852865346,-0.0015911251656496052,-0.011942329955765149,0.00385276413597856,0.9891840488164563
2016-01-20,-1,-0.001941755092145324,-0.0017356356307317953,-0.010205780983088239,0.006068154385075098,0.9884636021463346
2016-01-22,-1,-0.0017796961049432703,-0.0015985535317937516,-0.010205780983088239,0.009934828501452386,0.9881387380989591
2016-01-26,-1,-0.0019248121309277779,-0.0017080794654871882,-0.010205780983088239,0.009934828501452386,0.9882843951719649
2016-01-28,-1,-0.0029799866465371767,-0.002653037572964809,-0.0069755357668105184,0.009934828501452386,0.9896708786008117
2016-02-01,-1,-0.002188837804938298,-0.0019727037863436097,-0.009273619597811639,0.009489189922149218,0.9903677825264782
2016-02-03,-1,-0.0022242020255414004,-0.0020208870664405712,-0.0052791080653087465,0.009489189922149218,0.990087929884811
2016-02-05,-1,-0.002620251429153822,-0.0024083797557040605,-0.003315946274734397,0.009489189922149218,0.9919666801165066
2016-02-09,-1,-0.0021314693277847963,-0.0020036862694979723,-0.0031127792870865663,0.007387464802205686,0.9932728797799871
2016-02-11,-1,-0.002053678445032668,-0.001939849935110463,-0.0031127792870865663,0.007387464802205686,0.9916703244947769
2016-02-16,-1,-0.001971956494388186,-0.001836738241254584,-0.0052791080653087465,0.006161836206457379,0.9908925371278365
2016-02-18,-1,-0.001688313639348074,-0.0015740504750067796,-0.0056205106382007895,0.006161836206457379,0.9912998739950648
2016-02-22,-1,-0.0020969860704634904,-0.0018589390705194965,-0.005628103172028407,0.006161836206457379,0.99101673126505
2016-02-24,-1,-0.0024374067262046975,-0.002145385708484291,-0.005628103172028407,0.006161836206457379,0.9908939444545679
2016-02-26,-1,-0.002158974245819594,-0.0019005187812044144,-0.01103323115480239,0.004381424904814531,0.9905673171866766
2016-03-01,-1,-0.0023716183400807715,-0.002066010084014385,-0.006151873973579551,0.004381424904814531,0.9910006293725094
2016-03-03,-1,-0.0020235159140851566,-0.001766455189130321,-0.0078014399618530645,0.0018458746776388083,0.9913563172027965
2016-03-07,-1,-0.0019685674177784777,-0.001721774532216573,-0.012870205779093261,0.004576599946785531,0.9903324707778561
2016-03-09,-1,-0.0022060182801259785,-0.0019237694389420855,-0.012870205779093261,0.0075734032651793536,0.9888926903207568
2016-03-11,-1,-0.0012285104016049697,-0.001088818331333737,-0.012870205779093261,0.004576599946785531,0.9904529522739577
2016-03-15,-1,-0.002431408865957802,-0.0021282808709081045,-0.010088897969698621,0.005964133029288827,0.9914581792257272
2016-03-17,-1,-0.002611330081899805,-0.0022832776824366846,-0.0071634330536392565,0.0075734032651793536,0.9907758018273016
2016-03-21,-1,-0.0020769336867196963,-0.0018238285695528406,-0.0071634330536392565,0.008154995563578883,0.9908737998618222
2016-03-23,-1,-0.0012166984604847773,-0.0011171600406256503,-0.0071634330536392565,0.009383678926370756,0.9899105423532162
2016-03-28,-1,-0.0015187902517863996,-0.0013743151320114357,-0.0046516134038688105,0.009383678926370756,0.9903798433856191
2016-03-30,-1,-0.001079522390162476,-0.0010042975869194097,-0.006403150802399,0.009383678926370756,0.9905967389484134
2016-04-01,-1,-0.0012088457581631066,-0.0011282347035132664,-0.010088897969698621,0.009383678926370756,0.9879453956256854
2016-04-05,-1,-0.0014540020689634775,-0.001341189482452022,-0.007771669172879821,0.009383678926370756,0.9887740069093608
2016-04-07,-1,-0.0009412755272218956,-0.0009073385222158445,-0.011128886357682156,0.006426118192269556,0.9861438744523632
2016-04-11,-1,-0.0015143071871614115,-0.0013823213706513318,-0.008738893474667293,0.009383678926370756,0.9857904559056656
2016-04-13,-1,-0.0008455195760692484,-0.0008254735418764126,-0.012478770393021414,0.009383678926370756,0.9854204537895204
2016-04-15,0,-7.845202307367845e-05,4.335678566149564e-06,-0.014185360249718502,0.0018790638204109855,0.9855775927537492
2016-04-19,1,0.0003374733859978181,0.00047242315080830305,-0.014185360249718502,0.0008719339805434474,0.9856902876159849
2016-04-21,1,0.0009679994735255304,0.0011909457859873654,-0.014185360249718502,0.0008719339805434474,0.9862482423983976
2016-04-25,1,0.0009028176183657917,0.0011149936151432943,-0.014185360249718502,-0.0002213555166267118,0.985726985592335
2016-04-27,1,0.0007700790867089119,0.0009691276405461556,-0.014185360249718502,0.0018790638204109855,0.9858871803460227
2016-04-29,-1,-0.0003492344069271918,-0.0002811036381140772,-0.012232324611234094,0.003353397851288868,0.9888230679349004
2016-05-03,0,-8.909221614506271e-05,2.5377615931614886e-05,-0.012232324611234094,0.0061369904451016805,0.9879228686970322
2016-05-05,-1,-0.0017791747523002034,-0.0017055354352874298,-0.009629043540810074,0.008439699587690959,0.9911668969565802
2016-05-09,-1,-0.0016781821180524954,-0.001629050837189951,-0.007483844194996949,0.0061369904451016805,0.9925437990374262
2016-05-11,-1,-0.0021026456910152188,-0.001999146844302749,-0.004208376807128668,0.0061369904451016805,0.9932287910841776
2016-05-13,-1,-0.0025145827927503285,-0.002373629927771943,-0.0030225019398490574,0.0061369904451016805,0.9939005900667763
2016-05-17,-1,-0.0017918580964096749,-0.001755773848746585,-0.00330736392467709,0.0060768837647457346,0.9938992765316026
2016-05-19,-1,-0.0013069416322691756,-0.0012666498053981433,-0.0039694192147823985,0.004812832256434229,0.9943740505744144
2016-05-23,-1,-0.00131796427163953,-0.001261312337590514,-0.003243187036550827,0.0060768837647457346,0.9942907599781032
2016-05-25,-1,-0.0011799692419795001,-0.0011111023942983384,-0.0019344823177993476,0.007504755087245669,0.9940592805096892
2016-05-27,-1,-0.0009942709652610519,-0.0009008794109538397,-0.003243187036550827,0.007504755087245669,0.9922960680924963
2016-06-01,-1,-0.0009052990754841001,-0.0008489286166420223,-0.003243187036550827,0.007504755087245669,0.9911025363676097
2016-06-03,-1,-0.001079522971667207,-0.0010669503987984215,-0.0019344823177993476,0.008271506926125714,0.9904024788272141
2016-06-07,-1,-0.0011656021761768068,-0.0011352453187155943,-0.0011810268185853247,0.009220238718907533,0.98973666455982
2016-06-09,-1,-0.0010980647001360383,-0.0010764181405487547,-0.0017982241529425696,0.010393924566207944,0.9891569031683558
2016-06-13,-1,-0.0011703550683292581,-0.0011198733109034167,-0.0017982241529425696,0.01081327468772819,0.9879565891710774
2016-06-15,-1,-0.0011524290337415408,-0.0011125576770669911,0.0014771052841099,0.011614640127974737,0.9877927385521718
2016-06-17,-1,-0.0011184996752152787,-0.0010910349174788256,0.002587834945495038,0.011614640127974737,0.987460972430575
2016-06-21,-1,-0.0013115910382006685,-0.0012088508124636172,0.0015515711342483,0.011614640127974737,0.9876077434836319
2016-06-23,-1,-0.0005991128714073945,-0.0005924595946788256,-0.0015748266025273697,0.011614640127974737,0.988084057482657
2016-06-27,-1,-0.0018110221269809987,-0.0016650185131895114,0.00011738097662193517,0.011614640127974737,0.9894000812506444
2016-06-29,-1,-0.0014127874594416457,-0.001278359554572028,-0.0026934387046120226,0.010393924566207944,0.9916346437675376
2016-07-01,-1,-0.00023570324997187325,-0.00023042549014121218,-0.0026934387046120226,0.008512296904157092,0.9933315145348987
2016-07-06,1,9.603115779562759e-05,0.00014213603519765323,-0.0026934387046120226,0.008512296904157092,0.9915934177691023
2016-07-08,1,0.0005144229736432978,0.0006356347852135237,-0.003701084339978746,0.006303003516407944,0.9917468203842911
2016-07-12,1,0.0014063951001787795,0.0016665867747010434,-0.004800611902309958,0.005260434110153625,0.9926638236111499
2016-07-14,1,0.002094862970622744,0.002464197477395128,-0.005686815529399691,0.004557577732720867,0.9925357570087737
2016-07-18,1,0.002040123524965895,0.002392050165831997,-0.005686815529399691,0.004557577732720867,0.9927506447507655
2016-07-20,1,0.0022900357915331755,0.002683119456117516,-0.006115486781133757,0.004209189862592165,0.9927220462921662
2016-07-22,1,0.0020509116804001016,0.002410716071636656,-0.005383944983320879,0.004209189862592165,0.9931495627942112
2016-07-26,1,0.0021356428208347085,0.0025207319856589243,-0.003990788978478845,0.004209189862592165,0.9933858394399413
2016-07-28,1,0.0018701297492743616,0.0022185627325601695,-0.006045040579831577,0.004209189862592165,0.9919987081836493
2016-08-01,1,0.002058435981598504,0.0024250559191279003,-0.006045040579831577,0.00440455646688492,0.9919262665590785
2016-08-03,1,0.0036411773805947265,0.004252116975829105,-0.006045040579831577,0.0031445438613162033,0.9928144884896697
2016-08-05,1,0.0029405455751514344,0.0034003052382475013,-0.003799318906727428,0.002936899804223393,0.993784296473928
2016-08-09,1,0.0026241819301735083,0.003033275313245189,-0.0017936550246461722,0.002936899804223393,0.9945231611812058
2016-08-11,1,0.0028748811503118057,0.0033381221682995364,-0.0037136957793984316,0.0027298170173730442,0.9936757235427152
2016-08-15,1,0.0030404110009988545,0.003528277462484555,-0.005555746853067956,0.0027298170173730442,0.9919367793706501
2016-08-17,1,0.002818812886781178,0.0032637143790596804,-0.005788171197844588,0.002936899804223393,0.9916534566926981
2016-08-19,1,0.002859295610361785,0.0033194820412922373,-0.007583184110731097,0.002936899804223393,0.9911335172721562
2016-08-23,1,0.0027962126664614704,0.003236840598626798,-0.011122465469547212,0.0035392304920637964,0.9901461509237854
2016-08-25,1,0.0016469393991040233,0.0019208313256816366,-0.0066290416944142115,0.004763222691993286,0.992030597014833
2016-08-29,1,0.002041618673002225,0.002385726227510364,-0.00801667388163849,0.004732362203949831,0.9915990478655305
2016-08-31,1,0.0018469425551443533,0.002123149842044482,-0.011122465469547212,0.0035392304920637964,0.990923549146191
2016-09-02,1,0.0020999108652394226,0.002422513796373627,-0.011122465469547212,0.0026731699679230234,0.9899853144205808
2016-09-07,1,0.002521418065915825,0.002945459723551673,-0.011122465469547212,0.0044098953290125815,0.989352531710218
2016-09-09,1,0.002075097786712843,0.0024694160812923577,-0.00954541576165276,0.0044098953290125815,0.9904976861314048
2016-09-13,1,0.0024628643480206786,0.0029506176766005247,-0.008467373273599883,0.003405284008874259,0.9920994433282783
2016-09-15,1,0.0021666716441976082,0.00261242697503435,-0.007532797532557039,0.0036410770064584748,0.9924611961847634
2016-09-19,1,0.0017984647247136585,0.0021820777106078496,-0.007325247244687186,0.0036410770064584748,0.9927495153314129
2016-09-21,1,0.0008822661747087415,0.0010483576026552779,-0.007325247244687186,0.0036410770064584748,0.993003328262383
2016-09-23,1,0.001042796768043617,0.0012372258161183983,-0.007547639340504609,0.003575197744793407,0.9927779734598898
2016-09-27,-1,-0.00026538565655384843,-0.00015380594194724549,-0.007547639340504609,0.0034549570458250163,0.9935694669637369
2016-09-29,-1,-0.0012803349674354342,-0.0010377479767350723,-0.007547639340504609,0.0034549570458250163,0.9940614675848825
2016-10-03,-1,-0.0011859988743476745,-0.0009788637482922185,-0.007734448879372713,0.004493035178199786,0.988873267741981
2016-10-05,-1,-0.00147915910231637,-0.0012166684743697088,-0.00788209947041042,0.004493035178199786,0.9847288250315147
2016-10-07,-1,-0.002338059693872982,-0.0019412559244508646,-0.008969555497673079,0.004493035178199786,0.9818199994754043
2016-10-11,-1,-0.00213822628154795,-0.0017757376428878759,-0.010016253591433596,0.006780626938658921,0.9792096425131195
2016-10-13,-1,-0.002062724167387519,-0.0016965091037365037,-0.010016253591433596,0.016964209295319502,0.9727182257008212
2016-10-17,-1,-0.0022824673953137733,-0.0018908674264802475,-0.010016253591433596,0.017979624803941007,0.9711882216569513
2016-10-19,-1,-0.002142030203914776,-0.001766271311419354,-0.015049100626770548,0.017979624803941007,0.9711668531164426
2016-10-21,-1,-0.00201408412521978,-0.0016746165731199095,-0.015049100626770548,0.017979624803941007,0.9704624884803155
2016-10-25,-1,-0.001778514051068941,-0.001478801671723235,-0.015049100626770548,0.017979624803941007,0.970384565476193
2016-10-27,-1,-0.0021330651680725983,-0.001786098982252897,-0.014421538381823312,0.017979624803941007,0.9708344568411706
2016-10-31,-1,-0.00405882021518486,-0.003486918302939966,-0.013379362231205269,0.017543217076672987,0.9753493810943658
2016-11-02,-1,-0.0021165256366987217,-0.0017750857208046556,-0.013379362231205269,0.008703170685421212,0.9794785996045827
2016-11-04,-1,-0.003916253615752361,-0.003359944549987372,-0.008717047060140096,0.013761339584090706,0.9812102067176697
2016-11-08,-1,-0.004488200955114517,-0.003858223295773325,-0.008717047060140096,0.01025649408642158,0.982521983711525
2016-11-10,-1,-0.0008522875155514222,-0.0006573487297667546,-0.008717047060140096,0.007257371259526169,0.9883162543470387
2016-11-14,-1,-0.0002066197692235771,-9.926845819242997e-05,-0.009825998444532594,0.007257371259526169,0.9890182690098542
2016-11-16,-1,-0.0017796537114421235,-0.0014258860138649258,-0.009825998444532594,0.007257371259526169,0.9892025095897683
2016-11-18,-1,-0.0010597346885564958,-0.0008434501314817574,-0.008716252528718323,0.009293050279917236,0.9893132185560812
2016-11-22,-1,-0.0008031435725160171,-0.0006596281644983054,-0.00636188595018387,0.009848549018923968,0.9889155528614838
2016-11-25,-1,-0.0005927740681496161,-0.000488057505453502,-0.008947475755289197,0.010034570566967112,0.9880605521145495
2016-11-29,-1,-0.0007719313163469475,-0.0006562099859934325,-0.006578079714624544,0.010034570566967112,0.9887721470795586
2016-12-01,-1,-0.0003147128712299488,-0.000284428911456008,-0.008947475755289197,0.011522457923750994,0.9877896904831921
2016-12-05,1,0.0004633664615404174,0.0005614312258674791,-0.008947475755289197,0.012477467636272903,0.9850278394684979
2016-12-07,-1,-0.0004145604762132053,-0.00040101345373856444,-0.007102143837609884,0.012822775318574746,0.9855857423336098
2016-12-09,1,0.00046402200290621446,0.0005762399943661093,-0.008333018636866713,0.012477467636272903,0.9866019738234957
2016-12-13,1,0.0004282201319932099,0.0005248067999280635,-0.008597040049408991,0.012822775318574746,0.9844271041790045
2016-12-15,-1,-0.0002600149995524775,-0.0002553417984261484,-0.006373260675150382,0.013398309929518322,0.9844947246060944
2016-12-19,1,0.0001655365573809077,0.00021274927513278917,-0.006373260675150382,0.012822775318574746,0.9854174446533832
2016-12-21,1,0.0004140647863494093,0.0005067867908151423,-0.008597040049408991,0.01341139162761123,0.98465560069652
2016-12-23,1,0.00103825501798901,0.0012905189158876748,-0.006373260675150382,0.014166870331385657,0.984827202094995
2016-12-28,1,0.000879031642014032,0.0010955046286772402,-0.011528059065073077,0.014166870331385657,0.983212722100876
2016-12-30,1,0.0008006100576387572,0.000999367093512572,-0.008581141812961907,0.01634813305830177,0.9817897011937521
2017-01-04,1,0.0026437737124231564,0.003089690292575671,-0.008581141812961907,0.014636974516339206,0.9847194957559501
2017-01-06,1,0.0027354714189124305,0.0031999419151606703,-0.006640884518103408,0.014636974516339206,0.985167304688822
2017-01-10,1,0.0026774765055797164,0.0031271688511405127,-0.005766446374165584,0.014636974516339206,0.985600312567995
2017-01-12,1,0.002449182520172538,0.0028678244626816813,-0.005548363998293672,0.01408609523138298,0.9882586629504956
2017-01-17,1,0.003028421563875135,0.003525649276798027,-0.005766446374165584,0.013611700038187827,0.9887862408053869
2017-01-19,1,0.002369142827812301,0.0027241691856111287,-0.006631906221152263,0.013611700038187827,0.9885268545437176
2017-01-23,1,0.0023062836664342837,0.002664443883799258,-0.0057328154955725245,0.009636441948018916,0.9900222107549551
2017-01-25,1,0.0026123838905718114,0.003020072495803669,-0.005507964528628309,0.007928454978646571,0.9911786354596401
2017-01-27,1,0.0017866869619486867,0.002092098912088154,0.0008994375735179388,0.007928454978646571,0.9924053148799629
2017-01-31,1,0.003093731450181664,0.0035759755706124825,-0.0029652175714001048,0.006736698902988478,0.9951591515665829
2017-02-02,1,0.0028813265484392285,0.003295513013096272,-0.002584847872715767,0.006094995363272831,0.9958323505683431
2017-02-06,1,0.0033145898587798204,0.003783244567988086,-0.004808689406851063,0.004190817207057307,0.9942629359791166
2017-02-08,1,0.003329870350246629,0.003780464329637757,-0.005247056776884649,0.004190817207057307,0.9938911567178168
2017-02-10,1,0.0031282699743045757,0.003533336278029561,-0.004818393767565345,0.004190817207057307,0.9938592890670072
2017-02-14,1,0.0028835418530998493,0.003248607796646678,-0.0039429971583628855,0.005154632269054014,0.9938925403181472
2017-02-16,1,0.0027283197230398423,0.0030738541086102935,-0.004818393767565345,0.005154632269054014,0.9931881884362561
2017-02-21,1,0.002783937237732167,0.0031315752623960044,-0.005776499733137841,0.0042203696930058964,0.9920661475207485
2017-02-23,1,0.002526326974205312,0.00280376437847606,-0.005776499733137841,0.0038666168351919397,0.99192595687555
2017-02-27,1,0.002269539494027616,0.002489237544025704,-0.005776499733137841,0.006666799773527505,0.9919312562104227
2017-03-01,1,0.002249850863276522,0.002460152806153271,-0.005776499733137841,0.006666799773527505,0.9913206039501249
2017-03-03,1,0.0020295718765298543,0.0021942295914188325,-0.007107350158878539,0.006666799773527505,0.9909110522182624
2017-03-07,1,0.001040515865585124,0.0010728258295298367,-0.005776499733137841,0.006666799773527505,0.9923916716109172
2017-03-09,1,0.001076957162815511,0.0011229327532622925,-0.005776499733137841,0.005614490364965816,0.9926872309336042
2017-03-13,1,0.0010033238033325563,0.0010245146126823944,-0.005776499733137841,0.005614490364965816,0.9928494231468209
2017-03-15,1,0.0010703416433511474,0.0011065520371984472,-0.007107350158878539,0.0034760151069018067,0.9923818798609547
2017-03-17,1,0.0003822789842241852,0.0004392909416552251,-0.0066045904071762385,0.0034760151069018067,0.9935686456752175
2017-03-21,-1,-0.00012169244059227746,-1.0731851779437391e-05,-0.006628710521109946,0.0034760151069018067,0.9918807629936796
2017-03-23,-1,-0.00036486682637817426,-0.00020896651168154066,-0.0075347317171650585,0.0055456060798645505,0.9910486466820161
2017-03-27,-1,-0.0016013966691682336,-0.0011507261201024795,-0.0075347317171650585,0.0034760151069018067,0.9916612404954975
2017-03-29,1,0.0002748988187531015,0.00038448484745303124,-0.0075347317171650585,0.0034760151069018067,0.9916259111834661
2017-03-31,-1,-0.0013461295156512022,-0.0009572035636167947,-0.006983731737595343,0.005297951863063343,0.9923006512643523
2017-04-04,-1,-0.0025827961362021373,-0.0019873656201948864,-0.004564740719298707,0.005297951863063343,0.9926440937157056
2017-04-06,1,5.6768458612029005e-05,0.00014584584179323874,-0.006682850845428906,0.005610174578124854,0.9904933095292797
2017-04-10,1,0.0006663185063814857,0.0006731765368370695,-0.006682850845428906,0.006463627957761816,0.9898859258476396
2017-04-12,-1,-0.0006114618979051011,-0.00042005235219593504,-0.0031933336310773874,0.007177975014241997,0.9901948322352642
2017-04-17,-1,-0.0006760380115935228,-0.0004831179635378264,-0.0031933336310773874,0.00815465189140583,0.9895442466649856
2017-04-19,-1,-0.002714381186120357,-0.0022648317085072283,-0.0031933336310773874,0.00815465189140583,0.9897173424946767
2017-04-21,-1,-0.003020902829986819,-0.0025342035068561834,-0.0016647120104114946,0.008803558703650863,0.9886588518467502
2017-04-25,-1,-0.00319209242398686,-0.002666062735135032,-0.0016647120104114946,0.008803558703650863,0.9887690059672866
2017-04-27,-1,-0.0029639849744671634,-0.002465855399485156,-0.0009487828153384268,0.009301845117643013,0.9882230065490515
2017-05-01,-1,-0.0024450326152511484,-0.002040366804917596,-0.001214981160387095,0.009301845117643013,0.9887323033984963
2017-05-03,-1,-0.003154877530956169,-0.0026063141073745548,-0.001214981160387095,0.011396193676906181,0.9873854911467768
2017-05-05,-1,-0.001401867949018339,-0.0011036929961346855,-0.001214981160387095,0.009301845117643013,0.9905378377745455
2017-05-09,-1,-0.0008686439494871277,-0.0006312322556193652,-0.0016230304389232564,0.008312967454733778,0.9907805205055448
2017-05-11,-1,-0.001086124835214111,-0.000775165927027548,-0.002894035117250198,0.008283213895084103,0.9911224527610423
2017-05-15,-1,-0.0004269302637224274,-0.00022358497373913553,-0.002894035117250198,0.007229341216875552,0.9913801387258271
2017-05-17,-1,-0.0017533116059188422,-0.001399224486212779,-5.459193541315708e-05,0.008283213895084103,0.9919372673129525
2017-05-19,-1,-0.0008886586617262887,-0.0006247979192945094,-0.0016001024208723287,0.008283213895084103,0.9924458831406262
2017-05-23,-1,-0.0010734850286980044,-0.0007791919228733968,-0.0016001024208723287,0.008978379777617573,0.9912158934217562
2017-05-25,-1,-0.0005721267470270918,-0.0003267031145362657,-0.0030628030871173656,0.007914951567648652,0.9918219039853895
2017-05-30,1,0.0007544244654957978,0.000796005262139222,-0.00413506137037962,0.007914951567648652,0.9918399001763493
2017-06-01,1,0.001310669133999417,0.0014260568987803823,-0.004927450647973864,0.007157936798955557,0.9922983989181967
2017-06-05,1,0.0012879180578923616,0.0013975011085062704,-0.0054268004464110425,0.007157936798955557,0.9919390420888766
2017-06-07,1,0.0006175357170266856,0.0006215700427778385,-0.0054268004464110425,0.007157936798955557,0.9910628063207865
2017-06-09,1,0.0009350514893220073,0.0010182238575016888,-0.005888606192044235,0.008107088513093481,0.9901638020777307
2017-06-13,1,0.001032845297838426,0.0011169544473222967,-0.005888606192044235,0.009092643392925658,0.9898455730233099
2017-06-15,1,0.0012106153095550968,0.0013061405359014945,-0.005888606192044235,0.008107088513093481,0.9902423559109366
2017-06-19,1,0.001211906168147032,0.0013169787664486657,-0.005888606192044235,0.006079188972371481,0.9909139201147226
2017-06-21,1,0.0012098727614141128,0.0012289783719123893,-0.005888606192044235,0.006079188972371481,0.9918631515204333
2017-06-23,1,0.0021357648954128394,0.002379287955713529,-0.0052023221674516364,0.006257160348157316,0.9913421880394904
2017-06-27,1,0.00215091592315418,0.0024093606112482436,-0.00509475346067837,0.008641002640450986,0.9906915235544342
2017-06-29,1,0.002514156790838391,0.002859687874867575,-0.00669771018236205,0.009210018772271997,0.9899912053277083
2017-07-03,1,0.002320917238758107,0.002662221415212691,-0.005724867571369044,0.009210018772271997,0.9900710089706571
2017-07-06,1,0.0017714954833909246,0.0020452832418783786,-0.010328365236755226,0.009210018772271997,0.9858929989993668
2017-07-10,1,0.0012509054022073825,0.0014387299557804196,-0.009407397421890668,0.002946513290268039,0.9867331530163825
2017-07-12,1,0.001360291516437088,0.001552770792060542,-0.009407397421890668,-0.0009279843799594172,0.9867627949362859
2017-07-14,1,0.0013710669309849588,0.0015764015913356476,-0.010959545162941856,0.0009416554075752349,0.9857785017839582
2017-07-18,1,0.0009998842801178854,0.0011666285120558555,-0.009407397421890668,0.002701266222192973,0.9867752670980573
2017-07-20,1,0.0011863160757857904,0.0013797382911670446,-0.009407397421890668,0.0004687079088998612,0.9870391065993898
2017-07-24,1,0.0016187740955223707,0.0018784159327034375,-0.010959545162941856,-0.0006555216958044729,0.9864154687654132
2017-07-26,1,0.001914314664333828,0.0022120941357821073,-0.012086036859021574,-0.0006555216958044729,0.9858205452148374
2017-07-28,1,0.0011957023482777004,0.0013290735286799272,-0.010959545162941856,-0.0006555216958044729,0.9873379687918296
2017-08-01,1,0.0008782881013524971,0.0009703938376652065,-0.010959545162941856,0.0004687079088998612,0.9877570172418234
2017-08-03,-1,-0.002495503194735821,-0.0021913343343339595,-0.006729489348195394,0.0013942551867627447,0.9931113179092907
2017-08-07,-1,-0.002799701276575592,-0.0024677150879378455,-0.006661921551219638,0.0013942551867627447,0.9932160403683524
2017-08-09,-1,-0.003384345500968532,-0.002954850522975094,-0.004583522053214601,0.008609038043652402,0.9912511381196546
2017-08-11,-1,-0.0035811965062811637,-0.0031036144853229487,-0.003152375576288651,0.008609038043652402,0.9910401410555194
2017-08-15,-1,-0.003503456170880738,-0.0030381054527116313,-0.004321514570224171,0.008609038043652402,0.9908702893080841
2017-08-17,-1,-0.003104210022227798,-0.0027126367287483395,-0.0060683573741321046,0.011689527302872005,0.9885817717992332
2017-08-21,-1,-0.003322811289718795,-0.002941223637857859,-0.0060683573741321046,0.011689527302872005,0.9882799928615746
2017-08-23,-1,-0.003382197939555988,-0.002980621658702659,-0.004321514570224171,0.011121280899833767,0.9886902952583424
2017-08-25,-1,-0.0036087538245430442,-0.003158203629812849,-0.0036473206832611524,0.011121280899833767,0.9882654975264517
2017-08-29,-1,-0.0032115770163294805,-0.0028213697459673415,-0.0036473206832611524,0.011607175222253758,0.9878385401353478
2017-08-31,-1,-0.0023025069040602053,-0.0020338425596580817,-0.0060683573741321046,0.011607175222253758,0.9875701549067133
2017-09-05,-1,-0.0027597684146302903,-0.0024139790233563673,-0.005233152145227955,0.011607175222253758,0.9871983881632757
2017-09-07,-1,-0.0016980724728343265,-0.0014746989771955352,-0.005233152145227955,0.011121280899833767,0.9885456407353378
2017-09-11,-1,-0.002228676397389436,-0.0018545237970293358,-0.012855468525322777,0.0090188963897128,0.98653743717232
2017-09-13,-1,-0.002403814866630693,-0.0019985392531357386,-0.012855468525322777,0.011121280899833767,0.9856077584000253
2017-09-15,-1,-0.003381191525578311,-0.0028656888741719695,-0.012755719604024017,0.010026840199219613,0.9869229904218018
2017-09-19,-1,-0.004167868804067606,-0.003571756248142946,-0.005166265163013358,0.01130818033776421,0.986882995347626
2017-09-21,-1,-0.0036480598761639256,-0.0031192975599186367,-0.005166265163013358,0.012167873536045086,0.9863543618002911
2017-09-25,-1,-0.003391758515029481,-0.0028955104027673225,-0.006197126086114463,0.012364263467093517,0.9861257054440088
2017-09-27,-1,-0.0020088189587829817,-0.0017359439302356903,-0.008188931819801418,0.012090741136199951,0.9868290823093215
2017-09-29,-1,-0.001589797087930762,-0.001395432057509791,-0.010387496451399272,0.010265872695248368,0.9853849611375265
2017-10-03,-1,-0.0012043944292372162,-0.0010812957840991278,-0.010387496451399272,0.010265872695248368,0.9854422047789589
2017-10-05,-1,-0.0003770369601727054,-0.0003720076006402881,-0.01924033315246019,0.007820509676763504,0.9840308502826677
2017-10-09,-1,-0.003640481016019022,-0.003188644383152613,-0.008188931819801418,0.010265872695248368,0.985891161373392
2017-10-11,-1,-0.0019760500416336124,-0.0017775697496222355,-0.008188931819801418,0.006865894355462846,0.987184778376729
2017-10-13,-1,-0.0022538752073098154,-0.0020264726431948395,-0.006197126086114463,0.006865894355462846,0.9879159013840935
2017-10-17,-1,-0.0014472201105275137,-0.001353961696522153,-0.005259342496930138,0.005688573533146871,0.9884521618196239
2017-10-19,-1,-0.00039642040278814147,-0.0003598945803850455,-0.005259342496930138,0.00580023479117848,0.9869636371906597
2017-10-23,1,0.00021123365775407838,0.0003757562693185504,-0.010555516717453362,0.004723711847938721,0.9864195202283264
2017-10-25,1,0.00023426942022149725,0.00041066908380048967,-0.007592260670195229,0.01076048251787673,0.9846361193368144
2017-10-27,-1,-0.002377341457838815,-0.0022080893135605077,-0.0024630826785951767,0.01076048251787673,0.9871219321403025
2017-10-31,-1,-0.0018949445271684252,-0.0017913890486120562,-0.0024630826785951767,0.022183179488524545,0.9855585650300808
2017-11-02,-1,-0.0032550414183274844,-0.003016147768668871,-0.0003385467370603436,0.022183179488524545,0.9865552267999973
2017-11-06,-1,-0.0018637505964594406,-0.0018211136059548558,-0.001537747599874587,0.024567282913432593,0.9863613379845246
2017-11-08,-1,-0.001703689700140756,-0.001673856196262654,-0.001537747599874587,0.024567282913432593,0.9865059258884835
2017-11-10,-1,-0.0011265260391535388,-0.0010376533038145741,-0.0008618421209793115,0.024567282913432593,0.9865599221338152
2017-11-14,-1,-0.0006983232625926705,-0.0005408343570766725,-0.0008618421209793115,0.024567282913432593,0.9861161345816835
2017-11-16,1,0.0014946440166441043,0.001945855437965712,-0.0008618421209793115,0.01972369066555013,0.9875876984895684
2017-11-20,1,0.0005437455903900365,0.0008753694092697719,0.000431101918925584,0.01972369066555013,0.987932240544593
2017-11-22,1,0.0020995115754917698,0.002622294970727743,-0.0008618421209793115,0.012836564940297317,0.990059700839842
2017-11-27,1,0.0017324526703427637,0.002168157997058541,-0.000574285600506944,0.012836564940297317,0.9897196364693337
2017-11-29,1,0.003207054142952846,0.0038418177544707367,-0.001948176531011018,0.009065703477090424,0.9908884571166147
2017-12-01,1,0.0035188184365874484,0.004212929049732136,-0.006017274877948821,0.010060686877080876,0.9894799450200348
2017-12-05,1,0.0038811033110206445,0.004619169701242781,-0.0030934828461377734,0.009065703477090424,0.991394339058853
