JNU-Tangyin/eata/results/Batch4_SP500/Batch4_SP500-DGX.csv
Date,Action,Predicted_Q25,Predicted_Q75,Actual_Q25,Actual_Q75,RL_Reward
2010-12-14,0,0.0,0.0,-0.0018307244142727916,0.01034701895868563,0.9914841867531213
2010-12-16,0,0.0,0.0,-0.0031692059049083735,0.007869331757642341,0.9925302099043379
2010-12-20,0,0.0,0.0,-0.0041029085292506075,0.004472939680835585,0.9921655000729651
2010-12-22,0,0.0,0.0,-0.0041029085292506075,0.008817068191469442,0.9914230906291092
2010-12-27,1,0.003222264577440192,0.003488591795913094,-0.005147181081209152,0.010184316919817363,0.98932687517381
2010-12-29,1,0.0027370454373085136,0.0028622484555118986,-0.004466311711054758,0.012667333357432073,0.9886766428296987
2010-12-31,1,0.002548000207332364,0.002643387992642876,-0.0077625387300225435,0.012667333357432073,0.9878783084997421
2011-01-04,0,0.0,0.0,-0.0077625387300225435,0.010184316919817363,0.9879045405598739
2011-01-06,0,0.0,0.0,-0.006465001839602783,0.011485230994252858,0.9880951272951511
2011-01-10,0,0.0,0.0,-0.006373826917730792,0.011485230994252858,0.9894761055799465
2011-01-12,1,0.0006974492651131597,0.000727114729107267,-0.0077625387300225435,0.008049535693628174,0.9895459539179794
2011-01-14,1,0.0002445332848367493,0.000315545632256556,-0.006874310712930346,0.009366459299981204,0.9895635079685093
2011-01-19,-1,-0.0005803873692737733,-0.0004034225995510144,-0.006874310712930346,0.009527611331599552,0.9896367642429627
2011-01-21,-1,-0.0012950921670609966,-0.0007528589114403166,-0.006874310712930346,0.008827186115131318,0.9903535659465852
2011-01-25,1,0.0014006582337389474,0.0015394125588642687,-0.0076312078100497505,0.008466741888356869,0.9908800524188509
2011-01-27,1,0.0030281197427842917,0.0031322123921166856,-0.0076312078100497505,0.00735430287060495,0.9913822083659084
2011-01-31,1,0.0015866205757916626,0.0016984757331111671,-0.006981626315433772,0.00735430287060495,0.9922431697209743
2011-02-02,1,0.002910162113392134,0.0030786462187126318,-0.006981626315433772,0.005948837234485652,0.991878293392243
2011-02-04,1,0.003672721439134433,0.00391649023894816,-0.007799596894388376,0.0049521392720984995,0.99198444835916
2011-02-08,0,0.0,0.0,-0.007799596894388376,0.005455425738919768,0.9922009642070644
2011-02-10,0,0.0,0.0,-0.00560057671425425,0.006884265107358663,0.9923193569673052
2011-02-14,0,0.0,0.0,-0.00862065163504509,0.005455425738919768,0.9910615859210239
2011-02-16,0,0.0,0.0,-0.009179349536977651,0.0049521392720984995,0.990852904010057
2011-02-18,1,0.002155359373323132,0.002350817805670896,-0.009194329997872445,0.00462934194861646,0.9904116613502106
2011-02-23,1,0.0021577032532458054,0.0023473683920641818,-0.008472087398838368,0.002639723455819998,0.9917957056436228
2011-02-25,1,0.0015127318400885155,0.0015549083785172924,-0.008472087398838368,0.004000139009008903,0.9917395182843511
2011-03-01,0,0.0,0.0,-0.008472087398838368,0.004941151239574131,0.9901535384702105
2011-03-03,1,0.0013595824391669851,0.0014033696160769393,-0.008472087398838368,0.00655047060158739,0.990086872686043
2011-03-07,1,0.0009140768620526667,0.0009184524192913858,-0.005760054231987035,0.00655047060158739,0.9902385802317333
2011-03-09,1,0.0013013450287568454,0.00132450081703547,-0.005760054231987035,0.00655047060158739,0.9907573826384077
2011-03-11,0,0.0,0.0,-0.004432199142754448,0.0057911843373000885,0.9912871389578295
2011-03-15,0,0.0,0.0,-0.003699431249950539,0.0057911843373000885,0.9928770898688952
2011-03-17,0,0.0,0.0,-0.003699431249950539,0.0057911843373000885,0.9935513683279669
2011-03-21,-1,-0.001475083083619333,-0.0011329199406918298,-0.0021904971772423354,0.00655047060158739,0.9931713187003246
2011-03-23,-1,-0.001770953028490464,-0.0013602370717774167,-0.003699431249950539,0.0072479794005590095,0.992059480214899
2011-03-25,-1,-0.0011732144730751556,-0.0008547801902571776,-0.004432199142754448,0.00655047060158739,0.9913642759881636
2011-03-29,1,0.00138688424394599,0.0013991930011481406,-0.004432199142754448,0.0057911843373000885,0.9930011352168426
2011-03-31,1,0.0018209755839055822,0.0019294309396466305,-0.004432199142754448,0.004902452843451308,0.9932130850163453
2011-04-04,1,0.0015299780724048464,0.0015817685391127773,-0.00464380665647804,0.004026562959075699,0.9929903381825401
2011-04-06,1,0.0018172219253801722,0.0019065419106940379,-0.00464380665647804,0.0033789779847514315,0.9932004899722445
2011-04-08,1,0.0009905893863346132,0.001051490474113119,-0.004140392867936916,0.004665126249446359,0.9932031865959577
2011-04-12,1,0.0005607246105832301,0.0006882136614969255,-0.002709526136029816,0.004665126249446359,0.9933448479428927
2011-04-14,1,0.0004909119958506718,0.0006255300779698378,-0.002757273201618869,0.005341033973622423,0.9928466909942879
2011-04-18,1,0.00039638563126794966,0.0005707830359013796,-0.0018768495868572536,0.004723914916583211,0.993047157166876
2011-04-20,0,-0.00022821920643581364,3.6776477632636216e-05,-0.00013491086173112046,0.004723914916583211,0.9937326442973963
2011-04-25,-1,-0.0013551581798629292,-0.0009490314119875534,-0.00013491086173112046,0.004723914916583211,0.9945629122211557
2011-04-27,-1,-0.0008713243183892336,-0.0005581653235466957,-0.0010270364228507818,0.004709445861732289,0.9947762078817185
2011-04-29,-1,-0.0008011190976090162,-0.0004745030394341693,-0.004250144815464895,0.004709445861732289,0.9947465711155635
2011-05-03,-1,-0.001476475223705497,-0.0010572153645252492,-0.004108145691403127,0.005433986312395397,0.9943664091672887
2011-05-05,-1,-0.0009238922193886602,-0.0006062504201859379,-0.004108145691403127,0.005433986312395397,0.9946853142280005
2011-05-09,0,-5.651455224453918e-05,0.00013137197780958908,-0.00424010845288573,0.004480768874172787,0.9952524653515659
2011-05-11,1,0.0005174887064558959,0.0005708237091194284,-0.00424010845288573,0.005433986312395397,0.9949527423247744
2011-05-13,1,0.0007710164623095395,0.0007861717026494119,-0.004108145691403127,0.005433986312395397,0.9952746170719134
2011-05-17,1,0.0009547780575208319,0.0009551922303239317,-0.004108145691403127,0.007186517447030898,0.9950769894860594
2011-05-19,1,0.0009447658812888521,0.0009571793820366832,-0.004108145691403127,0.00723492440018998,0.9944804848251007
2011-05-23,1,0.0004136252468633283,0.0005005954252728117,-0.002075461856672687,0.00723492440018998,0.9950374948085368
2011-05-25,1,6.553095750508087e-05,0.00020004772746315473,-0.002075461856672687,0.00723492440018998,0.9947638290423234
2011-05-27,1,0.0002863705138440834,0.0003760454670383753,-0.002075461856672687,0.00684765257131275,0.9947246814975383
2011-06-01,1,0.00043879765234779665,0.0005062689225846601,-0.0038216982592509177,0.004138267238925372,0.9947661108467007
2011-06-03,1,0.00031974453742531286,0.00043007247428388244,-0.0038216982592509177,0.00808192388598155,0.9938519497270911
2011-06-07,1,0.0003788816604682851,0.0004396212843103071,-0.003179225720166553,0.009035083327917408,0.9935055351374888
2011-06-09,1,0.0005469468128835818,0.0006097936827245214,-0.0038216982592509177,0.007761445446962799,0.9928738258951276
2011-06-13,1,0.00037520029343198266,0.00048704545133321946,-0.005618747986072802,0.00684765257131275,0.9925214061743632
2011-06-15,1,0.0005729712570133775,0.0006367434825808097,-0.00709236214667496,0.006646476161970199,0.9925466683803992
2011-06-17,1,0.0016369899346324827,0.0018273657482101606,-0.00709236214667496,0.0016012221107844853,0.9930087035318558
2011-06-21,1,0.0021661771477049637,0.0024317325513451265,-0.010395004009951242,0.0024372917517994277,0.9911200673782474
2011-06-23,1,0.0015986067875339406,0.0017401030587314687,-0.007623774659707183,0.0052103137552735575,0.9914722456446193
2011-06-27,1,0.0012927229369237966,0.0014107615618778827,-0.010061449026660417,0.0052103137552735575,0.9911226771375232
2011-06-29,1,0.0012107814061464374,0.0013821483948644432,-0.010222592751951885,0.0052103137552735575,0.9908160760822446
2011-07-01,1,0.0017771013073736048,0.0019990275936008785,-0.013518931985161284,0.0013730916631715957,0.9893112860075903
2011-07-06,1,0.0016417704746421492,0.0017922798406552797,-0.016366584323684614,0.0011178087758804615,0.9888294748994821
2011-07-08,1,0.0011591487028032527,0.0013008735625537125,-0.017827241908254514,0.0011178087758804615,0.9881905029351336
2011-07-12,1,0.00048102563783978484,0.0005327743694100521,-0.021279207312843784,0.001622998682657,0.9848334914348289
2011-07-14,1,0.000276909479758619,0.0003107115848279124,-0.0243310337290578,0.00297460278523551,0.9815928322895154
2011-07-18,0,0.0,0.0,-0.0243310337290578,0.010925646843736654,0.980155126023475
2011-07-20,-1,-0.0005813989616578911,-0.00048440331830343646,-0.021279207312843784,0.006977159690519535,0.9817151904565554
2011-07-22,-1,-0.0007637455151927801,-0.0006349868831359994,-0.024346438466495528,0.005219893368404211,0.9801898200728378
2011-07-26,-1,-0.0015266186256013496,-0.0013080816170216998,-0.024346438466495528,0.014092380284896063,0.9792158793092921
2011-07-28,0,0.0,0.0,-0.023320923446598245,0.015838295978449664,0.9782658503515411
2011-08-01,0,0.0,0.0,-0.020937368972878023,0.01927824632338383,0.9780299471075773
2011-08-03,0,0.0,0.0,-0.014034150240017192,0.01927824632338383,0.9782818422319041
2011-08-05,-1,-0.004938744845411223,-0.0043022507750361105,-0.012121020852958117,0.01927824632338383,0.9795459739756417
2011-08-09,0,0.0,0.0,-0.010241075486119123,0.01927824632338383,0.9820952697972238
2011-08-11,-1,-0.006996228026973245,-0.006082712916417142,-0.012121020852958117,0.017929057873294945,0.9834904551270771
2011-08-15,-1,-0.0059030108163178625,-0.00512061084655094,-0.012121020852958117,0.014279926743453493,0.9841229803844371
2011-08-17,-1,-0.005741883128461363,-0.0050115274900383415,-0.014795569089814088,0.014279926743453493,0.9837533515087091
2011-08-19,-1,-0.006250656740368061,-0.005534812507734596,-0.01108792492405496,0.014279926743453493,0.984313878861417
2011-08-23,-1,-0.004744253550693394,-0.004228932762417048,-0.012266997212328436,0.014279926743453493,0.9850558590494559
2011-08-25,-1,-0.004985273647022498,-0.00444804819894198,-0.012266997212328436,0.012812918867981981,0.985875644535917
2011-08-29,-1,-0.0029299834783696505,-0.0026585964779756426,-0.012266997212328436,0.012812918867981981,0.9860525355765766
2011-08-31,-1,-0.002655405005851982,-0.0024074994506970765,-0.012266997212328436,0.013099789031228055,0.9855415085685079
2011-09-02,-1,-0.0031966741111107413,-0.0028869010807562644,-0.01694468656122878,0.013099789031228055,0.9822047870161144
2011-09-07,-1,-0.00193982461053521,-0.0017838497140955996,-0.017576936031888243,0.013099789031228055,0.9822389707768255
2011-09-09,-1,-0.0035354832680101786,-0.0032165499172163835,-0.012400997135376898,0.013099789031228055,0.9836451970068117
2011-09-13,-1,-0.0025443477425545393,-0.0023318117339962987,-0.012400997135376898,0.014765047314285138,0.9839257487818373
2011-09-15,-1,-0.0037970819629816995,-0.0033715605311494734,-0.010462547103616352,0.014765047314285138,0.9836116717026722
2011-09-19,-1,-0.003522637428882411,-0.00313975275291195,-0.010462547103616352,0.014765047314285138,0.9835471474652082
2011-09-21,-1,-0.0028950754433439145,-0.002608665314955182,-0.010563153026436508,0.014765047314285138,0.9830283498283394
2011-09-23,-1,-0.0036225544051408654,-0.0032351340293576827,-0.009354171263326862,0.016432899844144366,0.9826447904997718
2011-09-27,-1,-0.0018544723148714811,-0.0016895847442343552,-0.009354171263326862,0.018400843295823033,0.9792830020676682
2011-09-29,-1,-0.0007733446929307074,-0.0007480084682142446,-0.008457170654517655,0.017581975102340948,0.9796219080460039
2011-10-03,-1,-0.0034044060892369837,-0.0030764940683512005,-0.007768982266260388,0.017581975102340948,0.9811569038599112
2011-10-05,-1,-0.0028498979618594065,-0.0025998631983432303,-0.007768982266260388,0.01609920039049446,0.9814785711831752
2011-10-07,-1,-0.002123810212925298,-0.001978302177928949,-0.007768982266260388,0.01609920039049446,0.9818662244765589
2011-10-11,-1,-0.0010974368289172782,-0.0010854773575124294,-0.007768982266260388,0.016582692328743345,0.9815513443578294
2011-10-13,-1,-0.0012440288647621793,-0.0012035130282682922,-0.007768982266260388,0.019032450917087596,0.9793788692935231
2011-10-17,-1,-0.001237881137559521,-0.0011951359364112055,-0.006636947137540636,0.019032450917087596,0.9799917206028648
2011-10-19,-1,-0.0005542560497475348,-0.0005054250558466959,-0.008713712833152348,0.016582692328743345,0.980628636928646
2011-10-21,1,0.00021619113287902768,0.00038255847960325703,-0.008713712833152348,0.01552322417089678,0.981884918961123
2011-10-25,1,0.0034958782732974034,0.004103446720961878,-0.01007865581693283,0.013468485117965334,0.9862395084879247
2011-10-27,1,0.0035987185484077557,0.0042076241312067894,-0.01268306051306617,0.012169703826093291,0.9857476014986679
2011-10-31,1,0.0030191213141757063,0.0035720010102103235,-0.010665657468297542,0.013653727925702797,0.9864285938324713
2011-11-02,1,0.0032601147533509647,0.0038619406279983043,-0.010665657468297542,0.014157467660336973,0.9855543692639666
2011-11-04,1,0.003506141326815734,0.004143057119979079,-0.01268306051306617,0.01529894105324015,0.9842980204551021
2011-11-08,1,0.004475725052432784,0.005272591490144191,-0.01268306051306617,0.009207770884684665,0.9848663843931014
2011-11-10,1,0.0045588307282876765,0.005375347338112199,-0.01268306051306617,0.008581068207518685,0.9862267510940542
2011-11-14,1,0.004436886289835473,0.005227834954243414,-0.014790525988617496,0.008581068207518685,0.9848086747993086
2011-11-16,1,0.0032505132034514606,0.003862233519519734,-0.011325741259857754,0.009835993442465652,0.986995621229113
2011-11-18,1,0.0030799088128098326,0.0036447856317868557,-0.011667280731246742,0.009835993442465652,0.9867035503128889
2011-11-22,1,0.0039909452231495866,0.004721907273353008,-0.011667280731246742,0.009997601198982308,0.9862908316990987
2011-11-25,1,0.0031710993362596245,0.0037991538694901184,-0.0070923497744197084,0.012487176195273637,0.9869839831043377
2011-11-29,1,0.004100846831863351,0.004836426261280842,-0.011794494832117433,0.009997601198982308,0.9870038819988834
2011-12-01,1,0.004329703242514902,0.005065635171142435,-0.0070923497744197084,0.009215036002757204,0.9891391709321057
2011-12-05,1,0.004234126115091972,0.004945245460682262,-0.004962843386726513,0.006436081524380628,0.9898182300414341
2011-12-07,0,0.0,0.0,-0.004962843386726513,0.009176019389303215,0.9900679905958014
2011-12-09,0,0.0,0.0,-0.004962843386726513,0.006436081524380628,0.9912132011696734
2011-12-13,0,0.0,0.0,-0.003374239971049128,0.006436081524380628,0.9922876384899496
2011-12-15,1,0.0025497401233168454,0.0031933753122824066,-0.004836782189633442,0.006170077256875701,0.991721079942934
2011-12-19,1,0.0020146388602217164,0.002549843183731327,-0.003374239971049128,0.007130773950689972,0.9922283356955537
2011-12-21,1,0.00246962340601362,0.0029637566498130078,-0.0055343299768877245,0.004052767830845077,0.9927400008720836
2011-12-23,1,0.0023584467760939323,0.002819791873331418,-0.0055343299768877245,0.004052767830845077,0.9899464472933238
2011-12-28,1,0.0017349982779550966,0.0020995133957433672,-0.0055343299768877245,0.0016405119789651397,0.9899515248020595
2011-12-30,1,0.000981025065830342,0.0011940521625007244,-0.006759493976361654,0.00021747861478636023,0.9898117014658319
2012-01-04,1,0.00038019898738422895,0.0004711977348832108,-0.006759493976361654,0.00043074585728987327,0.990368694895547
2012-01-06,1,0.0010194651737816386,0.0012472551769337286,-0.009391348579280995,0.00043074585728987327,0.9894294778722718
2012-01-10,1,0.000642751009882013,0.0008107125219561995,-0.006759493976361654,0.0021132415577417595,0.9897547512654642
2012-01-12,-1,-0.00041425873782467666,-0.0003539567645764855,-0.007844509455132787,0.0021132415577417595,0.9897988820200921
2012-01-17,1,6.524269819282422e-05,0.00010546504260387111,-0.007844509455132787,0.0010813039992961888,0.9901215665457263
2012-01-19,1,0.00022634528091423155,0.0002826909004997448,-0.009692786873918696,0.0010813039992961888,0.9890983130614398
2012-01-23,1,0.0003501043272131669,0.0004937282221945303,-0.00497776112080086,0.0030471935333641577,0.9896459946422028
2012-01-25,1,0.0021079992658858005,0.0024978066595219874,-0.006536444940698096,0.0010813039992961888,0.9922789474105885
2012-01-27,1,0.0010352280474669878,0.0012473227910773008,-0.004691260714667841,0.0030471935333641577,0.993538507612123
2012-01-31,1,0.0009935647374175382,0.0012446783885953715,-0.004691260714667841,0.005655017937837192,0.9936337002270271
2012-02-02,1,0.00012293062327102273,0.00016467706680413369,-0.004691260714667841,0.005655017937837192,0.9938046048469558
2012-02-06,1,0.0004022020458469505,0.0005198739533532524,-0.0047958021290367935,0.0030471935333641577,0.9941142857341331
2012-02-08,1,0.00022028643063472478,0.0002788029994344021,-0.0047958021290367935,0.006256536479102304,0.9936095926385516
2012-02-10,-1,-7.81450062259511e-05,-6.301485130545113e-05,-0.0047958021290367935,0.008891575714667798,0.9930367844470109
2012-02-14,1,3.5251038753023284e-05,8.249180184547074e-05,-0.0047958021290367935,0.00899435434915048,0.9924494019063891
2012-02-16,-1,-0.0004927519366676107,-0.0004270411944354299,-0.0042065465794917465,0.00899435434915048,0.9930476807719512
2012-02-21,1,0.00019276050405503273,0.00028291727475639503,-0.00460649268063704,0.00899435434915048,0.9931315245728346
2012-02-23,1,0.00016686479324916294,0.00026470799367353146,-0.0030741101175903443,0.00899435434915048,0.9930361195102373
2012-02-27,-1,-0.0019372962135157054,-0.0015785671289366295,-0.00460649268063704,0.00899435434915048,0.9917487372537521
2012-02-29,-1,-0.0016355465637204877,-0.0013292468066076484,-0.003181015630195477,0.00899435434915048,0.9924630626641765
2012-03-02,-1,-0.0016032663274995044,-0.001311869177483572,-0.003181015630195477,0.00963199039152561,0.9917658364677285
2012-03-06,-1,-0.0018576768232970628,-0.001560425013552981,-0.0027803151855199547,0.011059119601528066,0.9915215636536387
2012-03-08,-1,-0.00139976655253223,-0.001149472773389209,-0.0029903453281138422,0.00943926540958437,0.992095550046106
2012-03-12,-1,-0.0014115999684455208,-0.001160560326578462,-0.004034481774392135,0.008870831888257831,0.9914003808982844
2012-03-14,-1,-0.00047582301756063275,-0.00036667997739981393,-0.0069521496821139325,0.00726051700640635,0.9909627113752891
2012-03-16,-1,-0.00010003918609103452,-5.1388192803892294e-05,-0.011603439991978817,0.006459163667926586,0.9904032466649801
2012-03-20,1,0.0007452935971955701,0.0008460176475648907,-0.012569464706520478,0.00909479417674304,0.988305412566545
2012-03-22,1,0.0009464849560018996,0.0010893047951010622,-0.012569464706520478,0.00909479417674304,0.9880580238634975
2012-03-26,0,0.0,0.0,-0.012796543003815926,0.0074138547816237285,0.9889727613787704
2012-03-28,0,0.0,0.0,-0.012796543003815926,0.0074138547816237285,0.9889987379385249
2012-03-30,1,0.0009360714948660517,0.0010198257636300887,-0.012796543003815926,0.00391037537330813,0.9892260313640969
2012-04-03,1,0.001612253475981774,0.0018119159036225874,-0.012796543003815926,0.00391037537330813,0.9886725285122254
2012-04-05,1,0.0011008650834503845,0.0012704577528025868,-0.013579922299474644,0.00391037537330813,0.9882625169557345
2012-04-10,1,8.155874423124696e-05,9.598134104639295e-05,-0.009651903210621246,0.007354543384792428,0.9901791273429846
2012-04-12,-1,-0.0006269762470359082,-0.0005072538661940319,-0.007522550867211387,0.007203252410087436,0.9908569146167094
2012-04-16,-1,-0.0009629108881850149,-0.0008016211356701611,-0.007522550867211387,0.00387878074249431,0.991236215094509
2012-04-18,-1,-0.0003636415345172757,-0.00028093642356676724,-0.006599565185475902,0.005057154185583286,0.9929490324726874
2012-04-20,-1,-0.001226292423337604,-0.001009469672558713,-0.0074805625792720865,0.005057154185583286,0.9929040630455672
2012-04-24,-1,-0.0011863279221632122,-0.0010655772954775477,-0.0066700015591075,0.005057154185583286,0.9930047426039011
2012-04-26,-1,-0.0008424365284970877,-0.0007763684755464782,-0.0066700015591075,0.005706858699999479,0.9925703659103836
2012-04-30,-1,-0.0008079245948533212,-0.0007333977879411453,-0.0066700015591075,0.0072597594923509675,0.9917315263311288
2012-05-02,0,0.0,0.0,-0.008602464599929546,0.007094224633902411,0.9914385004874826
2012-05-04,0,0.0,0.0,-0.0074805625792720865,0.007094224633902411,0.9908856947396039
2012-05-08,0,0.0,0.0,-0.008820731267818682,0.005706858699999479,0.9907653776823775
2012-05-10,-1,-0.0005036234434457674,-0.0004125606690550489,-0.008820731267818682,0.005706858699999479,0.990804010054337
2012-05-14,0,0.0,0.0,-0.007029972803346886,0.005706858699999479,0.9910980167780613
2012-05-16,0,0.0,0.0,-0.007029972803346886,0.006185533247272324,0.9909889434706829
2012-05-18,1,0.00018305116946728552,0.00031964354821158533,-0.005268093689686158,0.00930657331076681,0.9909842185725123
2012-05-22,1,0.00046394475534128007,0.0005916978056677107,-0.005268093689686158,0.00930657331076681,0.9910572442612746
2012-05-24,1,0.0005852101073081063,0.0007450116525677725,-0.006188919646607595,0.01073478533339335,0.9900100647775724
2012-05-29,1,0.00124910203951959,0.0014769917946696747,-0.010196427818098912,0.00633622532829479,0.9903762767828291
2012-05-31,1,0.00025292350302152103,0.000366655251082097,-0.003332168801187531,0.010649309326201804,0.9900647854879605
2012-06-04,-1,-0.0012733600406400506,-0.0011747619057816546,-0.001101316959266573,0.01125493430998924,0.9901682382277069
2012-06-06,-1,-0.0016313496355821033,-0.0014841797142121158,-0.0009643038657497552,0.01125493430998924,0.9899222687299382
2012-06-08,-1,-0.0014910212212117368,-0.001345661602408351,-0.003332168801187531,0.010995394501211614,0.9899024836324298
2012-06-12,-1,-0.0012587199071192657,-0.0011616921444295774,0.000917777075266324,0.010995394501211614,0.9899038756569056
2012-06-14,-1,-0.0011730972182584648,-0.0010432738146644899,-0.0017596753751947802,0.011329648148869338,0.9888204115506553
2012-06-18,1,0.00021927798570810702,0.00032805846623594053,-0.003802690233089312,0.010995394501211614,0.9894920414952251
2012-06-20,0,0.0,0.0,-0.007186878719775512,0.010364864904464147,0.9886167971265271
2012-06-22,0,0.0,0.0,-0.007998243854808008,0.008801181374751492,0.9873639337139154
2012-06-26,0,0.0,0.0,-0.007186878719775512,0.008801181374751492,0.9875496476625933
2012-06-28,0,0.0,0.0,-0.007186878719775512,0.008535106769803215,0.9884567623919369
2012-07-02,0,0.0,0.0,-0.007186878719775512,0.007064672850108301,0.9890934285884229
2012-07-05,0,0.0,0.0,-0.00632599547653762,0.007064672850108301,0.9894362971902029
2012-07-09,1,0.001144950900923925,0.0012675733364661335,-0.005960488112412212,0.007064672850108301,0.9890914013209005
2012-07-11,0,0.0,0.0,-0.005960488112412212,0.008513023913123025,0.9885524984918049
2012-07-13,0,0.0,0.0,-0.006213031862022201,0.007555629923923504,0.9899110214142047
2012-07-17,0,0.0,0.0,-0.005960488112412212,0.007318730004624563,0.9901810387287785
2012-07-19,1,0.0026400834250911156,0.0028626235955995583,-0.0053723323659522135,0.008513023913123025,0.9906838095287286
2012-07-23,0,0.0,0.0,-0.004426866699591159,0.00938211848813061,0.9933350713912923
2012-07-25,0,0.0,0.0,-0.005187828311196131,0.00938211848813061,0.9933162914541487
2012-07-27,0,0.0,0.0,-0.0053723323659522135,0.009317478493777313,0.9936460036609411
2012-07-31,1,0.0018877074600780874,0.001993575156884533,-0.005187828311196131,0.009317478493777313,0.992983482739336
2012-08-02,1,0.0016094195883104047,0.0016769306885596159,-0.0053723323659522135,0.009317478493777313,0.9925935467559948
2012-08-06,1,0.0024376016388501583,0.002652538142743726,-0.005187828311196131,0.006194870629589536,0.9934906828326973
2012-08-08,1,0.00342664299496811,0.0037890997694922917,-0.005187828311196131,0.005513447243471177,0.9931905573927445
2012-08-10,1,0.0027447852222351856,0.0030117118146967404,-0.005549553392080815,0.005513447243471177,0.9930807890429395
2012-08-14,0,0.0,0.0,-0.006661138335731106,0.005513447243471177,0.9928442210830674
2012-08-16,0,0.0,0.0,-0.00688827378083064,0.005513447243471177,0.9923445596179916
2012-08-20,0,0.0,0.0,-0.00688827378083064,0.005496636351659253,0.9924821709845402
2012-08-22,0,0.0,0.0,-0.006661138335731106,0.005496636351659253,0.9927500307464566
2012-08-24,1,0.0014311518180758244,0.0017015590671463844,-0.003384140046839308,0.005496636351659253,0.9939634155032961
2012-08-28,1,0.003364097961566421,0.003752173742485482,-0.006661138335731106,0.005496636351659253,0.9940157528931074
2012-08-30,1,0.002393237386251988,0.002581795556620011,-0.002844216699179125,0.005541675167563083,0.9937642199025009
2012-09-04,1,0.002758579769104587,0.0029952104455658844,-0.002844216699179125,0.005541675167563083,0.993898852943352
2012-09-06,0,0.0,0.0,-0.002844216699179125,0.005138458553296859,0.9943525295239636
2012-09-10,0,0.0,0.0,-0.0007878763812087745,0.00563689354827465,0.994597321188765
2012-09-12,1,0.0019259782762132182,0.002183325735747565,-0.0013415290544527858,0.00563689354827465,0.9946758038427832
2012-09-14,0,0.0,0.0,-0.0013415290544527858,0.00563689354827465,0.9940135241217815
2012-09-18,0,0.0,0.0,-0.0018589150036509784,0.0061978130072552,0.9936495900372554
2012-09-20,1,0.0020579049824248482,0.002246698220141455,-0.004185485251522004,0.00714114909877416,0.9906339757713722
2012-09-24,1,0.0023990996766693603,0.00265203086325158,-0.008807746483506424,0.006466654174543933,0.9897449090315033
2012-09-26,1,0.0016241073633447406,0.0017130144219002106,-0.010110112621001002,0.006466654174543933,0.9893385447880816
2012-09-28,1,0.0021179587468800306,0.0022820495256740637,-0.010110112621001002,0.004408616695836804,0.9897436913126845
2012-10-02,1,0.002102300712971887,0.0022573944429987317,-0.011151214950730588,0.006466654174543933,0.9888294475999483
2012-10-04,1,0.0019093824050429795,0.001994092488213572,-0.011151214950730588,0.008031860567209908,0.9882548557804709
2012-10-08,1,0.0023446603117272067,0.0025076468940984455,-0.013614521118243149,0.008395799316533645,0.9873662741695276
2012-10-10,1,0.0010603215033947483,0.0011042637789492058,-0.012737795984439236,0.008395799316533645,0.9877192482902167
2012-10-12,1,0.001290295747087635,0.0013117749506433467,-0.010986610922365699,0.004986477471105161,0.9884173523557563
2012-10-16,1,0.0010855706122549086,0.0010971698239622333,-0.010986610922365699,0.0035024060891155236,0.9888530766860476
2012-10-18,1,0.0007350033391050976,0.000748846514121916,-0.009693631721126254,0.0035024060891155236,0.991239316298746
2012-10-22,0,0.0,0.0,-0.009454385141020597,0.0030256132685121083,0.9919786477098609
2012-10-24,0,0.0,0.0,-0.009454385141020597,0.004601721754386654,0.9916766361841997
2012-10-26,0,0.0,0.0,-0.009454385141020597,0.00587889131828183,0.9916935195461504
2012-11-01,0,0.0,0.0,-0.008776569292023582,0.00587889131828183,0.9919423860576875
2012-11-05,-1,-0.0024297561572310085,-0.0018967955121582877,-0.007124114726892568,0.0037998773715077466,0.9929465264114266
2012-11-07,0,0.0,0.0,-0.005847315032345067,0.0036193822409536116,0.9934276396917775
2012-11-09,0,0.0,0.0,-0.0042518275921260675,0.0036193822409536116,0.9939743501487259
2012-11-13,-1,-0.0032842403633001646,-0.0028160098677041533,-0.002516395822669033,0.005302483137353979,0.9929471187300603
2012-11-15,-1,-0.0035453659175667656,-0.0030380759427168823,-0.0022515948122134254,0.0063570660112981705,0.9927338693485483
2012-11-19,-1,-0.0028657262658941026,-0.002419513995041354,-0.0022515948122134254,0.0063570660112981705,0.9931549958835598
2012-11-21,0,0.0,0.0,-0.0022993847111313845,0.0063570660112981705,0.9939354249745962
2012-11-26,0,0.0,0.0,-0.0029817283167960762,0.005302483137353979,0.994345992477694
2012-11-28,0,0.0,0.0,-0.0042518275921260675,0.005170558902105831,0.9941714575757116
2012-11-30,0,0.0,0.0,-0.004400795090952618,0.005170558902105831,0.9936516084129066
2012-12-04,-1,-0.0009015853763339359,-0.0008044971911012975,-0.0052765160004113534,0.006157336413311653,0.9932220845443069
2012-12-06,0,-4.743220203038564e-05,1.3862698433199903e-05,-0.006290803370874716,0.006157336413311653,0.9931226338122519
2012-12-10,-1,-0.0002033861086825814,-0.00016295192252416087,-0.006290803370874716,0.00689270002161169,0.9923226357777388
2012-12-12,-1,-0.00011258862717912058,-9.416477551535858e-05,-0.006290803370874716,0.00689270002161169,0.9922043400646845
2012-12-14,-1,-0.0011961985655946715,-0.0009831435563275768,-0.006290803370874716,0.005349103572210337,0.9925218514518784
2012-12-18,-1,-0.00023271777200325225,-0.000143968561440114,-0.006290803370874716,0.004829276951665806,0.9929549024620501
2012-12-20,-1,-0.0002613395326429022,-0.00019854416422771085,-0.005292533051964294,0.007634633121253882,0.9922793229917318
2012-12-24,-1,-0.0007973366607642372,-0.0006660456031081568,-0.003951445209523962,0.007634633121253882,0.9903025719521988
2012-12-27,-1,-0.0006992315655199423,-0.0005868770117856393,-0.003951445209523962,0.007634633121253882,0.9901537527362957
2012-12-31,-1,-0.0006397735915290037,-0.0005355724055397565,-0.003045173231124003,0.006770543349028535,0.9914012812519089
2013-01-03,-1,-0.0005329349864651826,-0.00047430665416544205,-0.003045173231124003,0.0056341827068594995,0.9915039218449078
2013-01-07,-1,-0.0008369577183608716,-0.0007279543108993754,-0.002140925446482665,0.0056341827068594995,0.9913624769820211
2013-01-09,-1,-0.00042895529729939736,-0.0002889011080893994,-0.000584579067244248,0.0056341827068594995,0.9918203831716645
2013-01-11,1,0.0002558408954237674,0.0002973774572473068,-0.004141780390481862,0.004793684117447548,0.9922490730626955
2013-01-15,1,0.000758103599322438,0.0008042792172080239,-0.006905254274206643,0.004793684117447548,0.9917181146520564
2013-01-17,0,0.0,0.0,-0.007222537618217657,0.004793684117447548,0.991033079516688
2013-01-22,0,0.0,0.0,-0.007973915087840509,0.0031692123430818292,0.9912805292176476
2013-01-24,1,0.0015172807188099844,0.0016452675214578619,-0.007973915087840509,0.0031692123430818292,0.9930136224501486
2013-01-28,1,0.0009802612679238308,0.0010262982061161592,-0.007222537618217657,0.0028932802640256024,0.993477043999934
2013-01-30,1,0.001183748931094539,0.0012768381137958891,-0.007222537618217657,0.0031692123430818292,0.9932279164143877
2013-02-01,1,0.001566149925932292,0.0017714122223452177,-0.007222537618217657,0.0031692123430818292,0.9933768237634033
2013-02-05,0,0.0,0.0,-0.007008364304766206,0.004045001864747901,0.9936799388056968
2013-02-07,0,0.0,0.0,-0.00822845052849227,0.0031162505499582427,0.993108226861602
2013-02-11,1,0.00026212692345401725,0.000479502465448809,-0.007008364304766206,0.004264011514448502,0.9934665541763263
2013-02-13,0,0.0,0.0,-0.004494983126992354,0.005813958671758851,0.9937700844806123
2013-02-15,0,0.0,0.0,-0.005409302234994228,0.004264011514448502,0.9939820381540777
2013-02-20,1,0.0015313424933933012,0.0016813884204357247,-0.004041411499022463,0.005813958671758851,0.9936523421391379
2013-02-22,1,0.0008610626937579415,0.0009087779044931207,-0.0027996842968700387,0.005813958671758851,0.9943718235967941
2013-02-26,1,0.0011771850686824745,0.0012976415892198558,-0.0030506737460616108,0.006848430640377388,0.9937296355160862
2013-02-28,1,0.0013967296530386553,0.001550935769159034,-0.0037212648720385214,0.006031583990565116,0.9932228117540319
2013-03-04,1,0.001386740803456835,0.0015512499282975055,-0.0037212648720385214,0.007756659745347741,0.9929918950397599
2013-03-06,1,0.0017371951751517936,0.0019721842021000347,-0.0037212648720385214,0.00866922418627059,0.9927098048795003
2013-03-08,1,0.001239011002579599,0.0013750266289480667,-0.0037212648720385214,0.006286937139116672,0.9932942527198282
2013-03-12,1,0.0014687567013985184,0.0016378664185734528,-0.004041411499022463,0.00866922418627059,0.9926850238444702
2013-03-14,1,0.0015277267933857413,0.0017404216309823933,-0.005382575885969888,0.00926051994785827,0.9907484728377195
2013-03-18,1,0.0008118669404147674,0.0008682121640001769,-0.004452883186984697,0.00926051994785827,0.9908409546375911
2013-03-20,1,0.0008795099613807659,0.0009182009708913845,-0.009046385754509322,0.005594296224311547,0.9893206866705242
2013-03-22,0,0.0,0.0,-0.009046385754509322,0.004282758154480769,0.9893628207324234
2013-03-26,0,0.0,0.0,-0.009046385754509322,0.004282758154480769,0.9889666592733527
2013-03-28,-1,-0.0003683211761148374,-0.00033687585332416316,-0.007948744104604909,0.006293634790059148,0.9893138806446053
2013-04-02,-1,-0.00014464866117076453,-0.0001385199578246404,-0.007948744104604909,0.0035397300208330155,0.9896577724936825
2013-04-04,0,0.0,0.0,-0.007948744104604909,0.0035397300208330155,0.9895528661205517
2013-04-08,0,0.0,0.0,-0.007541300288658667,0.00703143554691501,0.9894200832397892
2013-04-10,0,0.0,0.0,-0.007541300288658667,0.007352954790938371,0.9890884529997929
2013-04-12,0,0.0,0.0,-0.005067220792364119,0.006612700914388082,0.991065789050567
2013-04-16,0,0.0,0.0,-0.004673105306709423,0.00812966148257812,0.9912259207101155
2013-04-18,0,-3.610979194489274e-05,8.581909117820214e-05,-0.0021296649059063806,0.00812966148257812,0.9933101943765172
2013-04-22,-1,-0.00036565404712570225,-0.00021805077018041485,-0.001855002197165854,0.010539237564868433,0.992967520999809
2013-04-24,0,0.0,0.0,-0.001855002197165854,0.009727708421973659,0.9936051293070307
2013-04-26,0,0.0,0.0,-5.7787541080925515e-05,0.010539237564868433,0.9929820643873868
2013-04-30,0,0.0,0.0,-0.001855002197165854,0.010539237564868433,0.9927612332490197
2013-05-02,0,0.0,0.0,-0.0022491345293281888,0.009727708421973659,0.9930664996492082
2013-05-06,0,-4.077376935531632e-05,3.3130786640990414e-05,-0.002249587352095345,0.009727708421973659,0.993173701075747
2013-05-08,1,0.0011754098296453547,0.001279139037753677,-0.0023957350984345673,0.008840366661536495,0.9937077506048319
2013-05-10,1,0.0016198166554482834,0.0017972549713463231,-0.0023957350984345673,0.008840366661536495,0.9935430844259695
2013-05-14,1,0.0019009345943984289,0.002144902963463453,-0.0036090788412010337,0.008840366661536495,0.9931412093255096
2013-05-16,1,0.0017084725076137342,0.0019096987588982115,-0.004319442751283692,0.010067413603574774,0.9923909236618247
2013-05-20,1,0.0018896037243324774,0.002087816325557406,-0.004319442751283692,0.008840366661536495,0.9925898048557883
2013-05-22,1,0.0018603860606334443,0.0020490294416215414,-0.008208817061537532,0.0074918225961835274,0.9918335723700878
2013-05-24,1,0.002308298414411736,0.0025383295015799887,-0.008208817061537532,0.004188876074734487,0.9921778472395759
2013-05-29,1,0.002255782173679032,0.002473514726611902,-0.008208817061537532,0.004728316080791337,0.9922492820432857
2013-05-31,1,0.0016694242032217854,0.0017879205896042987,-0.008208817061537532,0.004728316080791337,0.9923314878555599
2013-06-04,1,0.0020581370645849696,0.0022477792131465066,-0.008208817061537532,0.004012016871979972,0.992571992658339
2013-06-06,1,0.0019467040516236655,0.0021356102391494203,-0.006594083635338457,0.004012016871979972,0.992664453245405
2013-06-10,1,0.002552690694716436,0.002826825844490164,-0.008208817061537532,0.004012016871979972,0.9901681445938983
2013-06-12,1,0.0020819243725074097,0.0022637025641636527,-0.0047500990690349165,0.005462322854974062,0.9906007998261855
2013-06-14,1,0.0024843226311037324,0.002794969138266404,-0.004723222353464536,0.005462322854974062,0.9910416683880809
2013-06-18,1,0.002411780928918155,0.0027252443290206358,-0.00577029416750305,0.005462322854974062,0.9910119925265974
2013-06-20,1,0.0009740287986506694,0.0010608799563624105,-0.004606406005025332,0.005462322854974062,0.9915686230023748
2013-06-24,1,0.000993981209617983,0.0010855691345053183,-0.0035163133024609513,0.005462322854974062,0.9918428424023459
2013-06-26,1,0.0017877188081366468,0.0020043799080167787,-0.00577029416750305,0.004444304862400274,0.9916699633941675
2013-06-28,1,0.0008161529637616955,0.0009093841377621335,-0.0051129898537862735,0.004518693346191831,0.9919345117657993
2013-07-02,1,0.0014489403300408247,0.0016297623153575039,-0.005686917524246354,0.004518693346191831,0.9917899201600267
2013-07-05,1,0.0013801881239927849,0.0015185989897062155,-0.0051129898537862735,0.004518693346191831,0.9922542559989349
2013-07-09,1,0.0017041378046184642,0.0018695595243125326,-0.002517213918090562,0.004199115789712717,0.9949333896517372
2013-07-11,1,0.0026259936404719347,0.0029086622844001356,-0.0034141617895076543,0.003453147585931474,0.9945340767561641
2013-07-15,1,0.002256632408511673,0.0024901438043529543,-0.0034141617895076543,0.00233092983307489,0.9950063909792988
2013-07-17,1,0.0020344271933961213,0.0021757372999185133,-0.00201099211502853,0.00233092983307489,0.9951405106757886
2013-07-19,1,0.0015051029982664228,0.0015959917574728754,-0.0034141617895076543,0.0022007914534410335,0.994342432647772
2013-07-23,1,0.0017388659627573823,0.0018689599154312093,-0.0034141617895076543,0.003758372915631353,0.9939515777706708
2013-07-25,1,0.0013635255371345616,0.001430321934635511,-0.0033645819013433014,0.004821878881480671,0.9940942615198278
2013-07-29,1,0.0012532805645283406,0.0013050096977574065,-0.00201099211502853,0.0043067475236077506,0.9943887367940634
2013-07-31,1,0.0006827159073104349,0.0006886589081241738,-0.0033645819013433014,0.0043067475236077506,0.9940571511351786
2013-08-02,1,0.0009893716437150745,0.0010220326659872523,-0.0035056122967698925,0.0043067475236077506,0.9937300261648704
2013-08-06,1,0.0008247304922428529,0.0008421705081028195,-0.0035056122967698925,0.006841518405865166,0.9929325349421305
2013-08-08,1,0.0009996811442708785,0.0010271788721771251,-0.0035056122967698925,0.008333618591046988,0.9931034952503089
2013-08-12,1,0.0002855797988806411,0.000357848073111914,-0.0035056122967698925,0.009603192160653973,0.992578483120843
2013-08-14,1,0.0009127422488522765,0.0009498558438305641,-0.005259120910574162,0.008358529360366535,0.992686924768251
2013-08-16,1,0.0005794949594176079,0.0006135593171257307,-0.0009010117555523513,0.008358529360366535,0.9940652951528506
2013-08-20,1,0.00038068362778535857,0.00043407152817622125,-0.0009010117555523513,0.007281316775280524,0.9944109805860992
2013-08-22,1,0.00042686533583596663,0.0005138118443431621,-0.000893140121926374,0.007281316775280524,0.9946959668926714
2013-08-26,1,0.0004141301523078298,0.0004861999587238832,-0.0030723656128031447,0.008225927192592606,0.9942786319681788
2013-08-28,-1,-0.0005164674464887107,-0.000309803323595589,4.115440864382842e-05,0.008225927192592606,0.9945135973600594
2013-08-30,0,-8.778222448990096e-05,2.756667525025179e-05,4.115440864382842e-05,0.006797317683273856,0.994796522870957
2013-09-04,1,0.0015532591552562852,0.0016726998134900593,4.115440864382842e-05,0.006206777317593119,0.9957235047277258
2013-09-06,1,0.0016487366233642652,0.0017587121584939946,-0.0016051800933914442,0.00398950655956209,0.9957414356700597
2013-09-10,1,0.0004190659193489403,0.0005324147971975833,-0.0032986905941445625,0.00398950655956209,0.9956061252561463
2013-09-12,0,-9.919567663005532e-05,8.73152710160601e-05,-0.0032986905941445625,0.00398950655956209,0.9933840799824356
2013-09-16,-1,-0.0004908477196984457,-0.0002669692060332957,-0.0045270690365751595,0.00398950655956209,0.9928957426802543
2013-09-18,-1,-0.0006263364271302313,-0.00038147827273834903,-0.006879727915818504,0.006059100018364278,0.9917784052723835
2013-09-20,-1,-0.00045478920129556034,-0.0002408880618532997,-0.00958892318718122,0.006059100018364278,0.9911056704297017
2013-09-24,-1,-0.0003164383017514548,-0.00012875671933694987,-0.00958892318718122,0.004823289290044897,0.9912296350460289
2013-09-26,1,6.463830335245454e-05,0.00018861746229871485,-0.00958892318718122,0.004823289290044897,0.991024242033555
2013-09-30,1,0.0006196578550376963,0.0006261454366142431,-0.006879727915818504,0.005905747354436644,0.9910362886017872
2013-10-02,1,0.0011173526906671492,0.0011952849659256457,-0.006879727915818504,0.005654854458466598,0.9911617967246202
2013-10-04,1,0.00038704936161945496,0.0004118595573985237,-0.005240259689955699,0.006262244142395718,0.9906926315717852
2013-10-08,1,0.0004618738745675703,0.00048553610197674395,-0.0032988007544196467,0.007155570556423757,0.990040405484993
2013-10-10,1,0.001139369532943097,0.0012265669141565984,0.0026930968726975903,0.008918428591443102,0.9923054499864072
2013-10-14,1,0.0008949347211448113,0.0009520747535242043,0.0026930968726975903,0.007843962241796178,0.9925160710567918
2013-10-16,1,0.001281558322544197,0.0014283163189698455,0.0008142889374642588,0.0067974151065414495,0.993453829002797
2013-10-18,1,0.0008926022733418236,0.000987247905978701,-0.003843939262982265,0.0067974151065414495,0.993552504032604
2013-10-22,1,0.0009679990158314598,0.0010464045605380213,-0.005080711064729428,0.0067974151065414495,0.993245236204403
2013-10-24,1,0.0010330195652628637,0.0011398308456206246,-0.0046684325586504385,0.0067974151065414495,0.9934136416864617
2013-10-28,1,0.0013397332847780114,0.0014767039944266224,-0.0046684325586504385,0.007772150376565275,0.9933624043744526
2013-10-30,1,0.001826941345091604,0.002049655871264945,-0.00547375133103316,0.007772150376565275,0.992970108781322
2013-11-01,1,0.0020855892938653016,0.0022996870456225855,-0.00561358320571787,0.005739295704272781,0.9930312485604061
2013-11-05,1,0.002195846580713392,0.0024485746134821585,-0.006211312273152072,0.0046177081819610355,0.9931466223633308
2013-11-07,1,0.0024116886746590755,0.002678904550267574,-0.007007300602613,-0.0015427691995152635,0.9926515627865108
2013-11-11,1,0.002101487288404221,0.0022825249933041587,-0.007340839216576346,-0.0015427691995152635,0.9916525831733357
2013-11-13,1,0.0013486309497316713,0.0014498329960191945,-0.009617012218525225,-0.0015427691995152635,0.9885061030129281
2013-11-15,1,0.001572785512570582,0.0016709628903556937,-0.009617012218525225,0.002961736744698627,0.9887886448733288
2013-11-19,1,0.0010101999521245515,0.0010209438123871676,-0.010643695161260226,0.002961736744698627,0.9886954618131132
2013-11-21,1,0.0007692578336064054,0.0007992147773889283,-0.011189560301224104,0.005320608242677682,0.9877144520413902
2013-11-25,1,0.001342686262514368,0.0013955392578883943,-0.011189560301224104,0.006062638226090999,0.9873608361830829
2013-11-27,1,0.000571257051195642,0.0006208898310742526,-0.01184909373192002,0.006062638226090999,0.9876103722232618
2013-12-02,1,0.0003195797533076718,0.000337072522989463,-0.01184909373192002,0.006062638226090999,0.9876747103407898
2013-12-04,1,0.0003392549264140394,0.0003467518957813908,-0.012759964307725654,0.0046190504357964774,0.9878832800624123
2013-12-06,-1,-0.00043656368498407966,-0.0003516139901872179,-0.012759964307725654,0.006062638226090999,0.9871117467906473
2013-12-10,-1,-0.0018406732638621872,-0.001561535634317521,-0.01184909373192002,0.007517193621538381,0.9882967606443344
2013-12-12,-1,-0.0030678763716174362,-0.0026578311925479882,-0.009590047504062773,0.007517193621538381,0.9918036783555929
2013-12-16,-1,-0.0028612580166398095,-0.002454873341133209,-0.009590047504062773,0.008719933282776732,0.9916523473836937
2013-12-18,-1,-0.003525435903517302,-0.003041268706227576,-0.006286391429858575,0.008719933282776732,0.9916162965355675
2013-12-20,-1,-0.003636485491287875,-0.0031225396111591638,-0.003366603349526054,0.008719933282776732,0.992170576769704
2013-12-24,-1,-0.002611029367751741,-0.0022295431569495216,-0.009590047504062773,0.003579014506048501,0.9927342527272971
2013-12-27,-1,-0.0034674503338087905,-0.002971099833602308,-0.007939244575348408,0.0027914177407482497,0.9929417163172947
2013-12-31,-1,-0.0031584369696217533,-0.002735694928414533,-0.0080936153221114,0.004666800264995218,0.991664759994005
2014-01-03,-1,-0.0042520616817808225,-0.003704289903197628,-0.0080936153221114,0.004666800264995218,0.9904910061235243
2014-01-07,-1,-0.0031820268856985823,-0.002783859576518455,-0.00578758070254145,0.0028928007466583593,0.9920858579887368
2014-01-09,-1,-0.003815380371542345,-0.003272046847394859,-0.005679176165262035,0.00263940369397061,0.9924736489892109
2014-01-13,-1,-0.00344273131096198,-0.002970446350841367,-0.005679176165262035,0.004666800264995218,0.9911135713309724
2014-01-15,-1,-0.0026010582639670165,-0.002209706002778598,-0.005872318700075103,0.0027020914015653532,0.9919008896890992
2014-01-17,-1,-0.0023499982758280096,-0.001995208449780652,-0.005872318700075103,0.00633586962311323,0.9914220394796555
2014-01-22,-1,-0.00244119928999678,-0.0020400350972063627,-0.005872318700075103,0.004315925580374974,0.9917624457219761
2014-01-24,-1,-0.0034328797263207794,-0.0029354118655935176,-0.003257515906234447,0.00633586962311323,0.9913561810536692
2014-01-28,-1,-0.003086098372914209,-0.002679143347763869,-0.003257515906234447,0.00633586962311323,0.991397939884048
2014-01-30,-1,-0.0031687923233661396,-0.002793372183075539,-0.003257515906234447,0.004885090080430756,0.9925943014807812
2014-02-03,-1,-0.004007732804060776,-0.0035622830827082997,-0.003257515906234447,0.004885090080430756,0.9932077497223677
2014-02-05,-1,-0.003777470288037204,-0.0033470033593793634,-0.0035692317030977146,0.005792052700172499,0.9931984139540249
2014-02-07,-1,-0.0037190178724927627,-0.0033164787741788637,-0.002749896383598479,0.005792052700172499,0.9928077193292483
2014-02-11,-1,-0.0019356895244732955,-0.0017739095908184356,-0.0033122871713798,0.004851253513543481,0.9935518021967945
2014-02-13,-1,-0.0019703162729364223,-0.001803509839513075,-0.0033122871713798,0.004851253513543481,0.9934179799076583
2014-02-18,-1,-0.001088113266689397,-0.001036727857237967,-0.0033122871713798,0.004851253513543481,0.9926819931558133
2014-02-20,-1,-0.0008362726403865953,-0.0008237458543177104,-0.0033122871713798,0.006604544153852728,0.9922977898164519
2014-02-24,-1,-0.0002794712164270684,-0.00023876213122404013,-0.00416890829649918,0.004851253513543481,0.9928739165035921
2014-02-26,-1,-0.0005478616897664388,-0.0005112166780518344,-0.00416890829649918,0.006604544153852728,0.9902816092149586
2014-02-28,-1,-0.001094353498034195,-0.0010247741104346287,-0.0033122871713798,0.006604544153852728,0.9906719931469894
2014-03-04,-1,-0.0016153471499165315,-0.0014917444984318801,-0.00251241610168717,0.009849485822370732,0.9892138401431038
2014-03-06,-1,-0.0017001526662644138,-0.001545149608982891,-0.0027630910926052235,0.013852152829111748,0.9882622509608859
2014-03-10,-1,-0.0013924883894240428,-0.001276560322071487,-0.0054438173251688034,0.013852152829111748,0.9873391230282905
2014-03-12,-1,-0.00045563566981659577,-0.0004550666149585755,-0.0054438173251688034,0.013483861085312967,0.9879356101506869
2014-03-14,-1,-0.0010610817648381678,-0.0009616391890670632,-0.008252000404730241,0.013483861085312967,0.9876331705824776
2014-03-18,1,0.0004906031023510517,0.0006063752938850549,-0.008252000404730241,0.013483861085312967,0.9876320612817187
2014-03-20,1,0.0007593008278950796,0.0009063367344376474,-0.008418897570283159,0.006065421689731748,0.987716524831643
2014-03-24,1,0.0009162346609199138,0.0011146034506287353,-0.00911212017690512,0.006065421689731748,0.9869909763227085
2014-03-26,1,0.00210426714516991,0.002491953948529156,-0.009217383766379685,0.0001430391555938108,0.9888108304025393
2014-03-28,1,0.0025180458030371615,0.0030183565538373907,-0.011492727019040597,0.0007874650226883965,0.987317093992262
2014-04-01,1,0.004648369494267987,0.005495002282450796,-0.011492727019040597,-0.000286507875301919,0.9871922749957981
2014-04-03,1,0.005355476393302432,0.006340317250717627,-0.011492727019040597,-0.000286507875301919,0.9872345625749843
2014-04-07,1,0.004235898969059494,0.0050718495198821215,-0.008169214935413558,0.00044723750738411754,0.9895115186714658
2014-04-09,1,0.004826749148379409,0.005714364721101555,-0.008169214935413558,0.0008517109812684866,0.9890365736626597
2014-04-11,1,0.0038140460506053595,0.004541138624130714,-0.004515549790797437,0.0008517109812684866,0.9905821987188805
2014-04-15,1,0.004598657018639359,0.005401531130084424,-0.004515549790797437,0.0008423397586719805,0.9907376900087256
2014-04-17,1,0.004165588286670581,0.004909865047082011,-0.003945196218392506,0.002203797938838078,0.9919237836889093
2014-04-22,1,0.0037773833747897527,0.004509210029881688,-0.003945196218392506,0.002203797938838078,0.9924210831856907
2014-04-24,1,0.003008246796146939,0.0036080431928002784,-0.0034249863212504087,0.0040108593658830915,0.9935872738734675
2014-04-28,1,0.0017694761568571814,0.002179676972547652,-0.002530012739990461,0.00491387893228601,0.9955215528548019
2014-04-30,1,0.0019633321174798257,0.002410980545804898,-0.0017461215413028734,0.005969799113261521,0.9945703295700473
2014-05-02,1,0.001541629041023367,0.0018983116668776709,-0.0014377827172692786,0.005969799113261521,0.9947989223229069
2014-05-06,1,0.001110009924602854,0.0013627640999563351,-8.59665790166675e-05,0.006551850164959156,0.9937305092947512
2014-05-08,-1,-9.448402663523473e-05,-7.78873724322305e-05,-0.0014377827172692786,0.006527492250967688,0.9940034916256268
2014-05-12,1,0.00021596941486780145,0.0002490047505896168,-0.0016123982018493958,0.006527492250967688,0.9936574475118106
2014-05-14,1,0.0012051183052063444,0.0012851463472749584,-0.001872442946796632,0.006527492250967688,0.9929138736939822
2014-05-16,1,0.0011373514806209115,0.0012331490386748637,-0.005743669593613562,0.0051719551903062246,0.9923654200673292
2014-05-20,1,0.0009302027866532152,0.001031362625586081,-0.0022616454958818318,0.0051719551903062246,0.9929281560172476
2014-05-22,1,0.0007863612397372827,0.0008513747129249667,-0.001824017475714864,0.006218810518892681,0.9927689040618918
2014-05-27,1,0.000799750722470318,0.000847081621068698,-0.004636197907258121,0.006218810518892681,0.9926652967188294
2014-05-29,1,0.0014776912584976434,0.0015889496967863592,-0.00543139675118229,0.0029936902060149944,0.9935316476522126
2014-06-02,1,0.0016976809863022387,0.0018600822783606597,-0.00543139675118229,0.003448256775716612,0.9931394368721479
2014-06-04,1,0.002369656563992254,0.0026211639756183354,-0.00543139675118229,0.003448256775716612,0.9932985673378752
2014-06-06,1,0.0022347941949303163,0.0024632204165360772,-0.007436988333641525,0.003116154238557203,0.9931664906728938
2014-06-10,1,0.0020163393702010467,0.0022353633584198513,-0.005200637487267442,0.003116154238557203,0.9937198254560128
2014-06-12,1,0.001457339971506423,0.0016037093127724705,-0.004725261337985225,0.0055411253757623735,0.9945976702724494
2014-06-16,1,0.0009260875779685716,0.0010137737450601455,-0.003167409807438848,0.006987486046683306,0.9945758316702952
2014-06-18,1,0.00045312975435734247,0.0004735598193263685,-0.003830735592132529,0.007770936326797808,0.9933916110312683
2014-06-20,1,0.0005657332429699662,0.0005838165569906,-0.004725261337985225,0.00867219748776374,0.9930101723637073
2014-06-24,1,5.068808935250029e-05,0.00014790607949246556,-0.004231700927530789,0.009148472755334952,0.9925285409165289
2014-06-26,-1,-0.0007689095049722612,-0.0005406643264709113,-0.003245737190783139,0.010047025947194234,0.9922209294330723
2014-06-30,-1,-0.0007062988146380756,-0.00048633262925507146,-0.003245737190783139,0.010047025947194234,0.9926193221967878
2014-07-02,-1,-0.00039194209131627295,-0.0001973636714495857,-0.004231700927530789,0.009148472755334952,0.9923577711434923
2014-07-07,-1,-0.00022446557310547765,-8.379986956218101e-05,-0.003245737190783139,0.009148472755334952,0.9927027371142635
2014-07-09,-1,-0.00041979946762100897,-0.0002482651354958408,-0.004231700927530789,0.009148472755334952,0.9921613372924143
2014-07-11,-1,-0.00025507757558757786,-0.00011663093229292076,-0.004739593300203079,0.009770178739795615,0.9918077435148472
2014-07-15,1,0.0002973547635968072,0.000374140931097385,-0.006970046167483141,0.009148472755334952,0.9922115673654566
2014-07-17,1,0.0003029495174768642,0.00036011773517086887,-0.0046446818944406104,0.0091644860650142,0.9925107288853584
2014-07-21,1,3.149863328115275e-05,0.0001464050246262334,-0.0046446818944406104,0.009767029643322636,0.9911234819995776
2014-07-23,1,9.608903289688519e-05,0.00020900536263696083,-0.0036999606123996123,0.008634382055117828,0.9913136049892127
2014-07-25,1,0.00013542457706594758,0.0002683659387218848,-0.006908775093515293,0.007999236546979508,0.9914785430937363
2014-07-29,1,1.1997762127687701e-05,0.00016017257262693712,-0.006908775093515293,0.007999236546979508,0.9912548006441055
2014-07-31,-1,-0.0005458259811655502,-0.0003344351560684364,-0.006908775093515293,0.007999236546979508,0.9919577219076753
2014-08-04,0,-0.00012975621062582648,7.527170721163617e-06,-0.006908775093515293,0.008634382055117828,0.9912451802206922
2014-08-06,-1,-0.0008360012059928268,-0.0006048711664003939,-0.005306719124655381,0.009767029643322636,0.991211504594903
2014-08-08,-1,-0.0003249616925189832,-0.00019431976113365798,-0.004725381267022681,0.008634382055117828,0.9916255874197158
2014-08-12,-1,-0.0002452323190202905,-0.00013185400167768071,-0.004725381267022681,0.007999236546979508,0.9914682153347588
2014-08-14,1,0.00016114634868304276,0.00023538565597129395,-0.005292932699804198,0.005526846789139572,0.9917917271388726
2014-08-18,1,0.001128425990698215,0.0012215855425146758,-0.004725381267022681,0.005526846789139572,0.9929699293264954
2014-08-20,1,0.0014725321854333433,0.0016008042281976374,-0.005292932699804198,0.004840215057609618,0.9929055309934128
2014-08-22,1,0.0019939595122345083,0.002271401573342379,-0.005292932699804198,0.005230297671957342,0.992313995514705
2014-08-26,1,0.0023941722633151145,0.0027491099971803006,-0.0069576415547778145,0.005230297671957342,0.9913141986952764
2014-08-28,1,0.0013060171872299395,0.0014461479002453972,-0.007476461745156267,0.005849426389893872,0.9906208081334691
2014-09-02,1,0.0022439005270368214,0.002543897748888407,-0.010255560761740837,0.005230297671957342,0.9909943134440052
2014-09-04,1,0.002013117828445033,0.002237967784460439,-0.010255560761740837,0.005148584893059168,0.9912045699509255
2014-09-08,1,0.002719612994766425,0.0030871212708649216,-0.010255560761740837,0.004510375091249863,0.9907871934507996
2014-09-10,1,0.0017448961009990077,0.001958909698631063,-0.010255560761740837,0.005202383254354745,0.9907080909471492
2014-09-12,1,0.0012192287862961783,0.0013205151313120088,-0.012726405815330829,0.005202383254354745,0.989559508521021
2014-09-16,1,0.0013390250439617006,0.0014192329554971721,-0.012922723372816363,0.004497086655874848,0.9896940709796526
2014-09-18,1,0.00028201617123627674,0.0004027722936216423,-0.012922723372816363,0.004497086655874848,0.9901838371308842
2014-09-22,-1,-0.0003836713765506788,-0.00018286344380228302,-0.012726405815330829,0.005660116888404542,0.9899466626261373
2014-09-24,-1,-0.0006062352878609718,-0.00036944255298193855,-0.007662532110143298,0.005660116888404542,0.9899324118418333
2014-09-26,-1,-0.0014837411640141087,-0.0011309881647073414,-0.00470099410485062,0.014066972122169338,0.9891400709019222
2014-09-30,-1,-0.0012932573343483597,-0.001022930353280424,-0.00470099410485062,0.014066972122169338,0.9885333468180378
2014-10-02,-1,-0.0014456444375913111,-0.001152139321903228,-0.0034281369758929108,0.014066972122169338,0.9889366014067593
2014-10-06,-1,-0.0017571955455051992,-0.0014230475917779597,-0.005639400787697274,0.014066972122169338,0.9880317738078724
2014-10-08,-1,-0.0015764395474256285,-0.0012843976307388462,-0.01234037672503867,0.013635490850465653,0.9884588493591833
2014-10-10,-1,-0.003328158810767596,-0.0028064079328683393,-0.01234037672503867,0.014066972122169338,0.9870623947741305
2014-10-14,-1,-0.0036850762421239943,-0.0031256931270702785,-0.00537437412915017,0.014510157015440117,0.9864076487233112
2014-10-16,-1,-0.0034689232332158933,-0.0029487922037908015,-0.00537437412915017,0.014510157015440117,0.9859603138652122
2014-10-20,-1,-0.0013624026975506747,-0.001154142538449795,-0.01246773806267953,0.013993243826948581,0.9866088046852309
2014-10-22,-1,-3.791426797384723e-05,-6.882199122336912e-07,-0.01246773806267953,0.013993243826948581,0.986646995960125
2014-10-24,1,0.002100292132492649,0.0024009991960287653,-0.01246773806267953,0.013634949784778042,0.9876949008324799
2014-10-28,1,0.002089999451091126,0.0023927666538729113,-0.012342419841455954,0.011069090643714629,0.9881847817534644
2014-10-30,1,0.0016723849603783713,0.001892271376655269,-0.012342419841455954,0.013741818976631629,0.9876522031245968
2014-11-03,1,0.00029968446361800823,0.0003151237647739802,-0.010253532934266547,0.013741818976631629,0.9878941761767439
2014-11-05,-1,-0.0013808536456735257,-0.0011298840560189556,-0.009549927175135682,0.013741818976631629,0.9874436936518981
2014-11-07,-1,-0.0005672053702374684,-0.0004080275428898616,-0.003688985087587549,0.012415918799213622,0.9899039260380684
2014-11-11,1,0.00046901364337915714,0.000491172705430494,-0.009202850524381505,0.010571371965768774,0.9905341505489849
2014-11-13,1,0.0008114557523642928,0.0008244346200925371,-0.009549927175135682,0.009692244710017861,0.98986315028583
2014-11-17,0,-2.7008414529012322e-05,8.20533751547893e-05,-0.009202850524381505,0.00892545446474314,0.990926535701481
2014-11-19,1,0.00031790118887367125,0.000377157235236317,-0.005715387665119418,0.010169063404587453,0.9902099757306668
2014-11-21,1,0.0011805041144060007,0.0012618555774215198,-0.005715387665119418,0.011923567235944635,0.9896402914700739
2014-11-25,1,0.0006799210729447747,0.0006804628988135216,-0.004027158452967039,0.011923567235944635,0.9898145971605358
2014-11-28,1,0.001378982598207163,0.0014634627101748413,-0.004027158452967039,0.009510289075195534,0.9907329319486688
2014-12-02,1,0.0011151516339937685,0.001161366560598173,-0.004027158452967039,0.009510289075195534,0.9904548027554436
2014-12-04,1,0.00123739790156805,0.001355749212045983,-0.004027158452967039,0.009510289075195534,0.9893555836762488
2014-12-08,1,0.0013693348709311087,0.0014941725693611164,-0.005715387665119418,0.012091980035842859,0.9882426724070802
2014-12-10,1,0.0008326491622904892,0.0008874179687781365,-0.005219369763001996,0.012923649469299331,0.9873444508939466
2014-12-12,1,0.0005029310706529889,0.0005303692550920505,-0.004327273638199963,0.012923649469299331,0.9884230993974519
2014-12-16,1,0.0004529914396638792,0.0005016509597754916,-0.0049587471865573125,0.012923649469299331,0.9882821105469879
2014-12-18,1,0.0019379623386224455,0.0021847398516006136,-0.0049587471865573125,0.012091980035842859,0.98854266467293
2014-12-22,1,0.0025396017454283005,0.002822944892223225,-0.007510188023033568,0.009387379780465666,0.9875816905689901
2014-12-24,1,0.002695023479750403,0.003003923085362587,-0.008762905807043864,0.010151557791445574,0.986885172217577
2014-12-29,1,0.0021601203821436654,0.0023604790441413472,-0.009344106553611188,0.010151557791445574,0.9863481778617552
2014-12-31,1,0.0017205437959192163,0.0018596767373894024,-0.008762905807043864,0.010151557791445574,0.9869496650777755
2015-01-05,1,0.0018428043843311537,0.001997926377174933,-0.007510188023033568,0.00999831803491872,0.9887008040242502
2015-01-07,1,0.0019517246988179481,0.002155801646975171,-0.007510188023033568,0.009374696942508882,0.9890329333307585
2015-01-09,1,0.0025505753858266695,0.0028274776847956994,-0.008762905807043864,0.007853954667467602,0.9888468483299722
2015-01-13,1,0.0024354637427724843,0.0027225789946710845,-0.008762905807043864,0.00999831803491872,0.9880368499991989
2015-01-15,1,0.002093735237018388,0.002324727019403576,-0.008098198066399158,0.00999831803491872,0.9885073725217479
2015-01-20,1,0.0034526093114978823,0.0038711727284790856,-0.008098198066399158,0.009374696942508882,0.9894125201100575
2015-01-22,1,0.004029004295895505,0.004491909050507725,-0.005632971585219171,0.007853954667467602,0.9912622639447032
2015-01-26,1,0.00398044864041446,0.004471976755754711,-0.005883400748948366,0.005201119911640287,0.9912843119307252
2015-01-28,1,0.0035103105813689326,0.003946816441603945,-0.004961503901792572,0.007898234767892667,0.9919161340140399
2015-01-30,1,0.003797639247387516,0.00428742343338241,-0.005883400748948366,0.009507537243784083,0.9910284082969728
2015-02-03,1,0.004002089588897782,0.004470384932698529,-0.005883400748948366,0.005730832002544137,0.9910613190987709
2015-02-05,1,0.0031943452434524365,0.003544104259414758,-0.005883400748948366,0.008014878925523848,0.9914058822776752
2015-02-09,1,0.0022014395630700996,0.0024444847673852554,-0.0032239535847485568,0.008014878925523848,0.9930123032819256
2015-02-11,1,0.0031578263364872654,0.0035081455017511518,-0.0032239535847485568,0.005240001297517348,0.993283097082456
2015-02-13,1,0.0028687470175322426,0.0031484249741098513,-0.0032239535847485568,0.0077094576207573885,0.993103048529828
2015-02-18,1,0.002582884927825041,0.0028187286377044526,-0.0026670523839924147,0.008571107126304834,0.992046894369258
2015-02-20,1,0.002318141910888877,0.002476407886513362,-0.0026670523839924147,0.008571107126304834,0.9916920058148794
2015-02-24,1,0.0013630116399264423,0.0013654564904313409,-0.0015049829180233917,0.008571107126304834,0.9920449155582028
2015-02-26,1,0.0013638915316933023,0.0013698926932426336,-0.0015049829180233917,0.0077094576207573885,0.991643647542314
2015-03-02,1,0.0009358903944200418,0.0010063514754334868,-0.0010074461892051437,0.0077094576207573885,0.9917364245729502
2015-03-04,1,0.001146264113368674,0.0011992050336595604,-0.0023380720095855408,0.0074810194711522485,0.990818439528445
2015-03-06,0,-0.00016033830681450446,0.00011291621156421451,-0.0015049829180233917,0.007379903153677399,0.9915940166618682
2015-03-10,-1,-0.0007797100621908734,-0.0004158321413002689,-0.0012479732643053132,0.007379903153677399,0.991127779761717
2015-03-12,0,-0.00010527876214147872,0.0001793007126759034,-0.0012479732643053132,0.007379903153677399,0.9920236684234702
2015-03-16,1,0.0008423516053068826,0.0009708407077302548,-0.009028016511463227,0.007213067844735789,0.9916162062653486
2015-03-18,1,0.0024487413320737478,0.0025600918964465416,-0.009028016511463227,0.005251624741465188,0.9921742108736565
2015-03-20,1,0.003035746661418384,0.0033064943280747354,-0.009971676519481477,0.005251624741465188,0.9914956671519186
2015-03-24,1,0.0030304071473962564,0.003292214584982759,-0.009971676519481477,0.004319507216052658,0.9916548847304572
2015-03-26,1,0.0022007091395975596,0.002337188005643443,-0.009971676519481477,0.005411179877724631,0.9918982426951931
2015-03-30,1,0.0023376637089134056,0.0024466900445688326,-0.010779225562515794,0.0032385372092125814,0.9912400069525409
2015-04-01,1,0.0006393109784816847,0.0007983414728685627,-0.010948140949571205,0.0032385372092125814,0.991417049109232
2015-04-06,1,0.0011072453806163412,0.0011813667699113663,-0.010948140949571205,0.0023717574548470345,0.9913508997640239
2015-04-08,1,0.001073277985972009,0.0011207387113461712,-0.011927194240651102,0.0029117234687260993,0.9905363754103309
2015-04-10,1,0.001439547904935155,0.0014470347799883105,-0.011927194240651102,0.0029117234687260993,0.99009501523284
2015-04-14,1,0.00014366659223362724,0.0003136850748822383,-0.010948140949571205,0.0029117234687260993,0.9910001591353125
2015-04-16,1,0.0008858462506011258,0.0009615154285451426,-0.010948140949571205,0.0049347506872391665,0.9909534380744226
2015-04-20,1,0.0009951664555000591,0.0010390484423212735,-0.010218956919300179,0.0049347506872391665,0.991111939136028
2015-04-22,1,0.0006693945405965207,0.0007743050282848038,-0.010218956919300179,0.008189305983697154,0.989877929646933
2015-04-24,1,0.0007629502132593271,0.000824943629358016,-0.009991952601879113,0.009510433880481582,0.9866261759290572
2015-04-28,-1,-0.0005083872790890562,-0.00028398433601109334,-0.0076082974871697,0.009510433880481582,0.9867118419310793
2015-04-30,-1,-0.0019619639961597274,-0.0015539994952609173,-0.0076082974871697,0.009510433880481582,0.9870110783603928
2015-05-04,-1,-0.0017903206007662698,-0.001412587683938156,-0.009799199184536037,0.009510433880481582,0.9867258866749486
2015-05-06,-1,-0.0030107097945903335,-0.002463594193202146,-0.007348064766351841,0.009510433880481582,0.9873893180170289
2015-05-08,-1,-0.0029507035832448247,-0.002381159330035608,-0.009799199184536037,0.008056011949974375,0.9877731624968593
2015-05-12,-1,-0.003669716848196775,-0.002997925655981425,-0.009799199184536037,0.008056011949974375,0.9877186793257239
2015-05-14,-1,-0.002069140679442804,-0.0016583613306245131,-0.010597987018794676,0.004086878323486932,0.9880772212899027
2015-05-18,-1,-0.0009470017505545899,-0.0007170708986326318,-0.010597987018794676,0.0006273195045892583,0.9885059931945506
2015-05-20,1,2.3349064803090556e-05,0.00013205053253909072,-0.010597987018794676,0.001139711599464839,0.9892065490669858
2015-05-22,1,0.0021366565416270924,0.0022824922492735017,-0.011258485210228066,0.001139711599464839,0.99148024475098
2015-05-27,1,0.0007733229433158795,0.0008297135219489718,-0.0098172888563411,0.001139711599464839,0.9932630674827708
2015-05-29,-1,-0.0002327995816210573,-5.734591922407423e-05,-0.005399824156807571,0.0033880509472935904,0.9941323172308024
2015-06-02,-1,-0.0006767498795152317,-0.00044236838096169313,-0.005399824156807571,0.004281604519969635,0.9929149764431644
2015-06-04,-1,-0.0002731376328947601,-0.00011552705612471396,-0.007430196801189454,0.003997083203953416,0.9924596688955992
2015-06-08,-1,-0.0010982610810651111,-0.0008314714075042623,-0.006806045329193175,0.004581397137223822,0.9925746328565616
2015-06-10,-1,-0.0013966506916432168,-0.0010826837149385253,-0.011582819970873051,0.005524522700501005,0.9907113497224678
2015-06-12,-1,-0.0009535063549677756,-0.0007572086214244665,-0.006806045329193175,0.007552477122364063,0.9899878335025927
2015-06-16,-1,-0.000650658927482979,-0.0005363296868922105,-0.010770211674313865,0.010909231059322505,0.989045034715807
2015-06-18,-1,-0.0006632114037979748,-0.0005362131343777826,-0.010770211674313865,0.010909231059322505,0.9884812898785593
2015-06-22,-1,-0.0012887728743287137,-0.001063842982985102,-0.010770211674313865,0.010909231059322505,0.9888919850423138
2015-06-24,-1,-0.0014684922469402615,-0.0012334771612875998,-0.010770211674313865,0.013163892334654443,0.9874565690123982
2015-06-26,-1,-0.0005036104067596429,-0.0004167475231404118,-0.01372233950493288,0.010909231059322505,0.9867721634566596
2015-06-30,-1,-0.0010116668716159774,-0.0008336344056277855,-0.011924800333893464,0.010909231059322505,0.9875547793208955
2015-07-02,-1,-0.0021148875760647083,-0.0017503745855131517,-0.010770211674313865,0.010909231059322505,0.988197833180255
2015-07-07,-1,-0.0016064760911027702,-0.0013627024239360104,-0.009028105079344392,0.010909231059322505,0.9882529584195722
2015-07-09,-1,-0.0016806709275496291,-0.0014365931680137898,-0.008005671462687667,0.009062981307945693,0.9898819304515862
2015-07-13,-1,-0.0006158379519365723,-0.0004885352979319677,-0.009028105079344392,0.006113352545100868,0.9898211984439916
2015-07-15,-1,-0.0005167257534985285,-0.0004102056490060753,-0.009613759266875011,0.0052743997898084165,0.9901802806391694
2015-07-17,-1,-0.0009137246684768892,-0.0007305062379495751,-0.009361672672557771,0.0052743997898084165,0.9905995680514353
2015-07-21,-1,-0.0013856523327640327,-0.0011578236538553918,-0.003948939897388502,0.005763440474580882,0.9906752480807643
2015-07-23,-1,-0.0001739697676576434,-8.299033493963355e-05,-0.00940224928100533,0.0051619770589593226,0.990542260052141
2015-07-27,-1,-0.001343036891279187,-0.0011324986067286914,-0.008758937689216971,0.0051619770589593226,0.9897974049524935
2015-07-29,-1,-0.00044099293093154227,-0.00032893357230610025,-0.012153539366980576,0.0051619770589593226,0.9875652853178489
2015-07-31,-1,-0.0006737249950628302,-0.0005297596685223508,-0.012153539366980576,0.005763440474580882,0.9868482281304644
2015-08-04,1,0.00012737988880322232,0.0001408483020681688,-0.016806476605739057,0.0011883489009164505,0.9847775136226182
2015-08-06,1,2.092814357481156e-05,2.8984399668286156e-05,-0.016806476605739057,0.008323868581636817,0.984378896818076
2015-08-10,1,0.000572207033163183,0.0007016057196223418,-0.018440744841527197,0.008323868581636817,0.9839101227710013
2015-08-12,1,0.00022402615230472425,0.00030507727118355007,-0.018440744841527197,0.008323868581636817,0.9842047901500499
2015-08-14,1,0.0003787029305045053,0.0004837464177229062,-0.018440744841527197,0.008179694669790969,0.9842299836830841
2015-08-18,1,0.00038789897736113226,0.0004783743914518813,-0.018440744841527197,0.010309322332371402,0.9835381697953074
2015-08-20,-1,-0.00011829741019265644,-6.092331760217286e-05,-0.016488190781101305,0.010309322332371402,0.9841586682888428
2015-08-24,-1,-0.0015934609727486812,-0.0014319922305725892,-0.01628721839007372,0.010309322332371402,0.9854465051310257
2015-08-26,-1,-0.0008724607088062935,-0.0008143686632333883,-0.01187417156186808,0.00760315585623746,0.9883344834614005
2015-08-28,-1,-0.0009257640333142315,-0.0008464585829642339,-0.017126478330109773,0.006236832852672865,0.9857725902364545
2015-09-01,-1,-0.002121056499483495,-0.0019204313326713742,-0.012153924875213431,0.00760315585623746,0.9869439670609446
2015-09-03,-1,-0.0019213455334268956,-0.0017152610698854044,-0.012153924875213431,0.00760315585623746,0.9868344058181844
2015-09-08,-1,-0.0015933935326220693,-0.0014620246525120035,-0.012153924875213431,0.00760315585623746,0.986729069770025
2015-09-10,-1,-0.001959564648945077,-0.0017896510605095162,-0.010366122231867798,0.010208205602270518,0.9858056110650554
2015-09-14,-1,-0.0013714606350691693,-0.0012853981578844352,-0.010366122231867798,0.010208205602270518,0.9861640767100333
2015-09-16,-1,-0.0005066359207503265,-0.0004995927842626196,-0.017071037570853723,0.005323742867701821,0.9867456045351988
2015-09-18,-1,-0.0014487893347289202,-0.0013151558766869402,-0.010366122231867798,0.012897221916613097,0.984911837253918
2015-09-22,-1,-0.0023705563812400623,-0.0020756663812048167,-0.006304971090647186,0.012897221916613097,0.9854160721822549
2015-09-24,-1,-0.0024487150016130194,-0.0021489934076843707,-0.00849669224040209,0.012897221916613097,0.9837292048996922
2015-09-28,-1,-0.005225545504978856,-0.004577702129903736,-0.005304145049107223,0.0146153685566928,0.9842972622838306
2015-09-30,-1,-0.004350910328865847,-0.003827844285211754,-0.005304145049107223,0.018390690280538205,0.98395196887295
2015-10-02,-1,-0.003472399496800738,-0.003039644877547371,-0.005304145049107223,0.017149026875552753,0.9840000082402165
2015-10-06,-1,-0.004069897251368804,-0.003600830886677058,-0.004509490526870875,0.01821692758950671,0.98493974761799
2015-10-08,-1,-0.0027462459388886778,-0.0024637683941337476,-0.005304145049107223,0.017503037261208935,0.9862183138379733
2015-10-12,-1,-0.0019469476996160887,-0.0018050521195304811,-0.006149861354047638,0.017503037261208935,0.9862896620015414
2015-10-14,-1,-0.0011269726252811003,-0.0010248890605112492,-0.006149861354047638,0.017503037261208935,0.9859201380617676
2015-10-16,-1,-0.0001513062526110777,-1.4414356620204966e-05,-0.0066025054357996904,0.010765921822812054,0.9875199396622788
2015-10-20,-1,-0.0006611484064492927,-0.0006329441958640148,-0.0066025054357996904,0.010765921822812054,0.9872695375961579
2015-10-22,-1,-0.0017219426810776812,-0.0016208777662208892,-0.0066025054357996904,0.013237179516108291,0.9876851524551774
2015-10-26,-1,-0.0007028797441644486,-0.0006671007365356103,-0.0066025054357996904,0.010765921822812054,0.9895472206937211
2015-10-28,1,0.00029123973326719414,0.00042637948069726,-0.0066025054357996904,0.009500207009711327,0.9908245562814872
2015-10-30,1,0.0007871594465534295,0.000987757226897587,-0.0066025054357996904,0.008205901705989681,0.9916211544148753
2015-11-03,1,0.0010006744744676544,0.0012155486701183704,-0.0066025054357996904,0.008205901705989681,0.9919082733585637
2015-11-05,1,0.0007552254318553791,0.0009319815693425459,-0.0066025054357996904,0.009500207009711327,0.9887560798058213
2015-11-09,1,0.0005517422350551482,0.0007080069722013452,-0.0061577073145393365,0.009500207009711327,0.9889575524491238
2015-11-11,1,0.00015243714503800554,0.00024275783767020303,-0.00598687887259111,0.008205901705989681,0.9898388968640189
2015-11-13,1,0.00033953396757440633,0.00044270051889045743,-0.00598687887259111,0.00542254710150366,0.9905400534011781
2015-11-17,1,0.0009018910740741337,0.0011062718731060894,-0.00598687887259111,0.005394808526131954,0.9903201918008224
2015-11-19,1,0.0007483238474798891,0.000940021670909265,-0.005654608196419586,0.005364509142540927,0.9915032006864284
2015-11-23,1,0.0009902204243197703,0.0011901522215804023,-0.005654608196419586,0.005453524480423666,0.9907520694393003
2015-11-25,1,0.0009240364657009412,0.0011169456944839264,-0.005654608196419586,0.006070707892058605,0.9907059079924357
2015-11-30,1,0.0006623646922519647,0.0008036812859613975,-0.004734349938463045,0.007629800741451925,0.9906908045968502
2015-12-02,1,0.0013584554796565963,0.001652252418296368,-0.005236788773953862,0.005563842165958705,0.9910385704777912
2015-12-04,1,0.001716569968867051,0.002057890781348914,-0.005183701228009943,0.004426961137859327,0.9942018507963086
2015-12-08,1,0.001427116393586723,0.0017332138800072393,-0.005394628966778708,0.004426961137859327,0.9926566901802552
2015-12-10,1,0.001010801667983932,0.001230639890724553,-0.006097034557358344,0.005563842165958705,0.9921150703545155
2015-12-14,1,0.0018228190587539093,0.0022465556895603037,-0.006097034557358344,0.005563842165958705,0.9915345036213005
2015-12-16,1,0.0015759908793183605,0.00187302388948144,-0.00895056409070965,0.004572731143073714,0.9912505964770273
2015-12-18,1,0.0023724968699339864,0.002835973830955709,-0.00895056409070965,0.004269823335719143,0.9907885523191895
2015-12-22,1,0.002905567728627701,0.0034190236387655125,-0.00895056409070965,0.003578417153052527,0.9905479093713667
2015-12-24,1,0.00295665503990783,0.003500121300715943,-0.00895056409070965,0.003578417153052527,0.9902244434771097
2015-12-29,1,0.0031541912849431435,0.0037064427302924176,-0.01191905885124394,0.0010367881905501395,0.9884347682947979
2015-12-31,1,0.0027841487853385886,0.003290897083689199,-0.01191905885124394,0.003578417153052527,0.9886164595613981
2016-01-05,1,0.0024414725016913405,0.0028760717723924955,-0.015878557642811403,0.003578417153052527,0.9876101423625763
2016-01-07,1,0.0015023820771921802,0.0018214429698895423,-0.012256524475234301,0.003578417153052527,0.988172993063498
2016-01-11,1,0.001785341994367247,0.0021604619540451773,-0.018383330215765048,0.0029948081612620626,0.9876217537126314
2016-01-13,1,0.000584077490176579,0.0007384910597575655,-0.014122928288913065,0.0029948081612620626,0.9874540874891475
2016-01-15,-1,-0.00037375032220312654,-0.0003276391249035772,-0.008797963330703356,0.009857382928249309,0.9870845703488034
2016-01-20,-1,-0.0004487680930534648,-0.0004140743772497262,-0.00873570416002582,0.01911499002015414,0.9854203715876002
2016-01-22,1,0.00014063171226404557,0.0002010550227747179,-0.00873570416002582,0.012880403958538093,0.9861104017679947
2016-01-26,-1,-0.0006381187165883555,-0.0005207844833841871,-0.009596887630292804,0.012672152218781256,0.9863532047637951
2016-01-28,-1,-0.0013888180950767835,-0.0012145468460567272,-0.0038561781037060117,0.012709733227110236,0.9867147841643689
2016-02-01,-1,-0.0006024064866314027,-0.0005066882806011857,-0.008863033979083496,0.012709733227110236,0.9863506731516672
2016-02-03,-1,-0.0018843772191699045,-0.0016160816222960204,-0.008122631140009672,0.021332028210049942,0.9858975166034268
2016-02-05,-1,-0.00287404947698323,-0.00250860292297974,-0.006203844714410916,0.021332028210049942,0.9864104156344459
2016-02-09,-1,-0.0029323097421613234,-0.0026135034329653455,-0.006203844714410916,0.021332028210049942,0.9865910406919182
2016-02-11,-1,-0.00286926101252909,-0.002530556489515975,-0.006203844714410916,0.021332028210049942,0.9861967014718068
2016-02-16,-1,-0.001784255117510693,-0.0015550579542480984,-0.008122631140009672,0.012717049607026241,0.9874226353519212
2016-02-18,-1,-0.00027000657164014894,-0.00020367395906334691,-0.00841022561228641,0.006284593805475126,0.9890401207384667
2016-02-22,-1,-0.0017721437488106612,-0.0013970968465439745,-0.00841022561228641,0.008080021917482326,0.9889593732624626
2016-02-24,-1,-0.001802523956261677,-0.0014487092628116417,-0.008137090872002317,0.008080021917482326,0.9890166363086893
2016-02-26,-1,-0.0007784917931473646,-0.0005862481366092729,-0.008137090872002317,0.006297653173256875,0.9892037152192771
2016-03-01,-1,-0.0006151516085674226,-0.00039848332099656975,-0.007913359345242146,0.009283418316867676,0.9898026667374739
2016-03-03,1,0.00042628058230016264,0.0004834401824702103,-0.008018863990662822,0.009283418316867676,0.9900805435028364
2016-03-07,1,0.0002920324786842861,0.0003597620393992647,-0.00849289617039636,0.009283418316867676,0.9897671846179618
2016-03-09,-1,-0.0008371322955284795,-0.0005947879190956768,-0.00849289617039636,0.011911651980280012,0.9889487876162589
2016-03-11,1,0.0012548573744694085,0.0013612286312707118,-0.00805815535279484,0.009283418316867676,0.99070600783109
2016-03-15,1,0.0004912347158217749,0.0004918335446673773,-0.0055713765254073256,0.009283418316867676,0.9913540567647711
2016-03-17,-1,-0.0005611087282291847,-0.0003683199263600826,-0.0027825323073640915,0.010205452702240622,0.9910813680398455
2016-03-21,1,0.00038553653467017805,0.00041965060720466067,-0.005095648694519993,0.009047860662001821,0.9916103287820697
2016-03-23,1,0.0008823522057793139,0.0009637192946240534,-0.005095648694519993,0.009047860662001821,0.9917465906841371
2016-03-28,1,0.0012916651863374552,0.0014646944660738495,-0.0006733086034016235,0.0075634678859200395,0.9924907585605249
2016-03-30,1,0.002193621641441877,0.0025085010117999757,-0.001072700892164935,0.005094287506104082,0.9938012517716578
2016-04-01,1,0.0022388365160677156,0.0025472876772469127,-0.0028639210863879573,0.004799375312398737,0.9945512884278086
2016-04-05,1,0.0014343069573910343,0.0016133646665793398,-0.0007305232907566402,0.004799375312398737,0.9948775378041224
2016-04-07,1,0.001460625551470255,0.0016257875822076853,0.00013168819752850349,0.004799375312398737,0.9965802248774851
2016-04-11,1,0.0017096098979868237,0.0019101580870814028,0.00013168819752850349,0.004799375312398737,0.9964621073652968
2016-04-13,1,0.0020065127937862305,0.00226335058293554,-0.0013172186689199162,0.004560265999437445,0.9963484472346765
2016-04-15,1,0.0023761329108976784,0.002671254236453881,-0.0023442793989814133,0.004007428314942628,0.9964640118752173
2016-04-19,1,0.002420809049412588,0.002738924105738421,-0.0023442793989814133,0.004127937680320114,0.9959601308823338
2016-04-21,1,0.002647426739086738,0.0029892460607928934,-0.0032850444397882813,0.004127937680320114,0.9953503774821154
2016-04-25,1,0.002596680827556786,0.002922463995768634,-0.004381500721622158,0.004565421080029339,0.9950067517010177
2016-04-27,1,0.0026861578827416586,0.003029375254898539,-0.004381500721622158,0.005278677543493296,0.9940590092373984
2016-04-29,1,0.002399576203529531,0.002707194950617257,-0.0034469024764473832,0.005278677543493296,0.9943586922513751
2016-05-03,1,0.0021259124367344192,0.002384470791623662,-0.0030589612258216463,0.005278677543493296,0.9946551844873607
2016-05-05,1,0.002247712483949362,0.0025114033113227416,-0.003787798801835207,0.005383109808133873,0.993675494685058
2016-05-09,1,0.002457578469870342,0.0027301502908419106,-0.003787798801835207,0.0053788624720455544,0.9937422233374686
2016-05-11,1,0.0024570358678183612,0.002759162548850993,-0.003787798801835207,0.006691123706356182,0.9937054780628993
2016-05-13,1,0.0024483402383618314,0.002762809389320958,-0.00597371346465925,0.006691123706356182,0.9924982511653195
2016-05-17,1,0.0028221154246167593,0.003228649344076971,-0.00597371346465925,0.006691123706356182,0.9923023646077003
2016-05-19,1,0.002740310494248787,0.0031311902546549333,-0.006699850149927535,0.006316174372672085,0.9918568727700365
2016-05-23,1,0.0028183315362709854,0.0032351747443908853,-0.004998911531864159,0.007092099736850578,0.9910035552359977
2016-05-25,1,0.002974015636013909,0.0033837675393716595,-0.0038435227363938246,0.009669601234439669,0.9907631486822246
2016-05-27,1,0.002468779797177442,0.002799662646689651,-0.012239999027378386,0.009669601234439669,0.9890661652970365
2016-06-01,1,0.001920498528880562,0.0021182226884859543,-0.012239999027378386,0.01189881834946422,0.987800595858485
2016-06-03,1,0.0017767406265556769,0.0019514720955215157,-0.010880922983639574,0.01193060178561265,0.9880909643306308
2016-06-07,1,0.0017064201350840958,0.0018339131179373235,-0.010880922983639574,0.01193060178561265,0.9882429313669403
2016-06-09,1,0.0017366112235675337,0.0018409721596044511,-0.010880922983639574,0.01229572548643689,0.9881577030305858
2016-06-13,1,0.0006144084364435162,0.0006759070943614758,-0.0020893357012681576,0.01229572548643689,0.9892473897146682
2016-06-15,1,0.0007104210417075093,0.0007470113715877408,-0.00023295043783230253,0.01193560066702122,0.9901056394042043
2016-06-17,1,0.00032343929304804147,0.00040376650417932157,-0.0020893357012681576,0.01193560066702122,0.9908385164737654
2016-06-21,1,0.00042047374439823135,0.0005298444170994553,-0.0020893357012681576,0.009333111981536153,0.9919757825831075
2016-06-23,1,0.0016525548008896156,0.0017255636257069744,-0.0020893357012681576,0.007508038077829677,0.9930343988527554
2016-06-27,0,-7.033718593074602e-05,0.00011069297169816433,-0.00015255459123207464,0.007508038077829677,0.9938749754920402
2016-06-29,1,0.00015500609391513214,0.00034887554552351515,-0.0020893357012681576,0.005967816520426436,0.9946645459803769
2016-07-01,0,-0.00011184081568801506,0.00012400442511635557,-0.0015653086774048922,0.005967816520426436,0.9947889953341725
2016-07-06,0,-0.00020936570998226318,4.4661936385668424e-05,-0.0018200407316929998,0.005967816520426436,0.9941274165370658
2016-07-08,1,0.0004821757943702135,0.0006076088828960569,-0.0018268427632608575,0.005542975857904627,0.9947473113619424
2016-07-12,1,0.0011892858027781148,0.001207486286452863,-0.003113921736625843,0.005542975857904627,0.9944531467423658
2016-07-14,1,0.0009038164697291124,0.0009291355340157721,-0.003113921736625843,0.0059107920626663415,0.9941511331191538
2016-07-18,1,0.000618009858433281,0.000681823444104784,-0.002187472584970714,0.0059107920626663415,0.9942342228289923
2016-07-20,1,0.0007434809900679783,0.0007841432252151158,-0.0053816642947726485,0.0059107920626663415,0.9938191852766347
2016-07-22,1,0.0016183325824206908,0.0017136089728673144,-0.0053816642947726485,0.005620523904990337,0.9939978009471367
2016-07-26,1,0.0016159112636268853,0.0017346215073970129,-0.00540622983964466,0.0050539390154755405,0.9941318254275014
2016-07-28,1,0.0015160690497374918,0.0015932152271413728,-0.00540622983964466,0.002880699524948933,0.9941520475791721
2016-08-01,1,0.0011831036249833303,0.0011869081338094693,-0.00540622983964466,0.002880699524948933,0.9939870006463927
2016-08-03,1,0.0016299543830314836,0.0017440682683688056,-0.006748037030677166,0.0018728990048861186,0.9936415857736307
2016-08-05,1,0.0009007277966503786,0.0009302833089385599,-0.006748037030677166,0.0031246470765034814,0.9933831566309771
2016-08-09,1,0.0007862746806686112,0.0008349278725081132,-0.005807873772471783,0.004155941615654295,0.9935664241621747
2016-08-11,1,0.0009575410159762108,0.0009768072839491093,-0.006748037030677166,0.0025813670583418507,0.9919502782207201
2016-08-15,1,0.0006170496074156422,0.0006970245348312812,-0.006748037030677166,0.004155941615654295,0.9915870081391813
2016-08-17,1,0.0003374764331342549,0.00044981815750401753,-0.0059870244853337,0.006403445954329897,0.9915775348564753
2016-08-19,1,0.0007442493683998204,0.0007777993259224392,-0.0059870244853337,0.004773605899845004,0.9918131538214726
2016-08-23,1,0.0005257308562157728,0.0005752581772645214,-0.00390501678435891,0.008952125837737577,0.9911832993411828
2016-08-25,-1,-0.000479746669928097,-0.00026695527076668255,-0.002850308804364295,0.0104489559977441,0.9913499420768526
2016-08-29,1,0.00016551161345788325,0.0002955278672861333,-0.003925593517997985,0.008755382193570868,0.9916445180665227
2016-08-31,-1,-0.000375886243053219,-0.00019330210454907644,-0.002850308804364295,0.008755382193570868,0.9916349757513387
2016-09-02,-1,-0.0003947941993090666,-0.00021469925885019264,-0.002850308804364295,0.0104489559977441,0.9913479995674684
2016-09-07,1,0.0003324254933855863,0.00040227252857973533,-0.003667045328913507,0.005789250362706854,0.9916766116813561
2016-09-09,-1,-0.0012316133495311851,-0.0009708750280402264,-0.002850308804364295,0.007104141357215686,0.9929535545471894
2016-09-13,-1,-0.00022917092871330066,-0.0001092466846743976,-0.003667045328913507,0.0047398933639196195,0.9930932783338294
2016-09-15,0,-5.508189590586833e-05,4.6415831809033716e-05,-0.003667045328913507,0.0034687034389029037,0.9937248303509417
2016-09-19,-1,-0.0002943309724619364,-0.00016351933926314838,-0.003667045328913507,0.0034687034389029037,0.9937136617364497
2016-09-21,1,0.0003720496437651777,0.00043626538816021537,-0.00504426018622747,0.0034687034389029037,0.9940144217007808
2016-09-23,1,0.00016020323814497074,0.00026021966742773565,-0.007113276252356658,0.0034687034389029037,0.9932465499109676
2016-09-27,1,4.323769923872384e-05,0.00015053492558610003,-0.00613614581021304,0.0026815885498567135,0.9935703486559673
2016-09-29,-1,-0.0003729261446565498,-0.00023251724045433744,-0.00613614581021304,0.0026815885498567135,0.9925663023600279
2016-10-03,-1,-0.0003837268872375503,-0.00022738996788443475,-0.0048839720423479085,0.0047398933639196195,0.9925814792228695
2016-10-05,-1,-0.0005517976909807898,-0.00036826857037102205,-0.006632411820717974,0.005704723512226501,0.9922045739879748
2016-10-07,-1,-0.00030184731225181506,-0.00014692290617665472,-0.006632411820717974,0.004360700931058947,0.9923677225200053
2016-10-11,-1,-0.0010321057848399185,-0.0007915427081337753,-0.003552615849971903,0.006772439537877538,0.9919447085452936
2016-10-13,-1,-0.0009199059502146175,-0.0006963985763175587,-0.006632411820717974,0.00906885318139039,0.9895492274604188
2016-10-17,-1,-0.0009754986232224673,-0.0007646642681944045,-0.006632411820717974,0.01250668096325014,0.9873796540941254
2016-10-19,-1,-0.0010410080218325741,-0.0008204829627278516,-0.005978356058151828,0.01250668096325014,0.9878300212841844
2016-10-21,-1,-0.000828591871325669,-0.0006348184955409472,-0.0036795338069441517,0.01250668096325014,0.9885233043362183
2016-10-25,-1,-0.0010449293073224362,-0.0008216499891318198,-0.003682032198762501,0.012796017129124494,0.9874158351224451
2016-10-27,-1,-0.0020209353894765567,-0.001701765171504499,-0.0014665473741392566,0.01312986904605276,0.9877625743389994
2016-10-31,-1,-0.0013141512920983932,-0.0010851875190274135,-0.0014927583390332456,0.01312986904605276,0.9887315016428556
2016-11-02,-1,-0.0020964653174637155,-0.0017339333200582336,-0.0014927583390332456,0.01312986904605276,0.9885477625247556
2016-11-04,-1,-0.002062519243102033,-0.0017036410906696776,-0.0014927583390332456,0.01312986904605276,0.9882221698526336
2016-11-08,-1,-0.001343285689376675,-0.0010513691308199574,-0.0014927583390332456,0.007964139487545489,0.9896910341655594
2016-11-10,-1,-0.0016628155112795068,-0.001371354373840004,-0.0007148393873347771,0.011448021692599099,0.9905185750830698
2016-11-14,1,0.00026960327238262496,0.00029218440334580843,-0.00034051687676523996,0.007450637361105521,0.9930574348600018
2016-11-16,-1,-0.0008849270745998,-0.000659052953745785,-0.00034051687676523996,0.010394258178233516,0.9920232446517313
2016-11-18,1,6.394175235197264e-05,0.00012554821491615064,0.0003097502938125752,0.007270550231796982,0.9929441635639465
2016-11-22,1,0.0006340355391758153,0.0006597941463824526,0.0003097502938125752,0.006262919255063376,0.994145860669422
2016-11-25,1,0.0011541766434875543,0.0012460152435675908,-0.00034051687676523996,0.006262919255063376,0.9947451853826575
2016-11-29,1,0.0014091020543167546,0.0015546951067523746,-0.000710509298016655,0.006262919255063376,0.9946779080505671
2016-12-01,1,0.0010566058218434784,0.001168956338470476,0.00041997466782227967,0.006262919255063376,0.9954146916808753
2016-12-05,1,0.0013948600058656944,0.0015599420522930591,0.00041997466782227967,0.006324409048558543,0.9953513247197505
2016-12-07,1,0.0013721738657195175,0.0015212658144818756,-0.0028949421778998266,0.006324409048558543,0.9948114057896205
2016-12-09,1,0.002254574420405252,0.002528824599936247,-0.0028949421778998266,0.006030243512112635,0.9956959660249762
2016-12-13,1,0.0026560767296407387,0.0030145895178248453,-0.0028949421778998266,0.0048378738599424405,0.9956222925023631
2016-12-15,1,0.002648134531692327,0.0030003590748306917,-0.004189781968875781,0.003804653245793302,0.9958624086662817
2016-12-19,1,0.0026961497607771107,0.0030612923093312474,-0.004569388123980306,0.0048378738599424405,0.9948487707701122
2016-12-21,1,0.002583665070949484,0.0029444914676806074,-0.004569388123980306,0.0048378738599424405,0.9948245936708836
2016-12-23,1,0.0025495443699316126,0.0028934200406108427,-0.004569388123980306,0.004819691697101735,0.9951153814755189
2016-12-28,1,0.002213488266757232,0.002507677504912517,-0.004189781968875781,0.00593016965110077,0.9951132999605948
2016-12-30,1,0.0022175313707981778,0.0025088939006326413,-0.004569388123980306,0.006030243512112635,0.9933559196468499
2017-01-04,1,0.002646699198035869,0.003003999479747989,-0.004569388123980306,0.005975697023590518,0.9933601953985376
2017-01-06,1,0.0020832174070418655,0.002351225584794241,-0.004569388123980306,0.006338579011574533,0.9934295174949938
2017-01-10,1,0.0022511867945921916,0.0025200183515628033,-0.004569388123980306,0.006147450405583173,0.9934030932438602
2017-01-12,1,0.002224457056397691,0.0024927612682176248,-0.004569388123980306,0.007037184408360891,0.9931358587017803
2017-01-17,1,0.0017321907773256992,0.001919237765361309,-0.0019324545998811223,0.007085195303705379,0.9934113877993197
2017-01-19,1,0.0011359526041685077,0.001214860524431826,-0.001750875628658061,0.007122816829051589,0.993971988880143
2017-01-23,1,0.0012207477820377988,0.0013392066621057703,-0.0011387092690828325,0.007122816829051589,0.9942037311690709
2017-01-25,1,0.0011063900640855637,0.0011722678777758443,-0.001750875628658061,0.007122816829051589,0.9942193274833407
2017-01-27,1,0.0012937977275120928,0.001381931299521564,-0.0011387092690828325,0.007122816829051589,0.994055012224091
2017-01-31,1,0.0013034552020907838,0.0014169268645064475,-0.0008031226333652722,0.007122816829051589,0.9954868624806393
2017-02-02,1,0.0005309625783961374,0.0005872486201433354,-0.0010378895085410358,0.007122816829051589,0.9954850175987339
2017-02-06,1,0.0008859389852570575,0.0009032624839266292,-0.001371508758621217,0.005211435126182508,0.9959938386408713
2017-02-08,1,0.0010193553172345837,0.0010648954767303702,-0.001371508758621217,0.004935974240297075,0.9960707310573816
2017-02-10,1,0.0009707599788345914,0.001002707251384258,-0.0010378895085410358,0.0046830939379649515,0.9962652172554959
2017-02-14,1,0.0016046568970599848,0.0017595580646304983,-0.0013172180906045143,0.004152314968284444,0.996174052551513
2017-02-16,1,0.0016899716889147807,0.0018560588546742134,-0.001371508758621217,0.003474945971677413,0.9959484387288466
2017-02-21,1,0.001688400940455693,0.0018409008718492902,-0.0016501503624580423,0.003005610318557,0.9955671530085403
2017-02-23,1,0.001230474764968739,0.001288545501753606,-0.0016501503624580423,0.003005610318557,0.9956747333474738
2017-02-27,1,0.0017333157821967059,0.0018657270484948858,-0.0016501503624580423,0.003005610318557,0.9961543385690814
2017-03-01,1,0.0019044152915265104,0.002053246403919336,-0.0021615407171801555,0.0026228747908871148,0.996200429775824
2017-03-03,1,0.001905497930366098,0.002066023998577971,-0.0021615407171801555,0.0022355242486921385,0.9961749718632561
2017-03-07,1,0.0014072382949348427,0.0014629244614934342,-0.0026708404943966827,0.0022355242486921385,0.9962318888780008
2017-03-09,1,0.0013332750575844863,0.0013801531651462032,-0.0021357760579442794,0.002212106123181491,0.996361578227603
2017-03-13,1,0.0012618004525235611,0.0012802046865857306,-0.0021357760579442794,0.002212106123181491,0.9964647774296027
2017-03-15,1,0.0014128188345100112,0.001446534861290969,-0.0021357760579442794,0.001652285565577301,0.9968596167817924
2017-03-17,1,0.00109604665998641,0.0010979374163673536,-0.0021357760579442794,0.001652285565577301,0.996917344220091
2017-03-21,1,0.000654164614760388,0.0007114630403254984,-0.0021357760579442794,0.002212106123181491,0.9966064118077562
2017-03-23,-1,-0.0003242273875857084,-9.396556730444203e-05,-0.0023696825938374294,0.002994120896779734,0.9937087557378903
2017-03-27,1,8.05939190437311e-05,0.00024742186765054706,-0.0023696825938374294,0.004096082515259658,0.9926909030185082
2017-03-29,-1,-0.0004726459302040409,-0.0002261981458128075,-0.0018306678209917579,0.004096082515259658,0.9930330896920453
2017-03-31,-1,-0.0005994933165386218,-0.00033592695501347646,-0.002083694615783147,0.005811021012717993,0.9926889849153626
2017-04-04,-1,-0.0003753491552551584,-0.00017507518700777603,-0.0010592186346357869,0.005811021012717993,0.9926760628110893
2017-04-06,-1,-0.000967375523886752,-0.0006388346239096813,-0.001142996724968434,0.005811021012717993,0.9924758140647049
2017-04-10,0,-0.00012312581753090828,5.084431869320928e-05,-0.001142996724968434,0.005811021012717993,0.9926711187392347
2017-04-12,-1,-0.0005666496850594452,-0.0003196371524310282,-0.0016181863088917039,0.005811021012717993,0.9922298934787409
2017-04-17,-1,-0.0006173811938873066,-0.0003781462171287375,-0.0016181863088917039,0.0073141831377941165,0.9919663961467862
2017-04-19,-1,-0.0003444189631271335,-0.00015500188440619117,-0.0031463437617684138,0.005785661366018682,0.991720729182035
2017-04-21,1,0.0017081544442456194,0.0017978816719116868,-0.0016181863088917039,0.005109682966143192,0.9947043518455997
2017-04-25,1,0.002608134561462054,0.0028183300373554915,-0.0016181863088917039,0.005000979024438383,0.9952482544765685
2017-04-27,1,0.001965153241536925,0.002055372006949794,-0.0016181863088917039,0.005109682966143192,0.9948755850952506
2017-05-01,1,0.0021421892327819396,0.0022689095045567596,-0.001279261128783215,0.005000979024438383,0.9950371394281141
2017-05-03,1,0.002162752084733508,0.0022937903603208565,-0.001279261128783215,0.005543126690871399,0.9946961363100916
2017-05-05,1,0.0025209390121991356,0.0027518087231007743,-0.0021295682214429474,0.005543126690871399,0.9945123595700915
2017-05-09,1,0.002542648653715523,0.002780764515171416,-0.0024630174049134644,0.005543126690871399,0.9942350422560917
2017-05-11,1,0.0024213595578252744,0.002644356354626923,-0.002807488741497651,0.005339613336078218,0.9942361346687261
2017-05-15,1,0.0024555568259565,0.0026807691299063296,-0.002807488741497651,0.005339613336078218,0.9942779543542153
2017-05-17,1,0.0015171036739967808,0.0015993944895046134,-0.0018528781224194943,0.005339613336078218,0.9950250099288783
2017-05-19,1,0.0017160226799333871,0.0018280308186979328,-0.0018528781224194943,0.005055384987428105,0.9949603615125299
2017-05-23,1,0.0016123230143449511,0.0016887739856638706,-0.0018528781224194943,0.005089370934918479,0.9950515383151528
2017-05-25,1,0.002072603189864534,0.0022071199807017156,-0.0018528781224194943,0.004712414606393104,0.9955377206217965
2017-05-30,1,0.0020183428797911946,0.00216372981869326,-0.002760681361294444,0.004712414606393104,0.995463780286177
2017-06-01,1,0.0022036133261481897,0.0023439377638356652,-0.005165123434207871,0.00443961952033296,0.9950366500316269
2017-06-05,1,0.002099827621910104,0.002244569544069304,-0.004656027673404642,0.004712414606393104,0.9949583365539305
2017-06-07,1,0.0018480215533971272,0.0019526775507866414,-0.005165123434207871,0.004712414606393104,0.9944410587451739
2017-06-09,1,0.001342482657227912,0.00135559455798333,-0.005165123434207871,0.005047990753283871,0.9939842871517904
2017-06-13,1,0.0010107063226680866,0.0010603489944628459,-0.004656027673404642,0.004712414606393104,0.9946939009559763
2017-06-15,1,0.0004936225866404207,0.0006157662281808668,-0.0027085503164074897,0.004489160077047416,0.9951449998249076
2017-06-19,1,0.0006236499062335899,0.0007224845126503921,-0.0027085503164074897,0.005047990753283871,0.995091817434986
2017-06-21,1,0.000947977077571319,0.0010014050099944295,-0.0030348034057983194,0.0036998496858000095,0.9951694024700593
2017-06-23,1,0.0007857056332106519,0.0008754594300245824,-0.0030348034057983194,0.003221128366655371,0.9952185656606178
2017-06-27,1,0.0005655329808320229,0.0006694518288110709,-0.0030348034057983194,0.0031771557999911194,0.9950513794718523
2017-06-29,1,0.0008111580284493252,0.0008887358999420899,-0.002415166434912066,0.003677370419063305,0.9954849214198878
2017-07-03,1,0.0006715134245749574,0.0007662829694193991,-0.002415166434912066,0.0031771557999911194,0.9954056203082678
2017-07-06,1,4.7313192604067677e-05,0.00021285333826060794,-0.0027640805993652,0.0031771557999911194,0.9959747534622855
2017-07-10,0,-1.8522579509002617e-05,0.0001397614062540905,-0.0027640805993652,0.002972565451503908,0.9964238676445103
2017-07-12,1,7.99966846724009e-05,0.00021882932779808645,-0.003510693370414365,0.002777695967922616,0.9961968182591338
2017-07-14,1,0.00011738802519928548,0.00024545840425769947,-0.004066075509136929,0.002777695967922616,0.9958125165745114
2017-07-18,1,9.323749791429863e-05,0.0002350402943490094,-0.004066075509136929,0.002777695967922616,0.9959140244856319
2017-07-20,1,0.00036351735078653377,0.0004436924349717049,-0.0050254294481855595,0.0017379699271980594,0.9954247183343682
2017-07-24,1,0.00040085202566202355,0.0004648076271992884,-0.0050254294481855595,0.0017379699271980594,0.9952544524864664
2017-07-26,-1,-0.000146260928455685,-1.6683042526793315e-05,-0.004776924402106305,0.002896094066113712,0.9949860285346795
2017-07-28,1,0.00012200568657098459,0.00023096789714334486,-0.004776924402106305,0.0017379699271980594,0.9952578365797675
2017-08-01,-1,-0.00042229228090855055,-0.0002462257867442674,-0.004034334621949142,0.0017379699271980594,0.995774829579454
2017-08-03,-1,-0.0006618756926258156,-0.00046570273205751554,-0.00293797747809704,0.0036004104583343857,0.9953319242809002
2017-08-07,-1,-0.0008085037852565046,-0.0006102811146090892,-0.00293797747809704,0.0036004104583343857,0.9952756670961512
2017-08-09,-1,-0.0011379184539133133,-0.0008860274413284915,-0.0018298581561006205,0.0036004104583343857,0.9955509259357878
2017-08-11,-1,-0.0015095763198517752,-0.0012005979829550855,-0.0016097998752690422,0.0036004104583343857,0.9955797561048834
2017-08-15,-1,-0.001469958317218083,-0.0011596642015713663,-0.00293797747809704,0.0028032369693188177,0.9954837848490925
2017-08-17,-1,-0.0019200159926804647,-0.0015600898276010228,-0.005046843083305611,0.0028032369693188177,0.9953894314240991
2017-08-21,-1,-0.0022719698927612074,-0.001858209476819062,-0.006162387714865599,0.0028032369693188177,0.9943581531592351
2017-08-23,-1,-0.0017681751879524117,-0.0014064295119981883,-0.006162387714865599,0.0007922954269228243,0.9953100792739912
2017-08-25,-1,-0.0017941962529777495,-0.0014267807889685674,-0.006584194983624407,0.0007922954269228243,0.991685894115381
2017-08-29,-1,-0.0012256216879234381,-0.0009853077625608848,-0.007820190123475741,0.0007922954269228243,0.9909852976563055
2017-08-31,-1,-0.0008525989982246677,-0.0006550035682596815,-0.010877248923059999,-0.0003718441566917413,0.9901511880057242
2017-09-05,-1,-0.0012623238825924946,-0.0010108013831390014,-0.010877248923059999,-0.0003718441566917413,0.9903240720983676
2017-09-07,-1,-0.0013791060466457204,-0.0011081914524513087,-0.010877248923059999,-0.00025337080479353774,0.9901402198548355
2017-09-11,-1,-0.001182904265478256,-0.0009386271157059054,-0.012086058035702252,-0.000707910351362173,0.9898871716249895
2017-09-13,-1,-0.0008106284809320702,-0.0006673907068671401,-0.012086058035702252,-0.0004958655525129714,0.9898267783694289
2017-09-15,-1,-0.0006570581853412539,-0.0005737667419820288,-0.010894816708099274,2.6091979084838084e-05,0.9902992744316919
2017-09-19,-1,-0.001480961345388111,-0.0012861486211247035,-0.006012148249713104,0.00186444310704144,0.9911108693910455
2017-09-21,-1,-0.0012833372188272758,-0.0011210205613053834,-0.006012148249713104,0.005249709339394355,0.9904872718772264
2017-09-25,-1,-0.0028346771752629134,-0.0024948153355147788,-0.0051681024002739485,0.005494450711259648,0.992996437348332
2017-09-27,-1,-0.0032346875223932146,-0.0028531639877733194,-0.0051681024002739485,0.005494450711259648,0.9927785668474147
2017-09-29,-1,-0.0027694143896360626,-0.002448028316839021,-0.002903793937343572,0.0063203517794531375,0.9933846052582264
2017-10-03,-1,-0.003094271702896307,-0.0027385968677344622,-0.002903793937343572,0.0063203517794531375,0.9925886607142836
