JNU-Tangyin/eata/results/Batch4_SP500/Batch4_SP500-PNW.csv
Date,Action,Predicted_Q25,Predicted_Q75,Actual_Q25,Actual_Q75,RL_Reward
2010-12-14,0,0.0,0.0,-0.0026976140513941867,0.0034365456533891774,0.9962686850928767
2010-12-16,0,0.0,0.0,-0.00204277997172401,0.0029583134904377947,0.997250605094206
2010-12-20,0,0.0,0.0,-0.00204277997172401,0.0022338343862354083,0.9973107058166218
2010-12-22,-1,-0.00037075680891966397,-0.00024818175979231163,-0.00204277997172401,0.0024084460634342776,0.9973711348399394
2010-12-27,-1,-0.0004187616614904929,-0.00029028295730130187,-0.00204277997172401,0.0024084460634342776,0.9970289727871782
2010-12-29,-1,-0.00014898507212038873,-3.8051796736600406e-05,-0.0024080931698945733,0.003136335209074438,0.996530900596176
2010-12-31,0,0.0,0.0,-0.004255639269267728,0.003136335209074438,0.9949985209568545
2011-01-04,0,0.0,0.0,-0.004255639269267728,0.003136335209074438,0.994509709877225
2011-01-06,0,0.0,0.0,-0.00369592089456083,0.003136335209074438,0.9949137414847636
2011-01-10,0,0.0,0.0,-0.0012736965683649295,0.003564027130363861,0.9948486892342814
2011-01-12,0,0.0,0.0,-0.0010915179865171763,0.005116455539625082,0.9945529217658882
2011-01-14,0,0.0,0.0,-0.00369592089456083,0.005116455539625082,0.9942466650710301
2011-01-19,0,-0.00031584094462886077,0.0,-0.004097999334153962,0.005116455539625082,0.9942783206023402
2011-01-21,-1,-0.0003689186532986033,-0.000262629737362907,-0.004097999334153962,0.006565673817999788,0.9938138718955927
2011-01-25,1,0.0006642950736089937,0.0007237337462881209,-0.005500897574837396,0.006339792461972048,0.9936398070771946
2011-01-27,1,0.0008283167536648669,0.0009169059843917443,-0.004137022320944233,0.005183171070339543,0.9939453605080009
2011-01-31,-1,-0.001472744019625969,-0.0012332835481160872,-0.0007803185075182964,0.006565673817999788,0.9940025814963077
2011-02-02,-1,-0.0008644489357851596,-0.0007161728756876158,0.00018280694944479016,0.007172841505504459,0.9939506600976064
2011-02-04,-1,-0.00036211915054721266,-0.0003113998077852852,-0.0006330386690358832,0.007172841505504459,0.994008219167796
2011-02-08,-1,-0.00038942339456695817,-0.0002929260347702704,-0.0006330386690358832,0.0072469924283884695,0.9938265207064285
2011-02-10,1,1.1177928023398597e-06,2.5143372816542327e-05,-0.0026794345146259457,0.008863611983018597,0.9929967650647451
2011-02-14,1,0.00010323261146261943,0.00010433095508779371,-0.0026794345146259457,0.008863611983018597,0.9919276392872451
2011-02-16,0,0.0,0.0,-0.003897458946784777,0.008863611983018597,0.9913167582435133
2011-02-18,0,0.0,0.0,-0.003897458946784777,0.009043746871117139,0.9911254575050763
2011-02-23,0,0.0,0.0,-0.003897458946784777,0.009043746871117139,0.9912441302673705
2011-02-25,0,0.0,0.0,-0.003455619431337537,0.009043746871117139,0.9911522242770484
2011-03-01,0,0.0,0.0,-0.0036917835352225144,0.008315458077148027,0.9918682902147368
2011-03-03,0,0.0,0.0,-0.0036917835352225144,0.006373796471359154,0.992076235852508
2011-03-07,0,0.0,0.0,-0.0036917835352225144,0.008354238631952506,0.9916714652602621
2011-03-09,0,0.0,0.0,-0.006463062489548806,0.007805612624995884,0.9916513289799961
2011-03-11,0,0.0,0.0,-0.004852801632434001,0.006260445026315783,0.9929420946439088
2011-03-15,0,0.0,0.0,-0.006463062489548806,0.006260445026315783,0.9932746267308401
2011-03-17,0,0.0,0.0,-0.0032340461803939983,0.007805612624995884,0.9936956632967253
2011-03-21,0,0.0,0.0,-0.005089850425063257,0.007805612624995884,0.9932333486757006
2011-03-23,1,0.0004579553488217678,0.00046830198294212517,-0.0032340461803939983,0.007805612624995884,0.9936347696198536
2011-03-25,1,0.000602378723486222,0.000604638909154529,-0.0032340461803939983,0.006162379066333049,0.9939396205654972
2011-03-29,1,0.0009087132126140532,0.0010050885381790507,-0.0023117922385075223,0.007014306385991515,0.9938580659895221
2011-03-31,1,0.0014335242679418343,0.001609500421274966,-0.004685840107061141,0.007014306385991515,0.9938320697658893
2011-04-04,1,0.0014897569379665246,0.0016476832854008991,-0.004685840107061141,0.007014306385991515,0.9938028982826118
2011-04-06,0,0.0,0.0,-0.004685840107061141,0.006144095391226823,0.9940138056742327
2011-04-08,0,0.0,0.0,-0.0020921340794067354,0.006859040886920565,0.9936920521528517
2011-04-12,0,0.0,0.0,0.0,0.007831028811203887,0.9939531542508326
2011-04-14,0,0.0,0.0,-0.00023419739351656922,0.007831028811203887,0.9935978028683484
2011-04-18,0,0.0,0.0,0.0004977205474736173,0.006859040886920565,0.9944585144441045
2011-04-20,0,0.0,0.0,-0.00023419739351656922,0.006859040886920565,0.9944065143227946
2011-04-25,0,0.0,0.0,-0.002473924611987331,0.006859040886920565,0.993890875898859
2011-04-27,0,0.0,0.0,-0.003326593383440977,0.006214814823476205,0.994168021453774
2011-04-29,0,0.0,0.0,-0.0020439681496981447,0.005626900522968173,0.9947626942416834
2011-05-03,1,0.0002594799153928266,0.00028335334508828805,-0.003326593383440977,0.004609130355509186,0.9944702427078409
2011-05-05,1,3.044453606973733e-05,4.042465957253105e-05,-0.004357779620145912,0.004609130355509186,0.9938393861596869
2011-05-09,1,0.0001448857862849969,0.0001820112060729282,-0.004836275826486188,0.003669400789818509,0.993981208979184
2011-05-11,1,0.00040932572835335136,0.00047312689850332354,-0.005332224078088091,0.003309534012799345,0.9944813611292527
2011-05-13,1,0.0004451396960630644,0.0005304318910926211,-0.004952634057835753,0.0024818431041000906,0.9950664284572591
2011-05-17,1,0.0026510857497979616,0.002947982134874318,-0.005332224078088091,0.0024818431041000906,0.9934716271916181
2011-05-19,1,0.002608936228884937,0.0029071298214674735,-0.005332224078088091,0.003309534012799345,0.9933822624316706
2011-05-23,1,0.0018965312045164844,0.00209049863035012,-0.004952634057835753,0.004175897521346745,0.9941602834315546
2011-05-25,1,0.0016245106736831696,0.0017625216798361856,-0.005332224078088091,0.004175897521346745,0.9936186951105671
2011-05-27,1,0.0017662824323250305,0.0019320062460244673,-0.005332224078088091,0.006223098182094148,0.9933031273823362
2011-06-01,1,0.0010579936460617923,0.0011130116019996597,-0.005214208319941198,0.005289522331678301,0.9943302737340346
2011-06-03,1,3.4507116815291435e-05,0.00011513840901363628,-0.004931461129223573,0.006990861959113704,0.9946125339566082
2011-06-07,0,-3.5098647212068507e-05,4.601966113798467e-05,-0.004370689929412796,0.006990861959113704,0.9947566189531623
2011-06-09,-1,-0.0003605955695909973,-0.00023912761143858786,-0.004055881691838654,0.006990861959113704,0.994681419712004
2011-06-13,-1,-0.0007487317215182877,-0.0005742390565525305,-0.004055881691838654,0.007451507307903308,0.9938290580479565
2011-06-15,-1,-0.0006626588089504388,-0.0005084397351963824,-0.004281205918190449,0.006990861959113704,0.9940942416039176
2011-06-17,0,0.0,0.0,-0.004663009095556529,0.0035519131729202,0.9942791298032623
2011-06-21,-1,-3.11354035062644e-05,-2.9122323927082135e-05,-0.004663009095556529,0.0035519131729202,0.9939670528357194
2011-06-23,0,0.0,0.0,-0.004281205918190449,0.005545676474807061,0.993642974355365
2011-06-27,0,0.0,0.0,-0.006002474885132152,0.0035519131729202,0.9934031185536828
2011-06-29,0,0.0,0.0,-0.008546513540531939,0.002665594923429642,0.992353407766852
2011-07-01,0,0.0,0.0,-0.008546513540531939,0.0007840766405105067,0.9926535610151423
2011-07-06,0,0.0,0.0,-0.011082053665870763,0.0007840766405105067,0.9918603508236237
2011-07-08,0,0.0,0.0,-0.011474368248194889,0.0007969176281420898,0.9902035837860094
2011-07-12,0,0.0,0.0,-0.011649817023057403,0.0007969176281420898,0.9866024752488909
2011-07-14,0,0.0,0.0,-0.013900854557138463,0.003197087866841292,0.983458281657833
2011-07-18,0,0.0,0.0,-0.01256662431340464,0.0073632550733305005,0.9822168478490808
2011-07-20,0,0.0,0.0,-0.01256662431340464,0.005232773720671127,0.9826399120944427
2011-07-22,0,0.0,0.0,-0.01256662431340464,-0.0004701395424150975,0.982859570069266
2011-07-26,0,0.0,0.0,-0.01256662431340464,0.005232773720671127,0.9819641715466042
2011-07-28,0,0.0,0.0,-0.010313991519363656,0.009365228402389963,0.9817428025265241
2011-08-01,-1,-0.0008611826392623991,-0.00080033298648705,-0.010313991519363656,0.021801398509356217,0.9811428488969363
2011-08-03,-1,-0.002688639977935542,-0.0023694060567218574,-0.009239523652491845,0.021801398509356217,0.9816975239675838
2011-08-05,-1,-0.004858259673702476,-0.004222070926872637,-0.010313991519363656,0.021801398509356217,0.9826770130040453
2011-08-09,0,0.0,0.0,-0.009239523652491845,0.013098450202590001,0.9862181492512456
2011-08-11,-1,-0.00308435738347363,-0.0026384100772649677,-0.009239523652491845,0.0076841682942217614,0.9890693936512742
2011-08-15,-1,-0.0021756680535495333,-0.00182631621701173,-0.008104060704208946,0.008649418382676596,0.9897045736889936
2011-08-17,-1,-0.0017743700221014398,-0.0014941031314034947,-0.008104060704208946,0.010555997947438056,0.9888651883831934
2011-08-19,-1,-0.0024660280198052385,-0.0021075707823441613,-0.007716304730538594,0.011614976529896872,0.988271097238054
2011-08-23,-1,-0.0011337340242070439,-0.0009639413935241739,-0.0091507235983526,0.011614976529896872,0.9881064153473433
2011-08-25,-1,-0.00023232840051739986,-0.0001947430827876461,-0.009158955117802663,0.010555997947438056,0.988394482120287
2011-08-29,1,0.0005169396891729952,0.000573736370919751,-0.009158955117802663,0.009501477401147176,0.9894823877178008
2011-08-31,1,0.0005805257109523867,0.0006355539683896407,-0.011332929485762883,0.010555997947438056,0.988405565975197
2011-09-02,-1,-0.0006715132029527537,-0.0005376588535447758,-0.009641899551073365,0.010555997947438056,0.9881580284944816
2011-09-07,-1,-0.00036338637040103894,-0.00028083751016481565,-0.009641899551073365,0.009843140861936127,0.9883476560848314
2011-09-09,-1,-0.0016506172786841375,-0.00141069740918568,-0.006835242844639588,0.011614976529896872,0.9888342427732996
2011-09-13,-1,-0.0007668281944388162,-0.0006432800286503752,-0.00773449701881907,0.011861871859527645,0.9882553307647397
2011-09-15,-1,-5.813478160394657e-05,-1.751864273863432e-05,-0.00773449701881907,0.010242985154988992,0.9889020381275887
2011-09-19,1,0.0002656350240209808,0.0002813770071402916,-0.006548315693277226,0.008827733588263387,0.989417946212557
2011-09-21,1,7.505539053792931e-05,7.630555525847468e-05,-0.00458498544051995,0.008827733588263387,0.9904365937691002
2011-09-23,1,6.599599348881188e-05,9.497183865904538e-05,-0.0022248596253078247,0.010293731984367832,0.990858044629252
2011-09-27,-1,-3.676989007372408e-05,-3.258020056421033e-05,-0.00458498544051995,0.010293731984367832,0.9901311152892511
2011-09-29,0,0.0,0.0,-0.0022248596253078247,0.010293731984367832,0.989894622732436
2011-10-03,0,0.0,0.0,-0.0022248596253078247,0.010293731984367832,0.9898530687875715
2011-10-05,0,0.0,0.0,-0.004884736831913111,0.013574666830129827,0.987671099916975
2011-10-07,0,0.0,0.0,-0.007463351679463244,0.013574666830129827,0.9873284603231219
2011-10-11,0,0.0,0.0,-0.004900518643919648,0.009307013401396065,0.9886450199154992
2011-10-13,0,0.0,0.0,-0.008610486510788645,0.00973619312861733,0.9874338166007035
2011-10-17,0,0.0,0.0,-0.011918746400792784,0.013574666830129827,0.9864251974770591
2011-10-19,0,0.0,0.0,-0.011918746400792784,0.01004646790254555,0.9867112698325688
2011-10-21,0,0.0,0.0,-0.011918746400792784,0.00953418782888669,0.9867927748472416
2011-10-25,1,0.00022064894921523673,0.00022192013659723105,-0.011918746400792784,0.00953418782888669,0.9865502485810449
2011-10-27,1,0.0019503706598654707,0.002223053536351597,-0.012436567835484896,0.008130947092201307,0.9870530336515251
2011-10-31,1,0.001158000801029812,0.0013167437747935913,-0.010576752986536616,0.01338087599820415,0.987314401247526
2011-11-02,1,0.0012385388631938796,0.0013907172510684968,-0.008163155372703255,0.01338087599820415,0.9883411108022303
2011-11-04,1,0.001458192557265421,0.001636244662854848,-0.010576752986536616,0.00953418782888669,0.9888971951810414
2011-11-08,1,0.001855286701208695,0.0021093299674220384,-0.010576752986536616,0.00953418782888669,0.9887705504769769
2011-11-10,1,0.0015913713812891928,0.0018247389811409508,-0.010576752986536616,0.01338087599820415,0.9886714851240521
2011-11-14,1,0.0015965760652636692,0.001808386920292418,-0.007710417937682469,0.0050570806138560695,0.9898212219201671
2011-11-16,1,0.001480278556674779,0.0016905039425655253,-0.008364990781416119,0.01338087599820415,0.9886099503289643
2011-11-18,0,0.0,0.0,-0.009135853858915717,0.009221058749244799,0.988957163714222
2011-11-22,1,0.0013910882070470698,0.0016112482408270823,-0.006887766586116848,0.016347474235417287,0.988450543241748
2011-11-25,0,0.0,0.0,-0.006136332749356113,0.016347474235417287,0.9886203011257063
2011-11-29,0,0.0,0.0,-0.006700388348301817,0.010684816669160782,0.9896104293051166
2011-12-01,1,0.0018025400094907663,0.002056947420139214,-0.007372729925342842,0.007845359338841592,0.9909051899050328
2011-12-05,1,0.0013705136359857951,0.0015433936588882722,-0.007205112104708627,0.007845359338841592,0.9907842823029808
2011-12-07,1,0.001100190431549877,0.0012187866661032617,-0.007205112104708627,0.007845359338841592,0.9908932483229664
2011-12-09,1,0.0012170340636989071,0.0013735956525783802,-0.006814164034221473,0.007845359338841592,0.9917268810567781
2011-12-13,1,0.0010360308601962253,0.00117532846049056,-0.006814164034221473,0.007845359338841592,0.9917096314402908
2011-12-15,1,0.0010485550980843094,0.0011695037690894767,-0.005751286733220885,0.0066871847151383,0.9934594803751879
2011-12-19,1,0.0006232535453752217,0.0006499227038572219,-0.005544026451829827,0.005220222957769458,0.9937767649789323
2011-12-21,1,0.0011369198422500751,0.0012200990886334913,-0.005544026451829827,0.0030777522170624444,0.9947490493152461
2011-12-23,1,0.0011073442546374445,0.0011594216953432334,-0.005544026451829827,0.0030777522170624444,0.9943946614142879
2011-12-28,1,0.000539900385014578,0.0005954945162263258,-0.005544026451829827,0.0030777522170624444,0.9946028110542833
2011-12-30,1,0.00037366231401624397,0.00044747315006924044,-0.005544026451829827,0.0023646105695841026,0.9942738696872021
2012-01-04,1,0.0006199156166575326,0.0006439893220809671,-0.0050357385104789895,0.003257455743302656,0.9944345982705338
2012-01-06,1,0.0004726275800245007,0.0004750051838451026,-0.0050357385104789895,0.003257455743302656,0.9943204920827714
2012-01-10,1,0.00042264301737503804,0.0004478031582773023,-0.004256531606859726,0.003257455743302656,0.9942494887526031
2012-01-12,1,0.00015616818641239402,0.00022625598730083188,-0.004256531606859726,0.003257455743302656,0.994074878696928
2012-01-17,1,0.0004939315589699113,0.0005055254325215121,-0.004884306380728094,0.003257455743302656,0.993727038529637
2012-01-19,1,0.00029439016397284393,0.00031468878917959194,-0.00420922934656632,0.005608988031875479,0.9936188819707424
2012-01-23,1,0.0004275637334784743,0.00044855523852870477,-0.00420922934656632,0.003246345622741813,0.9935414761975715
2012-01-25,1,0.0010895410811257956,0.00119494605174255,-0.00420922934656632,0.0018469442052679937,0.9941320492596802
2012-01-27,1,0.00028623036570565364,0.000312037190013486,-0.002871915744468067,0.0013694597713450427,0.9949364507645416
2012-01-31,1,3.9523615347372525e-06,5.841647042490765e-05,-0.003067439790852461,0.0013694597713450427,0.9955046757628413
2012-02-02,-1,-0.0003744332024472261,-0.0002486347508059922,-0.00420922934656632,0.0007897075690146693,0.9956925229747065
2012-02-06,-1,-0.00013624163451291356,-6.762289478165476e-05,-0.0041068734477883,0.0007897075690146693,0.995657713502621
2012-02-08,1,0.0001590645311533819,0.00018633220858242183,-0.0041068734477883,0.0013694597713450427,0.9958145921277883
2012-02-10,0,-5.148216547159123e-06,3.728067216600379e-05,-0.0033579278561353927,0.0034943171948376636,0.9955402106604837
2012-02-14,-1,-0.00025243909247942296,-0.00016646202902645266,-0.0033579278561353927,0.0034943171948376636,0.9948776047730505
2012-02-16,1,1.3146584751627991e-05,6.896505816752097e-05,-0.004381295464975891,0.001905444491537823,0.9950485370950222
2012-02-21,-1,-0.0004795981548521398,-0.0003572629529782879,-0.0038369976519347497,0.0026661807369642715,0.9952606352091581
2012-02-23,-1,-0.0003279634345997969,-0.0002308301371272236,-0.0038369976519347497,0.0026661807369642715,0.9952402909102981
2012-02-27,-1,-0.000674486022010298,-0.0005088694080964783,-0.0038369976519347497,0.004299709137207927,0.9945864497196918
2012-02-29,-1,-0.0006997300560387665,-0.0005511294551080214,-0.0038369976519347497,0.0047376923082598915,0.9944065860923511
2012-03-02,-1,-0.000778330858808538,-0.0006261707826592616,-0.0012802547751275231,0.006002387913655616,0.9943027581107888
2012-03-06,-1,-0.0006619355401929258,-0.0005402713914313306,0.0011477734152443011,0.006002387913655616,0.9941554936858551
2012-03-08,-1,-0.00032284645094502606,-0.0002471521996846946,-0.00435479656000447,0.004135045551848281,0.9940939960740742
2012-03-12,-1,-7.116460054833355e-05,-1.5352283111360498e-05,-0.006915382369113737,0.003091280831612103,0.9939951426235604
2012-03-14,-1,-0.00036800786943678223,-0.00029659370581536866,-0.006095045248207655,0.0035444617053321725,0.9945979499898027
2012-03-16,-1,-0.00016127525198616092,-0.00012476270584694743,-0.004515149619027074,0.004135045551848281,0.9944588323165114
2012-03-20,-1,-0.00036959534511282223,-0.00029115440051321977,-0.0034243553573334376,0.004637183525171423,0.9941739144844698
2012-03-22,1,0.00015870755253774132,0.00018802433727779344,-0.003868592643164599,0.004994819945367274,0.9935325460333718
2012-03-26,-1,-8.970556881918621e-05,-4.474081493154687e-05,-0.006606767934603296,0.004994819945367274,0.9931346666440444
2012-03-28,-1,-0.00015217768456878578,-0.00010485439734182522,-0.003868592643164599,0.00586240826216907,0.9933834935535554
2012-03-30,1,0.000224663380658386,0.0002349929802881683,-0.004742571296928046,0.005188522523957907,0.993437414489471
2012-04-03,1,0.00042317051442702783,0.0004675335204455931,-0.006606767934603296,0.005188522523957907,0.9930819114732211
2012-04-05,-1,-0.00043284783822206325,-0.0003486405028215925,-0.0037008016358182393,0.005188522523957907,0.9938609989482259
2012-04-10,-1,-0.0009826563372274059,-0.0008398885274528928,-0.0026029327633096126,0.005188522523957907,0.9947196837956449
2012-04-12,-1,-0.0008627638764418179,-0.0007235942952342844,-0.0026029327633096126,0.007266125898495225,0.9938781346489475
2012-04-16,-1,-0.0005264485678138523,-0.0004390603094022441,-0.003204097312536304,0.005059894781280093,0.9940350799891388
2012-04-18,-1,-0.0006408916637270519,-0.0005100093424641369,-0.0037008016358182393,0.005059894781280093,0.9937754515275683
2012-04-20,-1,-0.0005133273399990958,-0.00037596373533178775,-0.005333719990994874,0.004299621015234258,0.9941503283759777
2012-04-24,1,0.0002074615764876249,0.00021038274060708947,-0.004339485580183239,0.005059894781280093,0.9940883293665835
2012-04-26,1,0.00045341006650246294,0.0004992999410693281,-0.004339485580183239,0.004682577055841013,0.9941079267273853
2012-04-30,1,0.0003482352562111261,0.0003673743663062016,-0.0039088936285225735,0.004898769899378625,0.9940149884740238
2012-05-02,-1,-0.00013527602105768894,-9.123810958585891e-05,-0.0039088936285225735,0.005681073877110801,0.9935535015368377
2012-05-04,-1,-0.00013333572047614104,-8.784998513534939e-05,-0.003555719955794193,0.008014808870565406,0.9934663920662634
2012-05-08,-1,-0.0002932338952787672,-0.00021294749665835475,-0.003555719955794193,0.00878420034390873,0.9925408196651355
2012-05-10,0,0.0,0.0,-0.003555719955794193,0.008312974340080093,0.9934666170625608
2012-05-14,0,0.0,0.0,-0.0021649861650005642,0.00878420034390873,0.993196487341019
2012-05-16,1,0.0005768040956555809,0.0006592568555241953,-0.001265374496897282,0.00878420034390873,0.9938647291065498
2012-05-18,1,0.00039529227069645223,0.0004751141836221661,0.00028218103194730786,0.00878420034390873,0.9940023427272634
2012-05-22,1,0.0009159361216459968,0.0010578529409843674,-0.001265374496897282,0.008305040172848496,0.9942049427025569
2012-05-24,1,0.0009504349482476796,0.0010922545091423062,-0.004832378315370859,0.008305040172848496,0.9938076966353383
2012-05-29,1,0.0009540781058250191,0.0010709251791971575,-0.004832378315370859,0.008305040172848496,0.9941190195686548
2012-05-31,1,0.0009317550437252262,0.0010401619061831304,-0.002224754673847756,0.008305040172848496,0.9945195819187618
2012-06-04,1,0.0013923420574527292,0.001576464958944133,-0.002224754673847756,0.008716608276081313,0.9942730064781522
2012-06-06,1,0.001960370727139398,0.0022118134207745757,-0.002927261087460175,0.006522969867115026,0.9947294412318972
2012-06-08,1,0.0019005853196404016,0.002138932912114575,-0.002927261087460175,0.006522969867115026,0.9948404228489812
2012-06-12,1,0.0019472748267303107,0.002185625289995726,-0.0022979702324881406,0.004190440942822134,0.9954345040904858
2012-06-14,1,0.0020312289536207036,0.0022747225390392107,-0.0022979702324881406,0.004190440942822134,0.9951255926698465
2012-06-18,1,0.0025295520758209715,0.002877902549825402,-0.0025747503902983572,0.004190440942822134,0.9948204187607963
2012-06-20,1,0.0018414955305218704,0.002084006750126226,-0.0014363566515887955,0.004190440942822134,0.995844361425804
2012-06-22,1,0.001182622155578193,0.0013003953972107545,-0.0007194646847392865,0.006606212856230829,0.995740583388382
2012-06-26,1,0.001291639964606001,0.001432988008400816,-0.0022979702324881406,0.006606212856230829,0.9951639129435493
2012-06-28,1,0.0016205073037584598,0.0017930760541110438,-0.0022979702324881406,0.007973745016348054,0.9943185710033863
2012-07-02,1,0.0021262781486765764,0.002394209592074641,-0.0034433850486841003,0.003955999228033679,0.9938758466786107
2012-07-05,1,0.0017022026049640852,0.0018889552337582939,-0.0034433850486841003,0.003955999228033679,0.9939647425570934
2012-07-09,1,0.0015360469738016284,0.0016952859857409365,-0.0034433850486841003,0.007973745016348054,0.9932805262111436
2012-07-11,1,0.0017702080770122045,0.0019805007834860443,-0.004306652564269103,0.007973745016348054,0.9926402730135276
2012-07-13,1,0.0019345133199116312,0.0021410400990570103,-0.004306652564269103,0.0029227801437381852,0.9931276485779222
2012-07-17,0,0.0,0.0,-0.0049803123748207055,0.0013601351231186751,0.9941222375112256
2012-07-19,0,0.0,0.0,-0.0049803123748207055,0.001502646731299696,0.9940851109413837
2012-07-23,1,0.0014118123609264013,0.0015297128633055554,-0.0049803123748207055,0.001359588158546581,0.9938266774655703
2012-07-25,0,0.0,0.0,-0.004653254860867276,0.001359588158546581,0.9945598826713591
2012-07-27,0,0.0,0.0,-0.005462098372856649,0.00032802107228822685,0.9951013931758044
2012-07-31,0,0.0,0.0,-0.0035108331234074753,0.00032802107228822685,0.9957099088470014
2012-08-02,0,0.0,0.0,-0.003589766354214708,0.001359588158546581,0.9957574784861982
2012-08-06,0,0.0,0.0,-0.003589766354214708,0.001359588158546581,0.9956864163376478
2012-08-08,0,0.0,0.0,-0.003589766354214708,0.001502646731299696,0.9953204495662671
2012-08-10,0,0.0,0.0,-0.003589766354214708,0.001502646731299696,0.9952626440346056
2012-08-14,1,0.001522477413234782,0.001649179451924748,-0.0030058406966539716,0.0003755249416819005,0.9946640893327
2012-08-16,0,0.0,0.0,-0.0030058406966539716,0.0003875121847090685,0.9940844948647981
2012-08-20,1,0.0003237116958820506,0.0003808232102337784,-0.0037503616868933554,0.0003875121847090685,0.9931616286960643
2012-08-22,1,0.00015817802483383527,0.00022561862240597864,-0.0030058406966539716,0.002279255988671885,0.9932754431284955
2012-08-24,-1,-0.00017277969533601356,-7.309143401187294e-05,-0.002868312745008786,0.00354008041261862,0.9934372822568084
2012-08-28,-1,-0.0007141932433952894,-0.0005197468433152792,-0.0030058406966539716,0.005626109736373964,0.9931114783113643
2012-08-30,-1,-0.0013281244085121056,-0.00101866089679448,-0.003166799818146805,0.005626109736373964,0.9924303483519349
2012-09-04,-1,-0.0008131952639247916,-0.0005692418213045254,-0.004417270328469415,0.00364918999282148,0.9929443056615009
2012-09-06,0,0.0,0.0,-0.003123592288580319,0.004187912117578033,0.9931720804563391
2012-09-10,0,0.0,0.0,-0.0025581969562655706,0.004187912117578033,0.9932480503310033
2012-09-12,0,0.0,0.0,-0.004313016126550715,0.004187912117578033,0.9930182893470024
2012-09-14,0,0.0,0.0,-0.004313016126550715,0.0032277706942014923,0.9942734797982151
2012-09-18,0,0.0,0.0,-0.002023023516893283,0.004187912117578033,0.9952755026223058
2012-09-20,0,0.0,0.0,-0.002023023516893283,0.005259852428226455,0.9946618450568497
2012-09-24,0,0.0,0.0,-0.002828367803072076,0.004123806255840853,0.9950177585341731
2012-09-26,0,0.0,0.0,-0.003208745480761387,0.0032277706942014923,0.9946241494565325
2012-09-28,0,0.0,0.0,-0.002881385720594546,0.004123806255840853,0.9950654431306324
2012-10-02,0,0.0,0.0,-0.002023023516893283,0.004123806255840853,0.9953667009564007
2012-10-04,0,0.0,0.0,-0.004472069879118124,0.001792871599764314,0.9949142623942714
2012-10-08,1,0.005582262539072313,0.005694006849414309,-0.005863656458898058,0.001792871599764314,0.9907231539258909
2012-10-10,0,0.0,0.0,-0.007811274800795081,0.001792871599764314,0.9929797786908782
2012-10-12,0,0.0,0.0,-0.007811274800795081,0.002859671730745943,0.9927583812026405
2012-10-16,0,0.0,0.0,-0.007811274800795081,0.0016389940707877463,0.9927322134231354
2012-10-18,0,0.0,0.0,-0.007811274800795081,-0.00019345491886230647,0.9928140452247983
2012-10-22,0,0.0,0.0,-0.005554811290986781,-0.00021340791252548777,0.993140627904192
2012-10-24,0,0.0,0.0,-0.004723741920503115,0.0015791350897982025,0.9932960488480297
2012-10-26,0,0.0,0.0,-0.004723741920503115,0.002163400564840411,0.9930985258151448
2012-11-01,0,0.0,0.0,-0.004723741920503115,0.006349033858601691,0.9922761358570995
2012-11-05,0,0.0,0.0,-0.004045048592336671,0.006349033858601691,0.9932566073947812
2012-11-07,0,0.0,0.0,-0.003992039062433045,0.006600260927050581,0.9941068055781453
2012-11-09,0,0.0,0.0,-0.0034295604361919297,0.006600260927050581,0.9947643099827392
2012-11-13,0,0.0,0.0,-0.0035951773205470648,0.006600260927050581,0.9948670862355324
2012-11-15,0,0.0,0.0,-0.003578518877104636,0.006600260927050581,0.9948139241153374
2012-11-19,-1,-0.0025473269087741652,-0.0022064499779636585,-0.0023139890281543667,0.007381071973995764,0.993759274193577
2012-11-21,-1,-0.002414992042265322,-0.002113637318592553,-0.0024685002835478824,0.007382279674208957,0.9934491527857315
2012-11-26,-1,-0.0017120226856393388,-0.0015265155359739993,-0.002464887232675323,0.007133364755054222,0.9942825741056481
2012-11-28,-1,-0.0015424720278415672,-0.0013629547738588977,-0.004811985589275831,0.006600260927050581,0.9944385050667925
2012-11-30,-1,-0.0005430511705696062,-0.0004893517920061973,-0.004946842698319553,0.004381266946710815,0.9944183912718446
2012-12-04,-1,-0.0007208798721349047,-0.0006533760222184706,-0.004946842698319553,0.006600663493788312,0.9931227015556932
2012-12-06,-1,-0.00037445471049896335,-0.00037371145569809914,-0.005102632315713427,0.004559236600537182,0.993084261930917
2012-12-10,-1,-0.00010353018792752153,-5.800163832454753e-05,-0.005102632315713427,0.002506314692858838,0.9932701005034279
2012-12-12,-1,-0.0003587438734725828,-0.00034834030840950273,-0.005341952448369495,0.005394272786416955,0.9930409838042688
2012-12-14,-1,-0.0007099569112362766,-0.0006768601934846062,-0.004891758966827853,0.005394272786416955,0.9932374841395806
2012-12-18,1,0.00011605657441217347,0.00017034509487939058,-0.004891758966827853,0.003561209551908097,0.9941532893036716
2012-12-20,1,0.0007636054337940442,0.0009538623210639639,-0.004745814536435077,0.0045272359333656115,0.9941375166729867
2012-12-24,1,0.0003005754796071915,0.0004016610615460227,-0.004841378094752387,0.005097285879400707,0.9937165370853275
2012-12-27,-1,-0.0005193908649635966,-0.0005080390865896757,-0.0021353546252161296,0.005097285879400707,0.994091839198677
2012-12-31,-1,-0.00019241361762310113,-0.00011583555984628693,-0.0015922120451531013,0.0045838485547183,0.9948289946788457
2013-01-03,1,0.00034009174559355076,0.0004624787019050153,-0.0015922120451531013,0.004450461152671666,0.996351908447077
2013-01-07,1,6.953000747466438e-05,0.00016036433400975776,-0.0015460941806850505,0.004450461152671666,0.9966146879020922
2013-01-09,1,0.00010976050645637348,0.00019851780026901804,-0.0015460941806850505,0.0045838485547183,0.9964038102565581
2013-01-11,1,0.00010824522804162788,0.00020300503487428892,-0.000887657808899007,0.004598438382238869,0.9964065131683616
2013-01-15,1,0.00015107518447184874,0.00022461847348287438,-0.000887657808899007,0.005141055361962414,0.9962358671774092
2013-01-17,1,3.223690433389487e-05,7.631853114689195e-05,-0.000887657808899007,0.005141055361962414,0.996399948236467
2013-01-22,1,0.00030383211185961454,0.00036064466909708256,-0.0015460941806850505,0.004598438382238869,0.9964079203613693
2013-01-24,1,0.00042920010621400105,0.000497740586934494,-0.0015460941806850505,0.004598438382238869,0.9962120664446478
2013-01-28,1,0.0004485492779305419,0.0005161547082742574,-0.0022920271139415397,0.005317065898409009,0.9951974837650093
2013-01-30,1,0.0007993327538719466,0.0009407315400467433,-0.0011209294984951533,0.007064039614444802,0.9946675022155904
2013-02-01,1,0.0009833526251106126,0.0011607472914875142,-0.0011209294984951533,0.007707948073894258,0.9940253735369152
2013-02-05,1,0.0009080182668791735,0.0010680473195280654,-4.846195828418331e-05,0.007707948073894258,0.9938682502876861
2013-02-07,1,0.0010116106455210433,0.0011785088578243267,-0.0006804587377955081,0.007707948073894258,0.9938649524315049
2013-02-11,1,0.001893154932832902,0.002233840426612795,-0.002658691159326684,0.007707948073894258,0.9940760685532939
2013-02-13,1,0.0015015809086170555,0.0017216148808908366,-0.002658691159326684,0.007707948073894258,0.9942630795950518
2013-02-15,1,0.0014981565486175369,0.0017368325689895423,-0.002658691159326684,0.007707948073894258,0.9941235339195555
2013-02-20,0,0.0,0.0,-0.0008765673572007507,0.007551933615030166,0.994294159494527
2013-02-22,0,0.0,0.0,-0.0008765673572007507,0.006500704080795387,0.9948621884327314
2013-02-26,0,0.0,0.0,-0.0007037802638195039,0.0065131040555346615,0.9956842025924498
2013-02-28,0,0.0,0.0,-0.0007037802638195039,0.003378444682387411,0.996008787168119
2013-03-04,0,0.0,0.0,-0.0019352524768870584,0.0017929387013243393,0.9973815187144719
2013-03-06,0,0.0,0.0,-0.0019352524768870584,0.0014083504863359338,0.9965796429528415
2013-03-08,0,0.0,0.0,-0.0017404727691357788,0.00354654404981027,0.9962584477749312
2013-03-12,0,0.0,0.0,-0.0017404727691357788,0.0067150276085589265,0.9954459320119228
2013-03-14,0,0.0,0.0,-0.0017404727691357788,0.0075898034992870535,0.9949189019190278
2013-03-18,0,0.0,0.0,-0.0017404727691357788,0.007777909407821353,0.993835772957704
2013-03-20,0,0.0,0.0,-0.0023151101563946117,0.007777909407821353,0.9936744760283274
2013-03-22,1,0.0024363116118449523,0.002717316049633151,-0.0017404727691357788,0.009096822945781033,0.993806547390707
2013-03-26,0,0.0,0.0,-0.0009337139358661673,0.009096822945781033,0.9929300842511183
2013-03-28,0,0.0,0.0,-0.0011738741871973604,0.008524496701332346,0.9932370090078466
2013-04-02,1,0.002352213716954452,0.0026051068010591693,-0.000747291365705587,0.008524496701332346,0.9941911151904509
2013-04-04,0,0.0,0.0,-0.0009882008433382081,0.008524496701332346,0.9933990561594204
2013-04-08,0,0.0,0.0,-0.0020564640058299485,0.008524496701332346,0.9925446472673626
2013-04-10,0,0.0,0.0,-0.0020564640058299485,0.008524496701332346,0.992391209959552
2013-04-12,0,0.0,0.0,-0.006148765180804381,0.007617903994603959,0.9917915932839851
2013-04-16,0,0.0,0.0,-0.005289287947978834,0.007039763480777122,0.992641426630878
2013-04-18,0,0.0,0.0,-0.003306319130697353,0.007617903994603959,0.9924007049860141
2013-04-22,1,0.001967550891898976,0.0020347649153389415,-0.005289287947978834,0.007039763480777122,0.9925165545176043
2013-04-24,1,0.0022742419687499416,0.0024066707390679957,-0.005654920581641802,0.006484479627265471,0.9917827282362088
2013-04-26,1,0.0026031645818007402,0.0028092604973380822,-0.010281726106677068,0.0037915990686737348,0.9905980611529863
2013-04-30,1,0.002558819013140976,0.0027405583041092176,-0.011789135410927302,0.0008247062159537182,0.9890127291348466
2013-05-02,1,0.0019684196450027347,0.0020798472665925194,-0.011789135410927302,0.006825497910618757,0.9886177201504027
2013-05-06,0,0.0,0.0,-0.011369945544768946,0.0022314843232755293,0.9901772079647987
2013-05-08,0,0.0,0.0,-0.011369945544768946,0.0022314843232755293,0.9902755836412733
2013-05-10,0,0.0,0.0,-0.008367846029392854,0.00542525494360716,0.9911604226130664
2013-05-14,0,0.0,0.0,-0.009185474538929579,0.002079993249493301,0.991256623759485
2013-05-16,0,0.0,0.0,-0.009185474538929579,0.004295318933966215,0.9908882228022583
2013-05-20,0,0.0,0.0,-0.011369945544768946,0.0017972274114946738,0.9904670847834892
2013-05-22,0,0.0,0.0,-0.012086437623185866,0.0017972274114946738,0.9878048954498472
2013-05-24,-1,-0.001374548521399688,-0.0008644705721362491,-0.009228252436045237,0.004295318933966215,0.9889251288052937
2013-05-29,-1,-0.0026492327174886077,-0.00215823338417699,-0.007653948326484951,0.01096460881440799,0.9878885748231534
2013-05-31,-1,-0.002024817637846144,-0.0016314595644856718,-0.006278614064483827,0.00902755108993422,0.9881610268696182
2013-06-04,0,0.0,0.0,-0.006278614064483827,0.00902755108993422,0.9882437916304837
2013-06-06,0,0.0,0.0,-0.006098165079994971,0.006821222030588189,0.9889341074747362
2013-06-10,-1,-0.001685420556960764,-0.00147553873507955,-0.006098165079994971,0.010215604848104364,0.9874383849151965
2013-06-12,0,0.0,0.0,-0.00514006884434692,0.012538733548986502,0.9869786121408888
2013-06-14,0,0.0,0.0,-0.00514006884434692,0.012538733548986502,0.9870512416571654
2013-06-18,-1,-0.0025773550440489094,-0.0021453439314264647,-0.00514006884434692,0.012538733548986502,0.9869604218937033
2013-06-20,0,0.0,0.0,0.00016690012021092714,0.014793197229488204,0.9901557973677975
2013-06-24,-1,-0.00515029740468006,-0.004428224522408085,0.0,0.014793197229488204,0.9879784448706325
2013-06-26,-1,-0.0033704821240957503,-0.0028594694975881295,-0.0005175208903531175,0.011661358093346584,0.9899006612038488
2013-06-28,-1,-0.0029010210689898045,-0.002439990531653848,-0.001271638040112498,0.011661358093346584,0.9907880576669424
2013-07-02,0,0.0,0.0,-0.002823666633509487,0.011661358093346584,0.9918887814542358
2013-07-05,0,0.0,0.0,-0.001271638040112498,0.011661358093346584,0.9920586103584873
2013-07-09,0,0.0,0.0,-0.0059223698461320995,0.005716472024124965,0.992545109541853
2013-07-11,0,0.0,0.0,-0.0059223698461320995,0.0037645361856726237,0.9932060650410331
2013-07-15,0,-0.0001524022248894552,0.00022460930891037673,-0.006417948139442373,0.0025949390870292407,0.993888829850616
2013-07-17,1,0.0002542863890468292,0.00029815491357167,-0.006417948139442373,0.001900212211351455,0.9938538227278274
2013-07-19,0,0.0,0.0,-0.008596628834263133,0.0007329778459419427,0.9933887019776481
2013-07-23,0,0.0,0.0,-0.009906948020738224,0.0010600252517120763,0.9923549242801606
2013-07-25,0,0.0,0.0,-0.009906948020738224,0.0010600252517120763,0.9928352222018069
2013-07-29,0,0.0,0.0,-0.009906948020738224,0.0010600252517120763,0.9923841074941002
2013-07-31,0,0.0,0.0,-0.009906948020738224,0.0022892155807683143,0.9926647315519809
2013-08-02,1,0.0002590350833754126,0.0002716791292497206,-0.009906948020738224,0.0015370070634569725,0.992348165627494
2013-08-06,-1,-0.0006957059164021712,-0.0005963362755095239,-0.008596628834263133,0.0015370070634569725,0.9926654362898523
2013-08-08,-1,-0.0006463379992119805,-0.0005382754729821893,-0.009879509891210817,-8.565857024646047e-05,0.9923488450043246
2013-08-12,-1,-0.0010400071292344896,-0.0008984048612732346,-0.009879509891210817,0.004099905815674074,0.9925532244469786
2013-08-14,-1,-0.001531093628421906,-0.001324599332201287,-0.010440146199164916,0.004252148460009682,0.991531398660561
2013-08-16,-1,-0.002226670949268067,-0.0019522785583259428,-0.006838859101739323,0.004481416065568686,0.9922224851147877
2013-08-20,-1,-0.0018866719499913362,-0.0016812409932224052,-0.00552904466920955,0.004481416065568686,0.9912923238814045
2013-08-22,-1,-0.002447655266738061,-0.0021716058067590867,-0.00552904466920955,0.004481416065568686,0.9916118522674102
2013-08-26,-1,-0.0022105364682310173,-0.0019707575112301724,-0.00552904466920955,0.004481416065568686,0.9916237891436334
2013-08-28,-1,-0.0017010944549527974,-0.0015429297453560637,-0.0063474776714025375,0.0043047404746723635,0.9916763313839084
2013-08-30,-1,-0.0018743312918766946,-0.0017016360642771904,-0.0063474776714025375,0.0043047404746723635,0.9917701768382211
2013-09-04,-1,-0.0025936389608188985,-0.002368095585250668,-0.002881241573107725,0.004793449092843825,0.9922714028777168
2013-09-06,-1,-0.00310912283501534,-0.0027974168605475478,-0.002881241573107725,0.004793449092843825,0.9923377280673281
2013-09-10,-1,-0.0028761425881444324,-0.0025831207601228834,-0.002881241573107725,0.0061739383359160635,0.9924814616726598
2013-09-12,-1,-0.001424974871627511,-0.0013544327836605605,-0.002442980297717303,0.0061739383359160635,0.9933667975518912
2013-09-16,-1,-0.0008815103721486932,-0.00087238289243385,-0.002881241573107725,0.005003596379001788,0.9932147493714656
2013-09-18,1,0.0008264201734120024,0.0010817942027544479,-0.004705987635862937,0.005003596379001788,0.9936602386817879
2013-09-20,1,0.0005747578630426318,0.0008106285998991596,-0.002881241573107725,0.0061739383359160635,0.9932501359385701
2013-09-24,1,0.0009400636908736916,0.0012166665395794349,-0.0026355406839215488,0.0061739383359160635,0.9931646935895001
2013-09-26,1,0.0006715707722821106,0.0009205838658373736,-0.002171144731247912,0.0061739383359160635,0.9936218763602268
2013-09-30,1,0.0007340906270984118,0.0010084197923219825,-0.001296661350210016,0.007726418067471434,0.993367367646645
2013-10-02,1,0.0005332881127448605,0.0007286668925331455,-0.0019389119888518402,0.007726418067471434,0.9929611137748864
2013-10-04,1,0.00025380247766650045,0.00040929052059206856,-0.0019389119888518402,0.007726418067471434,0.9919315125401986
2013-10-08,1,0.0007624686896833712,0.0010154880359642417,-0.003767193999367039,0.00626512330569064,0.991717565548361
2013-10-10,1,0.0012069824955587387,0.0015204795849810319,-0.00833384813375184,0.0056985205071779284,0.9916778398323347
2013-10-14,1,0.0007244107976693061,0.000940926422846142,-0.007970564638377283,0.005643042055053373,0.9918368644628498
2013-10-16,1,0.000747246585027474,0.0009204561841270126,-0.007970564638377283,0.003958033793421913,0.9923105657558516
2013-10-18,1,0.0011056472179680726,0.001280284888329548,-0.007970564638377283,0.003672323746463779,0.9919365488275614
2013-10-22,1,0.0014888330183158703,0.0017257539892236548,-0.008723088066565958,0.0019786007627346576,0.9915955322503031
2013-10-24,1,0.0013920994102661214,0.0015899085401265669,-0.010530090229562682,0.002003840837877725,0.9907075749668199
2013-10-28,1,0.001836282219747453,0.0021151356595029867,-0.010530090229562682,0.0012988325724856186,0.9903950859866045
2013-10-30,1,0.0014764055651441982,0.001716690072908556,-0.011473086911617686,0.0012988325724856186,0.9904421172718728
2013-11-01,1,0.00041063266728444354,0.0004839895651915715,-0.008950941491073748,0.0012988325724856186,0.9919182080236827
2013-11-05,1,0.0006146006973412131,0.0007683594282150948,-0.007970564638377283,0.0018859109701834904,0.9923812338465603
2013-11-07,1,0.00023818389394081394,0.00028803741561360386,-0.007082397009000377,0.0018859109701834904,0.9924140696334611
2013-11-11,-1,-0.0020512350540230814,-0.0016589181703497195,-0.009115143352352634,0.0013671732772970323,0.9927157186868649
2013-11-13,-1,-0.0025792037127706836,-0.0021374278501535503,-0.007357895906246401,0.003863072674571294,0.9929893812200166
2013-11-15,-1,-0.0009908581866226848,-0.0008281596625901494,-0.007357895906246401,0.003863072674571294,0.9934570195238488
2013-11-19,-1,-0.0012739017838714574,-0.0011041162143927497,-0.006622314370623865,0.004246800654492318,0.9930178682537019
2013-11-21,-1,-0.0014762304564604923,-0.0012728092517477678,-0.006622314370623865,0.003863072674571294,0.993518265039095
2013-11-25,-1,-0.0019311479902715113,-0.0016671427739975214,-0.0064312496351638816,0.003863072674571294,0.9936127617933442
2013-11-27,-1,-0.0016673697747481456,-0.0015032114398024243,-0.0061365767268826265,0.004246800654492318,0.9939833649131191
2013-12-02,-1,-0.0012795350898564097,-0.0011981202641245326,-0.004893449369146352,0.003969842782770816,0.9943563522433269
2013-12-04,-1,-0.000660585302742506,-0.0006317584115279728,-0.0061365767268826265,0.0028373164751598744,0.9938348286848486
2013-12-06,-1,-0.00017584911384727953,-8.15127932663061e-05,-0.0061365767268826265,0.0028373164751598744,0.9943006400732551
2013-12-10,-1,-0.0005137249021624109,-0.00042983968747740915,-0.004893449369146352,0.004604578517337032,0.9944763485973285
2013-12-12,-1,-0.0004044637121199743,-0.0002995953608776646,-0.004834873487876283,0.0054597113212051,0.9940191970914792
2013-12-16,-1,-0.0001920549401732145,-7.924992468007078e-05,-0.004834873487876283,0.0028747840134060207,0.9940669916559611
2013-12-18,1,0.00032738584609136735,0.0005178410222580434,-0.004834873487876283,0.002837081051062819,0.9944854585984213
2013-12-20,-1,-0.00017204994595795072,-6.376423062465892e-05,-0.004100190583354601,0.004603872245045866,0.994497512018198
2013-12-24,1,5.8737472424196934e-05,0.0002073192950320015,-0.00593723980076886,0.004603872245045866,0.9935170953783947
2013-12-27,-1,-0.00027992645143555463,-0.00022196376514781668,-0.00593723980076886,0.004115472004912942,0.9937761487270934
2013-12-31,-1,-0.000247702638932534,-0.00016756362893098807,-0.00593723980076886,0.005346602434175493,0.9933512570474303
2014-01-03,-1,-0.0009768865629583932,-0.0009442206545581317,-0.00593723980076886,0.007781291080281356,0.9925410917607921
2014-01-07,-1,-0.0008237750708375441,-0.0007908117705263699,-0.00593723980076886,0.007134353019189403,0.9924153797284666
2014-01-09,-1,-0.0012134964692699006,-0.0010912868486770881,-0.005349554439049665,0.008498348561337977,0.9918048444056397
2014-01-13,-1,-0.00091408126288699,-0.0008301505972476881,-0.004494162812739453,0.008498348561337977,0.9917496969558252
2014-01-15,-1,-0.001412832229391536,-0.0012488035040700055,-0.004494162812739453,0.008498348561337977,0.9916389842183693
2014-01-17,-1,-0.0014540895397700026,-0.001289125905235476,-0.0026514652775934586,0.008525378714033633,0.9913493685291479
2014-01-22,-1,-0.0007974654132483247,-0.0007166341899614912,-0.004494162812739453,0.008525378714033633,0.9912621918894712
2014-01-24,-1,-0.001745443216706478,-0.001542989368307597,-0.004494162812739453,0.008525378714033633,0.9915454540050698
2014-01-28,-1,-0.0023010488934917246,-0.0019837348391974923,-0.004494162812739453,0.010078942402399108,0.9906991727795952
2014-01-30,-1,-0.0023057978463473065,-0.0019763867040285482,-0.0010652780173918568,0.009323587726886958,0.990825738143845
2014-02-03,-1,-0.0028619217070642872,-0.002482092980626201,-0.0010652780173918568,0.009323587726886958,0.9915766651178851
2014-02-05,-1,-0.0027488499408685383,-0.0024054321112499224,-0.005652828108856314,0.009323587726886958,0.9913503179177462
2014-02-07,-1,-0.0015989173828941721,-0.0014017628345850109,-0.005652828108856314,0.006855811056441813,0.9928123708469682
2014-02-11,1,0.000143868406583727,0.00022867910361317102,-0.007145983748764588,0.006855811056441813,0.9932053238445554
2014-02-13,1,0.0001863877322766011,0.0002551283394217188,-0.007145983748764588,0.007224917339680757,0.9927153062364472
2014-02-18,1,0.00088456804306137,0.0010627715174349284,-0.007145983748764588,0.006882523821891278,0.9931325484361178
2014-02-20,1,0.0009631732913837865,0.0011272733024536839,-0.008934680206665135,0.004633334644442719,0.9923091233714778
2014-02-24,1,0.0004105862001357451,0.0004915254526928843,-0.008934680206665135,0.006998740281088478,0.9918175969475126
2014-02-26,1,0.001058522513112153,0.001234945659101659,-0.008934680206665135,0.006882523821891278,0.9919905352948628
2014-02-28,1,0.0010865652742675317,0.0012419217925104427,-0.009073485391341868,0.0060164835474724974,0.9915855706511432
2014-03-04,1,0.0009584833241262636,0.0011100537770639288,-0.008485070424554788,0.006998740281088478,0.9913417246139464
2014-03-06,1,0.0005584427076614992,0.0006913446411504331,-0.005867261616607367,0.0077735668577139025,0.9918304789685255
2014-03-10,1,0.0006402152857125961,0.0007767575332283999,-0.005867261616607367,0.0077735668577139025,0.9916717406192701
2014-03-12,1,0.0007052383674340525,0.0008552867126044802,-0.005210612362063883,0.0077735668577139025,0.9918950642651063
2014-03-14,1,0.0016356479341765302,0.0019582044112343264,-0.005867261616607367,0.006998740281088478,0.9919111072057771
2014-03-18,1,0.002204582725430701,0.0026266727787913674,-0.005867261616607367,0.007667911648750753,0.9916314885550642
2014-03-20,1,0.0010947375780031394,0.0013806354362212725,-0.005210612362063883,0.008198579867726506,0.9922942803408173
2014-03-24,1,0.0020845178356759552,0.0025227981565511277,-0.005210612362063883,0.007667911648750753,0.9927271514969294
2014-03-26,1,0.001533436722396309,0.0018718237826841734,-0.004033815399337048,0.008198579867726506,0.993022689887881
2014-03-28,1,0.0010612636215811839,0.0012912468688267278,-0.0038221193365355604,0.009406300307580075,0.9930066157771256
2014-04-01,1,0.001067627805135184,0.0012785202185908253,-0.004033815399337048,0.008198579867726506,0.9929263256779912
2014-04-03,1,0.001312229812144778,0.001560568825834115,-0.00486163905644584,0.007667911648750753,0.991683507286415
2014-04-07,1,0.0014531982546761445,0.0017147085667382563,-0.00486163905644584,0.0083593183581677,0.9915052112384611
2014-04-09,1,0.001483091238724166,0.001713726037683896,-0.004760259442241124,0.0083593183581677,0.9912424676106297
2014-04-11,1,0.0015230640367984035,0.001803395564254824,-0.007334625885998966,0.0083593183581677,0.9909660017370392
2014-04-15,1,0.0017508097755382463,0.002025377316122561,-0.007334625885998966,0.0050644332355628124,0.9913896807905256
2014-04-17,1,0.001869454813670622,0.0021512239505010553,-0.004936566607328649,0.0037301160449378892,0.9922422946791093
2014-04-22,1,0.0014185150468784369,0.0016160088307647083,-0.007334625885998966,0.0037301160449378892,0.9920606468483647
2014-04-24,1,0.0014085742876358896,0.0015667105417966033,-0.007334625885998966,0.0037301160449378892,0.9921004754176774
2014-04-28,1,0.0017905861106559612,0.0019915378044856095,-0.007334625885998966,0.0034587701234102385,0.9924573228699834
2014-04-30,1,0.0011614020019003587,0.0012860328301376037,-0.0037836584391139376,0.0034587701234102385,0.9933112586163826
2014-05-02,1,9.792615649910229e-05,0.00010600687194531128,-0.0037836584391139376,0.0037372092518210094,0.9943105422200095
2014-05-06,1,0.00018618891975884382,0.0002066917186827468,-0.004309302692157242,0.0034587701234102385,0.9946304708550885
2014-05-08,1,0.000803211501093831,0.00085552035650469,-0.004309302692157242,0.0034587701234102385,0.9950445518515554
2014-05-12,1,0.0003037717240286154,0.00030519418380386276,-0.004167980055931892,0.0034587701234102385,0.9954460553370136
2014-05-14,1,0.0006621840014063167,0.0007327002550770781,-0.004309302692157242,0.003574504685115534,0.9948994087293459
2014-05-16,1,0.0003831243991731732,0.0003858501607410321,-0.0043076028555479665,0.003574504685115534,0.9948178905540561
2014-05-20,-1,-0.00010292088123570138,-5.165187065699379e-05,-0.0043076028555479665,0.004943663886539651,0.9940679880187314
2014-05-22,1,0.00020233588703623065,0.00021843779059754103,-0.004734003548655674,0.005026541589228833,0.9934078019399871
2014-05-27,1,4.810331001335399e-05,9.616072475014003e-05,-0.004734003548655674,0.006509029564749908,0.9932506050610956
2014-05-29,-1,-0.0005415819056975844,-0.0003903161813117389,-0.004734003548655674,0.006509029564749908,0.9932422294114306
2014-06-02,-1,-0.0002725554721470891,-0.00016402209133303613,-0.004357177755773548,0.006509029564749908,0.9926357931417937
2014-06-04,-1,-0.0005757242987483363,-0.0004334840076996236,-0.004363010213423757,0.006509029564749908,0.9922082639690997
2014-06-06,-1,-0.0002375972873293085,-0.00015055821367530764,-0.005375859767659862,0.004394591408089084,0.9923413420457673
2014-06-10,-1,-0.0009251896992066592,-0.0007403248853609919,-0.005375859767659862,0.006713231839178733,0.9919638684568256
2014-06-12,-1,-0.001319420346358219,-0.0010802023048855016,-0.004363010213423757,0.008012381042592533,0.9921367082072536
2014-06-16,-1,-0.00046324164575622907,-0.00035248645932494337,-0.005375859767659862,0.006310129118081425,0.9920744341183346
2014-06-18,-1,-0.00023004989949619863,-9.934166190634437e-05,-0.005294354454131965,0.004257855444893334,0.9931598530231424
2014-06-20,0,-8.034323339541771e-05,3.62999940618232e-05,-0.0043358417755811245,0.004257855444893334,0.9929235181620947
2014-06-24,1,0.00031271343683196914,0.00037879808920689026,-0.0043358417755811245,0.00286667275602167,0.99309909263045
2014-06-26,-1,-0.0005489185686956638,-0.00034120692701549316,-0.005544252812210885,0.00286667275602167,0.9932065535278395
2014-06-30,1,0.0005473267950613075,0.0006274032141039333,-0.008381690647732424,0.0010988361356632922,0.9928568322338308
2014-07-02,1,0.0004142679622293926,0.00045896384461514275,-0.008917800052381332,0.0010988361356632922,0.9910795536625651
2014-07-07,1,0.00039857691994729763,0.00040808852160146685,-0.009775092444849426,0.004014249995783733,0.990605601365954
2014-07-09,1,0.0005218035645367231,0.0005348834780897749,-0.011271439303712013,0.0010988361356632922,0.9903261942233331
2014-07-11,1,0.0009614654946798485,0.001066414757832057,-0.011271439303712013,0.004028748222186327,0.9893564285405199
2014-07-15,1,0.0005043619898328273,0.0005586367323942236,-0.009946256664529264,0.004028748222186327,0.9898671829132315
2014-07-17,-1,-0.00011879023531894772,-6.719069118999777e-05,-0.009946256664529264,0.00799386119362508,0.9894227947744876
2014-07-21,1,0.001191561928226275,0.0013403328508254009,-0.009946256664529264,0.0042627514095648,0.9900254415487122
2014-07-23,1,0.0012200322324314903,0.0013889243297532492,-0.009946256664529264,0.00799386119362508,0.9897225818917226
2014-07-25,1,0.0006472695740397298,0.0007215716387768002,-0.009946256664529264,0.00799386119362508,0.989740064296397
2014-07-29,1,0.00019543210338212631,0.00023165010652522643,-0.009946256664529264,0.00799386119362508,0.9896623607833294
2014-07-31,-1,-0.00209854769971901,-0.0018024739111723387,-0.004056059484075777,0.009599678232059634,0.9908208808211765
2014-08-04,-1,-0.0021839121353476668,-0.001878027338433327,-0.004056059484075777,0.008619908332501197,0.9907692078439323
2014-08-06,-1,-0.002759422041372959,-0.0024189815217148473,-0.002041297375468399,0.008619908332501197,0.9910296046615988
2014-08-08,-1,-0.0011967161287453256,-0.001061710629839738,-0.002041297375468399,0.007774000510140945,0.9923238556427841
2014-08-12,-1,-0.002470124735768138,-0.0021073076632198056,-0.0014469078521159853,0.007774000510140945,0.9915011958117934
2014-08-14,-1,-0.0009590205489683856,-0.0008217090962563916,-0.003905406278571463,0.007774000510140945,0.9918075373571785
2014-08-18,-1,-0.0012582706067030686,-0.001063580302968842,-0.00168392159106536,0.010666813756945882,0.9913043120772891
2014-08-20,-1,-0.0007510570846139943,-0.0006081829071187066,-0.006084248240524769,0.007503665212893576,0.9913996825591411
2014-08-22,-1,-9.86427877816501e-05,-4.124270955224569e-05,-0.006470750560611208,0.007503665212893576,0.9916116603335029
2014-08-26,-1,-0.00015752216534377567,-0.00010351853342481791,-0.005501521247494865,0.00523544377192241,0.9923705599907539
2014-08-28,1,0.0006865679926943845,0.0007472691979447724,-0.007579962536491288,0.00347087736668092,0.9926830732007942
2014-09-02,1,0.0005632603608533911,0.0006302622942132724,-0.005501521247494865,0.0026116808507073075,0.9933500747526882
2014-09-04,1,0.0002325895793659541,0.00023668417560543766,-0.005501521247494865,0.0026935279451096804,0.9935484515352969
2014-09-08,1,0.0010910627039095958,0.0012356583466195665,-0.005501521247494865,0.0026935279451096804,0.9934459517750669
2014-09-10,1,0.0007812991519304069,0.0008986166096131313,-0.0046180579679004005,0.003533681011115388,0.9927555419906079
2014-09-12,1,0.0008839047851105578,0.0009986980669355017,-0.0046180579679004005,0.003533681011115388,0.9927251032102593
2014-09-16,1,0.0015814729283689208,0.0018120895630773025,-0.0046180579679004005,0.005987428194175951,0.9920903494970215
2014-09-18,1,0.0010974002160176973,0.0012970586220930834,-0.005073477221344793,0.005987428194175951,0.9924110169510045
2014-09-22,1,0.0006922755564088743,0.0007953384541848059,-0.004598622400948164,0.010544776404951476,0.9918077308043085
2014-09-24,-1,-0.0006033167508697021,-0.00047032188387284134,-0.002684628030493997,0.010544776404951476,0.9921571101505539
2014-09-26,-1,-0.0007501882463986945,-0.0006281625564387138,-0.001355906022260807,0.010544776404951476,0.9922031943198227
2014-09-30,-1,-0.0005169300656576679,-0.0004625660906754245,7.61343753688005e-05,0.010544776404951476,0.9919461930503418
2014-10-02,-1,-0.0006988756947767598,-0.0005883765362306812,-0.00030578956502144803,0.010675066911633117,0.9915537366655108
2014-10-06,-1,-0.00017087873586397852,-0.00013213056327966995,0.0002145801867702911,0.012696215628306275,0.9909276483230679
2014-10-08,1,0.0008896370266745981,0.0009862070969043945,0.0002145801867702911,0.012696215628306275,0.9913776212487289
2014-10-10,1,0.00032872519122522433,0.0003345846484303765,0.0002145801867702911,0.012696215628306275,0.9910466345270332
2014-10-14,1,0.0013358598363904409,0.001477872213962104,7.755175441380218e-05,0.011790162229146053,0.9923181954933845
2014-10-16,1,0.000753064818211258,0.0008189700130775411,7.755175441380218e-05,0.011790162229146053,0.9915720152148984
2014-10-20,1,0.0015706016457952593,0.0017353816491650722,-0.0019220072027638533,0.011790162229146053,0.991693151214425
2014-10-22,1,0.0017390128325307592,0.0019327241322256504,-0.003724518062403749,0.011790162229146053,0.9914251936925335
2014-10-24,1,0.001796924848789565,0.001979549590799513,-0.003724518062403749,0.012252177168816929,0.9909783686420593
2014-10-28,1,0.0021499746988791393,0.0023855972725712023,-0.00769532219930133,0.012252177168816929,0.9906647762220279
2014-10-30,1,0.002298145402514524,0.002524824894214053,-0.00769532219930133,0.012252177168816929,0.9906658892308917
2014-11-03,1,0.003070352727622668,0.003379063220578749,-0.00769532219930133,0.011644522441498535,0.9908573728634686
2014-11-05,1,0.0035615976165990063,0.003956886005515906,-0.003724518062403749,0.008957109287821176,0.9919260890786249
2014-11-07,1,0.0035236870793275074,0.003954156007343711,-0.00221323987310398,0.007696021489089978,0.9931626021559082
2014-11-11,1,0.0037030778159418756,0.0041665185825893805,-0.004401490546115398,0.007696021489089978,0.9923172837176586
2014-11-13,1,0.0028396061162789914,0.003206233008685861,-0.002796349061043701,0.008382649580665005,0.993129201912445
2014-11-17,1,0.0029710051917875785,0.003335972461912241,-0.002796349061043701,0.007696021489089978,0.9932381410896137
2014-11-19,1,0.003581160006631205,0.0040838007292728065,-0.0024388973676745295,0.00992114332003002,0.9919798383862853
2014-11-21,1,0.003548839644701785,0.004008027823632455,-0.0017980076784087113,0.008975701334554869,0.9922911798207096
2014-11-25,1,0.0029348689684888284,0.003286119826429894,0.00014562968234050342,0.01034168159410384,0.9920422063976829
2014-11-28,1,0.0035045852077221916,0.003931478749270808,0.00014562968234050342,0.008975701334554869,0.9923194085165253
2014-12-02,1,0.004367952585481325,0.004914551354986533,-0.00400928268412452,0.008867699679877458,0.99127649883571
2014-12-04,1,0.004474508437801656,0.004997293449588356,-0.005888279182454177,0.008867699679877458,0.9909977289935394
2014-12-08,1,0.004344690600572617,0.004825718587653071,-0.005888279182454177,0.008975701334554869,0.9902264815618018
2014-12-10,1,0.004146499318613133,0.004650382727008299,-0.005888279182454177,0.008975701334554869,0.9903255719237799
2014-12-12,1,0.004046477564211444,0.0045255477122591,-0.0026050818980000293,0.008867699679877458,0.9907219302289694
2014-12-16,1,0.00312929108000951,0.0034580570077730683,0.0010783968552544607,0.009425108609460225,0.9913000282430616
2014-12-18,1,0.004565386455227681,0.005083781534183785,0.0010783968552544607,0.008928486522768099,0.9925992755328983
2014-12-22,1,0.0036999668732886986,0.003973753010800175,6.736268300757257e-05,0.008892810634233583,0.9925044067026405
2014-12-24,1,0.004216714753546206,0.004544124919809343,-0.001243425500867278,0.007884642170491028,0.9928032354426733
2014-12-29,1,0.004003052581042664,0.0042374570030607565,-0.0038487081893531336,0.007101458606967687,0.9920852612455264
2014-12-31,1,0.0030484582948184544,0.0032056055636701486,-0.0019708278401084638,0.007101458606967687,0.9931678801970593
2015-01-05,1,0.002541989125880413,0.002606625796388876,-0.0009344554104265535,0.007101458606967687,0.9937016388822899
2015-01-07,1,0.0035953719111482567,0.0038353061092655954,-0.0019708278401084638,0.0039790592837679085,0.9935979023519439
2015-01-09,1,0.0028661821417184574,0.002993162262027964,-0.0032587988356771154,0.0039790592837679085,0.9922275616477269
2015-01-13,1,0.0029373402863009353,0.0030949970332577897,-0.0054014629905823446,0.007101458606967687,0.9911659593628221
2015-01-15,1,0.0036340790097046556,0.0039020707369466887,-0.008776671843636336,0.0020092747066986164,0.989732922118385
2015-01-20,1,0.0040299506793769185,0.0043292427869973844,-0.008776671843636336,0.0011687221117447901,0.9886104842596297
2015-01-22,1,0.004444131520202655,0.004825056677320333,-0.009695482186183216,0.00046422133734568384,0.9875120430776523
2015-01-26,1,0.0038571755082530135,0.004131858949296637,-0.009695482186183216,0.0011687221117447901,0.9883824692846148
2015-01-28,1,0.003065302937568744,0.003219753470591141,-0.010175049284638991,0.0011687221117447901,0.9883283223766444
2015-01-30,1,0.00246261638442194,0.002561190293613492,-0.010175049284638991,0.0005900980470866235,0.988311512375177
2015-02-03,1,0.0021234448175377198,0.0021424361920713416,-0.010175049284638991,0.0003284437484063479,0.9876847401818631
2015-02-05,1,0.0016360480013897967,0.0016710573474147416,-0.014142182278260721,0.00132904104872339,0.9870237757324698
2015-02-09,-1,-0.0003080070458528131,-6.885193964297842e-05,-0.009584760564969165,0.002920666059503309,0.9900328233355404
2015-02-11,-1,-0.000677248665670001,-0.000349301038447132,-0.008931786868921274,0.002920666059503309,0.9900579185208563
2015-02-13,-1,-0.0020808643243027634,-0.0015836908639944292,-0.008931786868921274,0.004788269352925792,0.9898850575192019
2015-02-18,-1,-0.0015728981601917593,-0.0011082708482829068,-0.008931786868921274,0.004788269352925792,0.9898834817561564
2015-02-20,-1,-0.0026270391119174916,-0.0020124544767263918,-0.00917336016051625,0.008254069085266063,0.9892059862054763
2015-02-24,-1,-0.0028454771708139063,-0.002186013116034253,-0.013722486981460157,0.008254069085266063,0.9889125474464998
2015-02-26,-1,-0.003972114561019202,-0.0031855409367213803,-0.013367954601184057,0.008254069085266063,0.9891822699016094
2015-03-02,-1,-0.004905080344044787,-0.004023315650313365,-0.009154199516958408,0.011242985329956202,0.9885492963267603
2015-03-04,-1,-0.004263809929305012,-0.003505664550970981,-0.009154199516958408,0.008765418087121137,0.9889393618501647
2015-03-06,-1,-0.0053204768369059866,-0.004419104276869681,-0.007484161641679072,0.011647079966726478,0.9894011058426272
2015-03-10,-1,-0.004681791607628607,-0.003897471889131856,-0.009154199516958408,0.011647079966726478,0.9893205320135474
2015-03-12,-1,-0.004644949742200996,-0.0038336676206568517,-0.009385383572820956,0.011647079966726478,0.9893456228849576
2015-03-16,-1,-0.00394171315380761,-0.0032598900027668294,-0.009385383572820956,0.010788337251194088,0.9896843632894397
2015-03-18,-1,-0.002931150881685045,-0.002371287012223963,-0.009385383572820956,0.008506752887597573,0.9911074934457342
2015-03-20,-1,-0.002957799752303718,-0.002405433685882098,-0.007848637397929967,0.008506752887597573,0.9915308031115698
2015-03-24,-1,-0.003361553625385521,-0.0027774533637077124,-0.007739443696119574,0.008506752887597573,0.9919029891307628
2015-03-26,-1,-0.003934972310333209,-0.003308508198249285,-0.0054095524012313274,0.009190437373627755,0.9915058604966217
2015-03-30,-1,-0.002551615135510527,-0.002138010601681572,-0.006382539209033077,0.007425748791301098,0.9920563445236341
2015-04-01,-1,-0.002218831340885409,-0.001861855441958831,-0.00846445775411785,0.007425748791301098,0.9909489778280035
2015-04-06,-1,-0.0021116201673436795,-0.0017566629787688344,-0.010154956411775258,0.007425748791301098,0.9907607462670627
2015-04-08,-1,-0.002790443090800927,-0.0023665532661652305,-0.010154956411775258,0.007425748791301098,0.9905604011423874
2015-04-10,-1,-0.003010633698570946,-0.002511299588529705,-0.010154956411775258,0.006039511888510099,0.9912829060251949
2015-04-14,-1,-0.0030627951702875363,-0.0025759155505808134,-0.008201141348399091,0.004977067266366314,0.9922889999113466
2015-04-16,-1,-0.0034123507574633028,-0.00289077600084934,-0.010154956411775258,0.006039511888510099,0.9910619529619115
2015-04-20,-1,-0.002780552595641185,-0.0023503536939465585,-0.010154956411775258,0.007425748791301098,0.9906427409243538
2015-04-22,-1,-0.0033377965232078005,-0.002824731403152223,-0.010154956411775258,0.007425748791301098,0.9903721012591816
2015-04-24,-1,-0.002430671130128776,-0.002055219652219615,-0.010154956411775258,0.006039511888510099,0.9911133280581718
2015-04-28,-1,-0.002015467298611011,-0.001737567135748905,-0.007447226755072532,0.006686863063934433,0.9912727549569693
2015-04-30,-1,-0.003017834091824603,-0.0026541793606553446,-0.004774383151348302,0.006686863063934433,0.992338869335988
2015-05-04,-1,-0.0028719457626553294,-0.002538591674378138,-0.004774383151348302,0.004155515523258591,0.9924204845805505
2015-05-06,-1,-0.0042650620852701234,-0.0037446143298593693,-0.004774383151348302,0.004155515523258591,0.9924621514947973
2015-05-08,-1,-0.0037223385049446568,-0.0032756374152318104,-0.00699474664170308,0.0031293086761513076,0.9926177043205644
2015-05-12,-1,-0.0042138238900368925,-0.003682184324502585,-0.00699474664170308,0.0034125550001879775,0.9925375553868747
2015-05-14,-1,-0.003074580106769787,-0.002762170196139989,-0.00699474664170308,0.0034125550001879775,0.9926511473433772
2015-05-18,-1,-0.0019137059198140831,-0.0017602924288990817,-0.00699474664170308,0.003055921015397765,0.9932603620618039
2015-05-20,-1,-0.000973791506509015,-0.0009690932843781042,-0.00699474664170308,0.003872414119950517,0.9924784958566704
2015-05-22,-1,-0.0005436969900289573,-0.0004463194346980786,-0.00699474664170308,0.003872414119950517,0.9925372227724142
2015-05-27,-1,-0.0009491504183429019,-0.0009318388350975375,-0.012964806760165482,0.0018681798963281896,0.9921201665334284
2015-05-29,-1,-0.001006685343596469,-0.0009830722868367603,-0.012964806760165482,0.003872414119950517,0.9916777236184791
2015-06-02,-1,-0.0010798520187354707,-0.0010554208766096124,-0.009000993978563101,0.005473846972677358,0.9921644336797288
2015-06-04,-1,-0.0019476772551459138,-0.0018513589556179912,-0.00655735463094472,0.00705185013216494,0.9916872938916148
2015-06-08,-1,-0.0025472156540091136,-0.0023906581103651523,-0.005034864137251692,0.010757244726737846,0.9905631082200151
2015-06-10,-1,-0.001878216041320738,-0.0018414968995123207,-0.005621883126331848,0.010757244726737846,0.9906506100703981
2015-06-12,-1,-0.001325024108004334,-0.0012428732237942082,-0.004148879399030057,0.010406029202074875,0.9915186144132868
2015-06-16,-1,-0.0009659708176259093,-0.0008124417920848082,-0.002669579277769487,0.010406029202074875,0.9920558844737547
2015-06-18,0,-0.00013579424431693946,0.00012921415681307132,-0.004148879399030057,0.010406029202074875,0.9917605041749465
2015-06-22,0,-0.00014322978852552594,9.920193835146124e-05,-0.006575183346463212,0.010406029202074875,0.9908801522516022
2015-06-24,-1,-0.00111729502044288,-0.0010279197630943715,-0.004148879399030057,0.010406029202074875,0.9911571907737753
2015-06-26,-1,-0.0006052395630761789,-0.00043063999970312,-0.0031029759667527777,0.0110750658325681,0.9908500237247616
2015-06-30,-1,-0.000563298963830379,-0.0003915717178691701,-0.0014526152438203137,0.0110750658325681,0.9908995458540274
2015-07-02,-1,-0.0004078991714779632,-0.000315570335902583,-0.002756638371632052,0.007074426668164895,0.9916090236768865
2015-07-07,1,0.000987325180106865,0.0012850453102557341,-0.005536170561101036,0.006600852186626064,0.9925411873131237
2015-07-09,1,0.00022448509488732675,0.0003669960314880358,-0.002756638371632052,0.007074426668164895,0.9923955972158017
2015-07-13,1,0.0009691338948613778,0.0012575921357833265,-0.004524948920462088,0.007074426668164895,0.9921476674015838
2015-07-15,1,0.000845462426548037,0.0010956425306281928,-0.004524948920462088,0.01086937310323618,0.9911351246908761
2015-07-17,1,0.0011152914016445102,0.0014128943303690694,-0.000399162859105167,0.008701275231516356,0.9922824554111703
2015-07-21,1,0.0005028570836566606,0.0006721854472008218,-0.000399162859105167,0.008701275231516356,0.9922111569360851
2015-07-23,1,3.7180124463685553e-06,6.213076032601146e-05,-0.0003508751924469846,0.008701275231516356,0.9923862208492445
2015-07-27,1,0.0008110920647134766,0.0009867673009878878,-0.004524948920462088,0.007589180680747667,0.991696562678906
2015-07-29,1,0.0008211191814787991,0.0009640996892479315,-0.006243357121878218,0.008701275231516356,0.9897881831829906
2015-07-31,1,0.0010021145885330336,0.0011782130738331154,-0.006243357121878218,0.008701275231516356,0.9897681251972396
2015-08-04,1,0.0007513286490692175,0.0009194070782353448,-0.009362556081405914,0.008701275231516356,0.9886918674799626
2015-08-06,1,0.001206348246320039,0.001442347985529981,-0.009362556081405914,0.007590756925255904,0.9889977728761143
2015-08-10,1,0.001997728903604472,0.0023857472909683142,-0.012550595169467205,0.007590756925255904,0.9878421909567736
2015-08-12,1,0.0027927516612317295,0.0032849073865026048,-0.012550595169467205,0.005225722905517415,0.9878755041025016
2015-08-14,1,0.002921011148579228,0.0034067220245648376,-0.012550595169467205,0.005225722905517415,0.9876192046818854
2015-08-18,1,0.0025217027362202347,0.0029114544639073352,-0.012550595169467205,0.0056222366129838625,0.9877234727422625
2015-08-20,1,0.0028149422826322414,0.003281284783310953,-0.012550595169467205,0.008376974364984942,0.9875015324053806
2015-08-24,1,0.0015285954455634713,0.0018316526934160737,-0.005586923082594114,0.009096530795049795,0.9894076126760036
2015-08-26,1,0.0009905148817477448,0.001236093354775368,-0.0033865576153305904,0.007698776966568864,0.9913509977769794
2015-08-28,1,0.0007659892114437871,0.0009441793656915734,-0.003530130079692614,0.009096530795049795,0.990956317116667
2015-09-01,-1,-0.00031955556229311107,-0.0002611046622996878,-0.00036121428505813297,0.011438418120060275,0.9919695439410904
2015-09-03,-1,-0.0002147237992397124,-0.00015280244256586506,-0.001801176918398933,0.011438418120060275,0.9913559765011616
2015-09-08,1,0.000473121090739339,0.0006087589885823879,-0.001801176918398933,0.009096530795049795,0.9929595969148443
2015-09-10,1,0.000378027772946952,0.0005242942502528531,-7.945517903496222e-05,0.011438418120060275,0.9925760100734606
2015-09-14,1,0.0007370312848001031,0.0009177505987361266,-0.0005505651133078443,0.01028516284656787,0.9927630767137674
2015-09-16,1,0.0016538668698932067,0.0019836698809004554,-0.0005505651133078443,0.008814544080473075,0.9936232257052966
2015-09-18,1,0.0019409600071724448,0.002299412846174803,-0.0005505651133078443,0.008814544080473075,0.9936246865942463
2015-09-22,1,0.0015548294281297805,0.0017931358421573273,-0.0005505651133078443,0.00817544195970325,0.993651064792505
2015-09-24,1,0.0017860959969153722,0.002051321227616482,-0.0015070335124285675,0.010619195795218285,0.9930559812621851
2015-09-28,1,0.001509346125817016,0.0016796246035796986,-0.0015070335124285675,0.00817544195970325,0.9931853776454448
2015-09-30,1,0.0020809464554246713,0.0023396594758907105,-0.004293286256232774,0.004905018709794499,0.9926491103601128
2015-10-02,1,0.0018184586194564746,0.0020280807763322266,-0.004293286256232774,0.004359045475149383,0.9923256818543745
2015-10-06,1,0.001166334640993618,0.0012820614433170035,-0.0033636403317573627,0.006537522255767902,0.9927437581074853
2015-10-08,1,0.002018205474292897,0.0022840313415271023,-0.004293286256232774,0.006537522255767902,0.9922646638075017
2015-10-12,1,0.0024087747854809566,0.0027371118423476985,-0.005485429462902995,0.005905427758150656,0.9899922202798868
2015-10-14,1,0.0025558836213221666,0.0029017463341789694,-0.005485429462902995,0.008204114134620764,0.9891893005564586
2015-10-16,1,0.0029770005838276425,0.0033809770517620333,-0.009529489340382382,0.005905427758150656,0.9879960315935491
2015-10-20,1,0.0027801535242831686,0.0031471681330707737,-0.014397383021916458,0.008204114134620764,0.9865419662580771
2015-10-22,1,0.0027590698365224558,0.003076807635397195,-0.014397383021916458,0.008204114134620764,0.9869148339500194
2015-10-26,1,0.0018262614163685788,0.0019761384748851903,-0.009971285422118833,0.008204837884389369,0.9871201307007547
2015-10-28,1,0.0005956106280040917,0.0006534356918215134,-0.007578748971984771,0.008204837884389369,0.9877063404436152
2015-10-30,0,-0.0001507915112080551,1.6846143856182874e-06,-0.007377430489458176,0.008204837884389369,0.9884028477276354
2015-11-03,0,-4.3153741186183e-05,0.00010478093384634591,-0.007578748971984771,0.007475039391445035,0.9878352877342597
2015-11-05,1,0.00022642549300804854,0.00035009040928920285,-0.009867537263399813,0.007475039391445035,0.9874026600596693
2015-11-09,-1,-0.0010628102687230035,-0.0008207346257477762,-0.007578748971984771,0.008543737182940042,0.988967616999626
2015-11-11,-1,-0.0003360979988169674,-0.00017571857819341892,-0.009867537263399813,0.0068586227333380856,0.9884245235293
2015-11-13,-1,-0.0021785788882369194,-0.0017475101469268525,-0.00692982065953625,0.0068586227333380856,0.9891605275488955
2015-11-17,-1,-0.0019717210982975924,-0.0015730862471028363,-0.006211100491031844,0.00808851724109343,0.9892102128101106
2015-11-19,-1,-0.001445892339025015,-0.0011051223231694912,-0.00692982065953625,0.0068586227333380856,0.9897749807539765
2015-11-23,-1,-0.0009815241030887937,-0.0007389504340898622,-0.006211100491031844,0.007133904166029117,0.9899474136252887
2015-11-25,-1,-0.0003935365607278086,-0.0002811354532683442,-0.0033212511571933025,0.008914361539166523,0.9896491372612487
2015-11-30,-1,-0.0002892805577796999,-0.00016628598161911006,-0.0033212511571933025,0.008914361539166523,0.9895224700503259
2015-12-02,-1,-0.0009678818211755182,-0.0007799270374128181,-0.0033212511571933025,0.008914361539166523,0.9900400782745087
2015-12-04,-1,-0.0007834902536301921,-0.0006166277825582454,-0.0031805428261128662,0.008560407641828128,0.9913028720312735
2015-12-08,0,-1.8980186941832577e-05,5.354614946724619e-05,-0.0031805428261128662,0.006187226199206544,0.9922578644221255
2015-12-10,-1,-0.0017169511248265965,-0.0014301563210451806,-0.0015183327561156324,0.008560407641828128,0.9926556216763822
2015-12-14,-1,-0.0016218099278614674,-0.0013411968441021651,-0.0031805428261128662,0.008560407641828128,0.9920986015503215
2015-12-16,1,0.00012196343313119374,0.00016215160615037173,-0.0063976383564451084,0.006187226199206544,0.9929119292638662
2015-12-18,-1,-0.00018639048699874142,-0.00012495833042444192,-0.0063976383564451084,0.008560407641828128,0.9918479217625191
2015-12-22,1,0.0002251210184130134,0.00023413145331720216,-0.0063976383564451084,0.009384016476948791,0.9914518704091715
2015-12-24,1,0.00029359849263697966,0.0003209865112775132,-0.0063976383564451084,0.006187226199206544,0.9918345753710258
2015-12-29,1,0.0009333133390871411,0.001006732223641183,-0.0063976383564451084,0.006244141011854776,0.9920106267645207
2015-12-31,1,0.0006882513549190947,0.0007552778243976898,-0.005794830032121718,0.012223127110007151,0.9907508372739489
2016-01-05,1,0.0011124501470780041,0.0012791574479341064,-0.005509797954010699,0.013813022456373537,0.989748950838749
2016-01-07,1,0.0012990705239509716,0.001508953212591522,-0.005988971101746452,0.013813022456373537,0.988922235239317
2016-01-11,1,0.0014551757603759917,0.0016857615755181046,-0.005509797954010699,0.013813022456373537,0.9896905185552588
2016-01-13,1,0.0009775637992926445,0.0011437665891092645,-0.005509797954010699,0.013813022456373537,0.9895779850257431
2016-01-15,1,4.4019173849473364e-05,7.067995176494801e-05,-0.005360320220182129,0.013356789245177279,0.9905088350101238
2016-01-20,-1,-0.0007347400819592902,-0.0005695003150513861,-0.005360320220182129,0.01081611296654976,0.9912764193233935
2016-01-22,-1,-0.00037398126921483674,-0.0002510261142485156,-0.0047097011685165386,0.012289866781741822,0.990740480770967
2016-01-26,-1,-0.001390105639289985,-0.0010691977623071996,-0.0014543392629598295,0.012289866781741822,0.9903765961988411
2016-01-28,-1,-0.0010335429009796435,-0.0007600148284246812,-0.0047097011685165386,0.014611619505257245,0.9885588147323007
2016-02-01,1,0.0009738806301120796,0.0009795835697470304,-0.005556603019737374,0.010072564900894221,0.9898762170807753
2016-02-03,1,0.0018972752607962127,0.0019815368843616207,-0.005556603019737374,0.005764442849654333,0.9910710443285432
2016-02-05,1,0.001387293733843914,0.0014279522372013164,-0.0016601151119740047,0.007793111883659407,0.9917180223631459
2016-02-09,1,0.0015941244753390202,0.00169961014033043,-0.0014412020666215901,0.009025568412114209,0.9910205563625686
2016-02-11,1,0.0012388066840384956,0.0013154684316763134,-0.0007749991615662515,0.009073573305236504,0.9913594179069525
2016-02-16,1,0.0011158877434895714,0.00118670874477817,0.0019200434270145506,0.009073573305236504,0.9913390018642719
2016-02-18,1,0.00127837405766032,0.0013819985939567646,0.003442296693896724,0.010095708145112677,0.9912734807387558
2016-02-22,1,0.002450518725542732,0.0027238039945894654,0.00161417520183496,0.00885791681789836,0.9927427472229071
2016-02-24,1,0.0029450415558666385,0.003312548933361343,-0.0007749991615662515,0.008951242491678437,0.9924815163458258
2016-02-26,1,0.0019735645139962598,0.0022006068307393605,-0.00031354599107165934,0.00885791681789836,0.9945502247776602
2016-03-01,1,0.0012668486660787279,0.0013627475561010596,0.0004659606151963826,0.008951242491678437,0.9942686953674422
2016-03-03,1,0.0018049888785486882,0.002008030702363485,0.001818137579225676,0.008951242491678437,0.9946226040111974
2016-03-07,1,0.0022536762912454883,0.0025316809000521623,-0.0010096907804895844,0.008951242491678437,0.994147827921618
2016-03-09,1,0.0030786542112258737,0.003473667147326492,-0.0016296279243188441,0.0064225458065952055,0.9946742619373328
2016-03-11,1,0.0034560635084894048,0.0039267748801944825,-0.0016296279243188441,0.005214432612079474,0.9948658336222181
2016-03-15,1,0.003644455394911098,0.004132295644163623,-0.00210159278840619,0.006017930853358017,0.9942563371141144
2016-03-17,1,0.004612871495167591,0.005254499360672668,-0.0032417217980471244,0.005214432612079474,0.9938598950129671
2016-03-21,1,0.0039749997944039,0.004498941228621267,-0.00210159278840619,0.005333384164368696,0.9947127387115797
2016-03-23,1,0.0036659756344425086,0.004100053905243691,-0.003962168470269133,0.005127309387384576,0.9924552889814793
2016-03-28,1,0.003283846323975775,0.0036274995043761565,-0.003962168470269133,0.005306580435735725,0.9926761121837417
2016-03-30,1,0.003877588521915609,0.004308588988410483,-0.004900766017712799,0.005306580435735725,0.9924586179878284
2016-04-01,1,0.004269776600756639,0.00477394928626123,-0.005635672939280214,0.005306580435735725,0.9912981716554617
2016-04-05,1,0.002724204345770741,0.002920918814654298,-0.005122950559287859,0.005937519667459106,0.9921295838984655
2016-04-07,1,0.002853813387961922,0.003108097897371873,-0.005635672939280214,0.007431411854893466,0.9916976831071976
2016-04-11,1,0.002103555669832612,0.0021892805425135554,-0.005635672939280214,0.007918535327836021,0.991472534800733
2016-04-13,1,0.00207632579847264,0.002159531539236939,-0.005399546205563955,0.007918535327836021,0.9919689282911495
2016-04-15,1,0.002239533742537365,0.0023735500432803605,-0.004822057106474046,0.00843648583591008,0.9920623355410456
2016-04-19,1,0.0022777715516682376,0.0024104935609226296,-0.005512470918018473,0.00843648583591008,0.9908845540143103
2016-04-21,1,5.314901104453107e-05,0.00020939686097083958,-0.004822057106474046,0.009369723986500694,0.9915525701983716
2016-04-25,1,0.00045943646993015466,0.0005529369863990572,-0.005460080844459954,0.009369723986500694,0.9914479703073823
2016-04-27,1,0.00010189020371419763,0.0002788647031857214,-0.005460080844459954,0.009369723986500694,0.9915855575975153
2016-04-29,1,0.00030752233922143237,0.00045842997852187854,-0.0037193832039580034,0.009369723986500694,0.9919084164746965
2016-05-03,1,0.0007456666725858368,0.0008144016013853987,-0.0031367772020434717,0.009369723986500694,0.9919396388003131
2016-05-05,0,-0.00022131550462149328,3.654369696083767e-05,-0.0018130844678998408,0.009369723986500694,0.9916654793133822
2016-05-09,0,-0.00016361755809386899,8.396722938734333e-05,-0.0018130844678998408,0.009369723986500694,0.9917243348079199
2016-05-11,1,0.0005233190698421123,0.0006292544438057897,-0.0018130844678998408,0.009633603512754791,0.9909002727240448
2016-05-13,1,0.00029695102027840824,0.00046026560313145327,-0.0024660466586269923,0.009510452561424087,0.9911291554841746
2016-05-17,-1,-0.0003847779917060573,-0.00015537638430602758,-0.0024660466586269923,0.00985154153229968,0.9914740578873671
2016-05-19,-1,-0.0010354034056144629,-0.0007497002460475475,-0.001053186284688559,0.010083216700631573,0.9924928309334113
2016-05-23,-1,-0.0010135208094867445,-0.0007533476211902607,-0.001053186284688559,0.010083216700631573,0.9927185859867893
2016-05-25,-1,-0.0009010712612408878,-0.0006293809463623392,-0.001670550069095039,0.00985154153229968,0.9931127269144133
2016-05-27,-1,-0.0004286703675428176,-0.00020394715750005163,-0.001670550069095039,0.00985154153229968,0.9929019041695537
2016-06-01,1,5.102025962625857e-05,0.0002240335915470706,-0.0017224344594239948,0.008654628903363755,0.9936623446813787
2016-06-03,1,0.0007819978477300654,0.0008741093708274048,-0.0017224344594239948,0.008654628903363755,0.9935616818284397
2016-06-07,1,8.354019334983322e-05,0.0002994786323505162,-0.0009369447039693109,0.009878968995406284,0.9931381835018169
2016-06-09,1,0.0008480161053946229,0.0009790934159974543,-0.0017224344594239948,0.008654628903363755,0.9930728436990377
2016-06-13,1,0.00015064836911121249,0.00038731962901992546,-0.0017957976722611558,0.008654628903363755,0.9924005329527225
2016-06-15,1,0.00011082506381854837,0.0003368839063849536,-0.0017957976722611558,0.007451004947130556,0.9925411838781165
2016-06-17,1,0.00038694209859059785,0.0005891539842193804,-0.0017957976722611558,0.0044343071737628715,0.9929264366236755
2016-06-21,1,0.00022985352557569226,0.00043561277906362756,-0.0025764584520402618,0.0044343071737628715,0.992697552956607
2016-06-23,1,0.0009154047974280003,0.0009671574415223969,-0.0012387627561511172,0.007451004947130556,0.9922317120870332
2016-06-27,1,0.0024090056324998386,0.002625287154130354,-0.002884523419030307,0.004251373704476263,0.9922802230017327
2016-06-29,1,0.0019197879742018106,0.002024173818429773,-0.007050946917441091,0.004251373704476263,0.991741696856362
2016-07-01,1,0.0026331939579953096,0.0028232053034772282,-0.007050946917441091,0.00524195471829653,0.9924031386224583
2016-07-06,1,0.002802958335530341,0.002978306018895375,-0.008450915604053607,0.0038508623949571434,0.9921282736141309
2016-07-08,1,0.0018692555266593709,0.001899835967450427,-0.008450915604053607,0.0038508623949571434,0.9926221088749634
2016-07-12,1,0.0008148701345708765,0.0009116100282494596,-0.008059942708425517,0.0038508623949571434,0.9940101583276735
2016-07-14,1,0.0013217027649759356,0.0013403696251093255,-0.006987923010485904,0.002581493349513919,0.9946520412580333
2016-07-18,1,0.0015512022477216143,0.0016147214007992984,-0.008261843883188047,0.00216342644586112,0.9937106860930267
2016-07-20,1,0.0005314336448987251,0.0006509770174375418,-0.009371728501359523,0.003333924842000617,0.9930730324122554
2016-07-22,1,0.0008659390537178921,0.0009693065785134421,-0.010713580787875904,0.00216342644586112,0.9924794686675998
2016-07-26,1,0.00021242079748360634,0.00037557574931210044,-0.009371728501359523,0.003333924842000617,0.9928191193982828
2016-07-28,-1,-0.00025187652141853514,-5.095845892696504e-05,-0.008261843883188047,0.003333924842000617,0.9932530208197412
2016-08-01,1,0.0007072288980861457,0.0007552130887462406,-0.009768252668820922,0.00216342644586112,0.9922443225505684
2016-08-03,1,1.4273276744086608e-05,0.00013571053382474308,-0.010634981859152575,0.003497018623326961,0.9923554832985385
2016-08-05,-1,-0.00041395901919906425,-0.00025768679074380266,-0.0050819401525712665,0.00562068704249102,0.9919348031990528
2016-08-09,1,0.0002216269345981232,0.0002571995930015677,-0.0050819401525712665,0.006405284810246893,0.9914010876187199
2016-08-11,1,7.233023836092841e-05,0.00014539956712364416,-0.010634981859152575,0.006405284810246893,0.9896357194982216
2016-08-15,-1,-0.0005343907345644505,-0.00039941506452232094,-0.010417015922371485,0.009032264348077185,0.9893918203148757
2016-08-17,-1,-0.00046520751565104604,-0.00034142309712239383,-0.0050819401525712665,0.008260894857084053,0.9899808053817389
2016-08-19,1,6.606339480808899e-07,3.2711714759158306e-05,-0.003141766057393807,0.008348148574037057,0.9903108604997152
2016-08-23,1,0.0003187561686821803,0.0003488096790403956,-0.0026204801245024298,0.010829824675885781,0.989824318832021
2016-08-25,-1,-0.00021678583636996368,-0.00013971639293221933,-0.0020312362147407704,0.010829824675885781,0.9892718934272825
2016-08-29,-1,-0.0010297568218833998,-0.0008518037490629533,-0.0020312362147407704,0.010829824675885781,0.9901946632653721
2016-08-31,-1,-0.0012520906163495968,-0.00104687021983284,-0.004336762459762209,0.010829824675885781,0.989935671354788
2016-09-02,-1,-0.0006249040859888401,-0.0004963848228891622,-0.01026346084868502,0.01001824755073084,0.9898945946711973
2016-09-07,-1,-0.00016129478537875867,-8.758755840765155e-05,-0.01097773118481743,0.00829029948600899,0.9891891753757595
2016-09-09,-1,-0.0017016812041505851,-0.0014606282514249894,-0.01026346084868502,0.00829029948600899,0.9907896616597133
2016-09-13,-1,-0.0027282960442269128,-0.002263089111641181,-0.01026346084868502,0.00829029948600899,0.9908907793480686
2016-09-15,-1,-0.0020945456375379605,-0.001716280280865433,-0.01026346084868502,0.009566991033328658,0.9905652820725248
2016-09-19,-1,-0.0011434926968385533,-0.0008874949089173298,-0.01026346084868502,0.00828283647064598,0.9908803603792521
2016-09-21,-1,-0.00028549538364400966,-0.00014254287761181629,-0.01026346084868502,0.00828283647064598,0.991069524145564
2016-09-23,1,0.0002896186030432622,0.00035971167822364757,-0.01026346084868502,0.0036166471951150254,0.9909635362343143
2016-09-27,-1,-0.0001948330060430344,-7.276073488931233e-05,-0.00923022007130542,0.008166515358479636,0.990952140097981
2016-09-29,-1,-0.0010903821652355756,-0.0008704297448792744,-0.00880109043376696,0.008166515358479636,0.9920185891418668
2016-10-03,-1,-0.0020405271292061504,-0.0017130270943814631,-0.003763769199288462,0.009160572629239689,0.9919333844398667
2016-10-05,-1,-0.0030995996674957234,-0.00266063696925816,-0.0037671438814870783,0.009160572629239689,0.9922776605640363
2016-10-07,-1,-0.0035487249216006812,-0.0030237519831531026,-0.0037808765370902003,0.009160572629239689,0.9924189426053965
2016-10-11,-1,-0.003890473861845743,-0.0032875229998031376,-0.0037404249684140868,0.009272734930353375,0.9922257930868291
2016-10-13,-1,-0.0031926588708998654,-0.0026645206927183567,-0.005105845024762152,0.008166515358479636,0.9920676030511277
2016-10-17,-1,-0.0029829191105705784,-0.0025014198442903906,-0.004144572630452561,0.008646699543443909,0.9922164222143675
2016-10-19,-1,-0.0022329059910187457,-0.0018701943577864395,-0.004364814088443644,0.008646699543443909,0.9919675259150591
2016-10-21,-1,-0.0023605875222075384,-0.0020113621742141458,-0.004364814088443644,0.008646699543443909,0.9920124843470893
2016-10-25,-1,-0.0013529957051458296,-0.0011565949704198514,-0.004364814088443644,0.009761841224875183,0.9914498518490064
2016-10-27,-1,-0.0015368014490799754,-0.001314960326873513,-0.005337486406874953,0.011770441150895452,0.9900014623579855
2016-10-31,-1,-0.0003862490061416359,-0.00033869881963570925,-0.005337486406874953,0.011770441150895452,0.9900902038611953
2016-11-02,-1,-0.001328677634219837,-0.0011597184865236806,-0.007688301165740192,0.011770441150895452,0.9889122727703105
2016-11-04,-1,-0.0014549342989788657,-0.001274349308802088,-0.007688301165740192,0.011770441150895452,0.9884503121753756
2016-11-08,-1,-0.00029281891163065283,-0.0002734530793871636,-0.007688301165740192,0.010384756340163222,0.9888008760096973
2016-11-10,-1,-0.001792961890491327,-0.0015934138598319744,-0.004364814088443644,0.01183833423250209,0.9894710581996241
2016-11-14,-1,-0.0016684010074738752,-0.0014807669774589952,-0.0010464406184610337,0.01305467278998061,0.9887427676718568
2016-11-16,-1,-0.0007513069947504571,-0.000716684130660745,-0.0028457149662210347,0.012590453981675659,0.9885751844924345
2016-11-18,-1,-0.0009316363321795914,-0.0008789184057801888,-9.535330004232481e-05,0.012590453981675659,0.9879478763577346
2016-11-22,1,0.0005010927606100505,0.0006838046421074203,-0.0011727261470059344,0.01122530212267487,0.9897840268131716
2016-11-25,1,0.0010638714610400808,0.0013625256833215416,4.027365474578988e-05,0.01022096780542691,0.9912413226887367
2016-11-29,1,0.0014186876995576304,0.001731167300079282,-0.0011727261470059344,0.008038576645108568,0.9913923320939658
2016-12-01,-1,-0.0004817105029702541,-0.00046019994423744014,4.027365474578988e-05,0.01022096780542691,0.9920013675959409
2016-12-05,-1,-0.00010043463247366464,-2.6472179851801e-05,-0.0011727261470059344,0.01022096780542691,0.9919737981434998
2016-12-07,1,0.0006803299978292985,0.0008726064536563322,-0.0011727261470059344,0.008876329304098993,0.9926942636922806
2016-12-09,1,0.001091842213789049,0.001323810326342764,-0.001887584557898715,0.007313529879984969,0.9924561460560866
2016-12-13,1,0.0023733592152054917,0.002814698517222303,-0.00281631036738635,0.005958226616916694,0.9928999190540648
2016-12-15,1,0.0011005055879586025,0.0013451138803971063,-0.00281631036738635,0.007168022719207737,0.9940604230564059
2016-12-19,1,0.0014538192730887763,0.00171861389044898,-0.0028972040651410605,0.005922865407778909,0.993923100335673
2016-12-21,1,0.0016796187762067429,0.0020015147145933916,-0.0028972040651410605,0.005922865407778909,0.9939558597405109
2016-12-23,1,0.0016454466147708359,0.0019272421390094559,-0.003291061528974406,0.003721986586498568,0.99390957920711
2016-12-28,1,0.0010842329942476457,0.0012651582305986376,-0.0028972040651410605,0.003721986586498568,0.9943215807290887
2016-12-30,1,0.0016296734516085193,0.0018894237197750873,-0.003291061528974406,0.003721986586498568,0.9941958582637092
2017-01-04,1,0.0015391383204766936,0.001792982870186667,-0.003291061528974406,0.0042440283662019025,0.9936383345826251
2017-01-06,1,0.0015487528937260424,0.0017696304836086444,-0.003291061528974406,0.0030911213666010373,0.9937019842630995
2017-01-10,1,0.0009509543039402169,0.0010949189902372503,-0.0028972040651410605,0.0042440283662019025,0.9944484360556269
2017-01-12,1,0.0011328695995548926,0.0013033366511749369,-0.003291061528974406,0.004059552081339304,0.9943226410623202
2017-01-17,1,0.0013889526961198173,0.0015981739411584503,-0.003980124366519677,0.0030911213666010373,0.9943967874557003
2017-01-19,1,0.0009293215300707604,0.0010738573431260303,-0.0030145528499695316,0.004059552081339304,0.9948123833324263
2017-01-23,1,0.0006472564453339692,0.0007175866876966388,-0.0030145528499695316,0.006946507510054883,0.994253980034928
2017-01-25,1,0.0004966112023415617,0.0005356193950061948,-0.002412123864201318,0.0073739681062131145,0.9940562676774282
2017-01-27,1,0.0005462791495067171,0.0006192546455193313,-0.0025282468955887287,0.008702489020478675,0.99363955893615
2017-01-31,1,0.0011243196149458392,0.0012971508348049818,-0.0014410543695297638,0.008702489020478675,0.9940886565182886
2017-02-02,1,0.0004853595296022876,0.0004918345966245986,-0.0014410543695297638,0.008702489020478675,0.9944597709446386
2017-02-06,1,0.0005804319390815972,0.0006107395460749359,-0.0016624922430537711,0.008702489020478675,0.9944192894051896
2017-02-08,1,0.0010651621432947818,0.0011833978008498661,-0.003264562359604747,0.007734548230985967,0.993755108756857
2017-02-10,1,0.0014201395827107568,0.001626148015835771,-0.0016624922430537711,0.009308903632584287,0.9939692522128152
2017-02-14,1,0.0014492461677550776,0.0016948853445582965,-0.0009367431377649067,0.010129428574947546,0.9935009757358205
2017-02-16,1,0.0018841127657517726,0.0022147139757300975,-0.0014467658954672334,0.010129428574947546,0.992958483276857
2017-02-21,1,0.0021857944570581062,0.0025338783629758822,-0.003264562359604747,0.010129428574947546,0.9924364126455787
2017-02-23,1,0.0020823281734142656,0.0023710769414215776,-0.003264562359604747,0.009654102812734598,0.992638725771042
2017-02-27,1,0.0018586014256567309,0.0020684561655001966,-0.0015187677389112294,0.008465691866821052,0.9930562368247502
2017-03-01,1,0.0017095891194431946,0.0018384171053357522,-0.0038760906160431826,0.006814770033594245,0.9930544509588917
2017-03-03,1,0.0017910519362226694,0.00192226428891508,-0.0034208180159021138,0.003421543912690203,0.9934831072420184
2017-03-07,1,0.0015476166364173467,0.0016463289050853826,-0.001367010205530873,0.003650719533632497,0.9939653762388986
2017-03-09,1,0.0011207661943785647,0.0011972114458280337,-0.0004780402695858672,0.005691362367342756,0.9948386038994025
2017-03-13,1,0.0013379488995789,0.001436830299867857,-0.001278650929337128,0.005649058874032526,0.9948309313632315
2017-03-15,1,0.002178635593667824,0.002404014357620627,-0.001278650929337128,0.005649058874032526,0.9954212427904646
2017-03-17,1,0.0017252983828248186,0.001862353481592356,-0.0010375839622580316,0.005602161251641861,0.99612877568912
2017-03-21,1,0.002072201248892928,0.0022807393848839003,-0.0010375839622580316,0.005217608562787913,0.9966207847886182
2017-03-23,1,0.0018437101163567395,0.0020088332139736394,-0.0018809801115593765,0.005600605679563017,0.9964369195874755
2017-03-27,1,0.002242368750269482,0.0024892192180358814,-0.0018809801115593765,0.005217608562787913,0.9966398234022651
2017-03-29,1,0.001473313712971176,0.0015722803532926652,-0.0016647218898932718,0.005217608562787913,0.9968032687954286
2017-03-31,1,0.0012124136982330613,0.0012607117501097296,-0.001955406347798351,0.005217608562787913,0.9956488775197223
2017-04-04,1,0.001613650078116459,0.001754700828073231,-0.002800002111249756,0.005600605679563017,0.9952125856718868
2017-04-06,1,0.0010970941337810586,0.0011078608579224382,-0.002800002111249756,0.005343247183956639,0.9952786788646869
2017-04-10,1,0.001146378086882759,0.0011516196581197763,-0.003544130194687471,0.0050130249912040395,0.9951661660070467
2017-04-12,1,0.0013932292922832152,0.0014333963666312913,-0.003544130194687471,0.004301714264131599,0.9954114602103077
2017-04-17,1,0.0012657303906259381,0.001269037151443886,-0.003544130194687471,0.004301714264131599,0.995398507927627
2017-04-19,1,0.0015236451668652028,0.0016023917870816567,-0.003544130194687471,0.002896903005362622,0.9954350514637053
2017-04-21,1,0.0015600443029715671,0.0016442667619040714,-0.0031272229204804846,0.002896903005362622,0.9955661444941966
2017-04-25,1,0.001992696723934368,0.0021650578586887357,-0.0031272229204804846,0.005124069912623059,0.9950655419549003
2017-04-27,1,0.0008036637246353393,0.0008910571239287712,-0.0031272229204804846,0.006262737497478042,0.9946912656412886
2017-05-01,0,-0.00014249264811838408,4.323150288555364e-05,-0.0005260761286004233,0.006262737497478042,0.9954832537219072
2017-05-03,1,0.00026312843817808237,0.0003736965744338465,0.0002352978311957521,0.006939162007871305,0.9954615037492588
2017-05-05,1,0.0007236497301970264,0.0007585764935222087,-0.0005260761286004233,0.006939162007871305,0.9952464446501337
2017-05-09,1,0.0008175413176706262,0.0008475798002113606,-0.0005260761286004233,0.006939162007871305,0.9954891327486217
2017-05-11,1,6.71350958003045e-05,0.00018012753434798495,-0.0011106818304114632,0.006939162007871305,0.9951501373010087
2017-05-15,1,0.000404201688701428,0.00045245278283614476,-0.0011106818304114632,0.006939162007871305,0.9952940893518136
2017-05-17,1,0.00010095620351749081,0.0001875260743529991,-0.0005260761286004233,0.006939162007871305,0.9950889718546536
2017-05-19,1,0.0003643342531459351,0.00041041920269910823,-0.0011106818304114632,0.006939162007871305,0.995212323587691
2017-05-23,1,0.0005846108607814374,0.0006250875055621114,-0.0023696230901439305,0.006446588905408562,0.9957632029646085
2017-05-25,1,0.001402612018518174,0.0014885667412526996,-0.002791308497748421,0.0032844541805891873,0.9961555109991911
2017-05-30,1,0.0013216684078228564,0.0013862372765510173,-0.0039388309965527795,0.00339371520547972,0.995669279557154
2017-06-01,1,0.0018260773683667496,0.0019675227720679883,-0.005174225395167598,0.001728748820672676,0.9947120637118454
2017-06-05,1,0.0011063447449318675,0.0011141599137732788,-0.004608533543258109,0.0013285113029311221,0.9952442775467185
2017-06-07,1,0.0009229251434282276,0.000932560032098156,-0.004207717528309907,0.0013285113029311221,0.9952186963561092
2017-06-09,1,0.0008993775243967702,0.000906713337568693,-0.005027701773717106,0.001719814412329026,0.9949676740025396
2017-06-13,1,0.00031715386380025396,0.00042260783522222675,-0.004207717528309907,0.0032877978597229225,0.9950546230180902
2017-06-15,1,0.0007272402975755258,0.0007831859961260386,-0.004474529059874267,0.0021258259069544495,0.9950653766077503
2017-06-19,1,0.0005688458927086772,0.0006504487644252788,-0.004474529059874267,0.002671870454805186,0.9950963540527931
2017-06-21,1,0.0002277162540691902,0.0003627377323943538,-0.004474529059874267,0.003780615737777804,0.9949342646258745
2017-06-23,0,-1.2932804036345049e-05,0.0001390634398098736,-0.0046489541678882826,0.00428363190661471,0.9945899547707616
2017-06-27,-1,-0.0003620166009111373,-0.000167519611883675,-0.004359743855236415,0.004892343742986298,0.9946483330487651
2017-06-29,-1,-0.0014498901013246961,-0.0011260875686701342,-0.004081468326366966,0.004892343742986298,0.9951853059520828
2017-07-03,-1,-0.001502688027140244,-0.0011884161916384684,-0.0035681555739699618,0.005386964525374123,0.9946406901261452
2017-07-06,-1,-0.0017511134386831411,-0.0014101176867977866,-0.0004828603720447563,0.006508254216434958,0.9936104950583429
2017-07-10,-1,-0.0021464525105361317,-0.001738408576555478,-0.0004828603720447563,0.006508254216434958,0.9932492426144137
2017-07-12,-1,-0.001677881574678882,-0.0013335524819366304,-0.004359743855236415,0.006112595452149496,0.9938195459827723
2017-07-14,-1,-0.0013734645731378857,-0.0010926556345414139,-0.004450802061734929,0.006508254216434958,0.9937455830662282
2017-07-18,-1,-0.0009435114574588956,-0.0007290230969785663,-0.004450802061734929,0.006508254216434958,0.9938485448339799
2017-07-20,-1,-0.0004686034370214651,-0.00032221117895954064,-0.0047019791830677626,0.006226297771095271,0.9938734979347195
2017-07-24,-1,-0.0002370975720799338,-0.00014168136423492445,-0.004450802061734929,0.0049644044737414085,0.9944400748138732
2017-07-26,1,8.107016486214646e-05,0.00012524112429775964,-0.0019111972059571347,0.004689062429028045,0.9947839073126417
2017-07-28,-1,-0.0004498308212441905,-0.00033149311984825885,-0.00041878596054260284,0.004689062429028045,0.9950281334285297
2017-08-01,-1,-0.0005672573622309615,-0.00039195539521313445,-0.0005007726041265652,0.0046261755925749585,0.9953593060242397
2017-08-03,1,0.0003088896478508049,0.00036691729105198397,-0.0019111972059571347,0.004445745891581835,0.9961993645395502
2017-08-07,1,0.0006918270036635974,0.0007245332172279036,-0.0013899302367907467,0.00437553865731393,0.996666369736668
2017-08-09,1,0.0004173603512447775,0.0004330293684763191,-0.0013899302367907467,0.004445745891581835,0.9962821552519671
2017-08-11,1,0.000538452813173093,0.0005484915323063167,-0.001061656162794501,0.0046261755925749585,0.9962752770114904
2017-08-15,1,0.0007492556776450038,0.0007800079367682732,-0.0025802504518982524,0.0046261755925749585,0.9951019808340448
2017-08-17,1,0.0006674514819809618,0.0006990979454944448,-0.0013899302367907467,0.0047285812821568855,0.9951590206814246
2017-08-21,1,0.000584866338947171,0.0005862560158206907,-0.0025802504518982524,0.0047285812821568855,0.9948142158318987
2017-08-23,1,0.0007739929163441779,0.0007924520542172133,-0.005407473910806002,0.00369532732824533,0.9943951545895935
2017-08-25,1,0.0008230974525294337,0.0008536816003929277,-0.007991244181592428,0.004811536905021269,0.9935101010795
2017-08-29,1,0.001083744105665488,0.0011654119675698566,-0.009268509075655816,0.0038411697875628,0.9923915933070038
2017-08-31,1,0.0008932175576563566,0.0009550106945954251,-0.009268509075655816,0.0038411697875628,0.9925047501869987
2017-09-05,1,0.0008438128743987939,0.000912750701762609,-0.009268509075655816,0.00545365471652055,0.9921708065707608
2017-09-07,1,0.0008216645766738228,0.000895290912653629,-0.009268509075655816,0.005968130005160967,0.9922707103427483
2017-09-11,1,0.0012425077516439635,0.001366058893183433,-0.009268509075655816,0.0021702583913754702,0.9925029140040957
2017-09-13,1,0.00012774024786845148,0.00014501817353922028,-0.004156603089925682,0.005525923455405521,0.9937576203634838
2017-09-15,1,0.0007289416978976412,0.0008011229496670613,-0.004156603089925682,0.005525923455405521,0.9937765440483814
2017-09-19,1,0.00020842463096412575,0.00021277773117592245,-0.003580651944239558,0.0059593637062837585,0.9940562242160996
2017-09-21,-1,-0.0010288822388690442,-0.0008280304330971209,-0.003580651944239558,0.007276073513037221,0.9937837888234679
2017-09-25,-1,-0.0011229487556039782,-0.0009163784305520556,-0.002860964649463493,0.0059593637062837585,0.9944915732435213
2017-09-27,-1,-0.002079114428905121,-0.001772844726939687,-0.0025990142809949575,0.0059593637062837585,0.9951702572652722
2017-09-29,-1,-0.002415163369668718,-0.0020511800999436494,-0.002169536250584206,0.007402982549133725,0.9947566414664416
2017-10-03,-1,-0.0021893734166522367,-0.001853612149224704,-0.0025990142809949575,0.0059593637062837585,0.9949915390635422
2017-10-05,-1,-0.0018236629272961205,-0.0015365712175162956,-0.0026412828419219003,0.005348358095265878,0.9952663056234774
2017-10-09,-1,-0.002122031657537086,-0.00178677790455749,-0.0024798478530626443,0.0059593637062837585,0.9945618267203602
2017-10-11,-1,-0.001445866048057417,-0.001200719446150104,-0.0024798478530626443,0.006395154013880034,0.9948164869002364
2017-10-13,-1,-0.000562046657490589,-0.00045075390075194127,-0.004322788972232469,0.005348358095265878,0.9947119077803972
2017-10-17,1,0.00018505955798445438,0.00020901195323222378,-0.004322788972232469,0.008829689758042129,0.9930896861941092
2017-10-19,1,0.0006493133157162903,0.0007439029731163394,-0.004322788972232469,0.006128690154148239,0.9934508360473608
2017-10-23,1,0.0010663704128595704,0.0012528653354909561,-0.0062759406272889316,0.006128690154148239,0.9925624563605304
2017-10-25,1,0.0006681687706929092,0.00078361203952919,-0.0062759406272889316,0.006128690154148239,0.9929739019563363
2017-10-27,1,0.000868588434884264,0.0010001490662790386,-0.0062759406272889316,0.005313077292449507,0.9930865496165313
2017-10-31,1,0.0003210672092499204,0.0003788381381336967,-0.00325144062567782,0.006243915944233645,0.9933749658690691
2017-11-02,1,0.00028349748363319926,0.0003214361839830525,-0.0052845194531052075,0.008613473740792917,0.9928979193673908
2017-11-06,1,0.0011163682314942213,0.0012970213561795097,-0.0082094284248623,0.006243915944233645,0.9926909881481709
2017-11-08,1,0.0015132152916042302,0.0017478820743702652,-0.0082094284248623,0.005700324840157973,0.9927632357175574
2017-11-10,1,0.0008228049850543833,0.0009618493670078065,-0.007840475284951994,0.006449041598228792,0.9931781308777674
2017-11-14,1,0.0022265959709785316,0.0025265865999509396,-0.0082094284248623,0.005252732295049784,0.9937671162793328
2017-11-16,1,0.00162379841690608,0.0018279309865892115,-0.007840475284951994,0.005700324840157973,0.9939254025791001
