JNU-Tangyin/eata/results/Batch4_SP500/Batch4_SP500-CHD.csv
Date,Action,Predicted_Q25,Predicted_Q75,Actual_Q25,Actual_Q75,RL_Reward
2010-12-14,1,0.0,0.0018836001773543643,-0.002182171356820861,0.004823196356709927,0.9949919906071552
2010-12-16,0,0.0,0.0,-0.0031964495026471605,0.004823196356709927,0.9937109368000522
2010-12-20,0,0.0,0.0,-0.0031964495026471605,0.003618856232932865,0.9942954704859217
2010-12-22,0,0.0,0.0,-0.003298698847718392,0.00266097768828167,0.9948747027898875
2010-12-27,0,0.0,0.0,-0.0029249506226721247,0.004823196356709927,0.9942083548666885
2010-12-29,0,0.0,0.0,-0.004308769233742539,0.004823196356709927,0.9931226756731595
2010-12-31,1,0.0005729091374034122,0.0006226780989646867,-0.004308769233742539,0.004823196356709927,0.9933426205275444
2011-01-04,1,0.0005649105999540663,0.000594182543665094,-0.005759676927648554,0.006116677882310482,0.9926802132171733
2011-01-06,1,0.000551694263828907,0.0005825234849642448,-0.005759676927648554,0.006116677882310482,0.9928383830324075
2011-01-10,1,0.0004685077128554664,0.000508779714394264,-0.004308769233742539,0.007597807798778989,0.9917596085256905
2011-01-12,1,0.00025878086287782286,0.00037884205732236946,-0.005759676927648554,0.007597807798778989,0.9918608703632866
2011-01-14,0,-0.00013174899359775583,5.510707619784186e-05,-0.005759676927648554,0.00917139283492926,0.9910571477893223
2011-01-19,0,0.0,0.0,-0.005759676927648554,0.010411661606525709,0.9909147101359975
2011-01-21,0,0.0,0.0,-0.004646002199009407,0.010598341404493446,0.9906797644638198
2011-01-25,0,0.0,0.0,-0.004646002199009407,0.010411661606525709,0.9914891075799181
2011-01-27,0,0.0,0.0,-0.0036214111805448115,0.010598341404493446,0.9909902187383597
2011-01-31,-1,-0.0009377135649686538,-0.0007602308264797969,-0.00395131939386006,0.01074222050189422,0.9902117901898838
2011-02-02,-1,-0.0010108463589158592,-0.0008261541903058177,-0.002664554147004508,0.012074436734039549,0.989979003565157
2011-02-04,-1,-0.000965173102365671,-0.0007888763909512319,-0.002664554147004508,0.012074436734039549,0.989799815978979
2011-02-08,1,0.0007404826978100803,0.0007783449321086593,-0.002664554147004508,0.01074222050189422,0.9910797798813341
2011-02-10,1,0.0003600415339837104,0.0003631928449762522,-0.002664554147004508,0.01074222050189422,0.9913389443271157
2011-02-14,1,0.0005728807534322186,0.0005732114813404671,-0.0027870262695901225,0.0104596213056593,0.9925246717172732
2011-02-16,1,0.0009781648324514983,0.0010485273343347763,-0.0027870262695901225,0.009596910563016994,0.992490513435553
2011-02-18,1,0.0013507936591692351,0.0014819385725030945,-0.0027870262695901225,0.011513947924708064,0.9914461106066209
2011-02-23,1,0.0011323150135368473,0.0012265173902123313,-0.004860357253149821,0.011513947924708064,0.990428998640043
2011-02-25,1,0.0019780243534615453,0.0022950870903041317,-0.0034067772814204305,0.009596910563016994,0.992252080682686
2011-03-01,1,0.0017479547273696148,0.0020363426664634283,-0.0027870262695901225,0.00957225176319396,0.9925246614874145
2011-03-03,1,0.0026763959060227397,0.0031301850581451243,-0.004860357253149821,0.0074658676237598625,0.9930449381395942
2011-03-07,1,0.002613481040638516,0.003036500337351037,-0.004860357253149821,0.0074658676237598625,0.9928196106216421
2011-03-09,1,0.003121422467871728,0.003622663626159107,-0.005313644724508402,0.0074658676237598625,0.9927801364582021
2011-03-11,1,0.002655793306705425,0.0030745295285897964,-0.006014020402187575,0.0074658676237598625,0.9925651464459543
2011-03-15,1,0.0022950414271674952,0.0026428933509978713,-0.006014020402187575,0.0074658676237598625,0.9928968107883903
2011-03-17,1,0.002448343424743195,0.002800967262057437,-0.006014020402187575,0.006844670643307819,0.9931525456883725
2011-03-21,1,0.003086495165461903,0.0034934595948197034,-0.006472970317388357,0.006718358992707479,0.9931447163820529
2011-03-23,1,0.0019504816848842045,0.0021773199364739306,-0.006014020402187575,0.006844670643307819,0.993957532920142
2011-03-25,1,0.001974884093503635,0.0021975294602199456,-0.006472970317388357,0.006844670643307819,0.9928232198458778
2011-03-29,1,0.002403952555226761,0.00267981513256141,-0.006472970317388357,0.006862301593724342,0.9927176711641923
2011-03-31,1,0.0018838112468831816,0.0020705756894050134,-0.005925769815301396,0.008451213102773122,0.9920691657393234
2011-04-04,1,0.0018750415646561235,0.002031735529352714,-0.006007617659032858,0.008451213102773122,0.9915536340164236
2011-04-06,1,0.001851860504072345,0.001997091133571888,-0.005925769815301396,0.007322037062245809,0.9923105084325774
2011-04-08,0,0.0,0.0,-0.0057759747336908855,0.007322037062245809,0.9906584900622157
2011-04-12,0,0.0,0.0,-0.00594392239828307,0.008451213102773122,0.9885844055635893
2011-04-14,1,0.0019809204168390283,0.0020155428594398304,-0.00594392239828307,0.008837152434010268,0.9877366021554446
2011-04-18,1,0.001469396251241401,0.0015180238712250958,-0.0057759747336908855,0.008451213102773122,0.9888006196236752
2011-04-20,1,0.0013499840288900167,0.0014147250687987919,-0.005815359070255822,0.008837152434010268,0.9883373265176341
2011-04-25,1,0.00010990160555395282,0.00033147952201595724,-0.005815359070255822,0.008837152434010268,0.988487056790442
2011-04-27,1,0.0011156574147469236,0.0012007026481917246,-0.006892401989602654,0.004593394020243643,0.9880599232500258
2011-04-29,1,0.0027211439855496997,0.0028810134815801464,-0.006892401989602654,0.003643019600344811,0.9881938515477399
2011-05-03,1,0.001936312398660055,0.0019767186017790447,-0.009769250527675901,0.00755846937378061,0.9868588798396845
2011-05-05,1,0.0018585098994363851,0.001874675860435165,-0.012126999063602619,0.00755846937378061,0.9855799717934668
2011-05-09,1,0.00035733843722713754,0.0005047669667257236,-0.010788328338637151,0.011584223183176324,0.9870360648329354
2011-05-11,1,0.000836917798851046,0.0009300478410147633,-0.009379490530016766,0.011020288785530631,0.9885618012470404
2011-05-13,1,0.0019145420401949498,0.0019975597894711207,-0.010788328338637151,0.005976689161168733,0.9886319952040643
2011-05-17,1,0.0020562501198628023,0.0021949029681834877,-0.012685226156032986,0.005976689161168733,0.9878097135108195
2011-05-19,1,0.0021361657937751083,0.002262735860977801,-0.012685226156032986,0.005976689161168733,0.9883230231251675
2011-05-23,1,0.0012285896980935437,0.0012328561393598024,-0.010788328338637151,0.013255707053380524,0.987510861651581
2011-05-25,0,-0.00020311275254887345,1.0616418597009128e-05,-0.015889286493559907,0.013255707053380524,0.9866032372749977
2011-05-27,1,0.0008707917733068928,0.0009639776923236893,-0.015889286493559907,0.011516975536590838,0.9871535040185936
2011-06-01,1,0.00042327705146999234,0.0005715918793456056,-0.011578336532821408,0.010258025089306686,0.9893166680752651
2011-06-03,-1,-0.0006637392379270944,-0.0003798904852511445,-0.005977180858295754,0.011516975536590838,0.9892952747787073
2011-06-07,-1,-0.0008630821014970829,-0.0005485164177320155,-0.005318813354059371,0.011516975536590838,0.9897545299855204
2011-06-09,0,0.0,0.0,-0.00510109196714153,0.007035519351100182,0.9905100036205989
2011-06-13,0,0.0,0.0,-0.0023306392033404723,0.011516975536590838,0.990255157696595
2011-06-15,0,0.0,0.0,-0.0023306392033404723,0.011516975536590838,0.9910197391845701
2011-06-17,0,0.0,0.0,-0.0047669629680600276,0.011779094780208225,0.9903217672495274
2011-06-21,0,0.0,0.0,-0.0047669629680600276,0.006472302599293645,0.9918229146459063
2011-06-23,0,0.0,0.0,-0.0028134629229558646,0.006472302599293645,0.9933233590824772
2011-06-27,0,0.0,0.0,-0.0033480324611876036,0.0034390694714261736,0.9936076944445352
2011-06-29,0,0.0,0.0,-0.006762711326787975,0.0034390694714261736,0.9922378760286731
2011-07-01,0,0.0,0.0,-0.006927739498005344,0.002504476322713404,0.9927490278349064
2011-07-06,0,0.0,0.0,-0.007104581933807082,0.0026816108466118566,0.9925003684998834
2011-07-08,0,0.0,0.0,-0.008544234643466053,0.003707144046500083,0.9882982252417506
2011-07-12,1,0.0001701752052573659,0.0003015924578034106,-0.008976318106787276,0.0027540125127656118,0.9837245860817383
2011-07-14,0,0.0,0.0,-0.008976318106787276,0.0072822030174287235,0.9822053266731694
2011-07-18,0,0.0,0.0,-0.008544234643466053,0.0072822030174287235,0.9831057271974709
2011-07-20,0,0.0,0.0,-0.009614780553072905,0.0032005797942797915,0.9829860929025441
2011-07-22,0,0.0,0.0,-0.012357351707702125,0.0032005797942797915,0.982284901049408
2011-07-26,0,0.0,0.0,-0.012357351707702125,0.009823258601284622,0.9808725149118864
2011-07-28,0,0.0,0.0,-0.009399480824393038,0.009823258601284622,0.9816910376381461
2011-08-01,0,0.0,0.0,-0.009399480824393038,0.01595447869434959,0.980573902109554
2011-08-03,0,0.0,0.0,-0.004592232977915642,0.01595447869434959,0.9805492452808128
2011-08-05,0,0.0,0.0,-0.004767723137231576,0.013875294918573138,0.983516049312467
2011-08-09,0,0.0,0.0,-0.0021213009917082134,0.013356147965482248,0.9883004822344571
2011-08-11,0,0.0,0.0,-0.010932413968453781,0.011636983271150482,0.9890877555608472
2011-08-15,0,0.0,0.0,-0.010932413968453781,0.012566770238284385,0.989004353066377
2011-08-17,0,0.0,0.0,-0.00998195367781246,0.013356147965482248,0.9882792792575678
2011-08-19,0,0.0,0.0,-0.004141380338743899,0.013875294918573138,0.9881084266271026
2011-08-23,0,0.0,0.001925446402845825,-0.00998195367781246,0.013356147965482248,0.9891645356644257
2011-08-25,0,0.0,0.0,-0.008132049071773471,0.013356147965482248,0.9884367537112524
2011-08-29,1,0.002207168970713915,0.002453546786083441,-0.008132049071773471,0.012566770238284385,0.9877448267614919
2011-08-31,1,0.002213046576558001,0.0024227387347791596,-0.00998195367781246,0.011023111925705258,0.9875912979316614
2011-09-02,1,0.001408570991602284,0.0015328532315538731,-0.00998195367781246,0.011023111925705258,0.9870607750680447
2011-09-07,1,0.0020452519016224647,0.0022490148831645646,-0.00998195367781246,0.010682756410782599,0.9873197342970583
2011-09-09,1,0.001065312597413167,0.0011263965255575539,-0.006793174990514513,0.011321692642988553,0.9869481926010953
2011-09-13,1,0.0014278512000101462,0.0015341768767436715,-0.006793174990514513,0.010682756410782599,0.9869190808525317
2011-09-15,1,0.001063660127589695,0.0010740606751106867,-0.006348665313863657,0.01059457609208292,0.9877241035628979
2011-09-19,1,0.0023486967338707913,0.002568526867263359,-0.00661326234730463,0.008762718601836212,0.9884793220907463
2011-09-21,1,0.0022015823707594254,0.0024752644928271285,-0.00661326234730463,0.008762718601836212,0.9888377029105172
2011-09-23,1,0.0015894826090751915,0.0017530140803922764,-0.006348665313863657,0.010716796171966862,0.9885667985444
2011-09-27,1,0.0027680051664358274,0.003094180968870804,-0.0072373290216661305,0.008774065188897635,0.9895878367956309
2011-09-29,1,0.0017105704358692864,0.0018311612196413728,-0.00661326234730463,0.010701213665615598,0.990098561237655
2011-10-03,1,0.0005822927084917222,0.0005863265781414072,-0.006132818428872769,0.010701213665615598,0.9915191093211194
2011-10-05,1,0.0013760554629007981,0.0015215584736337916,-0.006443588605503463,0.008774065188897635,0.9904669422635636
2011-10-07,1,0.0017065102444027542,0.0018922058091186277,-0.006443588605503463,0.008746649279460944,0.9914915598088231
2011-10-11,1,0.0018461021645344684,0.0020706150161220664,-0.005932317620669408,0.00939123631112069,0.9916155910777934
2011-10-13,1,0.0018289587222514027,0.002009693496668764,-0.0072373290216661305,0.00939123631112069,0.9905679395845208
2011-10-17,1,0.0012021316165904288,0.0012584883135879654,-0.006271614420111492,0.00939123631112069,0.9908575780458019
2011-10-19,1,0.0010138041281347536,0.0010954784635463985,-0.006271614420111492,0.01061896593730553,0.9907231801475033
2011-10-21,1,0.0015846001231465251,0.001724768645319623,-0.006271614420111492,0.005513998253201864,0.9914015343781463
2011-10-25,1,0.00034940024276041435,0.000411506544578146,-0.004653035887635767,0.00939123631112069,0.9908921308598235
2011-10-27,0,0.0,0.0,-0.007694083432926497,0.005947531523730296,0.9904237261211464
2011-10-31,0,0.0,0.0,-0.006736706567077736,0.00939123631112069,0.9897814457241759
2011-11-02,0,0.0,0.0,-0.0051713375161454135,0.010573095122170272,0.9904995813422559
2011-11-04,0,0.0,0.0,-0.0051713375161454135,0.009683650671955445,0.9907170173061955
2011-11-08,0,0.0,0.0,-0.0051713375161454135,0.009683650671955445,0.9908427048171472
2011-11-10,1,0.0013421238359648498,0.0014677096309465257,-0.004758456901627685,0.009472227623929595,0.9919295871624777
2011-11-14,1,0.0009078900007575051,0.0009172696641969568,-0.006444977423969928,0.009472227623929595,0.9913335897335814
2011-11-16,1,0.000822052323969717,0.0008524118449245953,-0.006215543265795482,0.009472227623929595,0.9916435060985104
2011-11-18,1,0.0004462234077965498,0.000518267639658538,-0.006215543265795482,0.009472227623929595,0.9917464146122685
2011-11-22,1,0.0010001814724370037,0.0010426982068209403,-0.0011664085481866515,0.009472227623929595,0.992592502424212
2011-11-25,1,0.00034552554496818734,0.0003978843647303302,6.881318040102401e-05,0.009472227623929595,0.9931341221012389
2011-11-29,1,0.0007164377539908035,0.0007287802316976396,-0.0023264316236891727,0.00666855234987473,0.993701859312151
2011-12-01,1,0.0008288474087070937,0.0008717572758056298,-0.0023264316236891727,0.00662189203587882,0.9935822053986545
2011-12-05,1,0.0008775621710874113,0.0008986745294415699,-0.006559542551304418,0.005657635260637186,0.9929111877975811
2011-12-07,1,0.0012436527681957028,0.0013025369251704324,-0.006559542551304418,0.007808715287631253,0.9922966842488719
2011-12-09,1,0.0013172612098463518,0.001399486984867009,-0.007041177758783448,0.006176002123116899,0.9917936032513108
2011-12-13,1,0.0006567961807214661,0.0006831511183658548,-0.006559542551304418,0.006505279474267846,0.9919259632050742
2011-12-15,1,0.00069216237773475,0.0007307076468359752,-0.0024410980521921513,0.006505279474267846,0.9925895898728694
2011-12-19,1,0.0001972618834739645,0.0003371010648796095,-0.0024410980521921513,0.008244240995706986,0.9917113352821395
2011-12-21,1,0.0007379245235216126,0.000818149561177869,-0.006834837675262537,0.007508000610894576,0.9920413212686587
2011-12-23,1,0.0006251707762387139,0.0007248732147805321,-0.008065255797192885,0.007508000610894576,0.9917978615914456
2011-12-28,-1,-0.0005770476845104605,-0.00026422791224876385,-0.008065255797192885,0.007508000610894576,0.9918890040600363
2011-12-30,0,0.0,0.0,-0.007850410614975593,0.006505279474267846,0.9925363704835994
2012-01-04,-1,-0.00027420765386468093,-0.00013199808142601955,-0.0035509713473459302,0.007508000610894576,0.9928669797578284
2012-01-06,1,0.000890100314967922,0.0009060515256300723,-0.0057499182452705935,0.0052379139230695,0.9933898853493711
2012-01-10,-1,-0.0006991656756946742,-0.0005160870875111563,-0.0035509713473459302,0.00665045471029309,0.9921463459923049
2012-01-12,-1,-0.0005947592246464182,-0.00039056707018327453,-0.003941443764172912,0.0037875949694380125,0.9925799201147961
2012-01-17,1,0.0005824744406349935,0.0005915748773410251,-0.005151092352321883,0.00327756610683278,0.9921580367411894
2012-01-19,1,0.0007475818191600612,0.000768223238473749,-0.005151092352321883,0.0017595064941889032,0.9926976322255535
2012-01-23,1,0.000810217089686134,0.0008643907274658012,-0.004893708567689118,0.002753491677677294,0.9929204633469886
2012-01-25,1,0.000717515581326592,0.000775846001156164,-0.0043542761790954605,0.004225189012274026,0.9928177725488578
2012-01-27,-1,-0.0002454436016356545,-0.00013518496994357305,-0.004240951662874128,0.004225189012274026,0.9931954341687846
2012-01-31,1,0.00015319420609123316,0.00018254198245655316,-0.0037265450048935326,0.004225189012274026,0.9932473730569961
2012-02-02,0,0.0,0.0,-0.0037265450048935326,0.0036224658084326065,0.993655358109334
2012-02-06,0,0.0,0.0,-0.0037265450048935326,0.0036224658084326065,0.9934471888071841
2012-02-08,1,0.0013454306132964292,0.0014374331897273047,-0.0037265450048935326,0.004225189012274026,0.9955263568278774
2012-02-10,1,0.001674785802358881,0.0018567011401923483,-0.0034183834105655257,0.005583240230758417,0.9954199586150003
2012-02-14,1,0.0011581115746594828,0.0011899097140356547,-0.0034183834105655257,0.005583240230758417,0.9950728784065034
2012-02-16,1,0.0010536287177504216,0.0010731316461181175,-0.0034673257090013314,0.004555670344800941,0.9951137444435951
2012-02-21,0,0.0,0.0,-0.0017176008389743892,0.004555670344800941,0.9950576476513094
2012-02-23,0,0.0,0.0,-0.0010938289383359144,0.004555670344800941,0.995200103488504
2012-02-27,1,0.0006695962106128852,0.0006813504636842438,-0.0010938289383359144,0.005955713343084523,0.9949349064348858
2012-02-29,0,0.0,0.0,-0.0020949841825042403,0.005955713343084523,0.994509919717742
2012-03-02,0,0.0,0.0,-0.004355813393250302,0.005955713343084523,0.9946099864971176
2012-03-06,1,0.0007909925686570648,0.0008523835164047587,-0.001990241491345231,0.007125843740987684,0.9948822454280157
2012-03-08,0,0.0,0.0,-0.004355813393250302,0.006382868472186033,0.9948901135619749
2012-03-12,0,0.0,0.0,-0.004733037006685046,0.004475287368078456,0.9949091502356706
2012-03-14,0,0.0,0.0,-0.004355813393250302,0.007047773862115544,0.9946645212701588
2012-03-16,1,0.001283836591887008,0.001415062616389566,-0.0019596815799998194,0.007047773862115544,0.9952528526113035
2012-03-20,0,0.0,0.0,-0.0019596815799998194,0.007047773862115544,0.9948596437146751
2012-03-22,0,0.0,0.0,-0.0019596815799998194,0.006497519702512116,0.9948973961629574
2012-03-26,0,0.0,0.0,-0.004287429808532911,0.005321423156933048,0.9946120945874192
2012-03-28,0,0.0,0.0,-0.0019596815799998194,0.006497519702512116,0.9937232182514589
2012-03-30,1,0.0007818837210398315,0.0008097908771053495,-0.0019960406864414377,0.007047773862115544,0.9927518590390971
2012-04-03,0,0.0,0.0,-0.0019960406864414377,0.005321423156933048,0.9929516036165547
2012-04-05,0,0.0,0.0,-0.00014932570064288254,0.006130323973363487,0.9929925809204558
2012-04-10,1,0.0007480845551441153,0.000751962663913474,0.0009432912559219407,0.006497519702512116,0.9930732755665519
2012-04-12,0,0.0,0.0,0.0009432912559219407,0.006130323973363487,0.9930312593337244
2012-04-16,0,0.0,0.0,0.001474475227971973,0.006130323973363487,0.9928959405266882
2012-04-18,0,0.0,0.0,0.0006596726694076022,0.0070727512903825725,0.9919741265894185
2012-04-20,1,0.0007174855792367878,0.0007550145803275671,-0.004521017049400209,0.006881469148052352,0.9917348152796033
2012-04-24,1,0.0003691926473869664,0.00042901894815964344,-0.002213121763981356,0.01003309710945373,0.991984845748519
2012-04-26,1,0.0010245525804951905,0.0010316933225541745,-0.002213121763981356,0.007530107838136681,0.992964366757461
2012-04-30,1,0.0009885604108074235,0.0010092869826749248,-0.002213121763981356,0.007530107838136681,0.993730882745053
2012-05-02,1,0.001153852298528298,0.0012070468368440654,-0.003874780332004342,0.007530107838136681,0.9930636378231321
2012-05-04,1,0.0012456307859641147,0.001314233429713848,-0.005054177562584333,0.007530107838136681,0.9928967692879518
2012-05-08,1,0.001420985190686611,0.001476951544807007,-0.005054177562584333,0.006813780713104359,0.9933987815757046
2012-05-10,1,0.0017818940696606904,0.0018962106703118578,-0.005054177562584333,0.005058151845082189,0.9936990678483908
2012-05-14,0,0.0,0.0,-0.005590061440838099,0.005058151845082189,0.9936039887111999
2012-05-16,0,0.0,0.0,-0.005111169195167731,0.0035033729749915105,0.9946589001652216
2012-05-18,0,0.0,0.0,-0.0040914027131445305,0.005058151845082189,0.9943462826693129
2012-05-22,0,0.0,0.0,-0.006058205573424544,0.0035033729749915105,0.9945465919083337
2012-05-24,0,0.0,0.0,-0.00719898011796508,0.0035033729749915105,0.9935932546499413
2012-05-29,0,0.0,0.0,-0.007738657202634366,0.0035033729749915105,0.9931611746348625
2012-05-31,0,0.0,0.0,-0.006058205573424544,0.005058151845082189,0.9935272411767635
2012-06-04,1,0.0005325586580406907,0.0005863535211246221,-0.0019930633299475977,0.00824344481122958,0.9926302949399435
2012-06-06,1,0.0009958578303577474,0.0010150016536057114,-0.0019930633299475977,0.010110419744511129,0.9923959935182858
2012-06-08,1,0.0012004228545735886,0.0012557905142255984,-0.003934988998799687,0.010110419744511129,0.9920986613718287
2012-06-12,1,0.0012590369025388805,0.0013589498974087648,-0.0013843808833513952,0.010110419744511129,0.9921600753041591
2012-06-14,1,0.000996953826230718,0.0010342642480683359,-0.0013843808833513952,0.010110419744511129,0.9917957306433923
2012-06-18,1,0.0009479827628043878,0.0009649150146362639,-0.000767947267562437,0.00981811585322709,0.9924065376110939
2012-06-20,1,0.00015101937028262781,0.0002829578987903441,-0.00147700570483661,0.00981811585322709,0.9917649236776221
2012-06-22,0,-2.0951009000258827e-06,0.00014591812795517416,-0.0034620233468890226,0.00824344481122958,0.992299363828842
2012-06-26,1,0.00023236697881220123,0.0003449345397092326,-0.0034620233468890226,0.0075888246212947085,0.993015409647226
2012-06-28,1,0.00010891723549113044,0.00026724679673636114,-0.0034620233468890226,0.00784563674387041,0.9921937862798486
2012-07-02,1,0.0019361145045316973,0.0020729896307317675,-0.0034620233468890226,0.006461339143761737,0.993479321993802
2012-07-05,1,0.002106990729587219,0.0022535845503801164,-0.004229310550689522,0.005896521471739926,0.993355265770534
2012-07-09,1,0.0019403554340618329,0.0020587344697882374,-0.0068963076264708795,0.004187702185311476,0.9924652222457179
2012-07-11,0,0.0,0.0,-0.009760973800619877,0.0038111307683989684,0.9898488877284525
2012-07-13,1,0.002196711975255162,0.0023376875230310687,-0.011611543436959021,0.00040079513640131105,0.9879199693970938
2012-07-17,1,0.0026942808017637937,0.0029173295529309994,-0.011611543436959021,0.00040079513640131105,0.9876093982414366
2012-07-19,1,0.0016430993282601607,0.0017026284472192875,-0.007467405384630119,0.005990584348213042,0.9887498187641238
2012-07-23,1,0.0010937032889974671,0.0011099730109306602,-0.005856532366642827,0.005990584348213042,0.9896755775683358
2012-07-25,0,0.0,0.0,-0.007110055536443266,0.00702143166315794,0.9873288075775102
2012-07-27,0,0.0,0.0,-0.008354671113495568,0.006805374473821003,0.987880055503288
2012-07-31,1,0.001106448285595588,0.0011131110852123662,-0.0093108540851311,0.006805374473821003,0.9872766824425608
2012-08-02,0,0.0,0.0,-0.00810999991442254,0.006805374473821003,0.9878060818475112
2012-08-06,0,0.0,0.0,-0.006271404225660261,0.007338102775527955,0.9882838465600842
2012-08-08,0,0.0,0.0,-0.006271404225660261,0.007338102775527955,0.9904517261490181
2012-08-10,0,0.0,0.0,-0.006196740300808324,0.007338102775527955,0.9914149358253472
2012-08-14,-1,-0.002096473368382846,-0.001711893095038395,-0.007558105928826012,0.006805374473821003,0.991544767623063
2012-08-16,-1,-0.001577377212270731,-0.0012589961189694325,-0.007879271067276424,0.0025134502027766557,0.9918033743717128
2012-08-20,-1,-0.0017563757766034843,-0.0014062042429874599,-0.008227295947804449,0.0025134502027766557,0.9914672761549623
2012-08-22,-1,-0.0013112343353625128,-0.0009993021074647377,-0.007879271067276424,0.006438898437504459,0.9932232351828506
2012-08-24,-1,-0.00048463910771997566,-0.0003278863788274874,-0.007646104738891739,0.006730595345206104,0.9931449778003271
2012-08-28,-1,-0.0017607079535656627,-0.0014120784024861603,-0.006281856329590229,0.006730595345206104,0.9937595963539881
2012-08-30,-1,-0.0024018750716105226,-0.0019514287144922933,-0.006281856329590229,0.006730595345206104,0.9938196711559002
2012-09-04,-1,-0.0013873612545611546,-0.0010898829230673562,-0.006281856329590229,0.00366120863949805,0.9940727710000399
2012-09-06,-1,-0.0013289453285978135,-0.0010328116030121376,-0.005546686569650017,0.002681142900646578,0.9949703048594528
2012-09-10,-1,-0.002163838907132263,-0.0017823268870296408,-0.005546686569650017,0.00557988187535124,0.9944479619946147
2012-09-12,-1,-0.002505496106185521,-0.0020954315298572826,-0.003574355130918169,0.00557988187535124,0.9938228848247656
2012-09-14,-1,-0.0036414160426495954,-0.0030583409776732927,-0.003574355130918169,0.00557988187535124,0.9935567194757872
2012-09-18,-1,-0.0036291072419689296,-0.0030849605929459943,-0.0024419471422276106,0.007329608783474516,0.9931521354623476
2012-09-20,-1,-0.002742143140160055,-0.0022991487358847303,-0.002692448273478993,0.00395317916792629,0.9946241238672741
2012-09-24,-1,-0.002190787753295634,-0.0018137230795645441,-0.005049697749902067,0.003038359767833461,0.9945120762360297
2012-09-26,-1,-0.002279193219593692,-0.0019082232195767584,-0.005427219520941224,0.003038359767833461,0.993712845717878
2012-09-28,-1,-0.0017273051121231074,-0.0014552441005836287,-0.00946365629761877,0.003038359767833461,0.9927421375151296
2012-10-02,0,0.0,0.0,-0.00946365629761877,0.00395317916792629,0.9920335929300579
2012-10-04,0,0.0,0.0,-0.00946365629761877,0.004536421470634049,0.9913533324962625
2012-10-08,0,0.0,0.0,-0.011888245288010527,0.003038359767833461,0.9910429276525161
2012-10-10,-1,-0.0014091781697273692,-0.0011810933111920453,-0.007271995511378953,0.0033078237715193576,0.9919783570424711
2012-10-12,0,0.0,0.0,-0.006368919772900161,0.00374973654938933,0.992002562384559
2012-10-16,0,0.0,0.0,-0.010310393403400727,0.00374973654938933,0.9914258375648978
2012-10-18,0,0.0,0.0,-0.010310393403400727,0.008097729793317587,0.9902606630664649
2012-10-22,-1,-0.0018611322259121544,-0.0015958811855649813,-0.005013023390418146,0.009489597004149287,0.9901223099647187
2012-10-24,-1,-0.002514126286592921,-0.002172671989193567,-0.0016973237449415264,0.009489597004149287,0.9900818751169482
2012-10-26,-1,-0.003426931899441445,-0.0029930262828575076,0.00030219288636572605,0.009489597004149287,0.990309604935452
2012-11-01,-1,-0.0021895697398803477,-0.0019079003520420597,-0.000289246879024486,0.007840533510766539,0.9920657047142867
2012-11-05,0,0.0,0.0,-0.0012381880744116675,0.0060565997640206,0.9936427423742177
2012-11-07,0,0.0,0.0,0.0,0.007840533510766539,0.9943486065432336
2012-11-09,0,0.0,0.0,0.0,0.008615264550819672,0.993871773922643
2012-11-13,0,0.0,0.0,-0.0018962083270291073,0.008615264550819672,0.9933039874344399
2012-11-15,0,0.0,0.0,-0.0034911682958582136,0.008615264550819672,0.9934996544453113
2012-11-19,-1,-0.001166638429011123,-0.001015448830720569,-0.0034911682958582136,0.004932801289196535,0.9940562693265208
2012-11-21,0,0.0,0.0,-0.004845434057001127,0.004932801289196535,0.9939630973387016
2012-11-26,1,0.0005852449918270898,0.0007266387813475318,-0.005803054812526377,0.003638959763022903,0.9938960261438968
2012-11-28,0,0.0,0.0,-0.005803054812526377,0.004049326593816579,0.9937401356442905
2012-11-30,0,0.0,0.0,-0.005803054812526377,0.004049326593816579,0.9935270137600744
2012-12-04,0,0.0,0.0,-0.004905595651300318,0.007940892811083004,0.9926921636859262
2012-12-06,0,0.0,0.0,-0.004905595651300318,0.007018438222867438,0.9928572813548324
2012-12-10,0,0.0,0.0,-0.004905595651300318,0.007018438222867438,0.9928431464216463
2012-12-12,0,0.0,0.0,-0.0031712806848092695,0.007018438222867438,0.9936377064503606
2012-12-14,0,0.0,0.0,-0.0011090784117096322,0.007018438222867438,0.9940634053929147
2012-12-18,0,0.0,0.0,-0.0027028933434773243,0.007018438222867438,0.99410984113328
2012-12-20,0,0.0,0.0,-0.0027028933434773243,0.005250984503956113,0.9948621975383845
2012-12-24,0,0.0,0.0,-0.00027000277467366526,0.005250984503956113,0.9951165454053901
2012-12-27,0,0.0,0.0,-0.00027000277467366526,0.005216884205403776,0.995393235162941
2012-12-31,1,0.0009017675899667431,0.0010940319352373822,0.0004800688392222524,0.00697787493397154,0.9958264008237947
2013-01-03,0,0.0,0.0,0.0004800688392222524,0.005216884205403776,0.9958959880127004
2013-01-07,0,0.0,0.0,0.0004800688392222524,0.005280620230253817,0.995595126658431
2013-01-09,1,0.0010173652526497498,0.00111362016818322,0.0004800688392222524,0.005280620230253817,0.9956669193029405
2013-01-11,1,0.0013593964668843729,0.0015321143420615913,0.00014021453910516497,0.008084101684774015,0.9946162776103435
2013-01-15,1,0.0015046778044995337,0.0016798691682290605,-0.0018208373189474917,0.008084101684774015,0.9942053612477771
2013-01-17,1,0.002692773242615658,0.003107241176830607,-0.0020750939658070846,0.007907186333540766,0.9941870179237331
2013-01-22,1,0.002694885820621924,0.003110327547194418,-0.0025606321065699744,0.009419141953525811,0.9938639159824099
2013-01-24,1,0.0026177963673753493,0.0030041397507312943,-0.0025606321065699744,0.01029841165983133,0.9930757538048959
2013-01-28,1,0.002553466687228387,0.002910594235972018,-0.005556303783314239,0.01029841165983133,0.9926327151103488
2013-01-30,0,0.0,0.0,-0.005556303783314239,0.01029841165983133,0.9919644651371995
2013-02-01,0,0.0,0.0,-0.005645457011132707,0.009419141953525811,0.9920713683863847
2013-02-05,0,0.0,0.0,-0.005777592943712326,0.007328163706916047,0.9923052075957446
2013-02-07,0,0.0,0.0,-0.005645457011132707,0.006675675197646268,0.993360662753352
2013-02-11,1,0.003725525606297189,0.004386980379057122,-0.005556303783314239,0.006068251504809062,0.9941008740236319
2013-02-13,1,0.003298919576325541,0.0036344828345416477,-0.002734155304474118,0.0036631267886766093,0.9945090110965544
2013-02-15,0,0.0,0.0,-0.0009404326512009434,0.002384201175714962,0.9958056348348303
2013-02-20,0,0.0,0.0,-0.0005308144216602854,0.0036631267886766093,0.9953388036232256
2013-02-22,1,0.004322473799093746,0.0049277996229143105,-0.0009404326512009434,0.0033846578527953297,0.9939115480575899
2013-02-26,0,0.0,0.0,-0.0009404326512009434,0.0033846578527953297,0.9946508568435418
2013-02-28,0,0.0,0.0,-0.002370037989409258,0.0036394149408193336,0.993938932575447
2013-03-04,1,0.0037485371981928416,0.004374652108789498,-0.0019311186121484512,0.0036394149408193336,0.9932091256059189
2013-03-06,1,0.0034240019524348145,0.003998886962563033,-0.0026396045476860157,0.0036394149408193336,0.9930778033083626
2013-03-08,0,0.0,0.0,-0.003716114488408966,0.0036394149408193336,0.9938580058616041
2013-03-12,0,0.0,0.0,-0.003716114488408966,0.004653332643528907,0.9936977576030126
2013-03-14,0,0.0,0.0,-0.003716114488408966,0.008011695683513807,0.9933678586583332
2013-03-18,0,0.0,0.0,-0.004334095433959552,0.009962962714175847,0.9919944656779013
2013-03-20,0,0.0,0.0,-0.007777837225379318,0.004981503155028984,0.9918192244865585
2013-03-22,0,0.0,0.0,-0.007777837225379318,0.009005574285227875,0.9919676201579992
2013-03-26,0,0.0,0.0,-0.007777837225379318,0.008637029972883197,0.9917069495770385
2013-03-28,0,0.0,0.0,-0.007777837225379318,0.008637029972883197,0.9922335900338864
2013-04-02,0,0.0,0.0,-0.007777837225379318,0.009005574285227875,0.9918963512733515
2013-04-04,0,0.0,0.0,-0.008322663121138161,0.009184026092416805,0.9908157525071754
2013-04-08,0,0.0,0.0011357171357873584,-0.0119766906232327,0.009184026092416805,0.9908455245085043
2013-04-10,0,0.0,0.0,-0.0119766906232327,0.009184026092416805,0.9900458724440147
2013-04-12,1,0.0007953824836879501,0.0009235932002404123,-0.0119766906232327,0.009844108924394364,0.9896312978838843
2013-04-16,0,0.0,0.0,-0.00939632994770848,0.009844108924394364,0.9902689869156678
2013-04-18,1,0.00028626792951780077,0.00039885368504415867,-0.005126726493824323,0.009844108924394364,0.9908487058918855
2013-04-22,0,0.0,0.0,-0.00938948647133828,0.008796747645644459,0.9908417695783117
2013-04-24,0,0.0,0.0,-0.00938948647133828,0.00743135526577358,0.9914540208638302
2013-04-26,0,0.0,0.0,-0.00938948647133828,0.007079030633400756,0.9914727840871127
2013-04-30,1,0.0006661357907787129,0.0007489019166181422,-0.011499383557051959,0.006182988257842583,0.9906149552783858
2013-05-02,1,0.0011453446291187729,0.0011602810354920075,-0.011499383557051959,0.005692856763658678,0.9913468917879861
2013-05-06,1,0.00028025502053779855,0.00038192525428859726,-0.00938948647133828,0.005692856763658678,0.9918787850271215
2013-05-08,1,0.00023638759380015012,0.0003739956415299528,-0.011499383557051959,0.005864121028159509,0.9910431443719274
2013-05-10,-1,-0.00028462650676557314,-6.105694619787817e-05,-0.011499383557051959,0.005864121028159509,0.9914388439838929
2013-05-14,1,0.00020113941910612868,0.0003419252072477449,-0.011499383557051959,0.003955110242777921,0.9918266651565611
2013-05-16,-1,-0.0003267082549713964,-0.00011338489276353845,-0.007104494622163853,0.003706568918391249,0.9923726849289619
2013-05-20,-1,-0.001246529533807376,-0.0008967133124479554,-0.004264695250419492,0.004840943713937635,0.9928840403427409
2013-05-22,-1,-0.0019738609628815627,-0.0015406193872090528,-0.0072343797562600875,0.004840943713937635,0.9917967441041202
2013-05-24,0,0.0,0.0,-0.0072343797562600875,0.004840943713937635,0.9916245632329338
2013-05-29,0,0.0,0.0,-0.004944055036302674,0.005415452672429724,0.9925456645557109
2013-05-31,0,0.0,0.0,-0.00415311994984823,0.008291618318312061,0.9921516094386468
2013-06-04,-1,-0.0030637245380640164,-0.0025753809620131067,-0.0032908381538360376,0.008291618318312061,0.9918722624606263
2013-06-06,-1,-0.0028762589769765184,-0.0024156480428122826,-0.0021511782157227917,0.0079715753726585,0.9928184263555689
2013-06-10,-1,-0.002583864126021989,-0.0021612461838169785,-0.0021511782157227917,0.007891179833771675,0.9930093971584945
2013-06-12,-1,-0.0025952140622522444,-0.002183121297342279,-0.0017928103643019386,0.007991304310775492,0.9922795840891165
2013-06-14,-1,-0.0023360407242703565,-0.0019545408163152388,-0.0020824993266246117,0.008291618318312061,0.9922023092326011
2013-06-18,-1,-0.0021445011593297595,-0.0017929005677632958,-0.002872858641857788,0.007991304310775492,0.992502051789164
2013-06-20,-1,-0.0036683305042969757,-0.003140514025935369,-0.0008262046320559618,0.007991304310775492,0.9927683195937508
2013-06-24,-1,-0.0032833950056951723,-0.0028141163579054338,-0.00012190661197035285,0.007891179833771675,0.9931394042903359
2013-06-26,-1,-0.002885915595353213,-0.0024801555584474015,-0.00012190661197035285,0.008614993819503241,0.9929659273600117
2013-06-28,-1,-0.001582689076012601,-0.001344151688258803,-0.0010667647741009606,0.0035688455415608866,0.9947918337122852
2013-07-02,-1,-0.0019044100462317726,-0.0016187130878238325,-0.001169614560112984,0.0035688455415608866,0.994629475315876
2013-07-05,-1,-0.0020215911385490573,-0.001780263512741161,-0.003075594800013671,0.0045708130288150085,0.9921659217746998
2013-07-09,-1,-0.0010673711508735841,-0.0009073563123376358,-0.003075594800013671,0.0032114214439936378,0.9929941048094381
2013-07-11,-1,-0.0005420646630283062,-0.00045222910103463553,-0.004738338930125461,0.0031235067778514858,0.9928953538366442
2013-07-15,-1,-0.0002983959280963303,-0.00023553409380126265,-0.004738338930125461,0.001735927002457725,0.993555120194655
2013-07-17,-1,-0.00010966699106923904,-0.0001081064841154142,-0.004738338930125461,0.001735927002457725,0.993526074018463
2013-07-19,1,2.7741773694693677e-05,3.818329442459706e-05,-0.0058779392604326915,0.0010643051702395327,0.9932008137058956
2013-07-23,1,0.0002784715358222351,0.00033082564025855,-0.0058779392604326915,0.001735927002457725,0.9928440737478271
2013-07-25,1,0.00020695372383331117,0.00023917937822168678,-0.004738338930125461,0.001735927002457725,0.9936422259408615
2013-07-29,-1,-9.831622421910267e-05,-7.724943880850462e-05,-0.0058381027301444115,0.0016515716378780025,0.9936393384552482
2013-07-31,-1,-0.00030764504519138953,-0.00025944617909532053,-0.0064183887281446,0.0016515716378780025,0.9930916899620931
2013-08-02,-1,-0.0009926033680357257,-0.0008691597223292934,-0.005919317390046163,0.0010643051702395327,0.9956992393203278
2013-08-06,-1,-0.0010420916197387158,-0.0009161356391875057,-0.0064183887281446,0.0002485970050517238,0.9945342552482177
2013-08-08,-1,-0.0018144505067190695,-0.0016014641384185283,-0.0064183887281446,0.0014418201877800898,0.9946915214897849
2013-08-12,-1,-0.0012407490087709416,-0.0011244750588314469,-0.0064183887281446,0.003113426911152035,0.992602870312979
2013-08-14,-1,-0.001069478842788366,-0.001001807778405951,-0.006298879137279762,0.0034931111520709913,0.992492007394436
2013-08-16,0,0.0,0.0,-0.005741944604413655,0.005303189202122604,0.9920657196605945
2013-08-20,0,0.0,0.0,-0.005741944604413655,0.00900444196651557,0.9910236553440378
2013-08-22,-1,-0.00028111588441783917,-0.00022983179429930138,-0.006298879137279762,0.00900444196651557,0.9905837867442481
2013-08-26,-1,-0.00045406341040175115,-0.0004250594425045451,-0.006161342881935533,0.00900444196651557,0.9906181313297949
2013-08-28,-1,-0.001121113409234206,-0.0010077672718482658,-0.003698670665955086,0.00900444196651557,0.9903717176778416
2013-08-30,-1,-0.0012449032003205114,-0.0011235748428057167,-0.006612199918982622,0.00900444196651557,0.9899680091788559
2013-09-04,-1,-0.002046408373226705,-0.0018443564211724,-0.0027131865654175776,0.009206765863284283,0.9904156346612019
2013-09-06,-1,-0.0022288547644071085,-0.002008549125957899,-0.0027131865654175776,0.009206765863284283,0.9910039747341953
2013-09-10,-1,-0.001472814014821451,-0.001292570002796161,-0.005775180105107031,0.006605520067640168,0.9928597207049369
2013-09-12,-1,-0.0008129653937980799,-0.000755346309722678,-0.005775180105107031,0.00900444196651557,0.9919317623534634
2013-09-16,-1,-0.0005151984872245641,-0.0004654272191594634,-0.005775180105107031,0.007625519406606308,0.9922904577216851
2013-09-18,1,0.0007327115170152262,0.0008637567105034566,-0.0071361553210691035,0.006142215156760536,0.9922655787820948
2013-09-20,1,0.0005198318775516938,0.0006455795014209194,-0.005775180105107031,0.00759313224113798,0.9923472563797525
2013-09-24,1,0.0008823210817942071,0.001068103583360759,-0.006015782120089413,0.008233308671978726,0.9912392780515661
2013-09-26,0,-1.4473347604285127e-06,2.4233606172660606e-05,-0.005490066754524524,0.008233308671978726,0.9917717259754477
2013-09-30,-1,-0.00013315923789840108,-9.68855272122079e-05,-0.0025698633066902985,0.008233308671978726,0.9923950039088102
2013-10-02,1,0.00017963290203645548,0.0002606623930193102,-0.0022084998971664896,0.00759313224113798,0.9926414473089772
2013-10-04,1,3.4980883657319403e-06,7.331696062119229e-05,5.073632482073195e-06,0.00759313224113798,0.9928781725795224
2013-10-08,-1,-0.0004046027992631149,-0.00039959977045361903,0.0011249196621624007,0.00759313224113798,0.9929209930212957
2013-10-10,1,0.00020214467162896877,0.000261033894624428,0.0009618825692645753,0.007235013145922629,0.9935900269767955
2013-10-14,1,0.0002383950752245213,0.0002749745461944331,-0.0018479305341783298,0.005062169191222539,0.9938882892477169
2013-10-16,1,0.0007843906518170659,0.0009260531009624626,5.073632482073195e-06,0.007235013145922629,0.994470605799088
2013-10-18,1,0.000822056976667248,0.0009274117338311126,5.073632482073195e-06,0.003677897010563134,0.9950689168591345
2013-10-22,1,0.0011125313500363568,0.001238445558339789,-0.0018479305341783298,0.002707012989291658,0.9955805769779628
2013-10-24,1,0.0011254964938405719,0.0012410429737675327,-0.0018479305341783298,0.0026165805274614143,0.9953609806952033
2013-10-28,1,0.0011429116326476792,0.0012658765743216599,-0.002061533876698906,0.0034227831611584455,0.9950124917897298
2013-10-30,1,0.0014836195676646805,0.0016662528713291074,-0.002256645572316952,0.002941447801758432,0.9951363822617797
2013-11-01,1,0.0013518614142988706,0.0015053033205914075,-0.0029388118525067453,0.002941447801758432,0.9948201781166958
2013-11-05,1,0.0015991943169749003,0.0018003372963867068,-0.0029388118525067453,0.0034227831611584455,0.9941996501284115
2013-11-07,1,0.001037310312822467,0.0011748981253240781,-0.0029388118525067453,0.0055954238921265085,0.9940351816511211
2013-11-11,1,0.0003741506393049515,0.00039166598821531353,-0.004070583382427906,0.0055954238921265085,0.99359572495306
2013-11-13,1,0.0012067988757675859,0.0012997672279841917,-0.0048891078557511645,0.002941447801758432,0.9942345713718599
2013-11-15,1,0.001271182627101127,0.0013818125902147985,-0.0048891078557511645,0.0033827322625869785,0.9940474167502455
2013-11-19,1,0.0010746894230733565,0.001204633996955791,-0.003922480549606957,0.004316146881196768,0.9940995423632516
2013-11-21,1,0.0014091225960929637,0.0015739079154254293,-0.004444799357288317,0.004316146881196768,0.9934475115645919
2013-11-25,1,0.0013549604646564085,0.0015164112142647395,-0.004444799357288317,0.0032392357084378726,0.9935795213310972
2013-11-27,1,0.0014826433943917108,0.0016772471633101937,-0.004444799357288317,0.004338447074538979,0.9935173697611323
2013-12-02,1,0.0015111828624671851,0.0017359427825166178,-0.004444799357288317,0.004338447074538979,0.993627098001963
2013-12-04,1,0.0019428192391959906,0.0022354990075921784,-0.005098859614458554,0.002654401270521521,0.9934074794999193
2013-12-06,1,0.0021883095547762937,0.002501814184206901,-0.004545902843389094,0.003050384028125687,0.9943758576454551
2013-12-10,1,0.0017863498509234702,0.00205568147111864,-0.004545902843389094,0.003050384028125687,0.9947992337071311
2013-12-12,1,0.0015539015875261836,0.001797815511507212,-0.004545902843389094,0.003617680913329782,0.9948436234119847
2013-12-16,1,0.0016565949560030987,0.0019102721213376827,-0.004545902843389094,0.003617680913329782,0.9945341612859121
2013-12-18,1,0.0019410662718408313,0.0022285865260978895,-0.005869546587291531,0.003050384028125687,0.9949884873417897
2013-12-20,1,0.0018386441419097194,0.002100624534516973,-0.004170939487686531,0.002561000089073559,0.9958508029549857
2013-12-24,1,0.0018102663769260863,0.0020446090542400475,-0.005869546587291531,0.002561000089073559,0.9955866180352256
2013-12-27,1,0.0018808993905682038,0.0021234468583435917,-0.005869546587291531,0.002561000089073559,0.9952180796323664
2013-12-31,1,0.0012205144199430359,0.001334521192991441,-0.00743002896163239,0.003050384028125687,0.9939290535440215
2014-01-03,1,0.0007712878085421776,0.0008196903639405036,-0.00743002896163239,0.003050384028125687,0.992630907715586
2014-01-07,1,0.0007914375137519526,0.000826424032893684,-0.007987030700496457,0.002828011464695032,0.9909796187366104
2014-01-09,1,0.0003803066045995556,0.0004086738858245511,-0.00743002896163239,0.0053040945135077065,0.9909018080835323
2014-01-13,1,0.00023702712929829744,0.0002713681164617345,-0.005738026081155146,0.007970965026870027,0.990726482357072
2014-01-15,1,0.0005725912746642056,0.0005785820919321495,-0.007493155163957877,0.0053040945135077065,0.9907877097192517
2014-01-17,1,0.0001528041015255984,0.00020695867854896548,-0.005959505114229557,0.007970965026870027,0.9904341261799355
2014-01-22,-1,-0.00024077431836083403,-0.00010770283851638664,-0.005959505114229557,0.009930371285223734,0.9898149455122536
2014-01-24,-1,-0.0008322219166265677,-0.0006152678697068787,-0.0026647277372768867,0.011015212111953053,0.9891049451394981
2014-01-28,-1,-0.0013056697177859442,-0.0009823130246021938,-0.0017872251986367355,0.011015212111953053,0.9894506621881143
2014-01-30,-1,-0.0019046277475715855,-0.0014977615988814416,-0.0011432344006245914,0.009930371285223734,0.9904792119655582
2014-02-03,-1,-0.0027756679499136277,-0.0023327069654701027,0.0009129255961302265,0.009930371285223734,0.991110723711707
2014-02-05,-1,-0.002076341277653011,-0.0017171846953562243,0.00020682067172137495,0.00824292069248258,0.9931635146396998
2014-02-07,-1,-0.0010974015661812146,-0.0008813080320202321,0.00020682067172137495,0.005504335545106252,0.9942695016219769
2014-02-11,-1,-8.701478472370713e-05,-3.4420820350230575e-05,-0.0015398837204525116,0.003732577028101188,0.995240444597358
2014-02-13,-1,-0.0006219587796779862,-0.0004856412025798764,-0.0015398837204525116,0.005252408324883461,0.9950214231372277
2014-02-18,-1,-7.771236553170003e-05,-1.5297103533686127e-05,-0.0017872251986367355,0.004911988029362078,0.9956356757863415
2014-02-20,0,-5.860513030678699e-05,2.898410578902288e-05,-0.00197620054759993,0.003732577028101188,0.9958105314821715
2014-02-24,1,0.00015955436406112875,0.00024155095738327662,-0.0026982648476492543,0.0035812299748809485,0.9964179291921137
2014-02-26,1,5.2791881666279105e-05,0.00013728137517326385,-0.0026982648476492543,0.004291616461219586,0.9962609571226242
2014-02-28,1,5.676993088488374e-06,0.00011701223205297422,-0.002709391015029643,0.002682952952424946,0.996493079397423
2014-03-04,-1,-0.00017481715634624174,-2.3116151270746906e-05,-0.0034085315493617846,0.002682952952424946,0.9959311133547327
2014-03-06,1,0.00016027806249464273,0.0002350090238063111,-0.002709391015029643,0.002682952952424946,0.9961728471027882
2014-03-10,1,0.0002982725633322808,0.00034744067765264344,-0.0034085315493617846,0.004320023819601761,0.9955258534988494
2014-03-12,1,0.00038749358892307685,0.0004178754715795151,-0.002709391015029643,0.00527630803007601,0.9952990693049728
2014-03-14,1,0.0005357931677597886,0.0005426410758216825,-0.0047315862938992,0.004961797740893238,0.9949295494335094
2014-03-18,1,0.0007529127730394122,0.0008131132021605929,-0.0047315862938992,0.004961797740893238,0.9950273345867977
2014-03-20,1,0.0005068872764229018,0.0005373247087178386,-0.002965047155394434,0.00527630803007601,0.9949839742492501
2014-03-24,1,0.00036119090507058,0.0003703123577881073,-0.002965047155394434,0.00527630803007601,0.9947952792453528
2014-03-26,1,0.0006485095171565599,0.0007099808015326805,-0.002965047155394434,0.00527630803007601,0.9949838968968983
2014-03-28,1,0.0006507764707025775,0.0007156187711122627,-0.002193790035485744,0.005356148593502788,0.9944643860032656
2014-04-01,1,0.0008370247214258644,0.0009291713413669713,-0.002193790035485744,0.00527630803007601,0.995102975003269
2014-04-03,1,0.0004866707283044146,0.0004910280006281153,-0.005131116818872619,0.005356148593502788,0.9940540197890951
2014-04-07,1,0.00034232937547201616,0.0003579101810032277,-0.0058449781109775854,0.005335213904312568,0.9941770316497333
2014-04-09,1,0.0009844501618467229,0.0011044068515749048,-0.0058449781109775854,0.004360238941283751,0.9942026297266053
2014-04-11,1,0.0004041250561738502,0.00044095888267967016,-0.004839605372626292,0.004909700007635051,0.9946304868237671
2014-04-15,1,0.0003856164931161038,0.0003904870220234653,-0.005778244990247129,0.004360238941283751,0.994616291439459
2014-04-17,1,0.0008890411193865169,0.0009854899911025793,-0.005778244990247129,0.0027277165888769336,0.9948678251099133
2014-04-22,1,0.00045032020871580444,0.00048115460159548666,-0.004839605372626292,0.0027277165888769336,0.9955234463000879
2014-04-24,1,0.00047027082125563284,0.0005069574529468638,-0.004839605372626292,0.004360238941283751,0.9952151777534337
2014-04-28,1,0.0008234738446618169,0.0008919502371556587,-0.004839605372626292,0.002623129080632435,0.9956220775215556
2014-04-30,1,0.0007657288830015768,0.0008518054838439369,-0.0038923309018996004,0.0040464764165502555,0.9956350439194306
2014-05-02,1,0.0009000205221320754,0.0010249509877110902,-0.0038923309018996004,0.0040464764165502555,0.9961474983941939
2014-05-06,1,7.844319260456008e-05,9.323082652452918e-05,-0.0029963729541534487,0.0047778667566537765,0.996016381033975
2014-05-08,-1,-6.911253040128832e-05,-2.233294522910678e-05,-0.002928027009734091,0.004099008131030559,0.9962248644680342
2014-05-12,1,7.177422427498379e-06,3.797624162354396e-05,-0.002928027009734091,0.004099008131030559,0.9959846971562737
2014-05-14,1,0.00013531266513762096,0.00014888283723892332,-0.002928027009734091,0.004099008131030559,0.9961135561084838
2014-05-16,1,0.0002789980453163813,0.00030439562823552404,-0.002928027009734091,0.005175224196516575,0.9959040850452381
2014-05-20,1,0.00024812079475712107,0.00026160856308689133,-0.002928027009734091,0.005175224196516575,0.9956183057696811
2014-05-22,1,0.0003032456110218569,0.00032988230063831517,-0.0029943593635729086,0.005437217488026433,0.9953501031487844
2014-05-27,1,0.0001413668323269857,0.00014909517881098834,-0.0033311145887543496,0.005437217488026433,0.995143256112308
2014-05-29,1,0.00040248816398257475,0.0004089182110107695,-0.0033311145887543496,0.004258481398250184,0.9953290811891672
2014-06-02,1,0.00032259258388152453,0.00032921229517283003,-0.002953982079637628,0.004679527056532537,0.9955016417466479
2014-06-04,1,0.0005058245382095373,0.0005235468842610409,-0.003089726652722076,0.003823300033062477,0.9951554862097217
2014-06-06,1,0.0003312924332104322,0.00035240088113835076,-0.004726715609927959,0.0037118823679510213,0.9944840789630415
2014-06-10,1,0.0004574212020591003,0.000470097519755159,-0.00397580922758246,0.0037118823679510213,0.9945880656821705
2014-06-12,1,0.00017355726816362652,0.00020888074666738503,-0.004691921806155672,0.0037118823679510213,0.9944898061302133
2014-06-16,1,0.000369355939270471,0.0003791567636115799,-0.004691921806155672,0.0037118823679510213,0.9942616979181824
2014-06-18,1,0.00011625818801279175,0.00017551600971890273,-0.004737905069474695,0.0033673089637353435,0.994147952459288
2014-06-20,1,0.00027844142229935,0.000306285450524723,-0.004737905069474695,0.0033673089637353435,0.9944375936044824
2014-06-24,-1,-0.00032498739456985986,-0.0002011189616204274,-0.004737905069474695,0.0033673089637353435,0.9944400219859298
2014-06-26,-1,-0.001405254142810606,-0.0010700186078761741,-0.005179239467781042,0.0017946106398919785,0.9948132813641838
2014-06-30,-1,-0.0007090807329070776,-0.0004884437043287269,-0.005179239467781042,-0.00048783884033656925,0.9950114624947466
2014-07-02,-1,-0.0011152824012505738,-0.000869028250095759,-0.006293738724241535,-0.0007121015820844994,0.9947397669279564
2014-07-07,-1,-0.0013301143129882294,-0.0010844090451738136,-0.005074858056464179,-0.00048783884033656925,0.9943884374401393
2014-07-09,-1,-0.0013677434120207945,-0.001101238501145855,-0.005074858056464179,0.0011842856564226352,0.9941797228353456
2014-07-11,-1,-0.0014149345342388889,-0.001169157807861052,-0.005383886436295366,0.0040196101352892805,0.9939417691506102
2014-07-15,-1,-0.0008018338174016008,-0.0006534529580228914,-0.005383886436295366,0.0040196101352892805,0.9937041326856555
2014-07-17,-1,-0.0009293072459672423,-0.000796305583875367,-0.0038441769422610686,0.005309751797321809,0.9937230054013584
2014-07-21,-1,-0.0008263602781053113,-0.0006988100684562504,-0.0038441769422610686,0.005699351210973084,0.9936729306567782
2014-07-23,-1,-0.0011524840976783039,-0.0010045421750468268,-0.0024122934917911827,0.005699351210973084,0.9939555606029133
2014-07-25,-1,-0.0012598131221130695,-0.0011134739680066993,-0.0024122934917911827,0.005699351210973084,0.9937460230308319
2014-07-29,-1,-0.0013670216093316302,-0.0012002882507459148,-0.0024122934917911827,0.005699351210973084,0.9934481449703815
2014-07-31,-1,-0.0023514881120220207,-0.0020776280039252705,-0.0014687451214318013,0.005699351210973084,0.9941428801012608
2014-08-04,-1,-0.0015585987624096905,-0.0013739941275608325,-0.0014687451214318013,0.005699351210973084,0.9951063681217707
2014-08-06,-1,-0.0008987522386153979,-0.0007964234876882443,-0.0019505321322399287,0.005402089398478188,0.9954898030459778
2014-08-08,-1,-0.0008691930153159537,-0.0007752826596115319,-0.0019505321322399287,0.005402089398478188,0.995840807786436
2014-08-12,-1,-0.0007157662808185058,-0.0006250033567858458,-0.0014687451214318013,0.005402089398478188,0.9960651279917635
2014-08-14,-1,-0.00047883567260980145,-0.000411381335642322,-0.0019505321322399287,0.004207092954751949,0.9961438077578647
2014-08-18,-1,-0.00015220085433152437,-0.00013617169496061543,-0.0014687451214318013,0.004207092954751949,0.9960909126844224
2014-08-20,-1,-8.357017881693897e-05,-6.974945643298657e-05,-0.001977306939728355,0.004433793660316781,0.9959484333186625
2014-08-22,-1,-9.967278071816029e-05,-9.734614578411467e-05,-0.0014687451214318013,0.005638017061657068,0.9960641883082796
2014-08-26,1,7.818221951583336e-05,0.00010194704299424973,-0.001537415264022742,0.006633775635247724,0.9953049964141725
2014-08-28,1,1.348060752220536e-05,2.014766735715345e-05,-0.0022516432873394845,0.006633775635247724,0.9946889172162079
2014-09-02,1,0.0005706041001197199,0.0006727015926401954,-0.002588943387178666,0.0060424494124834876,0.994650221974391
2014-09-04,1,0.0005429907929953158,0.0006048910685453571,-0.004087257139046039,0.0045686044439255885,0.9946879177484135
2014-09-08,1,0.0005490053925685282,0.000628330265992793,-0.006902837202828088,0.005242990022936845,0.9942856574758218
2014-09-10,1,0.0011815519970385692,0.0013674180906304212,-0.006902837202828088,0.005242990022936845,0.9940964288864294
2014-09-12,1,0.0006955106037092283,0.0007965856347322338,-0.007136389486781561,0.005242990022936845,0.9934430944092041
2014-09-16,1,0.0010128002243627913,0.0011505152648963904,-0.007674540363526765,0.004365299358289288,0.9930793712676277
2014-09-18,1,0.001339786465930018,0.0015570226678017047,-0.007674540363526765,0.004027471684319738,0.993072596022469
2014-09-22,1,0.0013759770719591273,0.0015791545854729875,-0.007674540363526765,0.005242990022936845,0.9923699718166837
2014-09-24,1,0.0013279540827791539,0.0015114414541861085,-0.007136389486781561,0.005242990022936845,0.9924791254025509
2014-09-26,1,0.000951529079405586,0.0010556062164851008,-0.005041233214926734,0.005250762072834925,0.9925634964012603
2014-09-30,1,0.0007736144365875141,0.0008525940897337314,-0.003909437927906113,0.006870159305886872,0.9925663411220333
2014-10-02,1,0.00043002546625858307,0.00046666705526715363,-0.003690802369747899,0.006870159305886872,0.9929584577902932
2014-10-06,1,0.0001568918279550044,0.00016973278082863528,-0.003690802369747899,0.006870159305886872,0.9932754073491731
2014-10-08,1,0.0008715691773339923,0.0009594383206501399,-0.003846815415376832,0.006870159305886872,0.9929582719636625
2014-10-10,1,0.00014461241865617845,0.00014888163982839766,-0.0029659600573542083,0.006870159305886872,0.9935941806450332
2014-10-14,-1,-0.00028680941188687493,-0.00023667192849175777,-0.0019583968015453065,0.008683276265131523,0.9937519145360724
2014-10-16,-1,-0.0004233552692240552,-0.0003589252588778271,-0.0012322840910441771,0.008683276265131523,0.9937042408212895
2014-10-20,1,0.0007514280287322226,0.0008603741796295183,-0.0019583968015453065,0.005747347600338938,0.9944544764759714
2014-10-22,1,0.00113049308361195,0.0012857478415060854,-0.0012322840910441771,0.005747347600338938,0.9949475158312616
2014-10-24,1,0.0015779640104249173,0.001805786397519686,-0.0016878304366733036,0.004675108524584802,0.9952128411750465
2014-10-28,1,0.0020346726997289982,0.0023257682632610525,-0.0016878304366733036,0.0036810780969884814,0.9956074307856166
2014-10-30,1,0.0021059010057680057,0.0024076312961653413,-0.0016878304366733036,0.004675108524584802,0.9945986826012476
2014-11-03,1,0.0018580841046928732,0.002117528227010785,-0.002903300162531518,0.004675108524584802,0.9940932849061296
2014-11-05,1,0.0023328691783536413,0.002679494207353927,-0.0016878304366733036,0.004675108524584802,0.9948640993623759
2014-11-07,1,0.002350866809938249,0.0026998330528603016,-0.0011420953027535094,0.007062158152628336,0.994680847023775
2014-11-11,1,0.002711924557084266,0.003120614090064337,-0.002985963758386198,0.005375320218991435,0.9942970296225112
2014-11-13,1,0.002533422329402551,0.002893656085036175,-0.003998189927626399,0.005375320218991435,0.9937429243221388
2014-11-17,1,0.002267170468884062,0.002592945128820761,-0.002985963758386198,0.005154459529267962,0.9941500718673045
2014-11-19,1,0.0029874758279975116,0.0034206380305160074,-0.002985963758386198,0.007062158152628336,0.9930977766378871
2014-11-21,1,0.0023910828364603386,0.0027191111143769183,-0.0016979679920003316,0.007062158152628336,0.9937491480078976
2014-11-25,1,0.001590798516779397,0.0017846445325217144,-0.002985963758386198,0.008003872266493836,0.9925506361771838
2014-11-28,1,0.002472770474205614,0.0027895230043057983,-0.002985963758386198,0.007062158152628336,0.9933079774541567
2014-12-02,1,0.0018020734576498294,0.002012700044583548,-0.0032793186907527708,0.007062158152628336,0.9932999836114481
2014-12-04,1,0.002064845282499217,0.0023206713253207585,-0.004881577890193828,0.004367968241366148,0.9929821652206752
2014-12-08,1,0.002158867379498936,0.0024012188987205876,-0.005763998868523946,0.0030870932620954764,0.9924747414941358
2014-12-10,1,0.001879652311584172,0.0020821575693817165,-0.004881577890193828,0.005468914431454476,0.9920713766080921
2014-12-12,1,0.0011319505403861523,0.0011994193187388647,-0.0035867545745521855,0.005468914431454476,0.9926051502195664
2014-12-16,1,0.0007983350334146089,0.0008008647064759095,-0.0035867545745521855,0.00888513215200373,0.9921951883785867
2014-12-18,1,0.0016225325413689847,0.001724165984472695,-0.0035867545745521855,0.006733863688015439,0.9928823819511945
2014-12-22,1,0.0007702877008270337,0.0008502488467166489,-0.0035867545745521855,0.00888513215200373,0.9921937156174258
2014-12-24,1,0.0016204201318245227,0.0016906259525073753,-0.0038738319954051336,0.008398205002820158,0.9922895464336774
2014-12-29,1,0.0017147026539598546,0.0018187533229012075,-0.006384851935903909,0.008398205002820158,0.9916639106598852
2014-12-31,1,0.001031046322189545,0.001037150507804507,-0.00582679378636553,0.009756376545843517,0.9908308963107034
2015-01-05,1,0.000838157664656603,0.0008460981713787897,-0.003687812612225674,0.011660012076304566,0.9905477109381546
2015-01-07,1,0.000996903753409587,0.001010947723467281,-0.003544574205843469,0.011500826062641658,0.990783561219256
2015-01-09,1,0.00132632242433291,0.0013871297988886596,-0.00456901740088822,0.009703314541289214,0.9910406301739683
2015-01-13,1,0.0012752564689989124,0.0013298738342334888,-0.00456901740088822,0.011500826062641658,0.9905568590917848
2015-01-15,1,0.0017950829849967072,0.0018915707948012632,-0.00456901740088822,0.011500826062641658,0.9908790213941769
2015-01-20,1,0.0022830105213547842,0.002442771656387247,-0.00456901740088822,0.009703314541289214,0.9915457725312998
2015-01-22,1,0.00246159158624302,0.0026361889279874796,-0.0053710721267678126,0.009703314541289214,0.9913578089580999
2015-01-26,1,0.002234457868810583,0.0023904413166663013,-0.00456901740088822,0.008779281992711625,0.9923890737643815
2015-01-28,1,0.0018016107913094684,0.001908427153238678,-0.0023875519156496463,0.008779281992711625,0.992560321419654
2015-01-30,1,0.0013513586635595346,0.001386455877747495,-0.0021880631929592936,0.007583187361696549,0.9937025618950616
2015-02-03,1,0.0020451833649142853,0.002187409113647167,-0.0038273128264349563,0.005554645824547336,0.9941881719174699
2015-02-05,1,0.0019393232405911182,0.00204681338675597,-0.0043428907395501384,0.0048578156342680735,0.993853728247947
2015-02-09,1,0.001398558780525088,0.001449447731788212,-0.0043428907395501384,0.005554645824547336,0.9936538032615998
2015-02-11,1,0.0017620151369579277,0.001856171153926208,-0.0043428907395501384,0.005554645824547336,0.9938032886847095
2015-02-13,1,0.001985307298073185,0.0021156263803876287,-0.006514671290301838,0.005554645824547336,0.9931848037645011
2015-02-18,1,0.0020635824151800384,0.002203333729907537,-0.006514671290301838,0.005409260671204329,0.9929590859397608
2015-02-20,1,0.0018633907548872633,0.0019874515793343738,-0.005946830180248108,0.005409260671204329,0.9934936560811967
2015-02-24,1,0.0018871596969827122,0.0020000023714910496,-0.006700396677172971,0.004809353916487072,0.9931854145873826
2015-02-26,1,0.0012879774621180375,0.0012987281927522116,-0.006700396677172971,0.004809353916487072,0.9928999132412115
2015-03-02,1,0.001100870015194335,0.0011247885375533953,-0.006700396677172971,0.00920228408808073,0.9924550662101482
2015-03-04,1,0.0009943694056387677,0.0010077976662417622,-0.006209510738155412,0.00920228408808073,0.9925313031145642
2015-03-06,0,-8.692676889450728e-05,9.046282673079843e-05,-0.0059716186747651185,0.00920228408808073,0.9932355087737477
2015-03-10,-1,-0.0006253319341533617,-0.00035402914578256013,-0.0059716186747651185,0.006396075492697379,0.9936581634132806
2015-03-12,-1,-0.0003962310318512763,-0.00013718410702634476,-0.0059716186747651185,0.005139674329936478,0.9945074644859804
2015-03-16,1,0.00010334775808313842,0.00027022959298622824,-0.005781998940862074,0.005139674329936478,0.9947486103827655
2015-03-18,0,-7.381034734675726e-05,9.128521988166597e-05,-0.0059716186747651185,0.005139674329936478,0.994720035103073
2015-03-20,1,0.00028010005470446105,0.0003916878212996414,-0.00783102018090221,0.004505947529265437,0.9942457807490657
2015-03-24,1,5.080269109009115e-05,0.00016902771278727607,-0.006561124354180834,0.004505947529265437,0.9943771227983031
2015-03-26,-1,-0.0006924949056300158,-0.0004886619871570107,-0.004338533240775415,0.004505947529265437,0.99509667879267
2015-03-30,-1,-0.00021851225986420445,-6.035971086191719e-05,-0.005503995096666055,0.0010742868504983382,0.9958385162620711
2015-04-01,-1,-0.00022079374947528148,-8.226728603790708e-05,-0.00801231968868922,0.0010742868504983382,0.9947336253618817
2015-04-06,0,-7.859338538277957e-05,4.304959511077666e-05,-0.00801231968868922,0.0010742868504983382,0.9944915287012404
2015-04-08,0,-8.695645829367348e-05,2.2085661050867992e-05,-0.00793434462484743,0.0010742868504983382,0.9946691942488923
2015-04-10,-1,-0.00023036150042428263,-0.0001071915704781855,-0.00793434462484743,0.0022616039307440535,0.9938457172137589
2015-04-14,-1,-0.00020442926853410354,-7.685232424339605e-05,-0.00793434462484743,0.0019431250835558992,0.9943082334635385
2015-04-16,-1,-0.00035187632109121735,-0.00022925628912738789,-0.00710196611158127,0.003682635617626988,0.994064897931262
2015-04-20,-1,-0.001236041273130802,-0.0009957982931452958,-0.004194835518743104,0.005063099568713545,0.99433174798367
2015-04-22,-1,-0.0015351842014531278,-0.0012601592291777543,-0.0025974032809160546,0.006308242148843035,0.9939008187171884
2015-04-24,-1,-0.0009890180739242289,-0.0008184317409763362,-0.0034610135924828013,0.006308242148843035,0.9941069357729995
2015-04-28,-1,-0.0014951903357700797,-0.001241919422607532,-0.003097969748331039,0.006308242148843035,0.9939989568768515
2015-04-30,-1,-0.0025087422005190957,-0.002148912977643828,-0.0023907338986492105,0.006308242148843035,0.99448720097184
2015-05-04,-1,-0.001755031704971758,-0.001500515779571184,-0.003097969748331039,0.006308242148843035,0.9948963976911666
2015-05-06,-1,-0.0021547089737033805,-0.0018386050377135815,-0.003097969748331039,0.006308242148843035,0.9943749795155326
2015-05-08,-1,-0.0018463050261925775,-0.0015469833972258547,-0.004587301029694487,0.003923597947779278,0.9951014623561798
2015-05-12,-1,-0.0018837132076387783,-0.001571556647520069,-0.004587301029694487,0.005923130796901852,0.9945879625945817
2015-05-14,-1,-0.0012506498635004143,-0.0010638967175159125,-0.004587301029694487,0.00565423580053069,0.9948335418145218
2015-05-18,-1,-0.0008996869548633954,-0.0007534960089646104,-0.006726244033119994,0.0056286280716204545,0.9944950960240663
2015-05-20,-1,-0.00020945609024942394,-0.00011726468010521526,-0.006726244033119994,0.004933083406854491,0.9944964708374
2015-05-22,-1,-0.00046388948343653716,-0.0003388862112322618,-0.006726244033119994,0.004933083406854491,0.9945022805720453
2015-05-27,-1,-0.0009072714080070707,-0.000700680664131314,-0.007165439714571526,0.004933083406854491,0.9941363900490595
2015-05-29,-1,-0.0013078906705128591,-0.00103870042975372,-0.007165439714571526,0.004933083406854491,0.9942969153850448
2015-06-02,-1,-0.0013458851113430834,-0.0010768940680961074,-0.007194074101659119,0.004603402018426483,0.9938781683244584
2015-06-04,-1,-0.0013090975912124748,-0.0010675899991655889,-0.00714616978142848,0.004603402018426483,0.9934250352883224
2015-06-08,-1,-0.0016584421236791331,-0.0013759690197670347,-0.006678315425380784,0.004959789998674336,0.99251484970764
2015-06-10,-1,-0.001056828145209075,-0.0008621897409780348,-0.006678315425380784,0.004012766602637189,0.993079207696555
2015-06-12,-1,-0.0007335958922830214,-0.000611795187728873,-0.005229622391011719,0.004959789998674336,0.9925687895893439
2015-06-16,-1,-0.0007264982405154766,-0.0006247691016180842,-0.004027732908955752,0.004603402018426483,0.9934018793515428
2015-06-18,-1,-0.0005635084151097876,-0.0004671174173578831,-0.005229622391011719,0.004412369959368598,0.9928997614974641
2015-06-22,-1,-0.0007792904296506555,-0.0006331463906404725,-0.006794023448422885,0.008702365776217602,0.9921117855744634
2015-06-24,-1,-0.0015274258171779959,-0.0012770723349616933,-0.004104480545375075,0.008702365776217602,0.9921658146658875
2015-06-26,-1,-0.0009015470608507946,-0.0007671024228195161,-0.004104480545375075,0.008702365776217602,0.992227599901666
2015-06-30,-1,-0.001498565556503854,-0.0013035738932273696,-0.003800609063006559,0.009733810783383376,0.9921317589314607
2015-07-02,-1,-0.0014449356238637559,-0.0012262598728092172,-0.003800609063006559,0.009144995731713847,0.9929909920310248
2015-07-07,-1,-0.0003245568804758395,-0.00026689187750056353,-0.0035348108636649995,0.009144995731713847,0.9934442489408094
2015-07-09,-1,-0.0004203808263590966,-0.00036793770491873264,-0.0020284675966023903,0.009733810783383376,0.9927599697064233
2015-07-13,1,0.0004452721648941869,0.0005172856721254327,-0.003432840362249347,0.008811549705346181,0.9936615370417384
2015-07-15,1,0.0005354220359520428,0.0006350906219529124,-0.0035714451951789237,0.008811549705346181,0.9929997866565876
2015-07-17,1,0.000725036721534153,0.000864425972492042,-0.003432840362249347,0.007745418465260274,0.993896777635242
2015-07-21,1,0.000494573906117072,0.0005868583085401695,-0.0020284675966023903,0.007465986073900508,0.9943327557864612
2015-07-23,1,0.0005307576472833445,0.0006296793616658788,-0.003432840362249347,0.007465986073900508,0.9936637536458135
2015-07-27,1,0.0004765694806757139,0.0005573977330886482,-0.005991607984224579,0.007465986073900508,0.9917706370224499
2015-07-29,1,0.0006805554911505621,0.0007567453198134865,-0.008570909826879969,0.007186869945542258,0.9903393665842042
2015-07-31,1,0.00044372388347602886,0.00048405470539573286,-0.008570909826879969,0.007465986073900508,0.9897868488444886
2015-08-04,1,0.0013451105041869106,0.001539683202568093,-0.009854388020915617,0.005142809949636757,0.989064485583177
2015-08-06,1,0.0017092682799787647,0.001959031856000275,-0.009854388020915617,0.007465986073900508,0.9889235081536679
2015-08-10,1,0.0014570079082815886,0.0016746571995048308,-0.01238874275700014,0.008375612331268873,0.9876185703134837
2015-08-12,1,0.0018235618868010781,0.0020950671227901742,-0.013288655569861047,0.008375612331268873,0.9874034920288035
2015-08-14,1,0.0014147383413655136,0.0016080084276123307,-0.013288655569861047,0.008375612331268873,0.9864790976894655
2015-08-18,1,0.0014113487795980022,0.0015848242212994283,-0.013288655569861047,0.01005202810400277,0.9863650343437741
2015-08-20,1,0.0010627783552802823,0.0012248079076684782,-0.013288655569861047,0.01005202810400277,0.9868211814740874
2015-08-24,1,0.0008183764951243494,0.0009436487714506507,-0.01074150271113097,0.010906183311647912,0.9879595846815252
2015-08-26,1,0.0007833845053113588,0.0009128283451506857,-0.009811335554660898,0.009993426968182891,0.9899612112655934
2015-08-28,1,0.0008225281672808554,0.0009457902279122714,-0.01074150271113097,0.00981780795014306,0.989766710135648
2015-09-01,-1,-0.0001334692247899525,-0.00012681616203554685,-0.009811335554660898,0.00981780795014306,0.9909391889136809
2015-09-03,1,0.0008020933827352537,0.0009397119430570012,-0.009811335554660898,0.00840219064707012,0.9914090600352006
2015-09-08,1,0.0007987631520583313,0.0009161374086464667,-0.009565864404495566,0.00840219064707012,0.9917417904603574
2015-09-10,-1,-6.315340321797202e-05,-4.352118263297498e-05,-0.008274501903897863,0.00981780795014306,0.9916934301170298
2015-09-14,-1,-0.0006002573556580977,-0.0005104719296005387,-0.0027571434010793252,0.00981780795014306,0.9917177897273346
2015-09-16,-1,-0.00023632345570347233,-0.00019098394748613687,-0.007977694074665623,0.008511290031578668,0.9917408934217362
2015-09-18,-1,-0.0005094482482212691,-0.000430710309026773,-0.005005954299532854,0.00982037846934685,0.9916305541449506
2015-09-22,-1,-0.0007886434695977013,-0.0006454800326906111,-0.002405530795530006,0.008403047486804717,0.9925156824398862
2015-09-24,-1,-0.0001888614819438828,-0.0001280734209178692,-0.003516366166734943,0.009602649548618544,0.9924248940928327
2015-09-28,-1,-0.0006512817119966982,-0.000535290957623861,-0.004907879533644799,0.008212129858888764,0.9928392355233565
2015-09-30,-1,-0.0006616697758965637,-0.0005584335257650857,-0.004891774068620435,0.009602649548618544,0.9923898378691054
2015-10-02,1,0.00030606809008434216,0.00032627868252047584,-0.0070123274316597865,0.008212129858888764,0.9923652874140585
2015-10-06,-1,-0.0001508979602436998,-0.00011527127036056087,-0.0072991849299951315,0.0068511650171418585,0.992493445409275
2015-10-08,1,0.0005225772979721431,0.0005818320415145067,-0.00837998365537692,0.006466775103959556,0.9924663875477034
2015-10-12,1,0.0007630459523437791,0.0008573335072171737,-0.009640613072741873,-0.0016697157063343716,0.9919083323093856
2015-10-14,1,0.00020690240743747354,0.0002173686151910269,-0.00837998365537692,0.0035020395738106507,0.991739680451598
2015-10-16,1,0.0007370860986913995,0.0008187568847233132,-0.009640613072741873,-0.0011168859781423592,0.9916383610997358
2015-10-20,1,0.0004096861878330853,0.00043564042789147935,-0.009640613072741873,8.586565137942129e-05,0.9913445598987128
2015-10-22,1,0.0006165581277847247,0.0006671397770933869,-0.009640613072741873,0.004249220773119507,0.9906684263657096
2015-10-26,-1,-6.873717143024018e-05,-1.9683232481648185e-05,-0.008545086825956791,0.007343692727618301,0.9913713007746817
2015-10-28,1,0.0002092588079065331,0.00022985129124478224,-0.008545086825956791,0.004530046481755838,0.9918239633165234
2015-10-30,-1,-0.00017646911615523336,-0.00012394839230949975,-0.008545086825956791,0.004530046481755838,0.9917989874595317
2015-11-03,-1,-0.0009989599808313064,-0.0008427087553238902,-0.0077543955234491355,0.007343692727618301,0.9916290090755854
2015-11-05,-1,-0.001389783987645908,-0.0011826444882620003,-0.006462627524686187,0.010221701782713623,0.9908927876369868
2015-11-09,-1,-0.0016479029270167814,-0.0014192424364342612,-0.001385545304548938,0.010221701782713623,0.9913654716031753
2015-11-11,-1,-0.0010503762603451946,-0.0008948621925402684,-0.007298884204686892,0.007343692727618301,0.9919687152540035
2015-11-13,-1,-0.0015641348923362388,-0.0013289851649503316,-0.007455528820723079,0.007343692727618301,0.9916422381094679
2015-11-17,-1,-0.0012813090314320878,-0.001083230585574599,-0.007455528820723079,0.007343692727618301,0.9913599523432807
2015-11-19,-1,-0.0008537060263917802,-0.0006782702233970919,-0.011136857400392875,0.004445417337406029,0.9915687839012327
2015-11-23,-1,-0.0004931739199613672,-0.00037473293341212625,-0.011136857400392875,0.007466401392618194,0.9907069861340588
2015-11-25,1,0.00013149061538622164,0.00013397652203450049,-0.011136857400392875,0.011218167839220743,0.9900050913447873
2015-11-30,-1,-0.0007153888006692336,-0.000580214920671076,-0.011136857400392875,0.011218167839220743,0.9897770668127337
2015-12-02,-1,-0.00037686979946277896,-0.00030973776215713545,-0.011136857400392875,0.010818048476266842,0.9902279176276655
2015-12-04,1,0.00017180575032146796,0.00018090593601660784,-0.011965702995614438,0.007427476353878589,0.9901049130625186
2015-12-08,1,8.005413720619462e-05,9.867679076481963e-05,-0.012665619784022126,0.007427476353878589,0.9893782351318816
2015-12-10,-1,-0.0007939369744627214,-0.0006706897707913403,-0.012665619784022126,0.010818048476266842,0.9897150220108641
2015-12-14,-1,-0.0009529844232303396,-0.0008122666482662954,-0.013085697774819575,0.011218167839220743,0.9868278984589794
2015-12-16,-1,-0.0003063943277972818,-0.00024305029414079286,-0.013085697774819575,0.010818048476266842,0.9869544031525658
2015-12-18,-1,-0.0007475699025042465,-0.0006647172294983912,-0.00952896056378581,0.010818048476266842,0.9880167598657968
2015-12-22,1,0.00019345563607108744,0.00021087120863426653,-0.00952896056378581,0.009405731756140394,0.9875499036136766
2015-12-24,1,0.00043175871059088656,0.0005181210656454051,-0.013085697774819575,0.009405731756140394,0.9870880176869953
2015-12-29,1,0.0008261954153705924,0.0009899919130299394,-0.010004709975588848,0.009417057389474499,0.9874975110469814
2015-12-31,1,6.462638918418515e-05,0.00011755189274153727,-0.00630484570277602,0.012249604044030787,0.986236691080046
2016-01-05,-1,-0.0001717612509957989,-0.00012208042130917472,-0.004867625798496774,0.012907171278014112,0.986218334176884
2016-01-07,-1,-0.0007760078278626,-0.0007407334720867732,-0.0006624676421680728,0.012907171278014112,0.9866389374311502
2016-01-11,1,0.00014985529594788508,0.0002512459683736334,-0.0006624676421680728,0.013419560365656833,0.9871640405158617
2016-01-13,-1,-0.0014335971771686751,-0.001305158016160362,-0.0015408035605309692,0.012907171278014112,0.9890706179342019
2016-01-15,-1,-0.001271346679641586,-0.0011525184001179767,8.72895118302242e-05,0.013613810197663664,0.9880265002403189
2016-01-20,-1,-0.0016277180670386752,-0.0014557187473450935,0.0011857148744730788,0.013613810197663664,0.9878098037427848
2016-01-22,-1,-0.00043471470129711153,-0.00041894334544062247,-0.0008725789388916482,0.012907171278014112,0.9895270537986091
2016-01-26,-1,-0.0016493324715658839,-0.0014377285519354178,0.0011857148744730788,0.012907171278014112,0.9895960220755784
2016-01-28,-1,-0.0004783241252346652,-0.00044843601105494616,-0.0008725789388916482,0.012159439953777216,0.9904364153461128
2016-02-01,1,0.0009353840160880073,0.0010994029970255673,-0.0017854011576078966,0.008384569404054583,0.9924376734974993
2016-02-03,1,0.0011860355118698852,0.0013403086881358865,-0.0017854011576078966,0.007853750569899929,0.99324204472385
2016-02-05,1,0.0006302661830734813,0.0006770042138196976,-0.0018670188296964927,0.007853750569899929,0.9926346984784535
2016-02-09,1,0.001607207284335453,0.0018011671924870014,-0.004470128460294311,0.006754483030384058,0.9930849748093419
2016-02-11,1,0.0007699291631284447,0.0008381964837669935,-0.0018670188296964927,0.00757262452884159,0.9936881573310121
2016-02-16,1,0.0016716182768517721,0.001862299909748599,-0.004131608197183249,0.006712315668703594,0.9948398003617782
2016-02-18,1,0.0014823978906987742,0.0016743777960735195,-0.0018820813159994981,0.006712315668703594,0.994995592039245
2016-02-22,1,0.001550042245190604,0.0017314772938884244,-0.0031639498071117673,0.004893985291158247,0.9951868216659369
2016-02-24,1,0.002105681021241055,0.002351121662048831,-0.004515315919203328,0.004115536176097382,0.9953986669019155
2016-02-26,1,0.002290743996008644,0.0025997092755095704,-0.0031639498071117673,0.004115536176097382,0.9956440881393364
2016-03-01,1,0.0017084144511657312,0.0019216973800005664,-0.0020880835274883756,0.004115536176097382,0.996034109757775
2016-03-03,1,0.0024016564237939655,0.002744209707234517,-0.0020880835274883756,0.0035931590535373285,0.9953988249722575
2016-03-07,1,0.0021182537764437683,0.002442390839704615,-0.0020880835274883756,0.0046452636412075855,0.9949097941176644
2016-03-09,1,0.0016959436324606803,0.0019342833853423125,-0.0020880835274883756,0.005281095867233309,0.9949631557296605
2016-03-11,1,0.002207145933611058,0.0025441680975949476,-0.0031639498071117673,0.004473766614345322,0.9947725346387659
2016-03-15,1,0.0023945407599839565,0.002741708886942978,-0.0027867616187689814,0.0035931590535373285,0.9951525171191795
2016-03-17,1,0.002439174757754797,0.002807409058649083,-0.003323229074188223,0.0038051031288792365,0.9946082070163185
2016-03-21,1,0.0021497313676278424,0.0024408053123343263,-0.004934306629975989,0.005281095867233309,0.9940687400023059
2016-03-23,1,0.0019239316994321275,0.0022021113871019387,-0.005648766878296732,0.005281095867233309,0.9927779667817429
2016-03-28,1,0.001806484595208453,0.0020347765115121203,-0.005648766878296732,0.005831092074250118,0.9926803415384077
2016-03-30,1,0.0014257388825996392,0.0015549712826314253,-0.005648766878296732,0.005831092074250118,0.9925389324267995
2016-04-01,1,0.0019360181332787004,0.002104231418369391,-0.005648766878296732,0.0051595310701111384,0.9930349465663912
2016-04-05,1,0.001602505458385722,0.001693542392765657,-0.004934306629975989,0.0051595310701111384,0.99401023366296
2016-04-07,1,0.0015532840571456476,0.0016726557099483205,-0.00460966694970379,0.005980888763470397,0.9939191094753637
2016-04-11,1,0.0010155538780944895,0.0010393799784082806,-0.003215574243940837,0.008127209957953307,0.9932877782011166
2016-04-13,1,0.0012701307970004552,0.0013458916189303628,-0.00460966694970379,0.008580505765034049,0.9926492692446062
2016-04-15,1,0.0017325508745558978,0.001918612611902526,-0.005083339386868733,0.008127209957953307,0.9928102579933031
2016-04-19,1,0.0018236657368943389,0.002027373109721764,-0.005511559189919683,0.006961154140894679,0.9930101178583677
2016-04-21,1,0.0010789454676975098,0.0011834817470870093,-0.0008797560482766147,0.008580505765034049,0.992808229877332
2016-04-25,1,0.0007225211192426555,0.0007632364273945748,-0.001834546679093493,0.009841855290832962,0.9912411282735681
2016-04-27,1,0.0007097388908976202,0.0007509945452211015,-0.0020782517583050096,0.009841855290832962,0.991247216803877
2016-04-29,1,0.0010932157726317121,0.0012199448814277812,-0.0020782517583050096,0.009841855290832962,0.9912823547446239
2016-05-03,1,0.0010989328185376955,0.0012204727702906548,-0.0020782517583050096,0.009841855290832962,0.9913989968501319
2016-05-05,1,0.0009914162538342338,0.0010505744281182128,-0.004024516721447864,0.008660437660044734,0.9916823529635446
2016-05-09,1,0.0012117880036292758,0.0012911558995362385,-0.004024516721447864,0.007119436287964212,0.9922336361108413
2016-05-11,1,0.0013071022419444882,0.0014280541057200417,-0.002929716616588411,0.007119436287964212,0.9926906402397898
2016-05-13,1,0.0006736784276235347,0.0006947719479346363,-0.002929716616588411,0.006112123675220304,0.9929084250976593
2016-05-17,1,0.000866294761254429,0.0009284193079085245,-0.002929716616588411,0.006317980934877494,0.9928443121675358
2016-05-19,1,0.0007215863881581233,0.0007634411139836997,-0.004024516721447864,0.005110024932990332,0.9938750387275432
2016-05-23,1,0.0014388760568122719,0.0015773935995366999,-0.002929716616588411,0.005110024932990332,0.9954656222808829
2016-05-25,1,0.0007492405274605636,0.0007546175553778395,-0.0026497095476832877,0.005341883865457646,0.9953357339598705
2016-05-27,1,0.0005361180425152997,0.0005775484177319075,-0.002929716616588411,0.005341883865457646,0.9943228309430742
2016-06-01,1,0.00039970366722351435,0.000482666742544875,-0.002929716616588411,0.005586751955195603,0.9940078324080025
2016-06-03,1,0.0005257255800022613,0.0005691496511021736,-0.003457187983427864,0.005707555664508297,0.9925793529495461
2016-06-07,-1,-0.0006281589723729456,-0.0003139911759411746,-0.006080046857695116,0.005988447342359027,0.9914493168784041
2016-06-09,1,9.488966347511103e-05,0.0002728984645850932,-0.0066641355836691155,0.0058786596566100845,0.9914887604812268
2016-06-13,-1,-0.0007492113685175598,-0.0004497811949937437,-0.006793061998715056,0.0058786596566100845,0.9905630626179259
2016-06-15,-1,-0.0004446165024233498,-0.00021927037575302703,-0.005831802224062378,0.0058786596566100845,0.9910170817656658
2016-06-17,-1,-0.0008463470017088016,-0.0005468082440738465,-0.0047745514994716725,0.0058786596566100845,0.9912001187383365
2016-06-21,-1,-0.0003248367428967077,-0.00010482052873388875,-0.005831802224062378,0.0058786596566100845,0.9909291441131248
2016-06-23,1,0.0005049744323215566,0.0005671856732833352,-0.005831802224062378,0.00697206094440614,0.9907397153839924
2016-06-27,1,0.00023058160818567185,0.0002962985726111333,-0.005831802224062378,0.00697206094440614,0.9913820253921003
2016-06-29,1,0.00023499480944200128,0.00031401516023117366,-0.007542255932913916,0.006712262474811713,0.9911116049679441
2016-07-01,1,0.001081285008684641,0.0011359101957903696,-0.007542255932913916,0.006712262474811713,0.9921817125374665
2016-07-06,1,0.00013465923377184186,0.0002607683609821185,-0.007407681345045989,0.004677814861509159,0.9929154808220564
2016-07-08,1,0.0011046758877652906,0.0011536277019515507,-0.0074880614631079555,0.005032046675038993,0.9912540092305955
2016-07-12,0,-5.2905447984290786e-05,4.5345301430460365e-05,-0.0058326258888079675,0.008029672658849338,0.9919956566830075
2016-07-14,1,0.00043476519059751394,0.0004718527514087245,-0.0074880614631079555,0.008029672658849338,0.9913790865881564
2016-07-18,1,0.0006453244938561533,0.0006600297208634915,-0.0074880614631079555,0.008029672658849338,0.9914323052556739
2016-07-20,1,0.0003066534630900154,0.0003432373481122024,-0.006741738180634234,0.005361322894700113,0.9920202292587591
2016-07-22,1,0.0005536053818667849,0.0005744333527186302,-0.006741738180634234,0.0051811552302240245,0.991911434231319
2016-07-26,-1,-0.00011851109809219226,-3.607318000542321e-05,-0.0058326258888079675,0.0051811552302240245,0.9925712659338465
2016-07-28,-1,-0.0003101465391424684,-0.00017471044516766224,-0.005605925478480151,0.004779159077012052,0.9930116665901256
2016-08-01,-1,-0.00040387754723931405,-0.00023763099680067744,-0.005691793731253833,0.004779159077012052,0.9929198408436429
2016-08-03,-1,-0.0007342037064900701,-0.000558687702349003,-0.005637196336666345,0.004779159077012052,0.9934366773634028
2016-08-05,1,0.00018132343122230176,0.00024651337080088047,-0.005306772405650578,0.004383279523310395,0.995154962817619
2016-08-09,1,0.00048280433728957846,0.0005069076410747047,-0.005637196336666345,0.004383279523310395,0.9942655375737639
2016-08-11,-1,-0.0001746932445680538,-6.630910516497343e-05,-0.005754594342829676,0.003570814287381061,0.9933719731148832
2016-08-15,-1,-0.0002061908701629439,-8.040788172430441e-05,-0.00628822974498909,0.003570814287381061,0.9929249051306923
2016-08-17,-1,-0.0003526200023308115,-0.000220269120712309,-0.005754594342829676,0.004605660712522702,0.9928359244468018
2016-08-19,-1,-0.0003904013988273436,-0.00024982451195997875,-0.006083883130322341,0.003570814287381061,0.9929725976494325
2016-08-23,1,8.04328602816703e-06,8.487481967126568e-05,-0.006083883130322341,0.005686944609310818,0.9922563748571979
2016-08-25,-1,-8.254092845581812e-05,-3.037977706824279e-06,-0.007985352381171453,0.006507674211683408,0.9911603972321131
2016-08-29,1,5.7724014346525234e-05,0.00012421792360380786,-0.007985352381171453,0.004091670229418331,0.9916874823560874
2016-08-31,-1,-0.0003961176023817897,-0.0002656761150400839,-0.012356003972691347,0.006507674211683408,0.9908427150376091
2016-09-02,-1,-0.00024097083447772435,-0.0001294992235320512,-0.012998504654887534,0.006995393613963419,0.9897940772786742
2016-09-07,-1,-0.0012841758755501164,-0.0010521173241597463,-0.012998504654887534,0.006698982488802274,0.9905899179223973
2016-09-09,-1,-0.0023989294059539763,-0.0020458795700009384,-0.007985352381171453,0.007658224819751126,0.9912632077203921
2016-09-13,-1,-0.0033148734722741064,-0.0027884424399535713,-0.004040712604617706,0.007658224819751126,0.9915521606959892
2016-09-15,-1,-0.0026957961029726958,-0.002254450200147333,-0.003981991548892154,0.008210685613228172,0.9910694962745307
2016-09-19,-1,-0.002948021794388079,-0.00247100145705495,-0.0017196230824461844,0.008210685613228172,0.9906619737670179
2016-09-21,-1,-0.0020521142187235352,-0.001689157397636761,-0.004722785643345381,0.00752673003037367,0.9917909254781272
2016-09-23,-1,-0.0018679013003365852,-0.0015374072566588474,-0.003646072963756771,0.004310064914672486,0.9932082894070643
2016-09-27,-1,-0.0015932973640337817,-0.0013228434820700297,-0.004150626399941215,0.00752673003037367,0.9923823714037933
2016-09-29,-1,-0.0014782365408674508,-0.0012638013012499763,-0.004150626399941215,0.004310064914672486,0.9933083247738093
2016-10-03,-1,-0.0020775671444247124,-0.0017818273199537583,-0.0025152399359928156,0.004310064914672486,0.9937760610337588
2016-10-05,-1,-0.0023542143327887977,-0.0020282519763185347,-0.004150626399941215,0.004310064914672486,0.9936739392581782
2016-10-07,-1,-0.0017212795780878255,-0.0014784614978313915,-0.0061510681073447815,0.002171142314849382,0.9912110972837628
2016-10-11,-1,-0.0016107800812757355,-0.0014537799295344794,-0.0061510681073447815,0.008305687560892304,0.9889360327574274
2016-10-13,-1,-0.0008808586339438589,-0.0007691861478613915,-0.007284835759208155,0.004075696154448093,0.9872902883396739
2016-10-17,-1,-0.0006781577490297875,-0.0005790374755595077,-0.007284835759208155,0.005447019872471574,0.9871611879069623
2016-10-19,-1,-0.0009589074026804495,-0.0008403779302253522,-0.006694454774816712,0.008202510338302998,0.9868316778574251
2016-10-21,-1,-0.0008547157038970711,-0.0007619970559619928,-0.006694454774816712,0.008748272420019312,0.9865030420910037
2016-10-25,-1,-0.00042047638736415906,-0.0003768008526864625,-0.006694454774816712,0.007556884955844587,0.9873498703061264
2016-10-27,-1,-0.0006097574900501255,-0.0005502706612695468,-0.006694454774816712,0.008316133997637616,0.9870145854321705
2016-10-31,-1,-0.00011618613526055412,-0.00010380545389352625,-0.006694454774816712,0.007556884955844587,0.9874075645405652
2016-11-02,-1,-0.0009340540714064993,-0.0008357723929163558,-0.006834929292214663,0.007556884955844587,0.986157945482033
2016-11-04,-1,-0.0031121277878206136,-0.0027616813076520473,-0.004443490330066162,0.010417363923530107,0.9875305982299887
2016-11-08,-1,-0.0010943457971610174,-0.0009886775815385923,-0.004443490330066162,0.008316133997637616,0.9894527974554016
2016-11-10,-1,-0.002356442991898067,-0.0021248310091417136,-0.004135868194018189,0.00974324410437063,0.9897821161539213
2016-11-14,-1,-0.0014558810496691033,-0.00134430726441817,-0.004135868194018189,0.00974324410437063,0.9904777777138659
2016-11-16,-1,-0.0011007099017488172,-0.0010069899325019414,-0.004135868194018189,0.009086034877085968,0.9907670080262847
2016-11-18,-1,-0.00041000247313947597,-0.0003975647516515823,-0.004443490330066162,0.009086034877085968,0.9910315958965911
2016-11-22,-1,-0.00022266867678226264,-0.00012071383159981244,-0.004443490330066162,0.009086034877085968,0.9909091518165246
2016-11-25,-1,-0.0003054670385947481,-0.0002488570087895569,-0.00395946778505025,0.005907168370826912,0.9912365820716941
2016-11-29,-1,-0.0003882670915113321,-0.0003338593499715738,-0.004684785403787681,0.007567563732077653,0.9901314589329362
2016-12-01,-1,-0.002224547729584522,-0.0020312866504913355,-0.003311075979126453,0.010131564102025257,0.9904134041041703
2016-12-05,-1,-0.001125103063320182,-0.001055738173892109,-0.003311075979126453,0.007228748407126644,0.9917625939207116
2016-12-07,0,-6.219529749806402e-06,7.719075742894507e-05,-0.003311075979126453,0.005271571323272597,0.992669922105523
2016-12-09,-1,-0.0007960129683000504,-0.000769623125525737,-0.004684785403787681,0.0043674229175946,0.9928904886941465
2016-12-13,-1,-0.0007409276750621316,-0.0007408989665846887,-0.004684785403787681,0.0043674229175946,0.9931284631984502
2016-12-15,-1,-0.0001020412791276013,-4.03703602521585e-05,-0.004684785403787681,0.005271571323272597,0.9926098639485099
2016-12-19,-1,-0.00042660542318569627,-0.00040757221085943417,-0.002499533349759095,0.005439211658344916,0.992576321085787
2016-12-21,-1,-9.798446929509065e-05,-1.9179779891623558e-05,-0.0015262006461058096,0.0069817996619349395,0.9922496395205808
2016-12-23,-1,-0.000683595921504438,-0.0006552851966118618,-0.0008607322332682132,0.007378247339361446,0.9915726939263642
2016-12-28,1,0.0002620245290704951,0.00041286616578157354,-0.0022526018438657016,0.007378247339361446,0.9922223912946119
2016-12-30,1,0.00041809152932346667,0.0005997575996959509,-0.002006269630469437,0.005489044635756516,0.9935162019054343
2017-01-04,1,0.0008212029065799171,0.0010490351421096316,-0.002006269630469437,0.005253174568964811,0.9937423367696325
2017-01-06,1,0.0009190875798148335,0.0011534399948933331,-0.0022526018438657016,0.006159340945158473,0.9932761146255185
2017-01-10,-1,-0.0002236390791782703,-0.0001735544522064294,-0.000992810305699501,0.008310190509346106,0.992048359647097
2017-01-12,-1,-0.00020014926704040858,-0.00013744354481413188,-0.0004947261141159651,0.008310190509346106,0.9917267974750196
2017-01-17,1,0.0007695408316612157,0.0009708796588943379,-0.0004947261141159651,0.006159340945158473,0.9930712999223887
2017-01-19,1,0.001162204227463647,0.0014147186377987011,-0.0004947261141159651,0.006159340945158473,0.9932666577012282
2017-01-23,1,0.0017086973873737844,0.0020408216426063067,-0.000948947415614682,0.006159340945158473,0.9933145598898058
2017-01-25,1,0.0021186316061295027,0.0024915006776193996,-0.0015092630951921322,0.005555628349815788,0.9937873782871145
2017-01-27,1,0.0015809225263643052,0.0018959621494744477,-0.0008484123695029528,0.005555628349815788,0.9945969548915663
2017-01-31,1,0.0011975194639726756,0.0014280540041146203,0.0006489836650767788,0.006159340945158473,0.9941880268525968
2017-02-02,1,0.0007816812182158022,0.000884324550854961,-0.0009494483256071496,0.005774731666205568,0.9937629124541695
2017-02-06,1,0.0005390966936589472,0.000591065246561465,-0.0015092630951921322,0.0054305894103697586,0.9939939185626183
2017-02-08,1,0.0021504978285141413,0.0024238790563883704,-0.0015092630951921322,0.004052884406407349,0.9965707376345302
2017-02-10,1,0.002229184882438741,0.002500064456549732,-0.0018115981447405021,0.004137841544754332,0.9961675267356279
2017-02-14,1,0.002723978068647185,0.003098634250461161,-0.001861837785324558,0.0054305894103697586,0.9955806210954063
2017-02-16,1,0.003176106162605689,0.003627792072515571,-0.001861837785324558,0.003230279432704524,0.9951059580112573
2017-02-21,1,0.003352141347160639,0.003806165953077786,-0.001861837785324558,0.0025650246609729577,0.9957448287397122
2017-02-23,1,0.002801195311081816,0.0031633354668407212,-0.001861837785324558,0.0025650246609729577,0.9960592984691518
2017-02-27,1,0.002823445059294113,0.0031546264401383388,-0.0021004328799216617,0.0025650246609729577,0.996045863108059
2017-03-01,1,0.002843098583688505,0.0031448028374214134,-0.002391807706760174,0.0013451234367258343,0.9958265144894307
2017-03-03,1,0.0026944869622459906,0.0029996017236256743,-0.002391807706760174,0.0013451234367258343,0.996150701913697
2017-03-07,1,0.002402370658574851,0.002667525530518751,-0.0021004328799216617,0.0013451234367258343,0.9965465442779908
2017-03-09,1,0.0026395283770944303,0.0029681325928654807,-0.002489367096475445,0.0013451234367258343,0.9962231978911862
2017-03-13,1,0.002900013994802702,0.0032838851517303755,-0.002489367096475445,0.0013451234367258343,0.9960763480679387
2017-03-15,1,0.00282083454531833,0.003164738525005627,-0.002489367096475445,0.0013451234367258343,0.9964783658614366
2017-03-17,1,0.0025463872284968883,0.0028422176378336368,-0.0029041405815516644,0.0019988576876126068,0.9963104966805918
2017-03-21,1,0.0024673755651307815,0.0028132644030688294,-0.0029041405815516644,0.001547570838330553,0.9960147658480346
2017-03-23,1,0.0025779148409473544,0.002877218393814961,-0.0033030827811715378,0.001547570838330553,0.9955555332210524
2017-03-27,1,0.002386698969181491,0.0027111000696953946,-0.0033030827811715378,0.0026511642956804577,0.995773800816945
2017-03-29,1,0.001822944022743157,0.002009367095307395,-0.0033030827811715378,0.0026511642956804577,0.9956979326180948
2017-03-31,1,0.0009951083233460387,0.0010061505256930227,-0.004225138297101934,0.0026511642956804577,0.9956934465056113
2017-04-04,1,0.0017350522396597083,0.0019339467758650959,-0.004279443457254627,0.0026511642956804577,0.9949911205618314
2017-04-06,1,0.000371849921122434,0.0004490823165787229,-0.004279443457254627,0.0026511642956804577,0.9936719084715632
2017-04-10,1,0.0007727181933358974,0.0007825743205958645,-0.0045542231385645535,0.0008015520211895747,0.99348001930286
2017-04-12,1,0.0007930882056722695,0.000811054543005503,-0.0045542231385645535,0.00054584954336363,0.9928271171432745
2017-04-17,1,0.001086454270297942,0.0011623144031183393,-0.005396353847473679,9.83353477834169e-05,0.9929187628687077
2017-04-19,1,0.0010221270048133674,0.0010818487133809522,-0.006764964697578818,9.83353477834169e-05,0.9923731704647629
2017-04-21,1,0.0008561715755561889,0.0009058197591565497,-0.005396353847473679,0.0010489398183189664,0.9928515069079507
2017-04-25,1,0.0006885714659004049,0.0007018525797310481,-0.005396353847473679,0.002067901217002477,0.9926401126169477
2017-04-27,-1,-0.0005006687559461113,-0.000303280897157466,-0.004435401528051108,0.005671360407361755,0.9926219851059291
2017-05-01,-1,-0.0002030240309438518,-9.676849778030982e-05,-0.0033460342478690676,0.006435325454112424,0.9924816701372358
2017-05-03,-1,-0.0002351440260256828,-0.00013735846009443967,-0.002252588221018572,0.008364872967755049,0.9923218497574762
2017-05-05,1,0.00048704978664668305,0.0005173265672936019,-0.002252588221018572,0.0066803481256583405,0.9943168224274501
2017-05-09,0,-4.191565257794362e-06,9.324029493184313e-05,0.0005624547819088484,0.008334665079442999,0.9940919645515934
2017-05-11,1,0.000429495276115822,0.0004564066072998633,0.0005624547819088484,0.006675835057785675,0.9944489908662244
2017-05-15,0,-4.611855099266566e-05,5.4689606447119374e-05,-0.0009242977329463687,0.006675835057785675,0.9945863800960906
2017-05-17,-1,-0.0011108682425405338,-0.0008724084125873736,0.0005624547819088484,0.007480280525706533,0.9943789565436673
2017-05-19,-1,-0.00104222053812307,-0.0008186888764614094,0.00024163280533692267,0.008334665079442999,0.993711151761734
2017-05-23,-1,-0.001000596773625355,-0.0007590485608734784,-0.0019060942040461425,0.008334665079442999,0.9938287343154675
2017-05-25,-1,-0.00017761035254213782,-3.137810109704115e-05,-0.002313615013336738,0.007017359529438662,0.9945432469995775
2017-05-30,1,0.00022482689050452469,0.0003026350983120358,-0.0035694747642993686,0.006332667728837763,0.9946661155695921
2017-06-01,1,0.0006140887640115805,0.0006413672245081351,-0.0047037643026938206,0.004381737088411718,0.9944607180152398
2017-06-05,0,-2.4127783510993208e-05,0.00012930753457085162,-0.0047037643026938206,0.0037889820271202936,0.9946760522612869
2017-06-07,1,0.00023767579386573185,0.00035885744904182854,-0.005094211609122302,0.00331432093017944,0.9948386043313908
2017-06-09,1,0.0003432786151309306,0.0004238015409606518,-0.004223195068712462,0.0034086259076050716,0.9950824493341657
2017-06-13,1,0.00018601072222058587,0.0002697339589625284,-0.0048017360821380785,0.0034086259076050716,0.9948824530994479
2017-06-15,1,0.0008157232853603068,0.0008228487484049215,-0.0048017360821380785,0.0028446822661762705,0.9948576283315675
2017-06-19,1,0.0010190174509958857,0.0010689324516496629,-0.004223195068712462,0.0034086259076050716,0.9948538347153987
2017-06-21,0,-7.353832169010777e-05,4.1586350832659397e-05,-0.0036996238664421957,0.0034086259076050716,0.9948064517138846
2017-06-23,-1,-0.00013461072874827436,-4.3324192695336e-06,-0.0048017360821380785,0.0037361788340293913,0.9944793363555106
2017-06-27,-1,-0.00034123216592466996,-0.00019927207560868388,-0.003017314216930785,0.005709394031737116,0.9940321114581082
2017-06-29,-1,-0.0010805243719479417,-0.0008215121682788202,-0.003017314216930785,0.005709394031737116,0.9940207694649853
2017-07-03,-1,-8.256359784528035e-05,-6.750067977275584e-07,-0.0048017360821380785,0.005709394031737116,0.9941487986805388
2017-07-06,0,-2.1715307767079296e-05,5.307698462496388e-05,-0.005617765771664486,0.005709394031737116,0.9933929388674132
2017-07-10,1,0.0002163552296268316,0.00024449185192834785,-0.006938973304578747,0.005227762387685862,0.992296834394275
2017-07-12,0,-1.0069981374707005e-05,3.66802718934486e-05,-0.00880106419717782,0.005227762387685862,0.9918987207316049
2017-07-14,1,0.0005782486542177348,0.0006144061397744464,-0.00880106419717782,0.004593689693477105,0.992198844218826
2017-07-18,1,0.0009683143936176941,0.001052403361476441,-0.00880106419717782,0.0029232991123897736,0.9924421669831424
2017-07-20,1,0.0005296388924653125,0.0005558452505189018,-0.008425406955697719,0.004593689693477105,0.9922727994462134
2017-07-24,1,0.0006246527938737176,0.0006865077782284175,-0.007196848997639334,0.004913712715025706,0.9924791409514728
2017-07-26,1,0.0008775532775542722,0.0009545218020505758,-0.007196848997639334,0.0028196852225622453,0.9927577678224597
2017-07-28,1,0.0005077589473924475,0.0005231749358083958,-0.007196848997639334,0.0031199968857640228,0.9928146536818413
2017-08-01,1,0.0003399230905913257,0.0003441364763449717,-0.007196848997639334,0.0031199968857640228,0.9929517968954933
2017-08-03,-1,-8.117094763341798e-05,-2.9665823345535882e-05,-0.006467442555778206,0.0041156654256623345,0.9935898480819914
2017-08-07,-1,-0.0008829696155069067,-0.0007515861209404842,-0.004905513484163915,0.0041156654256623345,0.9946404666666326
2017-08-09,-1,-0.0011001977921948711,-0.0009362679447341289,-0.006467442555778206,0.003691724920274681,0.9946034137081641
2017-08-11,-1,-0.0012306952646395323,-0.0010596015749098392,-0.006470879361988479,0.00475730185943672,0.994095573878206
2017-08-15,-1,-0.0012251974510306446,-0.001052812203497963,-0.006470879361988479,0.003691724920274681,0.9944397531799508
2017-08-17,-1,-0.001221757600676289,-0.0010491423418795367,-0.004905513484163915,0.00475730185943672,0.9940872685596424
2017-08-21,-1,-0.0008742352140202357,-0.0007326230650541651,-0.004905513484163915,0.003573219857135779,0.9945440785429247
2017-08-23,-1,-0.0012806230555922902,-0.0010855585978186305,-0.006937348497937767,0.003573219857135779,0.9928484446081214
2017-08-25,-1,-0.0015560981034103477,-0.0013263528324016652,-0.005023410880499513,0.003573219857135779,0.9931592517654341
2017-08-29,-1,-0.001671926407044666,-0.0014299249062697198,-0.006937348497937767,0.00408132835034418,0.9923904304503306
2017-08-31,-1,-0.0010529600797816144,-0.0008881773006630823,-0.006937348497937767,0.00408132835034418,0.9926337591054935
2017-09-05,-1,-0.0009378973907198966,-0.0007881087021658175,-0.01087748313526328,0.0040695988257253195,0.9919085056111117
2017-09-07,-1,-0.0014913303072625883,-0.0012899316813470723,-0.008139940358435406,0.005955937451769373,0.9920151413260202
2017-09-11,-1,-0.0011409459261886804,-0.0009864799409608522,-0.010194127117350984,0.005655883019831611,0.9920489212430483
2017-09-13,-1,-0.001609090903410928,-0.001386733272241816,-0.010194127117350984,0.005955937451769373,0.991724973186247
2017-09-15,-1,-0.0007298279128581591,-0.0006102833780037609,-0.010194127117350984,0.005655883019831611,0.992389575922516
2017-09-19,-1,-0.0010350048570933316,-0.0008656433250452387,-0.010194127117350984,0.005655883019831611,0.9924293969561226
2017-09-21,-1,-0.0027039959795906107,-0.0023226169250056506,-0.006825306997780837,0.005655883019831611,0.9941097784995923
2017-09-25,-1,-0.002840778774912991,-0.002427797342482956,-0.00930028149819531,0.005655883019831611,0.9932191721367598
2017-09-27,-1,-0.0026672515667969282,-0.0023367602747221368,-0.00930028149819531,0.005250003759697832,0.9936280999280512
2017-09-29,-1,-0.002492121385056404,-0.002165076766651699,-0.009715164972337459,0.00191344363023974,0.9938211685641039
2017-10-03,-1,-0.003199784911615015,-0.0028061683047575056,-0.009200471483201347,0.005250003759697832,0.9936900799652092
2017-10-05,-1,-0.0027525018332598254,-0.00239879412630076,-0.009715164972337459,0.00191344363023974,0.9926874830879936
2017-10-09,-1,-0.003787985253390607,-0.0032962468950008504,-0.010444798291156337,0.00191344363023974,0.9912815625902113
2017-10-11,-1,-0.0033933405517042265,-0.0029500514400065047,-0.010444798291156337,0.00545973173112243,0.9904442238460932
2017-10-13,-1,-0.0024902836495109726,-0.0021765100309148883,-0.010444798291156337,0.00266458271391077,0.989894567900237
2017-10-17,-1,-0.0021899174772342963,-0.0019455988041157902,-0.010444798291156337,0.008564621869532683,0.9886149067339481
2017-10-19,-1,-0.002269669215093827,-0.0020311624152660867,-0.01185524663093596,0.011559675032924514,0.9866114526873699
2017-10-23,-1,-0.0027084586450006913,-0.002450706657735645,-0.010444798291156337,0.011559675032924514,0.987378545111329
2017-10-25,-1,-0.002652674753507759,-0.002415115912403318,-0.01040613185177882,0.011559675032924514,0.9875733426606471
2017-10-27,-1,-0.0026800365489958173,-0.0024693938093097566,-0.01040613185177882,0.011559675032924514,0.9873945091746021
2017-10-31,-1,-0.0028541879004546,-0.0026219629214910617,-0.009010768323726234,0.015935342918835693,0.9862113006322594
2017-11-02,-1,-0.0021352819502825316,-0.0019777330984684545,-0.0061416805672273745,0.013088362745937766,0.9877539625389592
2017-11-06,-1,-0.003523880797792086,-0.0032352650948546755,-0.0014768875195964135,0.015935342918835693,0.9873910558359817
2017-11-08,-1,-0.0021894091529833003,-0.002073478401515435,-0.002500424938287199,0.013255824771900638,0.9887027558833196
2017-11-10,-1,-0.002033272185573436,-0.001907991619784042,-0.002500424938287199,0.00838464411891038,0.9893948625035112
