JNU-Tangyin/eata/results/Batch4_SP500/Batch4_SP500-REGN.csv
Date,Action,Predicted_Q25,Predicted_Q75,Actual_Q25,Actual_Q75,RL_Reward
2010-12-14,0,0.0,0.002451295059962659,-0.005759898559513131,0.011791333900247645,0.9877951253977441
2010-12-16,0,0.0,0.0,-0.005759898559513131,0.009291371626558112,0.9863214813219352
2010-12-20,1,0.00506186588517496,0.005085453852589585,-0.008662966494702747,0.009291371626558112,0.9825450980317154
2010-12-22,0,0.0,0.0,-0.01604758794368979,0.00873369309105429,0.9832518300728489
2010-12-27,1,0.0010152009563428298,0.0010671961876497391,-0.01604758794368979,0.010646473657078562,0.9830168147281161
2010-12-29,1,0.00250927817616452,0.002742408733716225,-0.01604758794368979,0.01765175121239596,0.9822079202900663
2010-12-31,0,0.0,0.0,-0.01604758794368979,0.01765175121239596,0.9804177256815227
2011-01-04,0,0.0,0.0,-0.008582289266567601,0.01765175121239596,0.9813945148357849
2011-01-06,0,0.0,0.0,-0.009177507067389706,0.012607077513046686,0.9823864765426874
2011-01-10,0,0.0,0.0,-0.0032516499690409288,0.015708809591371813,0.9831572561194634
2011-01-12,0,0.0,0.0,-0.0032516499690409288,0.017931290826380602,0.9803989597832382
2011-01-14,0,0.0,0.0,-0.008762317221729033,0.017931290826380602,0.9783521295215043
2011-01-19,0,0.0,0.0,-0.008762317221729033,0.01592109988994268,0.9810042342360306
2011-01-21,0,0.0,0.0,-0.005511417046630577,0.01592109988994268,0.9822445116009582
2011-01-25,1,0.0003080743720349176,0.000762219666204962,-0.014707328221826103,0.01592109988994268,0.9795157429909679
2011-01-27,1,0.0034159156326445846,0.003526224964605363,-0.014707328221826103,0.01844525976891888,0.9777502618371267
2011-01-31,0,0.0,0.0,-0.014707328221826103,0.01844525976891888,0.9791992110999383
2011-02-02,0,0.0,0.0,-0.014707328221826103,0.01929306451025666,0.9787489563057913
2011-02-04,0,0.0,0.0,-0.014707328221826103,0.01929306451025666,0.9785595468289527
2011-02-08,0,0.0,0.0,-0.014707328221826103,0.027603411505665254,0.9771969994092312
2011-02-10,0,0.0,0.0,-0.015809755636663893,0.02135330730230743,0.9793115496858295
2011-02-14,0,0.0,0.0,-0.014109693484919606,0.01678604736721427,0.9832486118624606
2011-02-16,0,0.0,0.0,-0.011858759584090734,0.015064721469062334,0.9843733052879843
2011-02-18,1,0.005520512440300722,0.0060985852674965545,-0.011858759584090734,0.02135330730230743,0.9834509475402367
2011-02-23,1,0.003168145129695447,0.0034933186342855477,-0.004477697439289095,0.02135330730230743,0.9865687924339006
2011-02-25,0,0.0,0.0,-0.004477697439289095,0.015064721469062334,0.9869914200963779
2011-03-01,0,0.0,0.0,-0.0003235149996777497,0.02135330730230743,0.9855718122672978
2011-03-03,0,0.0,0.0,-0.0003235149996777497,0.02135330730230743,0.985676316795394
2011-03-07,0,0.0,0.0,-0.0003235149996777497,0.02135330730230743,0.9858727385112143
2011-03-09,1,0.006462334199816314,0.007174846560247799,-0.003209707955018224,0.01121906795165396,0.9873922853300762
2011-03-11,0,0.0,0.0,-0.003209707955018224,0.01121906795165396,0.9850629426189607
2011-03-15,0,0.0,0.0,-0.0032649005402552327,0.018845255454233288,0.9834187627135986
2011-03-17,1,0.0037661197295674725,0.004199624208236922,-0.0032649005402552327,0.027960753793231145,0.9828482871270501
2011-03-21,1,0.004248656585325573,0.004700085466907363,-0.0023149164484052194,0.027960753793231145,0.9807031727494336
2011-03-23,1,0.003683723899810328,0.004051102857423965,-0.0026916192332146678,0.031137845144094935,0.9786860301326515
2011-03-25,1,0.004012134045182294,0.004332454973994736,-0.0034623102839670206,0.027960753793231145,0.9803667825364142
2011-03-29,1,0.005955648569437071,0.006521396328046948,-0.0034623102839670206,0.031137845144094935,0.9761229458816668
2011-03-31,1,0.0070106866656785855,0.007604653772524955,-0.021516692123484702,0.031137845144094935,0.9700008120441194
2011-04-04,0,0.0,0.0,-0.024497439523970887,0.040681659506255234,0.9653341272578665
2011-04-06,0,0.0,0.0,-0.025721442364585845,0.040681659506255234,0.9635100226454236
2011-04-08,0,0.0,0.0,-0.020878841498328995,0.04451257404865173,0.9610779678129573
2011-04-12,0,0.0,0.0,-0.018051758186432988,0.04451257404865173,0.9629743189228105
2011-04-14,0,0.0,0.0,-0.018051758186432988,0.04108680597851713,0.9643186832814283
2011-04-18,0,0.0,0.0,-0.018051758186432988,0.036601365779087576,0.9677895108251229
2011-04-20,0,0.0,0.0,-0.015731519389001178,0.03661926656079794,0.9679310565590148
2011-04-25,0,0.0,0.0,-0.02147703518389606,0.03821245874211704,0.9650884397653928
2011-04-27,1,0.01336378526380239,0.014564786777543966,-0.02147703518389606,0.030972226404535633,0.9692059562005831
2011-04-29,1,0.007267029196628604,0.007677794078613373,-0.008453881486932099,0.030972226404535633,0.9768257807863834
2011-05-03,1,0.006848326088966351,0.00717330920695346,-0.008453881486932099,0.029574900861442186,0.9786027672726952
2011-05-05,1,0.0032435416618165455,0.003390528159947507,-0.005342608328386688,0.029574900861442186,0.9805167366431218
2011-05-09,1,0.006631385878043941,0.006921554698783992,-0.008453881486932099,0.024057325376942572,0.9826674084229632
2011-05-11,1,0.006848367109089713,0.007253473970193622,-0.01731339057262224,0.024057325376942572,0.980474049834177
2011-05-13,1,0.007531252254727352,0.00808040177506663,-0.018415770489254107,0.024057325376942572,0.9782387373812897
2011-05-17,1,0.007681514822728914,0.00823308246222866,-0.018415770489254107,0.029574900861442186,0.9759041361685105
2011-05-19,1,0.006809740409439504,0.00732139949713805,-0.022636482205159156,0.024057325376942572,0.9746883815985531
2011-05-23,1,0.007428612972853953,0.007957309111459449,-0.019602802495521245,0.020864834138878584,0.9759886258404274
2011-05-25,1,0.008359240607934033,0.008957071095437955,-0.019602802495521245,0.010894259612357918,0.9767354046355423
2011-05-27,1,0.007922491954716726,0.00847356588899851,-0.019602802495521245,0.010894259612357918,0.9767908111248284
2011-06-01,1,0.008096721046459029,0.008720945324189964,-0.01783750068012028,0.012002805029579122,0.9783357625428526
2011-06-03,1,0.006915127421350847,0.007278759667730481,-0.01783750068012028,0.01860768761126809,0.9792664357509073
2011-06-07,1,0.006211975555350484,0.006423777450942964,-0.015606309683274037,0.01860768761126809,0.9806110836039036
2011-06-09,1,0.005360980758540674,0.005566018023863559,-0.012680481782936605,0.019078024299877316,0.9816590950630487
2011-06-13,1,0.0025226699180952846,0.0027813205916493297,-0.009090867396959159,0.019078024299877316,0.9814824069311173
2011-06-15,1,0.004589248179703341,0.004626563618207839,-0.011097717139836797,0.011798925022741994,0.9829179802063687
2011-06-17,1,0.0011002578954364863,0.0015404082304754907,-0.008413192010314097,0.011798925022741994,0.9865962103023691
2011-06-21,1,0.0007239023366939201,0.0011602413993154225,-0.008413192010314097,0.018495712634823053,0.9841055908946713
2011-06-23,0,-0.0001780129141424542,0.00043824784323028823,-0.009797391790832272,0.018495712634823053,0.9838931071608689
2011-06-27,0,-0.00048660190260468297,0.0001276954329456337,-0.013745408945437281,0.018495712634823053,0.9810121819216472
2011-06-29,1,0.0006914338689976284,0.0011849942467016025,-0.016428984294264634,0.007417964464015949,0.9821331951013659
2011-07-01,1,0.0021700750181112066,0.0024719093827462735,-0.016428984294264634,0.001597532774577341,0.9823434497705648
2011-07-06,1,0.0035518746956208058,0.0036126328627241583,-0.016428984294264634,-6.719932034092836e-05,0.9824587422896134
2011-07-08,1,0.0036303471634262447,0.0036434727740291386,-0.017479278197177137,-0.004970688208994822,0.9789794782096489
2011-07-12,1,0.0011520243862139885,0.0014309152130857579,-0.017479278197177137,-6.719932034092836e-05,0.9773887763623537
2011-07-14,0,-0.00017453263630851285,0.00028874866215897817,-0.020210153215394076,0.001597532774577341,0.9747933171222165
2011-07-18,-1,-0.0026593502570647107,-0.0017063570798800704,-0.020210153215394076,0.021181454436276684,0.9688625819510328
2011-07-20,1,0.00014855246067930605,0.0006847331012538593,-0.024254755503737548,0.0026956851164703804,0.9696217549539036
2011-07-22,-1,-0.002310942648969066,-0.0013977146338613432,-0.027509649795930482,0.011625799672363414,0.9680454232132804
2011-07-26,-1,-0.005487359928796785,-0.004255488074052914,-0.020210153215394076,0.03252406179252931,0.9674727084163242
2011-07-28,-1,-0.006436674835281863,-0.005108235447648402,-0.020210153215394076,0.03252406179252931,0.9679478996106113
2011-08-01,-1,-0.005754669804257919,-0.004613295191035917,-0.020210153215394076,0.05379174301450795,0.9656816282679116
2011-08-03,-1,-0.006966661303616179,-0.005601411142538705,-0.020210153215394076,0.05379174301450795,0.9651536900535818
2011-08-05,-1,-0.01193769489927525,-0.009970226492145705,-0.01408412814333346,0.06632762978067103,0.9636460658515121
2011-08-09,-1,-0.010812176178090657,-0.008965573638210881,-0.012353755820498951,0.059677508009202164,0.9635854146358293
2011-08-11,-1,-0.008703787009262675,-0.007153682828049586,-0.012353755820498951,0.052311276430162965,0.9633789822138014
2011-08-15,-1,-0.0029383076768632528,-0.0020117203686524834,-0.012353755820498951,0.026414077631758445,0.9708914164684808
2011-08-17,-1,-0.004143546007637196,-0.003156180087964895,-0.013544639617808074,0.026414077631758445,0.9700224806235649
2011-08-19,-1,-0.003955093573271627,-0.003088461951831082,-0.013544639617808074,0.04234656703068147,0.9682250496500963
2011-08-23,-1,-0.0009142644675425012,-0.00044165338694000626,-0.009777614435174347,0.04234656703068147,0.9679511817005317
2011-08-25,-1,-0.0020023951440553394,-0.0014230623530013017,-0.01241087693478554,0.04234656703068147,0.9661990009512532
2011-08-29,-1,-0.00048547607578531366,-4.443976743137069e-05,-0.024767179317079065,0.02066693018886642,0.9667543802284593
2011-08-31,-1,-0.0027670938348826495,-0.0019615567336086956,-0.029244320653102316,0.019601297168103528,0.9658750822168781
2011-09-02,1,0.0007574082107074088,0.0011568838973053607,-0.03005155313029885,0.0042568911313537695,0.9659101237695736
2011-09-07,1,0.0053740210129518805,0.0056075407431359775,-0.03005155313029885,0.0042568911313537695,0.9652161569575811
2011-09-09,1,0.00328903758825341,0.003418416753958047,-0.029244320653102316,0.008110510374015601,0.9654149981599927
2011-09-13,1,0.003670003387006151,0.003898043420339014,-0.029244320653102316,0.03080401648312762,0.9622410711536352
2011-09-15,1,0.0013049549070327441,0.0013840742825018551,-0.029061367213388756,0.034561586201601935,0.9632786255320371
2011-09-19,1,0.005805892896474308,0.0066602323757125395,-0.027070350751665268,0.029575739394558917,0.9659632454425999
2011-09-21,1,0.005491481362210023,0.0059984994495118045,-0.029061367213388756,0.01505574323774249,0.9668115082404846
2011-09-23,1,0.00430285822837335,0.004628600803285245,-0.027070350751665268,0.02372826968610695,0.9692067041703218
2011-09-27,1,0.0006141583440127953,0.0009078946333170801,-0.027070350751665268,0.02372826968610695,0.9682101975453686
2011-09-29,1,0.0007781288440864247,0.0008471403433935123,-0.025354384752201923,0.02372826968610695,0.9690562274296601
2011-10-03,-1,-0.002852978600418412,-0.0023890767044939505,-0.0219167770881646,0.02372826968610695,0.9722356534625594
2011-10-05,1,0.00012485684149292256,0.00021762177625648442,-0.0219167770881646,0.01239661252915595,0.9739851837051899
2011-10-07,1,0.0024651772484329247,0.0026791613123372375,-0.021109651059221253,0.01239661252915595,0.9772623998600037
2011-10-11,1,0.0034173353344302297,0.0037919300077821653,-0.021109651059221253,0.010969952672283623,0.9788382745673219
2011-10-13,1,0.003983802685337088,0.004456660206809195,-0.018624224603929908,0.010277835068522083,0.9797498828607714
2011-10-17,1,0.004633429613843571,0.005293043877243376,-0.016549312671343894,0.010614535475504876,0.9794653147086183
2011-10-19,1,0.0022729067651637964,0.00261644593414635,-0.019961479126739845,0.010614535475504876,0.9805795767603376
2011-10-21,1,0.0032788835605855457,0.0037254388373259874,-0.0219167770881646,0.005218888077874282,0.9800021498936009
2011-10-25,1,0.00027531665326483893,0.00033058532103275403,-0.016035935398925713,0.011031094111428818,0.9788060191474952
2011-10-27,-1,-3.49873664900286e-05,-5.742280711212318e-06,-0.02053090017755635,0.009176245592884191,0.9778502548491105
2011-10-31,-1,-0.0014867667721002505,-0.0012655581522706592,-0.024288606248227332,0.015241335292268943,0.9746818054267593
2011-11-02,-1,-0.0020436776936791565,-0.001696698558517458,-0.024288606248227332,0.022035149672771436,0.9718896995442713
2011-11-04,-1,-0.0007115144900647124,-0.0005813549384605468,-0.027755452477941856,0.014978020931986278,0.9696373880730386
2011-11-08,-1,-0.003868926528104654,-0.003253162726160997,-0.026205150819719396,0.014978020931986278,0.9708599498544616
2011-11-10,-1,-0.005014210252294229,-0.0042472587788904784,-0.027755452477941856,0.022883491176611752,0.9685836381610378
2011-11-14,-1,-0.004495701119038382,-0.0037987264406088303,-0.027755452477941856,0.017835036250305563,0.9686903017644564
2011-11-16,0,0.0,0.0,-0.026780526460021496,0.017835036250305563,0.9697826791671778
2011-11-18,0,0.0,0.0,-0.026780526460021496,0.02302242959049908,0.9702304333718453
2011-11-22,0,0.0,0.0,-0.026780526460021496,0.01502433373661539,0.9742938172731552
2011-11-25,0,0.0,0.0,-0.023866720736456598,0.022618027320524058,0.9749776829695638
2011-11-29,0,0.0,0.0,-0.014185634222820034,0.01502433373661539,0.9788951534340719
2011-12-01,0,0.0,0.0,-0.017329948630539452,0.007260124298598404,0.9810917551763673
2011-12-05,1,0.0021998040370501807,0.0022787840219821633,-0.01112877879331351,0.018583510803494036,0.9834922381433361
2011-12-07,-1,-0.00442661545414904,-0.0037408473160726458,-0.00802826080484262,0.026066376062726517,0.97760907826273
2011-12-09,-1,-0.0027664749002858924,-0.0023868139661896524,-0.006748762532260216,0.026066376062726517,0.9763664499192061
2011-12-13,0,0.0,0.0,0.0008557111457121352,0.030977310653947085,0.9760765502687181
2011-12-15,0,0.0,0.0,-0.005505634267501747,0.030977310653947085,0.9754087205177756
2011-12-19,0,0.0,0.0,-0.005505634267501747,0.030977310653947085,0.9754761322998414
2011-12-21,-1,-0.002714445587576465,-0.002471445091350285,-0.005505634267501747,0.026066376062726517,0.9757688690535928
2011-12-23,0,0.0,0.0,0.000928502972281771,0.028413693194013306,0.97586347513089
2011-12-28,0,0.0,0.0,0.000928502972281771,0.04040692139944014,0.9736826833117221
2011-12-30,0,0.0,0.0,0.007027193503900021,0.04040692139944014,0.9723237944592946
2012-01-04,0,0.0,0.0,0.007027193503900021,0.04040692139944014,0.9722130960681904
2012-01-06,0,0.0,0.0,0.007027193503900021,0.039091061964021755,0.9755185812284385
2012-01-10,0,0.0,0.0,0.007027193503900021,0.030696280502875904,0.9790179821294221
2012-01-12,0,0.0,0.0,0.00012901970905127664,0.024618287867811436,0.9803340570070145
2012-01-17,0,0.0,0.0,0.00012901970905127664,0.030696280502875904,0.974626687003812
2012-01-19,0,0.0,0.0,-0.01281459029438683,0.030696280502875904,0.9738409232539018
2012-01-23,1,0.004745204910381846,0.0054411498994813776,-0.013613443609734885,0.030696280502875904,0.973136052992315
2012-01-25,0,0.0,0.0,-0.013613443609734885,0.030298174899381348,0.9725073708992462
2012-01-27,0,0.0,0.0,-0.013613443609734885,0.02674187908230033,0.9739484482609602
2012-01-31,0,0.0,0.0,-0.013613443609734885,0.024227902570976713,0.9763467326622377
2012-02-02,0,0.0,0.0,-0.013613443609734885,0.024227902570976713,0.9766914588005995
2012-02-06,0,0.0,0.0,-0.01702765574228606,0.014526385135707531,0.9777150111044437
2012-02-08,0,0.0,0.0,-0.01702765574228606,0.011720422804071715,0.9783088326918902
2012-02-10,0,0.0,0.0,-0.01596931686694581,0.01581001557606926,0.9776633186509948
2012-02-14,1,0.009741169298719897,0.017789392417985807,-0.012282751042596508,0.013579831967079355,0.9856992644814595
2012-02-16,0,0.0,0.0,-0.004538446729445525,0.01966094295849589,0.9824881438820623
2012-02-21,0,0.0,0.0,-0.0016291819487343486,0.01966094295849589,0.9850636054462476
2012-02-23,0,0.0,0.0,-0.0016291819487343486,0.013579831967079355,0.986404274988257
2012-02-27,0,0.0,0.0,-0.0015237246491784794,0.011720422804071715,0.9869287359416229
2012-02-29,0,0.0,0.0,-0.0005941407300781645,0.011720422804071715,0.9859040479069131
2012-03-02,1,0.013534413567785524,0.014924611274943243,-0.0015275552174193537,0.010574049316244196,0.9850575446449994
2012-03-06,0,0.0,0.0,9.296802448684541e-07,0.017311305727174698,0.9851121917859126
2012-03-08,0,0.0,0.0,-0.0012944536243302495,0.017311305727174698,0.9845314672846512
2012-03-12,1,0.010505615323615594,0.011661751039169044,-0.012175192682300408,0.012859449318198496,0.9837762445210392
2012-03-14,0,0.0,0.0,-0.005928978060990974,0.014139939481991734,0.982744684675306
2012-03-16,1,0.011859340891154535,0.013400523167874809,-0.005646641330242843,0.011815599861174317,0.9842954668589027
2012-03-20,1,0.010811536161267878,0.012035506007664629,-0.005646641330242843,0.011815599861174317,0.9849365826337007
2012-03-22,1,0.01052364769334812,0.01166515094571,-0.005646641330242843,0.013649937576649769,0.9849613879223065
2012-03-26,1,0.01015046578534906,0.01117759231925479,-0.014301219582684767,0.013649937576649769,0.982773281415039
2012-03-28,1,0.009295714951040894,0.01018235783578406,-0.005646641330242843,0.020628101649843085,0.980276295957609
2012-03-30,0,0.0,0.0,-0.007117430369490538,0.01915809593381719,0.9785893529290349
2012-04-03,0,0.0,0.0,-0.009557830689753641,0.013649937576649769,0.9804160385849926
2012-04-05,1,0.004260749310103957,0.00447839835140244,-0.018739499140681414,0.013649937576649769,0.9798013781467676
2012-04-10,1,0.0020873509725341023,0.002145996932570362,-0.006991307420108953,0.013649937576649769,0.9819376831956689
2012-04-12,1,0.002219935319818298,0.00237911051496669,-0.009257026435139112,0.01099148705526184,0.9830144193017355
2012-04-16,1,0.0011497441657870062,0.0014826290065530295,-0.013387970977962077,0.013912910099865727,0.9814311138101612
2012-04-18,0,0.0,0.0,-0.013387970977962077,0.013912910099865727,0.9815506380660953
2012-04-20,0,0.0,0.0,-0.020285091518253084,0.01099148705526184,0.978360263204782
2012-04-24,0,0.0,0.0,-0.018575566080476173,0.015535986182210746,0.9774138277977151
2012-04-26,0,0.0,0.0,-0.018575566080476173,0.012166332353055273,0.9821664173293254
2012-04-30,1,0.0030102293005504644,0.0033199794413226796,-0.013387970977962077,0.017442252201727414,0.9818461958912115
2012-05-02,1,0.0016832910831618346,0.0022215852305986967,-0.013387970977962077,0.014318680987510426,0.9831235895409153
2012-05-04,0,-0.0007655226081433966,9.994675518411886e-05,-0.009257026435139112,0.016397778752884548,0.9808124358834263
2012-05-08,-1,-0.001982596537602645,-0.0008961676371230013,-0.005827689011496751,0.01984774316973907,0.9785865447023319
2012-05-10,-1,-0.0028062451293986677,-0.001582106715371422,-0.00753003511444968,0.01984774316973907,0.9778751316887715
2012-05-14,-1,-0.0027062426943412986,-0.0014973597146996157,-0.008190957162027447,0.017442252201727414,0.9784880067876458
2012-05-16,0,0.0,0.0,-0.023428069585554566,0.017442252201727414,0.9734667261831709
2012-05-18,0,0.0,0.0,-0.0035908633853033952,0.02519400522964411,0.9749427915840806
2012-05-22,0,0.0,0.0,-0.008241450826583055,0.020397563905097085,0.9766338476310436
2012-05-24,0,0.0,0.0,-0.008241450826583055,0.020397563905097085,0.9772541864773537
2012-05-29,-1,-0.003148142564864442,-0.0021921390638828435,-0.010842782814818392,0.01685917827892814,0.9783111213160911
2012-05-31,0,0.0,0.0,-0.020725277339232975,0.01685917827892814,0.9757089477128744
2012-06-04,0,0.0,0.0,-0.017765533868668734,0.02519400522964411,0.9763371586762071
2012-06-06,0,0.0,0.0,-0.017765533868668734,0.01425947129484573,0.9777823253480942
2012-06-08,-1,-0.002702873035907138,-0.0017637307989026335,-0.017765533868668734,0.01425947129484573,0.9788393846659578
2012-06-12,0,0.0,0.0,-0.017765533868668734,0.01425947129484573,0.9775929876930798
2012-06-14,0,0.0,0.0,-0.013527589003617625,0.020758399214379157,0.980750384025748
2012-06-18,0,0.0,0.0,-0.013527589003617625,0.01425947129484573,0.9815575405166848
2012-06-20,0,0.0,0.0,-0.017765533868668734,0.016434942012278686,0.9802218428049527
2012-06-22,0,0.0,0.0,-0.017765533868668734,0.016434942012278686,0.9802249521709935
2012-06-26,0,0.0,0.0,-0.01446823458959471,0.018689015818867227,0.9785950356911606
2012-06-28,0,0.0,0.0,-0.009746150497617873,0.028889990224765308,0.977889591182931
2012-07-02,0,0.0,0.0,-0.010311319055768991,0.01347773133678877,0.98138909846076
2012-07-05,0,0.0,0.0,-0.009746150497617873,0.016329124014184307,0.9814888456650881
2012-07-09,-1,-0.001375607884081595,-0.000946489130729283,-0.006703051329952361,0.016329124014184307,0.9826776631147324
2012-07-11,-1,-0.0036284715649578213,-0.0029629009505828165,-0.0003816482916825382,0.016329124014184307,0.9823185058245322
2012-07-13,0,0.0,0.0,-0.006299462361576821,0.014990049282389268,0.9847666267962653
2012-07-17,-1,-0.001726139317079765,-0.0012384794141934296,-0.007442274389516354,0.010659190642244989,0.9857798760562321
2012-07-19,-1,-0.0018318115309589496,-0.0013670860878992888,-0.006299462361576821,0.009982976362687718,0.987091625433818
2012-07-23,0,0.0,0.0,-0.007442274389516354,0.009982976362687718,0.9872512549110419
2012-07-25,0,0.0,0.0,-0.007890395986118013,0.009982976362687718,0.9885206329583569
2012-07-27,0,0.0,0.0,-0.007890395986118013,0.012740355519773304,0.9893261462260046
2012-07-31,0,0.0,0.0,-0.005324465740685177,0.012740355519773304,0.9895681448129653
2012-08-02,0,0.0,0.0,-0.007476344084541051,0.009614420410244016,0.9902597017786843
2012-08-06,0,0.0,0.0,-0.007476344084541051,0.014381208894870021,0.9890579647963614
2012-08-08,0,0.0,0.0,-0.007476344084541051,0.014733639194499468,0.9886266300980023
2012-08-10,-1,-0.0009597967143120477,-0.000850894848187063,-0.005693585335533944,0.014733639194499468,0.9886156961485365
2012-08-14,-1,-0.0007564350891915907,-0.0005887734390222317,-0.009137067652114153,0.014733639194499468,0.9880154462938168
2012-08-16,1,3.362976389919637e-05,0.00034293070005661725,-0.009137067652114153,0.0164980157532318,0.9875390033752894
2012-08-20,-1,-0.0006245382848960434,-0.000464064036244729,-0.009137067652114153,0.0164980157532318,0.9871670727474238
2012-08-22,0,-0.00010415680237411593,0.00013605491406570923,-0.008112898817591481,0.014733639194499468,0.9890068261994361
2012-08-24,1,0.0019879582647622006,0.0026139766841566945,-0.008112898817591481,0.008688480778840303,0.9903597512706193
2012-08-28,0,0.0,0.0,-0.009137067652114153,0.009679911648055954,0.989354089185942
2012-08-30,0,0.0,0.0,-0.008460646394963873,0.013135664142923206,0.9865126743108199
2012-09-04,0,0.0,0.0,-0.008460646394963873,0.011837531167877289,0.9866753124530041
2012-09-06,0,0.0,0.0,-0.008460646394963873,0.011837531167877289,0.9865558719723766
2012-09-10,0,0.0,0.0,-0.011200023563502545,0.011837531167877289,0.9854774504857818
2012-09-12,0,0.0,0.0,-0.009480359574235086,0.011837531167877289,0.9860226434677877
2012-09-14,1,0.005278002597177917,0.006069620898281423,-0.015102894253806778,0.010124309807347031,0.9858374737492538
2012-09-18,1,0.004271948431357152,0.00494936438144231,-0.009480359574235086,0.013781986952665231,0.9854574868004473
2012-09-20,1,0.0034167246466073435,0.0039237144657351414,-0.015202362849186333,0.017736416976397086,0.9830289103440942
2012-09-24,1,0.0031323902406717014,0.0036386125911392875,-0.01608089234952585,0.020859803358045152,0.9818213130394355
2012-09-26,1,0.0018700177892391552,0.0021136863795767234,-0.01608089234952585,0.02283933986349263,0.9770576352693806
2012-09-28,1,0.003928409852826688,0.004434123943940152,-0.019835632274540903,0.020859803358045152,0.9759998996245788
2012-10-02,1,0.00465116622822166,0.005231157577750333,-0.02187838293772943,0.02283933986349263,0.9733417065561221
2012-10-04,1,0.00542651650572923,0.0061082868256120155,-0.02187838293772943,0.02283933986349263,0.9726677979615345
2012-10-08,1,0.0037717780218399586,0.004218725711125463,-0.0256601881202884,0.02283933986349263,0.9725038244023887
2012-10-10,1,0.002034517514562032,0.0020923245843823177,-0.0256601881202884,0.023016816126810627,0.9723859511527013
2012-10-12,1,0.002325498179485839,0.0025266559712005055,-0.0256601881202884,0.025859371313871667,0.9714169305942213
2012-10-16,1,0.004454577720374784,0.004992439517020472,-0.03545262781607523,0.023930855574411772,0.9711102591705857
2012-10-18,1,0.0062380515827738054,0.007075978037810982,-0.03545262781607523,0.023930855574411772,0.9688912750707918
2012-10-22,1,0.006649026803797907,0.007527996671126707,-0.03545262781607523,0.023930855574411772,0.9675711717702303
2012-10-24,1,0.004958769247712035,0.005425637406354492,-0.023313112527450275,0.022053163478463207,0.9723611457380557
2012-10-26,1,0.0027519431015972885,0.0030309178237454514,-0.005492109630509065,0.022053163478463207,0.9764142249609343
2012-11-01,1,0.0020459588051821697,0.0021638181351629456,-0.005492109630509065,0.022053163478463207,0.9735868762135227
2012-11-05,1,0.0010808685236492427,0.0010973834803237887,-0.003715229815966629,0.022656996647568952,0.9737211518042235
2012-11-07,-1,-0.003892566911390398,-0.003055734820509926,-0.003715229815966629,0.023855329167011625,0.9726356274541555
2012-11-09,-1,-0.0024987359212559,-0.0019028888147837085,-0.003963242367110288,0.023855329167011625,0.9730568100652279
2012-11-13,0,0.0,0.0,-0.005949359677142716,0.02171665043932729,0.9756630402220267
2012-11-15,0,0.0,0.0,-0.005949359677142716,0.02171665043932729,0.9762541945941771
2012-11-19,0,0.0,0.0,-0.005949359677142716,0.01256879434342657,0.9816331774425214
2012-11-21,0,0.0,0.0,-0.011197870204983683,0.004998039139821142,0.9838990040603586
2012-11-26,0,0.0,0.0,-0.0103375073845917,0.00371269624712292,0.9844861974062235
2012-11-28,1,0.004892210431594529,0.0050791673074326,-0.016375881011557715,0.00371269624712292,0.9816550122781358
2012-11-30,0,0.0,0.0,-0.0103375073845917,0.00371269624712292,0.9887661356939058
2012-12-04,0,0.0,0.0,-0.0103375073845917,0.00371269624712292,0.9868919284192417
2012-12-06,0,0.0,0.0,-0.007582916895360465,0.00371269624712292,0.988511659341761
2012-12-10,0,0.0,0.0,-0.0103375073845917,0.00371269624712292,0.98634633031848
2012-12-12,1,0.0053293654660812005,0.005500172432377742,-0.016375881011557715,0.00371269624712292,0.9838940911407074
2012-12-14,0,0.0,0.0,-0.016375881011557715,0.0035177274877710336,0.9855351442240968
2012-12-18,0,0.0,0.0,-0.01899610082057695,0.0024388394102045348,0.9843265328384457
2012-12-20,1,0.0024750422160811757,0.002540086021320159,-0.01154191504172683,0.004792915449887797,0.9832128268063435
2012-12-24,0,0.0,0.0,-0.017235246311494156,0.0066853279803527395,0.9829391155843775
2012-12-27,0,0.0,0.0,-0.01798717783923765,0.007820318504378015,0.9827723118076451
2012-12-31,0,0.0,0.0,-0.01798717783923765,0.007820318504378015,0.9826900320465568
2013-01-03,0,0.0,0.0,-0.01798717783923765,0.0066043899924028635,0.985165177749421
2013-01-07,0,0.0,0.0,-0.01798717783923765,0.0030696435870261824,0.9848253149030772
2013-01-09,0,0.0,0.0,-0.01798717783923765,0.0002535703970163543,0.9865423039845771
2013-01-11,1,0.00222965007497597,0.0022868120711699897,-0.014480646155323249,0.0066043899924028635,0.9850572962277641
2013-01-15,1,0.00019810429964360761,0.0004706402194043579,-0.012952173044985308,0.008685807608705385,0.9859505597160708
2013-01-17,-1,-0.0006664616680473758,-0.00031456524179035103,-0.012952173044985308,0.008685807608705385,0.9861421957535008
2013-01-22,1,0.000855500177828306,0.0009468261239034437,-0.014480646155323249,0.0066043899924028635,0.9861078716918953
2013-01-24,1,0.00041183586507273306,0.0005386455697039534,-0.012952173044985308,0.0069722282529684435,0.9868766810954575
2013-01-28,-1,-0.0005654306684909623,-0.0003045125826320439,-0.012728884683491658,0.007918655345245692,0.9875844965372155
2013-01-30,1,0.0011187563740800023,0.0011212242710847162,-0.012728884683491658,0.011839810909761838,0.9867256671080411
2013-02-01,1,0.0008395078227397453,0.0008461753446870797,-0.012728884683491658,0.012925356686315387,0.9858322382697169
2013-02-05,-1,-0.00036173636054844763,-0.00018323345107806974,-0.012535094654405658,0.012925356686315387,0.9861367530298101
2013-02-07,-1,-0.0026717085757427474,-0.002158800255345433,-0.007916309050408382,0.012925356686315387,0.9863556714324221
2013-02-11,0,0.0,0.0,-0.008406758313805055,0.011840675233943729,0.9881785914372448
2013-02-13,0,0.0,0.0,-0.006562803971807101,0.00791894345330632,0.9889840109202905
2013-02-15,0,0.0,0.0,-0.006486516333842939,0.00791894345330632,0.9900255620106108
2013-02-20,0,0.0,0.0,-0.0017088372460744318,0.011982054937823146,0.990423070957804
2013-02-22,0,0.0,0.0,-0.0055231557007958555,0.011982054937823146,0.989554379643402
2013-02-26,0,0.0,0.0,-0.005712068001249467,0.007565468813048327,0.9897915148005579
2013-02-28,0,0.0,0.0,-0.005712068001249467,0.006436879928333127,0.9894863251460666
2013-03-04,0,0.0,0.0,-0.005712068001249467,0.008140474663634049,0.9887702806259141
2013-03-06,0,0.0,0.0,-0.0078068099281592244,0.008249278114459106,0.988106798489207
2013-03-08,-1,-0.0026682300886734975,-0.00197890095622322,-0.005712068001249467,0.012255334956240026,0.9879271028105294
2013-03-12,-1,-0.003403060575740435,-0.002611033338450333,-0.0032117171101283364,0.01451225840666723,0.9846123840633717
2013-03-14,-1,-0.002914398644756332,-0.002250451425975968,-0.0010244075305845333,0.03083970728060129,0.9814473637097453
2013-03-18,-1,-0.003116782044080106,-0.002396471007857065,0.0003522995391519887,0.03311121957011416,0.9785418934516565
2013-03-20,-1,-0.0017828994034176002,-0.0012554213674666693,-0.012642109298546655,0.03311121957011416,0.9787194306757929
2013-03-22,-1,-0.001985403357047706,-0.0015727407724691952,-0.005017083868402815,0.03311121957011416,0.9781980346106816
2013-03-26,-1,-0.004407963562741201,-0.0034487839729649317,-0.005986674099595528,0.03311121957011416,0.9776389391609721
2013-03-28,-1,-0.003069706946905806,-0.0022530632028781718,-0.005986674099595528,0.030802725781655313,0.9785792521120763
2013-04-02,-1,-0.001656048437835839,-0.000984858966629204,-0.006497380400750236,0.028760700075733135,0.9813228464992064
2013-04-04,-1,-0.003387953469012777,-0.002416829022000187,-0.004660163248319344,0.03591015863056091,0.9748585838553956
2013-04-08,-1,-0.0019123648784575222,-0.001171824290739689,-0.006497380400750236,0.0361820789850633,0.9723649913104657
2013-04-10,1,0.001348601205667612,0.0016330166227527688,-0.006497380400750236,0.03591015863056091,0.9751628982029772
2013-04-12,1,0.0021173316395656934,0.0024028165841266757,-0.007709406331526258,0.031048701126056292,0.9759446325734595
2013-04-16,1,0.005292316712111979,0.005683088399977368,-0.005574878193066059,0.028760700075733135,0.9778630306654346
2013-04-18,1,0.0049182852153726595,0.005453698715530929,-0.005574878193066059,0.028760700075733135,0.9770712439872782
2013-04-22,1,0.005764412325519585,0.006458851049068733,-0.007709406331526258,0.02649920459793689,0.9771661998695798
2013-04-24,1,0.004946063797134767,0.005534529989675373,-0.0082084934064369,0.02649920459793689,0.977325938372986
2013-04-26,1,0.006023009306782307,0.006805207700166984,-0.013098520902054276,0.01350499652732048,0.9759434447429318
2013-04-30,1,0.007112880971723943,0.008068017582569916,-0.014187309942139313,0.01350499652732048,0.9756326401628919
2013-05-02,1,0.013658596653282973,0.015456670490449523,-0.01562813648386367,0.008911897439518012,0.9756203620309803
2013-05-06,1,0.01461842078120124,0.01658049689258444,-0.019423639815220817,0.008304759961545546,0.975644358351631
2013-05-08,1,0.014142181495315527,0.01599404283122127,-0.019423639815220817,0.008911897439518012,0.9720270695188707
2013-05-10,1,0.011075876675626116,0.012738629726638768,-0.019606977593198877,0.008911897439518012,0.9743124673426153
2013-05-14,1,0.014678191348441566,0.01662734512265823,-0.025207808854025775,0.005597805208023507,0.9686071445378808
2013-05-16,1,0.01175261695755854,0.01314503722858357,-0.01795257744122704,0.008592834792170982,0.973548597571533
2013-05-20,1,0.01103652618803825,0.012356490505100402,-0.01795257744122704,0.008776562026028011,0.9725113927083353
2013-05-22,1,0.009089791804071708,0.010140648660564931,-0.025207808854025775,0.0055526934035268405,0.9692082504274929
2013-05-24,1,0.007653784378715044,0.008534978820558503,-0.02014373947853902,0.00978713656435452,0.9714939136604017
2013-05-29,1,0.007903793999619498,0.008798423959885445,-0.02014373947853902,0.014640342405983393,0.9712463215650351
2013-05-31,1,0.0067714171248044915,0.007536024716886138,-0.02014373947853902,0.015413168543779705,0.9710866081217272
2013-06-04,1,0.004295964539071658,0.004813844556233172,-0.01831483584765181,0.021699963629998008,0.9727669598304447
2013-06-06,1,0.007630792962076538,0.008533651474562922,-0.01831483584765181,0.015413168543779705,0.9776398188887856
2013-06-10,1,0.006378219524308488,0.007065947177535023,-0.018914258879549208,0.015976589881844288,0.9772363229013712
2013-06-12,1,0.0032191588770375743,0.0034061946536699693,-0.01807123130036018,0.023914535832216845,0.9783737492873176
2013-06-14,1,0.00456684378287088,0.004922923978052411,-0.01807123130036018,0.026647681761023796,0.9759618636512201
2013-06-18,1,0.0057616707603443925,0.006168410074366921,-0.018914258879549208,0.025596123046539777,0.976723016995785
2013-06-20,1,0.0015730936162930706,0.0017294815612279755,-0.00012130440635336852,0.02633927098359965,0.9788413503464597
2013-06-24,1,0.0019584059050937637,0.0020270559685557936,-0.00012130440635336852,0.02633927098359965,0.978313592574911
2013-06-26,1,0.0033157872958899104,0.0033721099803788175,-0.003038177103477573,0.025596123046539777,0.9803930115359148
2013-06-28,1,0.0014726633838854975,0.0016796374619472863,-0.0006619224580913339,0.024023198482464515,0.9830161863580668
2013-07-02,1,0.0010299792107918097,0.0013465360681114394,-0.003038177103477573,0.018934096707367648,0.982744002095177
2013-07-05,1,0.0009543253832367839,0.0012958126538506981,-0.008974479488512896,0.02633927098359965,0.9806418349768415
2013-07-09,1,0.0012321569919767172,0.001536677242222082,-0.008974479488512896,0.018934096707367648,0.9797116678795421
2013-07-11,1,0.0028450137474738363,0.0030603355848561418,-0.008974479488512896,0.012691915066411695,0.9811412191860766
2013-07-15,1,0.004263456646270782,0.004402764102553479,-0.013943171045531728,0.006711313929928057,0.9827441353890691
2013-07-17,1,0.004089513022237249,0.00425005495334435,-0.012872626613239322,0.001260333673482185,0.9838003623421859
2013-07-19,1,0.004270712751109332,0.004417534949544299,-0.013943171045531728,-0.0002892081133632814,0.9829022952938324
2013-07-23,1,0.002925720664841402,0.003201306187206771,-0.013497555361663319,-0.0002892081133632814,0.9840194147764447
2013-07-25,1,0.003049537027784266,0.0032665669604999784,-0.013497555361663319,0.001260333673482185,0.983125617266364
2013-07-29,1,0.0027708035925748395,0.0030237411749033656,-0.013497555361663319,0.008891025216492468,0.9822567489628728
2013-07-31,1,0.0020818529185960403,0.002450572044525021,-0.014862456504069381,0.008816443400423655,0.9820506054585939
2013-08-02,1,0.0018280980848134048,0.0022551555231522654,-0.01317905509941854,0.003153548958873217,0.9842924284855414
2013-08-06,-1,-0.0012271686132807394,-0.0004207886359363089,-0.012301223342126796,0.01758766993039128,0.9836062770582426
2013-08-08,-1,-0.002195184235863845,-0.0012351924718252277,-0.012301223342126796,0.01758766993039128,0.9838151011493265
2013-08-12,-1,-0.0031050583132292285,-0.0020711987010140964,-0.007823922127658242,0.022278249679789374,0.9830542990684843
2013-08-14,-1,-0.00485079842675307,-0.0035712314601302436,-0.006845234875268993,0.022278249679789374,0.9827943297131367
2013-08-16,-1,-0.0072534487718373016,-0.005650845478507117,-0.003983868921229598,0.02506168018251404,0.9789041558020085
2013-08-20,-1,-0.00631098105735866,-0.004883218548788908,-0.0014292164291146783,0.0279665397993112,0.9782736179599049
2013-08-22,-1,-0.005076769200363334,-0.003857129584426511,-0.004290767059850383,0.0279665397993112,0.9796589553683878
2013-08-26,-1,-0.00437947211925565,-0.0032284051183801414,-0.005576205565501511,0.020853716524843014,0.9812132867304453
2013-08-28,-1,-0.004560996504529055,-0.0034051430331347803,-0.005576205565501511,0.0346117887999519,0.9804186946888034
2013-08-30,-1,-0.00371247107161141,-0.0027678997712739027,-0.0046530623580310505,0.0346117887999519,0.9794299382354684
2013-09-04,1,0.0011043129397391629,0.0013783644631894026,-0.007334424530534264,0.017260030322635584,0.9841427681543193
2013-09-06,1,0.0007174867251679857,0.001023137803255741,-0.009451064433345965,0.01833256251192335,0.9821076708106716
2013-09-10,1,0.00037746299649312246,0.0008316569008591835,-0.01299321821971039,0.015496953128557672,0.9805027029261242
2013-09-12,1,0.0003832794187819456,0.0007820413794500003,-0.017703029351670903,0.01833256251192335,0.9779245408985809
2013-09-16,1,0.002344852171835661,0.0025453617900518893,-0.017703029351670903,0.01701720812717967,0.9795056627784925
2013-09-18,1,0.00416476572036309,0.004197563107147603,-0.018328790899372446,0.01701720812717967,0.9774036655786584
2013-09-20,1,0.00242922940055608,0.002596497570712892,-0.016963833964068413,0.01701720812717967,0.9786099315988237
2013-09-24,1,0.004639709412174411,0.005143269665643882,-0.01851060186967999,0.019675730939926046,0.9765473896565722
2013-09-26,1,0.007153024979208625,0.00798588136495722,-0.01851060186967999,0.01701720812717967,0.9773589984531456
2013-09-30,1,0.007673882268216203,0.008571663502683177,-0.01851060186967999,0.015725491390612564,0.9773673459838296
2013-10-02,1,0.008067788750333203,0.00908042237055924,-0.02211873811875394,0.015725491390612564,0.9755837017651695
2013-10-04,1,0.008004913945226452,0.00907158123169317,-0.01851060186967999,0.005647702715510857,0.9761976043338431
2013-10-08,1,0.004606293221502164,0.005057882209157817,-0.01482567318663713,0.016173214199946793,0.9773308945831459
2013-10-10,1,0.004904001116501547,0.005459370472166458,-0.01597408901602078,0.005647702715510857,0.9757748870155402
2013-10-14,1,0.004756886692458764,0.005312241994308846,-0.01597408901602078,0.005647702715510857,0.9756350998726627
2013-10-16,1,0.005176421798020333,0.005710303037007964,-0.017740212549274673,0.005647702715510857,0.9761734129198104
2013-10-18,1,0.004355182898344039,0.004745351707807858,-0.025630822026616262,0.017070698407122428,0.9741775528741896
2013-10-22,1,0.003879443753448089,0.004175943859093748,-0.02124389263301558,0.005647702715510857,0.9757893044139021
2013-10-24,1,0.0029760196164464476,0.0030509700584234085,-0.02124389263301558,0.004012525908712728,0.9774977015412166
2013-10-28,1,0.0034966636724223284,0.0038930696247937878,-0.02124389263301558,0.010211286931756753,0.9750017356116768
2013-10-30,1,0.0019777015301855813,0.0021621993668798087,-0.01576018579003176,0.010211286931756753,0.9769713892618904
2013-11-01,1,0.00017232925977606279,0.00033017360160493905,-0.01576018579003176,0.012710449519954039,0.9775100237440217
2013-11-05,1,0.0017245928507026139,0.0017399790058780537,-0.022723263085071426,0.007131332310446466,0.9800539529110646
2013-11-07,-1,-0.0012187570381498101,-0.0009236579389607803,-0.013787016450854863,0.007131332310446466,0.9835671747473899
2013-11-11,-1,-0.003026979002207286,-0.002327408406763154,-0.012154376996654451,0.004175697527159884,0.9845312348006227
2013-11-13,-1,-0.003754160765400504,-0.0029480556094448732,-0.012154376996654451,0.004175697527159884,0.9854046336384156
2013-11-15,-1,-0.002875905313241357,-0.0022479438302737496,-0.012154376996654451,0.003376552838644643,0.9882717359670465
2013-11-19,-1,-0.004976866273285194,-0.004093346727084561,-0.012154376996654451,0.004175697527159884,0.9860192706948921
2013-11-21,-1,-0.004112008440016959,-0.0033598437805115824,-0.012154376996654451,0.0050087517232256466,0.985233777709904
2013-11-25,-1,-0.0019152685992460095,-0.001430442963957191,-0.012154376996654451,0.003376552838644643,0.9879904392858047
2013-11-27,-1,-0.0021927947037630848,-0.0016819477388060502,-0.012154376996654451,0.004917133897117345,0.9877998788662229
2013-12-02,-1,-0.0009303951083547728,-0.0006644168554464612,-0.012154376996654451,0.0003124112984642778,0.9873733517642326
2013-12-04,-1,-0.0004455062054405025,-0.00039036226011456357,-0.01063067460775241,-0.00027980569732520165,0.9880389989874099
2013-12-06,-1,-0.0010473057366754451,-0.0009295589640095656,-0.010415716785675622,0.00549053548159275,0.9875549706593332
2013-12-10,-1,-0.001385611507780516,-0.0012623924195773618,-0.010415716785675622,0.00549053548159275,0.9874461815821187
2013-12-12,-1,-0.002298156235915101,-0.0020379683766433287,-0.010415716785675622,0.00549053548159275,0.9876229104552277
2013-12-16,-1,-0.0022597137783250815,-0.0019381374387119367,-0.010415716785675622,0.012869900876083962,0.9814981277287428
2013-12-18,-1,-0.0013395874659262036,-0.0011274191468058949,-0.010245326661798431,0.010475442859428825,0.9833231546238081
2013-12-20,-1,-0.0004260702759965434,-0.0003231380213772431,-0.010245326661798431,0.010475442859428825,0.984102142271099
2013-12-24,-1,-0.0006759937674241175,-0.0005622047430784338,-0.011183860976435051,0.010475442859428825,0.9820704848998496
2013-12-27,-1,-0.002452818180855301,-0.002065366942829042,-0.01481675702977909,0.01096814438656716,0.980251311181216
2013-12-31,-1,-0.002960404564820565,-0.0024908933335554178,-0.01481675702977909,0.014348005457498963,0.9782163556121434
2014-01-03,-1,-0.003842710825378125,-0.00323109070828963,-0.01761600310117118,0.014348005457498963,0.9773523371125336
2014-01-07,-1,-0.004092713512502265,-0.003417361294117475,-0.01911100044374234,0.012205590746319389,0.977334853580428
2014-01-09,-1,-0.006413743916601092,-0.005401359062264161,-0.01706161890912495,0.019963403569983048,0.9746599651798198
2014-01-13,-1,-0.006399310615268184,-0.005390061207535426,-0.015353586227551444,0.02097101532092467,0.9720834230876393
2014-01-15,-1,-0.004792364732007445,-0.003976625842782321,-0.015353586227551444,0.01879860908577086,0.9773335786896105
2014-01-17,-1,-0.0030512907069281375,-0.002508866787548321,-0.015353586227551444,0.02223304024490743,0.9769617889781439
2014-01-22,-1,-0.0029461247919146025,-0.0024028110304449776,-0.01706161890912495,0.02223304024490743,0.9761125091346731
2014-01-24,-1,-0.005436464796251709,-0.004589366019108942,-0.015353586227551444,0.027670415771131027,0.9747538721939212
2014-01-28,-1,-0.003260169524166756,-0.0028530612837472393,-0.015353586227551444,0.02363144835499014,0.9767816592053455
2014-01-30,-1,-0.0016541201012533419,-0.00143255759418895,-0.01688280069460066,0.021066691636066778,0.9784191700070775
2014-02-03,-1,-0.0021791833649195823,-0.001970909880268078,-0.011919233286129904,0.021428327039450905,0.9775959322041742
2014-02-05,-1,-0.0025686111259960297,-0.0023001782219459494,-0.011919233286129904,0.021428327039450905,0.9780260669785351
2014-02-07,1,0.0008407130990178889,0.0011377105824779297,-0.0180820858386037,0.020721100733833916,0.9801923432185605
2014-02-11,1,0.0039036604756062052,0.0046987083005194455,-0.0180820858386037,0.020721100733833916,0.9828257905829135
2014-02-13,1,0.0034217350036283116,0.004100470952908459,-0.018475205804436727,0.018745932356471467,0.9828516756496924
2014-02-18,1,0.0035409666358242236,0.004202503408279275,-0.018475205804436727,0.01603587993901859,0.9836348998741171
2014-02-20,1,0.0036766625415803255,0.004418273062711709,-0.013037873614748362,0.01603587993901859,0.9843187702263709
2014-02-24,1,0.005702865004182614,0.006745240961465554,-0.018475205804436727,0.0047996523074473624,0.9820717220126243
2014-02-26,1,0.004703557728542961,0.005632739193867871,-0.01512673431571606,0.006631666192627187,0.984245434234988
2014-02-28,1,0.004036571084980286,0.004852183932745991,-0.015760596726553833,0.00890025459353792,0.9832722068291488
2014-03-04,1,0.003802916205884313,0.004437038608422389,-0.015760596726553833,0.005309119583843975,0.9837487494348475
2014-03-06,1,0.0033123274851439882,0.003916251000641021,-0.017419639163676726,0.005309119583843975,0.9836348195999643
2014-03-10,1,0.0028585813922703835,0.0034462097313981846,-0.017419639163676726,0.006902653142849028,0.9829883031664346
2014-03-12,1,0.004830383139021009,0.005729255878619756,-0.017419639163676726,0.006902653142849028,0.9806078981393128
2014-03-14,1,0.0035884578131832583,0.00427635853688489,-0.020188999125020028,0.006902653142849028,0.9796350954471225
2014-03-18,1,0.0041491117483600255,0.004912953301037472,-0.020188999125020028,0.005912453041122621,0.9797875534237453
2014-03-20,1,0.003648029255450622,0.004343071809649327,-0.020188999125020028,0.006902653142849028,0.9784629935218827
2014-03-24,1,0.000820988214649005,0.0011305133836325358,-0.01297468191849908,0.01277210795024416,0.9802609718553009
2014-03-26,1,0.00030265670684741615,0.0004480478635352553,-0.027157827762856048,0.01277210795024416,0.9777869500884677
2014-03-28,-1,-0.0011952811440721905,-0.0011225981582797793,-0.027157827762856048,0.009294133356113482,0.9782313248236665
2014-04-01,1,0.0009228896621021627,0.0011927490389811606,-0.027157827762856048,0.009294133356113482,0.9754510288254934
2014-04-03,-1,-0.002328614890712721,-0.001987521224598921,-0.020665301275765928,0.00996377806964607,0.9762647092781241
2014-04-07,-1,-0.003578232081479906,-0.0031192239608344736,-0.02058205287888375,0.017884238169721064,0.9767365789524868
2014-04-09,-1,-0.0016838273143791188,-0.0014502776638446713,-0.02110005067323206,0.00996377806964607,0.9783302941606976
2014-04-11,-1,-0.004004086114544868,-0.00350506153112279,-0.018528926734104226,0.017884238169721064,0.9792100364484063
2014-04-15,-1,-0.004348865566203527,-0.003774101410731327,-0.02109737126985531,0.017884238169721064,0.9779295628403869
2014-04-17,-1,-0.0034146250600724576,-0.002959529428304123,-0.02109737126985531,0.017884238169721064,0.9786185270405112
2014-04-22,1,9.851831744205446e-05,0.0001648079650237988,-0.027251390897440386,0.014988386061631328,0.9779046326614345
2014-04-24,-1,-0.00253236719572875,-0.002269674728450295,-0.018528926734104226,0.018802031710407095,0.9796177605893789
2014-04-28,-1,-0.0038014540900021612,-0.003422423034758162,-0.015342726538952373,0.02077655927578995,0.9795485950765785
2014-04-30,-1,-0.0025294222434322105,-0.002233444059612158,-0.015342726538952373,0.018802031710407095,0.9824958038642718
2014-05-02,-1,-0.003380334117469775,-0.0029566583335351327,-0.011086056666578342,0.018802031710407095,0.9829340772735655
2014-05-06,-1,-0.00420869509666542,-0.0036499144643127477,-0.007274705622455975,0.01543143171777869,0.9842562747081778
2014-05-08,-1,-0.005855371316815048,-0.005082239466172237,-0.006125649632288732,0.01543143171777869,0.9840286453761639
2014-05-12,-1,-0.004791706502781449,-0.004095685230741197,-0.007034749041313978,0.009956415837640873,0.9857271473283561
2014-05-14,-1,-0.004939898517062943,-0.004255214978852824,-0.0027937927387421298,0.008260567224666126,0.9870264672017119
2014-05-16,-1,-0.0032073108957217378,-0.002772403548753401,-0.007034749041313978,0.007676440829585513,0.9883859321867238
2014-05-20,-1,-0.004096952614344739,-0.0035295706352121456,-0.007034749041313978,0.007676440829585513,0.9893986137857651
2014-05-22,-1,-0.0031619888805958975,-0.0027198491215774468,-0.011437718162069713,0.007097348722261547,0.9882461709191211
2014-05-27,-1,-0.002072423842336397,-0.0017500987943952534,-0.013548427501729389,0.005473287701894314,0.9892348893653458
2014-05-29,-1,-0.0027301007703443647,-0.0023025204914344077,-0.013548427501729389,0.007097348722261547,0.9892615376674463
2014-06-02,-1,-0.00218332617524464,-0.0018391348924830548,-0.013548427501729389,0.007248386818925087,0.98860092789775
2014-06-04,-1,-0.0023616824184089615,-0.0019138463153579813,-0.013548427501729389,0.008704194392959538,0.9846347412309052
2014-06-06,-1,-0.0025173638181708617,-0.002050756165418686,-0.013548427501729389,0.008582683912346767,0.9848852134953455
2014-06-10,-1,-0.001605081811619964,-0.001393416715032081,-0.010109943771073987,0.008582683912346767,0.9856599738452504
2014-06-12,-1,-0.0010085798888580704,-0.0008959919799018002,-0.010109943771073987,0.009132014836070108,0.9850138584489482
2014-06-16,-1,-0.0008680352451881721,-0.0008013624763869294,-0.011136377284864076,0.009132014836070108,0.9848284057672265
2014-06-18,-1,-0.00281204466775618,-0.0024192555954678143,-0.017785717511342433,0.008858731796387015,0.9839403003316355
2014-06-20,-1,-0.006039376035089193,-0.0052548359814872025,-0.007890045854703834,0.010332497570716921,0.9844924592453537
2014-06-24,-1,-0.005748293412163858,-0.005066039955828394,-0.004673524867745307,0.01205913153279356,0.9835927805517803
2014-06-26,-1,-0.006106674430457871,-0.005318234968303428,-0.007611711376124273,0.01205913153279356,0.983675827574771
2014-06-30,-1,-0.00572558622742476,-0.004973252009324688,-0.005115478982085626,0.00923107087891308,0.9843592407947669
2014-07-02,-1,-0.002136314583158883,-0.0019999114419373457,-0.009929536186209065,0.00795591485330628,0.9861844411921383
2014-07-07,1,0.00011558727731878437,0.0003576246275761514,-0.009929536186209065,0.008695396166433625,0.9855260559466169
2014-07-09,1,0.0001707455336427176,0.0004205216637524689,-0.009929536186209065,0.01603572662334332,0.983542753248728
2014-07-11,1,0.001103108462504621,0.001509815093459715,-0.009929536186209065,0.01603572662334332,0.9840369244398578
2014-07-15,1,0.0003471429957065714,0.0006379999594696904,-0.006104439612904852,0.01603572662334332,0.9849793797717703
2014-07-17,-1,-0.0005331473846106655,-0.0002469263199910887,-0.0034098763778620043,0.01650988619800649,0.9860062070910055
2014-07-21,1,0.00013735209889335822,0.00044279460589457143,-0.002228096804956963,0.01404603486784327,0.9878391410669126
2014-07-23,1,0.0008359726641827829,0.0012066540106170432,-0.004374283968856545,0.013861479065401456,0.9883601262883182
2014-07-25,1,0.0009270890596690784,0.0014061270613127269,-0.003389840594992049,0.013861479065401456,0.9889278727793993
2014-07-29,1,0.0006608040827331969,0.0010525004010024307,-0.0026697775309210752,0.018459301665809964,0.9875783669942125
2014-07-31,1,0.0002614132356975468,0.0005627230974594305,-0.004703937512462954,0.015302194972627255,0.9901631922327846
2014-08-04,1,0.0018861904015973832,0.0024916872811789354,-0.004703937512462954,0.015302194972627255,0.9900835501867882
2014-08-06,1,0.0031718525377288295,0.0038930961629661458,-0.006224831792645719,0.011063490244250388,0.9901685288556135
2014-08-08,1,0.0032212968062487065,0.003986308901709785,-0.007385461660762153,0.011063490244250388,0.9899539126960365
2014-08-12,1,0.003137150956268013,0.003867369736459765,-0.007385461660762153,0.013861479065401456,0.9889924256346395
2014-08-14,1,0.0027289685517605,0.003260365033584567,-0.00935089209096612,0.007557945844908674,0.9886054380797376
2014-08-18,1,0.002843133742388486,0.003398706703143857,-0.00935089209096612,0.012065062566739532,0.987314459027445
2014-08-20,1,0.0018914118420315545,0.0022671097269147877,-0.00935089209096612,0.012070933583204317,0.987548789193448
2014-08-22,1,0.0019769066590636353,0.0024254628067860453,-0.009253955150677623,0.012070933583204317,0.9877768020916593
2014-08-26,1,0.0028506159507483827,0.0033559946736261724,-0.009253955150677623,0.010205974906811069,0.9879942290543715
2014-08-28,1,0.0011084750252808395,0.0012399272452981859,-0.00825899929431407,0.010205974906811069,0.987583972555313
2014-09-02,1,0.0022980861793423543,0.00273461084021895,-0.009375146495619425,0.01015526738932283,0.9880463808165343
2014-09-04,1,0.0003294439336909136,0.00035618884950656444,-0.009375146495619425,0.01015526738932283,0.9887387632572625
2014-09-08,1,0.00010698852139140165,0.0001136788331031631,-0.009375146495619425,0.011574817006998741,0.987920923039946
2014-09-10,1,0.0010270469604019366,0.0011796022939559616,-0.010706375042912343,0.011574817006998741,0.987760175290322
2014-09-12,1,0.0009642330940801819,0.0012251055379074866,-0.011302978183199964,0.011574817006998741,0.9866847881185139
2014-09-16,1,0.0005648859082312128,0.0005963070630921596,-0.013680560198583045,0.01015526738932283,0.985687067860219
2014-09-18,1,0.00017062122900993865,0.0002537288324776938,-0.013680560198583045,0.015940227738445147,0.984919072584786
2014-09-22,1,0.0015783707662764652,0.0017783232129136852,-0.013680560198583045,0.017028366650573896,0.9807762684474984
2014-09-24,1,0.0016314959577827478,0.001807102910110177,-0.013680560198583045,0.017028366650573896,0.9798641303011815
2014-09-26,1,0.0008783961650913917,0.0009341577813623985,-0.012505978236000245,0.020690451528093387,0.9792679718655406
2014-09-30,1,0.0001517558275601902,0.0002663851677166042,-0.013680560198583045,0.020690451528093387,0.9788331878724994
2014-10-02,1,0.00023106729086348006,0.00024924720392569585,-0.013945542291796295,0.020690451528093387,0.9778624778575157
2014-10-06,1,0.00030104923958735273,0.00035279087108573465,-0.013945542291796295,0.0184436009070868,0.9790082269885468
2014-10-08,1,0.0024933710364565026,0.0025609272024549627,-0.01633322790114036,0.0184436009070868,0.9773777078405338
2014-10-10,1,0.00022320843260095226,0.00042862166966687384,-0.010848121475154833,0.020690451528093387,0.9783304550209296
2014-10-14,-1,-0.0005173509739850788,-0.00026489749406417796,-0.0006172930657625916,0.021976983653796793,0.9776557390460349
2014-10-16,1,0.0017842776507502372,0.0018893671277906772,-0.0006172930657625916,0.021976983653796793,0.9799833629519359
2014-10-20,1,0.0018086829124208158,0.0018911852098885966,-0.000848154385026337,0.02155713048915386,0.9830974137008378
2014-10-22,1,0.003441196560791195,0.0037574709730479015,-0.000848154385026337,0.02155713048915386,0.9843439805313865
2014-10-24,1,0.004783697796896401,0.005277091730137072,-0.012427809849102767,0.011971846016733761,0.9847186263287098
2014-10-28,1,0.004049935446815517,0.004433190252309187,-0.003990267203010694,0.011733665462260694,0.9859153852839089
2014-10-30,1,0.0037116357225279424,0.004010903050882811,2.5123670310185447e-05,0.011143211168114222,0.9874497549829971
2014-11-03,1,0.003631650332761749,0.00391531609716219,-0.003990267203010694,0.01382432042875946,0.9851499681372011
2014-11-05,1,0.001381312687274445,0.0013955849297851478,2.5123670310185447e-05,0.01382432042875946,0.9874079517256292
2014-11-07,1,0.0023405057007899236,0.0024396718758653685,-0.00042634464979475614,0.01382432042875946,0.9874896454086851
2014-11-11,1,0.0031493471190609497,0.0031828006192466643,-0.0034311072123109953,0.008724813395267046,0.9883316551160045
2014-11-13,1,0.002727416063024984,0.0027995159595610116,-0.008371406533397779,0.008724813395267046,0.9874910129090034
2014-11-17,1,0.0016469543069458667,0.001788088934644477,-0.013566885720882623,0.007626991348157136,0.9864082901642824
2014-11-19,1,0.0029813426914050236,0.0030189301376019424,-0.013566885720882623,0.008724813395267046,0.9847843923023479
2014-11-21,1,0.002823774957708094,0.0029648452142394983,-0.013566885720882623,0.00958959095047933,0.9841944896495602
2014-11-25,1,0.003258799072280823,0.0034843575612146334,-0.01797983754295117,0.010664565691332546,0.9818675441780832
2014-11-28,1,0.0032594628536299656,0.0034773864724864413,-0.01797983754295117,0.018476066934079594,0.9806021973230649
2014-12-02,1,0.00397857042667017,0.004305510398220857,-0.014681331051730964,0.010664565691332546,0.9819676120946556
2014-12-04,1,0.0034412527240966144,0.0036605772214117214,-0.014681331051730964,0.010664565691332546,0.9822462960575005
2014-12-08,1,0.0031485491865264757,0.0032340615975817843,-0.01960806880905066,0.010664565691332546,0.9804341515281505
2014-12-10,1,0.0018377899602595156,0.0019009297400466405,-0.014681331051730964,0.016382632223261213,0.9806085558238644
2014-12-12,1,0.0017767574981698317,0.0018271620183027506,-0.014158388679006886,0.016382632223261213,0.9805962521621425
2014-12-16,1,0.0006127495079992859,0.0007914396203996789,-0.014158388679006886,0.016382632223261213,0.9818924500196565
2014-12-18,1,0.0029659463400020358,0.003087090336154436,-0.014158388679006886,0.016382632223261213,0.9823278410385361
2014-12-22,1,0.0007014388374343163,0.0008527091247684751,-0.01156297712241467,0.016382632223261213,0.9837666181361222
2014-12-24,1,0.0006189785073553008,0.0007558033399463835,-0.008083874504196181,0.011183477172857498,0.986240267023896
2014-12-29,1,0.002435905092997028,0.0026092232729826763,-0.014158388679006886,0.006961232357068063,0.9857895068851351
2014-12-31,1,0.0016088449857197536,0.0016537171574462434,-0.012359684972805186,0.010422598072676214,0.9858188681126331
2015-01-05,1,0.0011568497742621112,0.0011633138489624756,-0.012359684972805186,0.010422598072676214,0.985097379645582
2015-01-07,1,0.0021038547146891295,0.0022521880564782505,-0.012359684972805186,0.010422598072676214,0.9857855766065865
2015-01-09,1,0.001901127292524781,0.0020229511627174223,-0.01709053108024459,0.006961232357068063,0.9853964342766502
2015-01-13,1,0.0009623436653217893,0.0009874763955779794,-0.01709053108024459,0.006961232357068063,0.9862867780170563
2015-01-15,1,0.00025980552813294406,0.00040068608295397093,-0.011297024214408192,0.007287289830619845,0.9872478152442697
2015-01-20,1,0.0028113504247360417,0.0030603103619288043,-0.011297024214408192,0.005268166992872506,0.9896229902046245
2015-01-22,1,0.002251300060987025,0.0023794348456744373,-0.011297024214408192,0.005376852817389767,0.9875068863509366
2015-01-26,1,0.00179137905673841,0.0019245043849118204,-0.01212057013187136,0.004535509523759755,0.987370936990416
2015-01-28,1,7.251036555750248e-05,0.00019320483993663976,-0.008780314887902263,0.005080146138342813,0.988587828788562
2015-01-30,1,0.0005382785674772325,0.0006179746984010854,-0.00969131107755277,0.004743986401275026,0.9883428122795612
2015-02-03,1,0.0004825872636227496,0.0005657727072358983,-0.011429059676516296,0.004743986401275026,0.9885189060323353
2015-02-05,1,0.00016549830352498047,0.0003087127414300592,-0.011429059676516296,0.004743986401275026,0.988321619791658
2015-02-09,-1,-0.0007393029102297326,-0.0005373321506952203,-0.007980262275356231,0.006002283449935576,0.9888756759112748
2015-02-11,-1,-0.0004700508289130898,-0.00032312246671816456,-0.007980262275356231,0.006002283449935576,0.9889161801535978
2015-02-13,-1,-0.00039187806536966066,-0.00024193557250964297,-0.007980262275356231,0.010223113811089462,0.9863299923820268
2015-02-18,1,0.00010257217988607077,0.0001874523715906754,-0.007980262275356231,0.011143752606760442,0.9846732906136246
2015-02-20,1,0.001132593561331416,0.0011340242748208102,-0.007980262275356231,0.011143752606760442,0.9861266917886939
2015-02-24,1,0.000759432019079837,0.0007916745770039947,-0.009474411802590297,0.011143752606760442,0.9850766323549422
2015-02-26,0,-4.041489354816884e-05,9.815903953645517e-05,-0.012810718212612428,0.011143752606760442,0.9829322205370982
2015-03-02,1,0.00025117998997662837,0.0003379690395165486,-0.010270678627788507,0.012125150736336736,0.9829947204273264
2015-03-04,-1,-0.00016820472430712722,-4.497537538982003e-05,-0.013242627678287381,0.012125150736336736,0.9816828472386043
2015-03-06,-1,-0.0009152355755803939,-0.0006077149688547376,-0.010270678627788507,0.011325848601216257,0.9837395039383372
2015-03-10,-1,-0.0016849946335289858,-0.0012102410977144083,-0.010270678627788507,0.012125150736336736,0.9831164280446032
2015-03-12,-1,-0.0003598611244239827,-5.727919080622426e-05,-0.010270678627788507,0.0137255519682145,0.9827893204572105
2015-03-16,1,0.001807246593221322,0.0019189636946142393,-0.010270678627788507,0.012125150736336736,0.9852864625197765
2015-03-18,1,0.004016022054342472,0.004261820329277001,-0.010270678627788507,0.008737198610019486,0.9867437798980475
2015-03-20,1,0.005545594867587885,0.006069816465508016,-0.013780822626808142,0.008570230387979109,0.9859618058879142
2015-03-24,1,0.0041482651467223824,0.004442499038695782,-0.010257828704847389,0.012125150736336736,0.9866586850760408
2015-03-26,1,0.002786297194950402,0.0028767399665413054,-0.004783705336199187,0.0137255519682145,0.9886805703494435
2015-03-30,1,0.0034976504111840817,0.003680625735468495,-0.010610616955550474,0.01170067218415164,0.9879654578529758
2015-04-01,-1,-0.0009016170623517833,-0.0005862521653670102,-0.007336487268888897,0.01170067218415164,0.988287251126881
2015-04-06,-1,-0.0003997354343712481,-0.0001796245206548017,-0.005524236962448678,0.014406827730340962,0.9870625516152596
2015-04-08,1,0.0016136780066571996,0.0017240061742178061,-0.010610616955550474,0.01170067218415164,0.9873325281949182
2015-04-10,1,0.0023345298888197328,0.0025565858150761274,-0.010610616955550474,0.01215266960446999,0.9866454014742155
2015-04-14,1,0.001554492550685504,0.0016394254125631901,-0.009254576257533195,0.01215266960446999,0.9868341125183592
2015-04-16,1,0.0023617391089080287,0.0026291727649288684,-0.009254576257533195,0.016900697328707748,0.9858983267524802
2015-04-20,1,0.0013416664863156844,0.001424418908040339,-0.005630784161281867,0.016934137918527683,0.9862732362950563
2015-04-22,1,0.0030997881002730364,0.0034580879927203984,-0.005630784161281867,0.015773966854569315,0.9871901028453346
2015-04-24,1,0.0035982872868903573,0.004034101012549189,-0.005630784161281867,0.015139803014294894,0.9875418757926792
2015-04-28,1,0.002621962287255328,0.0029510990351938643,-0.004312480648518779,0.016130089818700233,0.9875314708533951
2015-04-30,1,0.0018780985915921272,0.0021143484777596433,-0.004312480648518779,0.016130089818700233,0.9884978633603251
2015-05-04,1,0.003652067208005678,0.00417130197432716,-0.005269814450401055,0.015139803014294894,0.9894794264930193
2015-05-06,1,0.0026078920729123846,0.002920829625177946,-0.004312480648518779,0.015139803014294894,0.9902118499746838
2015-05-08,1,0.003175592301419633,0.003520890814591156,-0.005269814450401055,0.015139803014294894,0.9885278050939243
2015-05-12,1,0.002759979528317102,0.0028822183488162855,-0.005269814450401055,0.015139803014294894,0.9874260642496233
2015-05-14,1,0.004486917788777179,0.0049692124615235665,-0.010694139566566287,0.011569723128555564,0.9866541592885196
2015-05-18,1,0.004153347040280336,0.004541148174846671,-0.010694139566566287,0.011278414617253775,0.9871876696483479
2015-05-20,1,0.004130577422039442,0.004420097490071219,-0.010694139566566287,0.011278414617253775,0.9861922649638708
2015-05-22,1,0.004662273059619394,0.005071927506313337,-0.011609850832853697,0.011278414617253775,0.9855522084861903
2015-05-27,1,0.004357748185000229,0.0047006558012226045,-0.009861305840712842,0.009030991345369334,0.9862759367280755
2015-05-29,1,0.003932405363891338,0.004216918439043868,-0.009861305840712842,0.009030991345369334,0.9869310849383395
2015-06-02,1,0.0033088238493211596,0.003458521175349907,-0.0124780918320891,0.010277295726234759,0.985716801170339
2015-06-04,1,0.003829321678002215,0.004052304161980741,-0.0124780918320891,0.00932146956463661,0.9854540071547988
2015-06-08,1,0.003941276537738682,0.004143201366181043,-0.00911392759311155,0.00932146956463661,0.9881763370391073
2015-06-10,1,0.002571642901577159,0.0025865190869177835,-0.00911392759311155,0.00932146956463661,0.9888291075523374
2015-06-12,1,0.0020007611833732807,0.00200560962899296,-0.00402860337026864,0.011300526919181982,0.988597342800663
2015-06-16,1,0.002332568346283029,0.002398243100066933,-0.00402860337026864,0.010981633169922239,0.9888289679531013
2015-06-18,1,0.004305495048274426,0.004623037053254413,-0.00402860337026864,0.01028466649354416,0.9901711038076856
2015-06-22,1,0.0028246998865047762,0.0028673820275259714,-0.0009188132137281489,0.010981633169922239,0.9903892971947266
2015-06-24,1,0.0025979998709859606,0.0026207225911639253,-0.0009188132137281489,0.010981633169922239,0.9904867272892812
2015-06-26,1,0.0022068680736310286,0.002295035643508692,-0.00406816719907583,0.010981633169922239,0.9889962149509005
2015-06-30,1,0.0015751803897270037,0.0016945740013113652,-0.00406816719907583,0.013107033512089736,0.9893714508159404
2015-07-02,1,0.0005109044382749673,0.0008375370082338447,-0.002403365527552433,0.013107033512089736,0.9897255404499595
2015-07-07,1,0.0005410643525310165,0.0008669745585840956,-0.002403365527552433,0.015411357163471417,0.9879481885282274
2015-07-09,-1,-0.0005879684909457557,-0.00021914199118466793,-0.002403365527552433,0.017334691518365804,0.9866678927775199
2015-07-13,1,0.0010825404748346893,0.001251047538226235,-0.0039912488902848,0.013107033512089736,0.9890468349900993
2015-07-15,1,0.002114805824488473,0.002149137991522167,-0.005965621329207268,0.015411357163471417,0.9871571692191118
2015-07-17,1,0.0023435201265205154,0.002370010651183568,-0.006869994498142972,0.013155158300501471,0.9871806333668728
2015-07-21,1,0.0024074562468260003,0.002425795865304425,-0.00946476672262547,0.005871702674277711,0.9872817372588943
2015-07-23,1,0.0018642130922851968,0.0019204429653562694,-0.011463103023487804,0.005871702674277711,0.9857780782170432
2015-07-27,0,-8.340554428805217e-05,0.00015675680928276545,-0.01341024402388079,0.005871702674277711,0.9837364927523802
2015-07-29,1,0.0005750105429562233,0.0008160591175500625,-0.01341024402388079,0.005871702674277711,0.9813294569415633
2015-07-31,1,0.0010713436721189321,0.001237429771840616,-0.01341024402388079,0.004055298860378983,0.9814400229059369
2015-08-04,1,0.0022819150353144157,0.0022918738497854107,-0.026400685989833562,0.0034967398830145838,0.9794048507217894
2015-08-06,1,0.0033531890135328553,0.003550134019646153,-0.026400685989833562,0.0034967398830145838,0.9776652721531065
2015-08-10,1,0.003659917418647879,0.003968978802009328,-0.026400685989833562,0.004055298860378983,0.9731521589565844
2015-08-12,1,0.004537784655793713,0.004977473572418224,-0.029609464370110066,0.004055298860378983,0.973200974514334
2015-08-14,1,0.0036664271230374664,0.003926240327820721,-0.029609464370110066,0.004117879751000961,0.9738729054840682
2015-08-18,1,0.0022146264122106835,0.0022365210912751363,-0.029609464370110066,0.005378299809939747,0.9741893137389854
2015-08-20,1,0.0009651136241386751,0.0010925133895710237,-0.021945357834957102,0.010115834328697363,0.9756731537406634
2015-08-24,0,-0.0002614476551189807,7.361057089851238e-05,-0.017515273634558425,0.010115834328697363,0.9778370479438281
2015-08-26,1,0.0018870066152690853,0.0019761733186605597,-0.021604118284680354,0.008484051532702378,0.979639495585432
2015-08-28,1,0.0019324546597144353,0.00197998400525177,-0.029609464370110066,0.008484051532702378,0.9733409994659615
2015-09-01,-1,-0.002168773191235534,-0.0016793548742987333,-0.021604118284680354,0.013552276612297099,0.9759854974059738
2015-09-03,-1,-0.002195092734239481,-0.0016894506905736453,-0.019322909882007314,0.013881330619081972,0.9774735753416571
2015-09-08,0,-0.00018058338014387244,8.04952115698198e-05,-0.02730835990115681,0.012164679561421029,0.9805085563483846
2015-09-10,-1,-0.0018739342221113068,-0.0013818582876340955,-0.01604035714676419,0.013881330619081972,0.9789560210296069
2015-09-14,-1,-0.0009391877290447653,-0.0006237354645530473,-0.01604035714676419,0.01856378956844784,0.9758745634692184
2015-09-16,-1,-0.0016648735460654711,-0.0013853094932803252,-0.02730835990115681,0.017237115314566436,0.9748694379234372
2015-09-18,-1,-0.0018355085483029384,-0.0014773441675220613,-0.02730835990115681,0.01756845091120969,0.9744940548774792
2015-09-22,-1,-0.0038269906093176087,-0.0031961841193614933,-0.0194917078940081,0.01801671330214342,0.9747007074353174
2015-09-24,-1,-0.003904590953070771,-0.0033351800226681825,-0.013528584102424546,0.01801671330214342,0.9751988719000911
2015-09-28,-1,-0.009908492124532117,-0.008617953933578741,-0.005859746225567984,0.020347629969110215,0.9766152816597397
2015-09-30,-1,-0.007540435209305351,-0.006569847332659102,-0.00046075104855830334,0.020347629969110215,0.9766110807899469
2015-10-02,-1,-0.006151185779588278,-0.005342455495741508,-0.009968436834225325,0.020347629969110215,0.9784755557538345
2015-10-06,-1,-0.007511244828373896,-0.006587833404574283,-0.0024694041383238863,0.023022444681705025,0.9767522701687854
2015-10-08,-1,-0.004893139659601753,-0.004290214609875829,-0.005813503175907196,0.020347629969110215,0.980599983284605
2015-10-12,-1,-0.001946500771350848,-0.0017395391998939478,-0.0069354031726734326,0.01717222110968475,0.9848396183477203
2015-10-14,-1,-0.0033461029473761793,-0.0029804175174876282,-0.005070236068625223,0.01717222110968475,0.9855100640318227
2015-10-16,-1,-0.002650685717147275,-0.002380485086557795,-0.0062865489253843615,0.01378869092368953,0.9858019104789852
2015-10-20,-1,-0.002913032528704267,-0.0025998706369835265,-0.005070236068625223,0.01713211456534644,0.9852431209051945
2015-10-22,-1,-0.0017752899512624063,-0.0014893140864982342,-0.0062865489253843615,0.018471056251383636,0.9848487856720068
2015-10-26,1,5.148986079648542e-05,8.947854091681272e-05,-0.007371621321489401,0.012831242660793298,0.9858969048859442
2015-10-28,1,0.0008511879654301408,0.0010183396063811751,-0.009879218344041919,0.004895857719627174,0.9870774364657449
2015-10-30,-1,-0.0003376419338665881,-0.00032825459981253817,-0.009879218344041919,0.004895857719627174,0.9868574826154677
2015-11-03,1,9.412475539300724e-06,4.2237511097850615e-05,-0.009879218344041919,0.002568680544903267,0.9885644707585902
2015-11-05,-1,-0.0006301650222191885,-0.0005615846608502726,-0.009879218344041919,0.004895857719627174,0.9867564947263364
2015-11-09,0,-1.7493536646797302e-05,7.204983467411376e-05,-0.011400551763534252,0.012831242660793298,0.9852838055328405
2015-11-11,1,0.00013079073666513047,0.00020490649142687983,-0.015301669609286287,0.0062003925110163454,0.9850942966163632
2015-11-13,-1,-0.0008018121497056678,-0.0007544054258302837,-0.015301669609286287,0.011936834657218997,0.9849031242739493
2015-11-17,1,0.0006757941223208826,0.000830441018208768,-0.015301669609286287,0.006879678791692562,0.9851202391561371
2015-11-19,1,0.0004203425829141609,0.0005096153517765102,-0.015301669609286287,0.003329332902655541,0.985543073021346
2015-11-23,-1,-8.39237111272487e-05,-5.245819648374757e-05,-0.01714930952557016,0.003329332902655541,0.9850190764690419
2015-11-25,-1,-0.00022916747515493507,-0.00019104320419387313,-0.01714930952557016,0.006879678791692562,0.9849260949736929
2015-11-30,-1,-0.00199614033410833,-0.0017916077806764338,-0.014979208023059916,0.01117267586281863,0.9852534828218671
2015-12-02,-1,-0.00046888350951144455,-0.0004042332102114724,-0.014979208023059916,0.01117267586281863,0.9851165989361783
2015-12-04,1,0.0005165350520056635,0.0007055790354851014,-0.015008558862191046,0.006879678791692562,0.9851223862079667
2015-12-08,1,0.0007246019164365981,0.0009902052416524633,-0.015008558862191046,0.006879678791692562,0.984409683685582
2015-12-10,1,0.0006553608667883365,0.000924424190387616,-0.020725163498611594,0.006879678791692562,0.9831241392230684
2015-12-14,1,0.0003689866220504452,0.000604179905535159,-0.020725163498611594,0.005143472003697612,0.9826537924033834
2015-12-16,1,0.0006762068959923309,0.0009236722286369037,-0.021618003095515596,0.0037236814179463108,0.9805675913123112
2015-12-18,0,-3.205341494734459e-05,0.0001199547471060525,-0.024676499925096858,0.00725037281765805,0.9789057960085892
2015-12-22,-1,-0.0004722322948813554,-0.00034482109456449375,-0.024676499925096858,0.015255511513713836,0.9781334112324761
2015-12-24,1,0.0007139721365284605,0.0010448740472198564,-0.024676499925096858,0.008291650412420387,0.9766938850536249
2015-12-29,1,0.0016917985133962708,0.002166118651014001,-0.03368298779171263,-0.002959173233005528,0.9719552405717067
2015-12-31,1,0.0013688097096904949,0.0018403419225689508,-0.03368298779171263,0.0023822539547948256,0.9721761475496556
2016-01-05,-1,-0.0004347530916133731,-0.00019192830581847304,-0.032749770141205475,0.01415499372680697,0.9737357809299685
2016-01-07,-1,-0.0008643551383511336,-0.000684041802387857,-0.032749770141205475,0.0023822539547948256,0.973742258050791
2016-01-11,-1,-0.0026308194917268285,-0.0025892858891855618,-0.033853937496655065,0.0023822539547948256,0.9727039696795984
2016-01-13,-1,-0.004572375588711435,-0.004139654860427131,-0.033853937496655065,0.0060937476991196554,0.9746790758387324
2016-01-15,-1,-0.006003938461393447,-0.005288495310897767,-0.0239288501673827,0.01577993948486762,0.9749085605316066
2016-01-20,-1,-0.0045105244186219055,-0.0040745275127625335,-0.021594346031847067,0.012507437089085763,0.9761281096060368
2016-01-22,-1,-0.0028144052333909887,-0.0025756522012631176,-0.021594346031847067,0.012507437089085763,0.9770080421965402
2016-01-26,-1,-0.006060404988968539,-0.005310230051342095,-0.023246691127336662,0.01492411282663033,0.9768962795186584
2016-01-28,-1,-0.009555911494485408,-0.008442836135523065,-0.020008378516963653,0.01492411282663033,0.9800555117548376
2016-02-01,-1,-0.00786125744989038,-0.0071052192416324565,-0.02068571439003913,0.018141534485241757,0.976925033059336
2016-02-03,-1,-0.007530477735419663,-0.006756650856972546,-0.02065924798543596,0.01492411282663033,0.9788451624331964
2016-02-05,-1,-0.009680493943942277,-0.008668708621530033,-0.01462793151042856,0.01492411282663033,0.9788122386346461
2016-02-09,-1,-0.01205969427711109,-0.010822082489740757,-0.01645504026151987,0.01492411282663033,0.9777730645444108
2016-02-11,-1,-0.010568698596411533,-0.009539597787369354,-0.01645504026151987,0.01492411282663033,0.9780786243340185
2016-02-16,-1,-0.008639932103541715,-0.007771652621883099,-0.0178156365787284,0.008384870136973224,0.9822364553517104
2016-02-18,-1,-0.009229569357710049,-0.008277876356281568,-0.01484747818927732,0.005382576783064157,0.9834193578820621
2016-02-22,-1,-0.008873136389973902,-0.007615318398728728,-0.01484747818927732,0.005382576783064157,0.9840281448813963
2016-02-24,-1,-0.00829751455775386,-0.007146101123222629,-0.01484747818927732,0.005382576783064157,0.9834659036992979
2016-02-26,-1,-0.007708074027985718,-0.006694685391837235,-0.016841858144058107,0.008384870136973224,0.9826616736311794
2016-03-01,-1,-0.0067836645054408186,-0.005805366544141038,-0.016841858144058107,0.008042315775591719,0.9858070616916913
2016-03-03,-1,-0.00592764035348794,-0.005175543573616537,-0.016841858144058107,0.010016840343584939,0.980693702257729
2016-03-07,-1,-0.003956958747024577,-0.0035459354076820796,-0.016841858144058107,0.008042315775591719,0.9817968336840189
2016-03-09,-1,-0.007383877156224733,-0.00652633809089137,-0.011708744907442097,0.01096417064033198,0.9809729848640703
2016-03-11,-1,-0.006657481630919622,-0.005913017733824841,-0.019160403615809972,0.01096417064033198,0.9800572454947483
2016-03-15,-1,-0.0072889084149716545,-0.006489068986717653,-0.019160403615809972,0.015603982630986231,0.9782087609681799
2016-03-17,-1,-0.006716771115167385,-0.00603045497253151,-0.019160403615809972,0.015603982630986231,0.9784362424478849
2016-03-21,-1,-0.004999213972101548,-0.004588413643978934,-0.02037361688827249,0.016023754650024955,0.9771499712581048
2016-03-23,-1,-0.004094546978893481,-0.0038825630019055767,-0.02037361688827249,0.017266711377998067,0.976978776741229
2016-03-28,-1,-0.004338622755772707,-0.004065227820334985,-0.02037361688827249,0.01339705740361243,0.9776707491554752
2016-03-30,-1,-0.0035637522379467637,-0.003458847846856568,-0.02037361688827249,0.010852274183809877,0.9772379442161376
2016-04-01,1,0.00024550146779805417,0.0006180080038767127,-0.02074188654065574,0.006073180601688332,0.9804764215455412
2016-04-05,1,0.0001654802892106645,0.000515038705606893,-0.024387490658339405,0.009893961804762551,0.9780828257637841
2016-04-07,1,0.0020957736803760875,0.0027114870120184967,-0.029660477412684412,0.009893961804762551,0.9779412885166613
2016-04-11,0,-0.00023554382245391905,3.8916248275915294e-05,-0.02263809734436683,0.016373709342207426,0.9791391016995047
2016-04-13,1,0.0018002548739595925,0.002429072549214778,-0.030048401017742886,0.016373709342207426,0.977557490013056
2016-04-15,1,0.001957729954270678,0.0026552980343274605,-0.030048401017742886,0.016373709342207426,0.9769281896941376
2016-04-19,1,0.0022820229763091736,0.0030058204248814423,-0.030048401017742886,0.016373709342207426,0.9761206718103305
2016-04-21,1,0.0020425106961983602,0.002716533759897718,-0.02263809734436683,0.011565754356387941,0.9775899013173973
2016-04-25,1,0.0016444786088853458,0.0022164316083105214,-0.02263809734436683,0.01549120642633991,0.9775164346337423
2016-04-27,1,0.0006862467272219673,0.0011517650514488486,-0.01856264758450863,0.01549120642633991,0.9785029903969183
2016-04-29,1,0.0003237940929300741,0.0008032534828117811,-0.017016141209534576,0.01549120642633991,0.9799468574552742
2016-05-03,1,0.00031796115549541804,0.0007960270481768481,-0.014839922654881196,0.013844792072100565,0.9816625594243795
2016-05-05,1,0.0010109519123312103,0.0015670269857505684,-0.01457593143522264,0.01303685920892187,0.9844274050563201
2016-05-09,1,0.0008433158029321551,0.001370518700316683,-0.01457593143522264,0.011057307179707793,0.9845892231380706
2016-05-11,1,0.0013167987671491965,0.0019802255117405384,-0.01457593143522264,0.010182098365124816,0.986056897551637
2016-05-13,1,0.0010423572360748466,0.0016310104952972396,-0.01457593143522264,0.00839992756776665,0.985401478687778
2016-05-17,1,0.002111633448654591,0.0027955162258927607,-0.014374739473064311,0.007241928483669515,0.9888213954536257
2016-05-19,1,0.0024141875623334857,0.0031828214366326642,-0.014374739473064311,0.006992178859100759,0.9881290442735394
2016-05-23,1,0.003811545477695647,0.004809862433996087,-0.016824106153021903,0.006817375067826722,0.9870671127032754
2016-05-25,1,0.003922603756912777,0.00491974954475604,-0.016824106153021903,0.006873425767329697,0.9868316032532924
2016-05-27,1,0.0034949628645064706,0.004309882091695895,-0.02182352096659791,0.006873425767329697,0.983333328455349
2016-06-01,1,0.004111900775432312,0.00499957210988748,-0.02182352096659791,0.0071899844807326516,0.9816725944098679
2016-06-03,1,0.003309682355274124,0.004013361475583167,-0.02182352096659791,0.009584738880094772,0.9819364994793822
2016-06-07,1,0.0023075946895758765,0.0027929277896517556,-0.02054418950222694,0.01603573910153624,0.9820472230695945
2016-06-09,1,0.001666760800970924,0.002112063221266924,-0.01500752018782511,0.018842925258873707,0.9830154189817099
2016-06-13,1,0.0007917049169413853,0.0010953410326738464,-0.009824628264966547,0.018842925258873707,0.9834822525481571
2016-06-15,1,0.0019302425539507897,0.002459880305167588,-0.0132948837970676,0.018842925258873707,0.9832119788121079
2016-06-17,1,0.00026743274995408186,0.0005118290384263257,-0.008055168196712507,0.02135423545612857,0.9828244519948489
2016-06-21,-1,-0.0020588327410219105,-0.001794245761340851,-0.008050322296300861,0.02135423545612857,0.9817495546114212
2016-06-23,-1,-0.0005576112683579563,-0.0004860999072681547,-0.008050322296300861,0.02135423545612857,0.9830430699811057
2016-06-27,-1,-0.00270521574875133,-0.002406183461723851,0.0015036043331159263,0.02135423545612857,0.9845693349139844
2016-06-29,-1,-0.0013645067415663003,-0.001046921283353616,-0.001966809691734736,0.020183702864784943,0.9854068678273632
2016-07-01,-1,-0.002306761676999361,-0.001820214703607151,-0.001966809691734736,0.020731295936326527,0.9838603128358009
2016-07-06,-1,-0.0009828969927839506,-0.0006599172644037711,-0.001966809691734736,0.020183702864784943,0.9853403184046228
2016-07-08,1,0.0011203499792017196,0.0011769433890009558,-0.010194178179722705,0.020183702864784943,0.9848210369131631
2016-07-12,-1,-0.0004110623766025804,-0.00024838482168166394,-0.005914384870370827,0.020183702864784943,0.9852450008561315
2016-07-14,1,2.462182707692914e-05,7.425617530564544e-05,-0.005717302298243706,0.020183702864784943,0.9848439333874166
2016-07-18,1,0.0015273506729659191,0.0016757379382134948,-0.005717302298243706,0.014315415377891539,0.9872010507167737
2016-07-20,1,0.001762930390275388,0.0019429765995651574,-0.0057959947696929375,0.012928943432981854,0.98732950019431
2016-07-22,1,0.0029986397203978334,0.003430485228547847,-0.009165643147526591,0.010354763366848013,0.9867920942062091
2016-07-26,1,0.003205327953096794,0.003626522919269533,-0.009165643147526591,0.014315415377891539,0.9856320275389635
2016-07-28,1,0.004501758644862405,0.005126469271472286,-0.013251166514468005,0.007043327293966488,0.9849402567089859
2016-08-01,1,0.004752301307787685,0.005254201498121327,-0.013251166514468005,0.0035367232156118906,0.9862025069639075
2016-08-03,1,0.00526790197167674,0.005850338964120427,-0.013251166514468005,0.0011269695020274155,0.9851138305722082
2016-08-05,1,0.0030883258115122648,0.0033239338369342314,-0.010837013441588711,0.0024127751688844067,0.9880616643164531
2016-08-09,1,0.0026251061651854533,0.002799714388767718,-0.010837013441588711,0.004145525540509568,0.9878681379063847
2016-08-11,1,0.002906355356420923,0.003141189414569971,-0.012159209405210937,0.004145525540509568,0.9865841979768469
2016-08-15,1,0.001675676478854591,0.0017179088906864566,-0.013251166514468005,0.004724086952876926,0.9840286452909185
2016-08-17,1,0.0013095322006843526,0.0013251161495677667,-0.012159209405210937,0.008360476649343779,0.9841851374065266
2016-08-19,-1,-0.0003431166465847099,-0.00010902026072759233,-0.012159209405210937,0.013440889534086222,0.9837488665437727
2016-08-23,1,0.0033086098727993134,0.0038065634173426116,-0.012159209405210937,0.009612498914361568,0.985339366765136
2016-08-25,1,0.0016167842943751818,0.0018834779458155263,-0.00928567051231868,0.009612498914361568,0.9876091309196369
2016-08-29,1,0.002123614764738914,0.0025679888769776643,-0.010837013441588711,0.013440889534086222,0.9857351351724816
2016-08-31,1,0.000673423291330087,0.0007749589346448971,-0.012623147190345175,0.013440889534086222,0.9843508466593958
2016-09-02,1,0.0011088346888318422,0.0013034016857368376,-0.011558585839114292,0.013440889534086222,0.9845670941548867
2016-09-07,1,0.0018738290418084842,0.00215130136611286,-0.014012174933303733,0.009612498914361568,0.9845366314854862
2016-09-09,1,0.000839325275345669,0.001019120991400374,-0.012173719001102777,0.009612498914361568,0.9861509387530741
2016-09-13,1,0.0012036857462578191,0.0014331452589189727,-0.012173719001102777,0.008784353974868608,0.987685216855174
2016-09-15,1,0.0019903274002160466,0.0023381047558371747,-0.014012174933303733,0.0059279094593763645,0.9870750076997258
2016-09-19,1,0.0012026448218809536,0.0013226994350842875,-0.013476301295974612,0.004276091525840093,0.9871658018570773
2016-09-21,1,0.0009051178443752706,0.0009150255248312023,-0.013476301295974612,0.004276091525840093,0.9865061326029438
2016-09-23,1,0.0008643991762531261,0.0008967955459894053,-0.014283270691882979,0.004370798794467125,0.9855085841048425
2016-09-27,1,0.0032403569289591078,0.0035215825210604718,-0.013476301295974612,0.004370798794467125,0.9867783202671458
2016-09-29,1,0.001641672992699086,0.0016990834797988683,-0.012015276581032418,0.006222053370173818,0.9884222640815938
2016-10-03,1,0.0007612206772129703,0.0008601766473946557,-0.015421065301427506,0.006222053370173818,0.9863952087639408
2016-10-05,-1,-0.000876416291523143,-0.0006017743189777246,-0.014945738041216428,0.006222053370173818,0.987486482882073
2016-10-07,1,0.0005212900588705326,0.0006068845836582937,-0.020064085080494218,0.006643702776329672,0.9859555001028187
2016-10-11,-1,-0.0009989494128923174,-0.0007933995198211595,-0.015180447584557697,0.006839751364442802,0.9839223026777566
2016-10-13,-1,-0.0011572550845463892,-0.0009581285000196682,-0.011532215808051235,0.01143923889281101,0.9803539973628059
2016-10-17,-1,-0.0018229515369868332,-0.0015321249317346048,-0.00902236152464599,0.01296157949130588,0.9782123443417358
2016-10-19,-1,-0.0015621672430718252,-0.0013194816947164326,-0.020186817418495807,0.01143923889281101,0.9767221152191581
2016-10-21,-1,-0.001684368894087272,-0.0014849001410173145,-0.020559852897754298,0.01143923889281101,0.9756183734793407
2016-10-25,-1,-0.0013863484609330052,-0.0012050889327641474,-0.020559852897754298,0.012212290857311455,0.974643284289159
2016-10-27,-1,-0.0019909404650779896,-0.0017076210186120514,-0.020559852897754298,0.012212290857311455,0.974630542147303
2016-10-31,-1,-0.005091900674241324,-0.004375071534433778,-0.018010316013762632,0.012212290857311455,0.9764954842077922
2016-11-02,-1,-0.005833154466361658,-0.004966033838795642,-0.01965316482738735,0.012212290857311455,0.9762945350410505
2016-11-04,-1,-0.00616484079080866,-0.005266298598210294,-0.018010316013762632,0.009203132958572906,0.977987822290544
2016-11-08,-1,-0.003917884404705016,-0.0032066469359494643,-0.01899257720689287,0.0003911901466445893,0.9804926453558761
2016-11-10,1,0.00018396299702397843,0.00047237017901316557,-0.01899257720689287,0.0003911901466445893,0.9824556975543582
2016-11-14,1,0.0027589673128297007,0.0028546549859086896,-0.01899257720689287,0.0003911901466445893,0.9819126422386432
2016-11-16,-1,-0.002722178074813304,-0.0020372640725523123,-0.016416417460222554,0.0011738766732001422,0.9867699347282428
2016-11-18,-1,-0.0037410175501103706,-0.0030414879419056844,-0.013894946706765748,0.0038221673330389697,0.988414731983543
2016-11-22,-1,-0.00281009622972063,-0.00228124931461922,-0.013897129700946422,-0.00042613697028060036,0.9892446098617313
2016-11-25,-1,-0.002018606626837588,-0.0016541587953783619,-0.013897129700946422,0.004158822186189492,0.9874979119266902
2016-11-29,-1,-0.002830006645894968,-0.002407830261548906,-0.013897129700946422,0.010207259764519399,0.9873283260626333
2016-12-01,-1,-0.004887909364312012,-0.004167363232113204,-0.013976343996716663,0.010207259764519399,0.9874517968056223
2016-12-05,-1,-0.005649194353893739,-0.0048300137900918454,-0.013976343996716663,0.013122708946799897,0.9851048383366826
2016-12-07,-1,-0.006138152135047311,-0.005378238868864477,-0.013976343996716663,0.013122708946799897,0.9832217159168402
2016-12-09,-1,-0.0019946283448763844,-0.001660007020184335,-0.013976343996716663,0.013204796667615861,0.9820730500838104
2016-12-13,-1,-0.0007952921904285687,-0.0007053664020595581,-0.016482992981353903,0.009466166466444555,0.9831744497120856
2016-12-15,-1,-0.00034444773443261667,-0.00027093728073053285,-0.016482992981353903,0.010386222633943901,0.982418986143911
2016-12-19,-1,-0.00031904803179224597,-0.0003118546003834465,-0.014038793795946004,0.010386222633943901,0.9832991117898252
2016-12-21,1,0.0003502733540583768,0.0005572210135752526,-0.01445798527991346,0.010386222633943901,0.9829355725082811
2016-12-23,1,0.0025973586683567676,0.0031474562133645516,-0.017820603756061405,0.004335936060473918,0.983317295258976
2016-12-28,1,0.0013424780215336516,0.0016189505648268748,-0.017820603756061405,0.004335936060473918,0.9832527560413235
2016-12-30,1,0.00029417676694764515,0.0004219504331789559,-0.01453802160271859,0.009287388667816612,0.9827233675266448
2017-01-04,1,0.002046570140881633,0.0024200531424729424,-0.01453802160271859,0.004642621449640366,0.9831073206450811
2017-01-06,1,0.0006443216732801213,0.0008408572334222639,-0.010910358962911548,0.010265413172367429,0.9859341324621153
2017-01-10,1,0.0016849747525460163,0.0019668656592459416,-0.01265069034494428,0.004642621449640366,0.9872824977027187
2017-01-12,1,0.00046429359069756444,0.0005556775757767667,-0.012032800465469097,0.010265413172367429,0.9878650047511568
2017-01-17,1,0.0011345599286553582,0.0014072450326778453,-0.010411264615357355,0.011225077692967388,0.9868281587089399
2017-01-19,1,0.00044269833967301676,0.0005165990218038373,-0.012032800465469097,0.014405402529147507,0.9845551253036595
2017-01-23,-1,-0.0004993842910719328,-0.00044802134255922144,-0.010411264615357355,0.014405402529147507,0.985494548059606
2017-01-25,-1,-0.0011741367375553615,-0.0010161173485042229,-0.010411264615357355,0.014405402529147507,0.9852115870915625
2017-01-27,-1,-0.0017429402060548582,-0.0015045878574180046,-0.007262448168314479,0.014963837229672294,0.9854252341026697
2017-01-31,1,0.0004386233295956819,0.0005249259490327483,-0.007262448168314479,0.013901618433025422,0.9870722389036488
2017-02-02,-1,-0.00047072410644623063,-0.00036164646292410093,-0.006888144928855892,0.011544339904688772,0.9873940671076669
2017-02-06,1,0.00029728122605100445,0.0003236196103396552,-0.009288354896981594,0.010191616007276963,0.9866117635722299
2017-02-08,0,-4.1733984011719995e-06,4.7272986308734125e-05,-0.004038503968961926,0.019297753272847655,0.9855243852126102
2017-02-10,1,0.0005926093031647984,0.0007212392416886002,-0.004904941185570361,0.016111096882907038,0.9863254519171692
2017-02-14,1,0.0025552438508664468,0.002969082973832871,-0.004904941185570361,0.015427334154564015,0.9876046980302469
2017-02-16,1,0.00224523906827386,0.0026463727530827586,-0.005803472031612637,0.010191616007276963,0.9875810264830617
2017-02-21,1,0.002840699284678283,0.0033524869282553905,-0.009586090397699441,0.010191616007276963,0.9863729205478923
2017-02-23,1,0.0009668032036569726,0.001118898775388702,-0.00910212377096371,0.010191616007276963,0.9869278549043811
2017-02-27,1,0.0024939012164234726,0.0028678921319092955,-0.00910212377096371,0.015427334154564015,0.9863800192941256
2017-03-01,1,0.002486561680744978,0.0027974774437909324,-0.00910212377096371,0.018313802696963175,0.9853957593750237
2017-03-03,1,0.002412376380112197,0.0027117866595304753,-0.011645112726514334,0.018313802696963175,0.9850125725089134
2017-03-07,1,0.0013672036475557068,0.0015005783297570826,-0.011151375042693264,0.018313802696963175,0.9858051652795344
2017-03-09,1,0.0026616198222147564,0.0028990479570215532,-0.011645112726514334,0.005640710503654686,0.9867700291147351
2017-03-13,1,0.0019574897654054363,0.0020461124065468124,-0.01345277870266476,0.005640710503654686,0.986132046270346
2017-03-15,1,0.0026370681802547944,0.002819354861545647,-0.015035962929240112,0.003720302723797697,0.9857770860633329
2017-03-17,1,0.0008296143696932869,0.0009089487775252443,-0.012000878822457567,0.006292547900589216,0.9876656292832418
2017-03-21,0,-9.918914365619725e-05,7.494580523504822e-05,-0.012000878822457567,0.008994123811173392,0.9878131700369824
2017-03-23,-1,-0.0008619125667670341,-0.0005842488786565655,-0.015035962929240112,0.011617690446674935,0.9871203475274415
2017-03-27,0,-0.00028529503503820213,3.948746908664187e-05,-0.015035962929240112,0.006292547900589216,0.9893234085678094
2017-03-29,1,0.0004941563489742114,0.0007356800535864225,-0.015035962929240112,0.005072235905766337,0.9900957025163277
2017-03-31,-1,-0.0006468825353659869,-0.0002170209539794118,-0.013262789401188515,0.008994123811173392,0.9875269569313376
2017-04-04,1,0.0006028120177453529,0.0007768606313935205,-0.013262789401188515,0.012655198622518253,0.9867774662319398
2017-04-06,1,0.002909332437897929,0.0032796951010388214,-0.012380636702963087,0.013705490572813405,0.98425256618116
2017-04-10,1,0.003336195174226932,0.003896927707150034,-0.012380636702963087,0.013705490572813405,0.9844191836193562
2017-04-12,1,0.002009158992213561,0.0022402280252667574,-0.004929944798441365,0.01470271027206358,0.9839193075086161
2017-04-17,1,0.001997619218986311,0.002166468320577989,-0.004929944798441365,0.015840625092528517,0.983721001284241
2017-04-19,1,0.0018988574080810454,0.0020577213026740926,-0.004929944798441365,0.015840625092528517,0.9839708483957134
2017-04-21,1,0.0016776549592884078,0.0018049428247653128,-0.004929944798441365,0.019126170366850083,0.9834805969802212
2017-04-25,1,0.001354979521240063,0.0013823665365283143,-0.004929944798441365,0.019959096517358773,0.9823730995450496
2017-04-27,1,0.00016459705326414358,0.0003344457596242715,-0.005853212705022382,0.019959096517358773,0.9821989106404155
2017-05-01,1,0.0029010205717580556,0.0030318910566736615,-0.008144686256576715,0.015840625092528517,0.9855591766443393
2017-05-03,1,0.003317467334367031,0.0034613205336812337,-0.008144686256576715,0.019316358066954552,0.9850684644210213
2017-05-05,1,0.006091462764577163,0.006688158612598347,-0.005853212705022382,0.019316358066954552,0.9876628736409115
2017-05-09,1,0.006472327747775177,0.007090612161424735,-0.005336707670381413,0.019316358066954552,0.988057942748824
2017-05-11,1,0.007034548550673318,0.0076963603837137086,-0.005853212705022382,0.016099029760382695,0.9874513758464737
2017-05-15,1,0.007154768560948852,0.007787307054500517,-0.005853212705022382,0.011017092374073858,0.9872137570248486
2017-05-17,1,0.006074797790652489,0.006515312990479129,-0.005853212705022382,0.010493909501345922,0.9876023726045182
2017-05-19,1,0.006919495625260751,0.0075636410687283506,-0.005853212705022382,0.010493909501345922,0.9871439153887589
2017-05-23,1,0.007206544843195344,0.007859898441788424,-0.005853212705022382,0.017160372607907426,0.9839037236671873
2017-05-25,1,0.005921818357206858,0.006327559733646709,-0.0076017560184470905,0.017160372607907426,0.983934285155566
2017-05-30,1,0.005913563648333429,0.006389044316204578,-0.007879910529091904,0.017160372607907426,0.983291053895027
2017-06-01,1,0.00645263500618605,0.006922496518399798,-0.008612580653878099,0.012215194318748013,0.9831120836715129
2017-06-05,1,0.008097411539402986,0.008871335502042318,-0.01591297497218229,0.008714170561160476,0.9813857475157575
2017-06-07,1,0.007400524905502375,0.008029127088973069,-0.01591297497218229,0.011231249216504985,0.9807361713089695
2017-06-09,1,0.006438779693468313,0.006901546519923682,-0.014124905370765188,0.01440601456420399,0.9820566675367728
2017-06-13,1,0.005914190041324266,0.006288491157645136,-0.015500461116235834,0.01440601456420399,0.9816250393303523
2017-06-15,1,0.004811480362017375,0.004966578084153449,-0.01423237010611548,0.01691481778764688,0.981782291448624
2017-06-19,1,0.004587229748504685,0.004672786356783656,-0.013511720581157686,0.013708822316244137,0.9828236007909629
2017-06-21,1,0.007879576342572341,0.008368301604071857,-0.013511720581157686,0.013708822316244137,0.9853361452621928
2017-06-23,1,0.007407110782123732,0.007922064761631454,-0.010860216781144957,0.013708822316244137,0.985721955189778
2017-06-27,1,0.0058479630349493415,0.0061426397548790534,-0.010860216781144957,0.013708822316244137,0.9867730164961005
2017-06-29,1,0.006339406938797518,0.006691999718883378,-0.013511720581157686,0.010922804050034964,0.986841509402724
2017-07-03,1,0.004501356148178734,0.004510482161501124,-0.013777228949909416,0.010922804050034964,0.9856186881725068
2017-07-06,1,0.004812369415872917,0.004899865107226884,-0.014228531524511649,0.010227131745231237,0.9856927057477598
2017-07-10,1,0.004713468248636907,0.004981287027916366,-0.014228531524511649,0.01015966241149779,0.9860941849877206
2017-07-12,1,0.0058927992368821526,0.006182326157537016,-0.013586741163675364,0.009595004553862332,0.9864031462860263
2017-07-14,1,0.00587412604476216,0.006137216470745978,-0.014228531524511649,0.009595004553862332,0.9850833436667845
2017-07-18,1,0.0026413438489849006,0.0027564728735368403,-0.014228531524511649,0.010227131745231237,0.9860002103147676
2017-07-20,1,0.004830028152760713,0.0050618032307959936,-0.014228531524511649,0.005531675304512362,0.9860469001375078
2017-07-24,1,0.004999853941768925,0.005256475557230072,-0.014228531524511649,0.00531787106283762,0.9867216795651316
2017-07-26,1,0.004672875874325846,0.0048436493832923755,-0.010735845194561673,0.008747966705394752,0.9867829874326511
2017-07-28,1,0.0032419056910855193,0.0032902039323845673,-0.011078584261595942,0.009595004553862332,0.9866361253060163
2017-08-01,1,0.0028010026761671096,0.002901213860793907,-0.005245502015823019,0.009595004553862332,0.9904076812693741
2017-08-03,1,0.0006487089979474141,0.0009464809804440188,-0.003388208221293471,0.014834372922837576,0.9900675925577029
2017-08-07,1,0.0014038553754521228,0.0015839877486221725,-0.005245502015823019,0.014938523157683892,0.9886796166452265
2017-08-09,1,0.0010875333924062634,0.0014354514734183847,-0.00880763332963213,0.014938523157683892,0.9859082954277872
2017-08-11,0,-0.0003200048214111002,0.0002180266783794859,-0.00880763332963213,0.014938523157683892,0.9852455557540276
2017-08-15,0,-0.0001849469213284448,0.00040020475288430474,-0.011026230822795881,0.012462457152032912,0.9854800340287796
2017-08-17,0,-0.0001785903010302816,0.0003214885491434891,-0.015216186649199354,0.012462457152032912,0.9850827695593433
2017-08-21,1,0.0003825318963139785,0.000777294440547313,-0.015216186649199354,0.012462457152032912,0.9850701103747062
2017-08-23,1,0.00023943326362011255,0.0006835934005888741,-0.015216186649199354,0.012462457152032912,0.9848926171872132
2017-08-25,0,-0.0004707690811784587,8.960579398458726e-05,-0.011870016218577315,0.012027435040515882,0.9858953020183615
2017-08-29,-1,-0.0008933266989389096,-0.00025344022564515465,-0.011870016218577315,0.012027435040515882,0.9857323927546175
2017-08-31,0,-0.0005006399342257874,0.0001424944832189379,-0.011870016218577315,0.008994446465461275,0.98612260340424
2017-09-05,-1,-0.0013051819036632873,-0.0005191584582972791,-0.011654032761950338,0.008994446465461275,0.985615705929683
2017-09-07,-1,-0.0022149107034276916,-0.0013429013008549179,-0.008318381080164753,0.0091681392072891,0.9879075856841327
2017-09-11,-1,-0.0036491243491807318,-0.0025836486951281226,-0.007318449451727958,0.012945059095387665,0.9893024809625793
2017-09-13,-1,-0.004784380155256676,-0.003561940495275855,-0.008318381080164753,0.012945059095387665,0.9883384356767259
2017-09-15,-1,-0.005511494217792966,-0.004209414058123086,-0.00972086650190251,0.012945059095387665,0.9888548028475205
2017-09-19,-1,-0.006314033523405953,-0.004881577036660142,-0.00972086650190251,0.012945059095387665,0.9886335170184628
2017-09-21,-1,-0.004485194622832222,-0.0034220585189024557,-0.0077859445923072115,0.007742512447979056,0.989542134082599
2017-09-25,-1,-0.003665596898368694,-0.00273321442647676,-0.010239984484109236,0.004215114174536228,0.9896258105048638
2017-09-27,-1,-0.00259843860248329,-0.0018881461734790185,-0.013211386708570512,0.004215114174536228,0.9890040106306361
2017-09-29,-1,-0.00191511812835007,-0.0012823533506389026,-0.0143354707176504,0.00158465100956201,0.9890933930620274
2017-10-03,-1,-0.0006827203140555513,-0.0002470894281327643,-0.014080264319771866,-0.00015064129587205025,0.9902956136365353
2017-10-05,1,9.829096508670782e-06,0.00032638382245691623,-0.014080264319771866,-0.0007494573545943396,0.9900001919149947
2017-10-09,1,2.181276151415508e-05,0.0003680295359731015,-0.014080264319771866,-0.0033957991092086947,0.9891633316119313
2017-10-11,-1,-0.0009750572883981373,-0.000517503303420165,-0.013126051712421647,-9.769906040496757e-05,0.9898742600257431
2017-10-13,-1,-0.0013026837217067423,-0.00089263086334748,-0.01395882559615195,-9.769906040496757e-05,0.9898212192683975
2017-10-17,-1,-0.0017717101138775043,-0.001277285082108372,-0.014929806494286829,-0.0032103763828438504,0.9883772877610423
2017-10-19,-1,-0.0023965901311177053,-0.0017957373436625593,-0.014929806494286829,-9.769906040496757e-05,0.9877962885883396
2017-10-23,-1,-0.002194383056422616,-0.0016862533615812148,-0.014898388952101323,-0.0027999660268303505,0.9875404934775462
2017-10-25,-1,-0.002486661026360178,-0.0020047536650865394,-0.014536468552945747,0.0018246812611740141,0.9882147120186908
2017-10-27,-1,-0.003157535640088624,-0.002608283401303076,-0.014535669962377692,0.0018246812611740141,0.9882666543116404
2017-10-31,-1,-0.00411913949471729,-0.0034307169562670025,-0.02049784227294714,0.0018246812611740141,0.9872892401878737
2017-11-02,-1,-0.0044551336485127765,-0.0037366279525617497,-0.02049784227294714,0.008299380237265962,0.9857516298583111
2017-11-06,-1,-0.004097862884610189,-0.0033708721637815777,-0.02049784227294714,0.008299380237265962,0.985825332821566
2017-11-08,-1,-0.003215976144377948,-0.0026166113973615014,-0.02049784227294714,0.007635804048240805,0.9866062970908651
2017-11-10,-1,-0.0002453471716140068,-0.00021541177241207114,-0.01723440090892727,0.008299380237265962,0.9858323059555525
2017-11-14,-1,-0.0019202082925671735,-0.001717495531995211,-0.009874905200424075,0.009996744818211983,0.9874427138211852
2017-11-16,-1,-0.0015836056980719406,-0.0013511147815437304,-0.010869946388353535,0.009996744818211983,0.9876958669293702
2017-11-20,-1,-0.0017511720965794368,-0.0015419482829016223,-0.010459474226842829,0.009996744818211983,0.9877050861231794
2017-11-22,-1,-0.0021481184922825655,-0.0018267298032750372,-0.010459474226842829,0.009996744818211983,0.9877038235653866
2017-11-27,-1,-0.0030618928492569123,-0.0026470372734451676,-0.008425856352737552,0.013005784308344787,0.9878065668584846
2017-11-29,-1,-0.00353068866073775,-0.003106373902982324,-0.007546205383067946,0.013005784308344787,0.9892222927354672
2017-12-01,-1,-0.00166317593078131,-0.0014461321986345582,-0.008285831478542444,0.013005784308344787,0.9899026533426979
2017-12-05,-1,-0.001540685233030034,-0.0013708213739438693,-0.008285831478542444,0.013530041421042329,0.9885346051496199
2017-12-07,-1,-0.001278134323057607,-0.0011188648178286666,-0.008760927749635987,0.013530041421042329,0.9872496990064894
