JNU-Tangyin/eata/results/Batch4_SP500/Batch4_SP500-PKI.csv
Date,Action,Predicted_Q25,Predicted_Q75,Actual_Q25,Actual_Q75,RL_Reward
2010-12-14,0,0.0,0.0,-0.003566673035545269,0.004231504172942447,0.9952294000951537
2010-12-16,0,0.0,0.0,-0.005511871561066152,0.003283824587631792,0.9946043270718048
2010-12-20,0,0.0,0.0,-0.006138914154589531,0.002805531500371068,0.9940192564383926
2010-12-22,0,0.0,0.0,-0.007336258574035121,0.002805531500371068,0.9932275876146505
2010-12-27,0,0.0,0.0,-0.007336258574035121,0.00420354970895706,0.9924880375775609
2010-12-29,0,0.0,0.0,-0.007336258574035121,0.008037447894339973,0.9912536954715033
2010-12-31,0,0.0,0.0,-0.008181673227471271,0.008037447894339973,0.9907262439712824
2011-01-04,0,0.0,0.0,-0.007336258574035121,0.009692417906137223,0.9905088797345004
2011-01-06,1,0.0009503659893759092,0.0009553055368550795,-0.005901471125659605,0.009692417906137223,0.9902672270244854
2011-01-10,1,0.0011936107192886554,0.0012655645602031868,-0.007175988771272217,0.010086571342286828,0.990035170627496
2011-01-12,1,0.0002952722941490944,0.00039758749050577237,-0.007175988771272217,0.009435650497069974,0.990276491810757
2011-01-14,-1,-0.0006005899351208026,-0.0003656677151645545,-0.00322695987365426,0.009435650497069974,0.9906842224936676
2011-01-19,-1,-0.0005067946388812026,-0.00033513002612200316,-0.00322695987365426,0.009435650497069974,0.9909076680292817
2011-01-21,-1,-0.0012864768625269834,-0.000990238781055575,-0.0010251895288972178,0.009435650497069974,0.9912618632470199
2011-01-25,1,0.0003894828016361008,0.0004002795329338923,-0.003802242152476481,0.008639522235245205,0.9906163461946127
2011-01-27,1,0.0007917522900321254,0.0008293508236482812,-0.008024345720113162,0.006256875278884103,0.9867436526498448
2011-01-31,-1,-0.0001388464356923542,-2.5422029324750027e-05,-0.003802242152476481,0.008639522235245205,0.9865032447812262
2011-02-02,1,0.00024365781439140134,0.00030899613343710487,-0.003173948564317696,0.010603523393561335,0.9857865619132422
2011-02-04,1,0.0010200260522710753,0.001080616046353651,-0.009632123080465899,0.008639522235245205,0.9858401607910648
2011-02-08,1,0.0007543962610996543,0.0007636158486398741,-0.009632123080465899,0.00941324169558696,0.9856119000633266
2011-02-10,1,0.0010295390257675564,0.0010639613102645927,-0.011986969335920571,0.007427355305217316,0.9847321722533419
2011-02-14,1,0.0009503699163501233,0.0009623905459268712,-0.01623841310614433,0.007427355305217316,0.9833209103023502
2011-02-16,1,0.0011883633857458276,0.0012753863773717219,-0.017420286187133534,0.007332715001135441,0.9828654667913883
2011-02-18,1,0.0010476850822104995,0.0011074107242778218,-0.017420286187133534,0.011727235009781197,0.9822876514590202
2011-02-23,-1,-0.00011887296253962088,-3.1673813394149364e-05,-0.014994668727165976,0.011727235009781197,0.9843058263090476
2011-02-25,-1,-0.00017759679924675377,-4.812740703525562e-05,-0.010634689544214367,0.008929611314192688,0.9894021583832514
2011-03-01,1,0.0007473772485141678,0.0007708308592198658,-0.010634689544214367,0.00850885521714919,0.9895991640901536
2011-03-03,1,0.0014922801798457883,0.0015833760594394803,-0.010634689544214367,0.006134074488204737,0.9903974486930204
2011-03-07,1,0.0006674170099070821,0.0006844794531068277,-0.005974552089849375,0.008199226329338583,0.9909585374766942
2011-03-09,1,0.0009038009960481657,0.0009164056579430844,-0.005751479978700392,0.006134074488204737,0.9914773082280416
2011-03-11,1,0.000816615766376153,0.0008435734686195887,-0.004770097887718422,0.006134074488204737,0.9927397450356055
2011-03-15,-1,-0.00039584279484237945,-0.00024960808407808186,-0.004019193248005868,0.006134074488204737,0.9941944766475856
2011-03-17,-1,-0.0007852149665049097,-0.000605271724356942,-0.004019193248005868,0.0051729572552162775,0.9950009435800604
2011-03-21,-1,-0.0007575970883902346,-0.0005695045207212063,-0.004019193248005868,0.0051729572552162775,0.9942786989970117
2011-03-23,-1,-0.0009263283092964749,-0.0007113409534690267,-0.004019193248005868,0.008199226329338583,0.9929449121525062
2011-03-25,-1,-0.0006941052376918173,-0.0005205374204074892,-0.004629399344809146,0.005716794252013149,0.9927701826230114
2011-03-29,-1,-0.0004330862155112052,-0.0002914897998025696,-0.004629399344809146,0.008358425024193516,0.9917406557352005
2011-03-31,-1,-0.00040067684786046764,-0.0002727186653603954,-0.0032114480529984966,0.008577390296689115,0.9915089294447859
2011-04-04,1,3.018129624888301e-05,0.00012138430078385029,-0.004886931585938015,0.007751090701485292,0.9919774213968414
2011-04-06,0,-4.024503883233053e-05,4.0921109084232095e-05,-0.005386412089012405,0.007751090701485292,0.9915588544438431
2011-04-08,-1,-0.00038461073686800744,-0.00024108325889148508,-0.005386412089012405,0.007751090701485292,0.991223364580845
2011-04-12,-1,-0.0006990653483644093,-0.0005056430736321331,-0.005386412089012405,0.007751090701485292,0.9909972313796893
2011-04-14,-1,-0.000807643971602059,-0.0006252153127360937,-0.005386412089012405,0.007959554301158545,0.990609118901525
2011-04-18,-1,-0.001139252259443435,-0.0008862167021396263,-0.005386412089012405,0.0076234805854257974,0.991133075508153
2011-04-20,-1,-0.0004419649656225008,-0.0002739535056847885,-0.005386412089012405,0.0076234805854257974,0.9917689100845338
2011-04-25,-1,-0.0009802437387975806,-0.0007267742279775268,-0.00738712885965232,0.0076234805854257974,0.9907037555614285
2011-04-27,1,0.0005910660576550689,0.0006060956040775474,-0.00738712885965232,0.006494721847389198,0.9918087594817232
2011-04-29,1,0.0009200261839986653,0.0009350995915089566,-0.00738712885965232,0.00596054872196278,0.9918826400423505
2011-05-03,1,0.0009116270363155681,0.0009367480898727627,-0.00980116657739327,0.00559711971792419,0.9914990636014508
2011-05-05,1,0.0008210315379821702,0.0008751980109448357,-0.00989901425204288,0.00559711971792419,0.9909383386960801
2011-05-09,1,0.0011244618085202627,0.001229376337523669,-0.011249590931703109,0.00559711971792419,0.9904918318830278
2011-05-11,1,0.0011724155619060323,0.0012964723578621092,-0.011249590931703109,0.00559711971792419,0.9905011604931144
2011-05-13,1,0.0010847719160045814,0.0012057613747423646,-0.012846359521750337,0.005125088767646344,0.9898167827168075
2011-05-17,1,0.00077002151431181,0.0008455279092210417,-0.011344342145555495,0.00559711971792419,0.9897574138527008
2011-05-19,1,0.001122073530536017,0.0012407552841835197,-0.011344342145555495,0.005456225881582091,0.9901930539363525
2011-05-23,1,6.933585150725419e-05,0.00010366079998087925,-0.010510786507724225,0.00559711971792419,0.9908431249895807
2011-05-25,1,0.00019401516592991447,0.00021438221581294794,-0.010510786507724225,0.005526391684536213,0.9907255271301098
2011-05-27,1,0.00025204242453363195,0.00028277625008440104,-0.010510786507724225,0.00512121926655656,0.9906410999152069
2011-06-01,-1,-0.0001558436410178765,-9.449025703632685e-05,-0.009938370479218016,0.00616176738547293,0.9904393317436402
2011-06-03,-1,-0.0009628753780862624,-0.0008058172058913928,-0.008179644976034559,0.008475076536515207,0.9906316063209193
2011-06-07,-1,-0.0010396014504737191,-0.0008756548468593197,-0.008179644976034559,0.009448707455965627,0.9901258722277678
2011-06-09,-1,-0.0008995741463768837,-0.0007286537487976646,-0.009938370479218016,0.009448707455965627,0.9903049986972122
2011-06-13,-1,-0.002107579714846135,-0.0017744459199748566,-0.008952172569250304,0.009448707455965627,0.9899077228228492
2011-06-15,-1,-0.002298673308387121,-0.001922494852376456,-0.008952172569250304,0.007061147650178598,0.9901928382921987
2011-06-17,-1,-0.0018152749236572717,-0.0015272221908493283,-0.009805788249604588,0.007061147650178598,0.9900137345649381
2011-06-21,-1,-0.0004590229416304605,-0.00037515108766000046,-0.009805788249604588,0.007061147650178598,0.9899410994956043
2011-06-23,-1,-0.001258403928275129,-0.0010511296030609992,-0.008957726286154218,0.01004797107345733,0.9894978678856157
2011-06-27,-1,-0.0009873559880749171,-0.0008288761382253243,-0.010464434199680146,0.008256172369175366,0.9885552594101564
2011-06-29,-1,-0.00023523715457732136,-0.00018892936722385913,-0.011890033870912343,0.004132753172981224,0.9870330942683974
2011-07-01,1,0.0005923593044603599,0.0006542906736202756,-0.013966435659115239,0.0003634951639941623,0.9862759663998287
2011-07-06,1,0.0007520273983358935,0.0008476289864834477,-0.020199992269274165,-0.0005722591886760103,0.9853392062103697
2011-07-08,1,0.0005044254113498738,0.0005792125117830852,-0.026648367517892884,-0.0005722591886760103,0.9807450294851823
2011-07-12,-1,-0.0006635596484584567,-0.0005797846389146054,-0.026738364153527025,0.0016159703538544859,0.9803721159086192
2011-07-14,-1,-0.0007394311201845072,-0.0006486719990778608,-0.026738364153527025,0.0038865824438987042,0.9798526957480188
2011-07-18,-1,-0.0019185391141458667,-0.0016280636257244986,-0.026738364153527025,0.014692580261225366,0.979425089730185
2011-07-20,-1,-0.0008591364833002492,-0.0007264190282582592,-0.026738364153527025,0.01225713312589842,0.9797119894468481
2011-07-22,1,0.00013311175443649027,0.0001629979237335378,-0.028326537182428696,0.002885044617818733,0.9771621471142589
2011-07-26,-1,-0.00044916780202746803,-0.00044119282719957243,-0.02792576820108346,0.01225713312589842,0.9772004734732811
2011-07-28,-1,-0.002440220044651049,-0.0021708146554209715,-0.022418987342984063,0.012972610428939898,0.9785686100717506
2011-08-01,-1,-0.0032717617789583646,-0.002922520851981026,-0.01631884329549049,0.016611386245897267,0.977000017492668
2011-08-03,-1,-0.004240185410573897,-0.003764831770134912,-0.011204776486604014,0.016611386245897267,0.9781469125612042
2011-08-05,-1,-0.004486209529939244,-0.003940173711505233,-0.014402223850281313,0.014692580261225366,0.9811956584135773
2011-08-09,-1,-0.005273346935480689,-0.004611666067832201,-0.012266941719147365,0.014692580261225366,0.9816714040371686
2011-08-11,-1,-0.004947142853006206,-0.004341174266493061,-0.021430436049286607,0.012972610428939898,0.9795319952451941
2011-08-15,-1,-0.004452988296851091,-0.003903287929315072,-0.021430436049286607,0.011612693512201868,0.9801111294836498
2011-08-17,-1,-0.005015932664534187,-0.0044112743716011715,-0.021430436049286607,0.014972846690188914,0.9787447639769846
2011-08-19,-1,-0.006745574953423331,-0.005960077572081045,-0.021352408741716004,0.014972846690188914,0.9801670539461637
2011-08-23,-1,-0.0051673369131048415,-0.004571858063539067,-0.02241648739557697,0.011612693512201868,0.9805630975784912
2011-08-25,-1,-0.005505552058102321,-0.004915968663582971,-0.022781550373026805,0.013797006981408304,0.9794682712991999
2011-08-29,-1,-0.003228410044017753,-0.0028973764025041525,-0.022781550373026805,0.013078634937829809,0.9807460880603209
2011-08-31,-1,-0.003052716841771264,-0.0027480705613359244,-0.025326270633814738,0.018576138703066774,0.977725222220038
2011-09-02,-1,-0.0048728972637856706,-0.004352914751213208,-0.02557326871646945,0.018576138703066774,0.9776412351766564
2011-09-07,-1,-0.0041692540751166116,-0.0037178384496265007,-0.02557326871646945,0.018576138703066774,0.9764254904762529
2011-09-09,-1,-0.006892175149154903,-0.006139408712925659,-0.025339186793757643,0.01973096033042815,0.9745156040182112
2011-09-13,-1,-0.0054328715359636785,-0.004899624444527296,-0.025339186793757643,0.022337370256856684,0.9729693193937277
2011-09-15,-1,-0.0044512912744120725,-0.004034444659506911,-0.025339186793757643,0.02080544761465159,0.9734722845166894
2011-09-19,-1,-0.004256776876872231,-0.003927502060892708,-0.032010582593826345,0.022056872690419067,0.9717578023695919
2011-09-21,-1,-0.005483081795657034,-0.005048463920725678,-0.022134723245252747,0.0222536706189743,0.9721772928478419
2011-09-23,-1,-0.005275669767367229,-0.004879016021046888,-0.018948093870306635,0.022334579976430242,0.972793094396178
2011-09-27,-1,-0.004039181997287056,-0.0037669813679996654,-0.01982082166115119,0.02481378207164595,0.9725306156260641
2011-09-29,-1,-0.004125762451530138,-0.003870565082057657,-0.018948093870306635,0.02481378207164595,0.9722100297697086
2011-10-03,-1,-0.00572858896487188,-0.005297670545716943,-0.01425410060153512,0.026478288144805243,0.9704729628008193
2011-10-05,-1,-0.003953388552510039,-0.0037240498150215434,-0.01497317609838197,0.02481378207164595,0.9715660343608815
2011-10-07,-1,-0.005620943012454225,-0.005182904149528645,-0.01497317609838197,0.02481378207164595,0.9722216886929277
2011-10-11,-1,-0.002762347604736751,-0.002683906773108367,-0.01497317609838197,0.025301815759674284,0.9727590978660703
2011-10-13,-1,-0.0031150759130303975,-0.002949412719019649,-0.0242919497357933,0.025301815759674284,0.9715307769977102
2011-10-17,-1,-0.003061048073659089,-0.002913960181545699,-0.014568665357246442,0.023103111230896194,0.9733881742030587
2011-10-19,-1,-0.0022996330542142335,-0.0022685402120563823,-0.02041803076521539,0.023103111230896194,0.9737494937656355
2011-10-21,-1,-0.0012988877607927037,-0.0012256480665229221,-0.02189215085736443,0.017722710689534505,0.9744510711718197
2011-10-25,-1,-0.0013440875330915803,-0.0013142598391362608,-0.02407706404028569,0.011746452007290097,0.9747884041424751
2011-10-27,1,0.0004775434733099469,0.0007513780121910632,-0.02407706404028569,0.00849721317271247,0.9773679688752148
2011-10-31,1,0.00033620747680740317,0.0006125291961433283,-0.022255953482066868,0.00849721317271247,0.979137488443054
2011-11-02,-1,-0.000845927578402852,-0.0007693576759422622,-0.020532869372895217,0.011746452007290097,0.9788205317473659
2011-11-04,-1,-0.000901273667730443,-0.000819945112487931,-0.019945848649430695,0.009028949863045093,0.9827184678970338
2011-11-08,1,0.00038510627988701306,0.0006492313639862587,-0.019945848649430695,0.007889307910304712,0.984194141152507
2011-11-10,-1,-0.0003844560167795128,-0.00017501125537031168,-0.019945848649430695,0.008802701385856032,0.9841742809883639
2011-11-14,0,-0.00018784686282840657,3.394906787139841e-05,-0.0216733193789344,0.007889307910304712,0.9827907855451573
2011-11-16,-1,-0.0002825426372979256,-6.667252315210306e-05,-0.0216733193789344,0.008802701385856032,0.9821490412054027
2011-11-18,0,0.0,0.0,-0.02046946969056602,0.008802701385856032,0.982584780266636
2011-11-22,0,0.0,0.0,-0.008553220990560776,0.01188909436667757,0.9824346282777229
2011-11-25,-1,-0.0011448988357155505,-0.0009026381704354467,-0.00590190728447379,0.01567442403613898,0.9824287813086282
2011-11-29,0,-0.0003210947823914557,2.824632519870889e-05,-0.00590190728447379,0.011209448297999261,0.9836029585088747
2011-12-01,1,0.0009963993121407506,0.0014736510861414153,-0.00590190728447379,0.011209448297999261,0.9855302029246461
2011-12-05,0,0.0,0.0,-0.00844551306960731,0.015082415395246854,0.983710058571945
2011-12-07,1,0.002720453517306068,0.0036208220726380034,-0.00844551306960731,0.01593733631949753,0.9833332949071387
2011-12-09,0,0.0,0.0,-0.00590190728447379,0.01762952851986731,0.9836254040975722
2011-12-13,0,0.0,0.0,-0.0024040261983176974,0.017695662424685715,0.984472829805865
2011-12-15,0,0.0,0.0,-0.001720413478541192,0.015831414087057558,0.9855294226261162
2011-12-19,0,0.0,0.0,0.00596134148287832,0.017834922311840338,0.9846899933150094
2011-12-21,0,0.0,0.0,0.003726917260135142,0.015831414087057558,0.986889792980315
2011-12-23,0,0.0,0.0,0.003726917260135142,0.017834922311840338,0.9862195716661238
2011-12-28,0,0.0,0.0,0.003726917260135142,0.017834922311840338,0.98647256632454
2011-12-30,1,0.0004924535059798083,0.000897764067782193,-0.0021620216844285612,0.017834922311840338,0.9873610204085373
2012-01-04,1,0.0012014986924709782,0.0017091039744541194,-0.0021620216844285612,0.017834922311840338,0.9871888115064215
2012-01-06,1,0.003413236309237855,0.004229828526850864,-0.0029617465877711806,0.017834922311840338,0.9862187196452834
2012-01-10,1,0.004086798959496127,0.004972880018797278,-0.0029617465877711806,0.015831414087057558,0.9873757837598042
2012-01-12,1,0.003292215028400434,0.004084063587069062,-0.005627640373632217,0.01306503080080284,0.986638409147471
2012-01-17,1,0.004927164150785122,0.005840761912578287,-0.005627640373632217,0.010384420546122044,0.9875459682962489
2012-01-19,1,0.00552994794497761,0.0065143711439642725,-0.005627640373632217,0.011876228123686708,0.9876686419741816
2012-01-23,1,0.0060492656995581335,0.007131900326337183,-0.007506858972779916,0.011876228123686708,0.9876412473566331
2012-01-25,1,0.006983299678341927,0.008257106450106742,-0.00805590753370307,0.008244111249081448,0.9877087703499039
2012-01-27,0,0.0,0.0,-0.007269305387302363,0.010683139593506093,0.9863746193011873
2012-01-31,0,0.0,0.0,-0.007975402865712397,0.010683139593506093,0.9864738994705576
2012-02-02,0,0.0,0.0,-0.007975402865712397,0.008244111249081448,0.9885242350940732
2012-02-06,0,0.0,0.0,-0.007975402865712397,0.007116230323284529,0.9903874414526939
2012-02-08,0,0.0,0.0,-0.007975402865712397,0.010683139593506093,0.9895215551598016
2012-02-10,0,0.0,0.0,-0.007975402865712397,0.010683139593506093,0.9901601830493049
2012-02-14,0,0.0,0.0,-0.007975402865712397,0.01258603442895917,0.9887709241425922
2012-02-16,0,0.0,0.0,-0.007975402865712397,0.01029884625653074,0.9896807609814229
2012-02-21,0,0.0,0.0,-0.007191596014669826,0.01029884625653074,0.9902488114092064
2012-02-23,0,0.0,0.0,-0.006513808978107483,0.006910911495150515,0.9908236853117535
2012-02-27,0,0.0,0.0,-0.006513808978107483,0.010446608775446774,0.9906665291724102
2012-02-29,1,0.003850982181109678,0.004183305408943178,-0.006513808978107483,0.010446608775446774,0.9899034744092404
2012-03-02,1,0.0026445558124883525,0.0027959818483460665,-0.004881282967098052,0.010446608775446774,0.9907654220755271
2012-03-06,1,0.0022334938563609167,0.002389132520671785,-0.004134873110681263,0.010851440387129915,0.9916776363585293
2012-03-08,1,0.002824711458262096,0.0030477455213637197,-0.005037572208890423,0.006815529874707949,0.9918584057984532
2012-03-12,1,0.0023772950605884793,0.0025225497751643934,-0.007650294594500525,0.00503523661571424,0.9900926262006228
2012-03-14,1,0.002840982349963739,0.003054199487327946,-0.005705190099906353,0.010446608775446774,0.9902728124570458
2012-03-16,1,0.0033394710907191883,0.0036583266955565515,-0.009663563660853329,0.00503523661571424,0.9889417250469853
2012-03-20,1,0.0032072163395750744,0.003514399391510537,-0.009663563660853329,0.010565295525802217,0.9878751766517554
2012-03-22,1,0.002670485457349462,0.002922574451420811,-0.009663563660853329,0.010565295525802217,0.9880856087478291
2012-03-26,1,0.0025636918961363174,0.0027742717278365684,-0.010339700730966982,0.0035842320437952683,0.987805473361135
2012-03-28,1,0.0019749916948945184,0.0020744537816661866,-0.010308454551051945,0.0062122818100453035,0.987062583776713
2012-03-30,1,0.0023603155870028374,0.0024838448408737133,-0.010308454551051945,0.012638027728863585,0.9859745413755096
2012-04-03,1,0.0027789192618423806,0.0030185713858743818,-0.010141396005281841,0.013199791357417619,0.986396318828487
2012-04-05,1,0.0018671716183086711,0.0019325734417638349,-0.010690482251265402,0.013199791357417619,0.9857689196972685
2012-04-10,1,0.00037736376306997377,0.0004944473851467972,-0.006946790767030894,0.013199791357417619,0.987711560701907
2012-04-12,1,0.001090814744057103,0.001149507284277459,-0.008796611011638995,0.005581279908275986,0.9885113405529578
2012-04-16,-1,-0.0003844024999549821,-0.00012223320672675455,-0.008796611011638995,0.005581279908275986,0.9892624876259678
2012-04-18,-1,-0.0010477245772151074,-0.0006341687829777372,-0.010796217131413467,0.00475304554139587,0.9898707461948535
2012-04-20,-1,-0.0018519870582418693,-0.00129740208792861,-0.01293275950170735,0.0041474364505205,0.9896321805063429
2012-04-24,-1,-0.002674262143711588,-0.0020262703645135827,-0.010796217131413467,0.005581279908275986,0.9892403563126875
2012-04-26,-1,-0.001205034743898959,-0.0007718643706676651,-0.010796217131413467,0.005581279908275986,0.9904963066768994
2012-04-30,0,-0.0003023364705611282,1.666207330104218e-05,-0.010796217131413467,0.005581279908275986,0.9905625719500784
2012-05-02,1,0.00014611574140925684,0.0004007534886457168,-0.012885226469925626,0.0014979004078607707,0.9905106701604361
2012-05-04,-1,-0.0012798611371877822,-0.0008218920969512962,-0.013010510123252945,0.0014979004078607707,0.9899273553205009
2012-05-08,-1,-0.0024545380255379346,-0.0017770042038634086,-0.013010510123252945,0.004354045445086233,0.98923331856525
2012-05-10,-1,-0.0027535567297481585,-0.00205752891625542,-0.012885226469925626,0.0021495992915875235,0.9899416523011336
2012-05-14,-1,-0.0038959789753710973,-0.003029757342293822,-0.012885226469925626,0.0074958760211935255,0.9891522413845676
2012-05-16,-1,-0.00409665584247009,-0.003270653834271479,-0.009623758318996128,0.0074958760211935255,0.989435728877227
2012-05-18,-1,-0.004478822354034978,-0.0036448262229453786,-0.007980154634106033,0.0074958760211935255,0.9891297406125542
2012-05-22,-1,-0.004017283035304958,-0.003215672950994597,-0.007980154634106033,0.0074958760211935255,0.9891139562232603
2012-05-24,-1,-0.0033654025271580464,-0.0026712428886911587,-0.009623758318996128,0.0054113149933901865,0.9886821316411643
2012-05-29,-1,-0.0026820602515491444,-0.002085129141602802,-0.013985785529071617,0.0042122933782475815,0.9884889688072819
2012-05-31,-1,-0.0026172145358715412,-0.0020847426520021473,-0.010646566756596523,0.0054113149933901865,0.9880642781592366
2012-06-04,-1,-0.0036876413105507186,-0.0030680539474828837,-0.005523699040755978,0.0076672886012351645,0.9879368443782248
2012-06-06,-1,-0.0023279009079560592,-0.0019084205681851793,-0.006517033333477612,0.006769461498358861,0.9888853646381571
2012-06-08,-1,-0.0022625854058280714,-0.0018672415031720881,-0.010898782805107046,0.006769461498358861,0.9868984208232219
2012-06-12,-1,-0.0018879951621930944,-0.0015837572155111856,-0.011001478820424283,0.0042122933782475815,0.9872281810109236
2012-06-14,-1,-0.002615272850752983,-0.0022134549290470755,-0.010449086600373084,0.007244528812238427,0.9870501851883967
2012-06-18,-1,-0.0014651641639383578,-0.0012614188158233215,-0.010449086600373084,0.007409711994379229,0.9870721929259177
2012-06-20,-1,-0.0008840519046685803,-0.0007390027476797403,-0.010449086600373084,0.008492207451526044,0.9869251182859993
2012-06-22,-1,-0.0016870275248057473,-0.0014473243528076618,-0.016700562617579795,0.008492207451526044,0.986894823679479
2012-06-26,-1,-0.002028144067273966,-0.0017883008422043228,-0.016700562617579795,0.013856151788890807,0.9864458781980909
2012-06-28,-1,-0.0022113648159558076,-0.001903180761707611,-0.016700562617579795,0.016614555506579583,0.9845779297831021
2012-07-02,-1,-0.0011051821916657507,-0.0009457924271222707,-0.016700562617579795,0.01409550052922861,0.9859026188991655
2012-07-05,-1,-0.0011447498939071575,-0.0009543485867044778,-0.018199976525750755,0.008492207451526044,0.9856908180368757
2012-07-09,0,0.0,0.0,-0.009888419170664301,0.020295420822550817,0.9827690564157635
2012-07-11,0,0.0,0.0,-0.0057499648717912405,0.02102252898521057,0.9828010379859442
2012-07-13,0,0.0,0.0,-0.0057499648717912405,0.02102252898521057,0.9832687775982807
2012-07-17,0,0.0,0.0,-0.007099984871399553,0.02102252898521057,0.9832637037648196
2012-07-19,0,0.0,0.0,-0.00977234288606519,0.020295420822550817,0.9841921325048761
2012-07-23,0,0.0,0.0,-0.006047258701523075,0.020295420822550817,0.9854140859233272
2012-07-25,0,0.0,0.0,-0.0052230552408076,0.014676843001315274,0.9868451828999663
2012-07-27,0,0.0,0.0,-0.0052230552408076,0.002004160195753584,0.9890862167291355
2012-07-31,0,-0.0004653409131315947,0.0,-0.006047258701523075,0.002004160195753584,0.9890956662519356
2012-08-02,-1,-0.001525108242243061,-0.0013533730495943262,-0.0053994872100662835,0.0032286161416257664,0.989939986374141
2012-08-06,1,0.001961678105985367,0.0022680826937633005,-0.0053994872100662835,0.0032286161416257664,0.9929734000574537
2012-08-08,1,0.0028255789347758115,0.0032639512552300708,-0.0053994872100662835,0.0032286161416257664,0.9926244530058673
2012-08-10,1,0.0025660255091492215,0.0029638412470024862,-0.004927582629507853,0.006214102212126454,0.9927292793253071
2012-08-14,1,0.002100052867355681,0.0024235375551430955,-0.004363665022795563,0.009273804838258643,0.9930006451975405
2012-08-16,1,0.0023388653008461387,0.0027477279404231466,-0.0037166581125080535,0.011917568846732946,0.9911171019696648
2012-08-20,0,0.0,0.0,-0.0037166581125080535,0.011917568846732946,0.9906999157875223
2012-08-22,0,0.0,0.0,-0.0037166581125080535,0.010042687135327827,0.9910727719146446
2012-08-24,0,0.0,0.0,-0.0033632151143203797,0.010042687135327827,0.9909630783137306
2012-08-28,0,0.0,0.0,-0.004294217233698732,0.010042687135327827,0.9907437200783255
2012-08-30,1,0.0011091520148722458,0.00119763301069276,-0.0033632151143203797,0.010042687135327827,0.9909938538666062
2012-09-04,1,0.0022655079317988455,0.002567204704916181,-0.0033632151143203797,0.00715112381769879,0.9917294589352579
2012-09-06,1,0.0025131430848018433,0.0027950103158204923,-0.0033632151143203797,0.009606551955169119,0.9919547467786559
2012-09-10,1,0.002888676783361594,0.0032448678985543987,-0.00331428948789753,0.007680560531373332,0.9920306369720168
2012-09-12,1,0.003024273883877018,0.0033969238255912738,-0.007195140946224501,0.006509126676433528,0.9908360134436065
2012-09-14,1,0.004218917199747844,0.004707465403507092,-0.007195140946224501,0.0049272302953371925,0.992645543443399
2012-09-18,1,0.004559816338166158,0.005155128420551377,-0.004248127432677145,0.005681495784792085,0.9927363697636781
2012-09-20,1,0.0048582625427028205,0.005541517575802658,-0.007195140946224501,0.005824370143742453,0.9912506269735615
2012-09-24,0,0.0,0.0,-0.007392440512415443,0.005824370143742453,0.9902323331642061
2012-09-26,0,0.0,0.0,-0.005317834875638381,0.006509126676433528,0.9889924305088422
2012-09-28,0,0.0,0.0,-0.005317834875638381,0.007680560531373332,0.9844334319929758
2012-10-02,0,0.0,0.0,-0.01095440383583135,0.011496822566066316,0.9829953948373029
2012-10-04,1,0.003649933085108044,0.004119056568185064,-0.011175370292946133,0.006450988498354197,0.983937269799173
2012-10-08,1,0.0032483597040539516,0.003617616956799174,-0.011175370292946133,0.005804990751049344,0.9835306643413092
2012-10-10,0,0.0,0.0,-0.011175370292946133,0.005804990751049344,0.9839513915321083
2012-10-12,0,0.0,0.0,-0.011175370292946133,0.005804990751049344,0.9839548415871029
2012-10-16,0,0.0,0.0,-0.011741690992629379,0.00510455967560795,0.9842309132441935
2012-10-18,0,0.0,0.0,-0.011175370292946133,0.005300837814010608,0.9853371935462879
2012-10-22,0,0.0,0.0,-0.008871852338130752,0.007411455333347275,0.9864188701182349
2012-10-24,0,0.0,0.0,-0.008408544987636449,0.007411455333347275,0.9870431820807677
2012-10-26,0,0.0,0.0,-0.008408544987636449,0.006571864572438844,0.9913658515133353
2012-11-01,1,0.0028855389067928196,0.003246430757289311,-0.007763997417992623,0.0071595280041052214,0.9922044323004164
2012-11-05,1,0.002468339239726238,0.002752546026196162,-0.00759680832277612,0.0071595280041052214,0.9922427065775636
2012-11-07,1,0.001706607818049453,0.0018512936095883249,-0.007426386362429541,0.0071595280041052214,0.9922929430961851
2012-11-09,1,0.0012352366967619535,0.0013317501968415036,-0.00690788372151904,0.007414431334023398,0.9924203997700752
2012-11-13,1,0.0014254135837925013,0.0015970893264536045,-0.006802633087997233,0.00838901226291554,0.9918658204804186
2012-11-15,1,0.0002030014800459628,0.0002515420266064721,-0.005526878750069819,0.00838901226291554,0.9925855196773901
2012-11-19,-1,-0.0002522195322059563,-8.904080948459256e-05,-0.005526878750069819,0.010825390917269116,0.9921379668874317
2012-11-21,0,0.0,0.0,-0.006802633087997233,0.009111096169619883,0.991421975803881
2012-11-26,0,0.0,0.0,-0.006802633087997233,0.007817580680365794,0.9918131327420522
2012-11-28,0,0.0,0.0,-0.006802633087997233,0.007817580680365794,0.9920115341027096
2012-11-30,1,0.0006466982183512038,0.0007896571661535919,-0.007110634461864122,0.009111096169619883,0.9910483782866891
2012-12-04,-1,-0.0008417292427310894,-0.00046103937851435387,-0.006802633087997233,0.011247461975938377,0.9911702116153137
2012-12-06,-1,-0.001333187076911986,-0.000911609512001774,-0.004409036350580868,0.012180254351071269,0.9896971351520385
2012-12-10,-1,-0.0011879959506687918,-0.000774622764004554,-0.003999345461920394,0.012619648953379949,0.9884715599493833
2012-12-12,-1,-0.000308205663565037,-5.2091981680769755e-05,-0.004062197610147005,0.011247461975938377,0.9887038357440893
2012-12-14,-1,-0.0014355996675548708,-0.000967991852431714,-0.007026152839333259,0.011247461975938377,0.9885286168952411
2012-12-18,-1,-0.00053222302663543,-0.00016318496434390272,-0.007026152839333259,0.01017820026646955,0.9888907887834897
2012-12-20,1,0.00024297869211714314,0.00042026874611061693,-0.0052545439413359644,0.01194680102286741,0.9885785872970925
2012-12-24,-1,-0.0007317855318927974,-0.0004183616650079668,-0.0045560051400866,0.01194680102286741,0.9894204064001418
2012-12-27,-1,-0.002070921591885452,-0.001529919127208784,-0.0045560051400866,0.012184728066681333,0.9890655237306044
2012-12-31,1,0.00016200100909905392,0.00028308895809436326,-0.0045560051400866,0.011106416260780795,0.9899207860346034
2013-01-03,1,0.0009943063815181174,0.0010188612101204985,-0.0052545439413359644,0.01025750928107419,0.987937145050316
2013-01-07,1,0.001989526836450385,0.00212102185309196,-0.00685436704326805,0.01025750928107419,0.9885833523825427
2013-01-09,1,0.002993371681436465,0.003223334566649294,-0.00685436704326805,0.01025750928107419,0.9898963862022201
2013-01-11,1,0.002708496774788874,0.0028728237051948166,-0.005217110670788625,0.009237207249422478,0.9902114216570507
2013-01-15,1,0.002052562237595178,0.002110948737584506,-0.0045560051400866,0.009237207249422478,0.990640742610629
2013-01-17,0,0.0,0.0,-0.0050892795073972956,0.007924394480354743,0.9911762986122945
2013-01-22,0,0.0,0.0,-0.007075675515287728,0.004082038598088061,0.99111426443045
2013-01-24,0,0.0,0.0,-0.008015373198061723,0.007548289317749194,0.9904757344984833
2013-01-28,0,0.0,0.0,-0.009077969700012192,0.007548289317749194,0.9891991478567372
2013-01-30,0,0.0,0.0,-0.007811327107092313,0.0076137692907285205,0.9888164214560852
2013-02-01,0,0.0,0.0,-0.007132310691121226,0.008766321680951674,0.9901806907120789
2013-02-05,0,0.0,0.0,-0.005515175178984157,0.008766321680951674,0.9906078030347781
2013-02-07,0,0.0,0.0,-0.005515175178984157,0.00869384806241628,0.9902749820512039
2013-02-11,1,0.0020683806972090165,0.002384158149351061,-0.008757457862293861,0.009337625632417922,0.990121527413329
2013-02-13,0,0.0,0.0,-0.008757457862293861,0.009337625632417922,0.9898034133571951
2013-02-15,0,0.0,0.0,-0.008470179684656198,0.009337625632417922,0.9899411900923321
2013-02-20,1,7.380829155117751e-05,8.450553574616024e-05,-0.005515175178984157,0.009337625632417922,0.9912049559912977
2013-02-22,-1,-0.0004928162629755514,-0.00040263871974273793,-0.008244140231946048,0.009337625632417922,0.9907131873700812
2013-02-26,1,0.0002783820616654686,0.0002838502544744194,-0.008244140231946048,0.007633230742719996,0.9916171257153096
2013-02-28,1,0.00047826057237874,0.000514026166191152,-0.008967276041526018,0.007633230742719996,0.9913373433075554
2013-03-04,1,0.0012350683923170545,0.001415079076117206,-0.008967276041526018,0.007633230742719996,0.9915439910758321
2013-03-06,0,0.0,0.0,-0.008967276041526018,0.007235479365762591,0.9917595872535131
2013-03-08,1,0.001681397777462082,0.0018444645101982574,-0.009756302067476592,0.0038063690302354734,0.9914769273651379
2013-03-12,1,0.0015404156022753184,0.0016867806213214766,-0.008967276041526018,0.0071926495327345906,0.9910278723611576
2013-03-14,1,0.0016293288436058195,0.0018237068670003613,-0.008967276041526018,0.0071926495327345906,0.9910836782067775
2013-03-18,1,0.0004367084444288655,0.0004774551727767736,-0.00907818370934614,0.008460825700435411,0.9892769010253009
2013-03-20,-1,-0.00044667210157323155,-0.000230985534672483,-0.012976317986337756,0.008460825700435411,0.9879717734066537
2013-03-22,-1,-0.0020731849579437153,-0.0016506470763709947,-0.012503268738651895,0.008460825700435411,0.9884707431576895
2013-03-26,-1,-0.0018106082358127803,-0.001532245250058365,-0.010616455205810466,0.012508813712903315,0.9885508343062037
2013-03-28,-1,-0.0017482197911502981,-0.0015385497345880594,-0.01092097833403136,0.012775333291405752,0.9841221356851335
2013-04-02,0,0.0,0.0,-0.01092097833403136,0.009757686313177652,0.984630889403843
2013-04-04,-1,-0.0003115600148081101,-0.00021865095055014557,-0.01092097833403136,0.009757686313177652,0.984405010049054
2013-04-08,0,0.0,0.0,-0.009924629560935296,0.012663252725090276,0.98453614606227
2013-04-10,0,0.0,0.0,-0.009924629560935296,0.01302546480618696,0.9842503025104758
2013-04-12,0,0.0,0.0,-0.009924629560935296,0.0134679933742736,0.9839202836737155
2013-04-16,0,0.0,0.0,-0.008384705682403102,0.012258830258329028,0.985837552158297
2013-04-18,0,0.0,0.0,-0.0025274549510457154,0.012258830258329028,0.9859046641211342
2013-04-22,0,0.0,0.0,0.000777787911013122,0.012258830258329028,0.9864271551172913
2013-04-24,0,0.0,0.0,-0.0025274549510457154,0.010241638228291895,0.9858612699358834
2013-04-26,-1,-0.0014880375819507226,-0.0012710430780483273,-0.0011798519396998704,0.008886055600681668,0.9909474698920818
2013-04-30,-1,-0.0017739633384842126,-0.001510379219971202,-0.003479047552480836,0.009495665746114223,0.9906014553759804
2013-05-02,-1,-0.0020834853553829613,-0.0017767240253788682,-0.003479047552480836,0.009495665746114223,0.9904953317938883
2013-05-06,-1,-0.001598183445629274,-0.0013606552073829946,-0.003479047552480836,0.009495665746114223,0.9902743635347158
2013-05-08,-1,-0.0009775508076429382,-0.0008066314298855828,-0.003938052681340263,0.008845140607438174,0.9917922997075951
2013-05-10,-1,-0.000822219633313757,-0.0006699308898685727,-0.003938052681340263,0.008845140607438174,0.9917694257556458
2013-05-14,-1,-0.00078086691383849,-0.0006611622780103518,-0.00405863915225347,0.009491941201378988,0.9908533875245848
2013-05-16,-1,-0.0010608718203903187,-0.0008990380685685903,-0.00405863915225347,0.009607237091638996,0.9904832754984857
2013-05-20,-1,-0.001139292139420329,-0.0009552787927104837,-0.00405863915225347,0.011313600710686688,0.9888455827944537
2013-05-22,-1,-0.0013733501634584514,-0.0011593329591813003,-0.009398913910942833,0.011313600710686688,0.9881044387173802
2013-05-24,-1,-0.0011352540583773377,-0.0009651314881858635,-0.011991246726930076,0.012724551056247917,0.9859943694553348
2013-05-29,-1,-0.0012542731689517543,-0.0010597974180222656,-0.011991246726930076,0.012724551056247917,0.9867234657635892
2013-05-31,-1,-0.001220203704368691,-0.0010550259381679396,-0.0112849133749975,0.012724551056247917,0.9866937985518148
2013-06-04,-1,-0.00017803859620771722,-0.00017769841036260995,-0.0112849133749975,0.011313600710686688,0.9873423114787763
2013-06-06,-1,-0.0001196166452215524,-0.00011265718652473687,-0.0112849133749975,0.011907575091226662,0.9871717247743711
2013-06-10,0,0.0,0.0,-0.0112849133749975,0.013954964401063717,0.9867035414783042
2013-06-12,0,0.0,0.0,-0.007624803549665094,0.013954964401063717,0.9875110732812796
2013-06-14,1,0.0021151344564092167,0.002320695814619739,-0.005575328058813417,0.010631535366080398,0.9892159702172139
2013-06-18,1,0.0031027274454873983,0.0034225085688694085,-0.007624803549665094,0.005410252088831802,0.9897796128140782
2013-06-20,0,0.0,0.0,-0.004551696760501751,0.010056620677910164,0.9910996476415697
2013-06-24,0,0.0,0.0,-0.004551696760501751,0.007976036056891183,0.9925481784358546
2013-06-26,0,0.0,0.0,-0.004551696760501751,0.007976036056891183,0.9922283351011459
2013-06-28,0,0.0,0.0,-0.0030980975877160566,0.007976036056891183,0.9925139093259951
2013-07-02,0,0.0,0.0,-0.0030980975877160566,0.00600162111597539,0.992605582659832
2013-07-05,0,0.0,0.0,0.001086462189195527,0.010056620677910164,0.9901790404678795
2013-07-09,0,0.0,0.0,-0.0019117095109511765,0.00473832099609831,0.9912940632485019
2013-07-11,0,0.0,0.0,-0.0019117095109511765,0.0053409409110816465,0.9913676953062903
2013-07-15,0,0.0,0.0,-0.001442471808788591,0.009508115844965269,0.9906313159514136
2013-07-17,1,0.001153998691365212,0.0011714346238626998,0.00027209459119382064,0.009508115844965269,0.9916772253190312
2013-07-19,1,0.001835029512689938,0.0019264427593072499,-0.002765685125349383,0.0053409409110816465,0.9915583377151083
2013-07-23,1,0.001590107336302546,0.0016614351079060714,-0.002765685125349383,0.0053409409110816465,0.9917918644522786
2013-07-25,1,0.0016512787001778646,0.001733748987492935,-0.002765685125349383,0.0053242139887627335,0.9918247191387796
2013-07-29,1,0.0018669517852975925,0.0019927927648862825,-0.002765685125349383,0.0076266459166104365,0.9915766708407181
2013-07-31,1,0.0018554841444772912,0.002002196645948029,-0.002765685125349383,0.0076266459166104365,0.9909527704915775
2013-08-02,1,0.0027299498741910695,0.002983262429172891,-0.002984741430387902,0.0034965804527545795,0.9934999646675
2013-08-06,1,0.002449443612089809,0.0026527351412214987,-0.002984741430387902,0.007366449393407082,0.993349173484627
2013-08-08,1,0.0023643314515432003,0.0025382659868185553,-0.002984741430387902,0.007316600534889714,0.9934239939398435
2013-08-12,1,0.0028484057011980454,0.0030824673238811547,-0.002984741430387902,0.007192771042088451,0.9936164039010829
2013-08-14,1,0.0022733295487940676,0.0023887211279281072,-0.0031690371407222806,0.007192771042088451,0.993255770937325
2013-08-16,1,0.0014098576170848468,0.0014324904881335922,-0.00013881494662336283,0.007192771042088451,0.994266531565999
2013-08-20,1,0.001091952380974058,0.0011532565955540593,0.00020612262038866502,0.007606528789844882,0.9938761728975332
2013-08-22,1,0.0010444188239818737,0.0011099407113084603,-0.0007400226011830158,0.007606528789844882,0.9934206180514936
2013-08-26,1,0.0010208267284095701,0.0011017953124097045,-0.001456302741805113,0.007192771042088451,0.9932933947420677
2013-08-28,1,0.0002934366414901856,0.0004664021632690015,-0.001456302741805113,0.007606528789844882,0.9932362601961687
2013-08-30,1,0.0006654114279868949,0.000753780928513697,-0.0026232980778129952,0.007606528789844882,0.9929109191913333
2013-09-04,1,0.001034342765087538,0.0010785673462283837,-0.0034312239001695697,0.0067488266290390226,0.993390043358244
2013-09-06,1,0.0007706767241559358,0.0008736692760149816,-0.007160909366401425,0.006841453085075722,0.9929362666533837
2013-09-10,1,0.0006103054257069291,0.0007729030644299916,-0.00946194962856604,0.005631349991649714,0.9923505397159992
2013-09-12,1,7.762497593491327e-05,0.0003199355787413486,-0.00946194962856604,0.005631789943655594,0.9919529937504817
2013-09-16,1,0.0004349497965993929,0.0006126051960694536,-0.00946194962856604,0.00552631708326436,0.992017993966857
2013-09-18,1,0.0018690855638667692,0.0019151174416371438,-0.009584511940788357,0.004613077287907821,0.9910643211507681
2013-09-20,1,0.0015295887203206969,0.0015368089821386028,-0.009584511940788357,0.00552631708326436,0.9904886401467615
2013-09-24,1,0.0008880227513713665,0.0009685776544933564,-0.00946194962856604,0.00552631708326436,0.9910936892358941
2013-09-26,1,0.0012413184246923637,0.0012652174337234123,-0.00946194962856604,0.0061271664511847075,0.9915187598080051
2013-09-30,1,0.0014061427549837806,0.0014710632976837664,-0.006458533493440256,0.0064375039901264685,0.991371332187071
2013-10-02,1,0.0015835115477572119,0.0016928474299467361,-0.009584511940788357,0.007204042573256867,0.9907777718571334
2013-10-04,1,0.001259108455550891,0.001305054333178228,-0.006765510075774196,0.0064375039901264685,0.9910667501648518
2013-10-08,0,-9.908635362194322e-05,4.534214406560577e-05,-0.0055188662051022025,0.0064375039901264685,0.9916970045051411
2013-10-10,1,0.00025159401988862493,0.00034648691794768695,-0.007218778130909584,0.0061271664511847075,0.9919074759074588
2013-10-14,1,2.6604650543315023e-06,0.00014692038006771535,-0.007218778130909584,0.00635350247430299,0.9912488397930624
2013-10-16,-1,-0.0007343698924073119,-0.0004957832410363582,-0.0055188662051022025,0.00635350247430299,0.9922380321456863
2013-10-18,1,0.00012860709788089234,0.0002767500029899556,-0.0055188662051022025,0.007486928124689014,0.9922545480685735
2013-10-22,-1,-0.00039060806647552417,-0.00014953934744763226,-0.006988786619630177,0.007486928124689014,0.9918656795005114
2013-10-24,1,0.0003448387496266603,0.00046696907812019306,-0.006988786619630177,0.00875732920613069,0.9919353149521544
2013-10-28,1,0.0004896783811987335,0.0005847506999926179,-0.007578200050497429,0.0037707647234765857,0.9920825017441249
2013-10-30,1,0.0005256514570469503,0.0005969753431393533,-0.005946534281551048,0.0043554568542200234,0.992676676113333
2013-11-01,0,-6.587278699007822e-05,9.050225704787139e-05,-0.006676411699570288,0.0043554568542200234,0.992630997292135
2013-11-05,-1,-0.0005734795587695641,-0.00037734708642212715,-0.006676411699570288,0.0043554568542200234,0.9928827539685364
2013-11-07,-1,-0.0006675813077898334,-0.0005297658868504648,-0.0038027495220953407,0.005861334568050185,0.9930348614091303
2013-11-11,-1,-0.0012456167572005717,-0.0009481481108229091,-0.0038027495220953407,0.009415319459342658,0.9920567582912014
2013-11-13,-1,-0.0013713353106338,-0.0010554920276652031,-0.004791878653343577,0.009415319459342658,0.9911898835893379
2013-11-15,-1,-0.00040189345157583907,-0.0001962670067409422,-0.004791878653343577,0.005462359224027549,0.9924035233473327
2013-11-19,-1,-0.001110333966639928,-0.0008025343207500417,-0.00430439048432041,0.007697433889032565,0.9913218553094699
2013-11-21,-1,-0.0009272175732838984,-0.0006332537779766335,-0.00430439048432041,0.0062727754333478086,0.9912323420728574
2013-11-25,-1,-0.0013398222196624812,-0.0010089058231063494,-0.0026448197838673665,0.007910881691650287,0.9908706093530745
2013-11-27,-1,-0.0005397555549013158,-0.00034463559741098584,-0.0026448197838673665,0.007910881691650287,0.991422851178124
2013-12-02,-1,-0.0008602494681201805,-0.0006418487551377471,-0.0013055569472884662,0.007910881691650287,0.9914445390188813
2013-12-04,-1,-0.0013090378510282603,-0.0010335585273944718,-0.0013055569472884662,0.007910881691650287,0.9912409391381294
2013-12-06,-1,-0.0012106031932403193,-0.000907719586065909,-0.0013055569472884662,0.010077949472478295,0.9911035654800575
2013-12-10,1,0.0004674652485538287,0.0005363981059909067,-0.0013055569472884662,0.010077949472478295,0.9919870552039614
2013-12-12,-1,-0.0005296858025350544,-0.0003206513926470515,-0.00245362094288051,0.010077949472478295,0.9916633337346602
2013-12-16,-1,-0.0003079564087246886,-0.00013457808087805035,-0.001455026599241676,0.010077949472478295,0.9914163398123463
2013-12-18,1,0.0006524757596433834,0.0007009655247305215,-0.001455026599241676,0.009602454111513047,0.9928405626851621
2013-12-20,1,0.0007859078395947247,0.0008334372627118571,-0.0021169386841997677,0.009602454111513047,0.9931227510507427
2013-12-24,1,0.0029877792299369127,0.0032422861780063428,-0.005255912499601329,0.007307555556735091,0.9916099476742016
2013-12-27,1,0.002743835796036953,0.0029543832111317966,-0.005255912499601329,0.009602454111513047,0.989707669327348
2013-12-31,1,0.0022799720995035017,0.002502870625754969,-0.005255912499601329,0.010467716575476103,0.9882613716330474
2014-01-03,1,0.003351543150886944,0.003716113767709899,-0.006815035308068084,0.010467716575476103,0.9875443102210609
2014-01-07,1,0.003945965495001516,0.004380397829209726,-0.006815035308068084,0.006723778410979379,0.9873390164569191
2014-01-09,1,0.004515762626889192,0.004965908770052113,-0.006815035308068084,0.005489244431624753,0.987386094439833
2014-01-13,1,0.0032777904606451666,0.0035421029145763913,-0.0051872917588226064,0.006723778410979379,0.9885199230596977
2014-01-15,1,0.003654850870911093,0.003966835460219219,-0.0051872917588226064,0.0047937906436600845,0.9887197843434277
2014-01-17,1,0.0035773395266963,0.003897339496813222,-0.0066752215616657715,0.004182027972131307,0.9882367923225699
2014-01-22,1,0.003079490191162478,0.003278896214242802,-0.00778426047895419,0.005923461186778998,0.9867240823291673
2014-01-24,1,0.0013201651749477703,0.0013516808615837595,-0.0066752215616657715,0.009960327049363461,0.9885078859974344
2014-01-28,1,0.0031552459105439476,0.003389140922848656,-0.0066752215616657715,0.00855777919781907,0.9901635674711025
2014-01-30,1,0.0044772837903562165,0.004897531659979517,-0.0066752215616657715,0.00855777919781907,0.9909406054632415
2014-02-03,1,0.0038368509862249838,0.004208922589851235,-0.005749112980563993,0.009960327049363461,0.9914234434266248
2014-02-05,1,0.0032532553284858657,0.003529768702864195,-0.005749112980563993,0.009960327049363461,0.9917711790365165
2014-02-07,1,0.004263688652593693,0.0046910979658102,-0.0066752215616657715,0.009397126096953645,0.9916730832221856
2014-02-11,1,0.00476906413822202,0.005293713625744301,-0.007140793902599383,0.008647460200458462,0.991423795427168
2014-02-13,1,0.004601718004190198,0.005071382573989241,-0.0074356902143406425,0.008647460200458462,0.9904543603905287
2014-02-18,1,0.0036638974018385027,0.003978721527696173,-0.0074356902143406425,0.010184852469982648,0.9907367167271669
2014-02-20,1,0.004065287933864027,0.004442747408153653,-0.005922404130727145,0.009397126096953645,0.9924040397165097
2014-02-24,1,0.003766333463553889,0.004073552743963149,-0.008365018282996253,0.008647460200458462,0.9916114461968666
2014-02-26,1,0.0040226424498380564,0.004360906406547167,-0.008365018282996253,0.008647460200458462,0.9909908248436807
2014-02-28,1,0.0043466596285340695,0.004710953578574703,-0.008365018282996253,0.007176884426707173,0.9910684648316435
2014-03-04,1,0.003598251623993941,0.003787608075814501,-0.007229411235494103,0.008498473202921929,0.9917786830534928
2014-03-06,1,0.004155817229418837,0.004427604014621468,-0.007229411235494103,0.008498473202921929,0.9913764327572147
2014-03-10,1,0.0034826014955742033,0.0036640554907114925,-0.01132801632507017,0.008498473202921929,0.9907871837597695
2014-03-12,1,0.0026932392491119815,0.002716671846997394,-0.008296585253291484,0.009299695223691456,0.9911809554093284
2014-03-14,1,0.0025209846285595915,0.002593239778846504,-0.011686434584511034,0.009299695223691456,0.9899063619014525
2014-03-18,1,0.003384551335009687,0.0035487901084465447,-0.011686434584511034,0.006891801724684907,0.9902339721732649
2014-03-20,1,0.003631206578772755,0.0038500293714049806,-0.011686434584511034,0.005210143598215157,0.9904130813477986
2014-03-24,1,0.002429099976411431,0.0024975156150145493,-0.007720969032697686,0.007643225096855132,0.9911951082340453
2014-03-26,1,0.0017563407317732066,0.0017893884810222245,-0.007720969032697686,0.007643225096855132,0.9914677733564722
2014-03-28,1,0.0011519465053326542,0.0012839121276946516,-0.012200163212858084,0.007643225096855132,0.9895075966166766
2014-04-01,1,0.0012283373409693059,0.0013872226772004672,-0.012200163212858084,0.003853066241732277,0.9900713296691497
2014-04-03,1,0.0010570973470587631,0.0012975080291869642,-0.012200163212858084,0.003853066241732277,0.990410592276354
2014-04-07,0,-0.00018020336705599647,0.0001428211078489702,-0.010471417823686109,0.005209445133837925,0.9893112830165505
2014-04-09,1,0.0002922645118159238,0.0005614621908885068,-0.010471417823686109,0.003853066241732277,0.9898233540605024
2014-04-11,-1,-0.0008809325934432011,-0.000531643056597434,-0.004316568120336783,0.00756426026714126,0.9905356325662593
2014-04-15,-1,-0.00114499815347441,-0.000742197033663668,-0.006218749792207844,0.005467776168143559,0.9900692752671287
2014-04-17,-1,-0.0009950199854533966,-0.0006175390423705518,-0.010916536277043708,0.008568170360052467,0.9889258864297347
2014-04-22,-1,-0.0014388250014446637,-0.000980263247307191,-0.007751948609579236,0.006061292190599106,0.9894333629131009
2014-04-24,-1,-0.001490737068237462,-0.001036384431523867,-0.007490574368948091,0.008568170360052467,0.9890154771333147
2014-04-28,-1,-0.003919548953577021,-0.0031541851482870032,-0.0023941790627589983,0.008568170360052467,0.9900101715539591
2014-04-30,-1,-0.0044853306055063396,-0.0036344682253637646,0.0007293990844979374,0.008726889871067926,0.9889101885489856
2014-05-02,-1,-0.0037725389302514204,-0.0030330956197204685,0.0007293990844979374,0.009679487562280957,0.9890329207075234
2014-05-06,-1,-0.0019778264155954533,-0.0015159173768202099,0.0016966687563518437,0.009679487562280957,0.9915091931927924
2014-05-08,-1,-0.002455428651496673,-0.0019038875844270375,0.0023022550613608817,0.011083836237194934,0.9899081699317541
2014-05-12,-1,-0.0014164702030752885,-0.0009939685939072721,0.0004999537182537226,0.010846404672862528,0.9914343466652243
2014-05-14,-1,-0.0015043683227990538,-0.0011189140986896254,-0.0032471977318629308,0.010846404672862528,0.9919064026484368
2014-05-16,-1,-0.0016789480328463942,-0.0012923834870346067,-0.0032471977318629308,0.009115862241261784,0.9929424911404908
2014-05-20,-1,-0.0015161065408221648,-0.0011664653158013141,-0.0003679747322587322,0.010977054651039781,0.9923105889020412
2014-05-22,-1,-0.0009814731609015135,-0.0006916641038445733,-0.003031431489530981,0.009115862241261784,0.992896403484408
2014-05-27,-1,-0.000926438692455259,-0.0006409164676424109,-0.004357264138376145,0.009115862241261784,0.9927328272386586
2014-05-29,-1,-0.0005563591604390693,-0.0003090710595031053,-0.004357264138376145,0.007589744912111681,0.9932363819019928
2014-06-02,1,0.0005361379070184054,0.0006194747747803805,-0.004357264138376145,0.006274479427837836,0.994011535505492
2014-06-04,1,0.0017589774741389379,0.001896267163544619,-0.004357264138376145,0.006274479427837836,0.9937221833833584
2014-06-06,1,0.0021626860730273494,0.0022929729341890272,-0.004966281713345432,0.003963651161221335,0.9933240738794983
2014-06-10,1,0.001795993860385585,0.001901781562876497,-0.004966281713345432,0.003963651161221335,0.9935060644576685
2014-06-12,1,0.001276202908920389,0.0013091808938056257,-0.003933695116777587,0.003963651161221335,0.9939207430973703
2014-06-16,1,0.0008372457983755505,0.0008626480611174682,-0.003933695116777587,0.004606467759991564,0.993669651762687
2014-06-18,1,0.0005250334825014254,0.0006710249257958611,-0.003933695116777587,0.0019077589294203908,0.9943682558686286
2014-06-20,1,0.0014805115945009217,0.0015048249537274732,-0.00378225221303764,0.0034344891443141485,0.9935982721700861
2014-06-24,1,0.0013382287801854142,0.0014723538386378437,-0.0022565272709766243,0.005146238119783076,0.9937806030981086
2014-06-26,1,0.000723046484293597,0.0007563360535122338,-0.0022565272709766243,0.005146238119783076,0.9937991706735838
2014-06-30,1,0.000540933128322856,0.000552801258842165,-0.003934492181884797,0.005146238119783076,0.9930441277397811
2014-07-02,1,0.0014837373559674818,0.0016477703309827993,-0.005941054970532711,0.002590970477521084,0.9926736004861733
2014-07-07,1,0.001996698013750559,0.002112408353325445,-0.005941054970532711,0.002590970477521084,0.9917655247272338
2014-07-09,1,0.0016880972969597614,0.0017748702799753814,-0.003934492181884797,0.002590970477521084,0.9924698719639247
2014-07-11,1,0.0009903810166895543,0.0010296962822514254,-0.0036460469666813435,0.0045734735384188405,0.9926120215676307
2014-07-15,1,0.0010523772007083071,0.0010591791761810471,-0.0036460469666813435,0.005210859267291784,0.9927847473403747
2014-07-17,1,0.0007485893119498089,0.0007766227241729777,-0.0032233977707702933,0.006747769235382147,0.9924400416657636
2014-07-21,1,0.001958519025178942,0.002112653690915519,-0.005175513810341036,0.006169864447224967,0.9924961424757482
2014-07-23,1,0.0028154228818812288,0.0031232112577806812,-0.006272749625457687,0.005210859267291784,0.9918224328813795
2014-07-25,1,0.003033295910157054,0.0033847702069082514,-0.006272749625457687,0.005210859267291784,0.991288661550431
2014-07-29,1,0.0023651077940679346,0.0026380521581520033,-0.005786850841145825,0.006169864447224967,0.9919987979892215
2014-07-31,1,0.0013017277879147056,0.0014003713277384706,-0.005786850841145825,0.006169864447224967,0.9928348807842574
2014-08-04,1,0.0009996664892048888,0.0010501529410706569,-0.005240499579807631,0.0053187467900945185,0.9948926915525071
2014-08-06,1,0.00039444609621891056,0.00046466059836435886,-0.005240499579807631,0.0053187467900945185,0.994987129550263
2014-08-08,1,0.0011656371984142208,0.0012630583314542452,-0.005240499579807631,0.005022786826664956,0.9951071665592014
2014-08-12,1,0.0011430486305400163,0.001252944301761563,-0.005240499579807631,0.003991717596869635,0.9950767695849435
2014-08-14,1,0.0013801574131285345,0.0014617193316902955,-0.005591456236932444,0.0024502651556272243,0.9951303662672238
2014-08-18,1,0.0013090402771664244,0.001357303022729786,-0.006359944601561597,0.0020574863469428038,0.9948648332436724
2014-08-20,1,0.0005430743931559872,0.0005959336085002815,-0.005214493258072051,0.0024502651556272243,0.9952695993613606
2014-08-22,1,0.0007762469901343405,0.0008026331302979505,-0.005921537094003788,0.003236556315984027,0.9950481746039116
2014-08-26,1,0.0013729091316419775,0.0015186291407516908,-0.007350187172775632,0.003236556315984027,0.994299148098659
2014-08-28,1,0.00041914936568071076,0.0004541859065168023,-0.007507363197361776,0.003799631630537869,0.9933725598284642
2014-09-02,1,0.0009435847011402441,0.0010135132584473078,-0.008914307066067915,0.004733429262919621,0.9928920675056291
2014-09-04,1,0.0001102156603336745,0.0002264319372690057,-0.010191888484976633,0.004733429262919621,0.9916034799250552
2014-09-08,1,0.0004720671690154382,0.0005426579583066001,-0.010191888484976633,0.004777445635108303,0.9914267883725186
2014-09-10,1,0.00012633759946620743,0.00022853838656053957,-0.01042384122880179,0.005493317520208852,0.9902330494388698
2014-09-12,-1,-0.00022014698315136458,-9.077344070747051e-05,-0.012520290059286844,0.005493317520208852,0.9884337733475863
2014-09-16,-1,-0.0018645125601701195,-0.0015407826202066773,-0.015669421838717452,0.006495486082390139,0.9872313660276333
2014-09-18,-1,-0.0014864748796120121,-0.00112011304756632,-0.015669421838717452,0.005517192466300555,0.9871135562382712
2014-09-22,-1,-0.002026664167367144,-0.0015807479388987677,-0.015669421838717452,0.005517192466300555,0.987591116853278
2014-09-24,-1,-0.002128289549288266,-0.0016927678803283714,-0.017243664663953006,0.005517192466300555,0.9851546211339386
2014-09-26,-1,-0.0025609444101770858,-0.002087782435759333,-0.015669421838717452,0.010653134124649142,0.9844478369562348
2014-09-30,-1,-0.002754514595731657,-0.0022600889106206825,-0.015669421838717452,0.014319300465217127,0.9835876557694845
2014-10-02,-1,-0.0030701685876088863,-0.002593852031582931,-0.014000106632088116,0.015275234533558644,0.9834476335942995
2014-10-06,-1,-0.002839671418856641,-0.002368157088627913,-0.014000106632088116,0.015275234533558644,0.9835904181828922
2014-10-08,-1,-0.0024916587386738416,-0.0020487660164900676,-0.007255046076008483,0.014319300465217127,0.984974835398873
2014-10-10,-1,-0.004053115617394954,-0.003431881380383468,-0.0025940554265651283,0.014319300465217127,0.9847873399369985
2014-10-14,-1,-0.004050353542153162,-0.003459136217289666,-0.000947844312464423,0.013627037741172299,0.9864596115849924
2014-10-16,-1,-0.0041125320721855305,-0.0035227179006212398,-0.00250367092371455,0.013627037741172299,0.9872598130043085
2014-10-20,-1,-0.003846216726695546,-0.003312601992945489,-0.004864262455956265,0.013627037741172299,0.987314541259023
2014-10-22,-1,-0.003264394852110341,-0.002832142367072651,-0.003416469938108022,0.011470961843386838,0.990464768957442
2014-10-24,-1,-0.0010852682827995406,-0.0009462590794044438,-0.003416469938108022,0.009444586885124789,0.9911794564114089
2014-10-28,1,0.0008581887680830713,0.0010219818663953935,-0.003416469938108022,0.006876223740540245,0.992526658665451
2014-10-30,1,0.0011493447780340086,0.0013232359383459043,-0.003154191133545049,0.006165805463477636,0.9932708905561257
2014-11-03,1,0.0012548474583486185,0.0014208997959828285,-0.003987041539416768,0.005992218984086533,0.9929779664107146
2014-11-05,1,0.0012685287770687228,0.0014156504322412119,-0.004950885112050135,0.0050788779321320685,0.992708852822991
2014-11-07,1,0.0013857102884859023,0.001593812239519735,-0.005600560108567191,0.0038456021205885843,0.9929760712167693
2014-11-11,1,0.0015917859666672522,0.001831771348107348,-0.00738559641733965,0.002777236792142417,0.991341516750876
2014-11-13,1,0.0009825407752237299,0.0011174852937164467,-0.008430215721866304,0.002777236792142417,0.9917125937980692
2014-11-17,1,0.0009171087987809802,0.0010493715556477593,-0.009800259961372793,0.0017748354956550138,0.9911236939752242
2014-11-19,1,0.0012103777242959976,0.0013835717104337883,-0.009800259961372793,0.004131074942245509,0.9892438619204584
2014-11-21,1,0.003072157600467958,0.0035326801295375134,-0.009800259961372793,0.004131074942245509,0.9891013189588242
2014-11-25,1,0.0033916435250777657,0.0038890189843118527,-0.009800259961372793,-0.0007240520025326689,0.9884082849293564
2014-11-28,1,0.0029020887085432342,0.003309622048089801,-0.009800259961372793,0.0013470560412073601,0.9889359918017162
2014-12-02,1,0.0024082093868908784,0.0027381810280669447,-0.008754929295958227,0.00221755193351294,0.9894985617186117
2014-12-04,1,0.0019069287680554595,0.002153434912133517,-0.010857901974748403,0.004619005567924215,0.9888213998074195
2014-12-08,1,0.0009774057424896206,0.0010925079281888033,-0.008326133983118522,0.006629084436631149,0.989602072167497
2014-12-10,1,0.00040639356657163245,0.0004927030814325258,-0.007975563407145243,0.008858755654596616,0.9896239213083294
2014-12-12,1,0.0004572230406357496,0.0005859484497593923,-0.007736292787789885,0.008858755654596616,0.9898680654810748
2014-12-16,-1,-0.00013446999741118412,-6.903189635563766e-05,-0.005206148296508332,0.008858755654596616,0.9901489117397512
2014-12-18,1,0.0019294671234252147,0.002233884207363211,-0.007864683209694003,0.006629084436631149,0.9913461440381134
2014-12-22,1,0.002448847573413214,0.002771186769084972,-0.007864683209694003,0.006629084436631149,0.9915464974273128
2014-12-24,1,0.002078422238374146,0.002334770620892216,-0.007864683209694003,0.008265829249312993,0.9916859381510976
2014-12-29,1,0.0019318330543528434,0.0021633080678564003,-0.00821992522353565,0.008840856868354638,0.9907902572166147
2014-12-31,1,0.0017369090084087108,0.0019469027264930074,-0.008144447945945366,0.010291229672241737,0.9901783732062238
2015-01-05,1,0.0010986485114738193,0.0012155891447895033,-0.004579232424186744,0.01090758786897947,0.9901615583706305
2015-01-07,1,0.0013811994298599172,0.0015698254507398074,-0.004579232424186744,0.012649424120986933,0.9894539171512116
2015-01-09,1,0.0021275490092054674,0.002424503557035572,-0.00841478155813271,0.01090758786897947,0.989925652896102
2015-01-13,1,0.001682782128400033,0.001888070447528342,-0.00841478155813271,0.01090758786897947,0.9898763670216618
2015-01-15,1,0.001152856476565793,0.0012740955824413357,-0.003928798130935511,0.01090758786897947,0.9899430353919173
2015-01-20,1,0.0013605223727324199,0.0015156078357550658,-0.0022727219537230503,0.010291229672241737,0.9909895376676127
2015-01-22,1,0.0017946892946250344,0.0019881930732183885,-0.0043411331726181425,0.01082774657396026,0.9906390092603932
2015-01-26,1,0.002300270601181636,0.002565673223810817,-0.0043411331726181425,0.010804026929299018,0.9907050710632305
2015-01-28,1,0.002389289830603168,0.002670205115394813,-0.0031346717608226006,0.00929480643284471,0.9914432781738328
2015-01-30,1,0.003029105172031691,0.0034088215060306282,-0.0031346717608226006,0.008676908084540667,0.9922751339552386
2015-02-03,1,0.0038336234691999367,0.004297932298226994,-0.006108874299149818,0.005203683855493136,0.9924148293029632
2015-02-05,1,0.0033555165089869804,0.0037319419518273902,-0.006108874299149818,0.005203683855493136,0.9925627556035915
2015-02-09,1,0.002129918839376948,0.002299716472282197,-0.004681339419351278,0.005203683855493136,0.9937281219278411
2015-02-11,1,0.0025747052716705997,0.002827790169426861,-0.004681339419351278,0.00929480643284471,0.993182958012705
2015-02-13,1,0.0026743529301049666,0.002929004349751685,-0.004681339419351278,0.009356888835629538,0.9929525443536508
2015-02-18,1,0.002673580667207587,0.003007130355830747,-0.004681339419351278,0.010673018819842488,0.9924683075496518
2015-02-20,1,0.002503488679443719,0.0027705939563594057,-0.0030983120889256275,0.010673018819842488,0.9929083426996967
2015-02-24,1,0.002727937758087443,0.003017388357173429,-0.0030983120889256275,0.010673018819842488,0.9930757574332195
2015-02-26,1,0.00193361499076921,0.001992649729343815,-0.0007926463404858086,0.010673018819842488,0.9930555906729829
2015-03-02,1,0.0020620043239787844,0.002153941893055994,-0.0007926463404858086,0.011276408266233886,0.992517942404693
2015-03-04,1,0.0017117248238737767,0.0018358948302581092,-0.0007926463404858086,0.011276408266233886,0.9923135436335975
2015-03-06,1,0.0007899301991864261,0.0009163018048672278,9.90030802371242e-05,0.010673018819842488,0.993508627974215
2015-03-10,1,0.00011140729566576823,0.00033925845632387154,0.000346535298437778,0.011276408266233886,0.9927438757060095
2015-03-12,1,0.0006330329671472168,0.0008086130517595002,0.000346535298437778,0.00841872702688572,0.9937085688854815
2015-03-16,1,0.0012760182958269522,0.0013919249234191438,9.600677340914118e-05,0.007275727007455869,0.9943656803359641
2015-03-18,1,0.0015780320786152673,0.0015878009977462134,9.600677340914118e-05,0.006049335201935242,0.995073106163903
2015-03-20,1,0.002666043854009502,0.002867056256482662,-0.0017513448477843704,0.005597111213897387,0.9948659612024114
2015-03-24,1,0.0031363282543211374,0.003447710765757261,-0.0018929702500773212,0.004326705727304196,0.9948216948505592
2015-03-26,1,0.003147281600904298,0.0034808730715731816,-0.003344018024017515,0.004326705727304196,0.994787560600122
2015-03-30,1,0.0037682644330417703,0.004196877019776917,-0.003344018024017515,0.0037555597859104976,0.9947620968392971
2015-04-01,1,0.0031226359959163263,0.0034723720543967133,-0.0021776761660893484,0.0037555597859104976,0.9954428509848964
2015-04-06,1,0.0029723266928651897,0.0032876282065392053,-0.0033626049338422843,0.003979186837996403,0.9938358069628324
2015-04-08,1,0.0030802458593492364,0.003412518691501256,-0.007667451407635534,0.0037555597859104976,0.9927589631049937
2015-04-10,1,0.0029840832921570063,0.00327646979627686,-0.007667451407635534,0.0037555597859104976,0.9928816461521588
2015-04-14,1,0.002512545389610552,0.0027300495506176825,-0.00389937053509515,0.003979186837996403,0.9931648955152776
2015-04-16,1,0.0026343064399332364,0.00287706301025745,-0.00389937053509515,0.005457211580213679,0.9927909269444791
2015-04-20,1,0.003138788915045994,0.0035125208534949257,-0.002327982955590541,0.005457211580213679,0.9934794339723024
2015-04-22,1,0.003299222529249557,0.0037070596902194623,-0.002327982955590541,0.0073026549174956355,0.9928851974526312
2015-04-24,1,0.0030508274635138144,0.0034085570592799624,-0.0026470839301672208,0.0073026549174956355,0.992722395788329
2015-04-28,1,0.0028534790202224356,0.0031561943392165786,-0.004990711647910847,0.007700837756361219,0.9917375194910274
2015-04-30,1,0.0022415966382916715,0.0024401169133979566,-0.006815972783970962,0.007700837756361219,0.9914208080167056
2015-05-04,1,0.002121289359439115,0.0022530284305562675,-0.004354845928118733,0.0073026549174956355,0.9927422811598188
2015-05-06,1,0.00010970334122865628,0.00029224701563141254,-0.0031622783912927414,0.0073026549174956355,0.9938130855690945
2015-05-08,1,6.806450536221925e-05,0.000276659347647283,-0.004234645895464904,0.0073026549174956355,0.9938546205143313
2015-05-12,-1,-0.0004011788058732072,-9.801528384449014e-05,-0.006041861020385062,0.007700837756361219,0.9932388998649503
2015-05-14,1,0.0009922982360545817,0.0010418828364378695,-0.006420349408854707,0.005256062688557982,0.9929913815631437
2015-05-18,1,0.00162415596158753,0.0016937097715890744,-0.006420349408854707,0.005487092389336486,0.9928244874268765
2015-05-20,1,0.002088746174311903,0.0022005598593673407,-0.006420349408854707,0.005487092389336486,0.9925367545717745
2015-05-22,1,0.0017712226779468085,0.0018309027041864348,-0.006420349408854707,0.005487092389336486,0.9928707370796392
2015-05-27,1,0.001550487549917752,0.0015662447267844005,-0.006041861020385062,0.0031367008931052717,0.9936292968503051
2015-05-29,1,0.0005150439463578406,0.0006382802444107298,-0.004034389689676469,0.00595392510714024,0.9940672544587794
2015-06-02,1,0.00017069090483355772,0.000342615212668094,-0.004837125813372126,0.00595392510714024,0.9927387702629267
2015-06-04,1,0.0001614518596995647,0.0003194421179880329,-0.004538887540898118,0.00595392510714024,0.9929296975751233
2015-06-08,-1,-0.0003440390342410065,-0.00011487650217909917,-0.004034389689676469,0.00595392510714024,0.9933324740476179
2015-06-10,-1,-0.00045085474140070785,-0.0001859196512234508,-0.004034389689676469,0.0032923117990398564,0.9933193482955275
2015-06-12,-1,-0.0008301132108040117,-0.0005332259626462697,-0.0036701416812366765,0.00848601430083732,0.9930371535615133
2015-06-16,-1,-0.00044642416246518633,-0.0002138900831321946,-0.004034389689676469,0.009292333386323643,0.9921388060286243
2015-06-18,1,0.0004268084542395341,0.0005443388259800737,-0.004034389689676469,0.0022700900331951795,0.9930472596143037
2015-06-22,1,0.00031663726849594237,0.00045828816648254064,-0.004538887540898118,0.0017373133563412897,0.9927221427409977
2015-06-24,1,0.00037588914151993565,0.0004740149569104019,-0.00487268906038469,0.0017373133563412897,0.9928532813604927
2015-06-26,1,0.0011426485636797982,0.0011641882119658381,-0.007384459765968795,-0.00038216826987918216,0.9918018152209459
2015-06-30,0,-7.562735578676077e-05,5.806283041748955e-05,-0.005624231563035527,0.0006877895809143304,0.9937707118275976
2015-07-02,-1,-0.0009382343197163622,-0.0006593575521651468,-0.005624231563035527,0.006441245220313906,0.992142587716468
2015-07-07,-1,-0.0009511011829088952,-0.0006776404642369652,-0.007151591278530902,0.008425745294844121,0.9913809304300926
2015-07-09,-1,-0.0016677358476446854,-0.0013194860625785963,-0.007151591278530902,0.008425745294844121,0.9914026177814228
2015-07-13,-1,-0.0011162299400128157,-0.0008267025020563044,-0.007986441694045363,0.005919767633937249,0.9916995964415531
2015-07-15,-1,-0.0008244739827520711,-0.000573190976398178,-0.008362030975042442,0.002078124929046083,0.9916211902717149
2015-07-17,-1,-0.0008356014549265028,-0.0006033099333381204,-0.008362030975042442,0.0050825007036224,0.9912824201814838
2015-07-21,-1,-0.0012807479499535638,-0.000987292485331777,-0.008362030975042442,0.0050825007036224,0.9912346013863482
2015-07-23,-1,-0.0015094138741163655,-0.0011900003595893267,-0.01253437011645405,0.0050825007036224,0.99027355576872
2015-07-27,-1,-0.0031526905224534374,-0.0025868683653506386,-0.013699364122964915,0.0050825007036224,0.9883149575919956
2015-07-29,-1,-0.002322000640337729,-0.0018959338893170534,-0.013699364122964915,0.005648303314165413,0.9863386055597602
2015-07-31,-1,-0.0012376993584482924,-0.0009227315212463954,-0.013699364122964915,0.004377335706867984,0.9868610363323221
2015-08-04,-1,-0.0009789001119180915,-0.0007195925902001715,-0.0164389484653674,0.0038744036172393688,0.9846221401462028
2015-08-06,-1,-0.0013651415374494407,-0.0010996517096879318,-0.01487502994155689,0.005648303314165413,0.9840705637285106
2015-08-10,-1,-0.0010221344525847072,-0.0008282522225700997,-0.01487502994155689,0.005794048232399778,0.9832917025269101
2015-08-12,-1,-0.0015950852320069891,-0.0013593010885857852,-0.01487502994155689,0.005794048232399778,0.9836101029372831
2015-08-14,-1,-0.0012437138994664248,-0.0010569871851837367,-0.01487502994155689,0.008731769967634093,0.9834721858002556
2015-08-18,-1,-0.0012377099794623622,-0.0010514860617697954,-0.01487502994155689,0.011147397758785683,0.9828663519315236
2015-08-20,-1,-0.0017020045175930565,-0.0014890961236838159,-0.016687581947504193,0.011147397758785683,0.9819943621712407
2015-08-24,-1,-0.003932485305835328,-0.0034367490935904464,-0.01151963830212081,0.011147397758785683,0.9839992437355624
2015-08-26,-1,-0.0023867058410996784,-0.0020817169812045095,-0.01255549152543145,0.008750649640839095,0.9859606457353628
2015-08-28,-1,-0.0013440566841001732,-0.001170980772198237,-0.01355407356897697,0.008206448362905412,0.9861174687064543
2015-09-01,-1,-0.0031435952307592606,-0.0027708290615878857,-0.01151963830212081,0.011147397758785683,0.9872153050819501
2015-09-03,-1,-0.00221610926915987,-0.001943136392263167,-0.011777075803765337,0.011147397758785683,0.9874160238433123
2015-09-08,-1,-0.0019555181350361505,-0.0017220993103142374,-0.011274302921647437,0.008750649640839095,0.9884062704822896
2015-09-10,-1,-0.002382555801161458,-0.002103817561855832,-0.008561436373082402,0.011147397758785683,0.9879756863366651
2015-09-14,-1,-0.002044510376533942,-0.0018127709302152555,-0.008561436373082402,0.009571432944599645,0.9881707396312095
2015-09-16,-1,-0.001409501679073288,-0.0012524329067403765,-0.011274302921647437,0.008033053893361515,0.9883946634346354
2015-09-18,-1,-0.002187480550081531,-0.0019448325593442307,-0.009573761139584608,0.009675099867340357,0.9887433142883757
2015-09-22,-1,-0.0029167715428984197,-0.002576513536889291,-0.0051981398638172825,0.009675099867340357,0.9886412977295298
2015-09-24,-1,-0.002939984495214024,-0.0026260220529302557,-0.0035834186448640407,0.009675099867340357,0.9889177325088917
2015-09-28,-1,-0.004586001023968519,-0.004028534737364671,-0.001829387750136277,0.015320621071723264,0.9876842364785412
2015-09-30,-1,-0.003185740275957933,-0.0028092283340699128,-0.001829387750136277,0.010202209007037836,0.9889194493873851
2015-10-02,-1,-0.002651271208860298,-0.002348348245344658,-9.22475290602296e-06,0.008371628282927179,0.9898920853869203
2015-10-06,-1,-0.002030731066462499,-0.0018280618604399673,0.00040577728883971513,0.011410206318483728,0.9892988833640124
2015-10-08,-1,-0.0008821539979420707,-0.0008343865303880744,-0.0005843816248990628,0.0076798828636900135,0.9901755446010915
2015-10-12,-1,-0.00016612499521797544,-7.799891657127593e-05,-0.006423177691616589,0.0076798828636900135,0.9901891602720571
2015-10-14,-1,-0.0007995308138300483,-0.0007975661642977368,-0.0039994926319679575,0.009750056870703794,0.9898123867952495
2015-10-16,1,0.00023799939610080062,0.00038392058900762316,-0.006423177691616589,0.006871150192840792,0.9909082618347165
2015-10-20,1,0.00032254096456270457,0.00045660979062742585,-0.006423177691616589,0.009750056870703794,0.9904037999850754
2015-10-22,1,0.0003601746819875413,0.0004978424174589215,-0.006423177691616589,0.010440579735797612,0.989804617023114
2015-10-26,1,0.0009193112460638101,0.0011266931335971195,-0.0019877904699585488,0.009750056870703794,0.9915926055453043
2015-10-28,1,0.0015085156705962506,0.0017798421386226015,-0.005512819281680757,0.009750056870703794,0.9917766978222307
2015-10-30,1,0.002073020665845344,0.0024388257493781424,-0.006147177952407155,0.008490873578537584,0.991453297986555
2015-11-03,1,0.002643911994656173,0.0030648825017965094,-0.00821554350404557,0.008276927934441168,0.9911431809779331
2015-11-05,1,0.002460588342997087,0.002871082759652271,-0.00821554350404557,0.009619513767406718,0.9892664578122408
2015-11-09,1,0.0025193249428270125,0.0029917124946166078,-0.013131425232424162,0.009619513767406718,0.9885483152483093
2015-11-11,1,0.0024439925953541504,0.002907876513182202,-0.010011409944207288,0.008276927934441168,0.9891144859533236
2015-11-13,1,0.0018220588320383433,0.002189367997585334,-0.008049133466890849,0.00979874280350837,0.98936438404389
2015-11-17,1,0.002691977573970066,0.003204576698942553,-0.008049133466890849,0.010004304190508394,0.9887604942404625
2015-11-19,1,0.0028972950202746884,0.003381666809687673,-0.01319340710751568,0.008276927934441168,0.9876827444326178
2015-11-23,1,0.002822405810017926,0.0032799069954975845,-0.01319340710751568,0.012192237643073062,0.9864525244143866
2015-11-25,1,0.002992579894093442,0.003469875223054726,-0.01319340710751568,0.010396029441478792,0.9868573378052924
2015-11-30,1,0.0026042878266586086,0.002986059790983998,-0.01319340710751568,0.013655231685608553,0.9869201401294939
2015-12-02,1,0.0025484068592036904,0.002959612752424641,-0.009740851924089562,0.013655231685608553,0.9874111858446379
2015-12-04,1,0.002522770455487956,0.0029485068943200894,-0.009740851924089562,0.011638601579705577,0.9886970467424485
2015-12-08,1,0.0014970878847724244,0.001778020705436921,-0.009740851924089562,0.011638601579705577,0.9873377926674732
2015-12-10,1,0.0011663000393519933,0.0013879809667391965,-0.01444823836760792,0.011638601579705577,0.9854299702471458
2015-12-14,1,0.00148726198545094,0.0017429525233458318,-0.016236892751669084,0.011638601579705577,0.9839772381027174
2015-12-16,1,0.002000604461491998,0.0022792854257053597,-0.016236892751669084,0.011638601579705577,0.9835368166790949
2015-12-18,1,0.0010307009133405792,0.0011907344378172856,-0.014454388289585549,0.011638601579705577,0.9846823376467398
2015-12-22,1,0.002635410182830456,0.0030807312857712476,-0.014454388289585549,0.008893270798609909,0.984000527068504
2015-12-24,1,0.003002779119677418,0.0034943513985432155,-0.014852249315458666,0.01108658560588243,0.983137554359719
2015-12-29,1,0.003043561535206812,0.0034964402573672854,-0.0166167245761691,0.00888866290755151,0.9814928767086385
2015-12-31,1,0.002630827360656948,0.00302718089632332,-0.0166167245761691,0.01108658560588243,0.9811054060042235
2016-01-05,1,0.0018396643480562472,0.0020788306250677565,-0.015136263416624477,0.008912917539154592,0.9811206440528201
2016-01-07,1,0.00037023523665278126,0.00042911484879307833,-0.015136263416624477,0.008912917539154592,0.980538863877995
2016-01-11,-1,-0.0009443377635021998,-0.0008428663579711907,-0.015136263416624477,0.012557989806464028,0.9798951643127177
2016-01-13,-1,-0.0017932231009558856,-0.0015547413095522034,-0.014650881549347836,0.013731575824077111,0.9800083456504449
2016-01-15,-1,-0.0027468600485613297,-0.0023046074518249227,-0.014650881549347836,0.023429118144638206,0.9792243053674506
2016-01-20,-1,-0.0015436369961593557,-0.0013038777402599351,-0.014650881549347836,0.023429118144638206,0.9798241527386707
2016-01-22,-1,-0.00042810202646412026,-0.00036008626540965847,-0.014650881549347836,0.023429118144638206,0.9796680363759416
2016-01-26,-1,-0.0016887760614441544,-0.001382457408884191,-0.01351709290271785,0.023429118144638206,0.9802863534792431
2016-01-28,-1,-0.002374869027971002,-0.0020343319553414456,-0.012555475439510067,0.023429118144638206,0.9811811275972597
2016-02-01,-1,-0.0014915473262553174,-0.0012612665805383377,-0.01348615195370661,0.01885250041561866,0.9813960736676588
2016-02-03,-1,-0.002730821794776418,-0.002331598105673585,-0.0066120200048766205,0.023429118144638206,0.9810202038767698
2016-02-05,-1,-0.004929197022903197,-0.0042842332242339284,-0.0029577721771529507,0.023429118144638206,0.9832765267026801
2016-02-09,-1,-0.004992568556291084,-0.004370966451165676,-0.0029577721771529507,0.01885250041561866,0.9850518010045688
2016-02-11,-1,-0.004704958305852053,-0.004081147564005571,-0.0026236611522040525,0.018708486557453316,0.9861929257658602
2016-02-16,-1,-0.0033593046959858597,-0.0028669163936328535,-0.004044258204998631,0.008900349191493314,0.9890830947283054
2016-02-18,-1,-0.003599399786298443,-0.003060553682852438,-0.005650474941662285,0.008900349191493314,0.9886691981329684
2016-02-22,-1,-0.0028166454254828686,-0.002319963724038345,-0.009334687788223413,0.005690676484934997,0.9893822645942496
2016-02-24,-1,-0.002519111939190484,-0.002105872948007127,-0.005650474941662285,0.005690676484934997,0.9897031747654105
2016-02-26,-1,-0.0019283456738938914,-0.0016019467865475588,-0.005839855481846466,0.00487063689056848,0.9903035785566019
2016-03-01,-1,-0.001865922162595211,-0.0015535685835729798,-0.004538334767517211,0.00487063689056848,0.990501237564446
2016-03-03,-1,-0.0008560477159196293,-0.000695266981954245,-0.004107385051726691,0.00487063689056848,0.9908009575265926
2016-03-07,-1,-0.0008194416093145315,-0.0006711498722654355,-0.005839855481846466,0.00487063689056848,0.9893226867170586
2016-03-09,-1,-0.0018988292129156741,-0.0015924832037351204,-0.005839855481846466,0.008378861847658625,0.988125980528622
2016-03-11,-1,-0.0007673336715281265,-0.0006372844929511704,-0.005839855481846466,0.007686408816381995,0.9883564990985955
2016-03-15,-1,-0.0012566134782693375,-0.001080335670634771,-0.004181940271017145,0.01532487768445114,0.9882734178912844
2016-03-17,-1,-0.0013646228965800093,-0.0011764253702162544,-0.0036817723580550433,0.01532487768445114,0.9886647279019214
2016-03-21,-1,-0.00043201122834744744,-0.00037892249202579626,-0.0036817723580550433,0.010388857093080208,0.989694570564328
2016-03-23,1,5.71313810406906e-05,9.798956806903827e-05,-0.0036817723580550433,0.012772098592935472,0.989349860172617
2016-03-28,1,7.799494942609578e-05,0.000143050756767581,-0.0035107134754762803,0.012772098592935472,0.9893975300476624
2016-03-30,1,0.001025794335741837,0.0012571586573767368,-0.0036817723580550433,0.01036421528930757,0.9898176888437447
2016-04-01,1,0.0014339322498018183,0.0017044681287965947,-0.008384231910184219,0.009086170106575935,0.9895932901853804
2016-04-05,1,0.0003539136453439566,0.0004591090528754331,-0.005694813250675442,0.01036421528930757,0.989845233678684
2016-04-07,1,0.0007107873095341029,0.000859707650433834,-0.005694813250675442,0.009996572613771742,0.9909530731769725
2016-04-11,1,0.0007870157038755538,0.0009207777404411934,-0.005799414540704394,0.009996572613771742,0.9882922722777161
2016-04-13,1,0.0015178054458272706,0.0017772742503005087,-0.007938563975534729,0.009996572613771742,0.9878938008296833
2016-04-15,1,0.001893503301252208,0.0022353379033851137,-0.007938563975534729,0.009996572613771742,0.9879600180814533
2016-04-19,1,0.0018904185255850252,0.0022384153343843276,-0.007938563975534729,0.009996572613771742,0.9880367905798793
2016-04-21,1,0.0023442966385290084,0.00276307286336036,-0.007938563975534729,0.009339956527784623,0.987831999124164
2016-04-25,1,0.002351252978356432,0.0027714581561539345,-0.007938563975534729,0.009339956527784623,0.987833617597937
2016-04-27,1,0.0022090434539876304,0.0025921457075692854,-0.005691852320236089,0.01054985279795758,0.9875419298878463
2016-04-29,1,0.0016377437641033644,0.0019384956057351746,-0.004874201218597026,0.01054985279795758,0.9881733194303879
2016-05-03,1,0.001706310036440829,0.001967482288768554,-0.00484047312938619,0.009524383255846569,0.989239269544697
2016-05-05,1,0.0012850515380125904,0.0014802536409720297,-0.00484047312938619,0.0036637770406255012,0.9906376943592531
2016-05-09,1,0.0030071092540319326,0.0034469376946255565,-0.004968389817436793,0.0014149309154075891,0.9929084019960335
2016-05-11,1,0.0036294982053780263,0.004198370797679226,-0.004968389817436793,0.0014149309154075891,0.9925817791472368
2016-05-13,1,0.0031228105102329953,0.003570304573595825,-0.007054362158338719,0.0014149309154075891,0.9918188530648677
2016-05-17,1,0.003515095218650814,0.004065920571213406,-0.006286252730187325,0.0014149309154075891,0.9919228418988606
2016-05-19,1,0.003491994146590073,0.004062950845646604,-0.006731192003377872,0.0014149309154075891,0.9918321374786283
2016-05-23,1,0.00364676716746898,0.004263416345912379,-0.006731192003377872,0.0020743148524729506,0.9912613578232137
2016-05-25,1,0.004185128835220776,0.004848542819868859,-0.006731192003377872,0.0020743148524729506,0.9912470460899356
2016-05-27,1,0.0036275587511646707,0.004196798925893484,-0.00815216161755068,0.0020743148524729506,0.9885908987628728
2016-06-01,1,0.0027504339763371483,0.003116522554719536,-0.00815216161755068,0.006474304519565969,0.9887226896294756
2016-06-03,1,0.0018975095276823788,0.002077679678217288,-0.00815216161755068,0.009235510914955704,0.9885650211438664
2016-06-07,1,0.0014848729159900763,0.0015878591946385202,-0.011004710845178428,0.009235510914955704,0.987993858929639
2016-06-09,1,0.0015251940624541188,0.0016345959003068768,-0.00815216161755068,0.009980810168886581,0.9879634786885694
2016-06-13,1,0.0010909689458378224,0.001162446282537242,-0.004747623909466954,0.014716105618107385,0.9883792114870005
2016-06-15,1,0.0012147864746657046,0.0013301699176791453,-0.0034450488551148314,0.01502766469849337,0.9879960818407366
2016-06-17,1,0.000814135489907283,0.0008671343326984821,-0.003066252772077157,0.01502766469849337,0.9877715205179636
2016-06-21,1,0.00038439635075361307,0.00044638232515046173,-0.002710408371519486,0.014716105618107385,0.9879613891977612
2016-06-23,1,0.0013498714423852297,0.001446324528005454,-0.004103405322890992,0.01142155640520559,0.988798101576117
2016-06-27,-1,-0.0012388961686792476,-0.0009776495059470674,-0.002710408371519486,0.01255770048345445,0.9905596800447964
2016-06-29,-1,-0.0023133432653058093,-0.0017794750162837608,-0.0030223972991107193,0.010727292686130275,0.9911509884862233
2016-07-01,-1,-0.002095605278273239,-0.0015686352930423433,-0.0039666635094122524,0.010727292686130275,0.9910169931579801
2016-07-06,-1,-0.002127253638328343,-0.0016082641092112992,-0.0039666635094122524,0.010727292686130275,0.9913276428198331
2016-07-08,-1,-0.0003063638503177895,-7.755785249338786e-05,-0.00509706322538538,0.007592593033887486,0.9919901081628045
2016-07-12,1,1.0866464064380348e-05,0.00020909972844915974,-0.005621627497942706,0.0046323937658638474,0.9923099856011742
2016-07-14,1,0.0013898286530766317,0.0014299047868214902,-0.005621627497942706,0.0027276460580038693,0.9925329230074532
2016-07-18,1,0.0006678620300647371,0.0007347479827660956,-0.004971434970502026,0.0033942039105382665,0.9929487484408337
2016-07-20,1,0.0009932327037501026,0.001007481218687381,-0.004971434970502026,0.0033891648870922175,0.9933361179966694
2016-07-22,1,0.0006368692462188433,0.0006966734423930732,-0.0042156058052206435,0.003660691852660146,0.9936414826951261
2016-07-26,1,0.0009484660205081347,0.0009560182939472129,-0.0039666635094122524,0.003660691852660146,0.9937465079306541
2016-07-28,1,0.0008849587101144181,0.0008940420993716993,-0.0042156058052206435,0.0033891648870922175,0.99254712988429
2016-08-01,1,0.0009342920769803551,0.0009788859123711514,-0.0038975303001688886,0.0033891648870922175,0.9936133458649503
2016-08-03,1,0.0005955010335165103,0.0006568616215486911,-0.004971434970502026,0.0033891648870922175,0.9934223211419536
2016-08-05,-1,-0.000536230797795585,-0.00030392681668270295,-0.0038975303001688886,0.003660691852660146,0.9940773681754133
2016-08-09,-1,-0.0008476290832296874,-0.0005691723352685079,-0.0033712719844780845,0.004266071796683373,0.9933470713127369
2016-08-11,-1,-0.000578845380134358,-0.00036171287083977554,-0.004128795192892946,0.005895645406611524,0.9915188033877276
2016-08-15,-1,-0.0007214013754091251,-0.00048502811673157556,-0.005084131835114772,0.005895645406611524,0.9906912744162314
2016-08-17,-1,-0.0008198715047009453,-0.0005565356481625935,-0.005084131835114772,0.0062117771145038456,0.9898152996703855
2016-08-19,-1,-0.00027068899445493674,-0.00010331804755532744,-0.005084131835114772,0.006413976782193658,0.9896788196288551
2016-08-23,1,0.0004056671790429953,0.00046316284631359547,-0.009339314105047456,0.006413976782193658,0.9892450727259833
2016-08-25,-1,-0.0015694540593695272,-0.0012175228543845518,-0.0034015240029636336,0.007437933770809406,0.9892337219190811
2016-08-29,-1,-0.0011768933964546716,-0.0008901941452012094,-0.006374410325575157,0.010334101273663562,0.9887955159832374
2016-08-31,-1,-0.0018062733902284602,-0.0014611236063783615,-0.0024295852000855386,0.010334101273663562,0.9884861872460144
2016-09-02,-1,-0.0013537014352553891,-0.0010907218121600842,-0.006368733218333737,0.013524495871849214,0.9876565640038744
2016-09-07,-1,-0.0006943293793282041,-0.0005118729594968589,-0.006368733218333737,0.012362444817081404,0.988000705800623
2016-09-09,-1,-0.0019084004054186973,-0.0015783591153729429,-0.006368733218333737,0.012362444817081404,0.9892558326078186
2016-09-13,-1,-0.0021835730983897628,-0.0018423528600741753,-0.006368733218333737,0.012362444817081404,0.9889445571928669
2016-09-15,-1,-0.0014428812619415282,-0.0011856306019675854,-0.01020176334450991,0.009946750922074293,0.9888750674753959
2016-09-19,-1,-0.0010317331400358388,-0.0008234902225817575,-0.01020176334450991,0.00534224107392561,0.989216810776981
2016-09-21,-1,-0.0012010312064811113,-0.0009380449241960001,-0.01018473202278565,0.007486037608681979,0.9895596158679875
2016-09-23,0,-0.00010243069935953652,3.363548445209049e-06,-0.01018473202278565,0.00395259677047558,0.9904069440691103
2016-09-27,-1,-0.00015055860873932492,-1.7948017999938723e-05,-0.013578980327195622,0.00395259677047558,0.9892604128119022
2016-09-29,1,0.0004799627277902851,0.0005271175103582427,-0.011297021930008328,0.005969848673708492,0.9893703918722152
2016-10-03,1,0.0008639607406326041,0.0009789932006229196,-0.011297021930008328,0.003910415226634427,0.9904874600614787
2016-10-05,1,0.0012857755164821854,0.0014541994146841765,-0.011297021930008328,0.0018968115873974102,0.9900373401493331
2016-10-07,1,0.0008551097078188522,0.0009644387119543743,-0.010110445661816493,0.0037309828031923393,0.9899731880824076
2016-10-11,-1,-0.00037489457845457804,-0.00031475052956454926,-0.010110445661816493,0.005969848673708492,0.98984371494545
2016-10-13,-1,-0.001196068078927772,-0.0010415705135145299,-0.0061354189381548924,0.006422756235854108,0.9908134732004786
2016-10-17,-1,-0.0007713676956273521,-0.0007052492470732473,-0.007927189627020227,0.006422756235854108,0.9903431235815912
2016-10-19,-1,-0.00040498654944276036,-0.0003702783700355956,-0.007927189627020227,0.0076187108104367,0.9901499615327366
2016-10-21,-1,-0.0004897671265577998,-0.00044217898419499286,-0.010266351589586636,0.0076187108104367,0.9890815791404648
2016-10-25,-1,-0.0012888281118476456,-0.001143574971250539,-0.009949039020054038,0.00885320330543464,0.9904511022591541
2016-10-27,-1,-0.0015063959001119318,-0.0013318744660095472,-0.007927189627020227,0.01110682501040126,0.9897049021897408
2016-10-31,-1,-0.0014700250969848648,-0.0013003946234417542,-0.009949039020054038,0.01110682501040126,0.9891073976092661
2016-11-02,-1,-0.0022584580650288977,-0.0019692373631578835,-0.009121853263701718,0.01110682501040126,0.9892761448066456
2016-11-04,-1,-0.0016966305955761294,-0.0014693399881549251,-0.009121853263701718,0.00885320330543464,0.9899798407858582
2016-11-08,-1,-0.002056204940214733,-0.0017731132194792176,-0.007544314384166136,0.011024699299841713,0.9900894975047287
2016-11-10,-1,-0.0016028579934264458,-0.00138783259339793,-0.007544314384166136,0.011024699299841713,0.9898945513938454
2016-11-14,-1,-0.0017836720539027566,-0.00158198444469438,-0.0017819251250836372,0.011024699299841713,0.9899781086816757
2016-11-16,-1,-0.0024920538755520355,-0.0020994322213392135,-0.007428708916385547,0.008704704518562286,0.99034657902767
2016-11-18,-1,-0.0030308615421121617,-0.002610418505676569,-0.0034489385931054314,0.008704704518562286,0.9910231588150723
2016-11-22,-1,-0.0021451117668853025,-0.0018601914944960845,-0.007341321661224932,0.008121722456850156,0.9918005269814617
2016-11-25,-1,-0.0016433160951092943,-0.0014112216948842945,-0.00799523518405216,0.006592494966905484,0.992485015459738
2016-11-29,-1,-0.0012824708827110563,-0.0011371012306213924,-0.00799523518405216,0.006592494966905484,0.9928569767965543
2016-12-01,-1,-0.0012207155408157202,-0.0011067910755059602,-0.0036625597539958147,0.006592494966905484,0.9932276891320427
2016-12-05,-1,-0.000494504486371837,-0.0004899726858369213,-0.0036625597539958147,0.008121722456850156,0.9927519450966731
2016-12-07,1,0.00023373762529186652,0.00031604969544329247,-0.00799523518405216,0.006387034776851008,0.9935582665625065
2016-12-09,1,0.0008125813267125248,0.0009861511337222416,-0.00799523518405216,0.006387034776851008,0.9936241591804291
2016-12-13,1,0.0009829859387561857,0.0011701160139080363,-0.00799523518405216,0.005916051861022402,0.9935474439665662
2016-12-15,1,0.0010161786240489201,0.0012116289150552644,-0.00799523518405216,0.005916051861022402,0.9925844443103963
2016-12-19,1,0.0007998207610485453,0.0009727133948082499,-0.008351157598493843,0.005916051861022402,0.9923872171092549
2016-12-21,1,0.0009445097683858842,0.0011709393624405283,-0.00822521305334982,0.005916051861022402,0.9923123743066716
2016-12-23,1,0.0005207192192439546,0.0006645405190429351,-0.006401118503909835,0.006189221641860476,0.9926641274456691
2016-12-28,1,7.483260517828321e-05,0.0001338085736925967,-0.0056963798802069626,0.006189221641860476,0.9928182535605147
2016-12-30,1,5.231957914323158e-05,0.00010568068201811554,-0.006401118503909835,0.0074760746384432645,0.9910608273562982
2017-01-04,1,0.0006912362493529773,0.0008308651658635469,-0.006401118503909835,0.0074760746384432645,0.991439642778492
2017-01-06,1,0.0005159316432601113,0.0006245433744093512,-0.006401118503909835,0.00581682033313044,0.9906675217300475
2017-01-10,1,0.0007120999872835623,0.0008555973254257853,-0.006401118503909835,0.007771147378405733,0.9904897402793149
2017-01-12,1,0.0006543345784099937,0.0008022166931120847,-0.006401118503909835,0.009796719506143171,0.9902917576566406
2017-01-17,1,0.0008258064975081843,0.0010150295018324232,-0.004634213390283204,0.00827970227467548,0.9917139427508519
2017-01-19,1,1.7771621676216938e-05,4.9589761810974915e-05,-0.0027762351712279734,0.009796719506143171,0.9910458798787583
2017-01-23,-1,-7.7117353446452e-05,-4.726790390257087e-05,-0.0027762351712279734,0.01008086437745918,0.990618815326438
2017-01-25,-1,-5.443620987910783e-05,-5.318140952223489e-05,-0.0041573195574992755,0.009796719506143171,0.9909190486781535
2017-01-27,1,2.706763080392238e-05,4.552625567726642e-05,-0.0022579296076852755,0.009796719506143171,0.991295572558314
2017-01-31,1,0.0006992120802942767,0.000835047210322829,-0.0022579296076852755,0.009796719506143171,0.9917004971624224
2017-02-02,1,0.0005443830724270268,0.0006134618616690407,-0.0043566396907838215,0.00827970227467548,0.9913518005937447
2017-02-06,-1,-0.00032212045366871453,-0.0002641985297496297,-0.0043566396907838215,0.00827970227467548,0.9922316832095309
2017-02-08,1,0.0003635744630029324,0.0004191217398142582,-0.0043566396907838215,0.007185465364732295,0.99241761343362
2017-02-10,1,0.0008128354639877061,0.000943966140395178,-0.0043566396907838215,0.007185465364732295,0.9921509793348027
2017-02-14,1,0.0010460197654412716,0.0012182815862401865,-0.0043566396907838215,0.008041823758273763,0.9916219889348978
2017-02-16,1,0.0016445005405930717,0.0019246264204928372,-0.005820117488528808,0.008041823758273763,0.9912429605666815
2017-02-21,1,0.0018915481620929895,0.0022165492845127584,-0.0048295182753480305,0.006140640302066916,0.9918129985340831
2017-02-23,1,0.0014819098506964183,0.0017315431159235259,-0.00262361155606469,0.006988512751041818,0.992051732652013
2017-02-27,1,0.0015612307919032902,0.0018332881176477606,-0.00262361155606469,0.007462305450147062,0.9918401124086805
2017-03-01,1,0.00186369325163895,0.0021962630458705833,-0.0016151849062416024,0.006988512751041818,0.9931562846260571
2017-03-03,1,0.0016076318964603517,0.0018900045921529927,-0.0012608435925161089,0.006988512751041818,0.9938542663215408
2017-03-07,1,0.0008498750754487128,0.0009868839666162424,-0.0012085714124933085,0.006988512751041818,0.9940431445714484
2017-03-09,1,0.0007150756055356889,0.0007923504799458742,-0.0012608435925161089,0.007462305450147062,0.9938845707118104
2017-03-13,1,0.001021660539798288,0.0011315596424184907,-0.0016151849062416024,0.0036912535791105974,0.9944262434964074
2017-03-15,1,0.0015535177672022,0.001755753484149307,-0.003082589041490451,0.002353912496970458,0.9946012062727032
2017-03-17,1,0.0016718922748849407,0.0018849440046244934,-0.0030000937028540715,0.002353912496970458,0.9953036587412963
2017-03-21,1,0.0011717132824883767,0.0012841681783739476,-0.003187682483441141,0.0006475631422644941,0.99525824822147
2017-03-23,1,0.0011655898018626222,0.0012683301777010585,-0.003187682483441141,0.0,0.9953850966175849
2017-03-27,1,0.0012312941394067576,0.001339152462651852,-0.003187682483441141,0.0006475631422644941,0.9947480345105383
2017-03-29,1,0.0009532946586822006,0.0009993763637339004,-0.003187682483441141,0.0038324096137313454,0.9938988828799048
2017-03-31,1,0.001035380978438056,0.0011188479133545312,-0.0033441144042072944,0.007857346300164011,0.9931593470989922
2017-04-04,1,0.0012434950486361076,0.0012995202503721065,-0.0033441144042072944,0.007857346300164011,0.9933422043710137
2017-04-06,1,0.0015737473102426349,0.0016813518152845653,-0.003187682483441141,0.010127611785108709,0.9924610678293557
2017-04-10,1,0.0009806380136593653,0.0009902283185735106,-0.003124131156850754,0.011682322505133728,0.9922214325666734
2017-04-12,1,0.0009905783684440166,0.0010222144866477581,-0.0029996610660877675,0.011682322505133728,0.9925850187798618
2017-04-17,1,0.0006577014915638864,0.0007221620945782131,-0.002898213176585748,0.009270979864076698,0.9930335723399891
2017-04-19,1,0.0005736013842445951,0.0006287136325198272,-0.002898213176585748,0.009270979864076698,0.9924392802453498
2017-04-21,1,0.0006549562677952057,0.0006683145196083925,-0.0020356916966737374,0.009270979864076698,0.9924071938584472
2017-04-25,1,0.0011571903440485403,0.0011921118834487385,-0.0020462786443075347,0.0067569246810550865,0.9933632779781887
2017-04-27,1,0.0014991817345227964,0.0015590438817861684,-0.0020462786443075347,0.00617129383513584,0.9941172283689924
2017-05-01,1,0.0014887117372360782,0.0015560370539148432,-0.0017587036892322925,0.005631841578669466,0.9948399371338641
2017-05-03,1,0.00167411303878595,0.0018169415151175704,-0.00043879367667192334,0.00617129383513584,0.9946676179513722
2017-05-05,1,0.0027657167640031187,0.0030741782770243972,-0.00043879367667192334,0.005631841578669466,0.9954734603028392
2017-05-09,1,0.003194674357342376,0.0035697234425844286,-0.0017587036892322925,0.005383612601737589,0.9953535147127265
2017-05-11,1,0.003008661030598005,0.0033538048847342886,-0.0022220533329785986,0.005383612601737589,0.994813575724113
2017-05-15,1,0.002805985596352742,0.0031012836111559685,-0.0023242067759045703,0.005383612601737589,0.9948290514590926
2017-05-17,1,0.002050172701085433,0.002228478616437715,-0.0018278821997564443,0.005383612601737589,0.9956968293680045
2017-05-19,1,0.0019343286366033103,0.002079066210771857,-0.0021275319552317073,0.005711483491532422,0.9924728587563977
2017-05-23,1,0.0017205300091235132,0.0018128761389527089,-0.0021275319552317073,0.005711483491532422,0.9924768574866512
2017-05-25,1,0.0018838809515107418,0.0019902942605748344,-0.0026958319763171674,0.005784680500339869,0.9921316672880952
2017-05-30,1,0.0021170887256191677,0.0022876700835486293,-0.004612693084898214,0.005784680500339869,0.9913374972413503
2017-06-01,1,0.002324954306918394,0.002512621546975334,-0.004831282527564314,0.005784680500339869,0.9909719981667062
2017-06-05,1,0.002595018157412409,0.0028200028296428126,-0.004910997030863214,0.00561044333730179,0.9909575826032285
2017-06-07,1,0.002234091054828595,0.002392715211233752,-0.005339140850625134,0.006227625800185873,0.99055800831168
2017-06-09,1,0.0017255019866460424,0.001810602899193305,-0.004910997030863214,0.006865010782810908,0.9909620852468976
2017-06-13,1,0.001422175879015717,0.001434799239288901,-0.004910997030863214,0.006689002033516137,0.9912121129965946
2017-06-15,1,0.0009278325722221262,0.0009911388450395183,-0.004910997030863214,0.006689002033516137,0.9912984850309104
2017-06-19,1,0.002615946019938782,0.002779196881750551,-0.005339140850625134,0.006614369337390741,0.99442608824882
2017-06-21,1,0.002561087188702424,0.0027094413993935832,-0.005339140850625134,0.006614369337390741,0.9944319930606629
2017-06-23,1,0.002633368790606665,0.002815242825135767,-0.005339140850625134,0.006168956217087616,0.9948393205851406
2017-06-27,1,0.0023345111055774167,0.0024842012193108083,-0.006407200758614574,0.006168956217087616,0.9931129354695498
2017-06-29,1,0.002096583037400879,0.00212054450132714,-0.00490863812170567,0.005008319891450197,0.993621096825361
2017-07-03,1,0.0021285628627883343,0.0021804673368866975,-0.002752972494132416,0.004976058023066502,0.9938894502969092
2017-07-06,1,0.0020296934310054023,0.0020883983262269153,-0.002752972494132416,0.004976058023066502,0.9941558653117303
2017-07-10,1,0.00237479509301319,0.0024857921817263997,-0.0047907978736001205,0.003991510815213756,0.9918926126118682
2017-07-12,1,0.002734626571177662,0.002914599319018604,-0.006053680014297926,0.0035191047191613397,0.9904566761061238
2017-07-14,1,0.0028406066424879577,0.0030380705163392417,-0.00979183150955027,0.004058016708567036,0.9887162414366304
2017-07-18,1,0.0024726354923067825,0.002587566545120702,-0.008267605307146346,0.0024995949866638877,0.9894570969378782
2017-07-20,1,0.002212993293263155,0.002280077926260395,-0.015479064959916024,0.004058016708567036,0.9886421246466796
2017-07-24,1,0.0020620898411137126,0.002103676702902114,-0.015479064959916024,0.0063309030743972155,0.9882849275574902
2017-07-26,0,-0.00011769040629672537,0.00011958062828412014,-0.0047907978736001205,0.007611803488278619,0.9902020284591473
2017-07-28,-1,-0.0008344421561916292,-0.0004768918212648516,-0.003624839267940551,0.007611803488278619,0.9901154511260685
2017-08-01,-1,-0.0005894760908280096,-0.0002782872064364722,-0.003624839267940551,0.007611803488278619,0.990043331879752
2017-08-03,-1,-0.00030037728075254946,-5.127810720378576e-05,7.506107689882083e-05,0.008525017554869752,0.9899076939655247
2017-08-07,-1,-0.0003856579375275151,-0.00015125382755902864,0.0008212071150876198,0.006080468066353255,0.9923413775790393
2017-08-09,-1,-0.0012845280173027652,-0.0009544346849242933,0.0013131143758087441,0.006301533840353593,0.9927710521716449
2017-08-11,-1,-0.0016025087847821593,-0.0012313322984409583,0.0013131143758087441,0.006301533840353593,0.9937376659315483
2017-08-15,-1,-0.0014831825618229284,-0.00113289043466941,0.0010393786707795375,0.006301533840353593,0.9938031224405209
2017-08-17,-1,-0.0017351948054252114,-0.0013654009058841387,0.002076447970289298,0.005582496835516106,0.9941970367880414
2017-08-21,-1,-0.0016100153279202728,-0.0012469197773690077,0.002076447970289298,0.005579208655908959,0.9943842216922055
2017-08-23,-1,-0.0011656140054931298,-0.0008545081753102283,-0.00010938878487866414,0.005306195846952778,0.99499133113142
2017-08-25,-1,-0.0013679764368771184,-0.0010092598732028715,-0.0004381325593252736,0.005306195846952778,0.9949419858845605
2017-08-29,-1,-0.001079823223163284,-0.0007602770969762015,-0.0005833003563891769,0.004838867702230981,0.9952326960584239
2017-08-31,-1,-0.0006865160925949399,-0.00040061385859753397,-0.001198427357357108,0.004390185207202884,0.9957708463669492
2017-09-05,-1,-0.0009727753892529701,-0.0006296806826660228,-0.001198427357357108,0.005793698070695004,0.9950549038721671
2017-09-07,-1,-0.0005580483358690966,-0.0002766203517469562,-0.001198427357357108,0.005376596258679078,0.9953891473223685
2017-09-11,-1,-0.0006485375336308706,-0.0003375655939637053,-0.0005833003563891769,0.004390185207202884,0.9957896783366963
2017-09-13,-1,-0.0008264316689249522,-0.0004815447760652371,-0.0005833003563891769,0.005376596258679078,0.9952742486543835
2017-09-15,0,-0.0001457492618574199,8.175959282849619e-05,-0.001198427357357108,0.004699325115363747,0.9954105459726578
2017-09-19,1,0.0001559474425287738,0.0003121885162419309,-0.0018049290009473848,0.004164428159431107,0.9953351108464259
2017-09-21,-1,-0.0005285509302031712,-0.0002868108997117145,-0.0018049290009473848,0.005064104805671665,0.9948705444704544
2017-09-25,-1,-0.0006835264649615684,-0.0004065959171580373,-0.0018049290009473848,0.006123974253627059,0.9947305239042459
2017-09-27,0,-5.370207958848563e-05,9.026988248572732e-05,-0.0018049290009473848,0.006123974253627059,0.9950831458589542
2017-09-29,1,0.0004864300933146302,0.0005413546105005934,-0.0014313329053871429,0.007586948013869945,0.9947969202123818
2017-10-03,1,0.000989441110599302,0.0009897801668794439,-0.00213411152636747,0.0060170001765793004,0.994615957253535
2017-10-05,1,0.0011030084383287157,0.001119730654941684,-0.002681810573450905,0.0060170001765793004,0.9944992944641928
2017-10-09,1,0.000619469126893859,0.0007024343058847987,-0.0028566617831721416,0.0060170001765793004,0.9935805585121871
2017-10-11,1,0.0010846986512378564,0.0011068735379867868,-0.0028566617831721416,0.0060170001765793004,0.9934292180529356
2017-10-13,1,0.0008534890340583248,0.000905369762491501,-0.002681810573450905,0.0060170001765793004,0.9937977058764447
