JNU-Tangyin/eata/results/Batch4_SP500/Batch4_SP500-FRT.csv
Date,Action,Predicted_Q25,Predicted_Q75,Actual_Q25,Actual_Q75,RL_Reward
2010-12-14,0,-0.0019411432546907422,0.0,-0.005710127467144303,0.006309133314962682,0.9931886473544655
2010-12-16,-1,-0.001638123377978203,-0.0014181090441972941,-0.004450244717692354,0.007088928954473383,0.9922795966980621
2010-12-20,-1,-0.0013728388596590745,-0.0011810376855603268,-0.005710127467144303,0.00659713475882618,0.992449810355876
2010-12-22,-1,-0.0007143461912603702,-0.0006202659249349431,-0.005710127467144303,0.005456389340393988,0.9925713169005492
2010-12-27,-1,-0.0013596720740463527,-0.0012521315690124098,-0.004450244717692354,0.005456389340393988,0.9922356301064156
2010-12-29,-1,-0.001796635793852484,-0.00155588617520985,-0.004450244717692354,0.005859132949830041,0.9919611014042297
2010-12-31,-1,-0.0019611192529989173,-0.0017068882279774101,-0.0058359329716864495,0.007952933286063873,0.9906306098932371
2011-01-04,-1,-0.0023697167244399638,-0.0020000675463712645,-0.005504129434580256,0.0071198954806941175,0.9922082284789033
2011-01-06,-1,-0.0027363295756088466,-0.0023404879795056025,-0.003963077135833836,0.0071198954806941175,0.9920801675783583
2011-01-10,-1,-0.0022069121433859647,-0.001919274957808485,-0.0036960210742722007,0.007952933286063873,0.9915728508898933
2011-01-12,-1,-0.0034816582664163975,-0.0029780541656084106,-0.0005600982268557007,0.009639748710368457,0.9901497943117653
2011-01-14,-1,-0.0030721980201378687,-0.002612689988040296,-0.001012089637633595,0.009197045613579863,0.9907491641513704
2011-01-19,-1,-0.0025969771583805095,-0.002220508287365642,-0.0010665124601386307,0.008511575507139638,0.9916564154718127
2011-01-21,-1,-0.001923605139954996,-0.001649393476964398,-0.0013779615168129017,0.008511575507139638,0.9924916460960523
2011-01-25,1,0.00027116572033331076,0.0003600682601501592,-0.0013779615168129017,0.006695845891072763,0.9939597219814955
2011-01-27,1,0.0012878122904909765,0.0015458720850422178,-0.0016097495987802456,0.006695845891072763,0.9935711737586217
2011-01-31,0,0.0,0.0,-0.0016097495987802456,0.006695845891072763,0.9933251130838157
2011-02-02,1,0.000384610035334704,0.0004415151944532682,-0.0016097495987802456,0.008316015952998359,0.9922364443946344
2011-02-04,1,0.00012417524865757627,0.0001639394667205357,-0.002079731404370886,0.008316015952998359,0.9924855354804397
2011-02-08,1,0.0008254620643513968,0.000990780022890133,-0.002079731404370886,0.007940811295072136,0.9924660750905834
2011-02-10,1,0.0016770426316796822,0.0019787494153779344,-0.0029603410133443413,0.0025864108147650314,0.9927722569815426
2011-02-14,1,0.0013304873484364548,0.0015395408642113204,-0.006902367855771722,0.0021373944321132913,0.9917456579480435
2011-02-16,1,0.0012554048806560413,0.001451700466437739,-0.008486602846842564,0.0044112568147661475,0.9910514186242472
2011-02-18,1,0.0012876264430822897,0.0015083852607893269,-0.008486602846842564,0.009701438372755014,0.9907594693961332
2011-02-23,1,0.0012717305503419693,0.001484531218416234,-0.010278474409941056,0.009701438372755014,0.9896175210284716
2011-02-25,1,0.0020583091964811655,0.0024045943142539214,-0.010278474409941056,0.007919296962783368,0.9900514346035498
2011-03-01,1,0.0018242939346469265,0.0021473629635561375,-0.009397096276067605,0.007095135710690762,0.99150250267461
2011-03-03,0,0.0,0.0,-0.008264941114460337,0.006276580543438574,0.992746294778972
2011-03-07,0,0.0,0.0,-0.008264941114460337,0.006276580543438574,0.9930142677988943
2011-03-09,1,0.0011786713944693483,0.001370390807781635,-0.008264941114460337,0.005668673388996469,0.9935531176401944
2011-03-11,0,0.0,0.0,-0.009397096276067605,0.006112641239843982,0.9928890864432095
2011-03-15,0,0.0,0.0,-0.004197766425749672,0.00652227544686475,0.9935087747840319
2011-03-17,1,0.0014693648716113327,0.0017767669587602918,-0.003374171601434079,0.00652227544686475,0.9937237623435322
2011-03-21,1,0.0018267342602130477,0.002158833950495517,-0.004197766425749672,0.00652227544686475,0.993491938243605
2011-03-23,1,0.0007315786668174904,0.0008825486819353668,-0.002638710465328201,0.007095135710690762,0.9937852927060837
2011-03-25,1,0.0014802201879687178,0.0017602124607037383,-0.002638710465328201,0.006569013637804162,0.9941436245506687
2011-03-29,1,0.0013234540873509292,0.0015700784046999772,-0.0014419574316624979,0.006569013637804162,0.9943513892153876
2011-03-31,1,0.0016686043282738844,0.0019646497697678447,-0.002638710465328201,0.007661673207567167,0.9933374235174237
2011-04-04,1,0.001101093180545206,0.0012480063578386685,-0.002638710465328201,0.007661673207567167,0.9931628406924556
2011-04-06,0,0.0,0.0,-0.0012854617024834984,0.007661673207567167,0.9930759769354334
2011-04-08,0,0.0,0.0,-0.0012854617024834984,0.007661673207567167,0.993225822189635
2011-04-12,0,0.0,0.0,-0.002169223277791203,0.0067767588764291046,0.9929797532746366
2011-04-14,0,0.0,0.0,-0.004199157898843517,0.005627516789679379,0.9936556769568649
2011-04-18,0,0.0,0.0,-0.002480618229011448,0.0051050015186673734,0.9941775379714727
2011-04-20,1,0.0009569825767469114,0.0010742816346097873,-0.002480618229011448,0.00460104379654492,0.9947753597819383
2011-04-25,0,0.0,0.0,-0.004199157898843517,0.0029441245982882677,0.9943826998305793
2011-04-27,1,0.002371636414135068,0.0026116467140593538,-0.004199157898843517,0.0024162056419560034,0.9935998767135951
2011-04-29,0,0.0,0.0,-0.0028478506589669004,0.0016759670323532073,0.9957206920979126
2011-05-03,0,0.0,0.0,-0.004199157898843517,0.002620422686903715,0.9931653979187917
2011-05-05,1,0.0018426576272031335,0.00198916300809432,-0.004921313218159377,0.002620422686903715,0.9924747333134473
2011-05-09,1,0.001198296507335857,0.0012226230328248708,-0.004921313218159377,0.002620422686903715,0.9928029228739078
2011-05-11,1,0.0004925259753692445,0.0005722456524749912,-0.005048483558122666,0.002620422686903715,0.993002348433327
2011-05-13,0,0.0,0.0,-0.005839636793108756,0.004891556132896884,0.992094306534774
2011-05-17,0,0.0,0.0,-0.008470611048961024,0.005204858333729559,0.9912950092590277
2011-05-19,1,0.0006010541289372767,0.0006137047235998886,-0.008470611048961024,0.0069560557748009535,0.9899798006208709
2011-05-23,1,0.00022187190300400328,0.0002653179069526588,-0.005839636793108756,0.009375928578064992,0.9902160509236828
2011-05-25,0,0.0,0.0,-0.008470611048961024,0.009375928578064992,0.9891916114888075
2011-05-27,0,0.0,0.0,-0.008470611048961024,0.009375928578064992,0.9888931835374862
2011-06-01,1,8.241543557737285e-05,0.00019435814042898127,-0.005839636793108756,0.009375928578064992,0.9905681755527376
2011-06-03,-1,-0.00027496754450133853,-0.00011570677722194612,-0.00819304570557885,0.010811983145986293,0.9894595760118383
2011-06-07,-1,-0.0007760923883104223,-0.0005315058404711904,-0.005902572694560865,0.011023913342932498,0.9892267819522194
2011-06-09,-1,-0.00124191061878342,-0.0009581712780533033,-0.0036180568810625733,0.01125601744799365,0.98910165750299
2011-06-13,-1,-0.0018322285348150193,-0.0014754753436606283,-0.0036180568810625733,0.01125601744799365,0.9895460301632133
2011-06-15,-1,-0.0017458496845554415,-0.0014139463145001348,-0.004831705996371097,0.01111761352103867,0.9900450934972567
2011-06-17,0,0.0,0.0,-0.005135647567628524,0.01111761352103867,0.9909046985073241
2011-06-21,0,0.0,0.0,-0.005135647567628524,0.010585338160482911,0.9909534926682901
2011-06-23,0,0.0,0.0,-0.004831705996371097,0.010585338160482911,0.9916645480973455
2011-06-27,0,0.0,0.0,-0.005135647567628524,0.010585338160482911,0.991365363867004
2011-06-29,0,0.0,4.656161919215353e-05,-0.006079875137988031,0.008304962769946557,0.9909109457753027
2011-07-01,0,0.0,0.0,-0.006891718910077655,0.007798466241568932,0.991186605235223
2011-07-06,1,0.0006733730853549099,0.0007317006503748815,-0.0116701039531978,0.005382285792053878,0.990652287484977
2011-07-08,1,0.0017886942197885111,0.0019801877341160882,-0.012927542507780585,0.004451193689240681,0.9890981697827782
2011-07-12,1,0.001304985996094869,0.001428282226222834,-0.01318232677061294,0.0051865791399649894,0.9820056692682835
2011-07-14,1,0.0006104121838769591,0.0006352608279099216,-0.01318232677061294,0.007798466241568932,0.9811436311980921
2011-07-18,1,0.0008578345765759639,0.0009124704894787042,-0.01318232677061294,0.007798466241568932,0.9804219435305145
2011-07-20,1,0.0014526203033811997,0.001612920805941011,-0.01318232677061294,0.004416450979110031,0.9807390706064792
2011-07-22,1,0.0014931085195353168,0.0016400930251844156,-0.016146910527423973,0.0019292415997366186,0.9790070246467855
2011-07-26,1,0.0010505082718089203,0.0011424687161925447,-0.016146910527423973,0.005513755809445415,0.9789804531239811
2011-07-28,1,8.957227014778227e-05,0.00013677262051847055,-0.013553099846006259,0.010498294793877722,0.9794842867402869
2011-08-01,1,0.0001481614562687115,0.000168586317639443,-0.013339523044343302,0.017141558585011187,0.9790813160723747
2011-08-03,-1,-0.0009026115188853331,-0.0007483793627334251,-0.011037601903987058,0.017141558585011187,0.9795451137767619
2011-08-05,-1,-0.0026845706711050516,-0.0022844447089226776,-0.011265990444938409,0.017141558585011187,0.9790529851323433
2011-08-09,-1,-0.001548801436855097,-0.0012790123995240718,-0.007930163387916333,0.017141558585011187,0.9854179150546725
2011-08-11,0,-1.0659194991932724e-05,5.4746993850020314e-05,-0.011265990444938409,0.015467725960506789,0.9860102712249155
2011-08-15,0,-6.315384065665484e-05,4.9322050038014015e-05,-0.008849729462002647,0.009312097764349124,0.9875483990238212
2011-08-17,1,8.275808481025392e-05,0.00015792831964839792,-0.008849729462002647,0.009312097764349124,0.9872680290018803
2011-08-19,-1,-0.0013896253643336464,-0.001137967191382284,-0.0063124086235471066,0.009312097764349124,0.9874729347820561
2011-08-23,-1,-0.0004895662136090342,-0.00035543571385578213,-0.00878959348395389,0.007265631003580152,0.9879665505248392
2011-08-25,-1,-0.00017317444005741738,-7.780130199482477e-05,-0.007977259047229917,0.0058371959766200035,0.9887184611423296
2011-08-29,0,0.0,0.0,-0.007977259047229917,0.004191662544158727,0.9899659192535247
2011-08-31,1,0.0006046441524377519,0.0006099086764725039,-0.015710808054933037,0.004191662544158727,0.9878582399386109
2011-09-02,-1,-6.756994663870375e-05,-7.611651568026047e-06,-0.01568187843305126,0.004191662544158727,0.9877070483625268
2011-09-07,1,0.0008223756246128076,0.0008491612625468174,-0.019130923059590545,0.0032020323499862904,0.9864354819760689
2011-09-09,-1,-0.00023659787764414064,-0.0001430987734995451,-0.018304269368057416,0.004191662544158727,0.9863473042158156
2011-09-13,1,0.00024119677912523037,0.0002474977636421707,-0.019130923059590545,0.0058371959766200035,0.9828892473881459
2011-09-15,1,0.0007301701717130939,0.0008085096348955678,-0.019130923059590545,0.00778045626537477,0.98198566874657
2011-09-19,0,0.0,0.0,-0.019130923059590545,0.015713501482009194,0.981326796815727
2011-09-21,-1,-0.0004025927567062957,-0.0003747215773956928,-0.019130923059590545,0.018208113457259922,0.9809818649672596
2011-09-23,0,0.0,0.0,-0.019130923059590545,0.018552801551122284,0.9803664003921868
2011-09-27,0,0.0,0.0,-0.019130923059590545,0.020269954725370423,0.9785749132274028
2011-09-29,-1,-0.0001812137470034191,-0.0001731476946796163,-0.018304269368057416,0.020269954725370423,0.97967066650567
2011-10-03,-1,-0.0019906218656915602,-0.001753500154692932,-0.013069585378959685,0.020269954725370423,0.9816616778145937
2011-10-05,-1,-0.0014259923028047184,-0.001242097613353891,-0.013069585378959685,0.020269954725370423,0.9808643014682682
2011-10-07,0,0.0,0.0,-0.0062053222628123,0.020269954725370423,0.9817939176756576
2011-10-11,0,0.0,0.0,-0.0029840341773643554,0.018552801551122284,0.9846838125401276
2011-10-13,0,0.0,0.0,-0.0029840341773643554,0.018552801551122284,0.98371239122943
2011-10-17,0,0.0,0.0,-0.0029840341773643554,0.01884949014116235,0.9840846977166785
2011-10-19,-1,-0.0011639918863758387,-0.0010379121074837482,-0.004536615050592124,0.013690765724998354,0.9843133149259917
2011-10-21,0,0.0,0.0,-0.007589019636612189,0.011327648739924104,0.9845351910152818
2011-10-25,0,0.0,0.0,-0.007589019636612189,0.010884187757652963,0.9859208925157392
2011-10-27,1,0.001234947907874984,0.0013631027504947596,-0.012317793416194859,0.008118814090321202,0.986110156461515
2011-10-31,1,0.0010716796407523321,0.0011631571308565272,-0.012317793416194859,0.010884187757652963,0.9848838488330148
2011-11-02,0,0.0,0.0,-0.011612807757605977,0.010884187757652963,0.986124329007874
2011-11-04,0,0.0,0.0,-0.011612807757605977,0.011156431387934734,0.9858785700532812
2011-11-08,0,0.0,0.0,-0.011612807757605977,0.01222694323926192,0.9857334929998874
2011-11-10,1,0.0003388118475822187,0.0003776364795494761,-0.011612807757605977,0.013163077778910978,0.9865240415730036
2011-11-14,0,-3.116050711323272e-06,3.777477109415193e-05,-0.01010539474373292,0.01222694323926192,0.9878501140365137
2011-11-16,1,0.00010183784879919141,0.00013350059688228778,-0.01010539474373292,0.008530693779758597,0.988396403938997
2011-11-18,1,0.0002601529548732931,0.00027623785085129353,-0.005940148807611409,0.011079526797544086,0.9885726015580194
2011-11-22,1,7.259893693529841e-05,8.064766384015842e-05,-0.0044911905915786966,0.013163077778910978,0.9881864552996189
2011-11-25,-1,-0.00038285071311594277,-0.00036133131237175823,-0.004298095651681154,0.013163077778910978,0.9891589129741892
2011-11-29,1,0.0005026104525749804,0.0006129023349315698,-0.0044911905915786966,0.011079526797544086,0.9902151220709411
2011-12-01,1,0.0010019716266245044,0.0011655754313084348,-0.0044911905915786966,0.010299136332922162,0.9921669785215594
2011-12-05,1,0.001312283832537153,0.0014900291417356414,-0.00478429867855474,0.007184338994939374,0.9922927117896368
2011-12-07,1,0.0016174776430810062,0.0018494923726390417,-0.004577523254733155,0.007101365178816962,0.9924860465145212
2011-12-09,1,0.0017720176432196727,0.002046242205957255,-0.004298095651681154,0.007101365178816962,0.9928078813110264
2011-12-13,1,0.0016174617953202317,0.0018873474721170364,-0.004298095651681154,0.007101365178816962,0.9929526604356717
2011-12-15,1,0.001556080219045108,0.001794913981752785,-0.004558707722471329,0.007624768188415655,0.992698012417514
2011-12-19,1,0.0013066758075832123,0.001470273440136415,-0.004434537923847648,0.007386708402075638,0.9930707859434713
2011-12-21,0,0.0,0.0,-0.004410060468490086,0.0059482774120146,0.9935034635459179
2011-12-23,0,0.0,0.0,-0.004410060468490086,0.0059482774120146,0.9933282013039877
2011-12-28,1,0.0004108299239743888,0.00042801816407341784,-0.002304504056821175,0.007386708402075638,0.993569346623065
2011-12-30,1,2.6771619130803867e-05,0.00010391800377904334,-0.0023172127025885263,0.007386708402075638,0.9934992973243203
2012-01-04,-1,-0.0002879604854654484,-0.0001687977360975039,-0.0021255071381636598,0.009147943473115747,0.9935753861612441
2012-01-06,1,0.00020490505141219852,0.00041438044204739944,-0.0021255071381636598,0.00925754613973389,0.9935701220755679
2012-01-10,1,0.0006127233716891818,0.000877065032399893,-0.0014292761723167795,0.007386708402075638,0.9946992349347202
2012-01-12,-1,-0.00018389100811670852,-8.647376501259266e-05,-0.0021255071381636598,0.007386708402075638,0.9942022807260277
2012-01-17,1,0.00018855807486752106,0.00037441219749247264,-0.0021255071381636598,0.00925754613973389,0.9931113360459787
2012-01-19,1,0.0005695548219624003,0.0008300242463306378,-0.0037018692604086157,0.0068036649598727916,0.9933970871130916
2012-01-23,1,0.0011451789971990232,0.0015192808233212615,-0.004721682850427575,0.005567069330841141,0.9930363321302643
2012-01-25,1,0.0017388310475456306,0.002224726165565403,-0.004721682850427575,0.007314674153414344,0.9929325859235882
2012-01-27,1,0.0012865302017448562,0.0016051795786411471,-0.004721682850427575,0.004498715472266297,0.9930702331249761
2012-01-31,1,0.001543293944351617,0.0019215602947549265,-0.005332837818365075,0.004498715472266297,0.9927233391678176
2012-02-02,1,0.0012387132831426042,0.0015164719708256544,-0.005332837818365075,0.004498715472266297,0.9930333791264263
2012-02-06,1,0.0016438563803786847,0.001982391247669032,-0.00557967654083163,0.0031422428628165803,0.9933090187764629
2012-02-08,1,0.0018333123650757157,0.002210488701260283,-0.008038828601830448,0.003962556011675488,0.9928454461169833
2012-02-10,1,0.0011093898524059346,0.0013471651820638523,-0.004518016053898845,0.003962556011675488,0.9937830840243204
2012-02-14,1,0.0011712713965315552,0.001385158989684001,-0.004518016053898845,0.003962556011675488,0.9943540707478786
2012-02-16,1,0.0012213202843133638,0.0014500627800232775,-0.005057325240496117,0.003962556011675488,0.9940767148695079
2012-02-21,1,0.00083417739722922,0.0010081671953639897,-0.0041272180307503036,0.004907497522010124,0.9943330379224452
2012-02-23,1,0.0010031739503833666,0.0011769610063949686,-0.005057325240496117,0.0031422428628165803,0.9941430871143172
2012-02-27,0,0.0,0.0,-0.005057325240496117,0.00484426151842318,0.9937218752022269
2012-02-29,0,0.0,0.0,-0.005057325240496117,0.00484426151842318,0.9939145549508042
2012-03-02,1,0.00013500065015027729,0.00022054899812887826,-0.005057325240496117,0.00484426151842318,0.9939908561761087
2012-03-06,1,5.2477169540921984e-05,0.00014706251108095446,-0.003661931212900902,0.006413709163530649,0.9939070545136724
2012-03-08,0,0.0,0.0,-0.003661931212900902,0.006413709163530649,0.9939264479726762
2012-03-12,0,0.0,0.0,-0.00657621080179404,0.006413709163530649,0.9931733145386853
2012-03-14,0,0.0,0.0,-0.0052314032921461084,0.006413709163530649,0.9936252067188192
2012-03-16,0,0.0,0.0,-0.004920104193046617,0.006928579754644488,0.9932858176019286
2012-03-20,0,0.0,0.0,-0.004920104193046617,0.006413709163530649,0.9935729013322498
2012-03-22,0,0.0,0.0,-0.003213662043018258,0.006928579754644488,0.9936261454209945
2012-03-26,0,0.0,0.0,-0.004920104193046617,0.006928579754644488,0.9931677482114036
2012-03-28,0,0.0,0.0,-0.003213662043018258,0.00818289403680374,0.9929417558484843
2012-03-30,0,0.0,0.0,-0.0028172226528826996,0.00818289403680374,0.9930303305523087
2012-04-03,0,0.0,0.0,-0.0028172226528826996,0.009997856484903598,0.9928275938938214
2012-04-05,-1,-8.990716171906372e-05,-3.4829391218720235e-05,-0.003473852163620261,0.009997856484903598,0.9930032184810663
2012-04-10,-1,-0.0004454800136861046,-0.00031762412068776823,-0.0018302213174357673,0.009997856484903598,0.9933224152698243
2012-04-12,0,0.0,0.0,-0.0032526131969216887,0.008759673867629745,0.9936903485977279
2012-04-16,0,0.0,0.0,-0.0032526131969216887,0.006840743010444276,0.9938262098257526
2012-04-18,0,0.0,0.0,-0.0035704191217171724,0.006840743010444276,0.9933371188068798
2012-04-20,0,0.0,0.0,-0.006664991836093012,0.005581776306534253,0.9919727687227581
2012-04-24,0,0.0,0.0,-0.004782102233899306,0.006840743010444276,0.9917367982075562
2012-04-26,1,0.0004620255582380634,0.0005172920327208291,-0.004782102233899306,0.0066971083236104425,0.9920162876922413
2012-04-30,1,0.0008750709038186896,0.0008958398635710373,-0.005707551755390104,0.008069645765697173,0.9914645682932379
2012-05-02,1,0.0011968705234342292,0.0012703214539477544,-0.007171222700776669,0.007206915032576309,0.9905542315593681
2012-05-04,1,0.0008810799532778983,0.0009071794449276378,-0.010857571706264163,0.007206915032576309,0.9899684177439698
2012-05-08,1,0.00085478205726412,0.0008619238411904002,-0.010857571706264163,0.008826953114632538,0.9887025120855487
2012-05-10,1,0.0005589245329843464,0.0005968017116068018,-0.010857571706264163,0.009466724018233126,0.9883625656290835
2012-05-14,1,0.0003996947683331121,0.0004531580399181669,-0.011987859266163354,0.01069258496046562,0.9876365195354728
2012-05-16,1,0.00024906774291246875,0.00030318296455367194,-0.010532338549803717,0.011735011943749436,0.987296993562602
2012-05-18,-1,-0.0010017485973413188,-0.0008185511110716392,-0.006662852974356081,0.01240026778000754,0.9883192174444339
2012-05-22,-1,-0.0002535923306924678,-0.00013961679850873907,-0.006662852974356081,0.010897817682274928,0.9893434405397903
2012-05-24,-1,-0.0001472293576549474,-3.277402534109891e-05,-0.008131435604447896,0.010897817682274928,0.9893528475016896
2012-05-29,-1,-0.00035290392771561224,-0.00018508719791189945,-0.008131435604447896,0.009187659264408291,0.9900970147913771
2012-05-31,-1,-0.0007983924721776242,-0.0005900068427917203,-0.005984043600365859,0.010807264599680025,0.9906389234172344
2012-06-04,-1,-0.0013057991861087827,-0.0010543606609211243,-0.00289691707186896,0.012079050861392653,0.9898749317834432
2012-06-06,-1,-0.000266315916322338,-0.00012107258607148996,-0.004285150748174747,0.010807264599680025,0.9911780607115777
2012-06-08,0,0.0,0.0,-0.002555411102523573,0.010807264599680025,0.9917850005335038
2012-06-12,0,0.0,0.0,-0.002555411102523573,0.010634783383705618,0.9929922837282191
2012-06-14,0,0.0,0.0,-0.0011971955337755128,0.009840495126429507,0.9933709957983853
2012-06-18,0,0.0,0.0,-0.0011971955337755128,0.008677790976730108,0.993767818064273
2012-06-20,0,0.0,0.0,-0.002382995821876767,0.008576768400440402,0.9939522613737587
2012-06-22,0,0.0,0.0,-0.001487524811897302,0.008576768400440402,0.9941469076388475
2012-06-26,0,0.0,0.0,-0.0034263989368889403,0.008576768400440402,0.9941036728667099
2012-06-28,0,0.0,0.0,-0.0034263989368889403,0.008229167333534824,0.9942944113459659
2012-07-02,0,0.0,0.0020032868667760042,-0.0034263989368889403,0.005719215040151036,0.9961022745182085
2012-07-05,0,0.0,0.0,-0.004449644647276057,0.005105668525130391,0.9954246727888185
2012-07-09,0,0.0,0.0,-0.005559393096171547,0.005719215040151036,0.9945320190423345
2012-07-11,0,0.0,0.0,-0.005714016269672977,0.005719215040151036,0.9940316091368412
2012-07-13,0,0.0,0.0,-0.005721832122856887,0.002978385886261885,0.9943853153886728
2012-07-17,0,0.0,0.0,-0.005721832122856887,0.002978385886261885,0.9945052180427636
2012-07-19,1,0.0018029662031072676,0.001992171413434091,-0.005412565512056872,0.006579852398278453,0.9939730413217263
2012-07-23,1,0.0013112877474749686,0.0014031188855282656,-0.004452249931670694,0.006579852398278453,0.9942337808732311
2012-07-25,1,0.0012806488630317631,0.001385686234741313,-0.0037012481165213966,0.006579852398278453,0.9943396591871188
2012-07-27,1,0.0015057822208806098,0.001629032654167986,-0.0037012481165213966,0.005052846054637715,0.9947694406277551
2012-07-31,1,0.001627871535147356,0.0017575021768357776,-0.0037012481165213966,0.0026901889771136396,0.994941853364008
2012-08-02,1,0.0012087369908992806,0.0012791750567536415,-0.0013923390243082865,0.0026901889771136396,0.9957628261178713
2012-08-06,1,0.0011234043971335402,0.0012018446105921707,-0.0009838752700752104,0.0033100933179295794,0.9961403041241355
2012-08-08,1,0.0005606618373428607,0.0005648072629443825,-0.0005131548326448322,0.0033100933179295794,0.9967915147322768
2012-08-10,1,0.0003333001465480642,0.00035627470997084824,-0.0005131548326448322,0.0033100933179295794,0.996775884927053
2012-08-14,1,0.0001656772753644868,0.0002364879549165426,-0.0009563783341522758,0.00279900744289463,0.9969172916650936
2012-08-16,1,0.0009781305566997228,0.001031523325187397,-0.0010409538128688996,0.0022338242391853336,0.997233807483053
2012-08-20,1,0.000598124049119971,0.0006111555971677768,-0.0019710582213660487,0.0022338242391853336,0.9969475809958418
2012-08-22,1,0.000790129446315456,0.0008000426330317507,-0.003419316888662759,0.0012809396434224063,0.9958457111986638
2012-08-24,1,0.0008658419844728186,0.0008994164412398267,-0.00401093197403516,0.0008537200033131792,0.9954568594360944
2012-08-28,1,0.0006062556521122891,0.0006303349273380515,-0.004444361857026428,0.0011743401426933732,0.9945650101270808
2012-08-30,1,0.0001451932487225829,0.00025609329428532006,-0.004444361857026428,0.0027930281361316918,0.9946225581961753
2012-09-04,1,0.0010657793815475295,0.0010884136888743294,-0.004444361857026428,0.0011743401426933732,0.9944949404883252
2012-09-06,1,0.0007430301738368103,0.0007608110715407205,-0.004436709297347628,0.0027930281361316918,0.9942444067905678
2012-09-10,1,0.0003449125881994757,0.0004130030345632031,-0.0034167660354364926,0.0027930281361316918,0.9947656101966348
2012-09-12,1,0.0005963272569944865,0.0006160320652565229,-0.004401631129260376,0.0034570901677709494,0.9942626127917392
2012-09-14,1,0.0006773690575139379,0.0006790790464959462,-0.004401631129260376,0.002322954644593993,0.9944881367036207
2012-09-18,1,0.000568264331587821,0.000573191289368263,-0.003072150360408167,0.005232477738166249,0.994380942691831
2012-09-20,-1,-0.00028952794811446295,-0.00019922019138251352,-0.001652305240960542,0.007241566478475703,0.9951103429458749
2012-09-24,-1,-0.00028240051963222823,-0.00021561080648849643,-0.001652305240960542,0.007241566478475703,0.9948919835857145
2012-09-26,-1,-0.0001605505628120221,-8.96267915348624e-05,-0.0018744138414789127,0.005232477738166249,0.995110463211238
2012-09-28,0,-2.9837005195602933e-05,1.3924219617535987e-05,-0.005325390017735962,0.005232477738166249,0.9946487599422713
2012-10-02,1,4.478259668420285e-05,9.554722888363749e-05,-0.005996770182463265,0.005232477738166249,0.9937323904727832
2012-10-04,1,0.00015584785903746055,0.00020725113625006986,-0.007356532488967773,0.0028071419749365403,0.9937573793651394
2012-10-08,1,2.7522201335488305e-06,8.854598706013273e-05,-0.007906762997109264,0.005232477738166249,0.9929527647949531
2012-10-10,-1,-0.0009533380669896797,-0.0006796925769782051,-0.008582544382933825,0.0014777370240312766,0.993175977681103
2012-10-12,-1,-0.0004914366970719577,-0.0003231569463757651,-0.008582544382933825,0.0005103542710742029,0.9927203773261465
2012-10-16,1,0.0001567916336423283,0.0002362568479831211,-0.009312128395512567,-0.0021695153048519895,0.9915886935698529
2012-10-18,1,0.0005809134500492386,0.0006070749925922397,-0.009312128395512567,-0.0021695153048519895,0.9911996583613281
2012-10-22,-1,-0.000241106676734481,-8.716801790758415e-05,-0.009312128395512567,0.00400420792787243,0.9915466311366732
2012-10-24,-1,-0.0017686757155539082,-0.0013813405724629204,-0.008080681683336316,0.006104493265408844,0.9921669239417119
2012-10-26,-1,-0.0014175794956705074,-0.0011432043436373732,-0.009410758544774484,0.006104493265408844,0.9919455241199705
2012-11-01,-1,-0.0009119134482874907,-0.000695394172592661,-0.009410758544774484,0.006104493265408844,0.9924448251438757
2012-11-05,0,0.0,0.0,-0.006266393437826268,0.006104493265408844,0.9926978642962568
2012-11-07,0,0.0,0.0,-0.004853205231603541,0.006244082175350767,0.9931252197339753
2012-11-09,0,0.0,0.0,-0.0036050637146566944,0.006244082175350767,0.9937732089861145
2012-11-13,-1,-0.0024416647450049896,-0.002062536286206014,-0.002591223431015272,0.006244082175350767,0.9937538181405112
2012-11-15,-1,-0.0038921830634599825,-0.0033223546576708046,-0.002358258728217473,0.006244082175350767,0.9937934315864675
2012-11-19,-1,-0.003263513488992903,-0.002771932472644817,-0.002358258728217473,0.0049056264469692565,0.9942764724108436
2012-11-21,-1,-0.002170667031475602,-0.0018442822764530586,-0.002591223431015272,0.004843404664816367,0.995047258171596
2012-11-26,-1,-0.0010889510076579733,-0.0009389583137784728,-0.0033405312183774614,0.001999354260502319,0.9955922785274789
2012-11-28,-1,-0.001443712198582995,-0.0012685241077836512,-0.002358258728217473,0.004048505485858877,0.9958133884196092
2012-11-30,-1,-0.000690960766371119,-0.000612468376075384,-0.002591223431015272,0.0038182348411944463,0.9957997441438312
2012-12-04,-1,-0.0009055084636248016,-0.000792612702274611,-0.003087877071497008,0.00447814479250806,0.9949652588732601
2012-12-06,-1,-0.00032264251214720083,-0.00030426137254259877,-0.003087877071497008,0.005143153831209178,0.9948534448099626
2012-12-10,-1,-0.00022555630897250906,-0.00021632227871900558,-0.004984943213066723,0.005143153831209178,0.9943635849536417
2012-12-12,-1,-0.0004668120604993325,-0.00042923387282412884,-0.004984943213066723,0.005143153831209178,0.9943222928863513
2012-12-14,0,0.0,0.0,-0.0026505910910419013,0.005479583977759571,0.9944046680169737
2012-12-18,0,0.0,0.0,-0.004984943213066723,0.005143153831209178,0.9943672231364138
2012-12-20,0,0.0,0.0,-0.0036859000159164216,0.005143153831209178,0.9946065037146041
2012-12-24,0,0.0,0.0,-0.002698307172412858,0.005143153831209178,0.9947681121302202
2012-12-27,-1,-0.00011399508292924559,-8.714382780992377e-05,-0.002698307172412858,0.004469543827410669,0.9949511918083037
2012-12-31,-1,-0.00019982271725165097,-0.00018943940093082542,-0.0012775241296256574,0.004257006344239817,0.995462347686525
2013-01-03,-1,-0.00036365513747304597,-0.0003055566712827464,-0.0012775241296256574,0.003965333585906932,0.9959988671736713
2013-01-07,-1,-0.00011401800919096176,-7.133765191100551e-05,-0.0024023018267595015,0.002808926816675516,0.9964568224859351
2013-01-09,-1,-0.00034420898394950676,-0.00029196620204761296,-0.00122772073042973,0.0029171566213664598,0.9966227545667202
2013-01-11,0,0.0,0.0,-0.00122772073042973,0.003965333585906932,0.9965016483536533
2013-01-15,0,0.0,0.0,-0.00122772073042973,0.003965333585906932,0.9962434447893641
2013-01-17,0,0.0,0.0,-0.0002131987078462788,0.003965333585906932,0.9966175873961625
2013-01-22,0,0.0,0.0,-0.00122772073042973,0.003965333585906932,0.9963134582198511
2013-01-24,0,0.0,0.0,-0.00122772073042973,0.003976641842155111,0.9957991411278542
2013-01-28,0,0.0,0.0,-0.0029631377669490037,0.003976641842155111,0.9951544502719172
2013-01-30,0,0.0,0.0,-0.005084663161557599,0.004461323048655537,0.9946877859868469
2013-02-01,0,0.0,0.0,-0.00480727649706158,0.006150972923006428,0.9947147131577218
2013-02-05,0,0.0,0.0,-0.00480727649706158,0.0071203825479818905,0.9939277045790704
2013-02-07,1,0.00104265755901342,0.0012362331726628504,-0.006284989768907352,0.0071203825479818905,0.9936142809340722
2013-02-11,1,0.0013702615198338346,0.0016134635683427616,-0.007312338210426482,0.004775949387878927,0.9930932842925231
2013-02-13,1,0.0015924876927185122,0.0018456020528808271,-0.007312338210426482,0.0012866568995555789,0.9932916072441372
2013-02-15,1,0.000941915060610406,0.0010580320303464341,-0.007312338210426482,0.003001308314388664,0.9937422013607736
2013-02-20,0,0.0,0.0,-0.005788495985215126,0.003345174509972868,0.9943151295333846
2013-02-22,0,0.0,0.0,-0.004641778569164172,0.0037015711729367962,0.9944487290815719
2013-02-26,1,9.218261184505735e-05,9.522036056411719e-05,-0.0031200104771503243,0.003752832167823659,0.9950118295928
2013-02-28,1,0.00027652332930183166,0.0003216526676127684,-0.002452708934876402,0.004377372815761809,0.9952453166637243
2013-03-04,1,0.0005599082534641269,0.0006589616622828021,-0.002452708934876402,0.004377372815761809,0.99533687803682
2013-03-06,1,0.000926548998149896,0.0010807382315217071,-0.0023643624461434525,0.004477262671725038,0.9955213173326438
2013-03-08,1,0.0005271344901286531,0.0006308079167047952,-0.0013847335054987626,0.006308819194669919,0.9953268976730604
2013-03-12,1,0.00015610161631968958,0.00020822662680615182,0.0001906439387443211,0.007703145157965972,0.9954651952020652
2013-03-14,1,0.0004375907837883344,0.0005555184254189497,0.0018652257423992864,0.007703145157965972,0.9952748431499728
2013-03-18,1,0.0006281265852811394,0.000788321424775179,0.0018652257423992864,0.007703145157965972,0.9943491283215594
2013-03-20,1,0.000708812290646941,0.0008597767430556908,0.0002757171610652063,0.007703145157965972,0.9942182839119916
2013-03-22,0,0.0,0.0,0.0007143558907649215,0.007703145157965972,0.9932473807083172
2013-03-26,0,0.0,0.0,0.0007143558907649215,0.007703145157965972,0.9932305980702244
2013-03-28,0,0.0,0.0,0.00039656648414764835,0.007102295600473433,0.993426609572624
2013-04-02,-1,-0.0002493098684093655,-0.00022314041651883438,0.0007143558907649215,0.008202353957489698,0.9926134889663888
2013-04-04,0,0.0,0.0,0.00039656648414764835,0.00777260194057413,0.9925855731422931
2013-04-08,0,0.0,0.0,2.7059123230474015e-05,0.007079899267952882,0.9931508251989067
2013-04-10,0,0.0,0.0,-0.001144018480889245,0.006291118262145728,0.9932669201196547
2013-04-12,0,0.0,0.0,-0.0032838668185582722,0.005469910897495375,0.9932510881702815
2013-04-16,0,0.0,0.0,-0.002794937470861597,0.006089321596459227,0.9940849353414754
2013-04-18,0,0.0,0.0,-0.002794937470861597,0.006474509270893378,0.9934836561925978
2013-04-22,0,0.0,0.0,-0.002794937470861597,0.006089321596459227,0.9944160792777464
2013-04-24,0,0.0,0.0,-0.004075044345052248,0.006089321596459227,0.9929971874238168
2013-04-26,0,0.0,0.0,-0.005655810829820769,0.006474509270893378,0.9915179125516576
2013-04-30,1,0.0027958012522420806,0.0030571383538799592,-0.008451156523499816,0.00576095351470089,0.9908805307795142
2013-05-02,1,0.002544642515603103,0.002797361810063007,-0.010494510360938087,0.003999140453775385,0.9904634038167576
2013-05-06,1,0.0025294982144487047,0.0027682877966753736,-0.011947967473330552,0.003722879778851159,0.9899905763728398
2013-05-08,1,0.0022232556552660336,0.002411991394519656,-0.011947967473330552,0.004823804654223688,0.9894569916459095
2013-05-10,1,0.0018646216257725795,0.0019852730769323087,-0.011947967473330552,0.004823804654223688,0.9893609747570495
2013-05-14,1,0.0019700857463584446,0.002132770457255533,-0.012167225207890195,0.002938834534578796,0.9881304145740623
2013-05-16,1,0.0019987217240645017,0.002159129213774069,-0.01207722913454054,0.00355489261039103,0.9883507755591793
2013-05-20,1,0.0019062948364182144,0.002035892158214768,-0.01207722913454054,0.00355489261039103,0.9878738659988912
2013-05-22,1,0.0008307077675825693,0.0008458298173962603,-0.01439580121914511,-0.0005184342095247284,0.9857209492552514
2013-05-24,0,0.0,0.0,-0.01207722913454054,-0.0005184342095247284,0.9871732423248019
2013-05-29,0,0.0,0.0,-0.010464511669821536,0.006061121247563734,0.9870356936226606
2013-05-31,0,0.0,0.0,-0.008537610601546272,0.010690564574695046,0.9861735365174766
2013-06-04,0,0.0,0.0,-0.008537610601546272,0.011657210115766837,0.9857425367678467
2013-06-06,0,0.0,0.0,-0.009782652597471495,0.010690564574695046,0.9860003254695017
2013-06-10,-1,-0.0016196282662124782,-0.0013555884131172828,-0.009782652597471495,0.01142327394426872,0.9858588949015552
2013-06-12,-1,-0.0031215681663675585,-0.0026517750065169514,-0.005328364991019909,0.013056934523441416,0.9858696612381944
2013-06-14,-1,-0.0019199183082129145,-0.0016121359577584635,-0.005328364991019909,0.01142327394426872,0.9867064588121061
2013-06-18,-1,-0.0023501171411359507,-0.001988706221646014,-0.0061112157905188974,0.01142327394426872,0.9864896628519936
2013-06-20,-1,-0.00558740391748244,-0.004851699451193113,-0.00250959143494342,0.01142327394426872,0.9883998850462467
2013-06-24,-1,-0.005107521247968496,-0.004441112741006339,-0.0013555193347817803,0.013056934523441416,0.9881019158653894
2013-06-26,-1,-0.0037701918734707506,-0.0032652576515921792,-0.00250959143494342,0.009783429441868012,0.9889791583610779
2013-06-28,-1,-0.002396330872215853,-0.0020511809169448825,-0.00250959143494342,0.00835596605123741,0.9913854001584014
2013-07-02,-1,-0.0022997081541461946,-0.0019763150125764965,-0.00250959143494342,0.005549128123995222,0.9921085311313761
2013-07-05,-1,-0.0028394899928605266,-0.0024802662867908286,-0.00250959143494342,0.0068251761714856135,0.9916267706602621
2013-07-09,-1,-0.001844076669778767,-0.0016193742176861478,-0.005516437728834593,0.005084895247848939,0.9925852586575015
2013-07-11,-1,-0.0012971463568937965,-0.0011296640209885584,-0.004201660554594571,0.003716634551351508,0.9936191924694557
2013-07-15,-1,-0.0009739739361219023,-0.0008528542283707158,-0.004201660554594571,0.004070252815407952,0.9937562256952654
2013-07-17,-1,-0.001359215450555683,-0.0011806126852256004,-0.004201660554594571,0.004070252815407952,0.9937463704406418
2013-07-19,-1,-0.0015748962513632535,-0.0013340917567281104,-0.007021157039463753,0.0031252463853262942,0.9927334212128808
2013-07-23,-1,-0.0007609694605955088,-0.0006244897095581674,-0.008567967852065579,0.0031252463853262942,0.9916417989835353
2013-07-25,-1,-0.0015756579057369738,-0.0013446382482121958,-0.008499377373950762,0.002279806682719256,0.9927990580859268
2013-07-29,-1,-0.0011384663826274372,-0.0009806986398354443,-0.008919543687253216,0.0023721681439127754,0.9921666199778532
2013-07-31,-1,-0.0016703950120719735,-0.0014196975438328092,-0.008919543687253216,0.0015642242239783952,0.9924367164328719
2013-08-02,-1,-0.0024254284595240996,-0.002063275054376066,-0.008919543687253216,0.0015642242239783952,0.9924570907124148
2013-08-06,-1,-0.0027031768889110947,-0.0023078889307153218,-0.008919543687253216,0.0030400901904138744,0.9921373913202415
2013-08-08,-1,-0.002735563072426195,-0.0023378343485470094,-0.008919543687253216,0.006079745625068458,0.9913477434327639
2013-08-12,-1,-0.0023423003680064693,-0.002009652732638029,-0.008919543687253216,0.006708798080289069,0.9908918521683122
2013-08-14,-1,-0.0020980215459544963,-0.0018100412761794713,-0.008919543687253216,0.006708798080289069,0.9908057546894944
2013-08-16,-1,-0.0034921594942457137,-0.003045708668366539,-0.008064354161448566,0.00762100186379272,0.9915553515432862
2013-08-20,-1,-0.00300930306144151,-0.0026432472054491196,-0.0044572529420308996,0.00762100186379272,0.9912213076473997
2013-08-22,-1,-0.0035538560196086365,-0.003116581026817478,-0.006347642761857151,0.00762100186379272,0.99089172182427
2013-08-26,-1,-0.0027989101171603174,-0.0024966164973198508,-0.005400773733180849,0.006400993563374632,0.9917109528281942
2013-08-28,-1,-0.0028874689917939168,-0.002607583999520101,-0.004550537380637924,0.0075766544186550554,0.9913094076192382
2013-08-30,-1,-0.002847054304583347,-0.0025926557554164205,-0.004550537380637924,0.0075766544186550554,0.9921178977871808
2013-09-04,-1,-0.00204365996354186,-0.0019135709292758714,-0.004550537380637924,0.0075766544186550554,0.9916751535489852
2013-09-06,-1,-0.0020999678843305076,-0.0019342652958472058,-0.004550537380637924,0.005746296912696881,0.9922408955854064
2013-09-10,-1,-0.0017088968421960107,-0.0015779934303367838,-0.005400773733180849,0.0048864590518178175,0.9923018231853996
2013-09-12,-1,-0.001085174175907198,-0.0010674064895942435,-0.006316755340688854,0.005408759196544951,0.9909299588429797
2013-09-16,-1,-0.0005180756588581871,-0.0004454867223696842,-0.006316755340688854,0.004295643523769664,0.9911007311486045
2013-09-18,1,0.0014831837268662056,0.0018394240727453702,-0.006316755340688854,0.004295643523769664,0.9918736737518479
2013-09-20,1,0.0009968470160049417,0.0013347995022618118,-0.004550537380637924,0.005672216268321723,0.9926582566709771
2013-09-24,1,0.000752825081193407,0.0010545459451297258,-0.0051943839646818556,0.008222939644946515,0.9921130453132407
2013-09-26,1,0.001180668123827503,0.0015586610880281284,-0.005047627144235872,0.005624187605308771,0.9926589476881694
2013-09-30,1,0.0008364469825531899,0.0011605493388606807,-0.005047627144235872,0.007045130086511519,0.9922903519455423
2013-10-02,1,0.0015845794625507271,0.002009306815157862,-0.008144004577938086,0.005247593973501424,0.992628780512497
2013-10-04,1,0.0015896918489619457,0.002075438568895396,-0.008144004577938086,0.007045130086511519,0.9904151300601072
2013-10-08,1,0.001514319186199244,0.001982595254172361,-0.008032648546961549,0.007045130086511519,0.9905024225997576
2013-10-10,1,0.002394562110971264,0.0029856756214189932,-0.008721672545949126,0.004769291017503913,0.9910054986232569
2013-10-14,1,0.002214865872628973,0.002733668927096463,-0.008721672545949126,0.003647136841439918,0.9908130095406033
2013-10-16,1,0.002700549950192436,0.003273914070056794,-0.008721672545949126,0.003647136841439918,0.9912181523091443
2013-10-18,1,0.002520945257506358,0.0030322087571002985,-0.008721672545949126,0.003647136841439918,0.991121313096845
2013-10-22,1,0.0020405369173727445,0.0024453552475056785,-0.007874571610226356,0.001722736066637473,0.9914189660780964
2013-10-24,1,0.0020528510645764194,0.0024442355840365564,-0.007874571610226356,0.0027298692710588904,0.9908111125886607
2013-10-28,1,0.0019464943586935562,0.002333598921527585,-0.007642874602197316,0.0011226203495947429,0.9909259624646601
2013-10-30,1,0.0015717488450513722,0.0018937310137629331,-0.007072448918672346,0.002013715548837307,0.9913602462540985
2013-11-01,1,0.0015320167756604774,0.0017904092868976911,-0.007072448918672346,0.0005417643163557328,0.9932011556271139
2013-11-05,1,0.0015798392251975854,0.0018765032372857803,-0.00636264667916679,0.002013715548837307,0.9933160148607503
2013-11-07,1,0.000996466231656425,0.0012062724878095909,-0.005510028694117875,0.004729685187471248,0.9942585683657775
2013-11-11,-1,-0.0005591235518811394,-0.0004370732979068847,-0.005510028694117875,0.004729685187471248,0.9945466988773551
2013-11-13,-1,-0.00033064901218932656,-0.0002420799901143109,-0.00636264667916679,0.002895536871991372,0.9934386375957932
2013-11-15,1,0.0007625859759498483,0.0008633902414355541,-0.00636264667916679,0.0011014569329921406,0.9937843394856928
2013-11-19,1,0.0004480231814057721,0.0005791469072645729,-0.005472502644287862,0.004729685187471248,0.9935827995369364
2013-11-21,1,7.847380309407127e-05,0.00013523487663280438,-0.005472502644287862,0.004729685187471248,0.9929207423767427
2013-11-25,-1,-0.0007044142048949651,-0.0006343624752132792,-0.003885167961435541,0.004729685187471248,0.9933845565066709
2013-11-27,-1,-0.0002879153684927177,-0.00028506629779972493,-0.003885167961435541,0.004331918475230021,0.9934763551526272
2013-12-02,-1,-0.0007639825497730503,-0.0007173872473529583,-0.0027727522161858273,0.004331918475230021,0.994160218128469
2013-12-04,-1,-0.0004244340844757855,-0.000412844868142641,-0.0027727522161858273,0.004331918475230021,0.9939086224270974
2013-12-06,-1,-0.00025950218522108976,-0.00023748711124440972,-0.0027727522161858273,0.006426520886316796,0.9932571766303319
2013-12-10,-1,-0.0002743706093537784,-0.00024996353677711166,-0.0035623816361656053,0.006426520886316796,0.9931028366273496
2013-12-12,-1,-0.0011157606512463422,-0.0010696708428930932,-0.0027727522161858273,0.0076112756642328335,0.9937271083687637
2013-12-16,-1,-0.0013017388203093734,-0.001211270613465317,-0.0034061426369405966,0.008856097145685306,0.993199474787128
2013-12-18,-1,-0.00040888220238895093,-0.0003845370353580458,-0.0043403624880376,0.007290778860893479,0.9939292925203471
2013-12-20,-1,-0.0006584664879108123,-0.0006468301916017875,-0.0034061426369405966,0.008953728908197837,0.9938699133174321
2013-12-24,-1,-0.0005762686217488809,-0.0005681386631814472,-0.0043403624880376,0.009509472329607183,0.9933755050067876
2013-12-27,-1,-0.0007913127508940589,-0.0007495823981799989,-0.00482364999931041,0.010596698194829618,0.9925143957042148
2013-12-31,-1,-0.0009173043704533702,-0.0008591107758082533,-0.00482364999931041,0.010596698194829618,0.992542597458965
2014-01-03,-1,-0.0005839374496590348,-0.0005725100828043225,-0.00482364999931041,0.0098980559186833,0.9917314917646163
2014-01-07,1,2.1136320890477434e-05,7.620875956352799e-05,-0.00482364999931041,0.012354548415274237,0.9908315678782599
2014-01-09,-1,-0.0008906600030934859,-0.0007728143344508498,-0.004354933001635385,0.012570454073201776,0.9900103435963495
2014-01-13,-1,-0.0004607368586087174,-0.0003993459773754253,-0.0026216698485587277,0.011834417514700483,0.9906707503656631
2014-01-15,-1,-0.0004668147595400864,-0.00038807480281764296,-0.003397992605784485,0.011834417514700483,0.9902621180077495
2014-01-17,-1,-0.0008574359376274954,-0.0007329854965754328,-0.00155134557268946,0.011834417514700483,0.9901773632557662
2014-01-22,0,-4.8255424751028543e-05,3.498552474626756e-06,-0.003456535935337026,0.00849644751319299,0.9914037404382112
2014-01-24,-1,-0.00016848378024768605,-8.2328357564187e-05,-0.003456535935337026,0.008643801034235213,0.9913903586710932
2014-01-28,1,0.0002649609440730055,0.00028933383094020555,-0.002900318274200394,0.0065959237902223425,0.9921444128656532
2014-01-30,1,0.00010572826767099008,0.00015023204854208,-0.002900318274200394,0.0065959237902223425,0.9919740353529266
2014-02-03,-1,-0.0004163412047633317,-0.0003291109388952086,-0.002900318274200394,0.008643801034235213,0.9924524420256622
2014-02-05,1,0.0010676167264604519,0.0011700758429813783,-0.00507502395840486,0.005094638443456536,0.9937298011011332
2014-02-07,1,0.0015581596266549434,0.001738468918679814,-0.00507502395840486,0.003344857563227541,0.9941274072729519
2014-02-11,1,0.0025461882314270403,0.002940123619780729,-0.00507502395840486,0.004800557535402999,0.9936251880184706
2014-02-13,1,0.0012432135906290931,0.0014178760149243974,-0.004352862347383053,0.004800557535402999,0.9948162712549201
2014-02-18,1,0.0013213048310344215,0.0014901078615655572,-0.004352862347383053,0.004800557535402999,0.9943625091861121
2014-02-20,1,0.0013165461992326085,0.001484655457314911,-0.004352862347383053,0.0052666034442678715,0.9933111247361117
2014-02-24,1,0.0013043750066337708,0.001450128143289302,-0.004352862347383053,0.0052666034442678715,0.9928845406007085
2014-02-26,1,0.0017088968999971158,0.001945037018741366,-0.005123128768680195,0.007086517208969426,0.9924427914915637
2014-02-28,1,0.0015295806762136658,0.0017219191192135394,-0.005123128768680195,0.007182016059995807,0.9924971324005352
2014-03-04,1,0.0015515439457394642,0.0017404911155209546,-0.004352862347383053,0.00800357051176646,0.992744374598557
2014-03-06,1,0.0014758273292122181,0.001697691515180386,-0.004596353693006877,0.00800357051176646,0.9926954133172717
2014-03-10,1,0.0013814873882131186,0.0016003577371352636,-0.0037020811164007444,0.00800357051176646,0.993072137812391
2014-03-12,1,0.002191827765475356,0.002561915358916417,-0.006054694499488289,0.00800357051176646,0.9928612549252682
2014-03-14,1,0.0021265047826909533,0.0024981548881326966,-0.0067452423221833245,0.00800357051176646,0.9923489949372711
2014-03-18,1,0.0023719729691470074,0.0027682137109138897,-0.0067452423221833245,0.008853144565860779,0.9921488876604144
2014-03-20,1,0.002280088325910821,0.002672618482840798,-0.006656640785694877,0.008853144565860779,0.9927989645978837
2014-03-24,1,0.0024606412414086305,0.0028599076390317313,-0.006247124225581121,0.007954018095212111,0.9939137002049717
2014-03-26,1,0.0023695103004645205,0.0027350377167758566,-0.0052060806074585506,0.007954018095212111,0.99397985040866
2014-03-28,1,0.002508012172817011,0.002856819679387731,-0.006118076258445338,0.008896266792857517,0.993289970656593
2014-04-01,1,0.002980660966742493,0.0033671355185093997,-0.006118076258445338,0.007534643030679405,0.9932153835379612
2014-04-03,1,0.001998450399110148,0.002215356812287691,-0.0048034165680810505,0.007534643030679405,0.9938072821519341
2014-04-07,1,0.0019363413246654844,0.0021335958020324733,-0.0048034165680810505,0.007534643030679405,0.9937756836715589
2014-04-09,1,0.0017771759819128607,0.0019615989320314236,-0.004171071702439827,0.008896266792857517,0.9937806478384014
2014-04-11,1,0.0015734052016191254,0.0017766121560099982,-0.002597264160628037,0.008896266792857517,0.9941552634070095
2014-04-15,1,0.0020571046833812753,0.002288790000562077,-0.004444357448567269,0.00688253097616648,0.994575742531565
2014-04-17,1,0.0021061478027539363,0.0023400158379994055,-0.002597264160628037,0.00688253097616648,0.9949048735255495
2014-04-22,1,0.001971438963160742,0.002149309840811675,-0.0042679187910366284,0.00688253097616648,0.9943807983838303
2014-04-24,1,0.002098912257204554,0.0022952664068752685,-0.0037421626564930377,0.004244303652064378,0.9947745046526408
2014-04-28,1,0.0019075268177748677,0.0020348669764919973,-0.0024220121157801735,0.005036107904546502,0.9954184217397568
2014-04-30,1,0.0017532415193733223,0.0018603287349728407,-0.0024220121157801735,0.0037614449919650007,0.9954029078221913
2014-05-02,1,0.0019102317384165806,0.0020479988530750608,-0.0014678897487455703,0.004495969766586611,0.9952191345682604
2014-05-06,1,0.0017651039018515642,0.0018719249394504227,-0.001644295756699007,0.005036107904546502,0.994989839062395
2014-05-08,1,0.0013922508580057813,0.0014167204480301366,-0.0037421626564930377,0.005036107904546502,0.9946216767684282
2014-05-12,1,0.0008203978642104225,0.0009203238040917418,-0.0052517903217475905,0.005036107904546502,0.9939472715856181
2014-05-14,1,0.0010505941117009098,0.001084972631942324,-0.0037421626564930377,0.005036107904546502,0.9941452028371046
2014-05-16,1,0.0011699153556665157,0.0012163271985818939,-0.0052517903217475905,0.004894191557069877,0.9940377639188647
2014-05-20,1,0.0006675302163600828,0.0007727195056129691,-0.002444002622158374,0.005094522583419794,0.9941631685669803
2014-05-22,1,0.00025671872680036194,0.00042234194459639287,-0.002444002622158374,0.005094522583419794,0.9939894191451348
2014-05-27,1,0.00037837450148751634,0.0005426757035163073,-0.0058521743244370405,0.004515441326211042,0.9940501573074713
2014-05-29,0,-5.66651026276295e-05,0.00015361410350000148,-0.0058521743244370405,0.005050458723033641,0.9940377061983457
2014-06-02,1,0.0009112536129033185,0.0009788787140345972,-0.0058521743244370405,0.005050458723033641,0.9937582604009926
2014-06-04,1,0.0007298888007471306,0.0008379131393972609,-0.0058521743244370405,0.005050458723033641,0.9936450133027362
2014-06-06,1,0.0010776278264491186,0.0011354168989828658,-0.004025507763795018,0.0044668305345204684,0.9943888976485736
2014-06-10,0,-0.00011359716454860901,7.483458045331819e-05,-0.0020530813322974417,0.005050458723033641,0.9952379213228079
2014-06-12,-1,-0.0006154477093565725,-0.0003397298988720882,-0.0020530813322974417,0.005050458723033641,0.9951466755621814
2014-06-16,-1,-0.0003138516186331369,-0.00012414331316441774,-0.001688856271275607,0.004564683021610939,0.9957402676314429
2014-06-18,1,0.00020000863816786268,0.0003259030476996969,-0.0020530813322974417,0.0031407341950075367,0.9962262204325623
2014-06-20,1,0.0003133833360304077,0.0003968818542787136,-0.002737925955349923,0.0032254649414776944,0.9957430516224823
2014-06-24,0,-4.429780084529183e-05,8.358927555754669e-05,-0.0019082885408319866,0.004121176450248107,0.9958537044778244
2014-06-26,-1,-0.0006895323560852538,-0.0004453852644772044,-0.0019417825224260256,0.002817851696792046,0.9958961544284493
2014-06-30,1,0.0005507627172897833,0.0005761655146950892,-0.0019417825224260256,0.002817851696792046,0.9960428693240978
2014-07-02,1,0.0010985940964154028,0.0011857488881496959,-0.002737925955349923,0.002318866235730326,0.9959076133390237
2014-07-07,1,0.0010644085479257189,0.0011572890420484404,-0.001968330336809368,0.002817851696792046,0.9959380193159006
2014-07-09,1,0.0009241798139173976,0.000949015382636946,-0.0032207036970298354,0.002318866235730326,0.995670693541724
2014-07-11,1,0.001024326029245314,0.0010724065723440868,-0.0032207036970298354,0.002425417521098071,0.995585201968219
2014-07-15,1,0.0007556788665442124,0.0007652690645931837,-0.0032798145703676717,0.002723988024021542,0.995046954832103
2014-07-17,1,0.0006089127037040395,0.0006291532561161229,-0.003944622184110715,0.003910183484334795,0.994493357583027
2014-07-21,1,0.0009072990876045321,0.0009263078282689969,-0.003944622184110715,0.003910183484334795,0.9949488835321091
2014-07-23,1,0.0009994121295493206,0.0010271586638898483,-0.003944622184110715,0.005178451072585976,0.9946621313155897
2014-07-25,1,0.0007344634500031484,0.0007395359185172886,-0.003944622184110715,0.005178451072585976,0.9947254547394445
2014-07-29,1,0.0002877121293732525,0.00037398938331297704,-0.003944622184110715,0.004648284853979339,0.9950899902008484
2014-07-31,-1,-0.00035254617317335946,-0.0001775596019231863,-0.0032798145703676717,0.004648284853979339,0.9954278502323605
2014-08-04,1,4.294381022612939e-06,0.00012005401169951752,-0.0032798145703676717,0.004472439416087319,0.9953931290523753
2014-08-06,-1,-0.000734421430967987,-0.0005215510769575617,-0.0021522661044334683,0.004645376532434002,0.995724177112784
2014-08-08,-1,-0.0004182132184314535,-0.00025783670068598124,-0.0021522661044334683,0.004645376532434002,0.9957869357227761
2014-08-12,-1,-0.0003586633372141394,-0.00018530041457355843,-0.0026421726875105727,0.0043232294422446685,0.9957532133732275
2014-08-14,1,5.413665770696125e-06,0.00010791961558582965,-0.0026421726875105727,0.0042415622950967465,0.9949182695623429
2014-08-18,1,0.00012889049171401303,0.00022917858058538578,-0.0026421726875105727,0.0042415622950967465,0.994704547061019
2014-08-20,1,0.0006461240153315471,0.0006754431273878481,-0.003610401686928331,0.003355693862880884,0.9940837643770285
2014-08-22,1,0.0005713737098380271,0.0005805357791610181,-0.003610401686928331,0.003355693862880884,0.9942656886639706
2014-08-26,1,0.00011380534520896571,0.0002072679870357064,-0.004801585345209897,0.0028845910491999503,0.9940997389922309
2014-08-28,1,1.6618969686884048e-05,0.00011995804271126603,-0.004801585345209897,0.0042415622950967465,0.9935180964557679
2014-09-02,1,0.00016956591771709304,0.00024862257828386924,-0.004801585345209897,0.0028845910491999503,0.9937183253027211
2014-09-04,-1,-0.0004066916971342885,-0.00021803565329277285,-0.004801585345209897,0.0021915468634463578,0.9939453026266002
2014-09-08,1,0.0003202388399968629,0.000377629312769618,-0.004801585345209897,0.002874156665983523,0.9935184465105256
2014-09-10,-1,-0.00048806581533241685,-0.0003282337772351777,-0.004801585345209897,0.00438776013830872,0.992710096552514
2014-09-12,-1,-0.0016050884936407188,-0.0013276752594590458,-0.004033664448592081,0.00438776013830872,0.993913398948409
2014-09-16,-1,-0.0012179713826767566,-0.0009985252918018358,-0.00473567215117079,0.00438776013830872,0.9933076493951234
2014-09-18,-1,-0.001479930352889973,-0.0012439492174401916,-0.004033664448592081,0.004086637969224107,0.994173158730286
2014-09-22,-1,-0.0016123465731659402,-0.0013604537412017345,-0.0033931525691441697,0.004640867272773472,0.993780589876163
2014-09-24,-1,-0.0019905880430060464,-0.0017013871101600312,-0.0016597083566834141,0.00956678845015409,0.9927062297936874
2014-09-26,-1,-0.001589684421171082,-0.0013532789978106378,-0.0011169779118949813,0.009031310388567406,0.9928852696946726
2014-09-30,-1,-0.0012941180788641161,-0.0011134898699598694,-0.0004789969808448977,0.00930609623661513,0.9921868183176749
2014-10-02,-1,-0.0015536931811671937,-0.0013196836287937023,0.0005511449253238112,0.00930609623661513,0.991735333172407
2014-10-06,-1,-0.0010424284341019234,-0.0008737842657380788,0.0005511449253238112,0.010101444579950143,0.990921388907613
2014-10-08,-1,-0.00039699908672381377,-0.0003264886865363303,0.0005511449253238112,0.00930609623661513,0.9923860623013686
2014-10-10,-1,-0.0006054351198403717,-0.0004940524861079848,-0.000959365848621269,0.00930609623661513,0.9919994432923456
2014-10-14,-1,-0.0001787190644030005,-0.00011586044540828655,-0.000959365848621269,0.00930609623661513,0.9922578868273582
2014-10-16,-1,-5.031711390791446e-05,-2.1749525056189415e-05,-0.0015738745496545992,0.00930609623661513,0.99140066928669
2014-10-20,1,0.00012074717406709197,0.00015147279553820602,-0.005990205431578704,0.008944686961317963,0.9915425485141219
2014-10-22,1,0.001259973907425861,0.001408142969216815,-0.00729779733430095,0.005842728961027724,0.9923909797250238
2014-10-24,1,0.0017101562396687143,0.001925704454845587,-0.00729779733430095,0.0054043493319434945,0.9926961534225492
2014-10-28,1,0.0023439047962515963,0.0026572743296098805,-0.00729779733430095,0.0044559916231056386,0.9932022704297576
2014-10-30,1,0.0020787277390709323,0.002299867966371037,-0.00729779733430095,0.004675832075685041,0.9923663378848323
2014-11-03,1,0.002829086024984039,0.0031377692732742967,-0.00729779733430095,0.004005053646940633,0.9931502673638384
2014-11-05,1,0.0024684052115864254,0.002712144433525554,-0.006003730332002382,0.0033122213184101704,0.9936313821495738
2014-11-07,1,0.002041717577174983,0.0022499575342146434,-0.0037098186055184437,0.004005053646940633,0.9942423893104958
2014-11-11,1,0.0022663382021664777,0.0025137447748865937,-0.0033673636990382842,0.0033122213184101704,0.994849129560469
2014-11-13,1,0.001615096857944737,0.0017557827427725086,-0.0033673636990382842,0.00296226318814102,0.9953759793391301
2014-11-17,1,0.0013201074321829895,0.001412173498152375,-0.0040083586118541655,0.002625922064171329,0.9950213912008541
2014-11-19,1,0.0011807657735461636,0.0012738232330115604,-0.0033673636990382842,0.0032799994592531845,0.993618989734374
2014-11-21,1,0.001214025863306036,0.0013233630977260193,-0.0040083586118541655,0.004675208627097131,0.9924411776818085
2014-11-25,1,0.001134946959510328,0.001227005541210386,-0.0040083586118541655,0.004675208627097131,0.9923390712673898
2014-11-28,1,0.0018004205720107782,0.002001095659881861,-0.0040083586118541655,0.004615755856111617,0.9928361257939349
2014-12-02,1,0.001711543514951677,0.0019019054004274071,-0.004595822846120437,0.0024199459454603374,0.991820297841269
2014-12-04,1,0.0017048689196306306,0.0018933074657478388,-0.004595822846120437,0.007524309247405742,0.9905835622551002
2014-12-08,1,0.0016674810113984934,0.0018388397589264721,-0.004595822846120437,0.014437414226878217,0.9895225700549918
2014-12-10,1,0.001628036735185764,0.001812052443284079,-0.004798627626031572,0.014437414226878217,0.9895729259141282
2014-12-12,1,0.0013651474106549676,0.0015252936113539035,-0.004599720549842927,0.014437414226878217,0.9896760631575141
2014-12-16,1,0.0004857512763933209,0.0005035006989396947,-0.0040469452789412,0.014437414226878217,0.9899407657361955
2014-12-18,1,0.0021212839736246695,0.002353296440194839,-0.004599720549842927,0.009880197160828476,0.99144180056391
2014-12-22,1,0.0023616930074378466,0.0025981336158294507,-0.0040469452789412,0.009880197160828476,0.991975716837408
2014-12-24,1,0.0021598552563567757,0.0023768644521119254,-0.004229635827470184,0.01320131395676022,0.991293271308094
2014-12-29,1,0.0020467004453881736,0.002211643267146697,-0.004335138104283971,0.01320131395676022,0.9908674091345485
2014-12-31,1,0.0009770030081633755,0.0010064864196018943,-0.004222326831358106,0.01320131395676022,0.9909184988374391
2015-01-05,1,0.002213992664872497,0.0024242674966452804,-0.004222326831358106,0.009494122824590027,0.9917522939528395
2015-01-07,1,0.0035069469071322195,0.0039009218210218763,-0.004335138104283971,0.008651786361192158,0.9919548153148093
2015-01-09,1,0.003291746383763021,0.003661182129341856,-0.005370151921943104,0.008651786361192158,0.990265797819011
2015-01-13,1,0.0034130706796002834,0.0038197327200506057,-0.004620258561938702,0.008651786361192158,0.990430853025755
2015-01-15,1,0.003345980525460954,0.0037163808774707653,-0.004620258561938702,0.009494122824590027,0.9899062567895749
2015-01-20,1,0.0032106421325910402,0.003553600678285442,-0.004222326831358106,0.0094664232506369,0.9901612834896997
2015-01-22,1,0.003662763177546128,0.004051936288474884,-0.004620258561938702,0.0094664232506369,0.9894059880251992
2015-01-26,1,0.00413095432785122,0.004579155311275652,-0.0056867571189254135,0.00832945828305812,0.9892749185152572
2015-01-28,1,0.00373231592830039,0.004132263333755195,-0.008128648549544574,0.00832945828305812,0.9888757299321224
2015-01-30,1,0.0028783442609205973,0.0031667146756624775,-0.0056867571189254135,0.009178223608431091,0.9899923242614812
2015-02-03,1,0.0028116974686131294,0.003046629360197427,-0.0064255729794426165,0.00832945828305812,0.989612028129915
2015-02-05,1,0.002390742040659667,0.0024948270209374773,-0.008642204369919625,0.007136721898120265,0.9887345987940613
2015-02-09,1,0.0004134267492129576,0.0005396860587959886,-0.005810811209748561,0.00832945828305812,0.9902486925054653
2015-02-11,1,0.00015047251425470958,0.0003427918434751829,-0.005810811209748561,0.010220024990729038,0.9896130297614912
2015-02-13,1,0.0003617025287559189,0.0005395718141716778,-0.005810811209748561,0.010220024990729038,0.9898069750982066
2015-02-18,1,0.0001108223620014374,0.00034207009077979805,-0.005810811209748561,0.010707044048202313,0.9893061338893979
2015-02-20,0,-3.253139673783814e-05,0.00020575657477818487,-0.005089494633811436,0.010707044048202313,0.989739591769772
2015-02-24,-1,-0.0006184862374417766,-0.0003029195206317801,-0.005089494633811436,0.010707044048202313,0.9901515763363795
2015-02-26,-1,-0.001471154770450555,-0.0010478976475120322,-0.005482559583068158,0.010707044048202313,0.98958731097489
2015-03-02,-1,-0.0007994271604100161,-0.0004664027463892684,-0.005482559583068158,0.011795154084370065,0.9890725245530797
2015-03-04,-1,-0.001298703585454377,-0.0009225426478975498,-0.005380516728315369,0.011795154084370065,0.9888043601011164
2015-03-06,-1,-0.0023673801586922005,-0.0018606359792835347,-0.0050554803488938385,0.0123043521871708,0.9894666934745643
2015-03-10,-1,-0.0019743891606817917,-0.0015351476312054017,-0.005380516728315369,0.0123043521871708,0.9891554919198956
2015-03-12,-1,-0.0013440830392861776,-0.0009701180152304984,-0.0065653753459954285,0.007340841059985803,0.9891843644423655
2015-03-16,-1,-0.0005335714556100473,-0.000272158474770066,-0.009494860207413067,0.0051776748465334685,0.989517286182227
2015-03-18,1,0.0007486728796711477,0.0008194111283990193,-0.010143577781316495,0.0050407943820039314,0.9896606242687754
2015-03-20,1,0.0016135415548676768,0.0016659446377054387,-0.010143577781316495,0.0045442158413262,0.9903177206593444
2015-03-24,1,0.001637973620578033,0.00172337425579215,-0.010143577781316495,0.0044673466779022175,0.9909051748741516
2015-03-26,1,0.0006668150168009661,0.0006931097774249132,-0.006431495483934261,0.0044673466779022175,0.9922485384522587
2015-03-30,1,0.002238799404589602,0.0024817420456659375,-0.008812549314220828,0.0022368343527045128,0.9925072297106001
2015-04-01,1,0.0015114869181910827,0.0016523054309039648,-0.01064731185110573,0.0022368343527045128,0.9916586271670164
2015-04-06,1,0.0016741547671312977,0.0017956138261825318,-0.01064731185110573,0.001544729478512827,0.9917908668059444
2015-04-08,1,0.0011004492232049748,0.0011578072712571741,-0.01064731185110573,0.0011742644668960279,0.9920310544449229
2015-04-10,-1,-0.0005094616387730041,-0.00034270238342998304,-0.008812549314220828,0.001544729478512827,0.993238587827778
2015-04-14,-1,-0.001062379405498416,-0.0008171869414713318,-0.009619234598359425,0.0022368343527045128,0.9929218727720482
2015-04-16,-1,-0.001902700354273277,-0.0015427006804459944,-0.009619234598359425,0.004041672590993393,0.9912324759080062
2015-04-20,-1,-0.0019376935082681557,-0.0015674489029734937,-0.009619234598359425,0.005002389868278424,0.9906864208031434
2015-04-22,-1,-0.0017773054228391403,-0.001424167699139825,-0.009619234598359425,0.002257246542833341,0.9909969842781952
2015-04-24,-1,-0.0015429880777794523,-0.0012409185571357448,-0.009619234598359425,0.0025106672630949836,0.990774557014571
2015-04-28,-1,-0.0020117130457731483,-0.0016503180176249133,-0.007846464361453004,0.006279547989909052,0.9905694132385144
2015-04-30,-1,-0.003629684649279942,-0.003082145106615971,-0.005188415202751087,0.006279547989909052,0.9917050884943411
2015-05-04,-1,-0.003172939525117248,-0.002679793903533569,-0.006775256644489644,0.006279547989909052,0.9910525939657318
2015-05-06,-1,-0.0042572689660652936,-0.003628646762386609,-0.006775256644489644,0.006279547989909052,0.9910828197022125
2015-05-08,-1,-0.003855306794468015,-0.0032461048384948427,-0.008127667015268517,0.004561282347694377,0.9916645743112048
2015-05-12,-1,-0.004615281113561843,-0.003883400604425141,-0.008127667015268517,0.004747980593436023,0.9917662927372582
2015-05-14,-1,-0.0029990001970180303,-0.00254664442247608,-0.006560496454821622,0.004747980593436023,0.9930949746381666
2015-05-18,-1,-0.002099908925301917,-0.0017788264950093346,-0.006560496454821622,0.004747980593436023,0.9933099510377544
2015-05-20,-1,-0.002444798808367028,-0.0020729872765577087,-0.006560496454821622,0.007909906134877947,0.992331711016714
2015-05-22,-1,-0.0024696141142907945,-0.0021088019789816614,-0.008127667015268517,0.007909906134877947,0.992000024160517
2015-05-27,-1,-0.00309741295033262,-0.0026043253576970883,-0.008577675965205032,0.007094411322545202,0.9922095616495585
2015-05-29,-1,-0.0027699189791943793,-0.002373197700210076,-0.009120153706953845,0.008544168255010401,0.9916568545272473
2015-06-02,-1,-0.0020477532012280466,-0.001805257443765114,-0.009120153706953845,0.007051063433844808,0.991966671176176
2015-06-04,-1,-0.0028919223220227356,-0.002546225554352202,-0.008062909808912666,0.008544168255010401,0.9914338725137171
2015-06-08,-1,-0.0028605057148854583,-0.0025223004580651287,-0.007958660035928725,0.009313645479972696,0.9905251116357734
2015-06-10,-1,-0.0027570595427369067,-0.002449558118605347,-0.00787550748894324,0.009313645479972696,0.9909577062755844
2015-06-12,-1,-0.0022240602314600013,-0.0019846070406465697,-0.00787550748894324,0.009313645479972696,0.9911023547914389
2015-06-16,-1,-0.0012959027381986574,-0.001202750411313755,-0.00787550748894324,0.008613413592828297,0.9916295867271522
2015-06-18,-1,-0.00011070239113263186,-2.2250497259726964e-05,-0.00787550748894324,0.006005401912458967,0.9918729912958187
2015-06-22,-1,-0.0008834461720076113,-0.000859374343509655,-0.006311729065665775,0.006005401912458967,0.9920572190540173
2015-06-24,-1,-0.0018862379270086042,-0.0017081052782447492,-0.005550953540530141,0.006005401912458967,0.9917360620831236
2015-06-26,-1,-0.0015046779668023834,-0.0013994861613756972,-0.0036441495847221437,0.004823761126769819,0.9923745384068591
2015-06-30,-1,-0.0018962224023351259,-0.0017714935590424355,-0.0023790141796072887,0.008001790208552288,0.9923151431784145
2015-07-02,-1,-0.001806221478458644,-0.0016167315204772565,-0.0023790141796072887,0.00567085324595538,0.9933665265155373
2015-07-07,-1,-0.0005311003157827858,-0.0005043666502786824,-0.0036441495847221437,0.004823761126769819,0.9936570198872431
2015-07-09,-1,-0.00046409063871805144,-0.0004550874736803767,-0.0036441495847221437,0.004823761126769819,0.9935873255015353
2015-07-13,1,5.0851511237118535e-05,0.00014443734207951697,-0.005550953540530141,0.005095635716803123,0.9931968848046263
2015-07-15,1,0.0003506147859087296,0.0004720465885367536,-0.005550953540530141,0.0054446624616673114,0.993063045102197
2015-07-17,1,0.0005871153542272175,0.0007207836092247774,-0.004434875071452398,0.004823491830256059,0.9937766114412995
2015-07-21,1,7.513627413495061e-05,9.940628836258695e-05,-0.0031311358919759616,0.0054446624616673114,0.9935897653375485
2015-07-23,1,2.556507219159777e-05,7.820410541268963e-05,-0.004118084039207399,0.0054446624616673114,0.9935739836301999
2015-07-27,0,-8.422938438697135e-06,2.495686102795451e-05,-0.00870947335149265,0.0054446624616673114,0.9909336894530123
2015-07-29,1,0.00025891498632127797,0.0002651687762887096,-0.009662123461595524,0.004241935841655536,0.9886506893578655
2015-07-31,1,0.000557536233077822,0.0006188621389016356,-0.009662123461595524,0.0054446624616673114,0.9875144901601449
2015-08-04,1,0.001315410474850125,0.001534024472488199,-0.013268889873844164,0.004241935841655536,0.986436338662062
2015-08-06,1,0.0011462844517008196,0.0013836721014945435,-0.013268889873844164,0.0054446624616673114,0.986607777323891
2015-08-10,1,0.001270719037909805,0.0015736776303090126,-0.013970319275437992,0.005996183935189411,0.9860927787952434
2015-08-12,1,0.0020234637651736598,0.002484986756563108,-0.014977466139072432,0.005935496307145319,0.9855049859196665
2015-08-14,1,0.002333031500959905,0.002830851376049683,-0.014977466139072432,0.008702726337396112,0.9846505988235777
2015-08-18,1,0.002115697781512764,0.002526149423727502,-0.014977466139072432,0.015092920357295234,0.9837929689006606
2015-08-20,1,0.002153380831355074,0.0026361560777357195,-0.014977466139072432,0.015092920357295234,0.9845724340902778
2015-08-24,1,0.001409736548495519,0.0017572357616519895,-0.014977466139072432,0.015092920357295234,0.9863160063872174
2015-08-26,1,0.002470596843820547,0.0030071998663455733,-0.0076875295026549995,0.011124784879571713,0.9891900368586112
2015-08-28,1,0.0029612083541338857,0.0035281290943306185,-0.010624384268670871,0.009524559842210786,0.9896256957476941
2015-09-01,1,0.0004575842015802443,0.0006275066822520642,-0.0006156977639302767,0.010548454353963677,0.9903503351329596
2015-09-03,1,0.0009041943225758254,0.0011177734645038588,-0.005577287902324184,0.012977359753581644,0.9902190135094533
2015-09-08,1,0.0006107224547693237,0.0007566294323753931,-0.005577287902324184,0.012977359753581644,0.9904745236600715
2015-09-10,1,0.000245741843862465,0.0003508060202397182,-0.0006156977639302767,0.014418898998698696,0.9897527568526974
2015-09-14,1,0.0014042284983193489,0.0016807890057913616,-0.005385406113085126,0.012977359753581644,0.9909365232819748
2015-09-16,1,0.002773517169163315,0.003230453214283095,-0.005653675729658727,0.01014578172685892,0.9914784616860421
2015-09-18,1,0.002807483032054109,0.003248687367449234,-0.005653675729658727,0.012899199433595817,0.9906057932108855
2015-09-22,1,0.0015259724936334518,0.0016919151923617073,-0.005385406113085126,0.012899199433595817,0.9909028361963654
2015-09-24,1,0.0016347295918643732,0.001836318500708786,-0.005653675729658727,0.012899199433595817,0.9906573331160844
2015-09-28,1,0.0010239109942401397,0.0010819634638281168,-0.005653675729658727,0.012899199433595817,0.9908566565696693
2015-09-30,1,0.0018945113707773307,0.0021019874447335803,-0.005653675729658727,0.012659675840649368,0.9915103947543008
2015-10-02,1,0.0019356990666389248,0.0021290386948588412,-0.004744537059016696,0.011295527960905997,0.9921219898663541
2015-10-06,1,0.0024366001561957583,0.002729917902204463,-0.004744537059016696,0.011295527960905997,0.9911924887997265
2015-10-08,1,0.00353450627460443,0.0039917307689935864,-0.004744537059016696,0.007835336613195798,0.9909921627196855
2015-10-12,1,0.003131882968775993,0.0035174683855686948,-0.009250690877741836,0.007835336613195798,0.9895108642939934
2015-10-14,1,0.002210561740150542,0.0024583342832880176,-0.004546337975491446,0.010891584357132732,0.9902500212646422
2015-10-16,1,0.0029297580264501855,0.0032751137481335487,-0.009250690877741836,0.0063633664492815,0.9898737421420453
2015-10-20,1,0.003017598717778712,0.003349517595334115,-0.009250690877741836,0.006785466935391889,0.989965221530458
2015-10-22,1,0.0027969921311221924,0.003095110476995385,-0.008698851496941367,0.008618608485476353,0.9902497616610616
2015-10-26,1,0.001870615687852298,0.001989002314990124,-0.004370024185295221,0.008618608485476353,0.9906870569331944
2015-10-28,1,0.0020112419581680687,0.0021449268507254668,-0.008601139644623074,0.008618608485476353,0.9904679690333452
2015-10-30,1,0.0015926799214004178,0.0016507259634587139,-0.008934657310575168,0.010608644236563393,0.9897469641640854
2015-11-03,1,0.002233636305762957,0.0023920924914803588,-0.008934657310575168,0.008618608485476353,0.9901230682527383
2015-11-05,1,0.003027176992583571,0.003305801844820236,-0.009253484408883926,0.008618608485476353,0.9893347090799669
2015-11-09,1,0.001670686724178315,0.0018123601830815172,-0.008601139644623074,0.008618608485476353,0.9911175704525713
2015-11-11,1,0.0018307241771920695,0.001946557837853772,-0.00896034885192905,0.007838738281162941,0.9905430900376727
2015-11-13,1,0.0004029592101003867,0.0005049772193976671,-0.004593679170418093,0.008793147662287377,0.9909249350249196
2015-11-17,1,0.001196555743191054,0.0012070856333796737,-0.004593679170418093,0.012021361761256047,0.990455734702927
2015-11-19,1,0.0010964576555898052,0.0011651969916843803,-0.00837251855604937,0.008991167901424542,0.9904547301423093
2015-11-23,1,0.001603255234691714,0.0016478892172291943,-0.00837251855604937,0.008991167901424542,0.9904248536739252
2015-11-25,1,0.0017087475340311982,0.0018232888598299236,-0.0044388702030155915,0.008991167901424542,0.9908097567836979
2015-11-30,1,0.0015697554718286258,0.0016434463785925712,-0.00307493477436254,0.008991167901424542,0.9913199722149302
2015-12-02,1,0.0012097010339421127,0.0012512747335779732,-0.0044388702030155915,0.006313874580372767,0.9915061653919393
2015-12-04,1,0.001431575754689653,0.001498693222890548,-0.0044388702030155915,0.00605742266515953,0.9924258699692678
2015-12-08,1,0.0014894084335440644,0.0015823806723149823,-0.0082851258625345,0.0075056363664858065,0.9916116712718632
2015-12-10,1,0.0002842607064138628,0.0003555554426160024,-0.003012990416425054,0.007907260893986582,0.9923766123803047
2015-12-14,1,0.0006036030274964392,0.0006652666464332258,-0.003012990416425054,0.006275605404177622,0.993100480308785
2015-12-16,1,0.0016640687268810943,0.0017326445216391299,-0.0036355097781221525,0.0031017037889464858,0.9943096332436594
2015-12-18,1,0.0014935609094615828,0.0015744299837178756,-0.0037029260520097824,0.004693516860351086,0.993485760062939
2015-12-22,1,0.0015138828940518476,0.001598994768950773,-0.0037029260520097824,0.006275605404177622,0.9922575190863855
2015-12-24,1,0.0014297559833330972,0.0015170848419616752,-0.008744253382671886,0.00717437629942993,0.9915088222189984
2015-12-29,1,0.0016246506712670264,0.001705832955095274,-0.010186983574835173,0.006275605404177622,0.9911630806350545
2015-12-31,1,0.0002475124770379652,0.00035441214473143026,-0.0037029260520097824,0.007884781848368605,0.9910767463013848
2016-01-05,1,0.0004098076989719915,0.0004841508886809003,-0.00395980475048428,0.007884781848368605,0.9909533526322115
2016-01-07,0,-3.632883591692977e-05,7.956868987888478e-05,-0.005256525989047612,0.007884781848368605,0.9914260434109252
2016-01-11,1,0.00033776027668728397,0.000401733151787237,-0.0065633957899626895,0.007884781848368605,0.9905192110246798
2016-01-13,0,-2.348143733334494e-05,0.00011700677039160528,-0.009718730783998066,0.007884781848368605,0.9900858159882343
2016-01-15,-1,-0.000763521873814991,-0.0004919680962814113,-0.009718730783998066,0.00922525562457614,0.9890132996168466
2016-01-20,-1,-0.0007543580018966241,-0.0005168460554082167,-0.0065633957899626895,0.007884781848368605,0.9902352609024418
2016-01-22,1,0.0008133460755706952,0.0008350430544357672,-0.008103937995398084,0.00558208576526646,0.9907323817082782
2016-01-26,-1,-0.0003965308341119084,-0.00013347539695309591,-0.006093078629063591,0.0015878033564330457,0.991801212207524
2016-01-28,-1,-0.0008951244002507081,-0.0005925483525793881,-0.006093078629063591,0.00558208576526646,0.9907837475078478
2016-02-01,1,0.00010421006691202169,0.0003008232625261298,-0.006093078629063591,0.0015878033564330457,0.990613895730057
2016-02-03,-1,-0.0004183796621012911,-0.00015641688109581094,-0.005853423871718219,-0.00023691398475099434,0.9916311796741605
2016-02-05,-1,-0.0005273467978798101,-0.00028120916076226996,-0.0053320087248842265,-0.00023691398475099434,0.9918854732290812
2016-02-09,-1,-0.0007402467158023491,-0.0005318590183937614,-0.0048474436376875875,0.001183422606710195,0.9930120607816352
2016-02-11,-1,-0.0014012317558550992,-0.0011100172310962112,-0.004004935201495816,0.004833510044677511,0.9927195518739927
2016-02-16,-1,-0.0006188338452182516,-0.00040490619766196125,-0.004004935201495816,0.004833510044677511,0.9935445789715233
2016-02-18,-1,-0.000995547573982677,-0.0007305090709127944,-0.003087041564970555,0.00592099700351542,0.992100348402985
2016-02-22,-1,-0.0009558589406092638,-0.0006937099556650867,-0.004017235443868776,0.00592099700351542,0.9912882941292531
2016-02-24,-1,-0.0012742242461680812,-0.001005703915326308,-0.004464899803946534,0.00592099700351542,0.9909475775064666
2016-02-26,-1,-0.0005642973678663854,-0.00039065744634325834,-0.003087041564970555,0.005053458044361259,0.9925351731821282
2016-03-01,1,0.00020068713499549477,0.00027633856214985845,-0.003087041564970555,0.005053458044361259,0.9925879451327241
2016-03-03,1,0.0005087834431766783,0.0005226800606791326,-0.0024706699923044426,0.00592099700351542,0.9926525269853813
2016-03-07,1,0.00011386328486797165,0.0001585578924559597,-0.0018324862695057393,0.00592099700351542,0.9924944428753462
2016-03-09,-1,-0.00023347069774914763,-0.00011531164988669892,-0.0035531771293203836,0.006421651576544079,0.9917982877055584
2016-03-11,1,0.0008528231450413083,0.0009149735001855009,-0.0035531771293203836,0.00592099700351542,0.9925954702959336
2016-03-15,1,0.001301612755505046,0.0014392152667925336,-0.007310914061103567,0.004200805389013139,0.9925148975817911
2016-03-17,1,0.0022002388497317977,0.002446410951869339,-0.007310914061103567,0.002348175776403731,0.9930731741623657
2016-03-21,1,0.0009876139789200512,0.0010545227889869654,-0.0024795484438400956,0.002348175776403731,0.9949429048813168
2016-03-23,1,0.0006057990612131462,0.0006294350348981979,-0.003982464865953791,0.002348175776403731,0.9938097505741299
2016-03-28,1,0.0006534550264970498,0.0006739379738501352,-0.003982464865953791,0.006784688328699868,0.9932158574590624
2016-03-30,1,0.0014745434611036843,0.001629051891746716,-0.003982464865953791,0.0071019898097485785,0.9936841032208551
2016-04-01,1,0.0018499029582124667,0.002090012352292508,-0.007310914061103567,0.0071019898097485785,0.9929076346022251
2016-04-05,1,0.0008765599507309031,0.0009164381339435622,-0.006857955841031033,0.007150951156429977,0.9928574006321164
2016-04-07,1,0.0010900736221674894,0.0011857257990629635,-0.0038314787925962804,0.007150951156429977,0.9930948624160166
2016-04-11,1,0.0006435191921838842,0.0006506100430744978,-0.0038314787925962804,0.0073694588580907675,0.9924556989085588
2016-04-13,1,0.0006476143036820709,0.0006716587558287786,-0.003907522700690232,0.0073694588580907675,0.9916449509524649
2016-04-15,1,0.0009695916454678039,0.0010585241434117266,-0.007041400875884694,0.007150951156429977,0.9915576981143499
2016-04-19,1,0.0009444276950884227,0.0010337359178004385,-0.008652754592318604,0.007871927914203047,0.9900688695607657
2016-04-21,-1,-0.00043459077470532186,-0.00033747046383791375,-0.007041400875884694,0.007871927914203047,0.9908339248938285
2016-04-25,1,0.00021475460442251301,0.00023048975204869514,-0.007153762432456286,0.007871927914203047,0.9907733870122998
2016-04-27,1,0.0003020398790400455,0.0003369763600597282,-0.007153762432456286,0.010242255545433657,0.9906450551260356
2016-04-29,-1,-0.00022755776641524667,-0.00013687697802395682,-0.005896117631869999,0.010242255545433657,0.9910377369373726
2016-05-03,1,0.0002842768555485797,0.00031814701775198333,-0.005896117631869999,0.007268702944603895,0.9915709254769765
2016-05-05,1,0.0002822689942018979,0.00035173582172218893,-0.005896117631869999,0.00612421421062872,0.9917566639184417
2016-05-09,1,0.0009758899664416668,0.001018666581856675,-0.005896117631869999,0.005989760465003894,0.992196126012385
2016-05-11,1,0.0006575626479050676,0.0007111350460706494,-0.004004061154092214,0.00612421421062872,0.9929548817655244
2016-05-13,1,0.0004024757561592562,0.0004029835338333063,-0.002902868300226387,0.005989760465003894,0.9934547672555057
2016-05-17,-1,-6.156566796089181e-05,-1.1308683297207628e-05,-0.00283352967224432,0.005958353246647131,0.9947061590983618
2016-05-19,-1,-0.0006186640622143198,-0.0005022233756209591,-0.002799673558842225,0.005989760465003894,0.9944343129908245
2016-05-23,-1,-0.00013190702948719048,-9.558316352212272e-05,-0.002799673558842225,0.005958353246647131,0.9951299279997374
2016-05-25,-1,-0.0004950715181417072,-0.0003746354566117308,-0.0021958262956599047,0.005897706536742558,0.9956716090702299
2016-05-27,-1,-0.00022480520199849786,-0.00014092873604446503,-0.002799673558842225,0.005897706536742558,0.995107832752436
2016-06-01,-1,-0.00044690876472146967,-0.00031428426150288837,-0.0023262052853791227,0.006635221398452706,0.9938965143640504
2016-06-03,1,5.780377285645054e-05,0.00012025115297013844,-0.0023262052853791227,0.008691393209550584,0.9940640244063041
2016-06-07,0,-5.0616238808758756e-05,1.9934501677304153e-05,-0.0009867993561722991,0.009550539364709308,0.9934016749998631
2016-06-09,1,0.0002976922744428802,0.0003304355714353126,-0.0023262052853791227,0.009550539364709308,0.9930290011432726
2016-06-13,0,-3.626234543597297e-05,5.299543872769471e-05,-0.0034260489159139273,0.009550539364709308,0.9925728119761646
2016-06-15,1,0.0006388858471875566,0.0006852377188227863,-0.0046358725533644,0.009550539364709308,0.9922883287887483
2016-06-17,1,0.0006042524006152353,0.0006421620671636133,-0.0014846397628122032,0.009195604912446401,0.9929748042629885
2016-06-21,1,0.0001898075502018112,0.00023338651495629926,-0.0014557120522425764,0.009195604912446401,0.9927201255752984
2016-06-23,1,0.0008022730657835713,0.0008863308830592726,-0.0014557120522425764,0.009195604912446401,0.9929161213850517
2016-06-27,1,0.0010861613598242047,0.001210617076512204,-0.0014557120522425764,0.006247109364492984,0.9938081788882772
2016-06-29,1,0.0018060083791339022,0.0020016134372475482,-0.004057770704102362,0.005193776604656556,0.9941602082325757
2016-07-01,1,0.0015866373641007575,0.0016967394407855366,-0.004057770704102362,0.005193776604656556,0.9942223526430107
2016-07-06,1,0.0017945824347582525,0.0018964006337656876,-0.005123876787260543,0.0048290129769839474,0.9936334308092002
2016-07-08,1,0.0020228743313348463,0.0022069906285196203,-0.005616844344089599,0.004108313637697926,0.9938763609666033
2016-07-12,1,0.0015902387844542055,0.0016993856658548219,-0.005616844344089599,0.004108313637697926,0.9937475584763823
2016-07-14,1,0.0011346847689862414,0.0011710089136202574,-0.005616844344089599,0.003848899758557204,0.9936814128415348
2016-07-18,1,0.0010463955030601574,0.0010509217099437978,-0.005616844344089599,0.002787652254627829,0.9936265695144408
2016-07-20,1,0.0011945472064265278,0.0012396385465329768,-0.0063948633865015736,0.002787652254627829,0.9929249141567671
2016-07-22,1,0.0017233237986918316,0.001869641961831964,-0.0063948633865015736,0.0019951630733948673,0.9925252989275386
2016-07-26,1,0.0013758239933951365,0.0014538576585930657,-0.0063948633865015736,0.0019951630733948673,0.9926832002639576
2016-07-28,1,0.0015777975357970215,0.0016625073389086083,-0.0063948633865015736,0.0024194544274524538,0.9932414315945893
2016-08-01,1,0.001848251052195066,0.001969346258578667,-0.0063948633865015736,0.001988284965320088,0.992827603770816
2016-08-03,1,0.0012591548770065992,0.0013358575826174358,-0.0063948633865015736,0.001988284965320088,0.9936530700852441
2016-08-05,1,0.0009015561998313786,0.0009520588300287848,-0.005667504069407148,0.0024194544274524538,0.9937885909494919
2016-08-09,1,0.0010909390106256323,0.0012381374896600112,-0.0043039869926436965,0.0042034557172502115,0.9941545586423703
2016-08-11,-1,-0.0003132293461640896,-0.0002174673688156256,-0.0043039869926436965,0.0042034557172502115,0.9932051912495191
2016-08-15,-1,-0.0007116431615220377,-0.0005458249371762122,-0.005667504069407148,0.0054279367812239965,0.9912776258242686
2016-08-17,-1,-0.0008425128004008431,-0.0006708482721032866,-0.003538425211831631,0.0042034557172502115,0.9921954637564048
2016-08-19,-1,-0.0006337116168549843,-0.000522106699683778,-0.0028275348750303533,0.004874257511736873,0.9920313228546402
2016-08-23,-1,-0.000561014496681948,-0.0004711470757668176,-0.003577562598688319,0.007258987104476559,0.9911274507814937
2016-08-25,-1,-0.00027189642680296297,-0.00019955644571169125,-0.003577562598688319,0.007258987104476559,0.9907948829634982
2016-08-29,0,-1.4715530175850728e-05,2.712345447622284e-05,-0.0061265707735181345,0.004874257511736873,0.9909169637241073
2016-08-31,-1,-0.0004388451855250083,-0.0003470721284284312,-0.0061265707735181345,0.004874257511736873,0.9901248424451627
2016-09-02,-1,-0.0005218577167601448,-0.00040562050350812916,-0.009818210617180178,0.0042034557172502115,0.9885887585740075
2016-09-07,-1,-0.00012784228504375913,-6.590815767924693e-05,-0.013162100102709927,0.002885427360483686,0.987959383390635
2016-09-09,-1,-0.001704069003357137,-0.0014555293526945473,-0.009818210617180178,0.0035355683874108926,0.9895200178326088
2016-09-13,-1,-0.002557020761482914,-0.0021408181267907203,-0.009353725180845367,0.0035213356156028894,0.9910172295909447
2016-09-15,-1,-0.0020406211355059618,-0.0017166054539649585,-0.009353725180845367,0.004508325668136076,0.9897031369367532
2016-09-19,-1,-0.0014817652009146123,-0.001246978887886013,-0.010154842786353055,0.0037332999637609463,0.9897623927835096
2016-09-21,-1,-0.001999021679601181,-0.0016725011623276538,-0.009216399122582937,0.0037332999637609463,0.9905041507776821
2016-09-23,-1,-0.0008351449234215277,-0.0006748827930439744,-0.009216399122582937,0.0035213356156028894,0.9912695495756215
2016-09-27,-1,-0.0006311054974196288,-0.0005228103918531151,-0.009216399122582937,0.0035213356156028894,0.9914371264953881
2016-09-29,-1,-0.0010361469635513237,-0.0009094258542472647,-0.010154842786353055,0.0035213356156028894,0.9911724313620696
2016-10-03,-1,-0.0033883724129150873,-0.002942715878489382,-0.007974404595819927,0.004055718781330729,0.9921836804258861
2016-10-05,-1,-0.004240708485758304,-0.003694061589595854,-0.009693556110837633,0.004055718781330729,0.9915034861083138
2016-10-07,-1,-0.00431721576040831,-0.003738457055862679,-0.010154842786353055,0.00463747895361202,0.9906129953966025
2016-10-11,-1,-0.0048081852986756445,-0.00414651304086594,-0.009693556110837633,0.0055107046372928365,0.9894274550071793
2016-10-13,-1,-0.003319700136342049,-0.0028475793828061516,-0.011668155552130606,0.004055718781330729,0.9901046204841274
2016-10-17,-1,-0.003573724214622676,-0.003081329583485416,-0.011668155552130606,0.00463747895361202,0.9895511268285019
2016-10-19,-1,-0.003266989909154097,-0.0028251969286814307,-0.011668155552130606,0.004206533044692005,0.9896339647168753
2016-10-21,-1,-0.0032918691003181897,-0.0028514570376189387,-0.011668155552130606,0.004206533044692005,0.9895783386038771
2016-10-25,-1,-0.002839155218049331,-0.0024744548304440218,-0.011668155552130606,0.006047100492628452,0.9887110094630286
2016-10-27,-1,-0.004017214252683443,-0.0035112105550419654,-0.007684900139862871,0.006134942961350253,0.9893698924950666
2016-10-31,-1,-0.0031211410409063955,-0.0027444693588726792,-0.007684900139862871,0.005834397040383935,0.9898937129474589
2016-11-02,-1,-0.004274154504067543,-0.0037614789172254297,-0.007721520617833049,0.005834397040383935,0.9897548756683799
2016-11-04,-1,-0.004590164543063425,-0.004049729018538767,-0.006159580366926508,0.006391089440733042,0.9898981633761483
2016-11-08,-1,-0.003416555120267143,-0.0030190659384659313,-0.006159580366926508,0.006391089440733042,0.9907328043924721
2016-11-10,-1,-0.0046121556008755175,-0.004076530361546874,-0.0025820837520872547,0.006391089440733042,0.9914460513541998
2016-11-14,-1,-0.003897063108306879,-0.003456867570377548,-0.0025820837520872547,0.005834397040383935,0.9922905359796961
2016-11-16,-1,-0.003831563521084983,-0.0034187610382238522,-0.003915804231612067,0.005834397040383935,0.9916957378813109
2016-11-18,-1,-0.0030710159199023083,-0.0028059574239384017,-0.0024899486422058892,0.007945278595896653,0.9906328829379173
2016-11-22,-1,-0.0018339129828756377,-0.0017360977716982928,-0.003915804231612067,0.006391089440733042,0.9915063683577297
2016-11-25,-1,-0.0012527651491834831,-0.0012449961410556268,-0.0024899486422058892,0.005875781593952049,0.992045727364914
2016-11-29,-1,-0.0009701782263903448,-0.0009247038684460447,-0.004955570143871632,0.005875781593952049,0.991992677060952
2016-12-01,-1,-0.0020823532364503588,-0.0019888897294329847,-0.0012534424384688374,0.008143315823375323,0.9917640468840185
2016-12-05,-1,-0.0014812006190044098,-0.0014511373065118295,-0.0012534424384688374,0.008315623632221679,0.9920923223060111
2016-12-07,-1,-0.0006343378309755937,-0.0005412185339653488,-0.0024899486422058892,0.007579796384474451,0.9927774779458525
2016-12-09,-1,-0.0005362859163817407,-0.00042055105945397936,-0.00621742717071462,0.007579796384474451,0.9918081912196927
2016-12-13,0,-0.0001254865754407639,6.312800551854533e-05,-0.008777793997584157,0.007579796384474451,0.9913709537677002
2016-12-15,-1,-0.0009504857216920267,-0.0008701801678892947,-0.00621742717071462,0.007954218774353188,0.9919901650961058
2016-12-19,1,0.00041944398374493927,0.0007120138943637926,-0.008777793997584157,0.006415806728706144,0.992794657196959
2016-12-21,1,0.00023199616717084525,0.0005261032931702785,-0.00621742717071462,0.0075439730185077845,0.9928120742910643
2016-12-23,0,-1.9713879495223156e-05,0.0002045058442689781,-0.00621742717071462,0.0075439730185077845,0.9924666896483757
2016-12-28,-1,-0.00025946402876112894,-8.731858646183685e-05,-0.006100490590962299,0.0075439730185077845,0.9925814997739021
2016-12-30,1,0.00047133353057171416,0.0007252847397624012,-0.006100490590962299,0.007184524145298733,0.9930739135013745
2017-01-04,1,0.0007539720111089558,0.0010107407244755507,-0.008426984258327195,0.007184524145298733,0.9917229378070546
2017-01-06,1,0.000896398247492705,0.0011745532156840833,-0.008426984258327195,0.006337592925400764,0.9921177952883101
2017-01-10,1,0.0001240054662597075,0.0002925918852184308,-0.004293645663463544,0.006337592925400764,0.9931991491844975
2017-01-12,1,1.008097974859837e-05,0.00015700355588450316,-0.003331091082146241,0.007309331608591646,0.9930870413989381
2017-01-17,1,0.0002462790508909031,0.00042504826925001955,-0.004293645663463544,0.006740679893946122,0.9929509340043615
2017-01-19,1,0.00010670696705979892,0.00029749506812108207,-0.004293645663463544,0.006740679893946122,0.9932937761470063
2017-01-23,1,0.0009504572460355052,0.001272477286265565,-0.004293645663463544,0.005144870385876093,0.9933439378634531
2017-01-25,1,0.0006559389633884092,0.0009219753771035199,-0.004619644930780807,0.006158361100113759,0.9931732656520403
2017-01-27,1,0.0005723594571360496,0.0008385639985061833,-0.0018943173534823375,0.006158361100113759,0.9934976392362167
2017-01-31,1,0.0010473533504076283,0.0014009253430234455,-0.006949243381763683,0.004991389726603887,0.9928654490440797
2017-02-02,1,0.0004005414306696805,0.0005927304877440555,-0.008466969514274716,0.003949525150380611,0.9934455289986117
2017-02-06,1,0.00044014890485467504,0.0006442871909451221,-0.008466969514274716,0.003949525150380611,0.9929531838402929
2017-02-08,1,0.0007399655804126107,0.0009953990751446432,-0.012560371077176894,0.00178282383473343,0.990835017830765
2017-02-10,1,0.0016489018809283736,0.0020475462636074314,-0.012560371077176894,0.00023219056773168736,0.9904408477771638
2017-02-14,1,0.0011983848708561158,0.0015322125937805063,-0.010984118281523514,0.0042873553884598325,0.9898679230987878
2017-02-16,1,0.0015785550868090044,0.0020138591411874725,-0.010984118281523514,0.007036367076984728,0.9896550304889751
2017-02-21,1,0.002127552912443707,0.002631922680197591,-0.010984118281523514,0.002784296519923168,0.9897558089360312
2017-02-23,1,0.0018878394669402275,0.0023273737881302943,-0.011814435017801432,0.0038157831560663436,0.9893213818515906
2017-02-27,1,0.0010151376145819424,0.0012396562287794017,-0.012560371077176894,0.0038157831560663436,0.9890108534275639
2017-03-01,-1,-0.00019582254259706164,-0.00017968266081529869,-0.011868627168892214,0.005470718981662612,0.9902389348632235
2017-03-03,-1,-0.0011830678350686784,-0.00109018639724065,-0.005693389654581086,0.005470718981662612,0.9913923551709148
2017-03-07,-1,-0.0017421591941010831,-0.0015739019142499207,-0.004070711365698544,0.005470718981662612,0.991361832672846
2017-03-09,-1,-0.0026414825836975635,-0.002431255451754582,-0.0011942285774687008,0.005470718981662612,0.9927904898528173
2017-03-13,-1,-0.002409797601236258,-0.0022134754179266884,-0.0011942285774687008,0.005235912596896261,0.9930231095270663
2017-03-15,-1,-0.0007572304651904389,-0.0007493158843417169,-0.001741147596516312,0.0028894291976720703,0.9951027882899123
2017-03-17,-1,-0.0002525973694598087,-0.00018070183690860502,-0.001741147596516312,0.0028894291976720703,0.9952838550345057
2017-03-21,-1,-0.00011642417250023795,-1.4820858999977347e-05,-0.0011115316852801085,0.0040373272168682224,0.9951450012455133
2017-03-23,-1,-0.0006392364975627085,-0.0006103667642551765,-0.0016387990481888544,0.003332453060473064,0.9957146057699202
2017-03-27,-1,-0.000815475161745093,-0.0007968478281021873,-0.0016387990481888544,0.0040373272168682224,0.9952537297795846
2017-03-29,-1,-0.0013673644000088412,-0.001223951826083322,-0.002132062813412234,0.004429519542154436,0.9944397416011013
2017-03-31,-1,-0.0016013173473648883,-0.0014014221445423935,-0.0035046743183699608,0.005002201568788799,0.9929907110532277
2017-04-04,-1,-0.0010266889206551912,-0.0009503826108927318,-0.0040358968993376276,0.005268452610815788,0.9926278637747764
2017-04-06,-1,-0.0019252470067652645,-0.0016731466917763473,-0.006996875676947131,0.006931438384238778,0.9918568695949663
2017-04-10,-1,-0.0012530707028303339,-0.0011099945484313977,-0.008505503358975675,0.005268452610815788,0.9915740065519753
2017-04-12,-1,-0.0010755766417014645,-0.000942350928073696,-0.012270763177384306,0.005268452610815788,0.9906827161114549
2017-04-17,-1,-0.00063437578587596,-0.000547847930384785,-0.015683700629899253,0.005268452610815788,0.989266919672875
2017-04-19,1,0.00017624050564011017,0.00023524663443704664,-0.017103574200778397,0.005268452610815788,0.98781041774071
2017-04-21,-1,-0.00012853159567499038,-0.00010446250844571662,-0.017103574200778397,0.00943139053277815,0.9872297370722506
2017-04-25,-1,-0.0003982425940387604,-0.00039382370608267243,-0.015683700629899253,0.00943139053277815,0.9877336537561162
2017-04-27,-1,-0.0016798003422225922,-0.0014675034231723286,-0.012725260609433141,0.010470109591929611,0.987883218452471
2017-05-01,-1,-0.0011808433363045998,-0.001063262859292364,-0.012781641884165784,0.00943139053277815,0.9883425007164793
2017-05-03,-1,-0.0009575787517683699,-0.0009052799097291095,-0.010859944772658349,0.010470109591929611,0.9880747368847536
2017-05-05,-1,-0.0007728119149963796,-0.0007405539659620085,-0.014288184490056208,0.00943139053277815,0.9879901557303535
2017-05-09,-1,-0.0013229239209392174,-0.0012388934227417288,-0.00986510026101831,0.010528110117978736,0.9874899115147446
2017-05-11,-1,-0.0022761998137032185,-0.002021060629499575,-0.00986510026101831,0.010528110117978736,0.9873386628188213
2017-05-15,-1,-0.002479975726875684,-0.002268891908026597,-0.008421742340234675,0.011207828420087114,0.987870346515878
2017-05-17,-1,-0.004056487447322273,-0.0036319315668748506,-0.00763190625515444,0.011207828420087114,0.9886263545531284
2017-05-19,-1,-0.002977928149973141,-0.0026826565131470173,-0.008421742340234675,0.011012091491294954,0.9890244587355785
2017-05-23,-1,-0.002900509038214813,-0.0026064732445500744,-0.009237679630956806,0.011012091491294954,0.989217752792263
2017-05-25,-1,-0.001506677243310379,-0.001429397047687224,-0.009237679630956806,0.008172109259507485,0.9890762234827407
2017-05-30,-1,-0.0022150421300418588,-0.0020928190217622917,-0.0077321100379270005,0.011012091491294954,0.9891114998417342
2017-06-01,-1,-0.0017542188781951426,-0.0016965276217490504,-0.007070240991412136,0.008172109259507485,0.9897401424321487
2017-06-05,-1,-0.0031034526440183773,-0.0028433683967575897,-0.004828540876373553,0.011517120879602296,0.9888239835298188
2017-06-07,-1,-0.0018099171213413836,-0.0016979495516744145,-0.007811316393377843,0.008172109259507485,0.9893290290624636
2017-06-09,-1,-0.0016107515112888699,-0.001538022359623386,-0.007811316393377843,0.0072349010615824026,0.9899118332131663
2017-06-13,-1,-0.0006959547902591781,-0.0006874730868060872,-0.007811316393377843,0.00693695003808956,0.9908023621185025
2017-06-15,0,-5.0347626050826154e-05,9.255657124030922e-05,-0.007811316393377843,0.007024422377930812,0.9905465571100449
2017-06-19,-1,-0.0010636577052799436,-0.0010608924592993654,-0.004831075495686623,0.007024422377930812,0.9911715174379582
2017-06-21,-1,-0.0017807604276534172,-0.0016821260593598917,-0.002563471454987435,0.007753283854797914,0.9910505149516157
2017-06-23,-1,-0.0008679301723742163,-0.0008395344343753828,-0.002563471454987435,0.007753283854797914,0.9914839103305444
2017-06-27,0,-2.2788619069998104e-05,0.00011698479942247314,-0.002563471454987435,0.006765656985874518,0.9924218692134268
2017-06-29,1,0.00011993383498049259,0.0002772667194449423,-0.003486425838781058,0.007753283854797914,0.991244359075189
2017-07-03,1,0.000748681539906767,0.001002823177714645,-0.0015977750322446168,0.007753283854797914,0.9923289872104711
2017-07-06,1,0.00012382909707791656,0.0003466119495130045,6.528990068424627e-05,0.007753283854797914,0.9928971126865686
2017-07-10,-1,-0.00021317861806103926,-6.202808619017522e-05,6.528990068424627e-05,0.007340750175539158,0.9933032970007022
2017-07-12,1,4.6423602841658726e-05,0.00022769690979088358,-0.0014467007903328525,0.007340750175539158,0.9933396007685757
2017-07-14,1,0.0014089044755957758,0.0018106386691255354,-0.003081092412912028,0.005821233012690847,0.9933989288702954
2017-07-18,1,0.0016631842815184293,0.002103288167041719,-0.005547967494862815,0.006140475308870276,0.9924850153444607
2017-07-20,1,0.002158994200324611,0.0026659845680105055,-0.006730968087633378,0.005216864661998842,0.9923448886312615
2017-07-24,1,0.0021246546102861464,0.002571728720920925,-0.00926501441222459,0.005379421478860395,0.9915080080865386
2017-07-26,1,0.001992348237046613,0.0023521065314236565,-0.010161766281820011,0.005141274399786164,0.9910596370624044
2017-07-28,1,0.0017641003732814706,0.0020628596684517933,-0.008783228099820297,0.005141274399786164,0.9919353072166192
2017-08-01,1,0.0012179925216569507,0.0013295710290986858,-0.010161766281820011,0.0034454226033012996,0.9915259596123454
2017-08-03,1,0.0008883863824050663,0.0009706494264663946,-0.008783228099820297,0.005141274399786164,0.9918158198392092
2017-08-07,1,0.0018014746374530944,0.0020957474094513463,-0.008783228099820297,0.005907296188922221,0.9914729983663316
2017-08-09,1,0.0018959052613717951,0.002236410120879793,-0.008783228099820297,0.008798265473710445,0.991057899705902
2017-08-11,1,0.0008323117483590273,0.0010311107172413588,-0.008272814520011797,0.008798265473710445,0.9914740715370705
2017-08-15,1,0.0008350487489953215,0.0010364381818955101,-0.008272814520011797,0.0072277382305925165,0.9919402478220569
2017-08-17,1,0.00031331532712354634,0.0004095589947944044,-0.007605293062612428,0.008798265473710445,0.9909928201839798
2017-08-21,1,0.0002860845362451435,0.0003882664885707661,-0.008571731809876939,0.0072277382305925165,0.9902489402169142
2017-08-23,1,0.00022945748027062792,0.00033308233707067406,-0.007605293062612428,0.0072277382305925165,0.9903743223116712
2017-08-25,1,0.0004599210481060055,0.0005885870225214637,-0.007605293062612428,0.0072277382305925165,0.9902622229579648
2017-08-29,-1,-0.00032307308936683024,-0.00029554671458148247,-0.007605293062612428,0.0072277382305925165,0.9909808040856057
2017-08-31,1,0.00027640157205451087,0.00040137412488150176,-0.007605293062612428,0.0072277382305925165,0.991126513644874
2017-09-05,1,0.0007237583462297113,0.0009278883124107149,-0.007605293062612428,0.005188312054886762,0.9914753811112776
2017-09-07,1,0.0019464153249566503,0.002344026510517884,-0.007605293062612428,0.004298820347378828,0.9918057892334852
2017-09-11,1,0.002098730436331013,0.00253695695420282,-0.0065454580579808515,0.0038864098862014364,0.9921800709880431
2017-09-13,1,0.0013298076390452405,0.0016455017716809368,-0.006050990453937089,0.004775959532028077,0.9926857846056174
2017-09-15,1,0.001671154464064863,0.0020040872408662513,-0.005795004276359786,0.005155741203954237,0.9935623423417659
2017-09-19,0,-1.0601438246832218e-06,8.558671204354301e-05,-0.003871894184746239,0.005640137338845723,0.9943864958873163
2017-09-21,-1,-0.00043897362316260713,-0.0004060992338025057,-0.003871894184746239,0.005640137338845723,0.9939534732524206
2017-09-25,-1,-0.00017446070796956102,-0.00011924274622479177,-0.0041159068206208385,0.005640137338845723,0.9940949481045419
2017-09-27,-1,-0.0002994922974357016,-0.00024951034763285,-0.007153022532182963,0.005640137338845723,0.9933288100937074
2017-09-29,-1,-0.0005604241782872692,-0.0005387979602805693,-0.008892886270707652,0.005640137338845723,0.992893966540397
2017-10-03,-1,-0.0005124049644307268,-0.0004847772886763574,-0.008892886270707652,0.005640137338845723,0.9928698496671302
2017-10-05,-1,-0.0006139399186831716,-0.0005204968410783316,-0.008892886270707652,0.006384209809908549,0.9904256405244646
2017-10-09,-1,-0.0013714455240272311,-0.0011282701957758658,-0.010395623411096285,0.006384209809908549,0.9901673383936992
2017-10-11,-1,-0.00022985507574732207,-0.00016458459173603927,-0.010395623411096285,0.006384209809908549,0.9898840965106804
2017-10-13,1,0.0004045592135509622,0.00041581152545420096,-0.010395623411096285,0.006384209809908549,0.9893183302718934
2017-10-17,1,0.0006487841762216778,0.0007235922889475526,-0.010395623411096285,0.006586276341009136,0.9892044247008837
2017-10-19,-1,-0.0009105671900116406,-0.0007325400273781506,-0.009172999241198916,0.006586276341009136,0.990038928455029
