JNU-Tangyin/eata/results/Batch4_SP500/Batch4_SP500-CB.csv
Date,Action,Predicted_Q25,Predicted_Q75,Actual_Q25,Actual_Q75,RL_Reward
2010-12-14,0,0.0,0.000333250486760617,-0.0022870363804348,0.002284729522860853,0.995904692711599
2010-12-16,1,0.001150907142169877,0.0011972606647306775,-0.0022870363804348,0.0015365531101513513,0.9959220960806431
2010-12-20,1,0.00022953390803080265,0.0004121276753361711,-0.0019776204140299325,0.0015365531101513513,0.9965691273423807
2010-12-22,1,0.0010857053448236414,0.00116295006461473,-0.0024274860727590045,0.0006077857502672886,0.9967675041288011
2010-12-27,1,0.0013167305260620016,0.0013309472954046101,-0.0024274860727590045,0.0019360499682350165,0.9956468369470014
2010-12-29,1,0.0008858284853499013,0.000987175396659936,-0.0024274860727590045,0.0025185282267457085,0.9952480780028711
2010-12-31,1,0.0009535970026995408,0.0010278495805893144,-0.00331481986136047,0.0035128139913558204,0.9934705611224031
2011-01-04,1,3.021820775640121e-05,0.0002705227101877226,-0.00331481986136047,0.00523030391378195,0.9930482598753515
2011-01-06,-1,-0.000291358673415783,-3.0427608571363413e-05,-0.0024274860727590045,0.005818854321590246,0.9925872493378177
2011-01-10,-1,-0.001013492217952881,-0.0007009078211501092,-0.001647393323727275,0.007463293646825929,0.9920852210148287
2011-01-12,-1,-0.0013702468439265245,-0.0009719684553246653,-0.0030407389269936124,0.007463293646825929,0.9921980931834901
2011-01-14,0,0.0,0.0,-0.0036373717643794065,0.007463293646825929,0.9912222150332978
2011-01-19,0,0.0,0.0,-0.0036373717643794065,0.008325228100441024,0.9909121711239068
2011-01-21,0,0.0,0.0,-0.0036373717643794065,0.009903419435240677,0.9889717784020203
2011-01-25,0,0.0,0.0,-0.004934535270254273,0.008325228100441024,0.9891931562455318
2011-01-27,-1,-0.0002879190101357877,-0.00013691241137340625,-0.005982967906191356,0.008325228100441024,0.988367809152052
2011-01-31,-1,-0.0006456310901296645,-0.000450768726967779,-0.005982967906191356,0.008325228100441024,0.9898276016676424
2011-02-02,0,0.0,0.0,-0.009009975211838281,0.008565818063301114,0.9885655925019454
2011-02-04,0,0.0,0.0,-0.009587096253530897,0.007490477560911814,0.9888698707076781
2011-02-08,0,0.0,0.0,-0.009587096253530897,0.007418684376326578,0.9895492243350763
2011-02-10,0,0.0,0.0,-0.011367222008909475,0.007418684376326578,0.988707201989659
2011-02-14,0,0.0,0.0,-0.011367222008909475,0.007418684376326578,0.9886781701966344
2011-02-16,0,0.0,0.0,-0.011367222008909475,0.007418684376326578,0.9886284618041812
2011-02-18,0,0.0,0.0,-0.011367222008909475,0.006108960271733375,0.9898107463087747
2011-02-23,0,0.0,0.0,-0.009587096253530897,0.006108960271733375,0.9906293337921682
2011-02-25,0,0.0,0.0,-0.006419904085207997,0.005755851001009014,0.9919000876938472
2011-03-01,0,0.0,0.0,-0.005083648472617264,0.007952409186409229,0.9911599265417733
2011-03-03,0,0.0,0.0,-0.004903305199974549,0.007860985608591964,0.9924231783487684
2011-03-07,0,0.0,0.0,-0.00122169425005375,0.009712938208114422,0.9912141117696848
2011-03-09,0,0.0,0.0,-0.00122169425005375,0.009712938208114422,0.9914113021697183
2011-03-11,0,0.0,0.0,-0.0014495848875887493,0.009712938208114422,0.9921459005857112
2011-03-15,0,0.0,0.0,-3.7534283316214344e-05,0.012706143208455326,0.992515555915861
2011-03-17,0,0.0,0.0,-0.0009809199035010871,0.012706143208455326,0.9927514274338605
2011-03-21,1,0.0005995812906470317,0.000650488938016534,-0.0035729576209812828,0.009348450995261288,0.9928061240786831
2011-03-23,0,0.0,0.0,-0.0035729576209812828,0.009348450995261288,0.9926461376268395
2011-03-25,0,0.0,0.0,-0.0035729576209812828,0.012706143208455326,0.9922757692843189
2011-03-29,0,0.0,0.0,-0.0035729576209812828,0.009330463118914733,0.9928845308716779
2011-03-31,1,0.0014955664392554057,0.0016978296560668268,-0.0035729576209812828,0.01256196310001432,0.9922790150007564
2011-04-04,1,0.001969026454896621,0.002187037465935186,-0.005051724106066596,0.00414980211341448,0.9927653826464486
2011-04-06,0,0.0,0.0,-0.005051724106066596,0.006380686951528328,0.9928576164515246
2011-04-08,1,0.0013356254846665996,0.0014569514163117242,-0.0035729576209812828,0.007597243367395304,0.9928813979243709
2011-04-12,1,0.0013383797534414583,0.0014235636517125083,-0.005051724106066596,0.007597243367395304,0.9923074704219678
2011-04-14,1,0.0015221664794407468,0.0016648405615892288,-0.005951900367302792,0.009062654438323462,0.9918609167098472
2011-04-18,1,0.00029522229393356985,0.0003542876275033065,-0.0033069447825962647,0.011107540048840051,0.9920345449145134
2011-04-20,1,0.0001954939982632373,0.00028255629320433104,-0.002249087747970828,0.011446266915786903,0.9918138714178483
2011-04-25,1,0.0005473148414706985,0.0006111249151993584,-0.00699077140576948,0.01074163727954643,0.9916837037336019
2011-04-27,1,0.001290907534692578,0.0013505338858705077,-0.00699077140576948,0.009062654438323462,0.9920326337022367
2011-04-29,1,0.0014723384394286986,0.0015238011843302357,-0.00699077140576948,0.009062654438323462,0.9921886525590872
2011-05-03,1,0.001541617561885541,0.0016083728443790173,-0.008048143992954636,0.007075218738870632,0.9922541091660237
2011-05-05,1,0.0012919698592612,0.0013533037116548298,-0.004715451498607348,0.007075218738870632,0.9928167013748443
2011-05-09,1,0.00158646778601665,0.0016930692741298878,-0.008048143992954636,0.006439153128976387,0.9923227551508536
2011-05-11,1,0.00194039604964595,0.002116010275506851,-0.008913066259885147,0.006378539512855224,0.9922637009840658
2011-05-13,0,0.0,0.0,-0.009017997954266874,0.00405931370934199,0.9927451495052491
2011-05-17,0,0.0,0.0,-0.010994680141541967,0.0016556646956733066,0.9924514125200251
2011-05-19,1,4.409014227530557,4.50553312062004,-0.010994680141541967,0.0016556646956733066,0.18312029251542308
2011-05-23,1,0.0015906953766364948,0.0017471195309589533,-0.008335697247258349,0.004020216100039399,0.992621342117881
2011-05-25,0,0.0,0.0,-0.008335697247258349,0.004020216100039399,0.9928094057857301
2011-05-27,0,0.0,0.0,-0.009288826149208363,0.004020216100039399,0.9925026691443389
2011-06-01,1,0.0010059970731544315,0.001061291767897685,-0.007266513877227183,0.005621368074127815,0.9920559147366068
2011-06-03,1,0.0006772740238815027,0.0007020774933168512,-0.007266513877227183,0.005857936681216648,0.9920489651489832
2011-06-07,1,0.0002317789093581694,0.0003035880596717731,-0.007266513877227183,0.005857936681216648,0.9920793675554611
2011-06-09,1,1.23553852169191e-05,0.00010984169051935183,-0.007176552712653172,0.005857936681216648,0.9922713749126866
2011-06-13,-1,-0.000765528605687718,-0.0005691485378999129,-0.007176552712653172,0.005857936681216648,0.9920149424325164
2011-06-15,-1,-0.001571017221978843,-0.0012787148845115268,-0.0053256894951365236,0.005857936681216648,0.9927105684277443
2011-06-17,-1,-0.0010350504925015769,-0.0008494690056320492,-0.005553437964545851,0.0052333933487151586,0.9927581320962078
2011-06-21,-1,-0.0004656510495812098,-0.00036832618909240226,-0.005553437964545851,0.003593340530930452,0.9929213445535788
2011-06-23,-1,-0.0012189156681384568,-0.0009861390189955064,-0.0049159422174088864,0.0070057204452524295,0.9915482555986228
2011-06-27,-1,-0.0007779910353184708,-0.0006233263712738381,-0.004053154898001137,0.0061375577259772576,0.9920421842087133
2011-06-29,1,1.584775626869964e-05,6.45653592542683e-05,-0.0052714361626579045,0.0061375577259772576,0.9903005931384838
2011-07-01,1,0.00039835394688088517,0.0004348910150594092,-0.008768856629887205,0.005326600363635362,0.990063548750954
2011-07-06,-1,-0.00032794429413763237,-0.00025288642188670495,-0.0052714361626579045,0.005887263988063775,0.9903814509678661
2011-07-08,-1,-0.0004384390805881407,-0.000330123660403675,-0.012029183294829288,0.005303988851487941,0.9887269990688401
2011-07-12,-1,-0.0006802585154178067,-0.0005512758287928232,-0.012029183294829288,0.005887263988063775,0.9831106743400846
2011-07-14,0,-4.623338507789805e-06,9.662977415405451e-06,-0.014001684848795194,0.006458342840838768,0.9770716798062119
2011-07-18,-1,-0.0008943382620361536,-0.0007663855427441557,-0.01240223143502341,0.011794656036639218,0.9762973531154411
2011-07-20,-1,-0.001006000126247283,-0.0008510026220414156,-0.014179060376566271,0.013401530442628642,0.9754082540375691
2011-07-22,-1,-0.0004317639358290598,-0.0003263065533135164,-0.017956329888118707,0.006993967642835243,0.9739923010846907
2011-07-26,-1,-0.00032053593679455013,-0.0002358197764147513,-0.017956329888118707,0.013401530442628642,0.9727539485675694
2011-07-28,-1,-0.00014555666785633385,-6.082592925470414e-05,-0.018179380957067445,0.010031261463734956,0.9740022785414676
2011-08-01,-1,-0.00048005824880912007,-0.0003586815869904332,-0.018179380957067445,0.018157768598139702,0.9721212532314581
2011-08-03,-1,-0.0003323827702833116,-0.00021803342271361126,-0.018179380957067445,0.018157768598139702,0.971916396420539
2011-08-05,-1,-0.002333609947884857,-0.0019462653052175856,-0.018179380957067445,0.018157768598139702,0.9730621072384948
2011-08-09,-1,-0.0013675748333658213,-0.0011100173984965563,-0.01486094638669356,0.018157768598139702,0.9769429836444357
2011-08-11,-1,-0.0007985081149675179,-0.0006376139026210969,-0.01486094638669356,0.011695987716326545,0.9812104761561801
2011-08-15,-1,-0.001109740719044195,-0.0009015393330256038,-0.01486094638669356,0.010031261463734956,0.9824902423392963
2011-08-17,-1,-0.0011963161479921682,-0.0009883014038880233,-0.014449712396468199,0.008739001144102141,0.9830982901154717
2011-08-19,-1,-0.0023595042652282644,-0.0020509479286130046,-0.009307679951051601,0.011616674182238643,0.9849478393280905
2011-08-23,-1,-0.0010122899506345474,-0.0008743845234077083,-0.012128622073718412,0.010869002858699153,0.9836108785824506
2011-08-25,-1,-0.0011155510243805436,-0.0010090550305660495,-0.011787468508894106,0.009603180383762306,0.9842939862855908
2011-08-29,1,0.00030041110550705177,0.0003535603427486121,-0.011787468508894106,0.0069888443928975055,0.9850694587133623
2011-08-31,-1,-4.194082173814876e-06,-9.420905678895058e-07,-0.011787468508894106,0.009603180383762306,0.9840947618150644
2011-09-02,-1,-0.0008185710726687867,-0.0007392734664770555,-0.011787468508894106,0.009603180383762306,0.9839977942562409
2011-09-07,1,0.00022037005708128426,0.000259387211018355,-0.010516445984159618,0.009603180383762306,0.9849281255982388
2011-09-09,-1,-0.0014889494631359999,-0.001297363675159576,-0.010516445984159618,0.00987749324583936,0.9856059750137864
2011-09-13,-1,-0.001565621777562907,-0.0013535536377897324,-0.010516445984159618,0.01426079536854253,0.9840022700031891
2011-09-15,-1,-0.0010858026426808583,-0.0009555791285508974,-0.010516445984159618,0.01426079536854253,0.984232114312394
2011-09-19,-1,-0.0005601788724567674,-0.0005075825766283689,-0.01350078638987735,0.012258210976931291,0.9836922389199991
2011-09-21,-1,-0.0013317722077490408,-0.0012062107060846227,-0.010516445984159618,0.024698630856426294,0.9831851782724911
2011-09-23,-1,-0.001330214762659077,-0.0012204399747041761,-0.008265520992357799,0.026905611732413435,0.9807136852155245
2011-09-27,-1,-0.0010099702465455303,-0.000922251630015297,-0.012065021208005504,0.026905611732413435,0.9810722393723837
2011-09-29,-1,-0.0001786860360938982,-0.00015651352224778386,-0.009075580028905132,0.030068754539326222,0.9800135695223469
2011-10-03,-1,-0.001269950743760267,-0.0011720541642603606,-0.006141301696379572,0.030068754539326222,0.9809182697022403
2011-10-05,-1,-0.00011261640731293598,-7.653100165990465e-05,-0.00724322486005801,0.03125452865232902,0.9794296985396146
2011-10-07,-1,-0.0003342457638109453,-0.00029909570143530376,-0.007042574925660251,0.03125452865232902,0.9797166505449335
2011-10-11,1,0.0006477464569742413,0.0008135320546354965,-0.007042574925660251,0.030068754539326222,0.9815222418038161
2011-10-13,1,0.0003192686987037415,0.0004153411451130393,-0.009142753443100454,0.030068754539326222,0.9799795060295089
2011-10-17,0,-1.7780457307803776e-06,5.045640907915433e-05,-0.009142753443100454,0.030068754539326222,0.9803626724114003
2011-10-19,1,0.0018058236471344348,0.0021185072088414146,-0.01060721791829263,0.016543027422530165,0.9828967185559395
2011-10-21,1,0.0028096336349840174,0.0032375173938327543,-0.015457923872474074,0.011677121775064938,0.983980040857016
2011-10-25,1,0.0023431367679195014,0.002714445911305971,-0.015512457736509134,0.011677121775064938,0.9836395740717788
2011-10-27,1,0.0036573878947196645,0.004182063963578986,-0.019636180737390593,0.0059120983295099325,0.9847270086967764
2011-10-31,1,0.0029029041500999056,0.0033228407751537347,-0.019636180737390593,0.008102852131686395,0.9849707274694596
2011-11-02,1,0.002610139869351082,0.002963056095661987,-0.014704909303428387,0.008102852131686395,0.9853053750244124
2011-11-04,1,0.0022725519752715873,0.0025507957414363717,-0.014704909303428387,0.008102852131686395,0.9856702552858801
2011-11-08,1,0.0024363652087878614,0.0027336687182924913,-0.014704909303428387,0.011677121775064938,0.9851492412189646
2011-11-10,0,0.0,0.0,-0.014704909303428387,0.011677121775064938,0.9855918665191217
2011-11-14,0,0.0,0.0,-0.018377400905694657,0.01047878169702743,0.9852388036126569
2011-11-16,0,0.0,0.0,-0.014947161477108766,0.01047878169702743,0.9860329013992929
2011-11-18,0,0.0,0.0,-0.013491349857654584,0.006693172649007342,0.9873222683465946
2011-11-22,-1,-0.9893331016256737,-0.988552466462046,-0.008400784731615079,0.012678118097924837,0.5020928555377167
2011-11-25,1,0.00030492146651638405,0.00033612384411756726,-0.005476936335422221,0.012678118097924837,0.9870462123051363
2011-11-29,1,0.0007502269109504614,0.0008472568148860139,-0.007252664496128846,0.010541510858637772,0.9877377191291893
2011-12-01,0,0.0,0.0,-0.006468087474859037,0.010061671148874424,0.9901408809125845
2011-12-05,0,0.0,0.0,-0.007252664496128846,0.008942968343337968,0.9902649789045582
2011-12-07,1,0.00386239906815651,0.004169827634682264,-0.007252664496128846,0.00761120333601566,0.9904687200764509
2011-12-09,1,0.0013053516764102418,0.0014223751198796845,-0.006468087474859037,0.006619967911213227,0.9921910659810472
2011-12-13,0,0.0,0.0,-0.005385452944283924,0.006619967911213227,0.9924610025099175
2011-12-15,0,0.0,0.0,-0.005125263364722977,0.006619967911213227,0.9924102269630186
2011-12-19,0,0.0,0.0,0.00010004977119324452,0.00761120333601566,0.9921930846055306
2011-12-21,0,0.0,0.0,-0.005125263364722977,0.006619967911213227,0.9925786119038569
2011-12-23,0,0.0,0.0,-0.006978214322713957,0.0053631276282253655,0.9925465609879918
2011-12-28,0,0.0,0.0,-0.00716407595309976,0.0053631276282253655,0.9915379495137943
2011-12-30,1,0.000200692066938159,0.00027091555561107304,-0.007564415870431369,0.0053631276282253655,0.9915726605503709
2012-01-04,1,0.0009972194107029304,0.0010620814684626954,-0.00612272302290802,0.006837164841489289,0.9902814170403248
2012-01-06,1,0.0011742117024793278,0.001306724828700776,-0.007654961098817687,0.008366034030452893,0.9885168902068879
2012-01-10,1,0.0012768787124790364,0.0014112134716782426,-0.00853684297177826,0.009737193071976192,0.9877218853649389
2012-01-12,0,0.0,0.0,-0.007204351264483077,0.009737193071976192,0.9882835863978591
2012-01-17,0,0.0,0.0,-0.007204351264483077,0.011822112330689966,0.9878544510666747
2012-01-19,0,0.0,0.0,-0.008306509249814785,0.009683014359291597,0.9879184215305805
2012-01-23,0,0.0,0.0,-0.007204351264483077,0.008366034030452893,0.9891760920353556
2012-01-25,0,0.0,0.0,-0.007204351264483077,0.008017008445241319,0.9888892720071271
2012-01-27,0,0.0,0.0,-0.0067228185293022255,0.008017008445241319,0.990058337383391
2012-01-31,0,0.0,0.0,-0.007016779153622417,0.006102416928671909,0.9900811719539696
2012-02-02,1,0.00024456939177058807,0.0002780520303271149,-0.007016779153622417,0.006102416928671909,0.9916252758941569
2012-02-06,1,0.00025634926942985463,0.00028923956961097,-0.007016779153622417,0.005286520887316208,0.9926191305624273
2012-02-08,0,0.0,0.0,-0.0057219328245657255,0.004610457317981584,0.9937628892704391
2012-02-10,0,0.0,0.0,-0.0048010687516422765,0.004610457317981584,0.9938842274684855
2012-02-14,0,0.0,0.0,-0.0044289522725395655,0.005286520887316208,0.9936459599070643
2012-02-16,0,0.0,0.0,-0.0044289522725395655,0.005286520887316208,0.9935110358652264
2012-02-21,-1,-0.00037501016200137933,-0.0002704423746836976,-0.0044289522725395655,0.008159418519025038,0.9929303944049878
2012-02-23,0,0.0,0.0,-0.0044289522725395655,0.0057020467719987936,0.9933519653056104
2012-02-27,0,0.0,0.0,-0.004192414579269557,0.009608662049707627,0.9926855942906805
2012-02-29,0,0.0,0.0,-0.0019680135206938208,0.009608662049707627,0.9929005639675369
2012-03-02,-1,-0.0016997876742803812,-0.001217738309326436,-0.00340101000398455,0.0057020467719987936,0.9932502845687333
2012-03-06,0,0.0,0.0,-0.00340101000398455,0.009611815314489307,0.9930518112806526
2012-03-08,0,0.0,0.0,-0.00350016164977901,0.009611815314489307,0.9929131419099214
2012-03-12,0,0.0,0.0,-0.00926087043160134,0.009611815314489307,0.99204397899032
2012-03-14,0,0.0,0.0,-0.00926087043160134,0.008153846089247588,0.9920875881615848
2012-03-16,0,0.0,0.0,-0.00926087043160134,0.010242621547981652,0.9912503820448901
2012-03-20,0,0.0,0.0,-0.00926087043160134,0.007305206170499685,0.9916160615614574
2012-03-22,0,0.0,0.0,-0.008561671807129242,0.008838786069040693,0.9903569028769699
2012-03-26,0,0.0,0.0,-0.00926087043160134,0.008247640005151899,0.9903598433911015
2012-03-28,0,0.0,0.0,-0.008561671807129242,0.010524003295694582,0.9897881530532121
2012-03-30,0,0.0,0.0,-0.008561671807129242,0.010524003295694582,0.9893835513749987
2012-04-03,1,0.0014232757529336038,0.0015904562152555838,-0.00793736706769881,0.010049356306878662,0.9901230844758211
2012-04-05,1,0.0010166929175704333,0.0011106496863045178,-0.00793736706769881,0.010049356306878662,0.9899510658873925
2012-04-10,1,0.00034120565762906635,0.00034284151966529135,-0.007403581190137976,0.010049356306878662,0.9904708874417835
2012-04-12,1,0.0006188379838283272,0.0006208969210233306,-0.007403581190137976,0.009560557854912227,0.9906554013623167
2012-04-16,-1,-0.00024618411258191947,-0.00012681273026685433,-0.007403581190137976,0.009234388251996425,0.9914800019251161
2012-04-18,0,0.0,0.0,-0.007258721114944673,0.009234388251996425,0.9918442118875648
2012-04-20,0,0.0,0.0,-0.007907339692961755,0.005352555328485475,0.991698908709229
2012-04-24,0,0.0,0.0,-0.007403581190137976,0.005352555328485475,0.9921035089710072
2012-04-26,0,0.0,0.0,-0.007403581190137976,0.004232739967755219,0.9927421925188727
2012-04-30,0,0.0,0.0,-0.007258721114944673,0.004232739967755219,0.9931695175558407
2012-05-02,0,0.0,0.0,-0.007514682821005619,0.004232739967755219,0.9924597388124621
2012-05-04,1,0.002392675606205943,0.0024792284323846047,-0.008769946271556599,0.004232739967755219,0.9909071311584571
2012-05-08,-1,-0.0005780250894603505,-0.0004259204092680483,-0.00803001005578961,0.004912184940559349,0.9901996797408813
2012-05-10,1,4.533637991038298e-05,0.00017951563785157624,-0.006554584824036128,0.004730100289475721,0.9906541756152639
2012-05-14,-1,-0.0005409344416106666,-0.00031332137598824117,-0.00873222074129272,0.004912184940559349,0.9898525714753099
2012-05-16,1,0.00017441528568690128,0.00024626808930309097,-0.013714175576979772,0.0051633950167938245,0.9886791775279946
2012-05-18,-1,-0.0011085780607876274,-0.0009150421697398844,-0.003999266972805035,0.0051633950167938245,0.9902085135778259
2012-05-22,-1,-0.001036737555792676,-0.0008384066826469704,-0.003999266972805035,0.0051633950167938245,0.9902138695702793
2012-05-24,-1,-0.0006951890706263545,-0.0005376929719606645,-0.007930847158256944,0.006623321906180172,0.9891575549709511
2012-05-29,-1,-0.000778049295573399,-0.0006001233401105846,-0.014019928037938917,0.008177390196881323,0.9879538590188497
2012-05-31,-1,-0.001242557520872924,-0.0010185314335048943,-0.007930847158256944,0.008346053055203036,0.9883657518432566
2012-06-04,-1,-0.002166706234530661,-0.0018536152181543495,-0.002675612631638094,0.010508904605727547,0.9878861799850782
2012-06-06,-1,-0.0012297474965451021,-0.0010075200466138756,-0.007930847158256944,0.008346053055203036,0.9887681577123706
2012-06-08,0,0.0,0.0,-0.012313500620093685,0.008346053055203036,0.9885500215189046
2012-06-12,0,0.0,0.0,-0.01353739700117362,0.007549487659156999,0.9886544453482579
2012-06-14,0,0.0,0.0,-0.01353739700117362,0.008625196992554573,0.9884405622266607
2012-06-18,-1,-0.0007586579277488623,-0.000634090445034641,-0.01353739700117362,0.008625196992554573,0.9883765007948442
2012-06-20,-1,-0.001174949009966599,-0.0009440775489245407,-0.01353739700117362,0.007549487659156999,0.9885376914645222
2012-06-22,-1,-0.0014002790803222824,-0.0011488523018749837,-0.012797047609486002,0.006991045855923206,0.9891238849462389
2012-06-26,-1,-0.001023526752452911,-0.0008835198210757181,-0.012146897822479824,0.00704726680869711,0.9877286060794411
2012-06-28,-1,-0.00037103224431066136,-0.00031636874985865334,-0.012146897822479824,0.00934776041259588,0.9874293043602272
2012-07-02,1,0.0005862082474242762,0.0006656290683967534,-0.012146897822479824,0.00372891494994942,0.9885247317387983
2012-07-05,1,4.123343251656677e-05,4.3177896818260845e-05,-0.010727559259910995,0.0005925322660112712,0.989330066428697
2012-07-09,-1,-0.0001730185185317999,-0.00015792555770450218,-0.008755934341799932,0.005873289624837287,0.9894352356184164
2012-07-11,0,0.0,0.0,-0.0075812640713807675,0.005873289624837287,0.9904012804033021
2012-07-13,0,0.0,0.0,-0.0075812640713807675,0.0006127936781631696,0.9917778137589786
2012-07-17,0,0.0,0.0,-0.0067661025330035115,0.0006127936781631696,0.9920350784555795
2012-07-19,0,0.0,0.0,-0.005608040422847764,0.0019506955750697571,0.991942659377402
2012-07-23,0,0.0,0.0,-0.004289362041115971,0.005160372243127627,0.9925623321249687
2012-07-25,0,0.0,0.0,-0.0028384530473957036,0.0035897752914576153,0.9951732131831158
2012-07-27,0,0.0,0.0,-0.0028384530473957036,0.002573718684735362,0.9959197182760472
2012-07-31,0,0.0,0.0,-0.004134880074180871,0.002573718684735362,0.9957062885018784
2012-08-02,0,0.0,0.0,-0.0026201551029426317,0.002573718684735362,0.9961072783831473
2012-08-06,1,0.00023611889581321422,0.00029123801945847127,-0.0026201551029426317,0.002996051319573229,0.9961879964728598
2012-08-08,-1,-0.0003455125394522012,-0.0002870973501924096,-0.0026201551029426317,0.0035897752914576153,0.9958670371701001
2012-08-10,1,7.95616966351248e-05,0.00012605281269956954,-0.002595367091926428,0.0035897752914576153,0.9960289721511725
2012-08-14,-1,-0.0003325550757563712,-0.0002908993558538283,-0.0018278436127897339,0.004617467156503024,0.9957678750249208
2012-08-16,1,0.00036296807442606283,0.00045150879611699247,-0.0018278436127897339,0.004338617168437341,0.9955261722331402
2012-08-20,1,0.0004483310342921887,0.0005259938866789304,-0.002595367091926428,0.004312528866377858,0.9953647066452784
2012-08-22,1,0.00025561019048334034,0.0002967179675986998,-0.003201083076060179,0.004312528866377858,0.9949615800316189
2012-08-24,1,0.0003036249540229013,0.00035772277470707224,-0.0034690090673041908,0.004312528866377858,0.9948189123819391
2012-08-28,1,0.00019945185928613114,0.0002397173469092182,-0.0037393321639827767,0.004312528866377858,0.9945088283245733
2012-08-30,-1,-0.00040391448525755144,-0.00032809961384324624,-0.0037393321639827767,0.004696491677610578,0.9944664495625608
2012-09-04,1,0.0006130738698886047,0.0007132471696856671,-0.0037393321639827767,0.004696491677610578,0.9943697629525624
2012-09-06,1,0.00034142837587253347,0.0003861894318341081,-0.003722692758291077,0.004696491677610578,0.9945393329149719
2012-09-10,-1,-7.740725354744483e-05,-5.0458694387989325e-05,-0.001701035531841493,0.004696491677610578,0.9944401050597935
2012-09-12,1,0.0009262126637617466,0.0010924629008373897,-0.004652801156769102,0.003983519883230905,0.9947486480461478
2012-09-14,1,0.0015286439986588415,0.001785972792838124,-0.005574124936333941,0.003983519883230905,0.9949256454353138
2012-09-18,1,0.0019590141380894984,0.0023167085201359844,-0.004652801156769102,0.004512947581889946,0.9947050377498273
2012-09-20,1,0.0014711477023384666,0.001726215541451692,-0.001701035531841493,0.006721684872869737,0.9935107625293542
2012-09-24,1,0.0015057708513552862,0.0017871162534523382,-0.001701035531841493,0.006721684872869737,0.9929395348659671
2012-09-26,1,0.0009952662711441634,0.0011887287101740862,-0.0021647314242581846,0.006721684872869737,0.9926279872674914
2012-09-28,1,0.0011934773181505787,0.0014031086454933874,-0.006744368041283285,0.006721684872869737,0.9922874602085481
2012-10-02,1,0.001738476251547116,0.002015646637273381,-0.007951390285474367,0.005581478822548431,0.9923906903801879
2012-10-04,1,0.0019097432183735083,0.0021963443738129813,-0.008114488036815174,0.00535275446362853,0.9919071141807551
2012-10-08,1,0.0018562316178293487,0.0021282664383315626,-0.008392170279129425,0.006035511796110033,0.9906928082761713
2012-10-10,1,0.0009209598016065468,0.0009985432963901491,-0.008392170279129425,0.006035511796110033,0.991045872715756
2012-10-12,1,0.0007832635249521269,0.0008538451063435616,-0.008378895826534139,0.006035511796110033,0.9909926116132554
2012-10-16,1,0.0016425154430509915,0.0018484769616433161,-0.00878181447085861,0.004833472218464806,0.9910525549955145
2012-10-18,1,0.0026645508269248124,0.0030057970845988333,-0.00878181447085861,0.004833472218464806,0.9917198037604564
2012-10-22,1,0.0021816407196499884,0.0024327067201147497,-0.008378895826534139,0.0055679507521649955,0.9925433446700509
2012-10-24,1,0.0008413179078939646,0.0008538125452372599,-0.00878181447085861,0.006077132828546328,0.9922760910179045
2012-10-26,1,0.0013342899621641832,0.001484483587147127,-0.00878181447085861,0.007308573063596557,0.9922301283527406
2012-11-01,1,0.0009802493672256035,0.0010784590242731505,-0.007950277638021901,0.007565419988453157,0.9923044903133988
2012-11-05,1,0.0008063154432900233,0.0008647077085834575,-0.007237231892500105,0.007565419988453157,0.9929547910330252
2012-11-07,1,0.0007003295182217168,0.0007525239745101062,-0.0054463112041681794,0.007565419988453157,0.9936955246638688
2012-11-09,1,0.0006024712636798551,0.0006211744699466176,-0.0054463112041681794,0.007565419988453157,0.9934080190966399
2012-11-13,1,0.00011548563702596876,0.00014440421257246643,-0.0026139823286591164,0.008051477653696681,0.9929872196850691
2012-11-15,1,7.889941533596246e-05,0.0001206781096407522,-0.005052839226924711,0.007565419988453157,0.9929229389001032
2012-11-19,1,0.00024497484848891597,0.0002906956265063084,-0.005052839226924711,0.007445351453108463,0.9926482184641381
2012-11-21,1,0.0007636702549525269,0.00080811810614832,-0.005052839226924711,0.007988241676494754,0.9923929285309538
2012-11-26,1,0.0010420079068103642,0.0011550425966123615,-0.005052839226924711,0.007445351453108463,0.9925736591954427
2012-11-28,1,0.0008421657058965903,0.0008965592233025021,-0.004787038983884915,0.0060730006283650755,0.9929000004303571
2012-11-30,1,0.0006328284396646709,0.00063816731476904,-0.004941619278443794,0.006085487147870956,0.9926120382966384
2012-12-04,0,-0.0001062036296382985,2.4210669823380342e-05,-0.004941619278443794,0.008646861776027175,0.9913407110802214
2012-12-06,1,0.0010483639293409049,0.0011160676653587404,-0.006178384289985577,0.006085487147870956,0.9912736951630869
2012-12-10,1,0.0007006934773790572,0.00071036294953888,-0.00893773266240221,0.008050784687473165,0.9904261257957293
2012-12-12,1,0.00048126873263988444,0.0005146035203332479,-0.006178384289985577,0.008288581661104598,0.9903732531212526
2012-12-14,-1,-0.0004052328154070013,-0.00024635808815788406,-0.004414671985029364,0.008288581661104598,0.9909189181888617
2012-12-18,1,0.0009726198367931039,0.0010124654591199811,-0.005000965434187387,0.008050784687473165,0.9918251438325126
2012-12-20,1,0.001094273955463955,0.00117295005476484,-0.005000965434187387,0.008288581661104598,0.991519981198641
2012-12-24,1,0.00035156261070484946,0.00036303302847006937,-0.0029552900483876907,0.008288581661104598,0.9919027889140971
2012-12-27,-1,-9.067786110073645e-05,-1.6467822775379718e-06,-0.0032062898148504685,0.008288581661104598,0.9916906910848695
2012-12-31,1,0.0002740932746549471,0.0003156764164324262,-0.0032062898148504685,0.007879081302424092,0.9919421608865266
2013-01-03,1,0.001070430846260521,0.001122423885980814,-0.0032062898148504685,0.007879081302424092,0.9926092556152878
2013-01-07,1,0.0004452271677809655,0.0004929143328296972,-0.0032062898148504685,0.008288581661104598,0.9918387825250887
2013-01-09,1,9.795548969279585e-05,0.00021043197879282117,-0.0028482878965660993,0.00804162791867321,0.9927381205747109
2013-01-11,1,0.0010671348253595008,0.0010939169991590746,-0.0028482878965660993,0.005472008461626771,0.9934200243117407
2013-01-15,1,0.0013896389892700527,0.0014762733903094906,-0.0028482878965660993,0.005507772162938825,0.9934123100618062
2013-01-17,1,0.0012168113839902107,0.0012798157701994896,-0.002402466331105266,0.005507772162938825,0.9936420027570049
2013-01-22,1,0.0017909185476745887,0.0019212926240066526,-0.002984492364055743,0.004859150530441548,0.9937523481765044
2013-01-24,1,0.0016034116746299542,0.001703557310071845,-0.002984492364055743,0.004859150530441548,0.9940091593163813
2013-01-28,1,0.0010087865879601957,0.0010112351653986454,-0.002984492364055743,0.005468744515346101,0.9927853168514512
2013-01-30,1,0.001046521565823002,0.001077033129330055,-0.002984492364055743,0.006507556432172781,0.992924015857506
2013-02-01,1,0.0014827307662456661,0.0015816250921308348,-0.002984492364055743,0.005468744515346101,0.9937476994150815
2013-02-05,1,0.0015432375574747127,0.0016330008984756068,-0.002016803439776891,0.005468744515346101,0.9944405126650623
2013-02-07,1,0.0012854078884371744,0.0013490943406227684,-0.00123877823519702,0.005468744515346101,0.9945711317114742
2013-02-11,1,0.0017326795911091909,0.0018849157510285838,-0.00123877823519702,0.005468744515346101,0.9947418398739052
2013-02-13,1,0.0016498411486480856,0.001786479579933077,-0.0006055438248410998,0.006291289944648981,0.9946470732339939
2013-02-15,1,0.0014938508235168323,0.0015969057144468958,-0.0018856717441440391,0.006291289944648981,0.9939352605464954
2013-02-20,1,0.0009712723515634098,0.0009933828376472327,-0.0006055438248410998,0.006576983806587174,0.9941841697423484
2013-02-22,1,0.001051277689996947,0.0010559172642679064,-0.0018856717441440391,0.007194721868247629,0.9937267839929717
2013-02-26,1,0.0004909203890375279,0.0005420145483079387,-0.0012867141761561895,0.006566630006283524,0.9951111519379908
2013-02-28,1,0.0006803694648494756,0.0006824789724967148,-0.0006055438248410998,0.006553436192062905,0.9954446153022827
2013-03-04,1,0.0009373369792794115,0.0009800159955334138,-0.0012867141761561895,0.006553436192062905,0.9953616282174089
2013-03-06,1,0.0010188427073440035,0.0010812295946058697,-0.0022846382599719913,0.006553436192062905,0.9948781539578816
2013-03-08,1,0.000929563637149448,0.0009621950975500478,-0.0022846382599719913,0.00714478662528212,0.9944472068652578
2013-03-12,1,0.0011215194485463488,0.0011451135766327707,-0.0022846382599719913,0.006553436192062905,0.9945690216549278
2013-03-14,1,0.0017867466252823986,0.001942194068823839,-0.0022846382599719913,0.00714478662528212,0.9945953242165028
2013-03-18,1,0.0015735993852843307,0.001772108849720711,-0.0011823021647976205,0.007411296058249996,0.9932535919421047
2013-03-20,1,0.0016436357026711145,0.001831675720753863,-0.0038788489675741023,0.00714478662528212,0.9926188337085943
2013-03-22,1,0.0012585031376858172,0.0013569100095044437,-0.0022846382599719913,0.0073013844147544246,0.9929652924035816
2013-03-26,1,0.001130071916817864,0.001210901379786081,-0.003553859325545224,0.007902438704646662,0.9924718961791087
2013-03-28,1,0.0010705478139718368,0.0011144783865958741,-0.005397564694424137,0.007902438704646662,0.9923310985645593
2013-04-02,1,0.0008802531626726211,0.000897095936466637,-0.005397564694424137,0.007902438704646662,0.9924723801984809
2013-04-04,1,0.0007355488962334964,0.000743970344570038,-0.005397564694424137,0.006034191295689998,0.9929040125708779
2013-04-08,1,0.0011396323269184546,0.0011774574387612901,-0.005397564694424137,0.007902438704646662,0.9925550908014346
2013-04-10,1,0.0009235322726035225,0.000948922135366439,-0.005397564694424137,0.00830218117633226,0.9921635096223272
2013-04-12,1,0.0010501429730962913,0.001053109615560423,-0.005466282230942112,0.007916659884769021,0.9921894133986106
2013-04-16,1,0.0005642599080840077,0.0006027124639081547,-0.005134006784091061,0.007916659884769021,0.9937564949986148
2013-04-18,1,2.6256508798456113e-05,0.00011866689842407815,-0.002751576884544391,0.007916659884769021,0.9943105046127863
2013-04-22,1,0.00034935643326816683,0.00040671531171277054,-0.005134006784091061,0.007916659884769021,0.9941914062160411
2013-04-24,1,0.0002675982020726744,0.0003383681422198505,-0.005412773707864473,0.004930237068671985,0.9940197428851376
2013-04-26,0,-2.230088687236293e-05,8.415409260315444e-05,-0.005133580815365402,0.0075965124943803,0.9938130675700095
2013-04-30,1,1.0572255506462484e-06,0.0001013426000486948,-0.005133580815365402,0.0075965124943803,0.9935709411450283
2013-05-02,1,9.620745143333864e-05,0.00016140834565081706,-0.005023147424513147,0.008041363920014227,0.9934260577246088
2013-05-06,1,0.0007457521794651348,0.000752420021622998,-0.005133580815365402,0.003657740046464325,0.993581140595796
2013-05-08,1,0.0011755343149312313,0.001238590168353464,-0.005412773707864473,0.0009975250583438766,0.9929851847844674
2013-05-10,1,0.00045737220820067843,0.0005182779275141944,-0.005343630202620839,0.004800305865632766,0.9931160005802482
2013-05-14,1,0.0011745662722396854,0.0012241191085454435,-0.007208387664474045,0.002751583204098411,0.9924788766039941
2013-05-16,1,0.0008927132920538024,0.0009193081809882077,-0.009296399471219257,0.004800305865632766,0.9914578532071595
2013-05-20,0,-3.576017338673658e-05,8.027232688675187e-05,-0.009296399471219257,0.008082614190704804,0.9914525778229796
2013-05-22,-1,-0.0009358764421784684,-0.0006990332036336996,-0.011006558138222333,0.008082614190704804,0.9903786866477349
2013-05-24,-1,-0.0006464779539847831,-0.00043499446635525223,-0.011006558138222333,0.007889863398498119,0.990606028142846
2013-05-29,-1,-0.00053523717236633,-0.00037348631681056885,-0.011006558138222333,0.010040926155403484,0.9892433745730299
2013-05-31,-1,-0.0007411403102312833,-0.0005346390120032759,-0.011006558138222333,0.009926527361127715,0.9894829159055888
2013-06-04,-1,-0.0012318739607049805,-0.0009539205525893676,-0.009296399471219257,0.009926527361127715,0.989601891449513
2013-06-06,-1,-0.0005913847413225901,-0.00042948174674337097,-0.008816710725936618,0.009926527361127715,0.9900852076011404
2013-06-10,-1,-0.00015561173018618967,-5.0996534030546114e-05,-0.008816710725936618,0.010498125484903555,0.9895529845143065
2013-06-12,-1,-0.0011292654701216417,-0.0009047576262132374,-0.004838980844761767,0.010498125484903555,0.9897904736934742
2013-06-14,-1,-0.0006710780555441835,-0.000531523722957094,-0.003906640411531206,0.010498125484903555,0.9905167351199594
2013-06-18,1,4.6702294430476095e-05,9.832867883127511e-05,-0.004494369587608293,0.010496446924762919,0.9907778815899678
2013-06-20,-1,-0.0016321758463319065,-0.001368231003489602,-0.003906640411531206,0.010858627753177075,0.9915274662322748
2013-06-24,-1,-0.0019387563827869725,-0.0016274229213453627,-0.001695360251461876,0.010858627753177075,0.9899979392315491
2013-06-26,-1,-0.0005440481901312715,-0.0004214793644997444,-0.005445584837277937,0.010496446924762919,0.9912101241768458
2013-06-28,-1,-0.0001687764808893844,-9.823546267310844e-05,-0.005556241010508719,0.010170082052500298,0.991503174349063
2013-07-02,-1,-0.000676919388737187,-0.0005291321542958331,-0.005445584837277937,0.010170082052500298,0.9917679259135466
2013-07-05,1,0.00013444911289578964,0.00016282941102223323,-0.005445584837277937,0.010060479735855766,0.9917585234644677
2013-07-09,1,0.0008268786645288467,0.0008863633137658177,-0.006091354395058517,0.006706179933286976,0.9918757607623699
2013-07-11,1,0.0006744498398553355,0.0007073457105342584,-0.005556241010508719,0.006706179933286976,0.992274599823061
2013-07-15,1,0.0009714969684785509,0.0010272928481123132,-0.005556241010508719,0.002332044988213309,0.9927752634806666
2013-07-17,1,0.0012274678851795216,0.0013295313870663045,-0.005556241010508719,0.0030523892462462295,0.9932030254065305
2013-07-19,1,0.0009439068446700409,0.000974386703707234,-0.006750125336119265,0.0013612594673215331,0.993456556471666
2013-07-23,1,0.00033720823259020206,0.00038034508402805066,-0.006284828873681092,0.0013612594673215331,0.9945914896544308
2013-07-25,1,0.0002754619031713505,0.0003165498330299101,-0.005220720945692838,0.0013612594673215331,0.9948846775261334
2013-07-29,0,-5.1788603912501915e-05,1.6563615468403277e-05,-0.005638271888806624,0.0013612594673215331,0.9948438850310165
2013-07-31,-1,-0.00017468136256568105,-9.747545629502891e-05,-0.00753748170302245,0.0013612594673215331,0.9941512340209331
2013-08-02,1,0.00025834923842531373,0.0002638907714355231,-0.00753748170302245,0.0013612594673215331,0.994234514551874
2013-08-06,-1,-0.00018029381273155427,-0.00013812567791760515,-0.0058540049525251815,0.0024869303453953465,0.9950184093836159
2013-08-08,-1,-0.0006116215672190418,-0.0004941531811349287,-0.0058540049525251815,0.0024869303453953465,0.9953401336206088
2013-08-12,-1,-0.0004340738371778751,-0.00034916599808872877,-0.0058540049525251815,0.005748930092864157,0.9943611381477137
2013-08-14,-1,-0.000277576360182742,-0.00020758571409235758,-0.006468422869459166,0.005869741170072905,0.9929183345620831
2013-08-16,-1,-0.0007093351667483588,-0.0005882008847379401,-0.0058540049525251815,0.006512742361182209,0.992679925314295
2013-08-20,-1,-0.0004742799814260176,-0.0003957080427384655,-0.002765947383920596,0.007097889519287921,0.9922985308414309
2013-08-22,-1,-3.836858642154386e-05,-4.890309699433161e-06,-0.004273154522791097,0.007097889519287921,0.9923356196471813
2013-08-26,-1,-0.0004858012180579904,-0.00040507463353514465,-0.004273154522791097,0.007097889519287921,0.9922145173868028
2013-08-28,-1,-0.0008801321721539164,-0.0007732169502554597,-0.0013686384349361291,0.007097889519287921,0.9923734322215374
2013-08-30,-1,-0.0007811916852907654,-0.0006996805781731002,-0.0037166701992867816,0.007097889519287921,0.9923843795069217
2013-09-04,-1,-0.00032314351851628825,-0.00031432609415687644,-0.0037166701992867816,0.007097889519287921,0.9924926765554863
2013-09-06,-1,-0.0006537343790645137,-0.0005730657492109506,-0.004406146233753358,0.007097889519287921,0.9911859383520562
2013-09-10,-1,-0.0004062630006700605,-0.0003203829038826828,-0.006460420356982361,0.0065353789135057455,0.9914339520451197
2013-09-12,1,0.00010995251775864174,0.00011368906792982434,-0.004885160179624222,0.0065353789135057455,0.9920218549793635
2013-09-16,1,0.0005384080084363373,0.000589306277053832,-0.004885160179624222,0.0064056495161794015,0.9921171135130692
2013-09-18,1,0.001128623448926945,0.0012433540816436262,-0.006460420356982361,0.0064056495161794015,0.9917297497125013
2013-09-20,1,0.001166634048411131,0.0012943086788345837,-0.006460420356982361,0.0064056495161794015,0.9918838069251863
2013-09-24,1,0.0009821238255339861,0.0010727001014033343,-0.004885160179624222,0.0064056495161794015,0.99206553233993
2013-09-26,1,0.0011106685399817295,0.001267723983809918,-0.005188996032818731,0.005542748452850166,0.9917518361987084
2013-09-30,1,0.001029376233289776,0.0012044576110307066,-0.004861235527778054,0.005542748452850166,0.991864433208554
2013-10-02,1,0.001098753728227518,0.0012668047126738603,-0.004861235527778054,0.006059700976618144,0.9916820878076845
2013-10-04,1,0.0009395008611320559,0.0011101879756390872,-0.004861235527778054,0.005431698036027502,0.9923342790988563
2013-10-08,1,8.197025460973419e-05,0.00011688726643335354,-0.002066225442075297,0.0060784364453901184,0.9927507641746863
2013-10-10,1,0.00073624582668482,0.0008402934855970131,-0.003467918928657951,0.0060784364453901184,0.9934460940615067
2013-10-14,1,0.0008541964503493898,0.0009379430874059433,-0.003467918928657951,0.0060784364453901184,0.9935932562344338
2013-10-16,1,0.0013202273525338736,0.0014780102840928743,-0.003467918928657951,0.0060784364453901184,0.9936164269879761
2013-10-18,1,0.0013902664202329732,0.0015354460771385442,-0.003467918928657951,0.0060784364453901184,0.9936074164583785
2013-10-22,1,0.0014705050975567574,0.0016277398090370262,-0.003467918928657951,0.0060784364453901184,0.9936746699343247
2013-10-24,1,0.0010266218249653468,0.0011130931789373306,-0.003467918928657951,0.007109565390880621,0.9923812180083293
2013-10-28,1,0.0008713893182840455,0.0009435304236726412,-0.0018510274959430586,0.009084009654974183,0.9923224182497538
2013-10-30,1,0.0011069876686232093,0.0012250770977097994,-0.0016342470781757995,0.009084009654974183,0.9925694027282346
2013-11-01,1,0.000599553759236348,0.0006040335966853547,-0.0029484052333183714,0.009084009654974183,0.992213637450173
2013-11-05,1,0.0007951224156329281,0.0008278910665479937,-0.0036481297363894676,0.009084009654974183,0.9921566853970566
2013-11-07,1,0.001177988972455888,0.0012978267977650408,-0.0036481297363894676,0.009084009654974183,0.9916474576193808
2013-11-11,1,0.00074217079371966,0.0007572064144714265,-0.0036481297363894676,0.006181355121927138,0.991625650743056
2013-11-13,1,0.0003085540129608036,0.00038123461665704074,-0.0036481297363894676,0.0043430036343619855,0.9923493736719324
2013-11-15,1,0.0011009119926092864,0.0011746842941351878,-0.0036481297363894676,0.0013047814957017638,0.9924884288326964
2013-11-19,1,0.0010600334281846717,0.0011375565161361992,-0.003881607860703876,0.0024623838766710893,0.9918838443310545
2013-11-21,1,0.0018469249336787526,0.0020089213094075763,-0.0036481297363894676,0.0036902063772226096,0.993385466877889
2013-11-25,1,0.0020926050831393374,0.00230973408289613,-0.0036481297363894676,0.0036902063772226096,0.9936762754621993
2013-11-27,1,0.002492142384754718,0.002798492193767062,-0.0036481297363894676,0.003782567931391918,0.9934313073835918
2013-12-02,1,0.002019100749533241,0.0022529957710623575,-0.0034465655493913137,0.005632324466313622,0.9941953484903979
2013-12-04,1,0.0019690793082350637,0.0022227559626307484,-0.003435997147117079,0.005632324466313622,0.9935699183647555
2013-12-06,1,0.0022767413772212296,0.0025791291315220323,-0.0034462440780299425,0.003782567931391918,0.9941336155405438
2013-12-10,1,0.0020692861541110937,0.0023498370810412176,-0.003595830822619962,0.003782567931391918,0.9938298767762178
2013-12-12,1,0.0012387856185139086,0.0013712680161374544,-0.003595830822619962,0.003782567931391918,0.9937655326592187
2013-12-16,1,0.0010088259670412013,0.0011118619549314486,-0.003595830822619962,0.005632324466313622,0.9936503792409118
2013-12-18,1,0.0011653208301190758,0.0012675593347268325,-0.004348152172309451,0.003782567931391918,0.9938989412189932
2013-12-20,1,0.0012185705568316808,0.0013176177433444044,-0.00716060623860032,0.003012449795270015,0.9936482437955829
2013-12-24,1,0.0015213659151699708,0.0016664021109254832,-0.009175333074654256,0.00021959531161287835,0.9916949327243856
2013-12-27,1,0.0012581899701988885,0.0013275775849677942,-0.009175333074654256,0.002934591462692224,0.9910146689387744
2013-12-31,1,0.0013460443742528375,0.001419464975302636,-0.009175333074654256,-0.00024245942770634472,0.9904167830763337
2014-01-03,1,0.0006081073225869408,0.0006264443903745703,-0.012499542511242835,-0.00024245942770634472,0.990444967657234
2014-01-07,1,0.0002673861822006879,0.0003177326891261503,-0.012499542511242835,0.0033302696422002963,0.9909017685765683
2014-01-09,-1,-0.0003844834114811309,-0.00023228690913002788,-0.008863084645799069,0.005324145173257108,0.9910347615786486
2014-01-13,-1,-0.0011744245216996727,-0.0009303393778398495,-0.00716060623860032,0.008368038308327747,0.9907903241505353
2014-01-15,-1,-0.0005483885194886954,-0.00039811664227404917,-0.008479095851046645,0.005741235122285852,0.9906089407730717
2014-01-17,-1,-0.001134736168268608,-0.0008941666314086478,-0.008479095851046645,0.008807088454391583,0.9902264812646984
2014-01-22,-1,-0.0019285507223017798,-0.001565742137401935,-0.008920036069436886,0.008807088454391583,0.9900612385271116
2014-01-24,-1,-0.0033180178148195464,-0.0027870740322022544,-0.00451426545171303,0.008807088454391583,0.99099921754452
2014-01-28,-1,-0.0023114004295075787,-0.0019014687970735089,-0.0047684491297154885,0.004672365162452437,0.9926698673635951
2014-01-30,-1,-0.002196645746463753,-0.0017999941312807203,-0.00420039324744556,0.005506786389232125,0.9924367829152786
2014-02-03,-1,-0.0025687014975156147,-0.0021677169970398245,-0.003043603809800522,0.00730922872944682,0.992139550983985
2014-02-05,-1,-0.002046756696134293,-0.001719856124767703,-0.003043603809800522,0.00730922872944682,0.9923002926196226
2014-02-07,-1,-0.001459667660407782,-0.0012190951169967256,-0.0039326724026639,0.005506786389232125,0.9931237651134328
2014-02-11,-1,-0.0003531258912765708,-0.0002773103439782423,-0.00420039324744556,0.0050263107308441005,0.9942130109105445
2014-02-13,-1,-0.0005638633672725619,-0.0004619301630090775,-0.0039326724026639,0.0050263107308441005,0.9947807607328217
2014-02-18,-1,-0.0003381198769239332,-0.00026030844124289585,-0.0039326724026639,0.004443237090766394,0.9947935507927347
2014-02-20,-1,-0.0005194190373558885,-0.00042124117345268525,-0.0039326724026639,0.004443237090766394,0.9945751089350499
2014-02-24,-1,-0.0008582260382894698,-0.0007061122262288467,-0.002982606159095798,0.005480010004460963,0.994399373848533
2014-02-26,-1,-0.0009053611234536401,-0.0007566033607345278,-0.002403560718896865,0.005480010004460963,0.9939008723070337
2014-02-28,-1,-0.00038884260901039103,-0.00029402363316732383,-0.002403560718896865,0.003368551225761845,0.9948121953707009
2014-03-04,-1,-0.0010265499440267759,-0.000822373952762381,-0.0012463288541510096,0.003368551225761845,0.9952627587735006
2014-03-06,-1,-0.00041181945930470046,-0.00031773281588593486,-0.0020916829357957153,0.0026021252513704126,0.9956108781230373
2014-03-10,-1,-0.00038102692938653477,-0.0003032818198425389,-0.003144008960865046,0.0026021252513704126,0.9951647492218965
2014-03-12,-1,-0.00014205114979516444,-0.00010884806670796809,-0.0020916829357957153,0.003368551225761845,0.9947268954203854
2014-03-14,-1,-6.455988974498448e-05,-4.882873403016127e-05,-0.003304902360562625,0.0050146369126340875,0.9942563563675281
2014-03-18,1,0.00023766199507866217,0.0002583003406548811,-0.003304902360562625,0.0038129699611122512,0.9946330435382472
2014-03-20,0,-2.194090368510919e-06,1.900378161985318e-05,-0.0030285949784646733,0.0063478931186853075,0.9943923417340425
2014-03-24,-1,-0.00015821774196040554,-0.00010544609632534075,-0.0030285949784646733,0.0038129699611122512,0.9947256907197247
2014-03-26,-1,-0.0002099336815282443,-0.00015651334382223826,-0.0016219975103083115,0.006098810776502187,0.994917536812348
2014-03-28,-1,-0.0004229693418545814,-0.0003440259805417235,-0.0030285949784646733,0.006098810776502187,0.9947830680491176
2014-04-01,1,1.6088545300382173e-06,2.2600547381965106e-05,-0.003034324389037722,0.006098810776502187,0.9947417459573494
2014-04-03,-1,-4.555721585818263e-05,-2.2214020712354386e-05,-0.003332737408821631,0.006098810776502187,0.9947742049914906
2014-04-07,-1,-0.0002974089825716196,-0.00026026211544258386,-0.002731273840246611,0.006098810776502187,0.9951934749165868
2014-04-09,1,0.0002625119234231176,0.00028580291506953006,-0.0030550432868517658,0.006098810776502187,0.9949031894621395
2014-04-11,1,0.00032247467657815125,0.0003691521908065728,-0.002731273840246611,0.005473311387926656,0.9951708356896197
2014-04-15,1,0.0005003605534805728,0.0005657431908060073,-0.0030550432868517658,0.004818109124387883,0.9949701085940456
2014-04-17,1,0.0012862980833800977,0.0015254927145061422,-0.0030550432868517658,0.004431428936833378,0.9956095456412503
2014-04-22,1,0.0009123733736837885,0.0010757607164095804,-0.0030550432868517658,0.004431428936833378,0.9954568775744757
2014-04-24,1,0.001283623708344317,0.001508077960027728,-0.0030550432868517658,0.004023887649978152,0.9955968183296114
2014-04-28,1,0.0007947621545843666,0.0009306430077816084,-0.002731273840246611,0.00413695139391231,0.995800139538871
2014-04-30,1,0.0011357602628907324,0.0013134593618380045,-0.002789343220311185,0.00413695139391231,0.9961494302569588
2014-05-02,1,0.0010679078176497945,0.0012536574281463938,-0.002135491568381208,0.00413695139391231,0.9962358713127866
2014-05-06,1,0.0008851190357764887,0.0010299172740802023,-0.002135491568381208,0.0043709129762212395,0.9954558131343726
2014-05-08,1,0.000665733208916646,0.0007596374105134593,-0.001715437880056592,0.00413695139391231,0.9962458036994059
2014-05-12,1,0.0008575840818291997,0.0009724062844888793,-0.001715437880056592,0.004023887649978152,0.996557971192937
2014-05-14,1,0.0010253614199236382,0.0011911544087592246,-0.002135491568381208,0.003942672981937956,0.9964817703649756
2014-05-16,1,0.0010501855535834958,0.001219905220067328,-0.0021078578082615596,0.003942672981937956,0.9965610632754988
2014-05-20,1,0.0010784959021359125,0.0012602688176720346,-0.0018790498217225655,0.00396496326930669,0.996412179018026
2014-05-22,1,0.0010964773367964425,0.0012824788653081217,-0.0026263273933791282,0.004011156151134645,0.9963114539577351
2014-05-27,1,0.0013984575152552635,0.0016394432820768692,-0.0027203019562332263,0.0035657312231990885,0.9961307535524605
2014-05-29,1,0.001288684450159983,0.0014866245807785999,-0.003144788573090091,0.0033818079956102042,0.9958566334782765
2014-06-02,1,0.0009685692885664167,0.0011066125477853888,-0.003144788573090091,0.0033818079956102042,0.9959004794940294
2014-06-04,1,0.0012250075138465321,0.00138779799678035,-0.0030193434382635304,0.0033818079956102042,0.9961064036755501
2014-06-06,1,0.0008159768247057292,0.0008914129326799837,-0.0030193434382635304,0.0031104068893271423,0.9960942882772726
2014-06-10,1,0.0009341070040838266,0.0010398434770913399,-0.003942253476724627,0.0031104068893271423,0.9956833197414188
2014-06-12,1,0.00047899314789754863,0.0005121441117098336,-0.0030193434382635304,0.0033074399427612667,0.99602071794439
2014-06-16,1,0.00034122618060672063,0.0003441668170839898,-0.0030193434382635304,0.0033074399427612667,0.9960001367789778
2014-06-18,1,5.5343666964550255e-05,0.00011439583122097025,-0.004008076185233456,0.003012179998823634,0.9956933679184703
2014-06-20,1,0.0002612417855534846,0.0002616380466414763,-0.00433984228699384,0.003012179998823634,0.9954251913797753
2014-06-24,1,0.00021777607186902463,0.00022898401600877254,-0.004008076185233456,0.003105553391872612,0.9950403986999562
2014-06-26,-1,-0.00041809352043495015,-0.00029274206598776595,-0.004008076185233456,0.003283580098307223,0.9947597604146673
2014-06-30,-1,-0.00023647588049446633,-0.0001400394303609764,-0.00433984228699384,0.003283580098307223,0.994573476262221
2014-07-02,0,-5.2241364064198646e-05,1.363449402746439e-05,-0.006355913008622443,0.003105553391872612,0.9940232039545864
2014-07-07,1,0.0005937194868136863,0.0006337799379051768,-0.006355913008622443,0.002343142909072401,0.9941559946011891
2014-07-09,1,0.00023922376500712695,0.00025984699219949844,-0.0049113577576619305,0.0021891621100864752,0.9945068086572616
2014-07-11,1,0.0003521135282988177,0.00035413784321251823,-0.0049113577576619305,0.0021891621100864752,0.9945848207939134
2014-07-15,1,0.00022870964374688206,0.00024768069438114824,-0.0049113577576619305,0.0022635291561359395,0.9943545721936546
2014-07-17,-1,-0.00040646703240752717,-0.00029969733654351075,-0.0033005693250876896,0.004438185246555763,0.9943598619604512
2014-07-21,-1,-0.0003491363642457115,-0.000238720436370699,-0.002028351812548975,0.00426545617906262,0.9944842349392256
2014-07-23,1,0.00018905364552862665,0.0002114140482352138,-0.0016331180098976147,0.0033635546577653213,0.9951105216049297
2014-07-25,-1,-0.00041362809577901523,-0.0002984120494648964,-0.0016331180098976147,0.00426545617906262,0.9951371383883575
2014-07-29,-1,-0.0005556592107212673,-0.00043578275431758166,-0.0011979048974134273,0.005437744484956961,0.9949885265200138
2014-07-31,-1,-0.0014387739620536325,-0.0012071454518543915,0.000870363276956563,0.005437744484956961,0.9954018553532208
2014-08-04,-1,-0.0010456925677669007,-0.0008433995816582589,0.0013534241344865614,0.005437744484956961,0.9954194864865058
2014-08-06,-1,-0.0013738161838239323,-0.001148083116331794,0.000870363276956563,0.005437744484956961,0.9951520880990394
2014-08-08,-1,-0.0007393734182402482,-0.0005923699516973114,0.000870363276956563,0.005437744484956961,0.9955154988103366
2014-08-12,-1,-0.0007896240698894762,-0.00064514287077998,0.00016753192002601366,0.00366306436946358,0.9956705933738579
2014-08-14,0,-6.101665074226704e-05,6.165672087186393e-06,-0.0020688356131065675,0.00269359156942975,0.9966231475518723
2014-08-18,-1,-0.00043064259828986813,-0.0002841969532255617,-0.0020688356131065675,0.00269359156942975,0.9964959501884363
2014-08-20,-1,-0.0003687345241329708,-0.0002342881564622682,-0.0020688356131065675,0.0029234017207574576,0.9958963867449264
2014-08-22,0,-4.811880894527832e-05,2.915243845006435e-05,-0.0028742144818230536,0.00269359156942975,0.9963263136880951
2014-08-26,1,0.0002043298472496403,0.00025695711729480217,-0.00357143649844739,0.002646681276207453,0.9956495139578085
2014-08-28,0,-4.961248498845265e-05,6.269380313308706e-05,-0.004027779431114979,0.0026892714063674827,0.9952261252349021
2014-09-02,1,0.00043895872453205147,0.0004639473713282038,-0.00527460127578547,0.002364872595719985,0.9948932971860286
2014-09-04,1,4.11304716321876e-05,0.00011274648923363325,-0.005396081900680006,0.0027422240320872236,0.9944581399451883
2014-09-08,1,0.00030797417708085224,0.0003356370036094028,-0.005396081900680006,0.00411014552342292,0.9935936838264986
2014-09-10,1,0.0002680150324491048,0.00029003050912418637,-0.006227459411143947,0.007456283890616713,0.9927284245766619
2014-09-12,-1,-8.905218926012106e-05,-2.7835764642307324e-05,-0.009448887042664009,0.007456283890616713,0.9922823831830159
2014-09-16,1,0.0004954617341914766,0.0005265185351639025,-0.010028150599452276,0.008346366433752821,0.9913832594443446
2014-09-18,1,0.0008349815857961956,0.000892252026442291,-0.010113011738025542,0.004225364708714361,0.9912211043134715
2014-09-22,1,0.0006688101438864131,0.0007227054980937403,-0.010113011738025542,0.008346366433752821,0.9907466841314079
2014-09-24,1,0.0005875283979783506,0.0006221782111571746,-0.010028150599452276,0.008346366433752821,0.9907045935703169
2014-09-26,1,0.00023001175452169606,0.00024660309115125215,-0.009448887042664009,0.011042605757954526,0.9905114581353303
2014-09-30,-1,-0.00012565354297027585,-7.029371606510893e-05,-0.008548096689566919,0.012468047477474611,0.9900461657847766
2014-10-02,-1,-3.259659969031043e-05,-4.988625780662546e-06,-0.006623384755529443,0.012468047477474611,0.9903370469269981
2014-10-06,1,0.0004814825788285132,0.0005106798170096917,-0.006623384755529443,0.010454788635378206,0.9909197527825342
2014-10-08,1,0.0006074863113882465,0.0006455675591383425,-0.004967053284375808,0.008905757860993853,0.9914730022638715
2014-10-10,-1,-9.848156169506541e-05,-5.333251797119028e-05,-0.004261518499263758,0.008905757860993853,0.9921053239733061
2014-10-14,-1,-0.0003126504980649102,-0.0002474425056596101,-0.004216445654787128,0.008169139898093172,0.9928118515814944
2014-10-16,-1,-0.0007713357986092025,-0.000660549993313506,-0.002728177329047985,0.008169139898093172,0.9931652995521141
2014-10-20,1,0.00017364229699338022,0.00017698869979508852,-0.002728177329047985,0.0072736252085858,0.9941529855310864
2014-10-22,1,0.00042006093489752126,0.0004545617600492753,-0.0013754229673778018,0.0072736252085858,0.9948943067752068
2014-10-24,1,0.0008944251097566149,0.0010047016115532735,-0.001069560764468553,0.006492168954606521,0.995750094859105
2014-10-28,1,0.0017573821306534395,0.001996981575947139,-0.001069560764468553,0.005662498130049593,0.9964165512030615
2014-10-30,1,0.0016996532129961077,0.0019312158823795568,-0.00046958237482288667,0.005104850440619777,0.996822043250961
2014-11-03,1,0.0013577580675912908,0.0015143469017489183,0.00047404075158323,0.005104850440619777,0.9969451323357411
2014-11-05,1,0.001867733193994631,0.0020861848021651577,0.00047404075158323,0.004651702566675755,0.9973087078490503
2014-11-07,1,0.0021127577818290423,0.002387473779318503,-0.00033249593778241523,0.005047557376670991,0.9967602577782911
2014-11-11,1,0.0020874326451671404,0.002361045059742854,-0.0006537277873610917,0.004651702566675755,0.995918843154065
2014-11-13,1,0.0017545917374322088,0.0019697841805683654,-0.00033249593778241523,0.004651702566675755,0.9953799387468996
2014-11-17,1,0.0016445356135407103,0.0018199554270542846,-0.0027252650149688466,0.004329219814139616,0.9942896457237005
2014-11-19,1,0.002037923872586696,0.0022674921107544415,-0.0027252650149688466,0.004998512970327357,0.9932706603737864
2014-11-21,1,0.002152628763692763,0.0024092427105827244,-0.0023140057038474326,0.005706823258566373,0.9932890063663155
2014-11-25,1,0.002560866402248108,0.0028848979274740155,-0.0030882167136987992,0.005706823258566373,0.9931675588116864
2014-11-28,1,0.002630787993399207,0.0029486005360576857,-0.0030882167136987992,0.005706823258566373,0.9931389103522235
2014-12-02,1,0.002725305690534188,0.003049576185176404,-0.00834289226443783,0.005706823258566373,0.992337395467684
2014-12-04,1,0.0030749723456052467,0.003451977405694286,-0.010678686468466356,0.003072952567373284,0.9910769435537846
2014-12-08,1,0.0030422291820074382,0.0033710989592060613,-0.010678686468466356,0.003072952567373284,0.9906189336540344
2014-12-10,1,0.002085974721625785,0.002291201238520888,-0.009584613567320087,0.006070561273366843,0.9909434976800896
2014-12-12,1,0.00161840722003335,0.0017758761060456625,-0.009584613567320087,0.006070561273366843,0.9912107875397931
2014-12-16,1,0.00045869426241850673,0.0004651806373591052,-0.009584613567320087,0.006070561273366843,0.991296227193548
2014-12-18,1,0.001330989840864868,0.0014183679233421148,-0.011579327729322787,0.003072952567373284,0.9914480802025087
2014-12-22,1,0.0009887316354291807,0.0009984791049404912,-0.011579327729322787,0.0035637456918602302,0.9904380657033421
2014-12-24,1,0.0010241288261573073,0.0010337254246138015,-0.011579327729322787,0.0017228310285272179,0.9905466967938468
2014-12-29,1,0.0009772936902032981,0.0009945554685570125,-0.012606217138494797,0.0008547002685851772,0.9889795854019259
2014-12-31,1,0.0003788672612969577,0.0004697191771975919,-0.014172337120618928,0.0030368119279260584,0.9886449320058082
2015-01-05,-1,-0.0002640113313339543,-0.00011059606673810747,-0.012606217138494797,0.012940921116176642,0.9884030653904825
2015-01-07,1,0.00021421463222777326,0.00028174722223785415,-0.012606217138494797,0.012693271470106323,0.9885858118728945
2015-01-09,1,0.00036520938397588464,0.000405203123516769,-0.011611683232529937,0.00882144832624055,0.9895284843618164
2015-01-13,0,-6.369654674700484e-05,2.508491358411467e-05,-0.008909749531044692,0.00882144832624055,0.9898329838574241
2015-01-15,-1,-0.000784539043381681,-0.0006157469436228565,-0.005652030103560804,0.00882144832624055,0.9905037841027473
2015-01-20,-1,-0.00046319360815747114,-0.0003437073581378419,-0.0026858252433732727,0.007597108652250895,0.9915032446338028
2015-01-22,1,0.0005144415289561738,0.0005154079393546458,-0.0026858252433732727,0.006663525858972154,0.9925681098052688
2015-01-26,1,0.0003793628559061928,0.0003885498745869631,-0.003489023024990318,0.007597108652250895,0.9920110538460964
2015-01-28,-1,-0.0009523235013525949,-0.0007741952147971081,-0.0019500997771379532,0.007597108652250895,0.9929852379105777
2015-01-30,-1,-0.0013660608276873866,-0.0011426916609004753,-0.0019500997771379532,0.006666909181982923,0.9937508940270577
2015-02-03,-1,-0.0005042765240230603,-0.00037366007032293665,-0.003014274382996265,0.005192232678078961,0.9946602361310126
2015-02-05,0,-8.13916089867027e-05,1.5539198824689475e-05,-0.005218258484999776,0.004883932339463944,0.9948265505269221
2015-02-09,-1,-0.00030993803454614215,-0.00020089927323765124,-0.005218258484999776,0.005128436757513701,0.993734858781874
2015-02-11,1,6.889240303464952e-05,0.00011185022327199217,-0.005218258484999776,0.005541888872125616,0.9930029668658317
2015-02-13,1,3.9004143062125414e-05,9.854276819722262e-05,-0.007083749544997161,0.006733723588094022,0.9918481339583894
2015-02-18,1,0.00015344328311346774,0.00020161261630209727,-0.007083749544997161,0.006733723588094022,0.9914344501286319
2015-02-20,1,0.0001603008167323456,0.00022233881880313623,-0.008264783032111717,0.006733723588094022,0.9912275248206583
2015-02-24,0,-0.00010859432135990814,2.2095899215297896e-06,-0.008653839419804302,0.005541888872125616,0.9915760333993553
2015-02-26,-1,-0.0001781642032714432,-5.248311681195001e-05,-0.008653839419804302,0.005541888872125616,0.9914781365731603
2015-03-02,0,-8.185296263357646e-05,8.683910872645754e-06,-0.008653839419804302,0.006733723588094022,0.9911905803604959
2015-03-04,-1,-0.0005562119184833186,-0.00041860514170302855,-0.0071810073713040904,0.006733723588094022,0.9915298821830069
2015-03-06,-1,-0.0011343537225353179,-0.0009004884916419679,-0.006503562033491107,0.006733723588094022,0.992249560549873
2015-03-10,-1,-0.0019012021062719694,-0.0015636955399624306,-0.005814660136914487,0.0030310628534252425,0.9937246534616955
2015-03-12,-1,-0.0014467920269776683,-0.001141412440590214,-0.005814660136914487,0.0014125226626615693,0.9946110690104085
2015-03-16,-1,-0.0007465900648412143,-0.0005525955788761806,-0.004767037859354671,0.0009198320511441549,0.9958777036676634
2015-03-18,-1,-0.00045744068735724803,-0.0003083903242950463,-0.0035479290338727818,0.0009198320511441549,0.9964984039256375
2015-03-20,-1,-0.0006606476244534451,-0.0005035966119944121,-0.0035479290338727818,0.0014125226626615693,0.9955024736558447
2015-03-24,-1,-0.0006844884216791573,-0.0005514682035429588,-0.004967668262510935,0.0014125226626615693,0.9945857087800191
2015-03-26,-1,-0.0010298797671736818,-0.0008548202889204559,-0.0035479290338727818,0.0024620522503842565,0.9945628468568233
2015-03-30,-1,-0.0008209591928537954,-0.0006668124811171022,-0.00481502077337078,0.0024620522503842565,0.9946673751269214
2015-04-01,-1,-0.0008947683766808153,-0.0007549046177613947,-0.006009494043840644,0.0024620522503842565,0.9943676882074666
2015-04-06,-1,-0.0007758085270858121,-0.0006537404393740672,-0.006009494043840644,0.004246403292537926,0.9942029993463812
2015-04-08,-1,-0.0007466416849015198,-0.000630881509365922,-0.006009494043840644,0.004246403292537926,0.9941242365908108
2015-04-10,-1,-0.000641076935369468,-0.0005319325381961688,-0.006009494043840644,0.004847570509450571,0.9935680627531287
2015-04-14,-1,-0.0005659979977968944,-0.0004720857822390997,-0.0073947317285512175,0.004847570509450571,0.9928866871470778
2015-04-16,-1,-0.0002499368830546448,-0.00020851385350018734,-0.0073947317285512175,0.006193287938930672,0.9923259636602046
2015-04-20,-1,-0.000526888234719073,-0.00045677758364816735,-0.006009494043840644,0.00558697954439632,0.9933325255405292
2015-04-22,-1,-0.0012660920803097045,-0.0011236967143272943,-0.004188026438552686,0.00558697954439632,0.9945116139885731
2015-04-24,-1,-0.0009052178713690574,-0.0008166569855566249,-0.004188026438552686,0.00558697954439632,0.9947807488895493
2015-04-28,-1,-0.0006734757457766342,-0.0006217553603885138,-0.004188026438552686,0.005367394646027562,0.9943115521094402
2015-04-30,-1,-0.0009257415900377538,-0.0008608280897956105,-0.0035260074434378666,0.005367394646027562,0.9944509889209966
2015-05-04,-1,-0.000506533084397178,-0.0005006424005111373,-0.0035260074434378666,0.0029414356892898718,0.9947523469371742
2015-05-06,-1,-0.0009988343112141292,-0.0009144064408596338,-0.004188026438552686,0.0049304187538533545,0.9942056231992383
2015-05-08,-1,-0.0006503545359171383,-0.0005882986334837493,-0.010064652339537097,0.0019151077280638944,0.9940267851129003
2015-05-12,-1,-0.0015372837756889865,-0.0013387921389123505,-0.005541724370408272,0.0028055501089565915,0.9937987991624285
2015-05-14,-1,-0.00041230365365357857,-0.0003954494970045711,-0.006111598460851848,0.0028055501089565915,0.9939253011207657
2015-05-18,-1,-0.00021718783425229402,-0.00019753390450777655,-0.006111598460851848,0.0028055501089565915,0.9939747204239704
2015-05-20,1,3.874915177939003e-06,6.480012989918427e-05,-0.006111598460851848,0.0049304187538533545,0.9935194865061939
2015-05-22,0,-2.300971729974374e-06,6.578928860040257e-05,-0.010064652339537097,0.0049304187538533545,0.9929187689100696
2015-05-27,-1,-0.00046482336800169287,-0.0004532910027192385,-0.010064652339537097,0.0031773839949099016,0.9932835630266363
2015-05-29,-1,-0.001029156200330119,-0.0009249250027995972,-0.010178292255869142,0.0053477276677389,0.9923316005084879
2015-06-02,-1,-0.0008951012572547189,-0.0008153362711792113,-0.010781917095592662,0.0053477276677389,0.9914664301356767
2015-06-04,1,3.1861219220214896e-05,4.1616774891410155e-05,-0.010781917095592662,0.007990159973293508,0.9912971640383174
2015-06-08,1,0.0002680058418927967,0.00030591255774089035,-0.004167043242517607,0.008259677070553547,0.9918287720577774
2015-06-10,-1,-0.001631755504048558,-0.001429068932307361,-0.0063810886825653975,0.00811699440410203,0.9909895799478962
2015-06-12,-1,-0.0012895781061796512,-0.0011371489855393781,-0.005736408959568592,0.007990159973293508,0.9912551926481661
2015-06-16,-1,-0.0005599139325831396,-0.0005307316575584284,-0.007089715273966776,0.007247019446988757,0.9915378080298601
2015-06-18,-1,-0.0002204480959649844,-0.00021452798526761123,-0.007089715273966776,0.005943400136873089,0.9919048613538934
2015-06-22,-1,-0.0010978606768479895,-0.0009583035431683123,-0.004403252106318067,0.005943400136873089,0.9924234103175538
2015-06-24,-1,-0.0014242867471302295,-0.0012327528248869315,-0.003434813286957014,0.007247019446988757,0.9917107933456822
2015-06-26,-1,-0.0013392935158685732,-0.0011938634785064153,-0.0023966662347457823,0.006183108433466469,0.9928281748716316
2015-06-30,-1,-0.001383773294436423,-0.0012570490182552084,-0.001512103536278609,0.006337349728458898,0.9931373390722179
2015-07-02,-1,-0.0009978996997626471,-0.000907492409685769,-0.001512103536278609,0.0055642327730219005,0.9939123731418534
2015-07-07,-1,-0.0007071209259367474,-0.0006585351722216456,-0.001512103536278609,0.0055642327730219005,0.9936765462136782
2015-07-09,-1,-0.0007927085554495926,-0.0007426940347551212,-0.001512103536278609,0.0055642327730219005,0.9941331088702622
2015-07-13,-1,-0.0004484736309533263,-0.0004483053711580978,-0.0022166262871117343,0.0055642327730219005,0.9943965914647476
2015-07-15,-1,-0.0003941232376209937,-0.0003749545587668535,-0.0022166262871117343,0.0055642327730219005,0.9943787414691286
2015-07-17,-1,-0.0002511827484705329,-0.00021014086289990297,-0.0016663906616479903,0.005615646538019377,0.994419657482421
2015-07-21,1,9.119351493452638e-05,9.923143108528213e-05,-0.0013286916611240278,0.005615646538019377,0.9942930954377689
2015-07-23,-1,-0.00045849418770339584,-0.00038378911901374563,-0.0027419348048023104,0.005334881709081085,0.9942479213730196
2015-07-27,1,0.0004186521043326619,0.0005444389729451001,-0.007023602407235787,0.004730264355864682,0.9917397361210989
2015-07-29,1,0.0004481688542571953,0.0005511548142296456,-0.008023666540306628,0.004730264355864682,0.9903073481355625
2015-07-31,1,0.0004275302590002774,0.0005077687840253334,-0.008924693004336888,0.004924097649452606,0.9893046952404391
2015-08-04,1,0.000988882543117256,0.0011726339626680926,-0.010677913391537477,0.0033021314010861468,0.9887446508475126
2015-08-06,1,0.001010095539933887,0.0012069590252990355,-0.010677913391537477,0.004924097649452606,0.9886768865203298
2015-08-10,1,0.000996037758374008,0.001193231660821398,-0.0150868228553403,0.007029919782786336,0.9873080496588208
2015-08-12,1,0.0008006691777589301,0.0009643904773236379,-0.0150868228553403,0.007029919782786336,0.9871793138976781
2015-08-14,-1,-0.0008585943839852191,-0.0007160549515708634,-0.0150868228553403,0.005622628271313267,0.9874136120648322
2015-08-18,-1,-0.0008394931167261708,-0.0007131446033183588,-0.0150868228553403,0.009427858629233166,0.986988234153145
2015-08-20,-1,-0.0006830504285955683,-0.0005674180523695686,-0.0150868228553403,0.009427858629233166,0.9873825494894516
2015-08-24,1,0.0002454197545862499,0.0002534907583560543,-0.009770133827094761,0.010470474093209451,0.988902104539504
2015-08-26,1,0.000545952532369055,0.0005827046228949261,-0.007406577840442638,0.009427858629233166,0.9904847533310392
2015-08-28,1,0.0002356655523971734,0.0002412823005565885,-0.008203339314655375,0.009427858629233166,0.9896730695558397
2015-09-01,1,0.0006263465635717106,0.0006688115950479733,-0.006554522048669322,0.010470474093209451,0.9900426624662804
2015-09-03,1,0.00040218213013795657,0.00041669218722999754,-0.007846988606117752,0.007848101210006252,0.9901638431009775
2015-09-08,1,0.00032191837351829694,0.0003286315364932391,-0.007655329301428219,0.007848101210006252,0.9905086481709995
2015-09-10,1,0.0005223819953247531,0.0005635769768466047,-0.006554522048669322,0.015349157889333352,0.9896945309409376
2015-09-14,1,0.0006037113151482921,0.0006638403318200167,-0.0036363703124535135,0.015349157889333352,0.9898005297909821
2015-09-16,1,0.0004727714509309396,0.0005186607286885333,-0.007276888867501243,0.015349157889333352,0.9897624203484546
2015-09-18,1,0.0005090983347985963,0.000557257278977474,-0.005715656689609034,0.01584569221586309,0.989215609218123
2015-09-22,1,0.00048734196801304854,0.0005346565527913983,-0.0021055968569884034,0.015349157889333352,0.9895161993011592
2015-09-24,-1,-0.0004939268637260758,-0.00045390131546816433,-0.0021055968569884034,0.01584569221586309,0.9876320243773868
2015-09-28,-1,-0.0006633637759355596,-0.0005996515451563745,-0.0013821820342421875,0.015349157889333352,0.9893647510576296
2015-09-30,1,7.551661662902757e-05,0.00012194547189583771,-0.0031558601169191154,0.014357233890965706,0.9902464243357776
2015-10-02,-1,-0.00018676483411601968,-0.00018177913934434064,-0.0031558601169191154,0.014357233890965706,0.9901403773840411
2015-10-06,1,8.76046731933453e-05,0.00013554811906675644,-0.0027667384291336135,0.013618665561722382,0.9910735780274597
2015-10-08,1,0.000712310863547035,0.000845006981368658,-0.004158739521801258,0.007901687903074585,0.9921838640223509
2015-10-12,1,0.0008487468214181404,0.0010045323235525964,-0.004715597687506802,0.007901687903074585,0.9919860974540613
2015-10-14,1,0.000553522880216164,0.0006659825364644004,-0.003928243951958849,0.01011977511021424,0.9921727616843335
2015-10-16,1,0.0010540183199230922,0.0012186367434905826,-0.004431115576413548,0.005404149122392128,0.9926861779827422
2015-10-20,1,0.0013542196155920012,0.0015484645297421272,-0.004431115576413548,0.005333657452739984,0.9925410268587843
2015-10-22,1,0.002045203533177123,0.0023279077764984863,-0.004431115576413548,0.004762468563253508,0.9933714956004969
2015-10-26,1,0.0020023220747333306,0.0022709376760532887,-0.004431115576413548,0.005333657452739984,0.9931085837325945
2015-10-28,1,0.0016430934746503086,0.0018323812259388084,-0.00440640281797576,0.004762468563253508,0.9931301998353345
2015-10-30,1,0.0014496843975675849,0.0016316976894190961,-0.004203430738975922,0.004762468563253508,0.9938288410030908
2015-11-03,1,0.0014652590042280272,0.0016522558173172083,-0.00440640281797576,0.005753035364252108,0.9933753213080788
2015-11-05,1,0.0014908595883067742,0.001688678222393767,-0.00440640281797576,0.008194031947061786,0.9915466802785895
2015-11-09,1,0.0014697901035525705,0.0016798873957036661,-0.004436072973950985,0.008194031947061786,0.9912774242256935
2015-11-11,1,0.0014332943050266187,0.0016185220358778231,-0.004992989040911376,0.004795386366842106,0.9911300438595022
2015-11-13,1,0.0009724669379109852,0.0010849905110767194,-0.004992989040911376,0.008160568813205971,0.9911185608434401
2015-11-17,1,0.0010397851954437086,0.0011378841802956448,-0.004992989040911376,0.009139880416920747,0.9909648475004827
2015-11-19,1,0.0011714924232900483,0.0012608633877474393,-0.00937495783261055,0.008160568813205971,0.9902370419253822
2015-11-23,1,0.0015102279411668596,0.001663387565367671,-0.00937495783261055,0.00991058256662244,0.989337457738237
2015-11-25,1,0.0013567082479937103,0.0014950345426638337,-0.00937495783261055,0.00991058256662244,0.9896809185913136
2015-11-30,1,0.0011526523706749648,0.001246316467802427,-0.00937495783261055,0.010460004020621198,0.989411393847332
2015-12-02,1,0.0012932141887840407,0.0014116594527144358,-0.010752900022709524,0.009682263499623811,0.9890735382006367
2015-12-04,1,0.0016370261414790006,0.0017915404709260012,-0.010752900022709524,0.009652245766318722,0.9896111658177501
2015-12-08,1,0.0012716979912702551,0.0013779426334810008,-0.01119580819932859,0.009652245766318722,0.9889230524652606
2015-12-10,1,0.0008958945903131247,0.0009456194287140464,-0.012161381497339639,0.009652245766318722,0.9886825535378261
2015-12-14,1,0.0010818122400673726,0.0011893959101904686,-0.01219566922002299,0.010141631753707303,0.9881648254742074
2015-12-16,1,0.0017478249212041978,0.00194813634315747,-0.01219566922002299,0.009069783655253821,0.9887870131220703
2015-12-18,1,0.0010898885418362553,0.0012156186262844144,-0.0108280663504465,0.009069783655253821,0.9900342259299107
2015-12-22,1,0.001931196387021807,0.002177596232927312,-0.011392697663189767,0.005780178889838588,0.9904526121177829
2015-12-24,1,0.0022738083927693127,0.0025865895187352386,-0.01219566922002299,0.005421376824081323,0.9894280248681475
2015-12-29,1,0.0024378457190437136,0.0027666061029464877,-0.01219566922002299,0.005421376824081323,0.988997643544165
2015-12-31,1,0.0018308047368977532,0.0020765259881548068,-0.012167059700673237,0.00636138570865603,0.9889305135596077
2016-01-05,1,0.0012158370134134643,0.0013646911092817975,-0.010562634719033208,0.005421376824081323,0.9902549580988503
2016-01-07,1,0.0005118359822648929,0.0005741316204313137,-0.007504652092841312,0.005421376824081323,0.991166699599709
2016-01-11,1,0.00033152649650951835,0.0003815887754935644,-0.007504652092841312,0.00636138570865603,0.9897901742474071
2016-01-13,-1,-0.0001968766097592199,-0.00013808623521891015,-0.007265402829598003,0.00636138570865603,0.9906094583946267
2016-01-15,-1,-0.0011923192521505676,-0.0009134615466707887,-0.007265402829598003,0.010502859524059887,0.9889460529718129
2016-01-20,-1,-0.001279371800933952,-0.0009980292163376731,-0.007265402829598003,0.011014519207694246,0.9882149368946258
2016-01-22,-1,-0.0013896523114999427,-0.0011067642082199405,-0.006235020882659507,0.011992179945819768,0.988133347011995
2016-01-26,-1,-0.002603789687916868,-0.002123115132699101,-0.006235020882659507,0.011992179945819768,0.9883983624123933
2016-01-28,-1,-0.0020316066060805087,-0.0016439086664852434,-0.007221060956317841,0.011992179945819768,0.9880206636032103
2016-02-01,-1,-0.0008544419269800113,-0.0006017510902748336,-0.007477378936838911,0.011992179945819768,0.9881750509518303
2016-02-03,-1,-0.0013951612620296064,-0.0010556947526708718,-0.007477378936838911,0.011992179945819768,0.9881919162526721
2016-02-05,-1,-0.0018502123989680016,-0.001443504088093741,-0.006305679585073143,0.011992179945819768,0.988427816030174
2016-02-09,-1,-0.0021274713239257705,-0.0017151119151415258,-0.006305679585073143,0.011992179945819768,0.9895499675946089
2016-02-11,-1,-0.002611818339951502,-0.002102707900242165,-0.005683059318199795,0.012432189964743212,0.9892785413137756
2016-02-16,-1,-0.000897926064239141,-0.0006026509287000407,-0.005683059318199795,0.011109221772723724,0.9914979648458763
2016-02-18,-1,-0.0007190470683524896,-0.0004500571070606811,-0.005683059318199795,0.01243032363120835,0.9915571747378833
2016-02-22,-1,-0.000805248717640381,-0.0005025287148555986,-0.0060588451443616635,0.012397440798276559,0.9914347974680479
2016-02-24,-1,-0.000711921947280595,-0.00046072687811976555,-0.0060588451443616635,0.012397440798276559,0.9915166884467567
2016-02-26,-1,-0.0005767862335008028,-0.00032679513449584334,-0.004771829303688625,0.007199654999565903,0.9926313032944238
2016-03-01,-1,-0.0005342998379380973,-0.0002909562040530393,-0.004418937164947657,0.003390226407895164,0.9941307451603997
2016-03-03,1,9.384326027442487e-05,0.00020905256319344434,-0.00460346203077545,0.005067822695928469,0.9935508061284952
2016-03-07,0,-0.00010827521648252691,3.0021045772735892e-05,-0.00460346203077545,0.005067822695928469,0.9927451635286314
2016-03-09,-1,-0.00041758179961602073,-0.00021300503070051944,-0.00460346203077545,0.004637955742829079,0.9927545755085623
2016-03-11,1,0.0009343122307825815,0.0009494802829953055,-0.00460346203077545,0.00451757607738945,0.9928101130978867
2016-03-15,1,0.001050300859997956,0.0011189919060118282,-0.00460346203077545,0.009290091352495535,0.9923919502587105
2016-03-17,1,0.002106280101865751,0.002389109667308251,-0.00460346203077545,0.007700570785944113,0.9927742112338124
2016-03-21,1,0.0022019777201824535,0.0024977181132217947,-0.0035693218690487465,0.007700570785944113,0.9931908788635163
2016-03-23,1,0.0016230058542883812,0.001840438920693455,-0.0024287317750429807,0.007700570785944113,0.9921969502552411
2016-03-28,1,0.0011788151076601418,0.0013025915092864282,-0.00210952929680103,0.009290091352495535,0.9918087519654596
2016-03-30,1,0.0012915979545840054,0.0014297894514607706,-0.0025848013723168044,0.009290091352495535,0.9915057368998048
2016-04-01,1,0.0015302547995137957,0.0016953891658525488,-0.0025848013723168044,0.007700570785944113,0.9916549300065507
2016-04-05,1,0.00043533716221749947,0.00043652064931322344,-0.0025848013723168044,0.009094284387279071,0.9921720681585378
2016-04-07,1,0.0004293509670196384,0.00044149704730095385,-0.0025848013723168044,0.009094284387279071,0.9912188018403982
2016-04-11,1,0.0003527687474222148,0.0003759192725064474,-0.0025848013723168044,0.007700570785944113,0.9915516778071819
2016-04-13,1,0.001117222770353656,0.0012197224919975641,-0.003203655614623993,0.006599954098949922,0.9907778840146023
2016-04-15,1,0.0013953039895747746,0.0015699779916645718,-0.003203655614623993,0.009540566489060983,0.990199015788659
2016-04-19,1,0.0018116057331808654,0.0020474230878807743,-0.004240655416057729,0.006599954098949922,0.9901726171447498
2016-04-21,1,0.0005392680490348484,0.0005873663697032555,-0.004240655416057729,0.009540566489060983,0.9913913472469951
2016-04-25,1,0.0007364326330239474,0.0008055803663255837,-0.004240655416057729,0.007718554399852917,0.99166780201964
2016-04-27,1,0.000606320143357989,0.000666268434793323,-0.004240655416057729,0.009279674551396909,0.99155229685506
2016-04-29,1,0.0007825713976108235,0.0009054232747370845,-0.004240655416057729,0.009279674551396909,0.9917679654561204
2016-05-03,1,0.0006182525913623151,0.0006892418417221585,-0.003989189209874783,0.007749999422605944,0.9919294131085208
2016-05-05,1,0.001568442281644723,0.0017419659012638392,-0.002753951230591022,0.006846866485534822,0.9938546939228488
2016-05-09,1,0.0015219743857735613,0.0016747994508070961,-0.0050856206494461174,0.006846866485534822,0.9935058432908233
2016-05-11,1,0.0021123156140991787,0.0023895863255679888,-0.003680579646653997,0.005946640098735368,0.9945809620518813
2016-05-13,1,0.0018938774123443774,0.002082652109862566,-0.005639663937239057,0.00450711413590668,0.9943484120790052
2016-05-17,1,0.0020674280342347145,0.002338316987198134,-0.004979529425584149,0.00450711413590668,0.9946465398481336
2016-05-19,1,0.0023797460722904036,0.0027058461853599327,-0.004979529425584149,0.00450711413590668,0.9945381738092421
2016-05-23,1,0.002764151729898914,0.003160285679819561,-0.004979529425584149,0.005818362601024996,0.9944389719007798
2016-05-25,1,0.0025808828351064276,0.0029052032112871218,-0.004979529425584149,0.005818362601024996,0.9936703985693975
2016-05-27,1,0.0020088561538505758,0.0022250106402515084,-0.005639663937239057,0.00450711413590668,0.9915284777576658
2016-06-01,1,0.0014551503199644966,0.0015415614537948868,-0.005639663937239057,0.006223634213545275,0.9899522059763235
2016-06-03,1,0.0011955121745780123,0.0012204999579243148,-0.005639663937239057,0.006803979877812437,0.9889825849327865
2016-06-07,1,0.0007081128854409509,0.0007467222672791038,-0.0067207970944416304,0.006803979877812437,0.988961358446135
2016-06-09,1,0.0007535592246272004,0.0007771981859331012,-0.0067207970944416304,0.009467177720530677,0.9884327761325779
2016-06-13,1,3.9365307291316714e-05,0.00015325354648323746,-0.0036101101338214666,0.009467177720530677,0.9890614683819727
2016-06-15,-1,-0.0002666927911523898,-0.00010372848125017354,-0.0036101101338214666,0.009467177720530677,0.9889582316222222
2016-06-17,-1,-0.0007468032331139941,-0.0005027173462581911,-0.002651159230722215,0.007820428811560032,0.9897375879108706
2016-06-21,-1,-0.00032485640394761613,-0.00013989458426076997,-0.0037162795400964774,0.005445698098499591,0.9899799965733855
2016-06-23,1,0.0009957713572016542,0.0010149342041500312,-0.004488327244220981,0.004060311148475384,0.9901844271515216
2016-06-27,-1,-0.0009154690186417415,-0.0006987014649407302,-0.0037162795400964774,0.004060311148475384,0.9930536548311266
2016-06-29,1,0.00044429391432156975,0.0005127335214035912,-0.004554984070194935,0.0023391710244965716,0.9943261651311639
2016-07-01,1,0.0005681985609251218,0.0006326523116567254,-0.005406134949334474,0.0006069716395836777,0.9950342589608655
2016-07-06,1,0.0002616926119150278,0.00036948847012862896,-0.004554984070194935,0.0006069716395836777,0.9955706393037967
2016-07-08,1,0.0010256375158652327,0.0010737610784197524,-0.004213855495952035,0.0006069716395836777,0.9954556136186719
2016-07-12,1,0.0008931164436054967,0.0009300117191531804,-0.004213855495952035,0.0010786035084930981,0.995678084237794
2016-07-14,1,0.0009624613557402324,0.0010130307644027074,-0.004393159977852218,0.0010786035084930981,0.9954725326336971
2016-07-18,1,0.0006153179695162079,0.0006234021665789396,-0.004393159977852218,0.0010786035084930981,0.9957690899217937
2016-07-20,1,0.00047999972707353186,0.00048794187304389345,-0.004393159977852218,0.0010786035084930981,0.9961050373396486
2016-07-22,1,0.00046670733494841093,0.0004758076747966343,-0.004393159977852218,0.0010786035084930981,0.9959590535861071
2016-07-26,1,0.0003474501185892338,0.0003707838814144133,-0.004943985101126335,0.0002961196932933522,0.9958621102295124
2016-07-28,-1,-0.00016926364936752862,-7.809946803706813e-05,-0.002147353484311491,0.0012643121673261298,0.996366215714546
2016-08-01,-1,-0.0004414114652083297,-0.00032029972045306707,-0.002071486625595772,0.0030783069337989317,0.9963444458298314
2016-08-03,-1,-0.0001543354407525254,-8.830878315361492e-05,-0.002147353484311491,0.0016771013665255064,0.9963978889118699
2016-08-05,1,7.911809128341386e-05,0.00012456963558111123,-0.002147353484311491,0.0017373175734162428,0.9966529696993527
2016-08-09,1,0.00018765540406909012,0.00020459857680704755,-0.0022711230423136664,0.0020824723366232945,0.9964837651612554
2016-08-11,1,0.00015673225500890486,0.00017419083789059088,-0.0028230131148022095,0.001454358044338446,0.9955822125282628
2016-08-15,-1,-0.00019539703055703185,-0.00011536646648419743,-0.0037271416993077287,0.002746170980553797,0.9947687544795196
2016-08-17,-1,-0.00035655136488875163,-0.0002521253631698315,-0.004519609347011937,0.005733926480561789,0.994136547757146
2016-08-19,-1,-0.00025205511616127797,-0.00016434447359317363,-0.004402558657317702,0.0048846397866857865,0.9943703405101508
2016-08-23,-1,-0.0003706259764890333,-0.00028264383677680866,-0.0037271416993077287,0.005733926480561789,0.9942041683821081
2016-08-25,-1,-0.0006284678666091572,-0.00048070296010281415,-0.004402558657317702,0.005733926480561789,0.9934597624499568
2016-08-29,-1,-0.0005312184445230611,-0.00038750808493366124,-0.006245251880788742,0.005733926480561789,0.9931853260923682
2016-08-31,-1,-0.0005028261320614861,-0.0003703850797742726,-0.008190165300720526,0.005733926480561789,0.9926982594954328
2016-09-02,-1,-0.0001188361387020366,-5.068490783184296e-05,-0.008958573446860657,0.006441927678167395,0.991950924756242
2016-09-07,-1,-0.00022549948144072224,-0.00014353427720549373,-0.009667253088859254,0.006441927678167395,0.991673258345729
2016-09-09,-1,-0.0007357439570823423,-0.0006093187914445827,-0.009667253088859254,0.007324308246507915,0.9913948919289711
2016-09-13,-1,-0.0009176654434944463,-0.0007304401836125202,-0.009667253088859254,0.006441927678167395,0.9917818330547753
2016-09-15,-1,-0.0009086406135316391,-0.0007323823688529055,-0.009362469704402882,0.007324308246507915,0.9918801627200071
2016-09-19,-1,-0.0010568042263778663,-0.0008555954763052737,-0.009362469704402882,0.007324308246507915,0.9920729557120905
2016-09-21,-1,-0.0009403615881594517,-0.0007455229087982085,-0.009362469704402882,0.005937760086158374,0.9922508190573682
2016-09-23,-1,-0.0012175273296169535,-0.0009874503099360828,-0.009404447599563836,0.005149603892907709,0.9918638037630289
2016-09-27,-1,-0.0007621236675120921,-0.0006280586666372867,-0.009404447599563836,0.003970130799170053,0.9923106383682714
2016-09-29,-1,-0.0009313458587432514,-0.0007811170623808923,-0.009142751558060186,0.005149603892907709,0.9910472538194707
2016-10-03,-1,-0.0008599706001411172,-0.000727340628540825,-0.0052819669707399085,0.004210304174037172,0.9917217759153747
2016-10-05,-1,-0.0009170938394990205,-0.0007924321438462047,-0.006884130062532447,0.004210304174037172,0.9914843002599025
2016-10-07,-1,-0.0007457343544158745,-0.0006302119384347929,-0.006884130062532447,0.0036965244567233554,0.9924727394453575
2016-10-11,-1,-0.0007812349544066208,-0.0006705162101677108,-0.0045337573494707685,0.005149603892907709,0.9921218232442486
2016-10-13,-1,-0.000317479995876227,-0.0002717440195122547,-0.0045337573494707685,0.004893064577147452,0.9922954824614992
2016-10-17,-1,-4.208863201902629e-05,-4.194463384990975e-05,-0.0045337573494707685,0.004164284632627234,0.9924358028621918
2016-10-19,1,3.615247297988936e-05,4.7457369332469586e-05,-0.006898122694252764,0.0037956350038320695,0.9920535016497138
2016-10-21,-1,-0.0008259466799921078,-0.0007370645101182754,-0.0026235883695703752,0.004164284632627234,0.9930494787994278
2016-10-25,-1,-0.0006455421101456823,-0.0005812331807076263,-0.00425912272179082,0.005119844311003301,0.9928482767009034
2016-10-27,1,0.0002161782343459789,0.00024359324736428667,-0.00425912272179082,0.004164284632627234,0.9946878913167928
2016-10-31,1,0.00021788241963553305,0.0002464443419145108,-0.0028830081058212735,0.005119844311003301,0.9944833266977563
2016-11-02,-1,-0.0005279515046377167,-0.0004445732292734446,-0.0009462869847137038,0.006220744360467873,0.9946994022579456
2016-11-04,-1,-0.0009183814506342359,-0.0007869854338001744,-0.0003962717522745126,0.007047935438361621,0.9942837696084847
2016-11-08,-1,-0.00045062156397461024,-0.0003703873100152513,-0.0003962717522745126,0.0071956778941452675,0.9941364033482507
2016-11-10,-1,-1.8441843243856355e-05,-4.666760370071701e-06,-0.0003962717522745126,0.0071956778941452675,0.9945535781118006
2016-11-14,1,0.00047380876119715114,0.0005652419623155623,-0.0003962717522745126,0.0071956778941452675,0.9946789386572897
2016-11-16,-1,-0.0009466633606023782,-0.0007718253635917492,-0.0003962717522745126,0.0071956778941452675,0.9942000318723795
2016-11-18,1,0.0002590712606873897,0.0003133833542610982,0.0005724704734775143,0.006213972496098575,0.9947984078077017
2016-11-22,1,0.000620372202038922,0.0007594302917485004,0.0005724704734775143,0.004755536650132653,0.9953590334800483
2016-11-25,1,0.0005745116000988742,0.0006944807830778772,-0.0004313704799110616,0.004755536650132653,0.9953142210364149
2016-11-29,1,0.0011246962026072776,0.0013332990530629252,-0.0018727286175007347,0.0036713065357732223,0.9955969683340334
2016-12-01,1,0.0012525414276125313,0.001469641855587644,-0.0015942580964325476,0.003148945252871101,0.9959573865459384
2016-12-05,1,0.001225206806698527,0.0014430869505647778,-0.0015942580964325476,0.0029039563252827747,0.9964133908660149
2016-12-07,1,0.0019508138735234962,0.002254974714139675,-0.002183022961554805,0.0027571473083482273,0.9968476808106665
2016-12-09,1,0.0018816330547851857,0.002160482989770121,-0.003134981498237488,0.0027571473083482273,0.9963806188160091
2016-12-13,1,0.0020591727109127945,0.0023630571314027706,-0.003402633277783111,0.0010743563469373786,0.9959084362686994
2016-12-15,1,0.0017672449161951521,0.002027032072933265,-0.003134981498237488,0.0025410686660235315,0.9964803497673259
2016-12-19,1,0.0017202833930263324,0.0019457952799302597,-0.003402633277783111,0.0010743563469373786,0.9959969104716172
2016-12-21,1,0.001497430137066597,0.0016729971276386309,-0.003402633277783111,0.0007206304027910855,0.9962095717383087
2016-12-23,1,0.0014142676224728067,0.0015793566918179,-0.003402633277783111,0.0036853580656728384,0.9960337616386052
2016-12-28,1,0.0013442093845684377,0.0015212652606985694,-0.001857724207328643,0.0036853580656728384,0.9964746886702072
2016-12-30,1,0.001289288946015257,0.0014546207723194202,-0.0034205046320900812,0.0036853580656728384,0.9958275129609987
2017-01-04,1,0.0010281327626719327,0.001154116267537384,-0.004605475460399729,0.004421192926880358,0.9942130617134851
2017-01-06,1,0.0009601752145192313,0.0010714477411309523,-0.0023458999129863847,0.003952130253153466,0.9946685972284361
2017-01-10,1,0.0006790189332753981,0.0007474125176497239,-0.0023458999129863847,0.003952130253153466,0.9947484255488537
2017-01-12,1,0.0005486848236209943,0.0006045486944926811,-0.00047400273282644564,0.00592923156456381,0.9943770926299635
2017-01-17,1,0.0006623404261154614,0.0007141563303374109,-0.00047400273282644564,0.0068748539486880025,0.9944006711373233
2017-01-19,1,0.0007755346271611276,0.0008513596080824614,9.527840815056434e-05,0.006981748410153465,0.9945076361105646
2017-01-23,1,0.0009156303714584289,0.0010245131977085382,0.000440096066287925,0.006981748410153465,0.9943433125395702
2017-01-25,1,0.001273031356157208,0.0014249273606351275,0.000440096066287925,0.0076270723083711155,0.994291298964532
2017-01-27,1,0.0013984080296886167,0.0015789800233562206,-0.0023318017839803478,0.0076270723083711155,0.9937865508145245
2017-01-31,1,0.0008875624945437934,0.0009946282668515005,0.0010098792944412587,0.007938200388084486,0.99348815850434
2017-02-02,1,0.0001823971559977703,0.00021599511989361833,0.0010098792944412587,0.0076270723083711155,0.9942754922409237
2017-02-06,1,0.0005654082210610986,0.000600649709441203,-0.0026042011880017257,0.0076270723083711155,0.994198597974467
2017-02-08,1,0.0002953465890458213,0.0003032703524210154,-0.0023438706820279377,0.0076270723083711155,0.994036220514879
2017-02-10,1,0.0007163192137574228,0.000758363275839068,-0.0023438706820279377,0.004935361883677591,0.9946388578311182
2017-02-14,1,0.0011182279233808098,0.0012303977264402199,-0.0023438706820279377,0.0047450793533918055,0.994735796138917
2017-02-16,1,0.0013529392586050372,0.0014771810820713269,-0.003414473587532192,0.003991113078931977,0.9949697239496621
2017-02-21,1,0.0014848044338604907,0.001619394894398779,-0.004682115686918131,0.0034815697824197,0.994319090050957
2017-02-23,1,0.0018256793066756438,0.0019861612275853526,-0.004682115686918131,0.0030046159439534596,0.9947101395003805
2017-02-27,1,0.0013746764479835704,0.0014671420746469772,-0.003972637228200898,0.0034815697824197,0.9949923647976561
2017-03-01,1,0.001786649159365249,0.0019106935926255261,-0.005023838911402763,0.0030046159439534596,0.9947437627177901
2017-03-03,1,0.0013843787911902192,0.0014745361613084807,-0.00475220391155654,0.0034715378950875286,0.9951163906660748
2017-03-07,1,0.0008910430848016853,0.0008990986440513824,-0.003972637228200898,0.004069158329266746,0.9953319560417544
2017-03-09,1,0.0010181860483565917,0.0010624912389293672,-0.004155716378682794,0.004243956652051557,0.9951659609430296
2017-03-13,1,0.0010170249660468038,0.0010651117873088283,-0.004155716378682794,0.004243956652051557,0.9951821124074429
2017-03-15,1,0.0011492010056818288,0.0012165639594018409,-0.0047079690552961845,0.004069158329266746,0.9951258656305352
2017-03-17,1,0.0002713490773325694,0.00037524091116125684,-0.0047079690552961845,0.004243956652051557,0.9949964499615978
2017-03-21,-1,-0.00031471566883183423,-0.0001484116743358016,-0.004155716378682794,0.004243956652051557,0.9953622432660293
2017-03-23,1,0.0005858496548807492,0.0005880490932741659,-0.004541162708105823,0.004124460823763683,0.994788577013783
2017-03-27,1,0.00047001461184145374,0.0004845299701040299,-0.004306376471267438,0.004502469943085125,0.9947122514825212
2017-03-29,0,-6.545450418977901e-05,4.394816856797401e-05,-0.003910266007462576,0.004502469943085125,0.9950306743589109
2017-03-31,-1,-0.0005289412318841277,-0.0003370131920284227,-0.003910266007462576,0.0042628704156677496,0.9950950812052518
2017-04-04,1,5.343309990938521e-05,0.00015183041308521522,-0.003910266007462576,0.003749334589648664,0.995096109047806
2017-04-06,1,0.00021012088597981566,0.00027779558286446574,-0.0038851234007520642,0.003749334589648664,0.9950845827768513
2017-04-10,1,0.0002940405800825408,0.00034873492917351543,-0.004230948651135904,0.0028312269108530345,0.9947412738430345
2017-04-12,-1,-0.0003339228219942298,-0.000184666625783829,-0.004230948651135904,0.004245695682744483,0.9943884525241434
2017-04-17,1,2.8793123365106373e-05,0.00012563416647440594,-0.004230948651135904,0.004052619939138968,0.9945384313390263
2017-04-19,-1,-0.0003656983502944325,-0.00022345831736270757,-0.003825460201223315,0.004800283573906005,0.9946414101516371
2017-04-21,-1,-0.000808256499332537,-0.0006144469756998463,-0.003696901959057661,0.005431694410566503,0.9948594132562897
2017-04-25,-1,-0.00018683743493065743,-8.619408688276183e-05,-0.003696901959057661,0.005596068225669128,0.9946646594715784
2017-04-27,1,0.00019364813933943988,0.00024292353899076685,-0.0035128076913658038,0.005596068225669128,0.9947386676797996
2017-05-01,-1,-0.00033542410390838626,-0.00021711463441101582,-0.003479661297317753,0.005596068225669128,0.9949713894921672
2017-05-03,1,0.00032455462478842207,0.00032714062965509907,-0.003479661297317753,0.006851936006159012,0.994186651564761
2017-05-05,1,0.00037576609469875137,0.0003892952672611249,-0.0027672014188191603,0.006851936006159012,0.9945308208338086
2017-05-09,1,0.00010507518249322124,0.00011570129486866479,-0.0024824537717244716,0.006851936006159012,0.9946934562933173
2017-05-11,1,0.00015089768344503433,0.0001686485008893407,-0.0010802174723387918,0.006851936006159012,0.9948392795921297
2017-05-15,1,0.0002865514426348519,0.0002955139506702874,-0.0010802174723387918,0.006851936006159012,0.9949574821771044
2017-05-17,1,0.00036025640059297425,0.00037888924310133744,-0.0005880517523806379,0.007231190471265501,0.9948580047259621
2017-05-19,1,0.0004558062890263452,0.00048227154600797716,-0.0010802174723387918,0.007231190471265501,0.9949783475234726
2017-05-23,1,0.0007652928430002101,0.0008168038489669086,-0.0021975419711281487,0.005276953337122238,0.9955227392503939
2017-05-25,1,0.0011790490825154063,0.0012817165314536034,-0.003299141222764237,0.0046926599664297115,0.9954563419236526
2017-05-30,1,0.0008316395569909701,0.0008767179808591131,-0.003454557614363452,0.0046926599664297115,0.9954939926944509
2017-06-01,1,0.0013840370574955323,0.0014952342598201923,-0.004331063783059224,0.004008590161080164,0.9958142090680374
2017-06-05,1,0.0012074490593735072,0.001278593966855683,-0.004331063783059224,0.0046926599664297115,0.9956377883333888
2017-06-07,1,0.0008608559583108519,0.0008711040949159639,-0.003789172407376092,0.0046926599664297115,0.9955978002898588
2017-06-09,1,0.0013873639823002873,0.0014824513280284086,-0.004331063783059224,0.004057730417825562,0.9954075817892615
2017-06-13,1,0.0011367095218587084,0.0011993596250547735,-0.004331063783059224,0.004057730417825562,0.9954618814870512
2017-06-15,1,0.0014038085667562262,0.0014999385084527987,-0.004331063783059224,0.0028307909834239795,0.9957097792871782
2017-06-19,1,0.001451201499408703,0.0015726790569149827,-0.004331063783059224,0.0028307909834239795,0.9958859599618461
2017-06-21,1,0.0012825874574179576,0.001381034449066764,-0.004331063783059224,0.0030781673827726817,0.9959434676396839
2017-06-23,1,0.0005357580534200617,0.0005598985480665266,-0.002855130010472618,0.0030781673827726817,0.9964174828749978
2017-06-27,1,0.0002835874546680509,0.00034658410245354265,-0.002855130010472618,0.0029288510253393614,0.9954739748546112
2017-06-29,1,0.00034381109500769005,0.00040248407222204854,-0.002855130010472618,0.0029288510253393614,0.9948610667776833
2017-07-03,1,0.0004725133426718395,0.0005291310257477932,-0.002855130010472618,0.00385824798586053,0.9944323058252876
2017-07-06,1,0.00043904962678280535,0.0004768405681570763,-0.00023896842789856662,0.005970271378558829,0.9942127487042054
2017-07-10,1,0.0004963847276212188,0.0005145347748389936,-0.0005373397685422758,0.005763836334946468,0.994772207528246
2017-07-12,1,0.00047897949728343734,0.00047906223190165764,-0.0005373397685422758,0.005763836334946468,0.9945864870447672
2017-07-14,1,0.0007009223854248022,0.0007427874362701176,-0.003742569602796693,0.005763836334946468,0.9938426460427652
2017-07-18,1,0.0010490491268009153,0.0011671002003826169,-0.003742569602796693,0.005970271378558829,0.99358209551754
2017-07-20,1,0.00101440601252616,0.0011060431380591404,-0.005466142428535609,0.005900160415499674,0.9930506644567147
2017-07-24,1,0.0014133494168587879,0.001594273516095803,-0.005466142428535609,0.005900160415499674,0.9929028935004204
2017-07-26,1,0.00047045464857300523,0.0004994034231402699,-0.005466142428535609,0.005900160415499674,0.993823229274865
2017-07-28,1,0.0006094038738819316,0.0006361774905794242,-0.005475408480701878,0.005828903743866706,0.9941216360304532
2017-08-01,1,0.0011937783618609665,0.0012936325184194483,-0.0066636636080051985,0.004162595067487527,0.9941057689587317
2017-08-03,1,0.001554151915421979,0.0016997909296244383,-0.0066636636080051985,0.0010423513125847068,0.9940603046261406
2017-08-07,1,0.001460966081514384,0.0016006536445166782,-0.008087822904963996,0.0010423513125847068,0.9926870518811242
2017-08-09,1,0.001304909614664871,0.0014200494489583415,-0.010881028093575192,0.0010423513125847068,0.9919416942093057
2017-08-11,1,0.00029019655315261296,0.00035320773043328625,-0.008087822904963996,0.004423862990993845,0.9894732416970807
2017-08-15,1,0.000738119338599055,0.0007383053594242892,-0.010915654204510843,0.0029049361763812745,0.9886015825530137
2017-08-17,1,2.1172571826722332e-05,0.00010756012292578525,-0.010739510581314879,0.005305338258337531,0.9886734975490641
2017-08-21,-1,-0.0002800243200526751,-0.00015275712099091667,-0.010739510581314879,0.005305338258337531,0.9888756484958431
2017-08-23,-1,-0.000744134312848717,-0.0005565380895665283,-0.010739510581314879,0.005305338258337531,0.9888042378591961
2017-08-25,-1,-0.0007888768395350485,-0.0006110248657194737,-0.007976024580574472,0.004521747588395909,0.9892620456601184
2017-08-29,-1,-0.0013208283891296847,-0.0010836621476264879,-0.007725189883277013,0.004521747588395909,0.9892610073139394
2017-08-31,-1,-0.0014327257049955478,-0.0011872240661777716,-0.007725189883277013,0.004521747588395909,0.9892441588929014
2017-09-05,-1,-0.003077387141627741,-0.0026241383445190277,-0.005688432410387119,0.0053528482777392365,0.9890205211239178
2017-09-07,-1,-0.0035093694431380914,-0.0030231500277660096,-0.0032462717862009934,0.005439826708624328,0.9895015885480386
2017-09-11,-1,-0.00022870961677315198,-0.00010527828495013195,-0.0032462717862009934,0.003351757386335554,0.9943840704912638
2017-09-13,-1,-0.0010308431840427984,-0.0007858922222969333,-0.0011520169622112645,0.003351757386335554,0.9949024221913034
2017-09-15,-1,-0.0011181969651608051,-0.0008857917688022305,-0.0011520169622112645,0.003351757386335554,0.9946750148251831
2017-09-19,-1,-0.0009429089044961126,-0.000749121282032945,-0.0018270646455770126,0.004919195597132388,0.9942454085205609
2017-09-21,-1,-0.0014813026104453972,-0.001198105765257326,-0.0009122820380025472,0.007252684618354644,0.99312761507382
2017-09-25,-1,-0.0013533984525687165,-0.0010921243553327843,-7.360541789782225e-05,0.007900902419394612,0.9929923951828197
2017-09-27,-1,-0.0017935467853669473,-0.0014822666182267214,-0.0009017096778454149,0.007900902419394612,0.9932193008085652
2017-09-29,-1,-0.0019284182683412217,-0.0015764362084395786,-0.0015649133178122121,0.007900902419394612,0.9927438157185887
