JNU-Tangyin/eata/results/Batch4_SP500/Batch4_SP500-WM.csv
Date,Action,Predicted_Q25,Predicted_Q75,Actual_Q25,Actual_Q75,RL_Reward
2010-12-14,0,0.0,0.00025278169393406233,-0.0020034234994480947,0.002476462239510307,0.9974171764647707
2010-12-16,0,0.0,0.0,-0.0014313049343143691,0.0029567991511775444,0.9966788164489114
2010-12-20,0,0.0,0.0,-0.0014313049343143691,0.0036266232284650635,0.9964655079274845
2010-12-22,0,0.0,0.0,-0.0014313049343143691,0.004079377638921675,0.9963778648449784
2010-12-27,0,0.0,0.0,-0.0014313049343143691,0.005326710265372753,0.9959729714165118
2010-12-29,0,0.0,0.0,-0.0014313049343143691,0.006846403174285602,0.995602493592015
2010-12-31,0,0.0,0.0,-0.0020034234994480947,0.006846403174285602,0.9950894356641943
2011-01-04,0,0.0,0.0,-0.0020034234994480947,0.006846403174285602,0.9948139207479518
2011-01-06,0,0.0,0.0,-0.0020034234994480947,0.006846403174285602,0.9948615981709507
2011-01-10,0,-2.065245497961108e-05,0.00013048107774972148,-0.0003360088324698881,0.007530996662323614,0.9948444479763873
2011-01-12,0,0.0,0.0,-0.0003360088324698881,0.006846403174285602,0.9951518066062686
2011-01-14,0,0.0,0.0,-0.0006650499049629662,0.005164048261381825,0.9957483713914544
2011-01-19,1,0.0003736676851058293,0.00044320174645303225,-0.001441239500493602,0.004900275648070778,0.9958457927840136
2011-01-21,1,0.0005318818858101903,0.0006136753544648085,-0.001441239500493602,0.0038875490555744393,0.9961200916624295
2011-01-25,1,0.0013300875647543806,0.0013666514765855412,-0.004084420485071309,0.0028803606793502937,0.995331370783359
2011-01-27,1,0.0017813753929852715,0.0018799332608191006,-0.0056347992681017485,0.0017964415113568626,0.9948706380795254
2011-01-31,1,0.000941289374785318,0.0009705872988992858,-0.0056347992681017485,0.002557098338568013,0.995289819487638
2011-02-02,0,0.0,0.0,-0.004084420485071309,0.002557098338568013,0.9953831036591226
2011-02-04,0,0.0,0.0,-0.0032760006156263787,0.002557098338568013,0.99548625942742
2011-02-08,1,0.0008034957098652995,0.0008190509053192006,-0.004309621673555422,0.002557098338568013,0.9953545660460807
2011-02-10,1,0.0011765437397841495,0.0012844114121616644,-0.005885066673416517,0.0020393684102944162,0.994742925634017
2011-02-14,1,0.001283420753088858,0.0014136054078643385,-0.007026601542991893,0.0020393684102944162,0.9945580210728047
2011-02-16,1,0.0011964838432871792,0.0013100028329698877,-0.008103370576003924,0.0025806087715476754,0.9939167921257811
2011-02-18,1,0.0010589763128165419,0.0011379546853489389,-0.008103370576003924,0.003921028899011575,0.9933945732262066
2011-02-23,1,0.00037159714388564573,0.00037168995211051583,-0.0046901332967472145,0.0042763635395276,0.9941333091736838
2011-02-25,-1,-0.00014861741753884294,-8.834672055343715e-05,-0.0028159169990795855,0.005080975095432728,0.9943603243240876
2011-03-01,1,1.4113601498562308e-06,1.583174558705403e-05,-0.0016117281876129109,0.004476636358316379,0.9948851483985158
2011-03-03,1,0.0004341641349694225,0.00046994854901550654,-0.0016117281876129109,0.0041320341652215115,0.9954857561090729
2011-03-07,1,0.0004591072857598025,0.0005063245704317054,-0.0004034835361475682,0.004647986972514464,0.9951100242106296
2011-03-09,1,0.0007157667297382514,0.0008160051209009634,0.00013560468948150154,0.004647986972514464,0.9951200512883176
2011-03-11,0,0.0,0.0,-0.0008039444251841195,0.004647986972514464,0.9951007717087657
2011-03-15,0,0.0,0.0,-0.0023929113179267407,0.004647986972514464,0.9952563108867635
2011-03-17,0,0.0,0.0,-0.002188609664462657,0.005791004257376159,0.9958763295686118
2011-03-21,1,0.00023284584506300733,0.00025887341013965137,-0.0023929113179267407,0.0041320341652215115,0.9959403537321273
2011-03-23,1,0.0002602601248821555,0.00027170424908111565,-0.0023929113179267407,0.004647986972514464,0.9950927403857215
2011-03-25,-1,-0.00020963279890732768,-0.00013311695759684046,-0.002188609664462657,0.004602983366094565,0.994993716426989
2011-03-29,0,0.0,0.0,-0.002188609664462657,0.006664508694775885,0.993902134569699
2011-03-31,0,0.0,0.0,-0.0027343492820423895,0.006664508694775885,0.9937531982497215
2011-04-04,0,0.0,0.0,-0.0032270051789038694,0.005655993438116463,0.994131784588644
2011-04-06,1,0.00045288553809645784,0.00046781920982733933,-0.00399682677020632,0.0042264621920560744,0.9938028267178501
2011-04-08,1,6.060453703785507e-05,0.00012124640786476731,-0.0032270051789038694,0.0042264621920560744,0.9939838800468922
2011-04-12,-1,-0.00028753623839968706,-0.00017876634655667888,-0.0031779515147946366,0.0050481724582503934,0.9938249186926442
2011-04-14,1,6.56784177901465e-05,0.00012148220723819043,-0.003639799966206226,0.004959733923790814,0.9936701155999561
2011-04-18,-1,-0.000675440594732561,-0.0005145661046752031,-0.003639799966206226,0.004959733923790814,0.9940540588018237
2011-04-20,0,0.0,0.0,-0.003639799966206226,0.004959733923790814,0.9943587411975849
2011-04-25,0,0.0,0.0,-0.004748602801239043,0.004296436141601828,0.9937848344349156
2011-04-27,1,0.000895927717349613,0.0009217522037021195,-0.004748602801239043,0.003672650338996893,0.994546349515127
2011-04-29,0,0.0,0.0,-0.004748602801239043,0.0039652709173474705,0.9943547890202659
2011-05-03,0,0.0,0.0,-0.00744787363943787,0.0039652709173474705,0.9938820781684539
2011-05-05,1,0.0005194011550600226,0.000546472559104183,-0.004851015719467914,0.0039652709173474705,0.9941931103320305
2011-05-09,1,0.0005746682715294099,0.0006044784502487254,-0.00850723829394328,0.0039652709173474705,0.9933906208426213
2011-05-11,0,0.0,0.0,-0.00913239639645525,0.0039652709173474705,0.9932183002836646
2011-05-13,0,0.0,0.0,-0.009781392298242087,0.0011733942158289414,0.9932892219398152
2011-05-17,0,0.0,0.0,-0.009896213972399821,0.0039652709173474705,0.9924295155012134
2011-05-19,0,0.0,0.0,-0.009896213972399821,0.0024238932671277556,0.9927697045990184
2011-05-23,0,0.0,0.0,-0.009781392298242087,0.0041029344789324075,0.9927912864659584
2011-05-25,0,0.0,0.0,-0.009781392298242087,0.0041029344789324075,0.9925345761080289
2011-05-27,0,0.0,0.0,-0.009781392298242087,0.0024483245181321335,0.9929056832887627
2011-06-01,0,0.0,0.0,-0.008715558251726643,0.004030744756474306,0.9932322334069245
2011-06-03,0,0.0,0.0,-0.008504013920533932,0.004749791707691266,0.9931875021476596
2011-06-07,0,0.0,0.0,-0.004876704579664593,0.004749791707691266,0.9939059318779304
2011-06-09,-1,-0.0009130194159546522,-0.0007841685956593925,-0.004876704579664593,0.006242496451934079,0.9938102981261191
2011-06-13,-1,-0.0012982632134240278,-0.0011220801682668205,-0.0055319641216237305,0.006242496451934079,0.9928258879061912
2011-06-15,-1,-0.0011732767989419165,-0.0010249073464063591,-0.0055319641216237305,0.004533222540316963,0.9932774883373447
2011-06-17,-1,-0.0006082900233234215,-0.0005420275300771396,-0.007153104104095137,0.004030744756474306,0.9931616640091531
2011-06-21,1,2.689453370648942e-05,5.1802251250196825e-05,-0.007153104104095137,0.0033047455709508066,0.9936131080046565
2011-06-23,-1,-0.0002413308304558429,-0.00021210072093441192,-0.00903757520561506,0.004533222540316963,0.9926585655636663
2011-06-27,-1,-0.0006589871749613018,-0.0005814438893373564,-0.008104446172266737,0.004533222540316963,0.9928521040324868
2011-06-29,0,0.0,0.0,-0.012271202878817757,0.0037729896565529795,0.9888770832275359
2011-07-01,1,6.238792557731345e-05,8.44081602821219e-05,-0.013556835452930655,0.0023948504191573855,0.9877158323139781
2011-07-06,1,0.00022818632167973766,0.0002760451874927253,-0.014406310889562408,0.00242668584274886,0.9863090608583441
2011-07-08,1,0.0002488949923408684,0.00030238970004076713,-0.015826675091813465,0.00242668584274886,0.9852538958821765
2011-07-12,-1,-0.0007120900576441138,-0.0006405517724982784,-0.01870501465223167,0.003919296488377851,0.9813431251248589
2011-07-14,-1,-0.0011110854517015056,-0.0009949098508961916,-0.02425699156730499,0.007201383481664462,0.9775275790451776
2011-07-18,-1,-0.0018620068641422463,-0.0016276353132612573,-0.02425699156730499,0.007201383481664462,0.9777605167452483
2011-07-20,0,0.0,0.0,-0.02425699156730499,0.007386576379265388,0.9767672530529273
2011-07-22,0,0.0,0.0,-0.025711701845140142,0.006015296809320353,0.9753430840464403
2011-07-26,0,0.0,0.0,-0.025711701845140142,0.012384533197631442,0.971246285099075
2011-07-28,0,0.0,0.0,-0.02425699156730499,0.02082835095852118,0.9730545835148307
2011-08-01,0,0.0,0.0,-0.02022300833769733,0.025992646833335804,0.9723063758455088
2011-08-03,0,0.0,0.0,-0.014392379972809212,0.025992646833335804,0.9726392515360801
2011-08-05,-1,-0.01086906923284349,-0.009559001093795108,-0.02022300833769733,0.025992646833335804,0.9719881414449102
2011-08-09,0,0.0,0.0,-0.014392379972809212,0.02394476085277772,0.9752872508669798
2011-08-11,0,0.0,0.0,-0.014392379972809212,0.020646658657233335,0.9783173653256053
2011-08-15,0,0.0,0.0,-0.014392379972809212,0.020646658657233335,0.9776447963219179
2011-08-17,0,0.0,0.0,-0.014392379972809212,0.020868556387296087,0.9774344876610828
2011-08-19,0,0.0,0.0,-0.014392379972809212,0.020868556387296087,0.9786826683116779
2011-08-23,0,0.0,0.0,-0.02003987744888344,0.012625420993416795,0.9805487538216536
2011-08-25,-1,-0.0012106594952938459,-0.0011242524939862597,-0.015404741369087389,0.012625420993416795,0.9803666682645211
2011-08-29,1,0.000646022094530553,0.0008387050741824801,-0.015404741369087389,0.013128181537946027,0.9800272949080997
2011-08-31,-1,-0.0005262673988790505,-0.000509485338917123,-0.023243353541505047,0.017015550009128036,0.9786584473331217
2011-09-02,-1,-0.003061443633523795,-0.0027696626902229283,-0.012605848700626112,0.017015550009128036,0.9799084799576679
2011-09-07,-1,-0.0012082072733249946,-0.001145709172549325,-0.012605848700626112,0.019950103889929797,0.9791777417956901
2011-09-09,-1,-0.002676065753302264,-0.0024217226501761324,-0.008552114504144963,0.019950103889929797,0.9794885481536515
2011-09-13,-1,-0.0011097782185418004,-0.0010863797964067493,-0.011503282869827986,0.020146653386827112,0.9787200742385614
2011-09-15,1,0.000649034796051257,0.0008790758683451301,-0.016679339511833813,0.020146653386827112,0.9797679507373696
2011-09-19,1,0.0004642190623213088,0.0007318378174050766,-0.012433723902859318,0.020146653386827112,0.9803326752546511
2011-09-21,-1,-0.001431711848396842,-0.00140814495322198,-0.009646442377349454,0.020146653386827112,0.9816258943998327
2011-09-23,1,0.0005498221849276887,0.0008358337820105205,-0.006436303865715441,0.019679595729229546,0.9836069280066727
2011-09-27,1,0.002035460624375777,0.002477625260024285,-0.011706524825730733,0.01732817806300976,0.9851410243777661
2011-09-29,1,0.00224935805613054,0.0027379269530468583,-0.011706524825730733,0.01732817806300976,0.9858392689086783
2011-10-03,1,0.0009082597342454185,0.0012263132870626104,-0.011706524825730733,0.01732817806300976,0.9859506991823277
2011-10-05,1,0.002714855212019279,0.0032716638600790806,-0.013835289346217514,0.012736036192429023,0.9851261669468944
2011-10-07,1,0.002832510553628197,0.0033947579938088356,-0.013835289346217514,0.012956423574749585,0.9848094405509912
2011-10-11,1,0.00342030886658779,0.004102937483965017,-0.011706524825730733,0.011388755501766963,0.9866586541735909
2011-10-13,1,0.0026014069033771393,0.0031344643041754305,-0.011706524825730733,0.011388755501766963,0.9865580570544609
2011-10-17,1,0.002562872319805839,0.0030799215754445967,-0.014228419237166336,0.012956423574749585,0.9855392097003844
2011-10-19,1,0.003525591475411649,0.00421042534904493,-0.014228419237166336,0.00877654359844305,0.9860284735950472
2011-10-21,1,0.004240413205124856,0.004988412801287089,-0.014228419237166336,0.0049428302467179365,0.9860052321843461
2011-10-25,1,0.0037602333448786213,0.004414408116697711,-0.018531252956527817,0.0049428302467179365,0.9844852644295466
2011-10-27,0,0.0,0.0,-0.013043890394567713,0.003619979270871812,0.9867979368354305
2011-10-31,0,0.0,0.0,-0.009635969411067173,0.00366491352664008,0.9882643261243041
2011-11-02,0,0.0,0.0,-0.008876798633136038,0.0049428302467179365,0.9890876946256352
2011-11-04,0,0.0,0.0,-0.0036053053812922804,0.0049428302467179365,0.9898120943092813
2011-11-08,0,0.0,0.0,-0.0050148385729659635,0.0038458511216031923,0.9897660620475848
2011-11-10,1,0.0006764264774043894,0.0007305770322945211,-0.0050148385729659635,0.004875986543708915,0.9879660405169439
2011-11-14,1,0.0006215365490404589,0.0008795528239032073,-0.0050148385729659635,0.0032543195625002307,0.9893894696561826
2011-11-16,1,0.0005291319730236302,0.0007883439656620574,-0.008876798633136038,0.004875986543708915,0.9877893787508861
2011-11-18,1,0.0005998484846030406,0.0008864669432219521,-0.005221163355521403,0.005072328290521793,0.9882032864899437
2011-11-22,1,0.0006245796774610936,0.0009464997671819254,-0.0023867602887540683,0.007583735713192352,0.9896791430543692
2011-11-25,1,0.000612709921719178,0.0009495655035548914,-0.0007193112941476596,0.010344121428041735,0.9892976573019054
2011-11-29,1,0.0009104774514432116,0.0012953622404202373,-0.0023867602887540683,0.010344121428041735,0.9887254757350634
2011-12-01,1,0.0014056202205085797,0.0018064446691898556,-0.002550652780516244,0.010344121428041735,0.9897267930782648
2011-12-05,1,0.0015435006564308038,0.0019360752414774973,-0.006195763848120459,0.010344121428041735,0.989311158401888
2011-12-07,1,0.0014637364043921716,0.0018331137051412739,-0.004950123148208951,0.010726853092605744,0.9887800917111701
2011-12-09,1,0.0019948600560533635,0.0024611398146148814,-0.0016706372181504669,0.010726853092605744,0.9913452623101148
2011-12-13,0,0.0,0.0,-0.0016706372181504669,0.011475372430824846,0.9902841848877553
2011-12-15,0,0.0,0.0,-0.0016706372181504669,0.010726853092605744,0.9912276046422328
2011-12-19,1,1.7413121406044334e-05,4.722715354479183e-05,-0.0016706372181504669,0.010726853092605744,0.9909955606285848
2011-12-21,0,0.0,0.0,-0.0016706372181504669,0.010523765653608805,0.9918936020293728
2011-12-23,0,0.0,0.0,-0.0016706372181504669,0.008768033477799267,0.9924867860112109
2011-12-28,0,0.0,0.0,5.827450762029712e-05,0.008768033477799267,0.9930431368906621
2011-12-30,0,0.0,0.0,-0.0003591141179627961,0.008066894439087802,0.9936408563686359
2012-01-04,0,0.0,0.0,0.0,0.008066894439087802,0.9942473599020282
2012-01-06,-1,-0.001950142396931689,-0.0014924573054625146,0.0,0.00700169727862754,0.9937004021312162
2012-01-10,-1,-0.0019363602697214984,-0.0014892930442282728,-0.0001415260170330057,0.005684082032243488,0.9944340434590068
2012-01-12,-1,-0.0028163656510235714,-0.0021767081390003428,-0.0001415260170330057,0.00512887450422724,0.9945008189458839
2012-01-17,-1,-0.0014609019142404467,-0.001126367971374399,-0.0001415260170330057,0.005684082032243488,0.9954307660080401
2012-01-19,0,0.0,0.0,-0.0012072290890807807,0.004254605769093744,0.9951633089984854
2012-01-23,0,0.0,0.0,-0.0012072290890807807,0.005794312734779872,0.9948603695309093
2012-01-25,0,0.0,0.0,-0.0015759157005213582,0.005794312734779872,0.9945726344802703
2012-01-27,0,0.0,0.0,-0.0024161467112326653,0.005794312734779872,0.9942602945428404
2012-01-31,0,0.0,0.0,-0.004432939571889822,0.005794312734779872,0.9937711416713058
2012-02-02,0,0.0,0.0,-0.005378230083220732,0.005025011971357475,0.9934927213419802
2012-02-06,0,0.0,0.0,-0.0065113076556364245,0.005025011971357475,0.993197448130153
2012-02-08,0,0.0,0.0,-0.007320577995897356,0.005644810896076405,0.9923685553621066
2012-02-10,0,0.0,0.0,-0.007320577995897356,0.005644810896076405,0.9924787093878564
2012-02-14,0,0.0,0.0,-0.007320577995897356,0.005025011971357475,0.9927672900999165
2012-02-16,0,0.0,0.0,-0.005845791624017083,0.005492553633570383,0.9936856478900066
2012-02-21,1,0.0009860960747175799,0.001007384856984202,-0.005845791624017083,0.004809542315670688,0.994429021228059
2012-02-23,1,0.0010703079111622487,0.0010892729580071598,-0.005845791624017083,0.004809542315670688,0.9946067918613885
2012-02-27,1,6.745170000112602e-05,0.0002670042059552565,-0.005243482443359693,0.005015823946503757,0.9947907381764616
2012-02-29,1,0.00168385580106352,0.00180603102490391,-0.005089410273076089,0.005015823946503757,0.9944607890401809
2012-03-02,1,0.0014772860132353533,0.0016031072006154738,-0.003787636365149452,0.00394961489727023,0.9949115567689109
2012-03-06,1,0.0013335440273654848,0.0014294923145370087,-0.003787636365149452,0.00394961489727023,0.9950985143800296
2012-03-08,1,0.0013315997168611548,0.0014143239000119362,-0.00276193995028408,0.0034354945271937313,0.9959076218287505
2012-03-12,1,0.0012347396667241144,0.0012982089062260902,-0.004638376118254922,0.0034354945271937313,0.995017662174708
2012-03-14,1,0.0017563816538628825,0.0019525810868433681,-0.003706362059217947,0.005757257818233169,0.9942319205125999
2012-03-16,1,0.002095576700918508,0.002368217559514092,-0.003706362059217947,0.006126785862410519,0.9940240378842987
2012-03-20,1,0.0021380756368765174,0.0024107001368506888,-0.003706362059217947,0.0067296618386580975,0.9937628251786826
2012-03-22,1,0.0019230549973583044,0.002173036779433218,-0.004273805553370511,0.006261354953484951,0.9937868473095723
2012-03-26,1,0.0013625188683828514,0.001458607694238586,-0.004273805553370511,0.006020926031311276,0.9941278264129815
2012-03-28,1,0.0007867333481527398,0.0008009782819241185,-0.004273805553370511,0.006020926031311276,0.9934713661361092
2012-03-30,1,0.0009305900304567402,0.0009758542165948557,-0.005183861992978155,0.006020926031311276,0.9920839992025029
2012-04-03,1,0.0009310076689455578,0.0009672530196202203,-0.004273805553370511,0.006020926031311276,0.992149126258591
2012-04-05,1,0.0010816378719904487,0.0010985164166303868,-0.005901235106098519,0.006020926031311276,0.9914759276045896
2012-04-10,1,6.477529475664692e-05,0.00019262416590510488,-0.004512929924410633,0.006020926031311276,0.9924111389492479
2012-04-12,1,0.0007149935486938618,0.0007632076584116276,-0.005533070494056295,0.0037713910803982434,0.9932406781664187
2012-04-16,1,0.0006213767097724369,0.0006873630577166974,-0.0063821105341003,0.0028512007714378727,0.992059848992256
2012-04-18,1,0.0006209269486031606,0.0006958637214137446,-0.0063821105341003,0.001194424354016566,0.9927073938542079
2012-04-20,1,0.0004319682532011247,0.0005316109175501622,-0.00893622941850596,0.0011790204466169058,0.9926246836703378
2012-04-24,1,0.0005043446580159557,0.000590284565644684,-0.00893622941850596,0.001194424354016566,0.9920940572098199
2012-04-26,1,0.00022251709128084132,0.000319257321282857,-0.0063821105341003,0.001194424354016566,0.9928302091752196
2012-04-30,-1,-0.0001949042185719139,-5.342792075925008e-05,-0.005533070494056295,0.001194424354016566,0.9942482157449862
2012-05-02,1,7.344354391074383e-05,0.00018353850290974463,-0.006555700239170722,0.0011790204466169058,0.9940051191346859
2012-05-04,-1,-0.0008377138978812555,-0.0005989811128796146,-0.006525023293810646,0.0011790204466169058,0.9945090205530942
2012-05-08,-1,-0.0012698836825274019,-0.0009502493860961593,-0.006525023293810646,0.0013084987943664393,0.9943527153102439
2012-05-10,-1,-0.001977612363773515,-0.001555135582695789,-0.006525023293810646,0.002625817388633122,0.9942869358292142
2012-05-14,-1,-0.0027277225204911802,-0.002242097759485039,-0.004402267971942602,0.0030984202751796965,0.9950242026607614
2012-05-16,-1,-0.0020441891511303887,-0.001678074709739276,-0.004402267971942602,0.0030984202751796965,0.9953240218083521
2012-05-18,-1,-0.0020385005505171127,-0.0017085828229314462,-0.0023396749758711984,0.0034107344152626636,0.995282234775311
2012-05-22,-1,-0.0019071103905142852,-0.0015662902322054395,-0.0023396749758711984,0.0030984202751796965,0.9958900270347675
2012-05-24,-1,-0.00158694814453802,-0.0013066837176147553,-0.004402267971942602,0.002625817388633122,0.9961817949752493
2012-05-29,-1,-0.001990824119378158,-0.0016346550176319417,-0.005989067856665907,0.002625817388633122,0.9959124757897486
2012-05-31,-1,-0.0018597940172189462,-0.001572602048107259,-0.0013115056799889555,0.0034090658546856,0.9957363350065913
2012-06-04,-1,-0.0019832186719298786,-0.0016648012477852516,-0.0013115056799889555,0.00432130417636113,0.9946088512160461
2012-06-06,-1,-0.0014552966420420376,-0.0012487426665700736,-0.0021297376573595882,0.00456377462281099,0.9946849302463439
2012-06-08,-1,-0.0016784527032750493,-0.0014074571426789407,-0.004264479257879377,0.00456377462281099,0.9946040201256856
2012-06-12,-1,-0.0014100837556628183,-0.00119417986147838,-0.004264479257879377,0.00432130417636113,0.9930601383595323
2012-06-14,-1,-0.001541846102693649,-0.0013609125059427015,-0.004264479257879377,0.005519244369789093,0.9917451186329033
2012-06-18,-1,-0.0011400829776235678,-0.0010115938431554433,-0.004264479257879377,0.006249688543511428,0.991407509171578
2012-06-20,-1,-0.0009463746727420362,-0.0008391422449484961,-0.004264479257879377,0.007969477542225337,0.9909468420286867
2012-06-22,-1,-0.0013853034255981635,-0.001222226697256087,-0.004264479257879377,0.007969477542225337,0.9906992290541101
2012-06-26,-1,-0.001280200444433215,-0.0011380493435623371,-0.004264479257879377,0.007969477542225337,0.9904676466381637
2012-06-28,-1,-0.00046292185615769106,-0.00044289114738435347,-0.004264479257879377,0.010669871707333845,0.9886157714715528
2012-07-02,1,3.089735922358561e-05,6.559603849349274e-05,-0.005249290888254476,0.010539310030396761,0.9893181121451997
2012-07-05,1,0.0001373980369640409,0.00019022880081607642,-0.005212138852988149,0.010539310030396761,0.9895646018728372
2012-07-09,1,8.471886923000621e-05,0.0001370543957377425,-0.0033763436671851318,0.012722078103369061,0.9891084865049734
2012-07-11,-1,-0.0021096751993029067,-0.001878542051076796,-0.00219338016653321,0.012722078103369061,0.9905037364637848
2012-07-13,-1,-0.00029696482461695386,-0.00027772985580349274,-0.00219338016653321,0.010539310030396761,0.9920127346136287
2012-07-17,1,0.00025239008587422783,0.0003633359215411958,-0.00219338016653321,0.007432385801723449,0.9925038289342913
2012-07-19,1,0.0006020976027069812,0.0007518736625899311,-0.00219338016653321,0.006761144509873852,0.9927133560823334
2012-07-23,1,0.00021529308004045682,0.0002941012972068373,-0.00219338016653321,0.006761144509873852,0.9917462115322571
2012-07-25,-1,-0.00033568332217815897,-0.0003341480368420568,-0.0020817417683564985,0.006761144509873852,0.992025913960085
2012-07-27,1,0.0016796761244195408,0.001935906564206575,-0.0020817417683564985,0.003878646628772975,0.9943863561063092
2012-07-31,1,0.0016894923947708266,0.0019615911730116987,-0.0020817417683564985,0.0038308540685108687,0.994791586632578
2012-08-02,1,0.0017275042494014786,0.0020049023596099428,-0.0020817417683564985,0.004154550818455005,0.9943966743917361
2012-08-06,1,0.0021574240357851255,0.0024848857350612975,-0.0020817417683564985,0.004154550818455005,0.9948289509785245
2012-08-08,1,0.0020954783636528583,0.0024106092451477495,-0.002605916730842854,0.004524751181743562,0.9933683618406843
2012-08-10,1,0.002164345554677055,0.0024837093104884233,-0.0034645062766088105,0.004381373500957244,0.9930738703510741
2012-08-14,1,0.0022598921016140456,0.0025966993040532184,-0.0037974821711643405,0.003582840154629145,0.9927339396807456
2012-08-16,1,0.002969494724930747,0.003424579226669253,-0.0037974821711643405,0.0018950439037697126,0.9924181478621973
2012-08-20,1,0.0017964505957546407,0.0020673159802291627,-0.003476526453245727,0.0018950439037697126,0.994545532081432
2012-08-22,1,0.0017059542209157605,0.0019675839982969336,-0.004383279471744952,0.0018950439037697126,0.992844892057049
2012-08-24,1,0.001586346531240726,0.0018262448750597643,-0.004383279471744952,0.0018950439037697126,0.992769569675454
2012-08-28,1,0.001726507044467091,0.0020002339542110545,-0.0051805690654181825,0.0015216285424283062,0.9922326112997882
2012-08-30,1,0.0016445838811112406,0.0018685100571588947,-0.0051805690654181825,0.0017751180970035129,0.9928991674747252
2012-09-04,1,0.002332153816565238,0.0027054340959289007,-0.00671446330411732,0.001384038435209424,0.9917365015700723
2012-09-06,1,0.0019713754369015024,0.0022883366037682387,-0.0051805690654181825,0.001384038435209424,0.9932492321588026
2012-09-10,1,0.0019515866609900213,0.00229888987082778,-0.004383279471744952,0.0012533914160318738,0.9936248051441856
2012-09-12,1,0.0017492191682850215,0.002075056641142251,-0.004770101296495749,0.0014169563091129505,0.9939079881865612
2012-09-14,1,0.0017543110860565058,0.00208162985879404,-0.004770101296495749,0.0014169563091129505,0.9939801973938752
2012-09-18,1,0.0015114149008590852,0.0017782431732049435,-0.004770101296495749,0.0034404833977526514,0.993907597038872
2012-09-20,-1,-0.00012988057636962935,-0.00012216017726452688,-0.002613520230890713,0.004736343832783846,0.9950915019867004
2012-09-24,-1,-0.00018229132151398382,-0.00018212263796710279,-0.002025278605086816,0.004736343832783846,0.9946064002579549
2012-09-26,-1,-0.0009772329655002266,-0.0008619032941242449,-0.001550741507823644,0.004736343832783846,0.9944428102424986
2012-09-28,-1,-0.000547086675903773,-0.0004863751590498934,-0.004397882240671692,0.005236573969710875,0.9939657827072523
2012-10-02,-1,-0.0010632791811925806,-0.0009324023651615966,-0.001550741507823644,0.007058996977373775,0.993769411772277
2012-10-04,-1,-0.0012718300289602015,-0.0010514205727937826,-0.004397882240671692,0.0063654502761856975,0.9929682682397503
2012-10-08,-1,-0.001249151719806977,-0.0010440358686785059,-0.004999490757031718,0.0063654502761856975,0.992779041106564
2012-10-10,-1,-0.001519471238732578,-0.0012658781269481757,-0.005556032261310441,0.0063654502761856975,0.9925503096242385
2012-10-12,-1,-0.0011810938710764265,-0.000997278336144403,-0.008244818485980429,0.0063654502761856975,0.9924370609192059
2012-10-16,-1,-0.0006384142697696672,-0.000525831565185462,-0.008492572884195046,0.005565014068666161,0.9922229221228951
2012-10-18,-1,-0.00017532840918780082,-0.00010969756545454231,-0.008492572884195046,0.005539737049881718,0.991863083743001
2012-10-22,-1,-0.0009764673621578573,-0.000791590969084162,-0.008244818485980429,0.006190997161972226,0.9919164215976278
2012-10-24,-1,-0.0017416131609984736,-0.0014583851447812343,-0.008244818485980429,0.006690239842411992,0.9915656901680112
2012-10-26,-1,-0.0011593909442768257,-0.0009550330485297952,-0.008244818485980429,0.006690239842411992,0.9917156921197051
2012-11-01,-1,-0.0005106950813462802,-0.00038400770610184676,-0.008244818485980429,0.0061151661056188964,0.9921250530977858
2012-11-05,-1,-0.0012722845525186778,-0.0010512458880690386,-0.005086480494010379,0.0061151661056188964,0.9932685482232332
2012-11-07,-1,-0.0018816973862783646,-0.0015840164085749267,-0.003910138513562816,0.006690239842411992,0.9918389851419874
2012-11-09,-1,-0.0017538549816303668,-0.001479505699838415,-0.0021166064485385345,0.00811775073381214,0.9914378203483613
2012-11-13,-1,-0.0020856600393181638,-0.0017783541416965668,-0.003910138513562816,0.00811775073381214,0.9906914793208901
2012-11-15,-1,-0.0028716623092789675,-0.0024561381612051344,-0.0016715605027286364,0.00811775073381214,0.990702820459139
2012-11-19,-1,-0.002235558376371473,-0.0018883490564283048,-0.0016715605027286364,0.006690239842411992,0.9915813799931965
2012-11-21,-1,-0.0012643830059197747,-0.0010577055088618003,-0.0023716100359180347,0.006169372534454914,0.9923768567514176
2012-11-26,-1,-0.001160225875150115,-0.0009881961924438898,-0.0023716100359180347,0.005940989271140231,0.9930398051466311
2012-11-28,-1,-0.0005209925889041313,-0.00042669792617146507,-0.0023716100359180347,0.005265505308529181,0.9939520369252142
2012-11-30,-1,-0.0006712981829704309,-0.0005502319555260034,-0.003245576415717085,0.0053367865884499325,0.9935225215554999
2012-12-04,-1,-0.0014386218976700162,-0.0011336136690140786,-0.003245576415717085,0.006169372534454914,0.993078184334804
2012-12-06,1,5.353242351401803e-05,0.00013027147836948058,-0.003245576415717085,0.0053367865884499325,0.994666638049747
2012-12-10,1,0.0007877793433044109,0.0008114736889708869,-0.003245576415717085,0.005044882664520209,0.994647849448515
2012-12-12,1,9.321104635370207e-06,6.244297604092886e-05,-0.002367564633821256,0.005351326012002358,0.9954601014598041
2012-12-14,1,7.799268007483567e-06,6.928166531524412e-05,-0.001882644380842431,0.005351326012002358,0.9956359211643832
2012-12-18,0,-1.9712738324396213e-05,7.920503855085093e-05,-0.001882644380842431,0.0063639482816240135,0.9956447240526195
2012-12-20,1,0.0010872387698363213,0.0012579238497700167,-0.000803289847764225,0.0072046851811246055,0.9955326685824218
2012-12-24,1,0.0008006945965316971,0.0009401268280026667,-0.000803289847764225,0.0072046851811246055,0.9954157453139565
2012-12-27,1,0.0007106821373288013,0.000848240713966706,-0.00036173571987211436,0.008373409681530846,0.9944398947897388
2012-12-31,1,0.0009754645825066767,0.001173163929521946,-0.0007838720319381738,0.007209816271635472,0.9946778067935529
2013-01-03,1,0.001203812918009253,0.001441235694688803,-0.0016254802422464392,0.008436292138935616,0.9945699972097137
2013-01-07,1,0.001113099462459883,0.0013497620066934045,-0.0016254802422464392,0.008436292138935616,0.9942663461249526
2013-01-09,1,0.0017758819911353173,0.0021044922689635185,-0.0016254802422464392,0.008436292138935616,0.9943531817743094
2013-01-11,1,0.001962814876706096,0.0023422915961151952,-0.0026778042761695384,0.005734178242433276,0.9942749989225258
2013-01-15,1,0.0017942969304556963,0.0021049023712306214,-0.0026778042761695384,0.005847384171854812,0.9941108905662339
2013-01-17,1,0.0019535508940108255,0.0022793952644735178,-0.0047955125821093755,0.005991195204988888,0.9931691079243247
2013-01-22,1,0.0023303650586488237,0.0027006074856000964,-0.0047955125821093755,0.004823719734200835,0.9934109630290381
2013-01-24,1,0.001995104227817834,0.002320071418592187,-0.0032869390875865136,0.005006939517889951,0.9935882981023866
2013-01-28,1,0.0027946274349830947,0.0032349412216261097,-0.0047955125821093755,0.005006939517889951,0.9938425738334591
2013-01-30,1,0.002549641213762376,0.0029681811511353857,-0.0025960683459022235,0.007187818703222366,0.9940257029960368
2013-02-01,1,0.0026975091691490804,0.003134759967441187,-0.003968416701287987,0.007187818703222366,0.9936388194406288
2013-02-05,1,0.002410703819096038,0.002794398341279214,-0.003968416701287987,0.007481720287181785,0.9935604689601368
2013-02-07,1,0.0027545775670726226,0.0031496437909238296,-0.006929962119168159,0.007187818703222366,0.9932405247954331
2013-02-11,1,0.002394982185479663,0.0027433323110318333,-0.00405843339724235,0.007187818703222366,0.9935937503465088
2013-02-13,1,0.002620248643205432,0.0029950440836678974,-0.00405843339724235,0.007481720287181785,0.9933356373960976
2013-02-15,1,0.002901830864418663,0.0032515862521002624,-0.0025960683459022235,0.007412956879456878,0.9941309741824234
2013-02-20,1,0.0026633770401915126,0.0029648381782810818,-0.001953477951817965,0.007858205231336705,0.9938749426759399
2013-02-22,1,0.0023979778056602103,0.0026313839177387072,-0.0013888708456408754,0.008077587259794263,0.9935420772805169
2013-02-26,1,0.002478510387960566,0.0027349262084716977,-0.0011403787799381944,0.008077587259794263,0.9939498395165496
2013-02-28,1,0.0025929936808373275,0.0028357026084377766,-0.0011403787799381944,0.008077587259794263,0.9938604079362309
2013-03-04,1,0.0025264431636810095,0.0027809314494196616,-0.0011403787799381944,0.007858205231336705,0.9939329064261856
2013-03-06,1,0.002275631178566432,0.00248743164081574,-0.0011403787799381944,0.007028098749886492,0.9942451380286712
2013-03-08,1,0.0019406236980633576,0.0020993146527743295,-0.0011403787799381944,0.007028098749886492,0.9943651260650198
2013-03-12,1,0.0018283602069884316,0.0019634014827871267,-0.0011291412629392925,0.00787129703661954,0.9939242505936103
2013-03-14,1,0.002048400175127025,0.0022312492566248254,-0.0015435414453091449,0.007028098749886492,0.9940148069781983
2013-03-18,1,0.002397135657217001,0.0026481777793347545,-0.0017731879024012564,0.008102088435918925,0.9927096744438998
2013-03-20,1,0.0023564032002850776,0.002574559804623262,-0.004400291682368543,0.006367722944583946,0.9920456038491964
2013-03-22,1,0.002267859082066127,0.002446793060730434,-0.00498733419496675,0.006367722944583946,0.9917989227520947
2013-03-26,1,0.002328617137943548,0.0025270704424705274,-0.00498733419496675,0.007695493655191481,0.991065484793156
2013-03-28,1,0.0030430253753116433,0.0033452411365276595,-0.00498733419496675,0.007645074169195958,0.991414872795153
2013-04-02,1,0.0020261578629507736,0.0021528405677028336,-0.003805773515596067,0.011934142109754962,0.9913505902467362
2013-04-04,1,0.001761000865873225,0.0018207451462105952,-0.00498733419496675,0.011934142109754962,0.9908847649331923
2013-04-08,1,0.0015235785803343308,0.0015456017465502324,-0.0028157642042829804,0.011934142109754962,0.9911305256027428
2013-04-10,1,0.0015593192510427113,0.001559657987308547,-0.0028157642042829804,0.00899425777565219,0.99137086000809
2013-04-12,1,0.0008760000545982745,0.000985700074355216,-0.004679150601670491,0.00899425777565219,0.9911098800188276
2013-04-16,1,0.0009476368978654513,0.0010245346627698092,-0.004374113540681554,0.008887092868471464,0.9920977094635371
2013-04-18,1,0.0001699644023206618,0.0003182268733076706,-0.0010919518603510789,0.01148286075372516,0.9925976663218625
2013-04-22,1,0.00014671583021537058,0.0003216985356504242,-3.6909090647134664e-06,0.010008282809830717,0.9928583956234592
2013-04-24,1,0.0011776658558302288,0.0012115974833668119,-0.0010919518603510789,0.008404832806736191,0.9936874562565178
2013-04-26,1,0.0014374246903279227,0.0014503970718722455,-0.0010919518603510789,0.007890123147895261,0.9942892335518358
2013-04-30,1,0.0019454459316068683,0.0019896839300130604,-0.002726355212289003,0.006584703652519716,0.9944210283272856
2013-05-02,1,0.002068851476821105,0.002161244344721993,-0.002726355212289003,0.006435722651605772,0.9947018955851022
2013-05-06,1,0.0021857110900442385,0.0023244540986048726,-0.004580780309070862,0.005030230690797862,0.994591993705209
2013-05-08,1,0.00196444702064466,0.00201896868960939,-0.006001942542401674,0.003997088100064607,0.9933024098106717
2013-05-10,1,0.0016078995856602,0.001610473207358328,-0.005762939127140942,0.003997088100064607,0.9935697243944939
2013-05-14,1,0.001703746814898269,0.0017539195531162122,-0.005762939127140942,0.0036422416603436657,0.9938041221848745
2013-05-16,1,0.0017817908177530446,0.001840794501003228,-0.007413436067792149,0.002319490526292809,0.9935948781994908
2013-05-20,1,0.0018573382909413479,0.001907287145338886,-0.007413436067792149,0.002319490526292809,0.9928191560972607
2013-05-22,1,0.0013614646704142948,0.0013947755411632785,-0.007984572669459728,0.001711610520173105,0.9919376498795915
2013-05-24,1,0.001433490770253853,0.0014457819693811267,-0.010376717298417729,0.0021398047699261492,0.9906121299921455
2013-05-29,1,0.000894445608269071,0.0009612056778616241,-0.007984572669459728,0.004194701680385382,0.9903671351944631
2013-05-31,1,0.0006668198620856814,0.0007787590222307764,-0.007984572669459728,0.003639136497100746,0.9907412080587867
2013-06-04,1,0.0008582828049791968,0.0009216381387953833,-0.007984572669459728,0.004831510222061498,0.9904603834887185
2013-06-06,1,3.328251572307507e-06,0.00016933133073784645,-0.005804920704349846,0.008239388038495228,0.9911119632029965
2013-06-10,1,0.0006379119647632271,0.0007310400516698535,-0.005804920704349846,0.008980947402403863,0.9904929983711526
2013-06-12,1,0.00043590765470850933,0.0005469625779318781,-0.005804920704349846,0.010858024086750177,0.990095633688592
2013-06-14,1,0.0002854740544240684,0.0003978623596205432,-0.002649731582601014,0.010858024086750177,0.9905558283018506
2013-06-18,1,0.0008258074973502554,0.0008961784918385192,-0.005105137746042471,0.008239388038495228,0.9917400229252903
2013-06-20,1,0.00018380896328379094,0.0002891578404240012,-0.00042944598051667944,0.009135317497450309,0.9927039401874896
2013-06-24,-1,-0.0004602307466337847,-0.00024870718012798233,-0.00017692132418501902,0.009135317497450309,0.9937697130952766
2013-06-26,1,0.00048149452988398045,0.0005798493951126166,-0.0009602099530717365,0.0050793846570733195,0.9951669725810866
2013-06-28,1,0.00033718515366017664,0.0004679896757650902,-0.0033101870064611554,0.0050793846570733195,0.9948197149030461
2013-07-02,1,0.0005908079186884599,0.0006676012052806034,-0.0028976884625496117,0.004767400980295816,0.995048393724326
2013-07-05,1,0.000566777317571721,0.0006638738701083891,-0.0019953785438460493,0.004767400980295816,0.9954208809672983
2013-07-09,1,0.0009366072131490417,0.0009836279715983549,-0.002461877141096541,0.003434776375496364,0.9959165926756709
2013-07-11,1,0.0015610702555494305,0.0015889977273720757,-0.002461877141096541,0.003402930657958163,0.9962553275613294
2013-07-15,1,0.0014408635219754016,0.0014456537831201127,-0.002461877141096541,0.003402930657958163,0.9962016846486734
2013-07-17,1,0.0011300113277214587,0.0011632073847641757,-0.002461877141096541,0.0045081868797636655,0.9957448343826147
2013-07-19,1,0.0010301414247011816,0.0010677504012518541,-0.0028976884625496117,0.003402930657958163,0.9946827065889303
2013-07-23,1,0.0012579828332252999,0.0012743539125672377,-0.0035187651665578605,0.0045081868797636655,0.9940904606493234
2013-07-25,1,0.0010714513828602467,0.0010877241299350987,-0.004759663768787359,0.00693939939410469,0.9932888424747177
2013-07-29,1,0.0004016225512851913,0.0005057798857210074,-0.003160655529654863,0.00693939939410469,0.9934647032835991
2013-07-31,1,0.00035836277977695864,0.0004750429633988446,-0.0036853348580783664,0.005811850382151342,0.9929085350492663
2013-08-02,1,0.0005398264314904418,0.0006390611252799742,-0.005761318694774286,0.0041868961917517315,0.99267399164238
2013-08-06,1,0.000527870326989738,0.0006307173674573851,-0.007562198878153481,0.0041868961917517315,0.9924071345280747
2013-08-08,1,0.0008910964169913272,0.0009439827837680005,-0.007562198878153481,0.002071927280156006,0.9924221740464964
2013-08-12,1,0.0009391147461657139,0.0009747523198173171,-0.007562198878153481,0.0059817818734329365,0.9917004264272248
2013-08-14,1,0.0008300244293867382,0.0008660886387385025,-0.0053701660747316965,0.00524240184987633,0.9922259885367931
2013-08-16,1,0.00043075738394951794,0.0005134597570949759,-0.004751454878268371,0.0059817818734329365,0.9932779635223797
2013-08-20,1,0.0007630264616200466,0.0007814145762359396,-0.004827120110554588,0.0059817818734329365,0.9924004192013561
2013-08-22,1,0.00021813313177481715,0.0003330710875289421,-0.004471006126428115,0.00524240184987633,0.9932581933605917
2013-08-26,1,7.997310309316844e-05,0.00021137356513564157,-0.004827120110554588,0.002607355350480582,0.9932279893675279
2013-08-28,-1,-0.0005540543967365143,-0.0003430599631259523,-0.004827120110554588,0.005803528563313644,0.9936195476247432
2013-08-30,-1,-0.0009415787010986662,-0.0007098376931214393,-0.004827120110554588,0.005803528563313644,0.9939286774885049
2013-09-04,-1,-0.001139097835416494,-0.0008751130585915483,-0.004827120110554588,0.007862406474628277,0.9935156269797661
2013-09-06,-1,-0.001489239842795689,-0.0011789307520722568,-0.005229926921227104,0.007862406474628277,0.9928913632413432
2013-09-10,-1,-0.0014456930474454112,-0.0010892196810135912,-0.0060755681908424165,0.004613412331717667,0.9934884528864795
2013-09-12,-1,-0.00129838465828805,-0.0009732076631166509,-0.0060755681908424165,0.0052572583265760075,0.9926660860374349
2013-09-16,-1,-0.0003323382312161594,-0.00018847192783339362,-0.0060755681908424165,0.0052572583265760075,0.992515748875445
2013-09-18,1,0.0007292547998046233,0.0007385083432934681,-0.007012331295749831,0.0052572583265760075,0.9927381680662085
2013-09-20,1,0.0006840061258915411,0.0006984053024178016,-0.007012331295749831,0.007862406474628277,0.9924190630386043
2013-09-24,1,0.00030323665533992775,0.0003441337597664202,-0.007012331295749831,0.009064304277766866,0.9923896235428326
2013-09-26,1,0.00047868217242488976,0.0004957362681415442,-0.004455787486070959,0.009064304277766866,0.9927701297468914
2013-09-30,1,0.0002948406565931005,0.0003204730118523176,-0.0012429946127948815,0.009467552603070964,0.9928600427429983
2013-10-02,0,-7.727353663415523e-05,7.06653886847655e-06,-0.003404862130695593,0.009467552603070964,0.9924775456009364
2013-10-04,-1,-0.00014165414698545282,-7.335439531851252e-05,-0.0012429946127948815,0.01156102000459407,0.9920661798994341
2013-10-08,-1,-0.0003524077803453331,-0.0002714348192591723,-0.0010878485211740267,0.01156102000459407,0.9924015538117495
2013-10-10,1,0.000547639112152568,0.0005989907684201661,-0.0010878485211740267,0.009467552603070964,0.9930550405580704
2013-10-14,1,0.0006058592457868027,0.0006442082131181897,-0.0010878485211740267,0.009467552603070964,0.992755849612798
2013-10-16,1,0.0008344513909811287,0.0009144441788393211,-0.0010878485211740267,0.008813100224104612,0.9929911410814733
2013-10-18,1,0.0008381404939391042,0.0008830863136002942,-0.0010878485211740267,0.009023859630142031,0.9925118219267433
2013-10-22,1,0.0013656867941423934,0.0014825499815382403,-0.001971208467393972,0.008813100224104612,0.9927232630061984
2013-10-24,1,0.0012608333705866703,0.0013590425890117235,-0.001971208467393972,0.008813100224104612,0.992718814201945
2013-10-28,1,0.0009296215273054758,0.0009470157396552475,-0.0041785861592961125,0.008337503356003426,0.9922793743616573
2013-10-30,1,0.0005338184305968725,0.0005616149640547032,-0.0016390980933500853,0.008337503356003426,0.993336501599674
2013-11-01,1,0.0013663890776336128,0.001424659350281426,-0.0020819316539799145,0.007279449481024054,0.9938843639426329
2013-11-05,1,0.001153962933466662,0.0011708481268336256,-0.004088450638217395,0.007279449481024054,0.9934887359020902
2013-11-07,1,0.0011520436550377215,0.0012208114064044533,-0.0035429947364986575,0.008337503356003426,0.993265304475635
2013-11-11,1,0.001073394581534898,0.0010805000337800294,-0.004245678947473913,0.007279449481024054,0.9937597351067856
2013-11-13,1,0.0009700031453700669,0.0010041646631855801,-0.004245678947473913,0.006226591595532934,0.9936595965847637
2013-11-15,1,0.002078121683966245,0.002237016390754251,-0.004487021383877457,0.0017883611648935789,0.9939156465694167
2013-11-19,1,0.002081071986971056,0.0022434429614360436,-0.005246458367944362,0.0017883611648935789,0.9934546010801582
2013-11-21,1,0.002247700591013605,0.0024277334645863243,-0.005246458367944362,0.0014874475839808065,0.993049089931646
2013-11-25,1,0.0020828009354068085,0.0022551520266106337,-0.004487021383877457,0.0029532642446953084,0.9935465645326352
2013-11-27,1,0.0022227895958308558,0.0024317196036622384,-0.004487021383877457,0.0029532642446953084,0.9935214747468998
2013-12-02,1,0.001824396740042812,0.0020110851956509313,-0.004095622536213096,0.0029532642446953084,0.9943756860289776
2013-12-04,1,0.001613603813652972,0.0017727374146968241,-0.004095622536213096,0.0029532642446953084,0.9941326087116349
2013-12-06,1,0.0016144395141859773,0.0017595675904697459,-0.004095622536213096,0.0029532642446953084,0.9940767870555397
2013-12-10,1,0.0015248680161976578,0.0016740194653811224,-0.004730344360912355,0.0029532642446953084,0.9940292917054462
2013-12-12,1,0.001071141503293846,0.0011623484426582596,-0.004730344360912355,0.0029532642446953084,0.9942034671699213
2013-12-16,1,0.0009693894342631048,0.0010421705100243047,-0.0035356860294759856,0.0047544340839430635,0.9941309661392514
2013-12-18,1,0.0008619267580043969,0.0008929083957215174,-0.0035356860294759856,0.004702314111352204,0.994379702919965
2013-12-20,1,0.0013514994996020096,0.0014553272500594727,-0.005130202200463563,0.002063723367368076,0.9943320280724132
2013-12-24,1,0.0017834600370173928,0.0019651297093088234,-0.008163137784070587,-0.0002254355014189612,0.993057403767103
2013-12-27,1,0.0016718030397457986,0.001837970466555319,-0.008163137784070587,-0.0005575547876343364,0.9929095072296451
2013-12-31,1,0.0017348593573023583,0.0019301720686655647,-0.00912908834046617,-0.0015878824154113955,0.9917983553235874
2014-01-03,1,0.0012377037601969862,0.00137564170278918,-0.00912908834046617,-0.0015911449500524474,0.9919052584240157
2014-01-07,1,0.0010218998567828456,0.0011222287284048205,-0.007962595393079575,0.0010919816299143187,0.9923829878440347
2014-01-09,1,0.0003645884656038454,0.00038780249416857447,-0.007962595393079575,0.006118342973773184,0.9915863253317069
2014-01-13,-1,-8.591566588183063e-05,-1.8589384948987814e-05,-0.005562734537583949,0.006118342973773184,0.9920474111130735
2014-01-15,-1,-0.0001380706090745276,-5.269907659761339e-05,-0.005562734537583949,0.006317965516297376,0.9919397365209607
2014-01-17,-1,-0.00016871136430970875,-8.21376423421292e-05,-0.005884718056382477,0.007266562944875669,0.9900384593931228
2014-01-22,-1,-0.0009397898529333073,-0.0007231313545990012,-0.009269500846369435,0.007266562944875669,0.9896662793998953
2014-01-24,-1,-0.00216119427256795,-0.0017750318713331513,-0.004775989599328913,0.007266562944875669,0.9905448967606021
2014-01-28,-1,-0.0022773385028468478,-0.0018658772018983025,-0.005650340830871616,0.007266562944875669,0.9900925966076597
2014-01-30,-1,-0.0020870536655719254,-0.0016854878112542908,-0.005476093382736811,0.007266562944875669,0.9900041912468939
2014-02-03,-1,-0.0025912166418856552,-0.0021684896513569267,-0.005149035642831661,0.007266562944875669,0.9904056880019744
2014-02-05,-1,-0.0019890045016632673,-0.001637975171762777,-0.005149035642831661,0.005655366919960414,0.9911920581695206
2014-02-07,-1,-0.0008172935587636598,-0.0006170136165567266,-0.005149035642831661,0.0027482730459026474,0.9927298247708439
2014-02-11,-1,-0.0005786312723627663,-0.0004405667990073614,-0.005628291973715218,0.0021871899741429147,0.9923151383831728
2014-02-13,-1,-0.00014995047540295006,-5.349587346031761e-05,-0.005628291973715218,0.0021871899741429147,0.9921076604313686
2014-02-18,-1,-0.0017404365904404194,-0.0014473046868549839,-0.005149035642831661,0.0027482730459026474,0.9941626932615318
2014-02-20,-1,-0.0021524138365533216,-0.0018101528253535184,-0.0036485511603223083,0.0027482730459026474,0.9947422628285103
2014-02-24,-1,-0.0022590415223831513,-0.001891442034992774,-0.005326289186134096,0.0027482730459026474,0.9945764925911244
2014-02-26,-1,-0.002548930224163197,-0.002138539895547625,-0.0046512565351545755,0.0029436720104048402,0.9948348942171786
2014-02-28,-1,-0.002096923142372073,-0.0017321934889106307,-0.0036485511603223083,0.004798867161670724,0.9952930689390159
2014-03-04,-1,-0.0026054331814933836,-0.0021632459347478345,-0.003342463348245982,0.0060946052159168455,0.9943861926467696
2014-03-06,-1,-0.0023179855506119916,-0.0019323113495840075,-0.0036044787288950163,0.0060946052159168455,0.9941213089063198
2014-03-10,-1,-0.0021005820336311423,-0.0017584541867772007,-0.004637665238220706,0.0060946052159168455,0.9942077396969498
2014-03-12,-1,-0.0026955052151005016,-0.002292014674188371,-0.0036044787288950163,0.006115839236216799,0.9942385905176648
2014-03-14,-1,-0.002097986645332128,-0.0017877009236278696,-0.005285515295332487,0.0060946052159168455,0.9941038614013357
2014-03-18,-1,-0.0013429887210944205,-0.0011440305493008456,-0.005285515295332487,0.003865705488126974,0.9942403644570929
2014-03-20,-1,-0.0015860769420229857,-0.001364858871585844,-0.005285515295332487,0.006654494023722665,0.993333603336861
2014-03-24,-1,-0.0018517128508729,-0.0016157847460515785,-0.0035070010300388287,0.006654494023722665,0.993498469373666
2014-03-26,-1,-0.0022117989671483953,-0.0018880339242694946,-0.0035070010300388287,0.008554954137191794,0.9924670780905462
2014-03-28,-1,-0.0008725346158176733,-0.0007554573927679979,-0.0035070010300388287,0.008614281761506457,0.9923866775592499
2014-04-01,-1,-0.0003653250731216202,-0.0003083668195781251,-0.0033238092320076766,0.008614281761506457,0.9929761050602176
2014-04-03,-1,-0.0005580484952440968,-0.00046400687037173594,-0.0033238092320076766,0.008614281761506457,0.9930628612322683
2014-04-07,-1,-0.00024716524553618766,-0.00022193707225516232,-0.0033238092320076766,0.008614281761506457,0.9927289262586353
2014-04-09,1,6.177277176283309e-05,8.075840732115597e-05,-0.0033238092320076766,0.008448201150896712,0.9927004886852968
2014-04-11,-1,-0.00011037960704972477,-6.015732069643051e-05,-0.002795608051457938,0.008448201150896712,0.9935537637352471
2014-04-15,1,0.00016385289276415462,0.0002520907603665831,-0.002795608051457938,0.006168942815901314,0.9936495727898765
2014-04-17,1,0.0007541914031860742,0.000939746676527848,-0.0028756565040924586,0.004811803242718072,0.9944894719808166
2014-04-22,1,0.0006549859089708687,0.0008163943039005909,-0.0028756565040924586,0.004811803242718072,0.9941751194163436
2014-04-24,1,0.0013891614703195965,0.0016515028139815614,-0.003406033948837109,0.004811803242718072,0.9946605816022918
2014-04-28,1,0.0018613955154177086,0.002159299486499555,-0.003406033948837109,0.0031871058869050724,0.9950038168469633
2014-04-30,1,0.0021616467988926037,0.0024888715927186313,-0.003406033948837109,0.0031871058869050724,0.994934261723574
2014-05-02,1,0.0020650711497584833,0.0023862670897601174,-0.0027483623055556943,0.005255461926528494,0.9952598145057291
2014-05-06,1,0.0015554946360543157,0.0017973114900612752,-0.003194208173062628,0.005255461926528494,0.9952011696591907
2014-05-08,1,0.0017310733944044896,0.001968428164229976,-0.003194208173062628,0.0035197239790988747,0.9953573074428943
2014-05-12,1,0.0014633681426235766,0.001658486652642451,-0.0026785281573765375,0.005255461926528494,0.9954535719396242
2014-05-14,1,0.001708343931348495,0.0019506720178484277,-0.0035334183503807305,0.0035336285528985434,0.9949315989637695
2014-05-16,1,0.0019641662535439257,0.002272490531159588,-0.0033169459121322265,0.0035336285528985434,0.9952416528255322
2014-05-20,1,0.0018257624515999875,0.0021369112538425655,-0.0026785281573765375,0.005497963457606691,0.9956240732333359
2014-05-22,1,0.0018559870382526677,0.0021670481671229413,-0.0018202558236573574,0.005919979329664416,0.9958675473372174
2014-05-27,1,0.002078618668231274,0.002418085024590932,-0.0019688711128263356,0.0036743005102511184,0.9959056823008907
2014-05-29,1,0.002185556134619079,0.0025160842620816385,-0.0019688711128263356,0.0029186472173796493,0.9962021235905081
2014-06-02,1,0.0023368528023455623,0.0026805907811257765,-0.0026209788202915113,0.0026161545843601387,0.9958175639220196
2014-06-04,1,0.0018301474073902637,0.0020896054558623713,-0.001801072711295682,0.0026161545843601387,0.9963864231629064
2014-06-06,1,0.0015997885089059586,0.001803370487814972,-0.002790445437233066,0.0032289218537149226,0.9961779291047476
2014-06-10,1,0.0019047499715420012,0.002150777971567011,-0.0039857286925043065,0.0023033353245872044,0.9958647222167308
2014-06-12,1,0.001471262690147064,0.001664025123432054,-0.0016304973709859083,0.0027850958873213414,0.9966364562519204
2014-06-16,1,0.001322105422335542,0.0014736146159665708,-0.0016304973709859083,0.0027634401000585914,0.996713684546845
2014-06-18,1,0.0012668906203685839,0.0013605805665508836,-0.002790445437233066,0.002644412092624272,0.9961437101104744
2014-06-20,1,0.0013445156961875925,0.001443561790511077,-0.002790445437233066,0.002644412092624272,0.9960031120547916
2014-06-24,1,0.0012210374007236523,0.001312028386493371,-0.002790445437233066,0.002644412092624272,0.9960759199886297
2014-06-26,1,0.0007442332844923045,0.0007632812618396968,-0.0040365308132999005,0.002644412092624272,0.9958705292314385
2014-06-30,1,0.001039685779699535,0.0010878626426973864,-0.004745022373040551,0.002644412092624272,0.9942829405892489
2014-07-02,1,0.0011033538662513723,0.0012169059636743032,-0.004745022373040551,0.002644412092624272,0.9939369234756537
2014-07-07,1,0.0011442287687103202,0.0012601657039804175,-0.004863255131714138,0.002644412092624272,0.9937003601476648
2014-07-09,1,0.0010152216238943574,0.0011349820384752522,-0.004863255131714138,0.002644412092624272,0.993728145831463
2014-07-11,1,0.00042834908895537943,0.00047213198137756367,-0.004863255131714138,0.002644412092624272,0.9925699584849181
2014-07-15,1,0.0004545644913904875,0.000512263715954805,-0.004863255131714138,0.0031471818801738546,0.9924392792544866
2014-07-17,0,-1.2522989793845246e-05,9.718450778931184e-05,-0.004745022373040551,0.0035659137044059446,0.9928647775414999
2014-07-21,1,0.0001745460761939023,0.00027170118206149403,-0.004745022373040551,0.0035659137044059446,0.9929901680135221
2014-07-23,1,0.00026445369816207264,0.0003243592778209576,-0.004310513298710636,0.004929798429029184,0.9926585046139282
2014-07-25,-1,-0.00014562736252728646,-1.5987005583952918e-05,-0.004316133896500656,0.004929798429029184,0.992618263524179
2014-07-29,1,0.0013129032624881374,0.0013628336065825114,-0.004094119819950634,0.004522063075916785,0.9947540219050495
2014-07-31,1,0.000574309342923279,0.0006139994738407896,-0.0015870499391216076,0.004929798429029184,0.9949377567766159
2014-08-04,0,-4.251827031494324e-06,0.00013552029508513176,-0.0007712900292078592,0.005378588107941058,0.9950661476658607
2014-08-06,0,-0.00011812845729085753,2.0663633688914522e-05,-0.0008103907906114012,0.005378588107941058,0.994956904597557
2014-08-08,1,0.0008834711436037051,0.0008904483102722734,0.00015777388302205928,0.004929798429029184,0.9964586619964185
2014-08-12,1,0.0008365209605781499,0.0008665681175210483,-0.0008103907906114012,0.005378588107941058,0.996225830993067
2014-08-14,1,0.0006662930656639259,0.0007472955383466932,-0.0023309114365792387,0.005378588107941058,0.9959475932322951
2014-08-18,1,0.0006355535320839602,0.00072448291443861,-0.0023309114365792387,0.005447659755713372,0.9958638524705206
2014-08-20,1,0.00121343877197534,0.0012197113573506355,-0.0023309114365792387,0.0033097908787003503,0.9963678172858846
2014-08-22,1,0.0011239043390240645,0.0011446820061429869,-0.0023309114365792387,0.0033097908787003503,0.9963289139903513
2014-08-26,1,0.0011382659853359394,0.0011578165819881886,-0.003083931613381104,0.0042630713192783765,0.9956472779525258
2014-08-28,1,0.001075860736129508,0.0010824635124827159,-0.003552278936608218,0.004213372094852761,0.9953743509947057
2014-09-02,1,0.0013944628176164962,0.0014411857197484871,-0.003552278936608218,0.0038865959961033743,0.9954929912265391
2014-09-04,1,0.0005249683313014578,0.0006168482421346983,-0.003552278936608218,0.0038865959961033743,0.9954810996590822
2014-09-08,1,0.0007797346677484054,0.0008321781429581268,-0.003552278936608218,0.004989794735461651,0.9951333776484909
2014-09-10,1,0.0011383146885261273,0.0011385488691904068,-0.004292022532652843,0.004989794735461651,0.9938385985919344
2014-09-12,1,0.0004422481184540334,0.0005314417719385325,-0.004292022532652843,0.004989794735461651,0.9936465306111255
2014-09-16,1,0.001100111051029321,0.0011266710269708542,-0.004292022532652843,0.00322267315970282,0.9934915613219498
2014-09-18,1,0.0012205696821700816,0.0013283222202699757,-0.004655020200126835,0.00322267315970282,0.993213570470506
2014-09-22,1,0.0011296792948348798,0.0012545974374638248,-0.004154164982300309,0.004989794735461651,0.9931456328179086
2014-09-24,1,0.0011632613331965843,0.001272785356653355,-0.004012678739371729,0.004989794735461651,0.9931267225722334
2014-09-26,1,0.0007832662166127112,0.0008126926483952299,-0.0033731852092854964,0.005819581414730142,0.9933139787878329
2014-09-30,1,0.0011298903149058429,0.0012271984617799217,-0.0033731852092854964,0.006998116123598727,0.9931659393168258
2014-10-02,1,0.0007406779765894616,0.0007719071736826921,-0.0033731852092854964,0.009513639244508784,0.992167972320008
2014-10-06,1,0.0008771811742963485,0.0009354407255183073,-0.004012678739371729,0.00757463707567421,0.9921349441724029
2014-10-08,1,0.00091465383443164,0.0009627989390114933,-0.004012678739371729,0.00757463707567421,0.9929972213715597
2014-10-10,1,0.00010113508283431292,0.00017354551954253182,-0.0033731852092854964,0.00757463707567421,0.9933327888912626
2014-10-14,-1,-0.00020991913358370912,-0.0001058170047799114,-0.0017804145212850081,0.00757463707567421,0.9934508999585501
2014-10-16,1,4.064297168148752e-06,7.246110181590064e-05,-0.0014854414765140675,0.00757463707567421,0.9936957373723931
2014-10-20,1,0.00032910185192634874,0.00034180400097000177,-0.0017675748977292484,0.006966566168939514,0.9939773110524859
2014-10-22,1,0.0007380795801092319,0.0007938490873678561,-0.003358716593601851,0.0064143963384405926,0.9941596400862082
2014-10-24,1,0.0009099823606688705,0.0009639597117268843,-0.005095385854154546,0.0049102330592213994,0.9943986477586135
2014-10-28,1,0.001088640084642703,0.0011664303736781227,-0.005095385854154546,0.004376716843452743,0.9944273558168097
2014-10-30,1,0.001504369052087196,0.0016474465624975211,-0.003701175740148765,0.004024078391973681,0.9957177745703718
2014-11-03,1,0.0009935056563459383,0.0010340833734044977,-0.003696845711412527,0.004024078391973681,0.9958961048190934
2014-11-05,1,0.0012672613094823558,0.001350658146122924,-0.002791971852164101,0.004024078391973681,0.996354121552385
2014-11-07,1,0.0015745013863981815,0.0017025002763312548,-0.003696845711412527,0.003142792926352159,0.9962495298782273
2014-11-11,1,0.0015064941257734072,0.0016356806016550498,-0.004977363836643998,0.003142792926352159,0.9958142974942987
2014-11-13,1,0.001303983078117993,0.0013928934353457142,-0.0051262202913967166,0.003952808798573047,0.9949840906186326
2014-11-17,1,0.001123032947153533,0.0011843910893891245,-0.004977363836643998,0.004736088796594601,0.9946147210143496
2014-11-19,1,0.0006826596370262823,0.0006829313846877205,-0.004929383712792095,0.006079572432134109,0.9937846744117185
2014-11-21,1,0.0005055074530313679,0.0005398863960146664,-0.003696845711412527,0.0066233573755505055,0.9938103248457724
2014-11-25,1,0.0005278381927831452,0.0005550280825050841,-0.002410999413364664,0.0066233573755505055,0.9939821516257994
2014-11-28,1,0.00029710589231237566,0.0003712400262593184,-0.002410999413364664,0.0066233573755505055,0.993800633634775
2014-12-02,1,0.0005048789659822376,0.000543433023507439,-0.0024399246652887147,0.006103637505199035,0.9941220441931606
2014-12-04,1,0.000671286670839349,0.0006899041198998522,-0.005051149506207436,0.006103637505199035,0.9936266960309599
2014-12-08,1,0.00018885651792355723,0.0002894825847462733,-0.0024399246652887147,0.006103637505199035,0.9939845308630254
2014-12-10,0,-4.11215186494066e-05,6.987735053005592e-05,-0.0011255130219732024,0.007116365867204665,0.9935439569835806
2014-12-12,-1,-0.0003743432399315207,-0.0002128182206785465,-0.0010233484209346859,0.006103637505199035,0.994348663681541
2014-12-16,1,0.00010321804496429094,0.00022125437067181393,-0.0010233484209346859,0.004388032115915088,0.9951166233156579
2014-12-18,1,0.0014886735870997046,0.0016094453608953693,-0.0010233484209346859,0.006042016592680069,0.9956705029575594
2014-12-22,1,0.0012257354700593716,0.0012748623839327281,-0.0010233484209346859,0.004388032115915088,0.9958266433883296
2014-12-24,1,0.0010719982430822663,0.0010949972956809553,-0.00014634533211643546,0.004582244393738141,0.9956870278854947
2014-12-29,1,0.0010149979918900277,0.0010178108528883212,-0.0018371546538933684,0.004582244393738141,0.9953176328931317
2014-12-31,1,0.0007091101445260792,0.0007158913601332818,-0.0021327993166349877,0.004582244393738141,0.9944385285674529
2015-01-05,1,0.000843046496894853,0.000873250144666802,-0.0014140846995575184,0.004582244393738141,0.9946605817419709
2015-01-07,1,0.0009308690316608504,0.0009764469399277351,-0.0014140846995575184,0.006187341602434407,0.9942968764936111
2015-01-09,1,0.0009512300985521748,0.0010029545461211846,-0.0014140846995575184,0.004582244393738141,0.9949838031669667
2015-01-13,1,0.0009145085486462307,0.0009761922423674172,-0.0019464307390946677,0.004582244393738141,0.9948128932212987
2015-01-15,1,0.001137589761002871,0.0012121187413934491,-0.0027528567227077198,0.004013752350656447,0.9936444875200311
2015-01-20,1,0.001973382279566474,0.002129665496266665,-0.0027528567227077198,0.004013752350656447,0.9915088041165312
2015-01-22,1,0.0016815140233728,0.001803267324070075,-0.0027528567227077198,0.004013752350656447,0.9914896506137626
2015-01-26,1,0.001877192286789356,0.0020307639455094373,-0.0027528567227077198,0.0028067790814233556,0.9914824316975928
2015-01-28,1,0.0012160842985785307,0.0012615444867162076,-0.0027528567227077198,0.0028067790814233556,0.9918792035231913
2015-01-30,1,0.0009223492685200099,0.0009371735665152211,-0.0020384942819706786,0.004461325279073954,0.9926603197173482
2015-02-03,1,0.0016782404420479942,0.0017911568165843539,-0.0021592489277254957,0.004267569872157591,0.9930314520844834
2015-02-05,1,0.0014545249043724123,0.0015005703919422648,-0.003379672010043719,0.0033483659733075603,0.9919527289156963
2015-02-09,1,0.0014873040315510344,0.0015555042023924158,-0.00444107399854008,0.0033483659733075603,0.9913651074467607
2015-02-11,1,0.0012873799183421273,0.0013285707633066842,-0.00444107399854008,0.004267569872157591,0.9911059097443297
2015-02-13,1,0.0010548385893611862,0.0010567161629535134,-0.004216825729234252,0.006210197343745106,0.9914682034166628
2015-02-18,1,0.0030170444375476504,0.00327945252101549,-0.004216825729234252,0.004753303480655831,0.9936869181599128
2015-02-20,1,0.0026678498564892965,0.002867337538445639,-0.00426467853476078,0.004753303480655831,0.993410782174242
2015-02-24,1,0.002545583455508375,0.0027279731569190245,-0.0048496067263488155,0.006208018606881832,0.9931293648331845
2015-02-26,1,0.0020482713813313284,0.00214515595048711,-0.006765633383730424,0.006208018606881832,0.9922673410171516
2015-03-02,1,0.002288313966693458,0.0024166446097632927,-0.006765633383730424,0.006208018606881832,0.9919511468763015
2015-03-04,1,0.0022650733547842855,0.0023983311192918625,-0.008993097299069499,0.004944880150708921,0.9916271976455391
2015-03-06,1,0.0011973183091635799,0.0012339465526822054,-0.005776888049784949,0.006984962090529892,0.9925993492876526
2015-03-10,1,0.0005777053849953374,0.0007076721186590039,-0.004529652845989935,0.006984962090529892,0.993101298651217
2015-03-12,1,0.0010042258947795203,0.0010853089608979418,-0.003877791103314984,0.006639844904598995,0.9933194816735572
2015-03-16,1,0.0015249838907089332,0.0015443546762801289,-0.005776888049784949,0.005142926668576628,0.9934632321710694
2015-03-18,1,0.001793315779134269,0.0018187799618379582,-0.005776888049784949,0.004219964891088726,0.9935136093787136
2015-03-20,1,0.0015643763204237764,0.0015781570405541425,-0.006368558214484418,0.004219964891088726,0.9930313602177974
2015-03-24,1,0.001503278143719298,0.0015144617322488867,-0.006215672944175327,0.00363065153378622,0.9931179498157324
2015-03-26,1,0.0013229467109006046,0.001333901687023854,-0.004462714734044691,0.00363065153378622,0.9943001324044705
2015-03-30,1,0.0016121236861043032,0.0016483580537441278,-0.004954617499712227,0.0034525318967240704,0.9943003097779763
2015-04-01,1,0.0011191484109230668,0.00113475393950074,-0.005834733513027607,0.003180008578935093,0.9922055520058609
2015-04-06,1,0.0016587678938123265,0.0017251143071415407,-0.005834733513027607,0.002758759785524923,0.9919439356742764
2015-04-08,1,0.0014098590454302957,0.0014350527248620552,-0.007265133380921319,0.0016597778272506593,0.9908107185998685
2015-04-10,1,0.0015162166035526377,0.0015560891911689436,-0.007265133380921319,0.0016597778272506593,0.9903690567244463
2015-04-14,1,0.0008070670733558585,0.0008641579820623996,-0.007019211011419525,0.002182222789309468,0.991466652654033
2015-04-16,1,0.00046227402201100856,0.0005817022028492714,-0.007019211011419525,0.002846205781774702,0.9913515222015248
2015-04-20,-1,-0.0003604212686703814,-0.0001385617935596281,-0.005347778302169935,0.0025198878434126142,0.9924696075225115
2015-04-22,-1,-0.0006731469300702295,-0.00040881861005715543,-0.005347778302169935,0.0025198878434126142,0.992650404100459
2015-04-24,-1,-0.0007244581638622456,-0.0004535777348988743,-0.005347778302169935,0.004354102929564343,0.9922980896031823
2015-04-28,-1,-0.0009562773090338742,-0.0006565043054607395,-0.005347778302169935,0.005857482091342668,0.9920568947480838
2015-04-30,-1,-0.002447846257131803,-0.0019879694138402806,-0.002815772802935933,0.005857482091342668,0.9943528927076661
2015-05-04,-1,-0.002381021305570029,-0.0019225539525366895,-0.002815772802935933,0.0030210142306720555,0.9948994418544853
2015-05-06,-1,-0.003323359054524082,-0.0027380652650374733,-0.002815772802935933,0.0030210142306720555,0.9950479928633104
2015-05-08,-1,-0.002934362486784576,-0.002385765410148036,-0.003025480472613637,0.0018663021270494023,0.9961003825438902
2015-05-12,-1,-0.002468055575059778,-0.0020043218273951943,-0.0030714320131714256,0.0019126192799827034,0.9962996158616237
2015-05-14,-1,-0.0016252198845974311,-0.001321927567583558,-0.0030714320131714256,0.0012277944825223356,0.9966335605698817
2015-05-18,-1,-0.0015461078490545787,-0.0012551733288095528,-0.004100726650995439,0.0012277944825223356,0.9960735237019569
2015-05-20,-1,-0.0016886527258214207,-0.0013809583910215993,-0.004100726650995439,0.001831118933535742,0.9955431219870685
2015-05-22,-1,-0.0013657162932377924,-0.0011077578066284884,-0.00572359423592001,0.0017084318353243724,0.9955508921541928
2015-05-27,-1,-0.0016377495393653724,-0.0013379359357912114,-0.00572359423592001,0.001193041147859111,0.995900380816003
2015-05-29,-1,-0.0017962230621477002,-0.001472548014579095,-0.00572359423592001,0.0017084318353243724,0.9956656957186782
2015-06-02,-1,-0.0018543119658906769,-0.0015282703254724354,-0.006578099566792096,0.001193041147859111,0.9952196673038628
2015-06-04,-1,-0.0023145355888550085,-0.0019377160849551615,-0.005043586986994601,0.0017268589295460683,0.9955966398918277
2015-06-08,-1,-0.0024544910253471272,-0.002058127665962608,-0.0039123067992982005,0.0020588638499733215,0.994997485420601
2015-06-10,-1,-0.0022817061595057173,-0.0019142520759422622,-0.004568616561048536,0.002300634340660027,0.9946997765761251
2015-06-12,-1,-0.0019513679846144979,-0.0016554539744254755,-0.004568616561048536,0.0035314043546685087,0.9939069599469962
2015-06-16,-1,-0.0023839736427359094,-0.002039424611080067,-0.004202914026909428,0.004643081999708224,0.9937944097280079
2015-06-18,-1,-0.00184122956408154,-0.0015713590714839395,-0.004568616561048536,0.004643081999708224,0.9937322323859423
2015-06-22,-1,-0.002478024246512376,-0.002119393846056577,-0.004568616561048536,0.004643081999708224,0.9939809538592832
2015-06-24,-1,-0.0031944973736272083,-0.002714378107292306,-0.004568616561048536,0.008080275393228017,0.9925367967739821
2015-06-26,-1,-0.0026638492807514605,-0.0022932355979954555,-0.004623054901183379,0.008080275393228017,0.9923811863221733
2015-06-30,-1,-0.0029081288454823667,-0.002517264729321785,-0.004202914026909428,0.010863417528453715,0.9911745612125894
2015-07-02,-1,-0.002911186990173768,-0.0025205585893265095,-0.004202914026909428,0.010863417528453715,0.9907972028426623
2015-07-07,-1,-0.002191832151677405,-0.001884600588911991,-0.004623054901183379,0.010863417528453715,0.9913711267797142
2015-07-09,-1,-0.002772651823519565,-0.0024811061596970987,-0.005148441646020155,0.011457762832853125,0.9906267489675348
2015-07-13,-1,-0.0009910960234670346,-0.0009733110020979899,-0.005148441646020155,0.011457762832853125,0.9908614608999524
2015-07-15,-1,-0.0006601361623077807,-0.0006021598951926196,-0.005148441646020155,0.010863417528453715,0.9912697451098857
2015-07-17,-1,-0.0003700734428008672,-0.00027103777870643377,-0.004510012431136702,0.010087841723870282,0.9917189131327936
2015-07-21,-1,-0.0005925164537950659,-0.0005293886034581801,-0.0021042465879725185,0.010087841723870282,0.991571957923913
2015-07-23,1,0.0005501357741976124,0.0007941401066970459,-0.0014997802919842964,0.008063560560987828,0.9937163359068069
2015-07-27,1,0.0007329952622102686,0.0010240388873073182,-0.002502042906436617,0.008063560560987828,0.9912624487774855
2015-07-29,1,0.0019735570020735383,0.0022398777103882247,-0.004850124393722378,0.006838037949067785,0.992044857124685
2015-07-31,1,0.0018524274340145951,0.002079937403351391,-0.004850124393722378,0.006838037949067785,0.9920821163499248
2015-08-04,1,0.0019804408881766915,0.0022363371283180885,-0.0048537214657121555,0.006838037949067785,0.9914863442365921
2015-08-06,1,0.002113717375294576,0.002433526405555648,-0.0033194158247708085,0.007206795827292115,0.9919641596052893
2015-08-10,1,0.002646518419146926,0.003077701352921721,-0.00385769549608168,0.007206795827292115,0.9917087003876908
2015-08-12,1,0.00288559044720625,0.00333043990190917,-0.006677437694348064,0.007206795827292115,0.9906940014106561
2015-08-14,1,0.003012263108247652,0.003474671869487673,-0.006677437694348064,0.007206795827292115,0.9906546885150606
2015-08-18,1,0.003305649914418711,0.0037698114466759654,-0.006677437694348064,0.005688887759378328,0.9906560976624517
2015-08-20,1,0.0036554548136231548,0.004191928867075503,-0.006677437694348064,0.005688887759378328,0.990422827366477
2015-08-24,1,0.003191724480586997,0.0036386330810453346,-0.005209262583643783,0.005688887759378328,0.99336247709389
2015-08-26,1,0.0031993595733186804,0.0036911507662386197,-0.003893604026849549,0.00461017142511097,0.9936365053773966
2015-08-28,1,0.0034199764883000353,0.003929355228598504,-0.005237852685273431,0.00461017142511097,0.992787571509125
2015-09-01,1,0.0035666805687478032,0.004125969635508841,-0.005237852685273431,0.006291501658110861,0.9928944311617621
2015-09-03,1,0.0036132301154055317,0.004141015292407204,-0.005237852685273431,0.0053641475061392725,0.9931275987164457
2015-09-08,1,0.0036208216785965476,0.004155065110531228,-0.003893604026849549,0.0053641475061392725,0.9932948934746865
2015-09-10,1,0.002902981101025169,0.0033061187773225746,-0.00240076753158862,0.007833043254835498,0.9934358888001018
2015-09-14,1,0.0026673502152943437,0.0030426640617929298,-0.0020964544418306313,0.007833043254835498,0.9935802433384132
2015-09-16,1,0.0026531116436654756,0.0030245953357800706,-0.003893604026849549,0.007833043254835498,0.9926556933419405
2015-09-18,1,0.002802978277365316,0.0031908062992157867,-0.0034496492835230782,0.007833043254835498,0.9929298083767816
2015-09-22,1,0.00211513634738135,0.0023134239766707965,-0.0014650331914658524,0.007833043254835498,0.9931536182703625
2015-09-24,1,0.0020249194786043337,0.002213550409374025,-0.0006753066239569188,0.009298574808019575,0.9928073467195463
2015-09-28,1,0.0015698702733570034,0.001667809352581301,-0.0006753066239569188,0.007833043254835498,0.9933993779409043
2015-09-30,1,0.0021262304024650142,0.002317855924380231,-0.0001457383396355652,0.007833043254835498,0.9935008938668998
2015-10-02,1,0.0026594963131304685,0.0029282469904310686,-0.0014009692127079222,0.005622320623463281,0.9929867393832686
2015-10-06,1,0.0028353657206212,0.0031215529753632594,-0.0035551294684228697,0.005622320623463281,0.9929368365845912
2015-10-08,1,0.0038908901505663755,0.004306797150523939,-0.0035551294684228697,0.004769269022527271,0.9936822069458996
2015-10-12,1,0.004114731450018957,0.004548841870733553,-0.006123401676537224,0.00409879070775257,0.9925166562238185
2015-10-14,1,0.003461621981374017,0.003817231199904424,-0.0014009692127079222,0.00409879070775257,0.9936623405421812
2015-10-16,1,0.0034875918578226297,0.0038408121174339825,-0.006276098597121384,0.00409879070775257,0.9922887900918426
2015-10-20,1,0.0034501522784033557,0.0037901425277858565,-0.006276098597121384,0.005065667969477836,0.9921686848151124
2015-10-22,1,0.003470072049080826,0.0037969888524003324,-0.006276098597121384,0.005065667969477836,0.9919799956615467
2015-10-26,1,0.003119364041196692,0.003375885956665302,-0.0038510429625398064,0.005934560355032618,0.9922931212761351
2015-10-28,1,0.004383456610223462,0.004789667389976594,-0.004007433484532072,0.003051438521633613,0.9922404535243017
2015-10-30,1,0.0035423058813892597,0.003825577979823148,-0.0028252171384413466,0.003051438521633613,0.9931686662317222
2015-11-03,1,0.003420700929245032,0.0036778717375195646,-0.0028252171384413466,0.002409717748749482,0.9936000295949221
2015-11-05,1,0.003165314000302381,0.0033556944062615003,-0.0041174374634362024,0.002409717748749482,0.9916137215900118
2015-11-09,1,0.0027339838155292584,0.0028750118061325997,-0.0041174374634362024,0.004009398036380224,0.9918900912217036
2015-11-11,1,0.002215122068103434,0.0022487598813282607,-0.008361462148869167,0.004009398036380224,0.9916258655072877
2015-11-13,1,0.0012123818498008783,0.0013196420252027112,-0.0041174374634362024,0.007814896955608143,0.9922237342891534
2015-11-17,1,0.0012898300787472464,0.0014127601206491785,-0.0041174374634362024,0.009238539839079032,0.9907368857351551
2015-11-19,1,0.0014320438223036655,0.0015770051751041784,-0.010400677457474345,0.008474183072816893,0.9902779223352615
2015-11-23,1,0.0014083808993197349,0.0015628585366525255,-0.010400677457474345,0.007602056170502619,0.9904278244016969
2015-11-25,1,0.0015707607647119427,0.0016753019096639905,-0.010400677457474345,0.008351673570322009,0.9900030302594395
2015-11-30,1,0.000944053824710014,0.0011399637717803652,-0.010400677457474345,0.008730876504659573,0.9896572880774877
2015-12-02,1,0.0008589716044275774,0.001054105230520145,-0.010800835973332755,0.008730876504659573,0.989171933362406
2015-12-04,1,0.0006621306117477453,0.0008625702233218627,-0.010800835973332755,0.008351673570322009,0.9904280415062482
2015-12-08,1,0.0004461103715226556,0.0006725804970874373,-0.011430346706654571,0.008730876504659573,0.9901626368653266
2015-12-10,-1,-0.0005223303812848968,-0.00016678916383302655,-0.010567229820596586,0.009123843220996528,0.9900846185104201
2015-12-14,1,2.1420145902201638e-05,0.0002633334786027032,-0.010567229820596586,0.008730876504659573,0.9900015278972882
2015-12-16,1,0.0011545536552075744,0.001271049934834333,-0.011430346706654571,0.008282944013989586,0.9902364368378339
2015-12-18,1,0.0008555359118123144,0.0009661011538167661,-0.011430346706654571,0.008730876504659573,0.9897203985572897
2015-12-22,1,0.0010185979291066774,0.0011039126281998397,-0.011430346706654571,0.009173321654170145,0.9891597334110712
2015-12-24,1,0.0008726590998382512,0.0009769324016552414,-0.012190666082123108,0.009173321654170145,0.9890586167053999
2015-12-29,1,0.0011108139592471953,0.001203697375136599,-0.012190666082123108,0.007259606032035542,0.989235990626957
2015-12-31,1,0.0005254960307276488,0.0006743109875176016,-0.012190666082123108,0.009794185534658661,0.9891734455216138
2016-01-05,1,0.0007921515703650855,0.000898148487002893,-0.012190666082123108,0.010549102171915428,0.988282675522544
2016-01-07,1,0.0007274739489869374,0.0008393283412544907,-0.012067965300952615,0.009794185534658661,0.9887834476794479
2016-01-11,1,0.0010224655539426203,0.0010809624915588249,-0.012067965300952615,0.010214107076365019,0.9890175346270534
2016-01-13,1,0.0002947223429681206,0.0004221261331076779,-0.010761629458954619,0.010214107076365019,0.9893008950630932
2016-01-15,1,4.9755770255497365e-06,0.00015473370925903431,-0.008353107374830634,0.015479274160363408,0.9892103510261799
2016-01-20,1,0.0003656362379019461,0.0004917815566596031,-0.001194589054128263,0.01200563689549104,0.9906066368841612
2016-01-22,1,0.001224077850463032,0.0012319240911875405,-0.001194589054128263,0.011317305537739856,0.9911579948057864
2016-01-26,1,0.00032511094652418676,0.00044878497915575884,0.00057325716628924,0.011317305537739856,0.991261003787425
2016-01-28,1,0.0005000864499807322,0.0005862192628865391,0.0004910943977287104,0.011317305537739856,0.9916858466731051
2016-02-01,1,0.001157532164563183,0.0011602017813271662,-0.002583385141213921,0.011317305537739856,0.9917380347401954
2016-02-03,1,0.0007572683110750713,0.0008269229967876597,-0.0001841634789103904,0.008352504355969022,0.9934463837503775
2016-02-05,1,0.00023885054602429016,0.00037529414179561017,-0.0021500778754353182,0.008352504355969022,0.9936335549925465
2016-02-09,1,0.0009723041441192101,0.0010232519375934276,-0.0021500778754353182,0.006739711433686071,0.993876171640136
2016-02-11,1,0.0009191304974680358,0.0009744382067455929,-0.00039377879265064457,0.008664155093694063,0.9939857718968923
2016-02-16,1,0.0016628307555709512,0.0016943102282598419,-0.0021500778754353182,0.006739711433686071,0.9951619598273944
2016-02-18,1,0.0018248103086149386,0.0018646010210671094,-0.0021500778754353182,0.0060729380939825856,0.9952923223743249
2016-02-22,1,0.002016343713851953,0.0020664414015772294,-0.0025013332459657717,0.003979381695485021,0.9956107622913232
2016-02-24,1,0.0020634044661938284,0.0021237372692382316,-0.0025013332459657717,0.0060729380939825856,0.9952923475824217
2016-02-26,1,0.002060340088335712,0.0021425425468572495,-0.002337057237554245,0.0060729380939825856,0.9953687913646001
2016-03-01,1,0.002992204385961346,0.003214805366864265,-0.0015286617088436974,0.005650948601958284,0.9963071269769258
2016-03-03,1,0.0033341423084431677,0.0036551479199025405,-0.002337057237554245,0.005650948601958284,0.9957071092712628
2016-03-07,1,0.00317943074572433,0.003487100702022738,-0.0030672527307176074,0.005650948601958284,0.9952525644037861
2016-03-09,1,0.0031699654029798303,0.0034354839812957396,-0.003460977082593932,0.0036882074045246544,0.9946190386205308
2016-03-11,1,0.0033730907372352065,0.0036618042150318615,-0.005095279934411662,0.0030097492470341955,0.9945177236945721
2016-03-15,1,0.00345692785037959,0.0037613849603357406,-0.005095279934411662,0.002765716435308298,0.9943837096301149
2016-03-17,1,0.0033404341347308976,0.003647845511756211,-0.005095279934411662,0.0023841674636831747,0.9942758688845493
2016-03-21,1,0.0031445545420125277,0.003412289264589359,-0.005095279934411662,0.0030097492470341955,0.9945294741280347
2016-03-23,1,0.0033272922039703427,0.0036617439105424273,-0.006838272406780951,0.0017621529313960643,0.9939859931440942
2016-03-28,1,0.0030856704485065583,0.003355316303954847,-0.006838272406780951,-0.0003472463708046596,0.9938770742697053
2016-03-30,1,0.003016838386242678,0.003279418480251858,-0.006838272406780951,-0.0003472463708046596,0.9939836094842007
2016-04-01,1,0.0028805653403850577,0.003121379064181927,-0.006648506599585069,0.0008796729699261882,0.9930434214196371
2016-04-05,1,0.0022935129647756796,0.0024244397237871847,-0.0026245523388223812,0.001840403384291765,0.9932834391060358
2016-04-07,1,0.0018976701290070827,0.00197016279811323,-0.0023082368220841082,0.0035820219905342075,0.9936648733931448
2016-04-11,1,0.0011617467901109228,0.0012259348457866336,-0.0019405793565012376,0.006908702771055423,0.9937158559351502
2016-04-13,1,0.0011061618637940294,0.0011668177296715564,-0.001245221128538739,0.006908702771055423,0.9939269872647575
2016-04-15,1,0.001151572415312569,0.001183140697354822,-0.0019405793565012376,0.007807402078601122,0.9934854950201938
2016-04-19,1,0.0012626223882366426,0.0012733257723275256,-0.0023082368220841082,0.007807402078601122,0.9930320941856412
2016-04-21,1,0.0007383063929066229,0.0008153884873660045,-0.000987246576255109,0.007807402078601122,0.9937784167173339
2016-04-25,1,0.000504228624697084,0.0006219266704794688,-0.0019405793565012376,0.007807402078601122,0.9935800199354734
2016-04-27,1,0.00031872057990170135,0.00046514771070362454,-0.0019492008199240422,0.008274741280823452,0.9930941030073033
2016-04-29,1,0.0013426606454753833,0.00139475270629542,-0.0019492008199240422,0.007687108005875274,0.9945418208570483
2016-05-03,1,0.0015648111117226562,0.0016017808111866414,-0.002353646312071215,0.006767218087305565,0.9951904472110393
2016-05-05,1,0.0012866840561120835,0.001381683859127465,-0.0014814031475702837,0.006613613076095621,0.9955300100817762
2016-05-09,1,0.0015532869388915978,0.0016227409615330503,-0.0014814031475702837,0.004375313449199476,0.9957212995122707
2016-05-11,1,0.0020734262472633246,0.0021502588394639315,-0.0014814031475702837,0.00599958491887929,0.9955470645603659
2016-05-13,1,0.0016594767759717183,0.0016708487680665342,-0.0007329626925503032,0.004375313449199476,0.9959815967237361
2016-05-17,1,0.0012728091850651322,0.0013229550876331874,-0.0007329626925503032,0.00599958491887929,0.996318016371511
2016-05-19,1,0.0011898974374852352,0.001254162225038292,-0.0014331047809035698,0.006499954480205767,0.9953539004759603
2016-05-23,1,0.0011158391259810242,0.0011675761295787113,-0.0010378321583402786,0.006499954480205767,0.9954905214247851
2016-05-25,1,0.0005537130321060712,0.0007115598741148207,-0.00023953034021532266,0.0062456232503076605,0.9957250173365693
2016-05-27,1,0.0006933069204423772,0.0008593263340824092,-0.0008282183676294017,0.005938537963452924,0.9960275491322265
2016-06-01,1,0.0004484879886272815,0.0006531060985285687,-0.00019622934247135967,0.006499954480205767,0.9955050656944874
2016-06-03,1,0.0003831091172900136,0.0005964692592053535,-0.00019622934247135967,0.006499954480205767,0.9945940963993161
2016-06-07,1,5.630239692033985e-05,0.0003415927962501929,-0.00019622934247135967,0.007195377521495299,0.9944424436023682
2016-06-09,1,0.0001357550154756686,0.000404278396214988,-0.00019622934247135967,0.007195377521495299,0.9946066235409229
2016-06-13,1,0.0001305308680741176,0.0003923736680129605,0.0006965153995067366,0.007195377521495299,0.9944128604722624
2016-06-15,1,0.0006467969620981927,0.000806480208489023,0.0012930538988162675,0.006798665564359177,0.9948243349783872
2016-06-17,0,-0.00010922238170437109,0.00016763720317623354,0.0006965153995067366,0.005491646625882342,0.9950466753340481
2016-06-21,0,-0.0002763106151560797,3.480161598895743e-05,0.0012930538988162675,0.005896873326006787,0.9947489364874657
2016-06-23,1,0.0002695617070878981,0.0004937551822392937,2.7013917898932854e-05,0.005229659844202541,0.995114274680772
2016-06-27,1,0.0011291104118929607,0.001258331560945142,0.0002976763996925471,0.005229659844202541,0.9955496780853934
2016-06-29,1,0.0012403870133091497,0.0013917592990265958,-0.0005921518517948201,0.004138982734909719,0.9952358028111875
2016-07-01,1,0.0023969755498788863,0.0024097421442100106,-0.0033323094947238672,0.004138982734909719,0.9956887305834109
2016-07-06,1,0.002901391234762276,0.0029581760663280094,-0.0038091137661054424,0.0026470078476768934,0.9950571872314391
2016-07-08,1,0.0033414411631700926,0.0035259236307072545,-0.0038091137661054424,0.0023857544728349885,0.9947965570012756
2016-07-12,1,0.0031673478123266418,0.003344225789505431,-0.004681387782943033,0.0031203926104148216,0.994800331479717
2016-07-14,1,0.003393125839898058,0.0036177612928638696,-0.004681387782943033,0.003845525005654819,0.9944415054633403
2016-07-18,1,0.0029145066721174354,0.00307972730682157,-0.004681387782943033,0.003845525005654819,0.9946683076897401
2016-07-20,1,0.0029385155206338026,0.0030970613045525853,-0.005824116596116065,0.003845525005654819,0.9935595445424785
2016-07-22,1,0.002877494658253762,0.003058474606819583,-0.005824116596116065,0.003845525005654819,0.9936722878200109
2016-07-26,1,0.0028300929686902914,0.0030030385735034665,-0.005824116596116065,0.003964362273824565,0.9932896645897442
2016-07-28,1,0.0019664280060751457,0.0020021940016054797,-0.004681387782943033,0.0038764206798959887,0.9942734986810683
2016-08-01,1,0.00217899412685911,0.0022733616623138698,-0.005824116596116065,0.0038764206798959887,0.9934291283512378
2016-08-03,1,0.0018821825066973883,0.0019559954272115945,-0.0053783393084065765,0.0038764206798959887,0.9936714311059992
2016-08-05,1,0.0019142859268020053,0.002003006306049333,-0.0053783393084065765,0.004409968511946578,0.9936157120148281
2016-08-09,1,0.0015768101356812027,0.001612666210753211,-0.0053783393084065765,0.004863720687222465,0.9935886315060054
2016-08-11,1,0.0019810533208035296,0.002064843769784852,-0.006822517500438195,0.003505205917012562,0.9927243659168364
2016-08-15,1,0.001464836999836849,0.001480380525343126,-0.007706640186621037,0.004863720687222465,0.9925241474361508
2016-08-17,1,0.0012702174391137483,0.0012727804018693202,-0.005601264427024863,0.003505205917012562,0.9936764909333798
2016-08-19,1,0.0008859736832880251,0.0009341739727444112,-0.0038760378572509258,0.003505205917012562,0.9940689736932904
2016-08-23,1,0.000695949918188033,0.0007776214061333219,-0.002530921697925832,0.003904037451209038,0.9939707018603384
2016-08-25,1,0.00013237968289150936,0.00030677384132436904,-0.005816611757352845,0.003904037451209038,0.9935781227842458
2016-08-29,-1,-0.0004307484066843729,-0.0001700311078762669,-0.002530921697925832,0.003904037451209038,0.9943734785410324
2016-08-31,-1,-0.0009890770765261072,-0.0006457780447014774,-0.002566681092809086,0.003904037451209038,0.9940447201287366
2016-09-02,-1,-0.0009195921460828434,-0.0005794248927148154,-0.005617019881265528,0.003904037451209038,0.9938685286079507
2016-09-07,-1,-0.001335366121499256,-0.0009363404348023115,-0.005799789157608728,0.0032525343351102673,0.993691520990453
2016-09-09,-1,-0.002276836018205171,-0.001769073567487714,-0.005519929337350385,0.004220654400335261,0.9941461008907105
2016-09-13,-1,-0.0025634060306787493,-0.0019992122573722383,-0.004922599260910636,0.004220654400335261,0.9943957981468161
2016-09-15,-1,-0.0024735128260974285,-0.0019217369144934686,-0.006172329772625165,0.0059818206629728456,0.9935672730561157
2016-09-19,-1,-0.002492653326221784,-0.0019331031227265896,-0.006172329772625165,0.00616803871100189,0.9929440580942747
2016-09-21,-1,-0.0009385389156791031,-0.000657934898514109,-0.006172329772625165,0.0059818206629728456,0.993870953250475
2016-09-23,-1,-0.0011365158177217766,-0.0008538196291250548,-0.004922599260910636,0.0059818206629728456,0.9941915570774943
2016-09-27,-1,-0.000776672231256483,-0.0005445499902235415,-0.004922599260910636,0.005933300266835662,0.9941576844779229
2016-09-29,-1,-0.0008795785926418223,-0.0006672350643460657,-0.004922599260910636,0.006022477522590338,0.9931263765749828
2016-10-03,-1,-0.00090582448030091,-0.0006859703347909616,-0.0042668744965293146,0.006692305029516067,0.9918886450074751
2016-10-05,-1,-0.0012673289015051863,-0.0010248217442127552,-0.005029418840300716,0.006692305029516067,0.9911630801882172
2016-10-07,-1,-0.0015818909807844258,-0.0012868409886686032,-0.003974536347130036,0.006692305029516067,0.9916978243490034
2016-10-11,-1,-0.001423176429970609,-0.0011509652098598677,-0.0036314362639646132,0.009401582969024682,0.990751566127915
2016-10-13,-1,-0.0018724994077992064,-0.0015347944824732687,-0.002222681049828594,0.00986578651807585,0.9907472972880406
2016-10-17,-1,-0.0013121398016829335,-0.001027136875096482,-0.002222681049828594,0.00986578651807585,0.9907896851260367
2016-10-19,-1,-0.0013403296235423865,-0.0010639904471366373,-0.0013766403356901425,0.011013607884396604,0.9899655830242271
2016-10-21,-1,-0.001460261585766804,-0.0011635960153045166,0.0004971924202541919,0.011013607884396604,0.98982719591085
2016-10-25,-1,-0.0011854360256576607,-0.000924673542069374,0.000273770871860158,0.011013607884396604,0.9899068581008692
2016-10-27,-1,-0.0011207758741942425,-0.0008776771780649392,0.0003236776117242735,0.00986578651807585,0.9909243298359364
2016-10-31,0,-0.0001139324400927548,1.8763805466201424e-06,0.0003236776117242735,0.00917615110168455,0.9929819833329154
2016-11-02,-1,-0.0013642015154901224,-0.0010923183070268632,0.0003236776117242735,0.00917615110168455,0.9930439470855777
2016-11-04,-1,-0.001407409366193327,-0.0011390650834110462,0.0007987259670567644,0.00917615110168455,0.9921332078049779
2016-11-08,-1,-0.0007878812333604435,-0.0005826694567816656,0.0007987259670567644,0.008476290896168933,0.9933442528637201
2016-11-10,-1,-0.00019092394229392373,-5.470094618775518e-05,0.0003236776117242735,0.007132538931737295,0.9945342378011915
2016-11-14,1,0.0002043366680963816,0.0002844654055943449,0.0003236776117242735,0.007132538931737295,0.99499866220143
2016-11-16,1,0.0011320312938286052,0.0012267011930149588,-0.00046614017747658115,0.006401191717006213,0.9953688613565773
2016-11-18,1,0.00128467991817721,0.0014243428391814998,-0.00046614017747658115,0.007132538931737295,0.9947321668880718
2016-11-22,1,0.001674866890505089,0.0019093937115173664,-0.0012552990028440827,0.006401191717006213,0.9947852499200548
2016-11-25,1,0.0020671822603411318,0.0023638472730959227,-0.0012552990028440827,0.0036885293476066707,0.9950327961867231
2016-11-29,1,0.002180690596578988,0.0024989632845310045,-0.0012552990028440827,0.0029256594517202057,0.9948030109728992
2016-12-01,1,0.0016576838411698543,0.0018970769791130785,-0.000356682188008579,0.0029256594517202057,0.9957919563912053
2016-12-05,1,0.0015725089607882914,0.0018140098028816972,-0.0007802719190328931,0.0018369901745816685,0.9962686029112988
2016-12-07,1,0.001873729455816838,0.0021381984403278636,-0.0017651810542520575,0.0017458595538867596,0.9960785115228191
2016-12-09,1,0.0018944385220492962,0.0021774535903128145,-0.004491955892981137,0.0015200488961100577,0.9955102124038988
2016-12-13,1,0.0020336106211495224,0.0023211520134217302,-0.004491955892981137,0.0009961152571693172,0.9951775699024856
2016-12-15,1,0.0017854946055302755,0.0020469983988123893,-0.0042274143655338815,0.000882150406536761,0.9955709207266221
2016-12-19,1,0.0015796021500387597,0.001820803653143727,-0.0042274143655338815,0.000882150406536761,0.9963211698921137
2016-12-21,1,0.0013471060697212661,0.0015592486608629007,-0.0042274143655338815,0.0013239399720520332,0.9966057889149961
2016-12-23,1,0.0012566510839340545,0.001440200517717618,-0.0042274143655338815,0.0013656329273630027,0.9965894932856452
2016-12-28,1,0.001306986215031574,0.0014978723896008977,-0.0042274143655338815,0.0013656329273630027,0.9965162203595535
2016-12-30,1,0.0012278256201168286,0.001403677794646268,-0.0042274143655338815,0.0013656329273630027,0.9964884405410243
2017-01-04,1,0.001338545971260313,0.0015497010325947413,-0.0042274143655338815,0.0015818051514677758,0.9964470206170585
2017-01-06,1,0.001130080045121737,0.001295099501657597,-0.0036056221169079306,0.0013656329273630027,0.9967054534621939
2017-01-10,1,0.0008652796834602855,0.0009762626143890256,-0.0019031381722632503,0.0015818051514677758,0.9970626733438934
2017-01-12,1,0.0008189213067850696,0.0009118841395251915,-0.0014322884590590155,0.001980513636288495,0.9974045487016702
2017-01-17,1,0.00065819769720172,0.0007301118908556611,-0.0007534841439207627,0.003236604986971066,0.9975577448710874
2017-01-19,1,0.0006923712722568505,0.0007723743713999021,-0.0013272520576983787,0.0036030700414507746,0.9971963263372997
2017-01-23,1,0.0006963283751910347,0.0007081950911066203,-0.0007534841439207627,0.004466383014735883,0.9963800459964384
2017-01-25,1,0.0007775777632268104,0.0007815191954376799,-0.001310475740229233,0.004466383014735883,0.9963525724197766
2017-01-27,1,0.0006679716364435742,0.0006727027334792685,-0.00077321037960108,0.004466383014735883,0.9962909787984405
2017-01-31,1,0.0005164595174310949,0.0005484024880087135,0.0002476965992972999,0.004466383014735883,0.9963927094358884
2017-02-02,1,0.0001627625450080954,0.0002716345211894115,-0.0001989586225234257,0.004159305484351632,0.9964661670006775
2017-02-06,0,-7.411021322770606e-05,6.7027043485483e-05,-9.488833451462808e-05,0.004159305484351632,0.9962090432488797
2017-02-08,1,0.00017795847573090745,0.00028553199888669667,-0.0012624486797869533,0.0036030700414507746,0.9962921991529269
2017-02-10,1,0.0003578468035062738,0.00044522346876074015,-0.0012624486797869533,0.003531985349286908,0.9961686518791828
2017-02-14,1,0.0005189220537198311,0.0005665674742617622,-0.0014376208617599604,0.003745527160880051,0.9957636276233665
2017-02-16,1,0.0011976530468535743,0.001216449882439266,-0.0014376208617599604,0.003745527160880051,0.9956040525795185
2017-02-21,1,0.0017633062378125059,0.0018619702874104666,-0.004646338996952335,0.002505936551633424,0.9956556447533983
2017-02-23,1,0.0013629834614181527,0.0013873491751779155,-0.004646338996952335,0.0019623855421738077,0.9958296978302403
2017-02-27,1,0.0013471639804408424,0.0013651812036816016,-0.0059063977098138265,0.0015909929544587875,0.9953332732814255
2017-03-01,1,0.0011229077951724102,0.001152608564971765,-0.0059063977098138265,0.0019623855421738077,0.9949823608008421
2017-03-03,1,0.0007007552756836584,0.0007841862202611762,-0.004646338996952335,0.003324022960467362,0.9949850811139638
2017-03-07,1,0.0006768968216874599,0.0007665472857555942,-0.004855939993666441,0.002814895380983809,0.9949850848330327
2017-03-09,1,0.0003022480934325816,0.00043898363403957816,-0.003612066783105687,0.0060110499379788275,0.9948742046244261
2017-03-13,1,0.0008116207399548962,0.0008598696570541258,-0.004409620749493421,0.002814895380983809,0.9949032684968371
2017-03-15,1,0.0010544174090485452,0.0010863973652513355,-0.004855939993666441,0.0016795559314999303,0.9949418085289649
2017-03-17,1,0.0006526840000483242,0.0007297545612885055,-0.004409620749493421,0.0016795559314999303,0.9953308502418788
2017-03-21,1,0.00021437116210924723,0.00032869690543084663,-0.003448893850054242,0.0022416851333341642,0.9960224829974614
2017-03-23,1,0.00016523565543641783,0.00029554211546257595,-0.003448893850054242,0.004291419195029892,0.995762603502491
2017-03-27,1,0.00020696399029960323,0.0003427068959770343,-0.0024991071630288734,0.00646587230363295,0.9957060353690786
2017-03-29,-1,-0.0003866817270711914,-0.0001307228047188572,-0.002810713773750427,0.006852027188820958,0.9945426004926949
2017-03-31,-1,-0.0003296353323977043,-6.197509411540723e-05,-0.002810713773750427,0.0043577491774396335,0.9949090430559192
2017-04-04,-1,-0.00032040041545436295,-7.862624326973123e-05,-0.0021550682897161525,0.0043577491774396335,0.995024180720767
2017-04-06,1,0.00044704508191827097,0.0005620824431940653,-0.001131400794735536,0.004199424155550399,0.995336330108532
2017-04-10,1,0.0006023890078173594,0.0006572318822557897,-0.001842124294443358,0.004199424155550399,0.9951276276494602
2017-04-12,1,0.0004587956718144215,0.0005125597064708557,-0.001842124294443358,0.004909424955046426,0.9949854134629899
2017-04-17,1,0.0005187967118528197,0.0005612005155739212,-0.001842124294443358,0.003825378419464129,0.9949595409525143
2017-04-19,1,0.0007553205865926313,0.0007561028833619012,-0.0069433045942888065,0.0035040360742302178,0.9941049092644493
2017-04-21,1,0.0009792026375401437,0.0010242149255713859,-0.0069433045942888065,0.0031831267870328773,0.9939975927034423
2017-04-25,1,0.0013196029811026275,0.0014130818361957087,-0.0069433045942888065,0.0031831267870328773,0.9940891684137992
2017-04-27,1,0.0003950453502946699,0.00044960767971191607,-0.006568136067513921,0.0031831267870328773,0.9955878412636399
2017-05-01,1,0.0003571567789715333,0.00043580782878240335,-0.006568136067513921,0.0038733599364565727,0.9954428368109278
2017-05-03,1,0.0005765332040964503,0.0006060049813482923,-0.006568136067513921,0.004668785284988459,0.9947388095124522
2017-05-05,1,0.0008184061832660113,0.000824596829321467,-0.006568136067513921,0.004668785284988459,0.9942910280432263
2017-05-09,1,0.000652184141188101,0.0006588186433478227,-0.006553130437351494,0.004668785284988459,0.9943065576809936
2017-05-11,1,0.00019409936303473987,0.0002632638345048114,-0.006553130437351494,0.004399242801281376,0.9942353011997392
2017-05-15,1,0.0002315593963821265,0.000282338487251126,-0.005054934580344909,0.005468423607706178,0.9943131936469101
2017-05-17,-1,-0.0007192278247916778,-0.0005503285350471481,0.00023861260119395359,0.006680877117757339,0.9944981632082581
2017-05-19,-1,-0.0006666163023426943,-0.0005119828716733545,0.0006459443149546082,0.006680877117757339,0.9948426560832979
2017-05-23,-1,-0.00048185105513774235,-0.0003467565308032594,-0.001962114820410384,0.005482616743858907,0.9948791984589992
2017-05-25,-1,-0.00032422530774627576,-0.00020828187700762304,-0.001962114820410384,0.004812856062066915,0.9952685680865626
2017-05-30,-1,-0.0002338589329959822,-0.00011347619777643959,-0.0046254256867479734,0.004055217772728289,0.9954560268837678
2017-06-01,1,0.00021145558800223844,0.00028573382843126633,-0.004827238488067862,0.0019287610665292363,0.9957810521989621
2017-06-05,1,0.00017472869983125265,0.00026913801486571406,-0.004827238488067862,0.0019287610665292363,0.9963119650837777
2017-06-07,0,-3.1141879845315954e-05,8.390982731777664e-05,-0.004548435700173504,0.0034642708352203623,0.996234411474337
2017-06-09,-1,-0.000462312393950957,-0.000285822241207804,-0.0015278341779839965,0.004399585347632916,0.9963116757835926
2017-06-13,-1,-0.00021054061847583744,-6.410867784114438e-05,-0.0023356782870559423,0.00423773965578484,0.9966135674645884
2017-06-15,1,1.5461372275787433e-05,0.00014532930951879588,-0.002939251531356532,0.003887483243461887,0.9967981645894924
2017-06-19,1,0.0002518069937362258,0.0003429470260712331,-0.002939251531356532,0.00396874645787951,0.9965396838476703
2017-06-21,-1,-0.0001792322777287955,-3.111102198770718e-05,-0.0008142529595514538,0.00396874645787951,0.9968839403972032
2017-06-23,-1,-0.0002699321972561146,-0.00010575249792926268,-0.0018232881500569295,0.00423773965578484,0.996503038370052
2017-06-27,-1,-0.0004843748205217512,-0.00029681968561173387,-0.0018232881500569295,0.004399585347632916,0.9956833323766284
2017-06-29,-1,-0.0004541840552103179,-0.0002712904874519911,-0.0018232881500569295,0.004399585347632916,0.9953560032295998
2017-07-03,-1,-0.00013602875472953782,-7.354670235888813e-07,-0.0018232881500569295,0.004439532530806115,0.9954298530412544
2017-07-06,0,-0.00011627476083128527,6.77183288549059e-06,-0.0005068336379272148,0.0047385878512606755,0.9955926120399984
2017-07-10,1,9.353499402959972e-05,0.00019012291999449094,-0.0016469133046338193,0.0043176034104071385,0.9959095475122256
2017-07-12,1,0.0002622247765987296,0.00029412947889649,-0.0015253065202575724,0.0040892532526348,0.9960759513131247
2017-07-14,1,0.000534540741142927,0.0006032891086457519,-0.0019593711778888626,0.0040892532526348,0.995978776337307
2017-07-18,1,0.0006952237880017169,0.0007845709810957923,-0.0019593711778888626,0.0047385878512606755,0.995612975329217
2017-07-20,1,0.0008409465941040988,0.0009572132316836215,-0.0029338217213954647,0.0047385878512606755,0.9951736352493019
2017-07-24,1,0.0008578766580037695,0.0009783559489060095,-0.002931829039004956,0.004142070220650636,0.9952272166540496
2017-07-26,1,0.00048519033800775745,0.0005410920972986418,-0.0023415600596658707,0.004142070220650636,0.9956959815635054
2017-07-28,1,0.0005319367454359058,0.0005889865798739464,-0.0023415600596658707,0.0038811376640230247,0.9962387256746146
2017-08-01,1,0.0005506332293890906,0.0006085171933533052,-0.0023415600596658707,0.004191167745950655,0.9959549630060134
2017-08-03,1,0.0008932566276510354,0.0010106454400604886,-0.0023415600596658707,0.0038811376640230247,0.9960355453392657
2017-08-07,1,0.0009264730175833236,0.001067000004777517,-0.002931829039004956,0.0038811376640230247,0.9954423717096595
2017-08-09,1,0.0007880211882896179,0.000907232000275473,-0.002931829039004956,0.0038811376640230247,0.9954474177187539
2017-08-11,1,0.0003032105347152888,0.0003290773424755768,-0.0010502702021260167,0.005262975082419781,0.9947032599905199
2017-08-15,1,0.0006978237768864239,0.0007803615769133934,-0.0025999904251106116,0.005262975082419781,0.9948427788068345
2017-08-17,1,0.00041819800227081434,0.00043820920170130654,-0.0010502702021260167,0.005262975082419781,0.9951404247306185
2017-08-21,1,0.0005065251940315348,0.0005454976358718497,0.00012497635818059153,0.005262975082419781,0.9954386816763352
2017-08-23,1,0.0007663241631852996,0.000857541246838702,0.00012497635818059153,0.003598235964999826,0.9959667619989195
2017-08-25,1,0.0005839239748009222,0.0006383507311377614,0.00012497635818059153,0.004935412728455268,0.9959718058858716
2017-08-29,1,0.001145156549593854,0.0012805907622996729,-0.0007480323584776169,0.00252788599214722,0.9963645986223083
2017-08-31,1,0.001096519924172248,0.0012155568749264913,-0.001117308861887057,0.002356248876712013,0.9963249834528036
2017-09-05,1,0.0004352442285778708,0.00044867291879949786,-0.0007480323584776169,0.005433367889513925,0.996487479410146
2017-09-07,1,0.0005024889440616303,0.0005248918907821609,-0.001117308861887057,0.005433367889513925,0.9945980420939717
2017-09-11,1,0.0010620616398958629,0.001159735554071006,-0.0014988299993893607,0.004619498481723064,0.9951162133491497
2017-09-13,1,0.0011808220548721407,0.0013136383207426622,-0.001117308861887057,0.004436521113153038,0.9955773841114163
2017-09-15,1,0.0014045586517978884,0.0015822872100020096,-0.0014988299993893607,0.004436521113153038,0.9954696998732976
2017-09-19,1,0.0011464471313747248,0.0012591623115456997,-0.0018581352090837402,0.004436521113153038,0.9952413684465072
2017-09-21,1,0.0010606222155503605,0.0011543839283667892,-0.0018581352090837402,0.004619498481723064,0.9951571241222471
2017-09-25,1,0.0010740569709020444,0.001165944411834705,-0.0018581352090837402,0.004503964672561096,0.9952245170302714
