JNU-Tangyin/eata/results/Batch4_SP500/Batch4_SP500-DIS.csv
Date,Action,Predicted_Q25,Predicted_Q75,Actual_Q25,Actual_Q75,RL_Reward
2010-12-14,0,0.0,0.0,-0.005242010436528005,0.006639317959243438,0.992828459176639
2010-12-16,0,0.0,0.0,-0.0036622981485078254,0.006639317959243438,0.9930060306418333
2010-12-20,0,0.0,0.0,-0.005242010436528005,0.006639317959243438,0.9925718366562025
2010-12-22,0,0.0,0.0,-0.005242010436528005,0.003514834891831345,0.9929313446865125
2010-12-27,0,0.0,0.0,-0.0031940155924746532,0.0053804581160401075,0.9931970009258796
2010-12-29,0,0.0,0.0,-0.003654634622776021,0.0031670124022398684,0.99312704578268
2010-12-31,-1,-0.00037339678027060807,-0.00034368467909354217,-0.005242528536323219,0.0031670124022398684,0.9924806710791447
2011-01-04,1,0.00180854179950384,0.002095907838192229,-0.005242528536323219,0.0031670124022398684,0.9924933065316839
2011-01-06,1,0.0017444145490375569,0.0020188292351149112,-0.0031597440146838764,0.0031670124022398684,0.9938668331689657
2011-01-10,0,0.0,0.0,-0.002135117917493483,0.005301298533848444,0.9935188693419186
2011-01-12,0,0.0,0.0,-0.00010307990677385626,0.005702849451376843,0.991267410677551
2011-01-14,0,0.0,0.0,-0.0013655779172664835,0.005702849451376843,0.9911120290505089
2011-01-19,0,0.0,0.0,-0.0013655779172664835,0.007935816690725876,0.9907455587289916
2011-01-21,0,0.0,0.0,-0.0023031280086611133,0.005702849451376843,0.9914034015865139
2011-01-25,0,0.0,0.0,-0.003580810543824559,0.005702849451376843,0.990124977732334
2011-01-27,0,0.0,0.0,-0.0032699968107587907,0.008286082295956766,0.9897166591449076
2011-01-31,1,0.0007447147275417671,0.0008134713396384557,-0.0032699968107587907,0.012909733911435371,0.9888946183913543
2011-02-02,1,0.0011097704022087903,0.001225636851042652,-0.0032699968107587907,0.008357303842830096,0.9897535713125587
2011-02-04,1,0.0010785699799243317,0.00118802404443607,-0.0058869347642490945,0.008357303842830096,0.9887054300764619
2011-02-08,1,0.001224294307735843,0.0013507877515251225,-0.0058869347642490945,0.008357303842830096,0.9888553557871
2011-02-10,0,0.0,0.0,-0.011892038327772483,0.007941550051725985,0.9902969751059282
2011-02-14,1,0.0017176760048313207,0.0018021427745013485,-0.012813728360311817,0.007941550051725985,0.9887933263012
2011-02-16,0,0.0,0.0,-0.014777110756262596,0.006907127495871954,0.9885667060230501
2011-02-18,1,0.001803477888899556,0.0018794762892644396,-0.014777110756262596,0.011006100579716415,0.9875008167571098
2011-02-23,1,0.0008351284078997635,0.000893315410388436,-0.012796942547669317,0.011771749372917174,0.9878044837730396
2011-02-25,1,0.0011924740661971422,0.0012205218020249725,-0.012796942547669317,0.012225700394479753,0.9879266398442866
2011-03-01,1,0.0012802891923359065,0.0012836314888298285,-0.011892038327772483,0.011006100579716415,0.9886632698044499
2011-03-03,1,0.0019414843314604488,0.002052504607248168,-0.011892038327772483,0.010116034349576551,0.98905540253325
2011-03-07,1,0.0012261513236895543,0.0012346256828224603,-0.009433050315223863,0.010116034349576551,0.989651796674521
2011-03-09,1,0.0012613034272605554,0.0012824536790233601,-0.009433050315223863,0.010116034349576551,0.9894148842996205
2011-03-11,0,0.0,0.0,-0.007266935559769155,0.009630568023999388,0.990204888013728
2011-03-15,0,0.0,0.0,-0.006049914000040177,0.009630568023999388,0.9912566646464818
2011-03-17,1,0.00019694988618145946,0.0002898927251247358,-0.006049914000040177,0.009630568023999388,0.9917945129536564
2011-03-21,0,0.0,0.0,-0.0063201152190371845,0.004721840279899031,0.9920632664903212
2011-03-23,0,0.0,0.0,-0.006049914000040177,0.005117591696334797,0.9924602544441935
2011-03-25,0,0.0,0.0,-0.0063201152190371845,0.004098283061105075,0.9926439873191434
2011-03-29,0,0.0,0.0,-0.006049914000040177,0.0055797209066148585,0.9928856707279604
2011-03-31,0,0.0,0.0,-0.005729005503010819,0.0055797209066148585,0.9930509637490756
2011-04-04,1,0.0006036675320254222,0.0006299871984595097,-0.0056325732641051025,0.0055797209066148585,0.9932307379131613
2011-04-06,0,-0.00010046781184951434,4.709943293752008e-05,-0.0063201152190371845,0.0055797209066148585,0.9930457262370602
2011-04-08,1,5.2715106170468575e-05,0.00014320489567331917,-0.00501829121023788,0.006596282389099751,0.9931791120570068
2011-04-12,0,0.0,0.0,-0.005393398640344531,0.008885336172964971,0.989959742537479
2011-04-14,0,0.0,0.0,-0.0022378152138548767,0.008885336172964971,0.9907002250205152
2011-04-18,-1,-0.0008884709856653705,-0.0006426551945460893,-0.0022378152138548767,0.006596282389099751,0.9906894676011582
2011-04-20,-1,-0.0003638361072204865,-0.0002068383608598955,-0.0022378152138548767,0.006596282389099751,0.9913330998047961
2011-04-25,0,0.0,0.0,-0.0022378152138548767,0.006596282389099751,0.9914623447741391
2011-04-27,0,0.0,0.0,-0.0024310440565293943,0.0031610347624669156,0.9920904627836992
2011-04-29,1,0.00021381725513528566,0.0002810488516093465,-0.003708409321207708,0.0031610347624669156,0.9919455404327348
2011-05-03,-1,-0.00013813288838529714,-8.885881590531893e-06,-0.0046010636029937945,0.0027119866679486985,0.9907846308135808
2011-05-05,-1,-0.0006182510453713786,-0.0004123470253751581,-0.008248542331671991,0.0027119866679486985,0.9901796971611553
2011-05-09,0,0.0,0.0,-0.008248542331671991,0.0021282161351473023,0.9904568349298181
2011-05-11,0,0.0,0.0,-0.0046010636029937945,0.0021282161351473023,0.993734629162741
2011-05-13,-1,-0.0016837669309387978,-0.0013435101211871625,-0.008248542331671991,0.0021282161351473023,0.9930174583202583
2011-05-17,0,0.0,0.0,-0.005935225864724253,0.0027119866679486985,0.9928792765715666
2011-05-19,0,0.0,0.0,-0.008248542331671991,0.001392456430685113,0.9928928529311696
2011-05-23,0,0.0,0.0,-0.005990993435242254,0.002879175700081675,0.9924844612092562
2011-05-25,0,0.0,0.0,-0.010453724967311884,0.002879175700081675,0.9913905243280474
2011-05-27,0,0.0,0.0,-0.010453724967311884,0.002879175700081675,0.9912406219680191
2011-06-01,0,0.0,0.0,-0.008786493538584919,0.003925187970346644,0.9920723425933715
2011-06-03,0,0.0,0.0,-0.005473480255517943,0.007135176299130899,0.9915795049046526
2011-06-07,-1,-0.0027692125668463997,-0.0023543330427089025,-0.007233953999411985,0.007555461422247415,0.9910804007055598
2011-06-09,-1,-0.0023731328455952752,-0.002012602009351082,-0.007233953999411985,0.007555461422247415,0.9907391131125036
2011-06-13,-1,-0.0029508871600994685,-0.00252542765544547,-0.007233953999411985,0.007555461422247415,0.9909328122547995
2011-06-15,-1,-0.002684389369485547,-0.0023097697688837047,-0.007233953999411985,0.010689320661677618,0.9906970786664877
2011-06-17,-1,-0.0027510771542540906,-0.0023755790599132767,-0.008376090503708118,0.010689320661677618,0.9904296502366148
2011-06-21,-1,-0.002365317492101093,-0.002023187184888744,-0.008376090503708118,0.010689320661677618,0.9904334500780753
2011-06-23,-1,-0.0031932400139826397,-0.0027363811321275263,-0.005000717827060403,0.011764451525074682,0.9894274535423184
2011-06-27,-1,-0.002255185168706056,-0.001961166718164023,-0.00409320274198771,0.010689320661677618,0.9905021165821406
2011-06-29,-1,-0.0020687456160250637,-0.0017994858022409607,-0.005372337955615,0.007338677961905321,0.990120093719801
2011-07-01,-1,-0.0010263079207452686,-0.0008932729454269961,-0.008376090503708118,0.004282378145780926,0.9907583405912717
2011-07-06,-1,-0.0005104833999593536,-0.000507028197525007,-0.009184622579649566,0.004282378145780926,0.988880680711274
2011-07-08,-1,-0.00023899206225341915,-0.000209358349714985,-0.01425347027258256,-0.0007982194304628142,0.9863244945412589
2011-07-12,-1,-0.000511584628833357,-0.0004999035474106322,-0.014880508698577323,0.0029973138453801406,0.9819213726620469
2011-07-14,-1,-0.00010191341409958356,-5.688701528729827e-05,-0.02095735417613475,0.0021860113348666135,0.9770535625913028
2011-07-18,-1,-0.000881023239549391,-0.0008023534560763536,-0.02095735417613475,0.01729000831800334,0.9760334237685245
2011-07-20,-1,-0.000250994462326157,-0.00024221371935423446,-0.02095735417613475,0.013562767660834195,0.9766461180876135
2011-07-22,1,0.00046129518682541193,0.0005765749734415423,-0.02447200925482136,0.0021860113348666135,0.9759246970861396
2011-07-26,0,0.0,0.0,-0.02447200925482136,0.007113765413051756,0.9759045926707376
2011-07-28,0,0.0,0.0,-0.02227224661089147,0.012446148573971525,0.9758873441441227
2011-08-01,-1,-0.0005785964510077533,-0.0005598943732649209,-0.02227224661089147,0.013573726018610597,0.9753645027418402
2011-08-03,0,0.0,0.0,-0.016911248352617512,0.014951552074925862,0.9764848851020912
2011-08-05,0,0.0,0.0,-0.020349917580919447,0.014951552074925862,0.9770980607462381
2011-08-09,0,0.0,0.0,-0.020349917580919447,0.014951552074925862,0.9801011002798902
2011-08-11,0,0.0,0.0,-0.02100613046339964,0.013072993857702908,0.9829978592144036
2011-08-15,-1,-0.0030078843988632182,-0.002691650071006405,-0.02100613046339964,0.01225212173752451,0.9846696374459945
2011-08-17,-1,-0.0026474076436918625,-0.002415510084481737,-0.02100613046339964,0.013072993857702908,0.9824022660859499
2011-08-19,0,0.0,0.0,-0.0165261069830408,0.013072993857702908,0.9843748413110694
2011-08-23,0,0.0,0.0,-0.02018351383883613,0.013072993857702908,0.9829291800593317
2011-08-25,0,0.0,0.0,-0.021021037149229198,0.013072993857702908,0.9811476729774623
2011-08-29,0,0.0,0.0,-0.021021037149229198,0.01465963810692455,0.980738800809147
2011-08-31,0,0.0,0.0,-0.0216294412517612,0.01104559844760363,0.9807176329303884
2011-09-02,0,0.0,0.0,-0.0216294412517612,0.01104559844760363,0.9803848535437321
2011-09-07,-1,-0.002059575584941901,-0.0018643941610203445,-0.021085509968022588,0.016849445499279154,0.9786566900481145
2011-09-09,-1,-0.0035014031983389886,-0.0031475849587668907,-0.013112540638862073,0.017409488518254457,0.9793603760621175
2011-09-13,-1,-0.0024349285570332705,-0.002249411018317822,-0.013112540638862073,0.02177476638340512,0.9777952265062405
2011-09-15,-1,-0.0008611739570630288,-0.0008589127229347503,-0.013112540638862073,0.019472703359898084,0.9781790922504879
2011-09-19,-1,-0.0008788593728536906,-0.0008515997418129003,-0.01744592154734616,0.027662078523912982,0.9759287807270435
2011-09-21,-1,-0.001455482943762871,-0.0014388142933837555,-0.012860358032113548,0.027662078523912982,0.9763493705179159
2011-09-23,-1,-0.0020114956088266123,-0.0019373340943578815,-0.010681625491942001,0.02870094272168295,0.9770411880812151
2011-09-27,-1,-0.0007515793294563919,-0.000679464211166591,-0.012860358032113548,0.02798016210348486,0.978012055007533
2011-09-29,-1,-0.0008700920887200982,-0.0007887971731662593,-0.010681625491942001,0.031014573190947654,0.9768103982501894
2011-10-03,-1,-0.00265491449589458,-0.0024970468015649474,-0.009867931842966627,0.031014573190947654,0.9772017775839378
2011-10-05,-1,-0.001395738366682094,-0.0013941905103579716,-0.010681625491942001,0.019232443153832053,0.9791891207336053
2011-10-07,-1,-0.0009519909073561455,-0.0009141567796337646,-0.010246777786545935,0.027610677600079313,0.9788164003678339
2011-10-11,1,0.0001648953190447949,0.00037583544826671426,-0.008211515003353374,0.01920943587133601,0.9808474153242173
2011-10-13,1,0.0012295295854662716,0.0015752324935388586,-0.013370839135139121,0.018642812684969163,0.9798726202970338
2011-10-17,1,0.0011131694076309685,0.0014355997327776657,-0.011243203025339822,0.018642812684969163,0.9790444026937686
2011-10-19,1,0.0016228854533807447,0.0020341044299407468,-0.017931500387654772,0.018024580635157286,0.9788015843870909
2011-10-21,1,0.002477117100546135,0.002956066583220361,-0.017931500387654772,0.014403015566862782,0.9797823808443807
2011-10-25,1,0.0016299926084762412,0.0019520747016707203,-0.018162925398967075,0.014403015566862782,0.9787149480329939
2011-10-27,1,0.002740595296312113,0.003212392951800195,-0.0199784337942402,0.011828851046057442,0.9799039654942473
2011-10-31,1,0.0017102360102031382,0.0020401921547238285,-0.016409033742946517,0.013738843607120398,0.9810769745840948
2011-11-02,1,0.0011766054285699233,0.0013889711812364756,-0.011972298741998134,0.014419678366831569,0.9807726222455901
2011-11-04,1,0.0018266768886475268,0.002124905723129656,-0.011972298741998134,0.014419678366831569,0.981532271164542
2011-11-08,1,0.0020610204606175014,0.00237077302760874,-0.011972298741998134,0.014419678366831569,0.9816111365696548
2011-11-10,1,0.002011974732191921,0.002346969967650394,-0.011972298741998134,0.014419678366831569,0.9824900679020323
2011-11-14,1,0.0017155624962071811,0.001965401109242521,-0.009446309382952307,0.010266134543363127,0.9855165773959668
2011-11-16,1,0.0012768593257201186,0.0014793952399118477,-0.009446309382952307,0.010174344067076428,0.985461809603653
2011-11-18,1,0.0014882044250633024,0.0017341070067294698,-0.010807071036576172,0.007751635572687189,0.9857034352708165
2011-11-22,1,0.0005520571364793918,0.0007393302643046995,-0.004416094600969127,0.010938275025677237,0.9858618947387778
2011-11-25,1,0.00018001951264082168,0.00031691851561573616,-0.0022853672105473187,0.01737459827885373,0.9848910282581662
2011-11-29,1,0.0008091409217961699,0.00104476036990371,-0.004416094600969127,0.01737459827885373,0.9854315229916266
2011-12-01,1,0.0022270796058914627,0.002619118331267537,-0.006359401067121669,0.013772319943021707,0.9875223178516995
2011-12-05,1,0.0032254052809717717,0.003770976878386933,-0.006359401067121669,0.015025960687141756,0.987071773395047
2011-12-07,1,0.0029122324709951854,0.0033740273145319707,-0.006359401067121669,0.017002658011668968,0.9865541868489487
2011-12-09,1,0.00281562326296695,0.003300248074004547,-0.004398959989550326,0.014754359339783727,0.9883418962488651
2011-12-13,1,0.0033232095178459395,0.0039451993973142994,-0.004398959989550326,0.014754359339783727,0.9875503423589341
2011-12-15,1,0.002583773426594096,0.0031026309000797914,-0.004398959989550326,0.014754359339783727,0.9887952632281112
2011-12-19,1,0.0016922986444156375,0.002037658605595046,-0.003266384912201904,0.014754359339783727,0.9886275431538782
2011-12-21,1,0.0026945675785132756,0.003121280729631232,-0.003474311511840281,0.014048831052274526,0.9901278168123135
2011-12-23,1,0.003316508882673785,0.003774832809352479,-0.003474311511840281,0.011227939794822107,0.991254823335956
2011-12-28,1,0.0018117122454255005,0.0019484121151384592,-0.003474311511840281,0.011227939794822107,0.9916197131347183
2011-12-30,1,0.0020609178232000444,0.0022735964923143483,-0.003474311511840281,0.010475723195630952,0.9918554161037105
2012-01-04,1,0.0028138849592948354,0.003091054357136907,-0.0043338787199146455,0.008518528863325107,0.9920403954264214
2012-01-06,1,0.004087366538177716,0.004607633971394898,-0.0043338787199146455,0.008614509086497593,0.9909878251058334
2012-01-10,1,0.003676660324923866,0.004121664793093851,-0.003799173744061698,0.010836245895704037,0.9912913235495127
2012-01-12,1,0.0021106054545676667,0.002257007742146412,-0.0027299621667970586,0.010836245895704037,0.9924090556820256
2012-01-17,1,0.0019302425833919144,0.0020716366630423406,-0.0027299621667970586,0.010836245895704037,0.9923114760149429
2012-01-19,1,0.0024375169259160273,0.0026260998752487366,-0.0036087075289677035,0.007974257452718087,0.992546203849264
2012-01-23,1,0.0026864709146719543,0.002966950074686064,-0.004370188555382129,0.007974257452718087,0.9926204159651427
2012-01-25,1,0.0032099471165829797,0.0035978037481951145,-0.0047370667712969125,0.007358148204520315,0.9924590148355067
2012-01-27,1,0.001956257043206191,0.0020944341040112476,-0.004370188555382129,0.008041913522542401,0.9923197103903605
2012-01-31,1,0.001825504099988005,0.001956417300363762,-0.004151583557196364,0.008041913522542401,0.9926543780689859
2012-02-02,1,0.0008154762478350376,0.000896391003538546,-0.0024692821019490015,0.008041913522542401,0.9929333708440723
2012-02-06,1,0.002038310742020769,0.0021251939170013018,-0.004151583557196364,0.007304566935357651,0.9937777203088235
2012-02-08,1,0.002974383016884501,0.0032568905666432,-0.004370188555382129,0.006980940812316466,0.9940451460195366
2012-02-10,1,0.002819872395526341,0.0030509294407722347,-0.004370188555382129,0.006980940812316466,0.9942831623698077
2012-02-14,1,0.0019118471623577145,0.0019573411472148918,-0.004721633654426637,0.006980940812316466,0.9922331056531811
2012-02-16,1,0.0014711048853630194,0.0014969226114879104,-0.004721633654426637,0.00659142745986048,0.992464572445818
2012-02-21,1,0.001730550011497105,0.0017887686018662377,-0.0049410813321005345,0.00659142745986048,0.9924308591908819
2012-02-23,1,0.0012353956474604713,0.001273891966688872,-0.004224732783087663,0.00659142745986048,0.9929428655318023
2012-02-27,1,4.3408469822748836e-05,0.00029979804601877374,-0.0016817593372234893,0.0072299703871627225,0.9923425493356466
2012-02-29,1,0.0011157916933955943,0.001183044985526833,-0.005374973393246485,0.006856918505569682,0.9916510178977065
2012-03-02,1,0.0011329024411223217,0.0011944968482846556,-0.006074606545498349,0.006856918505569682,0.9907055104078664
2012-03-06,1,0.001158701574935978,0.0011822677089210476,-0.006074606545498349,0.005958052050533024,0.991201115827103
2012-03-08,1,0.0015164387135186133,0.0015835098375405919,-0.006909968053455512,0.00537381759658712,0.9911973647327509
2012-03-12,1,0.0015225671078994188,0.0015692814898288757,-0.011629381247022131,0.004067665993098558,0.9888478407843951
2012-03-14,1,0.0022649580613799607,0.00242032361955051,-0.009109919571249465,0.006420288402184931,0.9899612262466274
2012-03-16,1,0.0025091630831251153,0.002768582865402154,-0.009109919571249465,0.006420288402184931,0.9896787206959073
2012-03-20,1,0.00206321767786951,0.002211432543525915,-0.009109919571249465,0.00855463828141528,0.9888664714462847
2012-03-22,1,0.002406289267748862,0.0026444731020964494,-0.010109896853011708,0.00855463828141528,0.9882062724127669
2012-03-26,1,0.002220157457948986,0.0023642585084232962,-0.010109896853011708,0.004639094642581924,0.9886110533913505
2012-03-28,1,0.0016405039646371312,0.0017171737450218064,-0.00864934799985784,0.010034896894563447,0.9886945276119077
2012-03-30,1,0.0021444941372402724,0.0023170257754361397,-0.00810025995482629,0.007129823918701856,0.9896243654783182
2012-04-03,1,0.0019286228061534487,0.0021042651369378978,-0.00734521719864515,0.010034896894563447,0.9893634093835206
2012-04-05,1,0.0015267233383045474,0.001633071549008153,-0.00734521719864515,0.010034896894563447,0.9886627201732728
2012-04-10,-1,-0.0002754305552640304,-0.00012431286919864525,-0.005579478791457813,0.013110263921880687,0.9896731956823686
2012-04-12,1,0.00018481810096612755,0.0003130989606308882,-0.005579478791457813,0.013110263921880687,0.9900041873882871
2012-04-16,-1,-0.00028084781183791816,-9.876871728628912e-05,-0.005579478791457813,0.013110263921880687,0.9898153260989362
2012-04-18,0,0.0,0.0,-0.005579478791457813,0.011297451056827435,0.990932087785063
2012-04-20,0,0.0,0.0,-0.006288884206417881,0.011297451056827435,0.9903284747457997
2012-04-24,0,0.0,0.0,-0.005579478791457813,0.01255583147589183,0.9902714033236649
2012-04-26,1,0.0001777962318434003,0.000295558762443679,-0.005579478791457813,0.0073893765048804495,0.9912415657663345
2012-04-30,1,0.00017509447380727124,0.00026688294899966105,-0.004468497168573343,0.011525154178015005,0.9904054366370182
2012-05-02,1,0.00039790873990857526,0.00045674838812025077,-0.004580362087268579,0.011036206097160462,0.9906279261563916
2012-05-04,-1,-0.00032919756476700143,-0.00016223565160698402,-0.004580362087268579,0.011036206097160462,0.9903936862723467
2012-05-08,1,0.00035063583179499976,0.0004540383459134936,-0.004580362087268579,0.010082670263211106,0.9908265593813347
2012-05-10,1,0.00012391513051758388,0.00030884094446386194,-0.004580362087268579,0.010082670263211106,0.9911636470876655
2012-05-14,-1,-0.0003560112685319504,-9.061018380394914e-05,-0.004580362087268579,0.011628310299234685,0.9907233693634322
2012-05-16,0,0.0,0.0,-0.004580362087268579,0.012807581946485853,0.989748265909599
2012-05-18,0,0.0,0.0,-0.0022392397563759194,0.012807581946485853,0.9910355372287704
2012-05-22,0,0.0,0.0,-0.0022392397563759194,0.011628310299234685,0.9910307949641614
2012-05-24,-1,-0.00018789894437920562,-1.1426708642561388e-05,-0.0022392397563759194,0.011628310299234685,0.9911108388582226
2012-05-29,1,0.0009145812540162111,0.0009185548363200495,-0.003964770495824601,0.011628310299234685,0.9909286751232513
2012-05-31,0,0.0,0.0,-0.0022392397563759194,0.01220399918733741,0.9910069857742522
2012-06-04,0,0.0,0.0,-0.0012602574913850241,0.012709829950320821,0.9915045666231459
2012-06-06,0,0.0,0.0,-0.002809794288868262,0.01220399918733741,0.9921205363625291
2012-06-08,0,0.0,0.0,-0.002809794288868262,0.009541343627188394,0.9927744047571113
2012-06-12,0,0.0,0.0,-0.002809794288868262,0.0056491925227934465,0.9931168100887589
2012-06-14,0,0.0,0.0,-0.002097776026990312,0.0056491925227934465,0.9933323460876735
2012-06-18,0,0.0,0.0,-0.0037132111161336215,0.009541343627188394,0.9915663041245553
2012-06-20,0,0.0,0.0,-0.006864351874932223,0.006414764157565886,0.9918633570982328
2012-06-22,0,0.0,0.0,-0.007512316712385038,0.006414764157565886,0.99125729985339
2012-06-26,0,0.0,0.0,-0.006959581619885169,0.003947704071529369,0.9923595261814551
2012-06-28,0,0.0,0.0,-0.006959581619885169,0.004558787363342845,0.9913401402982266
2012-07-02,0,0.0,0.0,-0.007512316712385038,0.003159164678402633,0.9914728174685528
2012-07-05,0,0.0,0.0,-0.006959581619885169,0.00339589907082092,0.9916083723236717
2012-07-09,1,0.0017856059811135723,0.0018819542868245467,-0.006959581619885169,0.0039703837915088126,0.9906792517418392
2012-07-11,1,0.001186388885061196,0.0012002144877232858,-0.006595963483439035,0.006883090613339084,0.9908536565393293
2012-07-13,1,0.0014908975990310604,0.0015422693903017844,-0.006959581619885169,0.0039703837915088126,0.9907399439329964
2012-07-17,1,0.0018084611179370672,0.0018917788849440978,-0.006707692317237682,0.003871074330974602,0.9922148253331525
2012-07-19,1,0.0015053108371873834,0.001542932334514753,-0.0062816865088875275,0.004328898141678543,0.9923293441500926
2012-07-23,1,0.0009805645025753142,0.001001711238791548,-0.002954910537515781,0.004328898141678543,0.9931709921153176
2012-07-25,0,0.0,0.0,-0.004108418659433261,0.004328898141678543,0.9924820759720668
2012-07-27,0,0.0,0.0,-0.0062816865088875275,0.004191711863907818,0.9932717303867702
2012-07-31,0,0.0,0.0,-0.004108418659433261,0.004191711863907818,0.9939946333376637
2012-08-02,0,0.0,0.0,-0.004108418659433261,0.004976163322623085,0.9934583297987742
2012-08-06,0,0.0,0.0,-0.004108418659433261,0.004191711863907818,0.9941342465940066
2012-08-08,0,0.0,0.0,-0.004108418659433261,0.004976163322623085,0.9928044157635695
2012-08-10,0,0.0,0.0,-0.0025878227242849394,0.004976163322623085,0.9933042069383895
2012-08-14,0,0.0,0.0,-0.0007270830041214164,0.004938286505386571,0.9935088557489723
2012-08-16,1,0.006168476177532672,0.00810957847936879,-0.0027984393141319975,0.005117247472089991,0.9915689865838674
2012-08-20,1,0.0016460618242572541,0.0017685304158224216,-0.004377252586783952,0.004863445544093631,0.9926695452701573
2012-08-22,0,0.0,0.0,-0.003928299083137669,0.008014080617231644,0.992775423591725
2012-08-24,0,0.0,0.0,-0.002690521397596419,0.004945795047452252,0.9934099039360397
2012-08-28,0,0.0,0.0,-0.004377252586783952,0.004945795047452252,0.9925625127238918
2012-08-30,0,0.0,0.0,-0.004377252586783952,0.0059610057443862715,0.9926917679977145
2012-09-04,0,0.0,0.0,-0.004763104815177159,0.005640169951884785,0.9923261846921346
2012-09-06,-1,-0.032743375143358566,-0.02759894867150487,-0.004763104815177159,0.0031402445783733123,0.9699866552783762
2012-09-10,1,0.0010092518556473657,0.0010559245643756534,-0.005021810115808977,0.004174726116614561,0.9929517312014663
2012-09-12,1,0.0008541707049822987,0.0009317863604744796,-0.006163222497333726,0.004174726116614561,0.9919291744272418
2012-09-14,0,0.0,0.0,-0.007449978785820946,0.0038012343789751678,0.9920764620995671
2012-09-18,0,0.0,0.0,-0.007449978785820946,0.005339721361044508,0.9918698617953874
2012-09-20,0,0.0,0.0,-0.007449978785820946,0.005339721361044508,0.9915352546309933
2012-09-24,0,0.0,0.0,-0.008673543543989937,0.005339721361044508,0.99118600979506
2012-09-26,0,0.0,0.0,-0.008673543543989937,0.005339721361044508,0.9910163430411946
2012-09-28,0,0.0,0.0,-0.008673543543989937,0.004206581555923686,0.9913477378459601
2012-10-02,0,0.0,0.0,-0.010460435397617453,0.005339721361044508,0.9903497118352607
2012-10-04,0,0.0,0.0,-0.010460435397617453,0.005339721361044508,0.990756382168729
2012-10-08,0,0.0,0.0,-0.008275466436273126,0.004206581555923686,0.9911410329168538
2012-10-10,0,0.0,0.0,-0.008275466436273126,0.004206581555923686,0.9892361152152893
2012-10-12,0,0.0,0.0,-0.007706810864248868,0.008430466373419786,0.9893789939753128
2012-10-16,0,0.0,0.0,-0.008275466436273126,0.006841849529544469,0.9888888849308828
2012-10-18,0,0.0,0.0003771772936896314,-0.008275466436273126,0.006841849529544469,0.9896067183023509
2012-10-22,0,0.0,0.0,-0.007706810864248868,0.008521913168554385,0.9892612908962041
2012-10-24,0,0.0,0.0,-0.005426811268865272,0.009502667526830965,0.9895290922745333
2012-10-26,-1,-0.0005774911277632444,-0.0003279363419945862,-0.005433657817290054,0.0104369515071875,0.989082615061831
2012-11-01,-1,-0.00045717814639981125,-0.0002400082183145779,-0.002072362472730879,0.010392200113153043,0.9901069206279307
2012-11-05,-1,-0.00023650664042745926,-4.589813996725496e-05,-0.005364480948173666,0.010392200113153043,0.9903071006395219
2012-11-07,0,0.0,0.0,-0.005364480948173666,0.010392200113153043,0.9899362563473668
2012-11-09,0,0.0,0.0,-0.002072362472730879,0.010392200113153043,0.9926613829194281
2012-11-13,0,0.0,0.0,-0.002072362472730879,0.00735333676310458,0.9932603925603033
2012-11-15,0,0.0,0.0,-0.005364480948173666,0.006995085837166509,0.9934180581172241
2012-11-19,0,0.0,0.0,-0.005364480948173666,0.010692431933249556,0.9924212483883252
2012-11-21,1,0.0010677969421887964,0.0011312477156340303,-0.0060443003518739396,0.010905461907789666,0.9921201387152742
2012-11-26,1,0.0013288831217551076,0.0014447689814194751,-0.007780519067988951,0.007054057409882955,0.9918216862038576
2012-11-28,1,0.0010817079667295856,0.0011352242517088415,-0.006677099644210337,0.004222330061364548,0.9923908404155385
2012-11-30,1,0.001033087187615932,0.0010705069933785861,-0.007505997935924312,0.004222330061364548,0.9919492420612704
2012-12-04,1,0.0002740305577566921,0.00036505911634309086,-0.006732454547076987,0.007545128986117934,0.9910686900280825
2012-12-06,1,0.0004368649768771929,0.00047399090353757514,-0.006732454547076987,0.012655388440073042,0.9897820411097343
2012-12-10,1,0.0009804517209116275,0.001049641354706603,-0.006732454547076987,0.012655388440073042,0.9897112424006503
2012-12-12,0,0.0,0.0,-0.006732454547076987,0.012655388440073042,0.9898618260934536
2012-12-14,0,0.0,0.0,-0.004494870424005902,0.012655388440073042,0.9903301757256256
2012-12-18,-1,-0.00017461796609671845,-0.00010964988799837464,-0.004494870424005902,0.01066786968650641,0.9906397599769541
2012-12-20,1,0.0004969649948646613,0.0005502816487027841,-0.0041237590780996095,0.008930013518997212,0.9914373355566611
2012-12-24,-1,-0.0006600337823352221,-0.0005501324104998852,-0.0020317447180710434,0.01066786968650641,0.991183606156818
2012-12-27,-1,-0.00039452155487345393,-0.00032789682417593653,-0.0006097473010913554,0.01066786968650641,0.991134387948007
2012-12-31,-1,-0.00016302531510814497,-0.00012008727408033136,-0.0019278137947516252,0.008930013518997212,0.9917288209293893
2013-01-03,1,0.0006562064487887945,0.0007685982136414325,-0.0019278137947516252,0.008930013518997212,0.9924854498408227
2013-01-07,1,0.00011590407104773995,0.00012026161423350009,-0.0019278137947516252,0.008130817835897248,0.993561787784719
2013-01-09,-1,-0.00015391492696292588,-0.00011481262635888884,-0.0017353878747982331,0.008130817835897248,0.9933838811278354
2013-01-11,1,2.430912788447334e-05,2.525306776879663e-05,-0.0006097473010913554,0.008130817835897248,0.993273157508122
2013-01-15,1,0.00042415620476580704,0.0004763989934319869,-0.0006097473010913554,0.00758103842003388,0.9937065257930503
2013-01-17,1,0.0006417199715509285,0.0007002950122707011,-0.0013656048671773656,0.0072895245967178005,0.9942279649395211
2013-01-22,1,0.0007646660547431529,0.0008453827841296902,-0.0018253510150814604,0.005947964773183102,0.993578528994917
2013-01-24,0,0.0,0.0,-0.003127125957897455,0.0045570617806514144,0.9941202688949208
2013-01-28,0,0.0,0.0,-0.004479916694363269,0.0045570617806514144,0.9936455087964674
2013-01-30,0,0.0,0.0,-0.0018253510150814604,0.005585234006707611,0.9935335149803372
2013-02-01,0,0.0,0.0,-0.0018253510150814604,0.006147417693296586,0.9931783086425061
2013-02-05,0,0.0,0.0,-0.0016228327551410478,0.006462125309213392,0.9934528141714107
2013-02-07,0,0.0,0.0,-0.000896196585268535,0.009060988041448568,0.992834524898521
2013-02-11,1,0.0026955902359061847,0.003023349508751276,-0.0016228327551410478,0.009060988041448568,0.9929474126424214
2013-02-13,1,0.002546203283811834,0.0028294545155729905,-0.0016228327551410478,0.009060988041448568,0.9928280452568781
2013-02-15,1,0.0031741904730670854,0.003569271381571856,-0.004176634349073555,0.007486356621610509,0.9924920508241367
2013-02-20,1,0.0025737386666872895,0.0028901782649930633,-0.004176634349073555,0.009060988041448568,0.9926761698350549
2013-02-22,1,0.0018636748365871605,0.0020428881129514846,-0.0044952945628661724,0.009060988041448568,0.9921464392413812
2013-02-26,1,0.001687729073896362,0.001853160068920964,-0.0044952945628661724,0.009060988041448568,0.9921252369519651
2013-02-28,1,0.0017820711414325023,0.0019292037683484357,-0.0044952945628661724,0.008383564756393085,0.992154848458859
2013-03-04,1,0.002748706937789426,0.003066471066274803,-0.0044952945628661724,0.007690663162136685,0.9923828378995881
2013-03-06,1,0.002880094322828256,0.0032014808799365386,-0.005028551472004203,0.007230750379081221,0.9926170633486628
2013-03-08,1,0.0029300366773842568,0.003202811685040336,-0.005028551472004203,0.007230750379081221,0.9927006204494506
2013-03-12,0,0.0,0.0,-0.0031214435401942784,0.007690663162136685,0.9919970012732595
2013-03-14,0,0.0,0.0,-0.0031214435401942784,0.007690663162136685,0.9921868498878563
2013-03-18,0,0.0,0.0,-0.003032691239751912,0.009056958895774285,0.990056640860204
2013-03-20,0,0.0,0.0,-0.003032691239751912,0.007690663162136685,0.9904397951550333
2013-03-22,0,0.0,0.0,-0.002158811576601338,0.008999674326014652,0.989750158759949
2013-03-26,0,0.0,0.0,-0.002158811576601338,0.010410682628508541,0.9896410587447039
2013-03-28,0,0.0,0.0,-0.0019766707227650906,0.010410682628508541,0.9899155420175435
2013-04-02,0,0.0,0.0,-0.0022075135953232255,0.01111546475450841,0.9896566860783784
2013-04-04,0,0.0,0.0,-0.0013883916185653243,0.012050159993299475,0.9893191947717129
2013-04-08,-1,-8.250980815655283e-05,-2.809705131070689e-05,-0.0013883916185653243,0.011550223798207809,0.9894633464446331
2013-04-10,1,0.0023091662077060473,0.0024266526276564854,-0.0014323463881951543,0.011550223798207809,0.9900984605299432
2013-04-12,1,0.002131752665583103,0.0021982081934410645,-0.0014323463881951543,0.011550223798207809,0.9897279022430759
2013-04-16,0,0.0,0.0,-0.0011669099408925566,0.010378352474205734,0.9918904514364555
2013-04-18,0,0.0,0.0,0.0004238099923080361,0.010378352474205734,0.9914885189835443
2013-04-22,0,0.0,0.0,-0.0014323463881951543,0.009591169057935115,0.9927147686424355
2013-04-24,1,0.00035958100751218194,0.000367125325078439,-0.0022075135953232255,0.008538337462166545,0.9933880749527771
2013-04-26,0,0.0,0.0,-0.0028921599401250733,0.008538337462166545,0.992975856690456
2013-04-30,1,0.00224762582444941,0.0023678037360140916,-0.004058694199792289,0.008538337462166545,0.9934017585596441
2013-05-02,1,0.0024505452387358173,0.0025670711774609715,-0.00550086865375893,0.00499659164639674,0.9913229823829807
2013-05-06,1,0.0029120580299426655,0.003079819807255513,-0.00550086865375893,0.00811735777142077,0.9911656298184873
2013-05-08,1,0.0033663608864488064,0.00359792909437062,-0.006563052656228372,0.004976754839197265,0.9906009054937718
2013-05-10,1,0.003224465912395098,0.0033919137855206467,-0.009113864070877019,0.0032196292626603526,0.9891063350690198
2013-05-14,1,0.003605788150772522,0.0038841817059835047,-0.01345405325695487,0.0032196292626603526,0.9880961678784379
2013-05-16,1,0.0031374020062488153,0.0033651963059515583,-0.009006053205693686,0.00514452818204448,0.9879717765345252
2013-05-20,1,0.0021925637866886797,0.002221192739357957,-0.009006053205693686,0.010964778196868395,0.9878493893258954
2013-05-22,1,0.001608643076784575,0.0016701759958437793,-0.014959850066831025,0.010964778196868395,0.9858871553327047
2013-05-24,0,0.0,0.0,-0.014959850066831025,0.011585696363180516,0.9857777950765313
2013-05-29,0,0.0,0.0,-0.014959850066831025,0.010964778196868395,0.9863836051456696
2013-05-31,0,0.0,0.0,-0.009883007490040892,0.010964778196868395,0.9879217606058334
2013-06-04,0,0.0,0.0,-0.01103415444578933,0.011136438651581326,0.9877852846928926
2013-06-06,0,0.0,0.0,-0.009329096755252054,0.011136438651581326,0.988302538812616
2013-06-10,1,0.00016019373164046728,0.00038331974660949723,-0.008068426818988702,0.011136438651581326,0.9897038597076036
2013-06-12,0,-1.0442690956501263e-05,0.00019651194466664202,-0.00541127870715862,0.012163389374072001,0.9890272298106043
2013-06-14,1,0.00018773796882900985,0.00035793350934226975,-0.005703596801941022,0.011136438651581326,0.9893998383915802
2013-06-18,1,0.0011693664925723727,0.0011960678448426087,-0.009329096755252054,0.008608416728327658,0.9897047659210275
2013-06-20,0,0.0,0.0,-0.005703596801941022,0.008608416728327658,0.9911353626821741
2013-06-24,0,0.0,0.0,-0.009215857598145083,0.007295541599740233,0.9913458130193221
2013-06-26,0,0.0,0.0,-0.009215857598145083,0.006265357085281404,0.9917376110907921
2013-06-28,0,0.0,0.0,-0.006777398034116259,0.006171251460433534,0.9919667386619593
2013-07-02,0,0.0,0.0,-0.005934406557211289,0.006171251460433534,0.9924025102243201
2013-07-05,0,0.0,0.0,-0.005934406557211289,0.007109240371350196,0.9914312560219626
2013-07-09,1,0.0002739459018425037,0.00043753543664241945,-0.006833339766440854,0.007109240371350196,0.9912812465021112
2013-07-11,1,0.0014490165252310672,0.0014552475875809288,-0.008032368426322083,0.0067556127487281925,0.9914314694143311
2013-07-15,0,0.0,0.0,-0.01043637266888534,0.0067556127487281925,0.9911906369042995
2013-07-17,0,0.0,0.0,-0.008032368426322083,0.0067556127487281925,0.9920574699289454
2013-07-19,0,0.0,0.0,-0.008441454012634818,0.0038764215878321563,0.9915162606538576
2013-07-23,0,0.0,0.0,-0.006833339766440854,0.0038764215878321563,0.9918192714319805
2013-07-25,0,0.0,0.0,-0.008515210786632284,0.006826923496806589,0.9910429352757473
2013-07-29,0,0.0,0.0,-0.008515210786632284,0.0029258631589141213,0.9912757465328399
2013-07-31,0,0.0,0.0,-0.011058122123953708,0.001589396703392532,0.9913368325418799
2013-08-02,0,0.0,0.0,-0.011058122123953708,0.0009715157607683277,0.9923227238188668
2013-08-06,1,0.0006766561573629742,0.0007410715344410799,-0.011058122123953708,0.0015060451452077388,0.9931202949605682
2013-08-08,-1,-0.0004277466839034145,-0.0002029946394336903,-0.007306378970287505,0.0017272521189446476,0.9940766153510059
2013-08-12,-1,-0.001313014950480431,-0.0009815994930917529,-0.004436948735176241,0.0029929422909306,0.9940302048738126
2013-08-14,-1,-0.001481366674227578,-0.0011196582789039014,-0.004436948735176241,0.003553420691864621,0.9919561947873226
2013-08-16,-1,-0.0023977843354680965,-0.001885580724418768,-0.0004167557426458594,0.005374538051815242,0.9916100751588998
2013-08-20,0,0.0,0.0,0.0012444609299821013,0.005374538051815242,0.9926491334160972
2013-08-22,0,0.0,0.0,-0.0005750753935152832,0.003921532523557841,0.9920888317149154
2013-08-26,-1,-0.0031418942206811865,-0.0025795743227228197,-0.004022811247397548,0.003921532523557841,0.9910594908104835
2013-08-28,-1,-0.0031048477132029455,-0.0025713911141690238,-0.0005516815847701166,0.006394444668401516,0.9906766135318413
2013-08-30,-1,-0.0027161580007779434,-0.002264047801604166,-0.0015746024896486166,0.005875910563671769,0.9907452913187301
2013-09-04,-1,-0.0024638231575746824,-0.0020481266757655468,-0.0015746024896486166,0.007018542377614386,0.9907751588490828
2013-09-06,-1,-0.002073260913947366,-0.001722683073832773,-0.004659795917505816,0.013609851142749794,0.9897221117104532
2013-09-10,-1,-0.0016609617786929173,-0.0013290715205041504,-0.00953534183937247,0.007018542377614386,0.990351444247352
2013-09-12,1,0.0005897702099589283,0.0005965368859065306,-0.00953534183937247,0.004129565093295464,0.9906149770113961
2013-09-16,1,0.0006916420566741705,0.0006941299349587167,-0.00953534183937247,0.006295194180788022,0.9907555947606728
2013-09-18,1,0.0007600373431404561,0.0007616955601769364,-0.00953534183937247,0.006295194180788022,0.9903869486272043
2013-09-20,-1,-0.00019056188437585175,-9.801788125455126e-05,-0.006464918550377187,0.00942477580722301,0.9915393730001808
2013-09-24,-1,-0.0002579907658864799,-0.00018555877384793072,-0.005978331830965718,0.009952587994985364,0.9906603143838693
2013-09-26,1,0.0006214186550383394,0.0006877501821275482,-0.007088306904545698,0.009952587994985364,0.9901712398717833
2013-09-30,1,0.0004465579320278995,0.0005216407387023938,-0.005978331830965718,0.009952587994985364,0.9904362105586467
2013-10-02,1,0.0009242253580187323,0.0010915739908183334,-0.00643700202134132,0.009952587994985364,0.9903097362138084
2013-10-04,1,0.001308648250358056,0.0015315646707340987,-0.005978331830965718,0.00942477580722301,0.9916879894540576
2013-10-08,1,0.00031621404761363633,0.00038109117772588605,-0.0031121480301012816,0.00942477580722301,0.9923828703120257
2013-10-10,1,0.0010291643267478438,0.0011770412168681087,-0.0031121480301012816,0.007478787461117787,0.9929489402375834
2013-10-14,1,0.001447789116813348,0.0016445513530592472,-0.0035632322383095313,0.0063051501638651955,0.9925338823730531
2013-10-16,1,0.001125199698734992,0.0012812813769862298,-0.0035632322383095313,0.007885420037309803,0.9917379271950459
2013-10-18,1,0.0017373118943929129,0.0019837016968579178,-0.0035632322383095313,0.008550836482185197,0.9914987321662119
2013-10-22,1,0.0017030290211480664,0.0018533054647770237,-0.005733006094566657,0.0038118023986590966,0.9918292922140519
2013-10-24,1,0.0019700992065813656,0.0021908929377323252,-0.004182397550245133,0.0038118023986590966,0.9926466176676643
2013-10-28,1,0.001489905488283358,0.0016134031075901722,-0.005733006094566657,0.004318901700614145,0.9925672501797451
2013-10-30,1,0.0012713341631029043,0.0013712793398917298,-0.005540713880167242,0.007156483790041355,0.9917870442397394
2013-11-01,1,0.0011938057659955127,0.0012530467333172874,-0.005540713880167242,0.006497881288856902,0.991614897484357
2013-11-05,1,0.0013266966140812666,0.0014321299105779274,-0.0059582457342105925,0.006497881288856902,0.9910863733767551
2013-11-07,1,0.0009854771401290895,0.0010854740954712363,-0.005540713880167242,0.011497727788900281,0.9916010073266338
2013-11-11,1,0.000771044471946759,0.000786915604986413,-0.005540713880167242,0.007415542555531636,0.9921960717270336
2013-11-13,1,0.0014048442730304088,0.001511396771864877,-0.0059582457342105925,0.005551176878795534,0.9920597334468242
2013-11-15,1,0.0016776141860229757,0.0018395984385579144,-0.0059582457342105925,0.005551176878795534,0.9921667022738588
2013-11-19,1,0.0012999346676738175,0.0013942342068596898,-0.005113391838628533,0.007415542555531636,0.9919000110959401
2013-11-21,1,0.0017707612886586573,0.0019269691820775108,-0.0059582457342105925,0.007517848501788183,0.9914740926504453
2013-11-25,1,0.0017012900206240249,0.001865746872203873,-0.005113391838628533,0.011037324163109733,0.9911779775517499
2013-11-27,1,0.0024160944155869725,0.0026962318305843035,-0.0039382484217798915,0.010486168657451873,0.9918802266311502
2013-12-02,1,0.0027345350327107358,0.0031034741659316124,-0.0039382484217798915,0.011037324163109733,0.9912104053226999
2013-12-04,1,0.0020789627821660535,0.0023368350373696896,-0.002477916367213035,0.011037324163109733,0.991613492004285
2013-12-06,1,0.0025456581598000574,0.0028511831068610627,-0.0036663641575128796,0.010486168657451873,0.9918940681928426
2013-12-10,1,0.0023892520123911768,0.0026623985474027016,-0.003921260848217412,0.010486168657451873,0.9912702645153566
2013-12-12,1,0.0013007104217528922,0.001407525413643142,-0.0036663641575128796,0.010486168657451873,0.9910285291149711
2013-12-16,1,0.0016002759358066847,0.0017459436150856066,-0.0036663641575128796,0.010486168657451873,0.9908116160683388
2013-12-18,1,0.002410246218004547,0.0026576687794311635,-0.0036663641575128796,0.008440434771654534,0.9913931531024848
2013-12-20,1,0.002140640054161194,0.002349837680047031,-0.0032290389224777917,0.008440434771654534,0.991681617032413
2013-12-24,1,0.0031925403841151427,0.00359383281681676,-0.003921260848217412,0.006621096683596805,0.9902092169510949
2013-12-27,1,0.003534892061255803,0.004004843149591983,-0.004806428440534782,0.006621096683596805,0.9900354894795433
2013-12-31,1,0.004146528051988561,0.004597338792489031,-0.0065735595366348395,0.006621096683596805,0.9885823523869295
2014-01-03,1,0.003245092537445888,0.0035317895653063838,-0.009916085088189855,0.006621096683596805,0.9869140923367024
2014-01-07,1,0.0033020767170324193,0.0035911545084158286,-0.009916085088189855,0.009038001223167516,0.9865340106654376
2014-01-09,1,0.002559865715073626,0.00268562177691042,-0.007261328198111041,0.01123460643411566,0.9853410436008084
2014-01-13,1,0.002052726637730552,0.002088992046628992,-0.0065735595366348395,0.015005957006691821,0.9858819753314632
2014-01-15,1,0.0024894230164686287,0.0025755055396448224,-0.0065735595366348395,0.01123460643411566,0.986623795047447
2014-01-17,1,0.001893889559274407,0.0019079033895085676,-0.0065735595366348395,0.015005957006691821,0.9861697365251252
2014-01-22,1,0.0020267482303293768,0.002044681112974961,-0.007261328198111041,0.011280985866621896,0.9862278520390039
2014-01-24,1,0.0009034059839678856,0.001062982583770838,-0.0017120762290639656,0.0126888636388314,0.9871193612744419
2014-01-28,1,0.0009322383832336926,0.0010852067268131058,-0.002825852611176316,0.0126888636388314,0.9873806646075973
2014-01-30,1,0.0010319911743328835,0.001174865789396388,-0.0005014633107075841,0.010462241978162186,0.9893951554313468
2014-02-03,0,-0.00012074945949569667,0.00012278368636086073,0.0010597584716250316,0.0126888636388314,0.9889651727869648
2014-02-05,1,0.0014434945742295164,0.0014515403021461673,0.0010597584716250316,0.011870406578081652,0.9898419576708085
2014-02-07,1,0.0025580049428283002,0.002754203627632728,-0.0019453652203562084,0.010072416195652995,0.9917604415291774
2014-02-11,1,0.0030273786980489293,0.003283306498847209,-0.0037998143150660005,0.007611565384840377,0.9921992172957353
2014-02-13,1,0.002358528248940362,0.0024613496770477324,-0.007061414352753002,0.007611565384840377,0.991187895712234
2014-02-18,1,0.002557672182144995,0.0026512685972047813,-0.007061414352753002,0.007611565384840377,0.9910860334169037
2014-02-20,1,0.002574825969855517,0.00269735624486983,-0.007636856338575796,0.007611565384840377,0.9906841247637609
2014-02-24,1,0.0027334340218683126,0.0028342552760018645,-0.010833285034069709,0.005589241531159247,0.990286617933751
2014-02-26,1,0.0023150507176926886,0.0023654873471343645,-0.011340387897732196,0.005589241531159247,0.9901634707912669
2014-02-28,1,0.0027809503964012364,0.002903889710924694,-0.011340387897732196,0.00671677408644262,0.989910773652043
2014-03-04,1,0.002323287851682901,0.0023300684918631225,-0.010833285034069709,0.0075245545995246245,0.9908013627710245
2014-03-06,1,0.002746915957298682,0.002815536626772466,-0.010833285034069709,0.004678216972431856,0.9912864219232501
2014-03-10,1,0.0022321121307060415,0.002254466574383243,-0.011340387897732196,0.004678216972431856,0.9906812489607724
2014-03-12,1,0.0015408529607350222,0.001631879119106571,-0.01095007704007769,0.00671677408644262,0.9909729322236781
2014-03-14,1,0.0010165654016816264,0.0011241853523163876,-0.01095007704007769,0.00671677408644262,0.9897512040647092
2014-03-18,1,0.0021395075203978816,0.0022181872768910985,-0.01095007704007769,0.005794976037837251,0.9901237625180332
2014-03-20,1,0.0016893012611563902,0.0017039030826408565,-0.007513880628706239,0.00876849637667928,0.9899976820335897
2014-03-24,1,0.0005716028253183571,0.0007054812496504955,-0.007588420557276666,0.00876849637667928,0.9903136636784835
2014-03-26,-1,-0.00033342776964077393,-7.954245028343678e-05,-0.002948227253559382,0.00876849637667928,0.9906611817868279
2014-03-28,0,-0.0001337818039347865,8.340739690522393e-05,-0.007588420557276666,0.00876849637667928,0.9900126798003396
2014-04-01,1,0.0006898846103804187,0.0008202997872292788,-0.007588420557276666,0.008166113626355295,0.9907438351790744
2014-04-03,0,-0.00011012422598669384,0.00016384023039176876,-0.007588420557276666,0.009032674796302013,0.9901389051808276
2014-04-07,-1,-0.0007141522430033488,-0.0004091697354423082,-0.0031925982897147197,0.00983434470568399,0.9907929931529474
2014-04-09,1,0.00010718884886514325,0.00028800434894986674,-0.00592694050576267,0.00983434470568399,0.9906034344370043
2014-04-11,-1,-0.0010265190032826346,-0.0007230175127020256,-0.00019833167059643564,0.00983434470568399,0.9917794896860772
2014-04-15,-1,-0.0010893307221891027,-0.0007414248667716956,-0.004531957794544406,0.00983434470568399,0.9915027034812938
2014-04-17,1,7.14165239143206e-05,0.000263122332530918,-0.006597343880460902,0.006526735562802298,0.9925872305913492
2014-04-22,-1,-0.00068698950930051,-0.0003936945951003031,-0.004531957794544406,0.008382837422531623,0.9927624715311778
2014-04-24,-1,-0.0003250588513721052,-0.00010169715285817435,-0.004531957794544406,0.009032674796302013,0.9921489012629011
2014-04-28,-1,-0.0011663342181761325,-0.0008365950329787353,-0.00021475908163620932,0.00983434470568399,0.9920381376478336
2014-04-30,-1,-0.0006996090767284344,-0.00040734141665523123,-0.0018387144542626726,0.008514228474236739,0.992959687158635
2014-05-02,1,8.248763500241806e-05,0.00025167994344946497,-0.0018387144542626726,0.006353920122113874,0.9936174529379208
2014-05-06,1,0.00040603081836513487,0.0005368620149567448,-0.002285167622539235,0.005291463186174893,0.9939240661355841
2014-05-08,1,0.00032722215641623945,0.0004138635089045311,-0.0017551677095318894,0.005291463186174893,0.9947152043767077
2014-05-12,1,0.00046962776063932813,0.0005299046918002326,-0.0025351682474379633,0.005460225170848086,0.9942581290365082
2014-05-14,1,0.0005319552288454446,0.0005373870841484194,-0.0026608698582284464,0.005460225170848086,0.993994286860541
2014-05-16,-1,-0.0002810705767527483,-0.00015554902600331105,-0.0017551677095318894,0.0061315522005458796,0.99420170420517
2014-05-20,1,0.00042294990504421334,0.0004284680309548193,-0.001761790743746808,0.005367320090731089,0.9943520632535057
2014-05-22,1,0.0009959271461051462,0.001076618453671728,-0.0026608698582284464,0.005073748210773361,0.994442967156617
2014-05-27,1,0.0020907293871001388,0.002379116674187987,-0.0026608698582284464,0.004481510385346032,0.9948475309184133
2014-05-29,1,0.0021169811759939997,0.0023976518596490596,-0.0026608698582284464,0.0052975238873392925,0.9943508589559955
2014-06-02,1,0.0021911541251260426,0.002488409412770076,-0.0026608698582284464,0.0061315522005458796,0.9939911165609269
2014-06-04,1,0.001805806069941883,0.0020063399088813215,-0.001761790743746808,0.006446542691401445,0.9939518475249293
2014-06-06,1,0.001479822671310974,0.0015941291412244819,-0.0019802131078092713,0.006167827451050455,0.9939519218642161
2014-06-10,1,0.0016667160276496425,0.0018306670162594235,-0.0019802131078092713,0.006167827451050455,0.9937086958945933
2014-06-12,1,0.0006760019833532315,0.0007051628860629184,-0.0011451707118569083,0.006167827451050455,0.9945932973397171
2014-06-16,1,0.0012552517288587557,0.0013977383625351273,-0.0019802131078092713,0.0055074950673829216,0.9943973006588472
2014-06-18,1,0.0006388489077011195,0.0006529030196728976,-0.0038438233179924437,0.0055074950673829216,0.9940227936554009
2014-06-20,1,9.461396442307966e-05,0.00016792240052876042,-0.003096459396159568,0.007045064281573432,0.994313223062313
2014-06-24,0,-5.7345701009450236e-05,3.230114600215241e-05,-0.003096459396159568,0.007045064281573432,0.9940502960817855
2014-06-26,-1,-0.00019733792352084184,-8.351131572784652e-06,-0.0038438233179924437,0.0062398153497833665,0.9944033146544816
2014-06-30,1,0.0011039324024193237,0.0011399258466589304,-0.0047373296080764635,0.0062398153497833665,0.9937008611318555
2014-07-02,1,0.0010341179183967768,0.0010479720025635625,-0.006682836565525674,0.006319558804811411,0.9928211777634223
2014-07-07,1,0.0013471413849594932,0.001456334594100317,-0.006682836565525674,0.008918148901280851,0.9917699808181736
2014-07-09,1,0.0018530373769218862,0.0020364132664908345,-0.006008262259981773,0.006319558804811411,0.9922737080472603
2014-07-11,1,0.0018341729110359975,0.002041969114463011,-0.006682836565525674,0.008918148901280851,0.9912870014478509
2014-07-15,1,0.0013093075046083404,0.001434467436998032,-0.006008262259981773,0.008918148901280851,0.991441483787957
2014-07-17,1,0.0009585408100368529,0.0010847427596057237,-0.005668018307827507,0.009547193819208674,0.9915685463498884
2014-07-21,1,0.0010358569696886856,0.0011576512392094704,-0.005668018307827507,0.009292123968347318,0.9914129061861885
2014-07-23,1,0.0012660408191835996,0.0014387973633414831,-0.005668018307827507,0.009292123968347318,0.9916276223131056
2014-07-25,1,0.0016451496330199232,0.0018908797964128058,-0.0038898884437518306,0.008463671311221652,0.9921871785847686
2014-07-29,0,0.0,0.0,-0.003481519381630198,0.007603032485163383,0.9926147483248376
2014-07-31,0,0.0,0.0,-0.002909826210217686,0.007503440010398113,0.9936765537929475
2014-08-04,0,0.0,0.0,-0.002909826210217686,0.007503440010398113,0.9943430993602324
2014-08-06,0,0.0,0.0,-0.002909826210217686,0.007503440010398113,0.9942008531531505
2014-08-08,1,0.0018245031762737863,0.002085800398365024,-0.002909826210217686,0.007503440010398113,0.9952936512003282
2014-08-12,1,0.0014393278088092308,0.0016070323833194894,-0.0030510130283550488,0.006398322729777322,0.9951002325488453
2014-08-14,1,0.0018042804868501257,0.001979629291900432,-0.00347061987956859,0.005272819756261534,0.9952174033523727
2014-08-18,1,0.0019419287531426345,0.002119440696315085,-0.00347061987956859,0.004059160038789733,0.9956036596581631
2014-08-20,1,0.0018999912308381743,0.0020777573429213176,-0.00347061987956859,0.004059160038789733,0.995726088777381
2014-08-22,0,0.0,0.0,-0.0039050798360422854,0.0025539071563794712,0.9955014768137957
2014-08-26,1,0.0022830213906747743,0.002567679185561409,-0.0039539408033897145,0.004059160038789733,0.9943434281008506
2014-08-28,1,0.00160937656669527,0.001737983654689695,-0.005333235232331313,0.004685986492424088,0.9936646141114104
2014-09-02,1,0.0019385241463103528,0.0021437886994648326,-0.005333235232331313,0.0028316833250087844,0.9942273382662411
2014-09-04,1,0.00044796760442213806,0.0005621189369217914,-0.00865083400075118,0.0028316833250087844,0.9935741554623897
2014-09-08,1,0.000616280470620844,0.0007074586118323643,-0.00865083400075118,0.0028316833250087844,0.9932660425138325
2014-09-10,1,0.0005228578739990118,0.0005855212098298226,-0.008744537443415992,0.004685986492424088,0.9924880881319167
2014-09-12,1,0.00029631580252037,0.000399524425434884,-0.011546908099250611,0.005062679148998348,0.9912177266586244
2014-09-16,1,0.0004349016705020884,0.0005261435773263989,-0.013802721064607686,0.00368914366641762,0.9900431467029339
2014-09-18,0,-0.00011935948312530667,5.339388584566461e-05,-0.015663948856901505,0.00368914366641762,0.9886647388373881
2014-09-22,-1,-0.0003449872084787775,-0.00012576109650310418,-0.015663948856901505,0.008575607628728471,0.9871611651665817
2014-09-24,0,-0.00013788590289446283,2.3265281003689408e-05,-0.015663948856901505,0.008575607628728471,0.9869170649560133
2014-09-26,-1,-0.0003682257931236216,-0.00020060462593758205,-0.010093921375531143,0.01053353447569381,0.987149038800343
2014-09-30,-1,-0.00023427914554011506,-9.362240701717286e-05,-0.010093921375531143,0.012792967593180726,0.9864337670894728
2014-10-02,-1,-0.0011475008464083328,-0.0009195530095891958,-0.004592516043170984,0.012792967593180726,0.9869290577664849
2014-10-06,-1,-0.0008598349717659503,-0.0006259036656812917,-0.004592516043170984,0.011824157485129171,0.9871786960896565
2014-10-08,-1,-0.001396736537664918,-0.00108720707476728,-0.004592516043170984,0.010877953779290161,0.9874027257459667
2014-10-10,-1,-0.0018434453980950883,-0.001495043624911356,-0.004592516043170984,0.011456112090737798,0.9873894620407868
2014-10-14,-1,-0.001827593037887148,-0.0014921815878073748,-0.00421874154706783,0.011456112090737798,0.988625808901777
2014-10-16,-1,-0.0029557794169081104,-0.002517678775974658,-0.0019653944450232566,0.011456112090737798,0.9888610592539172
2014-10-20,-1,-0.0019370193391334233,-0.001625095194915331,-0.0029071303355418473,0.008334739253481207,0.9913863128540231
2014-10-22,-1,-0.001713627616272469,-0.001434858229100052,-0.0029071303355418473,0.007322431525221357,0.9926702493265344
2014-10-24,-1,-0.0012439838438166539,-0.0010166213307039925,-0.004333340708444472,0.006720670474860145,0.9931806916554246
2014-10-28,-1,-0.0006084294161966062,-0.00046279114390381204,-0.004333340708444472,0.007322431525221357,0.9925436176800776
2014-10-30,-1,-0.0004707952213796553,-0.0003441674144946666,-0.0029071303355418473,0.006720670474860145,0.9926418184998026
2014-11-03,-1,-0.0004961731318241201,-0.00033504598740580053,-0.0029071303355418473,0.006720670474860145,0.992958442181133
2014-11-05,-1,-0.000749857126182245,-0.0005621788833484212,-0.002796220914787407,0.006454702824873412,0.993757221952181
2014-11-07,-1,-0.0007901937279106497,-0.0006019420410212182,-0.001689575492550768,0.005868306111210397,0.9949917654202847
2014-11-11,-1,-0.00110035194638008,-0.0008531421256986763,-0.003962419056466569,0.005868306111210397,0.9941048877819421
2014-11-13,-1,-0.0009789382225806338,-0.000737528258706836,-0.003962419056466569,0.0039906007608871705,0.994304024104593
2014-11-17,-1,-0.00015184275251043988,-4.8516125375634754e-05,-0.0054336249263721255,0.003630678149555659,0.9940624215456451
2014-11-19,-1,-0.00014141695876236963,-6.656982765088917e-05,-0.004500820312002787,0.006890603879352279,0.9930195444075859
2014-11-21,-1,-0.00030549504874899077,-0.00022781824491099951,-0.0030882354707575934,0.009182997882519112,0.9926376837492582
2014-11-25,1,0.0006136431356244231,0.0006495851543067199,-0.003101468591993952,0.005868306111210397,0.9939775357616369
2014-11-28,1,0.0010799627910222651,0.0011863438383315815,-0.003101468591993952,0.005878764628195221,0.9940109439117071
2014-12-02,1,0.0012986307252511433,0.0014298776427744758,-0.005651215460647495,0.005322530769253444,0.9936186626374848
2014-12-04,1,0.0010769977427115634,0.0011589815664260125,-0.006844274224521558,0.005322530769253444,0.9928002768523182
2014-12-08,1,0.0009477251378403138,0.0009832210245785296,-0.006844274224521558,0.005516443308923317,0.9922852941692559
2014-12-10,1,0.0003455264361167243,0.00037040635814224594,-0.0053244590286577066,0.007402788938232878,0.9928051473666559
2014-12-12,1,0.0002445044820662548,0.00027612446743793785,-0.0053244590286577066,0.00835354313369629,0.9925377478048153
2014-12-16,-1,-0.00032021170268535775,-0.00022463039960323572,-0.004829614846758196,0.00835354313369629,0.9925890431327659
2014-12-18,1,0.0004017001528605329,0.00041353841507159854,-0.004829614846758196,0.006777420312359312,0.9933743314124481
2014-12-22,1,0.0007142494974768036,0.0007299685378583214,-0.0053244590286577066,0.006777420312359312,0.9934020021065233
2014-12-24,1,0.0009528643279534737,0.0010195013188852107,-0.0053244590286577066,0.006777420312359312,0.9934983986700222
2014-12-29,1,0.001130766896499399,0.0012067243635391033,-0.006606596100789497,0.005610466806258327,0.9926517338854057
2014-12-31,1,0.00062002794126118,0.0006343496220928628,-0.007033618048047695,0.006383347144479462,0.9919270518417419
2015-01-05,0,-3.925470847434195e-05,2.2680853220855994e-05,-0.005482232328247573,0.009155201159648987,0.9912121514713935
2015-01-07,1,0.0007320972326853607,0.0007785183390949064,-0.00497124992487232,0.010357792554839464,0.9877944396108017
2015-01-09,1,0.0014811930043099406,0.0016554942791367788,-0.006022486474970261,0.009199475686019334,0.988075925608105
2015-01-13,1,0.0017054353874042662,0.0019046615313576061,-0.006022486474970261,0.009199475686019334,0.9882824259774458
2015-01-15,1,0.0015042008226366019,0.0016883149812703356,-0.00497124992487232,0.01047107075554718,0.9879394613019334
2015-01-20,1,0.0014596265006434285,0.0016257745522985255,-0.004893503290489056,0.01047107075554718,0.9882851224166498
2015-01-22,1,0.001585628620626447,0.001770250065387623,-0.003261681472019898,0.007430691806822705,0.9888007801904505
2015-01-26,1,0.001538885835020624,0.0017275856079896003,-0.0028938622478789744,0.007430691806822705,0.988798096425789
2015-01-28,1,0.0006154218158840359,0.0006661502874890659,-0.0025834829128617482,0.009114860673201736,0.989092584859655
2015-01-30,1,3.5527997280350465e-05,5.170539750786853e-05,-0.0025834829128617482,0.011355062816698975,0.9893933971660427
2015-02-03,1,0.0008383624382436126,0.0009014457889021033,-0.0028938622478789744,0.006914298140625413,0.9905446640417989
2015-02-05,1,0.0020665356809005373,0.0022926129132042157,-0.004721743219551614,0.004682102777597043,0.9937563210351321
2015-02-09,1,0.001844206964651282,0.0020501053324055007,-0.004721743219551614,0.0058602607808669275,0.9927500931172053
2015-02-11,1,0.0017943770137985717,0.0019926847018571494,-0.004721743219551614,0.006914298140625413,0.9907373737159774
2015-02-13,1,0.0022339349052413232,0.002464768814642646,-0.005539215644867236,0.006914298140625413,0.9908153631094255
2015-02-18,1,0.0020233548958799178,0.0022232473520970865,-0.005539215644867236,0.008633180121479525,0.9905512014936927
2015-02-20,1,0.0019529198835484458,0.0021237628555222975,-0.005870705743273607,0.008913690199079689,0.9900854427255216
2015-02-24,1,0.001965692124004378,0.0021403313205012654,-0.006942241545136117,0.008913690199079689,0.9896401990266519
2015-02-26,1,0.0013575918700246795,0.0013854075677315644,-0.006942241545136117,0.008913690199079689,0.9895140152829465
2015-03-02,1,0.0019986769538360245,0.0021430605829378165,-0.006942241545136117,0.006734951092621769,0.990307793783904
2015-03-04,1,0.0016068401247056594,0.0016803224334962534,-0.007672898394451972,0.006734951092621769,0.9900607064414988
2015-03-06,1,0.0004715189852551932,0.0005777167321447119,-0.005870705743273607,0.006734951092621769,0.9906233406884837
2015-03-10,-1,-0.000509315957981331,-0.0002362934070305417,-0.0042532252286532155,0.006734951092621769,0.9918774780183774
2015-03-12,1,0.0002874166715293979,0.00048178792835762354,-0.0042532252286532155,0.005500164326544725,0.9937462185463659
2015-03-16,1,0.0009778646482598355,0.0010185778272188272,-0.003892459880191624,0.0052604767631332025,0.9942230541602043
2015-03-18,1,0.0013105511861558527,0.0013352926490144638,-0.003646449862943402,0.0052604767631332025,0.9943670476684916
2015-03-20,1,0.0015536334474062692,0.0016389271439225463,-0.003646449862943402,0.0052604767631332025,0.9938433663371135
2015-03-24,1,0.0012817248860413446,0.0013522996980111772,-0.003646449862943402,0.0052604767631332025,0.9941629594306107
2015-03-26,1,0.0007548619957125577,0.0007586125411569947,-0.0022926774777250474,0.005500164326544725,0.9944007864146628
2015-03-30,1,0.001191014849875065,0.0012742976983608463,-0.0025066722599983177,0.005421263947495708,0.994525597502102
2015-04-01,1,0.0007925369643643023,0.0008015928008793216,-0.0025066722599983177,0.005421263947495708,0.9945747293748229
2015-04-06,1,0.0006396822302385788,0.0006848169366215778,-0.001964704248095413,0.0065191754778566495,0.9940189681163387
2015-04-08,1,0.0007533350132101144,0.0007907895098719478,-0.0026625301740544984,0.0050847539545751,0.9939180569251448
2015-04-10,1,0.0010457172466371597,0.001048952980520513,-0.004133638099739141,0.006258818628288596,0.9935344283406584
2015-04-14,1,0.0007539078864361163,0.0007901484257842367,-0.004391822168671531,0.006364783888768685,0.9928295852718819
2015-04-16,1,0.000956099117046696,0.0009870842831999774,-0.004391822168671531,0.006114174770059573,0.9930582735229722
2015-04-20,1,0.0005950446466969784,0.0006933257458381294,-0.002682144668681695,0.005787215205824727,0.9942924419516215
2015-04-22,1,0.0010313934386594233,0.001038724890192808,-0.0024480632975168396,0.005787215205824727,0.9943471297530119
2015-04-24,1,0.0017041221924056862,0.0018192167034143236,-0.0024480632975168396,0.004898900017000255,0.9948055351663128
2015-04-28,1,0.0018615398970980655,0.00201430695951566,-0.0034902374701261643,0.004934221770493618,0.9943935954811557
2015-04-30,1,0.0012840046535657077,0.001350345809139204,-0.0023001321287789795,0.004934221770493618,0.9949618835557447
2015-05-04,1,0.0020647941336165506,0.0022451727314027705,-0.0023001321287789795,0.003860757950743707,0.9953632807684106
2015-05-06,1,0.0009862305812440588,0.0010023383103460186,-0.002233463273604908,0.004180636944658747,0.9956356941747325
2015-05-08,1,0.0009275050289647715,0.0009605835271886205,-0.002233463273604908,0.003472429529293328,0.9956903311950113
2015-05-12,1,2.6218525972087226e-05,0.00019422522358597213,-0.002233463273604908,0.003472429529293328,0.9957741656514735
2015-05-14,1,0.0007526416459438754,0.0007921877312655766,-0.003956322872684826,0.003472429529293328,0.9954363719502585
2015-05-18,1,0.0011300064317515263,0.0011692093041046753,-0.003956322872684826,0.004180636944658747,0.9951669422603541
2015-05-20,1,0.001061811852550485,0.0010932292776477401,-0.0029336300473284255,0.0054183138080802435,0.9945741534616543
2015-05-22,1,0.0011835180529809947,0.0012510297979835315,-0.005488758445867667,0.006224017835754144,0.9940885949367032
2015-05-27,1,0.0008232810353524884,0.0008353174670568638,-0.005373047094037007,0.00616511602076699,0.9941496423925498
2015-05-29,1,0.0001650688102311114,0.0002947701898500241,-0.005373047094037007,0.00642055502236741,0.9937864776615012
2015-06-02,1,0.00022773981860963133,0.0003436612100488154,-0.005709689138363396,0.007810200082181147,0.9928397353152715
2015-06-04,1,0.00029314024128454486,0.0003775047286265677,-0.005373047094037007,0.008010237772869393,0.9929104406580219
2015-06-08,1,3.9511375900449326e-05,0.00014032701702085411,-0.002367125071635089,0.008228560912026152,0.9924238613207199
2015-06-10,0,-6.684500453158951e-05,7.064523191074428e-05,-0.002367125071635089,0.008010237772869393,0.9924452144628839
2015-06-12,0,-0.00013379783734749576,8.482991980260281e-06,0.0012214931646672678,0.008228560912026152,0.9919463758882534
2015-06-16,1,0.0002049489211438264,0.00030243586155786855,-0.0014658332159911765,0.008228560912026152,0.9922889577196568
2015-06-18,1,0.0008066211912070458,0.0008417591301263516,-0.0017115922669398837,0.00783353232790793,0.9929543582642864
2015-06-22,1,0.00036241675312104286,0.0004984255585574216,-0.0017115922669398837,0.007387677367660713,0.9931352043954426
2015-06-24,0,-0.0002230015972563775,2.6820659100114646e-05,-0.0017115922669398837,0.006698252996756099,0.99346352477714
2015-06-26,1,0.00037997744030610124,0.0004685541946905235,-0.0018872301478096917,0.006698252996756099,0.993686692127817
2015-06-30,1,0.0006958302544381133,0.0007112475885134922,-0.0017115922669398837,0.006698252996756099,0.9943924872486636
2015-07-02,1,0.0006203921912751552,0.000633466121390489,-0.0017115922669398837,0.006389295732381364,0.9947831106049553
2015-07-07,1,0.0010775101372174395,0.0011204698289583501,-0.0017115922669398837,0.0061703794982541915,0.9950933450647548
2015-07-09,1,0.0009134271719897542,0.0009658153194496276,-0.0018872301478096917,0.0061703794982541915,0.9905666754037279
2015-07-13,1,0.0009485436856855672,0.0010277423743765767,-0.0018872301478096917,0.0061703794982541915,0.9905135227209872
2015-07-15,1,0.0009041950320151313,0.0009864353349478975,-0.004718702637595766,0.0061703794982541915,0.9889103529150326
2015-07-17,1,0.0008108948224486291,0.0008751716346068746,-0.004718702637595766,0.005229681245569103,0.9889019901948772
2015-07-21,1,0.00096220298587062,0.0010187292073223285,-0.0065008030886429214,0.005557750326272297,0.9874915254906544
2015-07-23,1,0.0013918221666892857,0.001504774389366204,-0.011492316257538363,0.005557750326272297,0.9845243486716717
2015-07-27,1,0.0015437642173800508,0.0016468664509885172,-0.01827246949317632,0.005557750326272297,0.9824529639952364
2015-07-29,1,0.0008512705377072068,0.0008582605742405528,-0.01827246949317632,0.006010863115949138,0.9811789742263077
2015-07-31,1,0.0006760327062761042,0.0007094668486709364,-0.01827246949317632,0.007860713996920137,0.9797927875840698
2015-08-04,1,0.002230828825207421,0.0025044684823363242,-0.02032734933990942,0.006010863115949138,0.9787314471561457
2015-08-06,1,0.0014217839377513595,0.0015708961693146114,-0.013685464831289436,0.009299669292028218,0.983155514250113
2015-08-10,1,0.0017252696253789433,0.0019287115555619758,-0.013685464831289436,0.008577697740370123,0.9821192941460629
2015-08-12,1,0.0011160893399070673,0.0012391609360034865,-0.013685464831289436,0.009487264583962199,0.9827755032806866
2015-08-14,1,0.0009170425256095287,0.0009867124296092265,-0.013685464831289436,0.017808787466782747,0.9819795373235568
2015-08-18,1,8.197844807980088e-05,0.0001488324562838235,-0.01045012181731618,0.009658880297673172,0.9833350547647185
2015-08-20,-1,-0.0014264909364524497,-0.0011871559718933124,-0.01045012181731618,0.009658880297673172,0.9857001970829748
2015-08-24,-1,-0.001900209620268863,-0.0015962453778441267,-0.00696194519757265,0.009658880297673172,0.987099588300428
2015-08-26,-1,-0.0009491686716387984,-0.0007569841599313926,-0.009070632234525415,0.005849653601729259,0.9884657913601751
2015-08-28,-1,-0.0003466009380205736,-0.00023509977506263203,-0.009515081027004156,0.00522883556078157,0.9890378640944326
2015-09-01,-1,-0.0012646772144703435,-0.0010467197032786985,-0.009070632234525415,0.007438618222370441,0.988632903262956
2015-09-03,-1,-0.0006807783453202977,-0.0005242841934199089,-0.009070632234525415,0.005849653601729259,0.9894369059845609
2015-09-08,1,0.00011895350872467774,0.00016207041931333102,-0.008916627588735218,0.005849653601729259,0.9909022985550885
2015-09-10,-1,-0.0004124597710459319,-0.0003002147453371081,-0.00696194519757265,0.0062200994790247675,0.9915029261616802
2015-09-14,-1,-0.00020077726642261478,-0.0001055379721297761,-0.0050415420373928505,0.007676031288329646,0.9918756574791818
2015-09-16,-1,-0.00177380473231156,-0.0015729484757011469,-0.008275345347463905,0.007676031288329646,0.9916173029837412
2015-09-18,-1,-0.000395855470854993,-0.00030354042613130666,-0.004763497130963041,0.008459639414994514,0.9913393101523212
2015-09-22,-1,-0.0006120278118337508,-0.0004781594318311005,-0.0033006889316759044,0.009171636988917393,0.9912495672554578
2015-09-24,-1,-0.0008202445032909272,-0.0006855128952831459,0.0014999197712813848,0.0099228566304559,0.9904029087541493
2015-09-28,-1,-0.0017135027747275503,-0.001457912251912964,0.0022711983424790923,0.0099228566304559,0.9905285216277561
2015-09-30,-1,-0.0004904512309755702,-0.0003802089910329716,0.0022430734354291233,0.008459639414994514,0.9927778682338635
2015-10-02,-1,-0.00017728454805616744,-9.884392904046561e-05,0.001459101510207656,0.008459639414994514,0.9924877094597029
2015-10-06,-1,-0.0003449140598930465,-0.0002492529857231467,0.0022430734354291233,0.009651907312668547,0.9920489575469117
2015-10-08,-1,-0.00018017556539763092,-0.0001008276794846314,0.0012984824136376828,0.007883258333216455,0.9918313278015106
2015-10-12,1,4.701323638343826e-05,0.0001037100258082357,0.0012984824136376828,0.0077038892260464994,0.9912627026576634
2015-10-14,-1,-0.000200685546647125,-0.00011357080560488601,0.0012984824136376828,0.009283109064969567,0.9908691187304921
2015-10-16,1,0.0005099684333790418,0.0005109992847217688,-0.0023207457875554253,0.007010369713799902,0.9915165720983025
2015-10-20,1,0.000776728199963234,0.0008059730039905335,-0.0023207457875554253,0.007010369713799902,0.991786164312034
2015-10-22,1,0.0018187966318535282,0.0019811564065248285,-0.0023207457875554253,0.007010369713799902,0.9926073172240892
2015-10-26,1,0.0015402548896537235,0.0016513018707636179,-0.003348730322583919,0.008793293404298979,0.9919239972335311
2015-10-28,1,0.0014129661347044996,0.0014876157980936978,-0.00597634267269965,0.008793293404298979,0.9911726454219407
2015-10-30,1,0.0012857402093260487,0.0013596793800365041,-0.008695861222649641,0.008793293404298979,0.9897028595824878
2015-11-03,1,0.0016035165374436362,0.0017077832880646212,-0.011853294618672449,0.008793293404298979,0.9889438632433666
2015-11-05,1,0.0012102723685976204,0.0012766046632582133,-0.011853294618672449,0.009917427678583491,0.9881911996145213
2015-11-09,1,0.002055947999294757,0.0022656115723408065,-0.011906357812801782,0.008793293404298979,0.9886105112336131
2015-11-11,1,0.0017980115855051708,0.00196281782164691,-0.011906357812801782,0.0069293202266067664,0.9884994077387684
2015-11-13,1,0.0013811638456296225,0.0014879074259523566,-0.012111951043906815,0.009917427678583491,0.9876251957965291
2015-11-17,1,0.001818568006819853,0.0019961753582019024,-0.012111951043906815,0.012727033430222768,0.9862021193194285
2015-11-19,1,0.0022279659001210343,0.0024423754366634685,-0.014724547006732522,0.011623650912308638,0.9841734165296304
2015-11-23,1,0.002370182694905456,0.002607265980589921,-0.014724547006732522,0.00760949802121894,0.9842669345410023
2015-11-25,1,0.00250530760577656,0.002796227173766445,-0.014724547006732522,0.005162789966750819,0.9844460251723431
2015-11-30,1,0.0008766083827859649,0.0009114088263494262,-0.011906357812801782,0.012376473088451072,0.9864916679460694
2015-12-02,1,0.001386930806169015,0.001519251829765456,-0.011851496076160789,0.005162789966750819,0.9867735544936356
2015-12-04,1,0.0014766897655105493,0.0016271665924378362,-0.012805542993480263,0.0017659605188281853,0.9865521841130078
2015-12-08,1,0.000989969908747241,0.0010695267885544387,-0.012797261749029799,0.0017659605188281853,0.9868203920897028
2015-12-10,1,0.0005520379356814607,0.0005800917284180071,-0.012797261749029799,0.003819163750883977,0.987331544655726
2015-12-14,1,1.3160659255393917e-05,5.805613894624512e-05,-0.012797261749029799,0.003819163750883977,0.987099752636621
2015-12-16,1,0.0011740879713567558,0.0012597870432934303,-0.01672831966820111,0.0017659605188281853,0.9857409694317403
2015-12-18,-1,-0.0002698056754130824,-0.00017164084605650657,-0.012690958169865532,0.0017659605188281853,0.9881382142698708
2015-12-22,-1,-0.0006066576432496936,-0.00046572886072776564,-0.012690958169865532,0.0064855602510489945,0.9865091575580461
2015-12-24,-1,-0.000637810951469537,-0.0005070976207037855,-0.015566987550723783,0.007634045972883355,0.9858788930284282
2015-12-29,-1,-0.0007610657352583031,-0.0005392882899217,-0.017457494496588993,0.0064855602510489945,0.9853202907383702
2015-12-31,-1,-0.0011097975758391412,-0.0008855777739104589,-0.017457494496588993,0.007634045972883355,0.9847145681331463
2016-01-05,-1,-0.0020148977855568876,-0.0017893286029619245,-0.015566987550723783,0.011566347379363526,0.9845717619672648
2016-01-07,-1,-0.003821401408250478,-0.0032171841933705354,-0.016178279238001234,0.011566347379363526,0.9842310644335468
2016-01-11,-1,-0.00388261354450224,-0.0032620180597526666,-0.01720038564249011,0.011566347379363526,0.9837655899200983
2016-01-13,-1,-0.004374410083886815,-0.0036041422316119183,-0.01720038564249011,0.011711521988312976,0.9833950703963542
2016-01-15,-1,-0.00578370023736949,-0.004988127324538108,-0.016178279238001234,0.016102823073728362,0.9843517347511147
2016-01-20,-1,-0.0047708133214228125,-0.004061484792862306,-0.016178279238001234,0.01715134797291584,0.9835542919543762
2016-01-22,-1,-0.003229350455354739,-0.002735247855361767,-0.016178279238001234,0.014843761372169067,0.9853356433707464
2016-01-26,-1,-0.004308880440011812,-0.0036355960095117747,-0.011712892730236358,0.014843761372169067,0.9860518784357809
2016-01-28,-1,-0.004817345126056451,-0.004134792149336149,-0.007812434378048184,0.014843761372169067,0.9864989710033606
2016-02-01,-1,-0.0038240516122312806,-0.0032789826116491694,-0.005234241549968136,0.014843761372169067,0.9867683900068257
2016-02-03,-1,-0.0039051017816698497,-0.003325527941641559,-0.004330111129741058,0.014843761372169067,0.9876085528657486
2016-02-05,-1,-0.004158841007361605,-0.0035782189581743196,-0.0034803043321358215,0.014843761372169067,0.9877230621299112
2016-02-09,-1,-0.004299936483446882,-0.003709491013895917,-0.0034803043321358215,0.014843761372169067,0.9879864755507393
2016-02-11,-1,-0.004745679121428228,-0.004082467745341347,-0.0034803043321358215,0.0105545769913344,0.9896473747679602
2016-02-16,-1,-0.003875578617153138,-0.003309694160907415,-0.0041081617344554,0.009248946137250528,0.9911678137216933
2016-02-18,-1,-0.0034325458189479983,-0.002878702624061675,-0.0041081617344554,0.009248946137250528,0.9918776785936261
2016-02-22,-1,-0.003485848313972275,-0.0028780028747388674,-0.005913628989406099,0.00897230821030103,0.9926040952909384
2016-02-24,-1,-0.003307821602338685,-0.002773744671257937,-0.006425548459286763,0.00897230821030103,0.9925954706465713
2016-02-26,-1,-0.003228551626056499,-0.0027017696818110062,-0.006425548459286763,0.009021647805107901,0.9919466711066378
2016-03-01,-1,-0.0020156232059413324,-0.0016457619556308793,-0.006425548459286763,0.008899386040492065,0.9927729853853793
2016-03-03,-1,-0.0011987754917067886,-0.0009433056260280056,-0.005913628989406099,0.007951174761233266,0.9936698819573401
2016-03-07,-1,-0.00047489571922488454,-0.00033488196567159074,-0.006626352104538998,0.004943160592780304,0.9932405254622031
2016-03-09,-1,-0.0015310930041658177,-0.0012501502221150553,-0.006626352104538998,0.005621512789861291,0.9932223081891677
2016-03-11,-1,-0.0008483464172699689,-0.0006986825855567681,-0.006191396992646491,0.004270136018729258,0.9937148980941652
2016-03-15,-1,-0.00029952387461462573,-0.0002509744203516279,-0.004876973757532989,0.005621512789861291,0.9927251214202109
2016-03-17,1,0.0009509895204696065,0.0011381550950255452,-0.007516242357078896,0.004270136018729258,0.9929249550090714
2016-03-21,1,0.0005970501232502548,0.0007469683454873957,-0.004873953517950289,0.007967621292835557,0.9916693944194834
2016-03-23,1,0.00013527821455927146,0.00024504082962864456,-0.002683975129548804,0.007967621292835557,0.9919626959017382
2016-03-28,1,0.0005649846922230048,0.0007198768634082838,-0.002683975129548804,0.007871227201168719,0.9919221272929659
2016-03-30,1,0.0013099687348679919,0.0016045863627246843,-0.002683975129548804,0.007871227201168719,0.9922295623181726
2016-04-01,1,0.0011285203107055288,0.001363449376783961,-0.004802872962277482,0.007871227201168719,0.9914091407479898
2016-04-05,1,0.0009764955557529176,0.0012450697200849423,-0.00400388038629209,0.008930737671811628,0.9917516932785759
2016-04-07,1,0.000819253310266036,0.001075077839701508,-0.00203826719536205,0.010794146597940672,0.9919726775311184
2016-04-11,1,0.0006422964041797105,0.0008405416066117344,-0.0022927795231187332,0.010794146597940672,0.9917339244041191
2016-04-13,1,0.0019930836240013164,0.00240702468176311,-0.00400388038629209,0.008930737671811628,0.9909698319209542
2016-04-15,1,0.0021604935425840726,0.002627013026539505,-0.00558581967112561,0.008930737671811628,0.9906024590862726
2016-04-19,1,0.003690110470867489,0.004375717997609961,-0.00558581967112561,0.006530795113854557,0.9916459360268449
2016-04-21,1,0.003929142657715565,0.004636723606099276,-0.006320088942155089,0.006287400629379505,0.9908540664733861
2016-04-25,1,0.00393983370549611,0.004596246810851919,-0.006360330129582297,0.00424198266784867,0.990198682379986
2016-04-27,1,0.004375711849932127,0.0051038013864677855,-0.006360330129582297,0.004091265581768892,0.9899984522326319
2016-04-29,1,0.0036912990229887267,0.004336280228229888,-0.005742518243444533,0.005060229636137847,0.9914318111362113
2016-05-03,1,0.0036262183111844264,0.0042303888515785645,-0.0062736792332237015,0.0038402070574907773,0.9909592601677554
2016-05-05,1,0.003659837376394896,0.004231092935473309,-0.0062736792332237015,0.0033747813935328863,0.9912816587272208
2016-05-09,1,0.00354658190487667,0.004080475536810649,-0.0062736792332237015,0.0023543939402061557,0.9911162602665015
2016-05-11,1,0.004390141946294304,0.005092136778608958,-0.005972972697734575,0.000735430863726273,0.9922671860615931
2016-05-13,1,0.0034939310520111662,0.004002755444840576,-0.005322678111282244,0.002113290004402378,0.9937904969948883
2016-05-17,1,0.0029934377924696557,0.0034145053558726456,-0.005322678111282244,0.0026039903708432507,0.9943512163672306
2016-05-19,1,0.0020865250673760306,0.002369221320715157,-0.003452265284554644,0.0033747813935328863,0.9955269139984786
2016-05-23,1,0.0025337020056066507,0.002899722489664508,-0.003452265284554644,0.0033747813935328863,0.9957019844954131
2016-05-25,1,0.0022606376913051223,0.0025480968065594973,-0.003452265284554644,0.0023368173072688117,0.9957243190132913
2016-05-27,1,0.0017703727288705998,0.0019334199355149156,-0.005596557188486565,0.002104600295145491,0.9936507437788141
2016-06-01,1,0.0007704367327128952,0.0007729204419439214,-0.003452265284554644,0.0032115579950276318,0.9936489891007653
2016-06-03,1,0.0008101592879539534,0.0008181061193620262,-0.003452265284554644,0.005893710010135474,0.9932798127339372
2016-06-07,1,0.00034723895513704165,0.0004107766334874709,-0.0033075637763429694,0.006748896591822694,0.9929603687554331
2016-06-09,-1,-0.0001467756485633553,-1.3844815157882545e-05,-0.0019344671164745187,0.008193598220999864,0.9925706794810678
2016-06-13,-1,-0.0006009916899467569,-0.0003954434395254078,-0.0006349690256597198,0.008193598220999864,0.9925065113287274
2016-06-15,1,9.480930527808635e-05,0.00017258562154073143,-0.0011030745289294114,0.006748896591822694,0.9929608467653634
2016-06-17,1,0.00011110258147978215,0.00020135178827484384,-0.0020737713186930384,0.0063404845863926,0.9930694980685764
2016-06-21,-1,-0.0007040594353574822,-0.00046712868468467075,-0.0033387836262835932,0.00473260873724137,0.9927033741709238
2016-06-23,-1,-0.0003937943416730188,-0.00021404929178553184,-0.0033387836262835932,0.00473260873724137,0.9926614533818768
2016-06-27,-1,-0.0014710487049389256,-0.0011629016134965448,-0.0032139559567420754,0.00473260873724137,0.9944561502975146
2016-06-29,-1,-0.000847068517003944,-0.0005890771840265651,-0.00373601033416971,0.00252703159366507,0.9955868633016053
2016-07-01,-1,-0.0012141230206969794,-0.0009532585723725433,-0.0038989831885647168,0.0012259347607408186,0.9960313395853027
2016-07-06,-1,-0.0013647448785943264,-0.0010396477737313328,-0.00429476159652942,0.0012259347607408186,0.9958365369746377
2016-07-08,-1,-0.0006746699625348102,-0.0005228657551767499,-0.004656845490961918,0.0012259347607408186,0.9954461083396635
2016-07-12,-1,-0.0004295952940861585,-0.0003241079632815187,-0.004656845490961918,0.0005380209911306522,0.9951623798155009
2016-07-14,-1,-0.0002972831899665572,-0.00022364515213238375,-0.004656845490961918,0.001189490388279581,0.9946502546338176
2016-07-18,-1,-0.0006074546431811983,-0.00044900271563305,-0.005858005954237855,0.0009839565143463468,0.9944476097439263
2016-07-20,-1,-0.0001781058510971955,-4.1276982222443654e-05,-0.00429476159652942,0.0009839565143463468,0.99511301091326
2016-07-22,-1,-0.0006507552934506604,-0.0005540985203100544,-0.00429476159652942,0.0009839565143463468,0.9952564754962963
2016-07-26,-1,-0.0006681877196976957,-0.0005849913978798445,-0.00429476159652942,0.0014535132017047805,0.9953967267371575
2016-07-28,-1,-0.00037331768766845513,-0.00027997727417756113,-0.0031815656575780848,0.0014535132017047805,0.9955258083060922
2016-08-01,-1,-0.0008841297258484945,-0.0007004172035520126,-0.0035615446246680645,0.0014535132017047805,0.9956162119835509
2016-08-03,-1,-0.0007023316402086548,-0.0005416672252712112,-0.0035615446246680645,0.00018339297005158007,0.9961895259048386
2016-08-05,-1,-0.0008044892288006759,-0.0006342098025674192,-0.0030029081948362204,0.00018339297005158007,0.9968638495445981
2016-08-09,-1,-0.0002406059536212908,-0.00015945806801720216,-0.0035615446246680645,-0.0001048633807891023,0.9968284668780109
2016-08-11,-1,-0.000160553788851208,-6.90164900537752e-05,-0.0037324504032308814,-0.0001048633807891023,0.9963658723430189
2016-08-15,-1,-0.0008133352047361683,-0.0006163909257517147,-0.0037324504032308814,-0.0001048633807891023,0.9961098742750696
2016-08-17,-1,-0.0006994161870297534,-0.0005337054116076364,-0.0043491769530073845,0.0001816933704273917,0.9958000067984392
2016-08-19,-1,-0.0007925098356904031,-0.000623578908237633,-0.0043491769530073845,0.0008279630023697504,0.9958841974854118
2016-08-23,-1,-0.0009645763423323128,-0.0007762447055000525,-0.0043491769530073845,0.0009915448229266257,0.9957753100354019
2016-08-25,-1,-0.0015040485884193029,-0.0012262504137351608,-0.0043491769530073845,0.0019233730827102862,0.995344173228099
2016-08-29,-1,-0.0019793101648435045,-0.0016304195131833501,-0.005066008297910653,0.0019233730827102862,0.9948774681088691
2016-08-31,-1,-0.0021520196330289815,-0.0017835953416977931,-0.005066008297910653,0.002814640896719672,0.9946012672648056
2016-09-02,-1,-0.001531135867325765,-0.0012836645126469285,-0.005066008297910653,0.0036047094167827058,0.994007432107928
2016-09-07,-1,-0.0019453024566325966,-0.0016366027610792738,-0.004440356118599789,0.0036047094167827058,0.9941253247508749
2016-09-09,-1,-0.0016120322683946561,-0.0013948386312078666,-0.004072973936953062,0.003618546575647317,0.9948302898071301
2016-09-13,-1,-0.0014536828603572624,-0.0012599666373879206,-0.004072973936953062,0.002814640896719672,0.9956357489244316
2016-09-15,-1,-0.0012740228638344904,-0.00112402415625562,-0.004072973936953062,0.0016745364078392135,0.9956951593888718
2016-09-19,-1,-0.0009466275398069448,-0.0008479461913248757,-0.004478427985821876,0.0023452155285059364,0.9954427484623384
2016-09-21,-1,-0.0013032643040713416,-0.0011384360047765824,-0.004072973936953062,0.003835007894511481,0.9952927993966023
2016-09-23,-1,-0.0009175234722424932,-0.0008058430955957608,-0.004072973936953062,0.003835007894511481,0.9951740126951701
2016-09-27,-1,-0.00037407538637231134,-0.00035235878728059715,-0.004072973936953062,0.003835007894511481,0.9954060247978921
2016-09-29,-1,-0.00028329008946482276,-0.0002510730218648091,-0.0037431193854786135,0.004500047791201881,0.9951921055501127
2016-10-03,-1,-0.00033079430355930907,-0.000282932230722158,-0.003971670233068615,0.003835007894511481,0.995290726892477
2016-10-05,-1,-0.000649864234978355,-0.0006273460720796543,-0.00496101364055029,0.003835007894511481,0.9950190415866091
2016-10-07,0,0.0,0.0,-0.005159738350278478,0.004224672826261069,0.9941187794843391
2016-10-11,-1,-0.0008247455158300241,-0.0007701482534332568,-0.00496101364055029,0.006246385346224822,0.9933730994167007
2016-10-13,-1,-0.0009006047730226658,-0.0008370670691043838,-0.0037144403013321405,0.006246385346224822,0.9932920275121054
2016-10-17,0,0.0,0.0,-0.002165236875299108,0.008067834984692783,0.9922851093183221
2016-10-19,-1,-0.00031651552837856997,-0.00029678999526977295,-0.0024942153861281517,0.008700315742533837,0.9920031394706565
2016-10-21,-1,-6.42171742257256e-05,-3.375861434208607e-05,-0.003726301269430443,0.006246385346224822,0.9919690238184243
2016-10-25,-1,-0.0002654624409880151,-0.00025517593600131233,-0.003726301269430443,0.006246385346224822,0.9920986068194838
2016-10-27,0,0.0,0.0,-0.003726301269430443,0.005646484980741194,0.9922331155088171
2016-10-31,-1,-0.0003126634298222015,-0.00030575246168093367,-0.0024942153861281517,0.0060425602408554,0.9924196405468155
2016-11-02,-1,-0.0004845009995419676,-0.0004462546233596597,-0.0019236738771756634,0.0060425602408554,0.9924423400945558
2016-11-04,0,0.0,0.0,-0.0019236738771756634,0.0060425602408554,0.9928805787566669
2016-11-08,0,0.0,0.0,-0.0019236738771756634,0.007020340093523293,0.9929659061219724
2016-11-10,1,0.00036027061289775885,0.00044063908107198847,-0.0019236738771756634,0.01331674845835576,0.992084502656921
2016-11-14,0,0.0,0.0,-0.00279684946249127,0.008607798943574276,0.9929483792051521
2016-11-16,1,0.0010212204983477372,0.0011406591038076118,-0.0026253343736538986,0.007020340093523293,0.9938739191830718
2016-11-18,1,0.0009978258567340127,0.0011508787047880733,-0.0026253343736538986,0.008607798943574276,0.9936878632047766
2016-11-22,1,0.0009773759920276202,0.0011354627560489256,-0.0018665021808965399,0.008607798943574276,0.9940250518937468
2016-11-25,1,0.0013130399059274145,0.0015278986592969154,-0.002153831321315149,0.008607798943574276,0.9942557166957335
2016-11-29,1,0.0015765467706827657,0.0018319197379721083,-0.0030326550894856845,0.008555319600820021,0.9939706621983274
2016-12-01,1,0.001369519074258562,0.0015996684199772308,-0.0027337856657459296,0.008555319600820021,0.9942280866935936
2016-12-05,1,0.0018256185103446162,0.002115802584729387,-0.002153831321315149,0.012918573131047198,0.9938403912139854
2016-12-07,1,0.0023566793405105885,0.0027173399327038543,-0.002153831321315149,0.012959627386229907,0.9937856882067229
2016-12-09,1,0.002564115687678405,0.002933902217915908,-0.0027337856657459296,0.0026864734701019482,0.9942617917726436
2016-12-13,1,0.001883023153604369,0.0021413029319334856,-0.0027337856657459296,0.004895830966734918,0.9938863126604631
2016-12-15,1,0.0018523512963593287,0.0020921497335061904,-0.0027337856657459296,0.00614174692631781,0.9936711394902432
2016-12-19,1,0.0016502151014037192,0.0018489504742781975,-0.0027337856657459296,0.003101778789962912,0.9941105089774472
2016-12-21,1,0.0016943428551991029,0.001894568717973015,-0.003692714609827828,0.003888845160517265,0.9937333865479454
2016-12-23,1,0.001601124208289275,0.0018004349975933726,-0.003692714609827828,0.005517019779090916,0.9938276068070956
2016-12-28,1,0.0012806101132008323,0.0014287085102269194,-0.0014375492053755401,0.007906268962924325,0.9938115813310695
2016-12-30,1,0.0014358937113015848,0.0016287972204715848,-0.0012781360160778123,0.010204127182455131,0.993248808395084
2017-01-04,1,0.0021372805557907685,0.002434684802741994,-0.0032144750419346446,0.006226179739387172,0.9939370983510307
2017-01-06,1,0.002340422624203481,0.0026520806809360617,-0.005184134662663055,0.005165232420320829,0.9939462058666708
2017-01-10,1,0.002103269591588061,0.0023795123379372726,-0.005062386864389883,0.005165232420320829,0.9940199293638191
2017-01-12,1,0.0017249794920132862,0.0019425245788189539,-0.003355913059902553,0.00460375637591611,0.9951337758077232
2017-01-17,1,0.0017365721079701754,0.0019463983777096466,-0.003355913059902553,0.0048401430293481965,0.9951171261092291
2017-01-19,1,0.0014910453757226582,0.0016604832372747692,-0.002661179800341305,0.005076322576654236,0.9953185002662186
2017-01-23,1,0.001320386668884472,0.0014583106598401192,-0.002661179800341305,0.005076322576654236,0.9952914898648041
2017-01-25,1,0.0012809120485945413,0.001404797581508931,-0.002987359703908982,0.004574119761360579,0.9953279246463669
2017-01-27,1,0.0015773568186366448,0.0017364921145711107,-0.002987359703908982,0.004574119761360579,0.9955038373675456
2017-01-31,1,0.0015784615484514344,0.0017262909599840585,-0.002987359703908982,0.004574119761360579,0.9958824604508226
2017-02-02,1,0.0011977491968604833,0.0012720294261670292,-0.002987359703908982,0.004574119761360579,0.9960780811480203
2017-02-06,1,0.001011592114086926,0.0010634128460867952,-0.0024608534505964267,0.004574119761360579,0.9963585245522681
2017-02-08,1,0.0008335484243736126,0.0008657264512286558,-0.001544830993742447,0.004574119761360579,0.9966203134985259
2017-02-10,1,0.0007871295193146689,0.0008022816151024456,-0.0012924943540262525,0.0049519246087237475,0.9966211460096907
2017-02-14,1,0.0008932642223050528,0.0009190955808877117,-0.0019050749637797347,0.0049519246087237475,0.9964754931342279
2017-02-16,1,0.0008998969154647129,0.0009278213286183022,-0.001958094504437271,0.0026318285126253806,0.9966421967936288
2017-02-21,1,0.0004397296047933617,0.00048753995967244177,-0.001958094504437271,0.005384922965573679,0.9962575388946725
2017-02-23,1,0.0002907754102351366,0.0003615079894217003,-0.0013101675342454312,0.005384922965573679,0.9963113440308478
2017-02-27,1,0.0004386149733309955,0.00048768274987938225,-0.0013101675342454312,0.0035670999735310104,0.9964693878534046
2017-03-01,1,0.00043003607086137895,0.00048744393136236234,-0.0020521185666650846,0.0035670999735310104,0.9964408677269034
2017-03-03,1,0.0005237005967713799,0.0005673539823157093,-0.0011006126067726776,0.0035670999735310104,0.9966017523076057
2017-03-07,1,0.00013722598522616133,0.0002379901997385511,-0.0014176104696928188,0.0035670999735310104,0.9967376392428619
2017-03-09,0,-3.868064029478646e-05,9.543334308096763e-05,-0.0014176104696928188,0.0035670999735310104,0.9967936430618239
2017-03-13,0,-0.00010123727047070161,5.479074039468169e-05,-0.0014916117422410036,0.0023433812879538668,0.9968482042457565
2017-03-15,1,4.371872302511454e-05,0.00016435648738973057,-0.0014176104696928188,0.0023433812879538668,0.997080356066593
2017-03-17,0,0.0,0.0,-0.0013526476815659107,0.003495700195924921,0.996785618529975
2017-03-21,-1,-0.00020836479315164966,-4.539219886534428e-05,-0.0013526476815659107,0.0031156467570661404,0.997323958494663
2017-03-23,1,2.1952346171769793e-05,0.00014268969255691827,-0.0014789579929202247,0.003983530908608622,0.9969181826505417
2017-03-27,-1,-0.00027502346851253487,-9.653350433042052e-05,-0.0020189989257048406,0.005265874769309534,0.9961314773112865
2017-03-29,-1,-0.0005435093760307151,-0.0003183940757245997,-0.0014789579929202247,0.003983530908608622,0.9963185366249974
2017-03-31,-1,-0.0003529501326913132,-0.00015435631313769408,-0.002316111813288067,0.003505498153809221,0.996308701174273
2017-04-04,-1,-0.00020155389129893737,-3.802696780151626e-05,-0.003360446682533368,0.003505498153809221,0.9950829871795335
2017-04-06,-1,-0.00017316960066629414,-1.1112938332641267e-05,-0.004029168364190109,0.003983530908608622,0.9945544117747213
2017-04-10,-1,-0.00019416518554164715,-3.590460401676121e-05,-0.004029168364190109,0.005265874769309534,0.9942755107430665
2017-04-12,1,0.00014788666351072668,0.0002224596470868185,-0.004296116740957898,0.003983530908608622,0.9934095096599126
2017-04-17,1,0.00010734162321932207,0.00020527128039605455,-0.005093639127714273,0.003505498153809221,0.9934286304119845
2017-04-19,0,-9.257255155664039e-05,4.072819603886637e-05,-0.006731216152302772,0.002555317027865783,0.9925755054449977
2017-04-21,0,-0.0001514485888220871,6.3369220972328945e-06,-0.006731216152302772,0.0034747321517163195,0.992647785910659
2017-04-25,1,0.00019748382260014564,0.0003140172079302203,-0.0061321553200015776,0.002555317027865783,0.9931930983590065
2017-04-27,1,8.834082650007033e-05,0.00023575851618045247,-0.0061321553200015776,0.0016374067539182914,0.9929699702514256
2017-05-01,-1,-0.00018966172617295926,-1.3770692021159478e-05,-0.005245900601625164,0.004068759065161506,0.9929733707914663
2017-05-03,-1,-0.0010129217480562658,-0.0007642920478073192,-0.005093639127714273,0.004068759065161506,0.9940773984586924
2017-05-05,-1,-0.0005556711761974496,-0.0004048304409040576,-0.005790152821529262,0.002746122243607401,0.9938606442454178
2017-05-09,-1,-0.0008346323453413634,-0.0006400966503667564,-0.006998053964330728,0.002746122243607401,0.993797190155391
2017-05-11,-1,-0.0013382766871325275,-0.001091645230667441,-0.006998053964330728,0.0036055664205486685,0.993489175752049
2017-05-15,-1,-0.0013391917057421093,-0.001092537237406235,-0.006998053964330728,0.004597622979921816,0.9929062224405473
2017-05-17,-1,-0.0026865803930760036,-0.002284302183632561,-0.004780144847103556,0.004597622979921816,0.9939026773270936
2017-05-19,-1,-0.002586673535425423,-0.002187651098980485,-0.004780144847103556,0.002871275202777834,0.9945563387285635
2017-05-23,-1,-0.002701336794787395,-0.0022863400657125955,-0.004902727047820812,0.004597622979921816,0.9938157043192932
2017-05-25,-1,-0.002609282411121539,-0.0022014611566900455,-0.005690251197750801,0.002871275202777834,0.9939924928658836
2017-05-30,-1,-0.0007594603989269275,-0.0006028202127378282,-0.005690251197750801,0.002871275202777834,0.9936220011835815
2017-06-01,-1,-0.0014834389437111913,-0.0012914433916485146,-0.006998053964330728,0.005054271451299794,0.9929428312308959
2017-06-05,-1,-0.002104459168069041,-0.0018329294757803696,-0.004746844305844069,0.00905256410261188,0.9925784123374659
2017-06-07,-1,-0.002681693933410048,-0.0023347522184584864,-0.006841215980868653,0.00905256410261188,0.9915289048145179
2017-06-09,-1,-0.002103282829922956,-0.0018066188998813659,-0.004746844305844069,0.005899745407970648,0.9926028321385354
2017-06-13,-1,-0.0019228472096719765,-0.0016306409101937212,-0.004709699911280843,0.005131322221845886,0.9929613779094971
2017-06-15,-1,-0.0022383794113526516,-0.0019052677122032464,-0.004709699911280843,0.005817956293099934,0.9924616232863943
2017-06-19,-1,-0.0022108412131775657,-0.0019007979537416482,-0.0035245815003075664,0.00782165773238412,0.9920193754124135
2017-06-21,-1,-0.0021372404493156805,-0.0018593839384252644,-0.0018503215060070514,0.008043447925889333,0.9921467050457888
2017-06-23,-1,-0.0020417948260709477,-0.0018029358216460098,-0.0017653941049713118,0.008043447925889333,0.9924250950675555
2017-06-27,-1,-0.0015860353211506516,-0.0014000794488940311,-0.0025998703120448507,0.005817956293099934,0.9927605554740646
2017-06-29,-1,-0.0015978862658069506,-0.0013914539945784194,-0.0012753850398238766,0.005817956293099934,0.9924280494454556
2017-07-03,-1,-0.001112060858472471,-0.0009506934433533526,-0.0012753850398238766,0.0054466772073927545,0.9931604177703341
2017-07-06,-1,-0.002349532231168067,-0.0020509244328498818,-0.0008458350982294493,0.0054466772073927545,0.9932384941498008
2017-07-10,-1,-0.0019661345772527357,-0.0017365079066715549,-0.0025998703120448507,0.0054466772073927545,0.9926659418780839
2017-07-12,-1,-0.0016159779746939354,-0.001440627158706459,-0.0034961338514450644,0.0059893511227115245,0.9911010352978864
2017-07-14,-1,-0.0013261626963630075,-0.0011686811316590907,-0.007176223479991696,0.0059893511227115245,0.9906196103207314
2017-07-18,-1,-0.0010888301214696246,-0.0009554777343579627,-0.007449423898713557,0.00527240186244087,0.9909044439002315
2017-07-20,-1,-0.0003789266410723092,-0.000334932564773277,-0.009128400549352133,0.005145725445975631,0.9909956691045547
2017-07-24,-1,-0.0002996776387698421,-0.0002821588371274308,-0.009128400549352133,0.005145725445975631,0.9905535717645453
2017-07-26,-1,-0.00028715804039080624,-0.0002729661197110175,-0.01237903483917784,0.0059893511227115245,0.9896761439892676
2017-07-28,1,0.000753155372859326,0.0008684421692519615,-0.01237903483917784,0.0059893511227115245,0.9906218714032636
2017-08-01,1,0.000968990729045525,0.001116309283698458,-0.01237903483917784,0.004981476318782384,0.9908653779777817
2017-08-03,1,0.0006602291538795323,0.000776571047383779,-0.01237903483917784,0.004981476318782384,0.9910051507844069
2017-08-07,-1,-7.083594294277995e-05,-4.3330630324042303e-05,-0.007036450572097223,0.004981476318782384,0.9920450297680615
2017-08-09,1,0.0008390808723961138,0.0009855487633536235,-0.007036450572097223,0.0033901780826133734,0.9921531978831083
2017-08-11,-1,-0.000767071106344389,-0.0007318014548189176,-0.006015493953041364,0.002934760468494204,0.9928480967909277
2017-08-15,-1,-0.0007358977428798092,-0.0007135196267654156,-0.0024150378626708576,0.005199832875752851,0.9922416592742005
2017-08-17,-1,-0.0006444556773272541,-0.000638932895837202,-0.0024150378626708576,0.00508374144095362,0.9922265510489336
2017-08-21,-1,-0.0005873914204155597,-0.0005792343932566355,-0.0018039465605213434,0.004106185536855883,0.9924352190695684
2017-08-23,-1,-0.000265664131024362,-0.00019713260562409738,-0.0015445472875930612,0.004106185536855883,0.9934394758993472
2017-08-25,1,1.8385116180073965e-05,0.00012144590664308475,-0.0030057900108378605,0.004106185536855883,0.9933825069122513
2017-08-29,1,0.00013375295677475773,0.0002534596081011438,-0.0034848775289229627,0.006221788598394905,0.9927104953710154
2017-08-31,-1,-0.0005413029926349779,-0.000501706267158181,-0.0034848775289229627,0.006221788598394905,0.9926286027899212
2017-09-05,1,5.150653144876324e-05,0.00016863984258405585,-0.0034848775289229627,0.008003252964007551,0.9918832478548988
2017-09-07,-1,-0.0018564506786292643,-0.001751803185632738,-0.0034848775289229627,0.008003252964007551,0.9933704713608152
2017-09-11,-1,-0.001279411770917377,-0.0011742487238904714,-0.004291295640696014,0.008003252964007551,0.9933958021312457
2017-09-13,-1,-0.0008324088627657198,-0.000790494978730943,-0.004531093005626385,0.006221788598394905,0.9938447849812156
2017-09-15,-1,-0.00015965294752431412,-9.598205794842361e-05,-0.004531093005626385,0.005523720959774761,0.9935604363006758
2017-09-19,-1,-0.0002837441352398044,-0.00012279079406825696,-0.004531093005626385,0.006563999637429412,0.993479320415964
2017-09-21,-1,-0.0002814130110388529,-0.0001234250015205482,-0.004531093005626385,0.006563999637429412,0.9935911072921353
2017-09-25,-1,-0.0002456291352645234,-0.00014574520643588246,-0.005507951714068814,0.005523720959774761,0.9936492280402337
2017-09-27,1,0.0005461631830224431,0.0007260254236117049,-0.0049880450828060936,0.004807716081886837,0.9938916217243127
2017-09-29,1,0.0003592954501044383,0.0005288395116691602,-0.004528273878720533,0.005407317284291458,0.9942696498557999
2017-10-03,-1,-0.0007289528538611063,-0.0007166906373908865,-0.004528273878720533,0.002742645369187316,0.9953079535797209
2017-10-05,1,0.00048611371162669484,0.0006439726583595117,-0.0049880450828060936,0.004114865867387062,0.9944135072513265
2017-10-09,-1,-0.0016474260453624556,-0.0015104893628254995,-0.0043617779585171865,0.005407317284291458,0.9936405589762743
2017-10-11,-1,-0.001694331314928992,-0.0015752489809807068,-0.0041734389495954,0.007710187948712896,0.993456751756114
2017-10-13,-1,-0.001151019175475269,-0.0010438240887654933,-0.003098275733755298,0.008237760294849334,0.9926933411054265
2017-10-17,-1,-0.0002607540291701631,-0.0002052046499577632,-0.0041734389495954,0.008237760294849334,0.9925355476709818
2017-10-19,1,0.00016671339534457807,0.0002942001249829583,-0.0041734389495954,0.008237760294849334,0.9926719203668796
2017-10-23,1,8.209887635833997e-05,0.00019769066157014186,-0.0041734389495954,0.008237760294849334,0.9927954672885241
2017-10-25,-1,-0.0004919251901165186,-0.0004883206461719936,-0.0025889896089458823,0.008237760294849334,0.9930111118349272
2017-10-27,-1,-0.0004301737588961296,-0.0004190539902751238,-0.002579814519874119,0.006189781522966712,0.9934033181392682
2017-10-31,-1,-0.0008606990102570683,-0.0007786504616509069,-0.0017893456008577415,0.010347038991182271,0.9923582360036028
2017-11-02,-1,-0.0005350697849393609,-0.0005006817061805315,-0.0017893456008577415,0.006933388103798419,0.992948083685442
2017-11-06,1,0.0006718683812837166,0.0007823240701231543,-0.002890934607401525,0.006933388103798419,0.9905338836680744
2017-11-08,1,0.0004927116859034783,0.0005617208550752537,-0.002890934607401525,0.0052881352331561,0.9902426111610908
2017-11-10,1,0.0014671611683343326,0.0016535078887704277,-0.004660784778340237,0.004336771705037802,0.9900577076483993
2017-11-14,1,0.000959269343127349,0.0010620515606001835,-0.002890934607401525,0.005184296156700239,0.9907352741931555
2017-11-16,1,0.0013312463488255306,0.0015012606671195936,-0.002890934607401525,0.006106507251723096,0.989538881359414
2017-11-20,1,0.0010981874713141594,0.0012525710798578522,-0.0022487455040368764,0.0065043820303401344,0.9895726779541902
2017-11-22,1,0.001320963485591913,0.0015340642341042981,-0.0026153875266764306,0.0065043820303401344,0.9887760517083236
2017-11-27,1,0.0006593590272337217,0.0007132131237275836,-0.005849349581922938,0.0065043820303401344,0.988026290825808
2017-11-29,1,0.0017973946093466173,0.0020067790751452834,-0.005849349581922938,0.005794990022355514,0.988703927539683
2017-12-01,1,0.0017993425908537884,0.002017413974498393,-0.005849349581922938,0.0065043820303401344,0.9870362753645976
2017-12-05,1,0.002385306685075195,0.002688819916021939,-0.0045949450426124114,0.005794990022355514,0.9902983990764552
