JNU-Tangyin/eata/results/Batch4_SP500/Batch4_SP500-CAG.csv
Date,Action,Predicted_Q25,Predicted_Q75,Actual_Q25,Actual_Q75,RL_Reward
2010-12-14,0,0.0,0.0009691381810286306,-0.001448731459046831,0.0030314450430062164,0.9968848017924722
2010-12-16,1,0.0010019201191576832,0.0012189889068031465,-0.0018892607126191495,0.002334510565301744,0.9966739302552234
2010-12-20,1,0.0006799034287060446,0.0008212214405527163,-0.0018892607126191495,0.0029946882707486216,0.9964713650813835
2010-12-22,1,0.0009703786383276213,0.0011645572845263236,-0.001555488234210898,0.0029946882707486216,0.9961026387364951
2010-12-27,1,0.0008581599671280228,0.001048647566307652,-0.0006575001228213654,0.0035576797320918123,0.996240327837763
2010-12-29,1,0.0005709738863588288,0.0006821753888167246,-0.0025184879268067115,0.0028413163161981466,0.9948734018168606
2010-12-31,1,0.0006477770368681693,0.0007433416383632635,-0.003614135578325731,0.002319748264841385,0.9940409529776277
2011-01-04,1,0.00020685637162819466,0.00021201510904994808,-0.003614135578325731,0.0028413163161981466,0.9936670410963927
2011-01-06,0,0.0,0.0,-0.003614135578325731,0.0037432002297764803,0.9932685864323666
2011-01-10,0,0.0,0.0,-0.003553858085698691,0.0037432002297764803,0.9934001266006444
2011-01-12,0,0.0,0.0,-0.004135016185601406,0.0037432002297764803,0.9937098924031853
2011-01-14,0,0.0,0.0,-0.005658898734079946,0.005772544583749321,0.9930930893039095
2011-01-19,-1,-0.000349784773024383,-0.0003194992684723121,-0.008130606793106038,0.008828178437129856,0.992236066962576
2011-01-21,-1,-0.00010344703367943268,-9.239325100447793e-05,-0.008130606793106038,0.006503490029127239,0.9925924145592798
2011-01-25,0,0.0,0.0,-0.008966735462435751,0.008524797312328245,0.991926369980366
2011-01-27,0,0.0,0.0,-0.005658898734079946,0.008828178437129856,0.9928359195265023
2011-01-31,0,0.0,0.0,-0.004287020440504274,0.008828178437129856,0.993129402334267
2011-02-02,0,0.0,0.0,-0.004287020440504274,0.008828178437129856,0.9930339766639684
2011-02-04,-1,-0.00025093465933065514,-0.0002287875353127846,-0.005544603698169441,0.008524797312328245,0.9933150862347782
2011-02-08,0,0.0,0.0,-0.005544603698169441,0.008828178437129856,0.9927730111411213
2011-02-10,0,0.0,0.0,-0.002503169805835789,0.008542430173906547,0.9935327191550796
2011-02-14,0,0.0,0.0,-0.004717513614705702,0.007324778694145917,0.9936420824128919
2011-02-16,0,0.0,0.0,-0.005733276015187141,0.0060399842090168385,0.993702869920778
2011-02-18,0,0.0,0.0,-0.005733276015187141,0.008816753159658294,0.9928076930380487
2011-02-23,1,0.000672354341150864,0.0006978656888186305,-0.004717513614705702,0.007711983962550402,0.9934349207502587
2011-02-25,1,0.00028937812146533965,0.00030536324976572054,-0.004717513614705702,0.010100422848219218,0.9920988253924754
2011-03-01,1,0.00040932440297254886,0.0004435449635015302,-0.004009225276921635,0.010100422848219218,0.9926920022499802
2011-03-03,1,0.0004211014643663944,0.0004450667788701695,-0.004321310659521163,0.006923035666095866,0.9927042340056403
2011-03-07,1,0.0003998585485088853,0.00042422429528172784,-0.003880722964541984,0.006923035666095866,0.9927148023524061
2011-03-09,0,0.0,0.0,-0.003880722964541984,0.004318209663281855,0.9932395696263978
2011-03-11,0,0.0,0.0,-0.004630056307273854,0.004318209663281855,0.9928484917665962
2011-03-15,0,0.0,0.0,-0.0042957235630590755,0.006331188760909476,0.9927583890611327
2011-03-17,-1,-0.000201877758442216,-0.0001937819286131573,-0.0032208085808958084,0.008892228304577575,0.99273496827723
2011-03-21,0,0.0,0.0,-0.003880722964541984,0.006331188760909476,0.99227461041156
2011-03-23,0,0.0,0.0,-0.004268464210640803,0.006331188760909476,0.9921292260700807
2011-03-25,0,0.0,0.0,-0.004522691153556951,0.0038679227725772333,0.9934163615897951
2011-03-29,0,0.0,0.0,-0.004522691153556951,0.004553730561056708,0.9930716188596135
2011-03-31,0,0.0,0.0,-0.004522691153556951,0.004207418192173109,0.9933467466500058
2011-04-04,1,0.0009470659478793095,0.0010421621550503184,-0.004522691153556951,0.00529225165425868,0.9931801964007788
2011-04-06,0,0.0,0.0,-0.004820051528861984,0.00789118029882437,0.9908805122228322
2011-04-08,0,0.0,0.0,-0.00330044168931425,0.00789118029882437,0.9910230995146808
2011-04-12,0,0.0,0.0,-0.002208963979758496,0.005572450608956861,0.9916745429053997
2011-04-14,0,0.0,0.0,-0.002208963979758496,0.005572450608956861,0.992318175906012
2011-04-18,0,0.0,0.0,-0.002208963979758496,0.004207418192173109,0.9934191983305592
2011-04-20,1,0.0008193505864134217,0.000860381836084915,-0.0019638919867609474,0.006647234781158554,0.9932883376968045
2011-04-25,0,0.0,0.0,-0.0019638919867609474,0.006647234781158554,0.9933256771546467
2011-04-27,1,0.0004496665789084866,0.0004652412569718378,-0.0024489406271410077,0.004877603148370074,0.992718981929987
2011-04-29,0,0.0,0.0,-0.0024489406271410077,0.0062824693377705795,0.9923579454587816
2011-05-03,0,0.0,0.0,-0.0034456479023701496,0.0062824693377705795,0.991923014075561
2011-05-05,0,0.0,0.0,-0.00559835594947085,0.004797386081238763,0.9926748283142138
2011-05-09,1,0.002560090197701395,0.0027844571606524876,-0.00559835594947085,0.004797386081238763,0.9919079078236699
2011-05-11,0,0.0,0.0,-0.00559835594947085,0.0062824693377705795,0.9924564876476499
2011-05-13,0,0.0,0.0,-0.007058496167720144,0.005520293178035329,0.9920157497516225
2011-05-17,1,0.0009842344018421946,0.0010644403204317782,-0.007868197189622122,0.005520293178035329,0.9915843622908298
2011-05-19,1,0.0010324631571569554,0.0011162149588873418,-0.007868197189622122,0.0046533547003932835,0.9908584878439695
2011-05-23,0,0.0,0.0,-0.007588803907629741,0.005850375195234142,0.9909424386085844
2011-05-25,0,0.0,0.0,-0.004747880064722356,0.007584371300733691,0.9910836828991826
2011-05-27,0,0.0,0.0,-0.005804124160467836,0.007784583261323301,0.9909581978101226
2011-06-01,1,0.0007703820214214263,0.0008355144320537309,-0.005046779369716802,0.007784583261323301,0.9913309619883567
2011-06-03,1,0.0002638263267474803,0.0003442777154807144,-0.0014153625847901589,0.007784583261323301,0.992681234789446
2011-06-07,1,0.0005537280513433048,0.0005600956057780507,-0.0010998224488224409,0.008546465130817683,0.9922341362943369
2011-06-09,1,0.0007704845501404505,0.0007911693332232236,-0.0010998224488224409,0.008817642321160168,0.9921612067311613
2011-06-13,1,0.00027409925632090133,0.000313125087973694,-0.0010998224488224409,0.008817642321160168,0.9924131560724867
2011-06-15,1,5.938989681521162e-05,9.218627718204547e-05,-0.0010830079108273276,0.008817642321160168,0.9931565549708284
2011-06-17,0,0.0,0.0,-0.0019164815747864487,0.007784583261323301,0.9940110681115034
2011-06-21,1,0.00034969435953003324,0.0003612117189167566,-0.0024189549741388382,0.008082886547649763,0.9939359121732578
2011-06-23,-1,-5.838337204689748e-05,-6.8421118039519065e-06,-0.002368511360153499,0.00676062899125594,0.9947061356278212
2011-06-27,0,0.0,0.0,-0.002368511360153499,0.005604026502115546,0.9946763174318548
2011-06-29,0,0.0,0.0,-0.005436447763415823,0.004469071982413595,0.9939627188515967
2011-07-01,1,8.938072632957687e-05,0.0001701897661843166,-0.005436447763415823,0.004469071982413595,0.994052513306178
2011-07-06,1,0.00024175164907950912,0.00031360477951718234,-0.005436447763415823,0.004189215237236098,0.9939969998272917
2011-07-08,1,0.0003918400426448322,0.00045919255655475896,-0.005884258291638781,0.004189215237236098,0.9919714380902553
2011-07-12,1,0.0003456106327832009,0.0003809706980210394,-0.010775416983159331,0.0007645095548753843,0.9896072129679444
2011-07-14,1,0.0003736800197081068,0.0003767339024979658,-0.011947840644670592,0.004189215237236098,0.9885385201437489
2011-07-18,0,0.0,0.0,-0.011947840644670592,0.005934483811128446,0.987902268380052
2011-07-20,1,0.00016919982741028864,0.0001878589017563353,-0.011947840644670592,0.005567773650279045,0.9882165763940973
2011-07-22,0,0.0,0.0,-0.013208619908255729,0.004731793773746422,0.9875682482831174
2011-07-26,1,0.001195889939012901,0.0012156495826321446,-0.013208619908255729,0.006722649185126926,0.9864254291626527
2011-07-28,-1,-0.0005358682768872001,-0.0004696836338416653,-0.013208619908255729,0.006722649185126926,0.987351827138556
2011-08-01,-1,-0.0005780182173858641,-0.0005087102268701555,-0.013208619908255729,0.011115801463430339,0.9860043847772227
2011-08-03,-1,-0.0009342262736759343,-0.0008280286227869984,-0.012597590549187207,0.011115801463430339,0.9861318076305589
2011-08-05,-1,-0.0027607692447787786,-0.002406477467748135,-0.012597590549187207,0.008508685500417484,0.9872602116355038
2011-08-09,-1,-0.004238768809867958,-0.0037484611743471815,-0.005943268837884232,0.011115801463430339,0.9874873973420091
2011-08-11,0,0.0,0.0,-0.005943268837884232,0.008508685500417484,0.9876499548639083
2011-08-15,0,0.0,0.0,-0.005943268837884232,0.006968230032912624,0.9883623947229379
2011-08-17,0,0.0,0.0,-0.009704770995793047,0.007958195942142301,0.987061307499152
2011-08-19,-1,-0.0015900667661807933,-0.001308139365975099,-0.009867066709360217,0.009245428043774578,0.9860619335033223
2011-08-23,0,0.0,0.0,-0.016130633877474588,0.007958195942142301,0.9867749742237732
2011-08-25,0,0.0,0.0,-0.010190648110760557,0.009245428043774578,0.9864164766999667
2011-08-29,0,0.0,0.0,-0.010190648110760557,0.009088312266229522,0.9863727718237687
2011-08-31,0,0.0,0.0,-0.01442294173211218,0.010570639734356057,0.9856451590859227
2011-09-02,0,0.0,0.0,-0.00957574240143771,0.010570639734356057,0.9861338772567076
2011-09-07,0,0.0,0.0,-0.00957574240143771,0.010570639734356057,0.9867964267283401
2011-09-09,1,0.00010691224282383852,0.00012872350894125646,-0.006641300073726481,0.012525489364735149,0.9875646162170236
2011-09-13,1,0.00018841017451039948,0.00021703602063764626,-0.006641300073726481,0.012525489364735149,0.9875128509851427
2011-09-15,-1,-0.0007063095841146132,-0.0006105340895877713,-0.005835911589191892,0.012525489364735149,0.9882983304074128
2011-09-19,-1,-0.0005748271566893531,-0.0004969299739481418,-0.005835911589191892,0.011806771473284398,0.9892921179830753
2011-09-21,0,0.0,0.0,-0.005835911589191892,0.0128990456525587,0.9889776040528132
2011-09-23,0,0.0,0.0,-0.005835911589191892,0.011806771473284398,0.9901460069677708
2011-09-27,0,0.0,0.0,-0.007060480575248581,0.010591827156335942,0.9907300943779026
2011-09-29,0,0.0,0.0,-0.006242255822124919,0.007665094953228053,0.9913802745298494
2011-10-03,-1,-0.0028430221291672244,-0.0025712549920558236,-0.004455275149451045,0.007665094953228053,0.9911027461361414
2011-10-05,-1,-0.0024432980065083806,-0.0022756461329058483,-0.0045950019832917445,0.006169609884928384,0.9920955846506021
2011-10-07,-1,-0.001929021015680288,-0.0018212931493818173,-0.0045950019832917445,0.00531334143761683,0.993188869094164
2011-10-11,-1,-0.001851999113547575,-0.0016892323870342674,-0.0045950019832917445,0.006118174688099488,0.9927735495807952
2011-10-13,0,0.0,0.0,-0.0067726480088015194,0.006118174688099488,0.9920469752259048
2011-10-17,0,0.0,0.0,-0.0067726480088015194,0.006190352732958307,0.991411534502342
2011-10-19,0,0.0,0.0,-0.0067726480088015194,0.00598354118175517,0.9923070730953344
2011-10-21,0,0.0,0.0,-0.007234278825726377,0.00598354118175517,0.9915845738060821
2011-10-25,0,0.0,0.0,-0.004556594288254972,0.00598354118175517,0.9923889280312083
2011-10-27,0,0.0,0.0,-0.007234278825726377,0.004169295389263226,0.9921798544138906
2011-10-31,0,0.0,0.0,-0.007234278825726377,0.006190352732958307,0.9912095689600784
2011-11-02,0,0.0,0.0,-0.004684590049716329,0.006734975877421077,0.9901764603128502
2011-11-04,0,0.0,0.0,-0.004684590049716329,0.007630317221223087,0.9895561793197708
2011-11-08,-1,-0.001232364389511025,-0.0011818054862040475,-0.005996547569493563,0.006331075358388123,0.9903702742930676
2011-11-10,1,0.0010133099621653595,0.0011442897075258193,-0.004894808206198824,0.006804248825900687,0.9912338397931405
2011-11-14,1,0.0007356473706565338,0.0008768997490934669,-0.004894808206198824,0.005091495953138765,0.9919227912221293
2011-11-16,0,0.0,0.0,-0.004123848147466733,0.00965753344518432,0.9916901185894118
2011-11-18,1,6.59369921344215e-05,9.244920017433315e-05,-0.004123848147466733,0.00965753344518432,0.9918891674333961
2011-11-22,-1,-6.856391031933865e-05,-5.159830015580664e-05,-0.004123848147466733,0.01186233663941195,0.989607669768666
2011-11-25,1,4.5630516637183794e-05,4.75594269995391e-05,-0.003917751240884628,0.01186233663941195,0.9898390625690274
2011-11-29,0,0.0,0.0,-0.004123848147466733,0.010602136421265894,0.9905396061750452
2011-12-01,0,0.0,0.0,-0.004894808206198824,0.009974925809929747,0.9912272298780187
2011-12-05,0,0.0,0.0,-0.004894808206198824,0.009007430412949251,0.9915057064245566
2011-12-07,0,0.0,0.0,-0.004301890595320216,0.009007430412949251,0.9916647223806327
2011-12-09,0,0.0,0.0,-0.0039885607789985796,0.009007430412949251,0.991515358997612
2011-12-13,1,0.0017661030187692084,0.002227782523936909,-0.0036412363695356997,0.009007430412949251,0.9918987540151953
2011-12-15,1,0.0017269967528799124,0.0021813734819994554,-0.003977098723502455,0.008456645978485416,0.992275892325124
2011-12-19,1,0.0016911761326376246,0.0021266069696910714,-0.003353161111269484,0.008456645978485416,0.9928834542201668
2011-12-21,1,0.002402161729483163,0.0029241924228218122,-0.003592701697124892,0.0051138421903818105,0.9945158914026411
2011-12-23,1,0.0023352161303596443,0.0028344586955347164,-0.003544461621178541,0.004550151175919602,0.9948533684917914
2011-12-28,1,0.001676210114500752,0.0020004498735628094,-0.0042286883588904004,0.004550151175919602,0.9945691751014952
2011-12-30,1,0.0010931246226735104,0.0012648172149628666,-0.0035687557043229293,0.00386185759665864,0.9951959100680002
2012-01-04,1,0.0009864628826946006,0.0011282574927416393,-0.0033451791136688298,0.00386185759665864,0.9954741383115597
2012-01-06,1,0.0010389093619820905,0.0011918073984218216,-0.003549014288857032,0.00386185759665864,0.9954087368330987
2012-01-10,1,0.0012439280548582309,0.0014504825683938358,-0.004169464112492709,0.0025966581945787636,0.9957861627082764
2012-01-12,0,0.0,0.0,-0.004169464112492709,0.0025966581945787636,0.9959273128395345
2012-01-17,0,0.0,0.0,-0.003549014288857032,0.003470254830504695,0.9960723556583436
2012-01-19,0,0.0,0.0,-0.004169464112492709,0.003470254830504695,0.9957571729511024
2012-01-23,0,0.0,0.0,-0.004261882186779434,0.003470254830504695,0.9954538924758488
2012-01-25,0,0.0,0.0,-0.005175465891341188,0.003470254830504695,0.9938951931338644
2012-01-27,0,0.0,0.0,-0.004652732025968307,0.003470254830504695,0.9942743613771464
2012-01-31,0,0.0,0.0,-0.006640021740482276,0.003470254830504695,0.9938629590807486
2012-02-02,0,0.0,0.0,-0.006640021740482276,0.0007462585078412388,0.9940993199880948
2012-02-06,0,0.0,0.0,-0.00777934559857802,0.0014052365569065107,0.9932856519717745
2012-02-08,0,0.0,0.0,-0.00777934559857802,0.00368229460651724,0.993313018667849
2012-02-10,0,0.0,0.0,-0.00777934559857802,0.0033926367048926604,0.9934017099603765
2012-02-14,-1,-0.0013437128007246447,-0.0012130274775246056,-0.00777934559857802,0.0036265242059497077,0.99358509333214
2012-02-16,-1,-0.0006584318037788344,-0.0003742206200506781,-0.0064226744634357435,0.0036265242059497077,0.9935337472056235
2012-02-21,0,0.0,0.0,-0.0057471339318800226,0.0036265242059497077,0.9936951157046999
2012-02-23,0,0.0,0.0,-0.005655190739188436,0.003165656713275877,0.99518896837535
2012-02-27,0,0.0,0.0,-0.005655190739188436,0.003165656713275877,0.9952909310214884
2012-02-29,0,0.0,0.0,-0.0026575482021621057,0.0036265242059497077,0.9955842127721483
2012-03-02,0,0.0,0.0,-0.0026499717057634114,0.0036265242059497077,0.995754399662971
2012-03-06,0,0.0,0.0,-0.0020923004599257156,0.004291043509246705,0.9958901652504153
2012-03-08,0,0.0,0.0,-0.003307673884289291,0.0036265242059497077,0.9956943178569675
2012-03-12,0,0.0,1.528483225162147e-05,-0.005655190739188436,0.0033373156539568396,0.9948591531274449
2012-03-14,1,2.5276619774333478e-05,5.33618484311636e-05,-0.005655190739188436,0.0034404243070292784,0.9948289527735696
2012-03-16,1,0.00019322136569459048,0.00019746709516467245,-0.005793969880465783,0.0032602170168416177,0.9950759868731077
2012-03-20,0,0.0,0.0,-0.005793969880465783,0.004060629050185109,0.9947076455922691
2012-03-22,-1,-0.00023923944797205122,-0.00017224428465213192,-0.005476551627112058,0.0048075065893002636,0.9947194903896481
2012-03-26,-1,-0.0003941097346825203,-0.000309018642615102,-0.005539200090603793,0.0048075065893002636,0.9939918003439749
2012-03-28,-1,-0.00028394222153480377,-0.00020506860304200252,-0.005539200090603793,0.004266884718737282,0.9943095333756921
2012-03-30,-1,-0.00025185630252782143,-0.00018292607342852805,-0.005539200090603793,0.004266884718737282,0.9940913022592154
2012-04-03,1,0.0005241563441633736,0.0005808620001551568,-0.005539200090603793,0.0021319776908165786,0.9947599215708082
2012-04-05,-1,-0.00015819959877031166,-9.675701666833259e-05,-0.003261546923270926,0.0021319776908165786,0.9953159441087068
2012-04-10,-1,-0.001048442853319502,-0.0008620991659027796,-0.002795816579062957,0.0021319776908165786,0.9961643343408977
2012-04-12,-1,-0.001101359866207478,-0.0008988754889083068,-0.002795816579062957,0.0021319776908165786,0.9961793163989562
2012-04-16,-1,-0.001499772126466719,-0.0012265943282112894,-0.002795816579062957,0.0019412835660356045,0.9962551321448048
2012-04-18,-1,-0.0014623373235254245,-0.0011858368441662413,-0.002434496219569484,0.0019412835660356045,0.996566404829401
2012-04-20,-1,-0.0014895193289628816,-0.0011942275845802717,-0.0038662461126586813,0.0012570107657985184,0.996098729555684
2012-04-24,-1,-0.0015125045128790045,-0.001245981926538345,-0.0029946229237799355,0.0015601138968202174,0.9967693020105309
2012-04-26,0,0.0,0.0,-0.003627245219961352,0.0019741362532273905,0.9962989177889038
2012-04-30,0,0.0,0.0,-0.002917716011293099,0.0019741362532273905,0.9964894485120893
2012-05-02,-1,-0.00012972188725366294,-8.675732217844737e-05,-0.0036355253751981717,0.0019741362532273905,0.9964487766006284
2012-05-04,-1,-0.00017085124926068506,-0.00011975913090783632,-0.005074516311856755,0.0019741362532273905,0.9949696603398768
2012-05-08,0,0.0,0.0,-0.005074516311856755,0.0039643696006123755,0.9939929749623904
2012-05-10,-1,-0.0009660031082349592,-0.00086119267499902,-0.005074516311856755,0.0039643696006123755,0.99366919530788
2012-05-14,0,0.0,0.0,-0.0061982345535222935,0.004253160429106863,0.9932815233458266
2012-05-16,0,0.0,0.0,-0.007738427568586984,0.0039643696006123755,0.9931945711728393
2012-05-18,-1,-0.0010321005392281198,-0.0009631019301662622,-0.0039493775487850664,0.004189409548392436,0.9939116708214669
2012-05-22,-1,-0.0019183142978442594,-0.001696714192525021,-0.005659892944404949,0.004177599002833097,0.9931577115807212
2012-05-24,-1,-0.0017836954227264596,-0.001583590607831779,-0.005659892944404949,0.004928623327919872,0.9918733649286292
2012-05-29,-1,-0.0015985070477728429,-0.0014317369532302984,-0.005942042563529316,0.004928623327919872,0.9917501070530453
2012-05-31,-1,-0.0018335088641846138,-0.0016336589401727323,-0.005942042563529316,0.006093445124682642,0.9912569634593663
2012-06-04,0,0.0,0.0,-0.0035608264192907263,0.008982202343028968,0.9921523855681128
2012-06-06,0,0.0,0.0,-0.003767112429502113,0.004928623327919872,0.9930918213576305
2012-06-08,0,0.0,0.0,-0.004851504018375959,0.003912717742654559,0.9931902057951076
2012-06-12,-1,-0.0006679720230405988,-0.0006450547478566534,-0.003767112429502113,0.003574055525146657,0.9938544309542463
2012-06-14,0,0.0,0.0,-0.003767112429502113,0.0037980214650644092,0.9935948274322666
2012-06-18,-1,-0.0003851397002602164,-0.0003796082549546802,-0.004851504018375959,0.003574055525146657,0.9927997130295614
2012-06-20,-1,-0.001222480717179991,-0.0011274098388873652,-0.004851504018375959,0.003268904902182378,0.9934323858725719
2012-06-22,0,0.0,0.0,-0.00605965889888681,0.002059935420386341,0.9936564784504589
2012-06-26,0,0.0,0.0,-0.00783539826829396,0.002059935420386341,0.993474154620408
2012-06-28,0,0.0,0.0,-0.00783539826829396,0.002059935420386341,0.9931329128370542
2012-07-02,0,0.0,0.0,-0.00783539826829396,0.002059935420386341,0.9930608390789468
2012-07-05,0,0.0,0.0,-0.008511223515235804,0.0018669880160618094,0.9925673420015292
2012-07-09,0,0.0,0.0,-0.00783539826829396,0.0029136753940778902,0.9925547369874456
2012-07-11,0,0.0,0.0,-0.00783539826829396,0.004907726394609799,0.9923291981210358
2012-07-13,0,0.0,0.0,-0.005647377931814883,0.004061073045045642,0.9926915512492439
2012-07-17,0,0.0,0.0,-0.005647377931814883,0.004061073045045642,0.9932671236434014
2012-07-19,0,0.0,0.0,-0.003703309094220514,0.0043783212830958975,0.9935645958319287
2012-07-23,-1,-0.00176599949891355,-0.001640435778735328,-0.002925788089997814,0.0043783212830958975,0.9940767248409281
2012-07-25,-1,-0.001608815913041108,-0.0014445704172195428,-0.0016225113022793455,0.0043783212830958975,0.994339849798988
2012-07-27,-1,-0.0010700906581049049,-0.0009933299503683607,-0.002925788089997814,0.003641213127058375,0.9949302014340886
2012-07-31,-1,-0.00034446453779005994,-0.00029392964728354334,-0.0017212019403668333,0.0043683937100028455,0.9953851377193231
2012-08-02,-1,-0.0004631989394930027,-0.00042216371498419937,-0.0009125238157560345,0.0043683937100028455,0.9955399776067573
2012-08-06,-1,-0.00023000021390066628,-0.0001891357646496767,-0.0005041848495435578,0.0052214498121727826,0.9948797350412789
2012-08-08,1,8.689984820037293e-05,0.0001337414771601649,-0.0011072237941679227,0.0052214498121727826,0.9941110419924057
2012-08-10,1,0.0004206851614797208,0.0005086577361943927,-0.004026028501877617,0.0052214498121727826,0.9938525212391526
2012-08-14,-1,-0.00028141053377621746,-0.00025117056878694625,-0.0015668470232338564,0.0052214498121727826,0.993796063718349
2012-08-16,-1,-0.00023385482645666276,-0.00021037425343223116,-0.005404898189075418,0.006671080014758247,0.9925592652376332
2012-08-20,1,0.00012242568356005535,0.0002104472554843275,-0.005404898189075418,0.006671080014758247,0.9928279159510124
2012-08-22,1,0.0002899336305519909,0.00041404411633750053,-0.005404898189075418,0.007330379226317854,0.990062301170504
2012-08-24,0,0.0,0.0,-0.0009725809755210648,0.008171112831445412,0.9899822510059948
2012-08-28,0,0.0,0.0,-0.005066630092588014,0.006311549949876547,0.9902095558980742
2012-08-30,0,0.0,0.0,-0.0009931562010524048,0.006311549949876547,0.9906273883421515
2012-09-04,0,0.0,0.0,-0.0009931562010524048,0.005464614811733563,0.9915636344781031
2012-09-06,0,0.0,0.0,-0.00035780333346032106,0.00425407545821528,0.9924985011672838
2012-09-10,0,0.0,0.0,-8.738696631128615e-05,0.00425407545821528,0.9929719371790758
2012-09-12,0,0.0,0.0,-8.738696631128615e-05,0.00425407545821528,0.9930502537303063
2012-09-14,0,0.0,0.0,2.926100926389471e-06,0.0034157317797222065,0.9943138682805543
2012-09-18,0,0.0,0.0,-0.0005329934493067971,0.00425407545821528,0.993562042020115
2012-09-20,1,0.0018582795194116788,0.0021616043527525734,-0.0005329934493067971,0.004446894332805861,0.9965414735323155
2012-09-24,0,0.0,0.0,-0.001166336779846511,0.004032554995613177,0.9956534963537654
2012-09-26,0,0.0,0.0,-0.0016163770552570353,0.0034157317797222065,0.9954731084278117
2012-09-28,0,0.0,0.0,-0.002244995569801065,0.004032554995613177,0.9946254006016155
2012-10-02,0,0.0,0.0,-0.0028602796828011,0.004032554995613177,0.9938735950629896
2012-10-04,0,0.0,0.0,-0.002586333802446487,0.0034800047379190666,0.9941237343417585
2012-10-08,0,0.0,0.0,-0.0043276480344926075,0.005272806521909581,0.9930958307451357
2012-10-10,0,0.0,0.0,-0.0062880803132088015,0.005272806521909581,0.9927254175290994
2012-10-12,0,0.0,0.0,-0.0062880803132088015,0.005272806521909581,0.9927780634020311
2012-10-16,0,0.0,0.0,-0.0062880803132088015,0.0032232241012237284,0.9933411085051466
2012-10-18,0,0.0,0.0,-0.0062880803132088015,0.0026128602207532562,0.9936801876307163
2012-10-22,0,0.0,0.0,-0.005188698919324218,0.0037734667367619076,0.9940962311236429
2012-10-24,0,0.0,0.0,-0.003969192437779315,0.004764456417322636,0.9940793924191796
2012-10-26,0,0.0,0.0,-0.001856671174030621,0.004764456417322636,0.9926614049380935
2012-11-01,0,0.0,0.0,-0.0012222989005129963,0.004764456417322636,0.9932522244324984
2012-11-05,0,0.0,0.0,-0.0023207697883522883,0.004764456417322636,0.9928099503333927
2012-11-07,0,0.0,0.0,-0.00143202517329422,0.004428864898369732,0.9937321428718784
2012-11-09,0,0.0,0.0,-0.001341481806072299,0.004428864898369732,0.994168667713598
2012-11-13,0,0.0,0.0,-0.001341481806072299,0.00507333481340513,0.9933314855527814
2012-11-15,0,0.0,0.0,-0.001341481806072299,0.00507333481340513,0.9934034853322462
2012-11-19,0,0.0,0.0,-0.00143202517329422,0.0057488794038130335,0.993230991723771
2012-11-21,0,0.0,0.0,-0.0021717965725181676,0.005897759426560141,0.9929705410296397
2012-11-26,0,0.0,0.0,-0.0021717965725181676,0.004962924824588194,0.9930479553742788
2012-11-28,0,0.0,0.0,-0.003629171713620325,0.00371390810212614,0.9947727569770856
2012-11-30,0,0.0,0.0,-0.004340721381939017,0.00371390810212614,0.9944626989988489
2012-12-04,0,0.0,0.0,-0.003629171713620325,0.004962924824588194,0.9938730163764415
2012-12-06,0,0.0,0.0,-0.003629171713620325,0.005897759426560141,0.993697309915647
2012-12-10,0,0.0,0.0,-0.003629171713620325,0.0068388264607159,0.9934383748809642
2012-12-12,1,0.0011392022153553483,0.0011392145152425686,-0.003629171713620325,0.006815945365482753,0.9935628429354846
2012-12-14,1,0.0003551270371154128,0.0004932594482253114,-0.0026890486976971447,0.0072597741734073355,0.993639343755579
2012-12-18,1,5.638653393247577e-06,0.0001803707639754022,-0.0023387558806509025,0.007363187581860158,0.9934267629534783
2012-12-20,0,-0.0001742610637555503,1.8624528887798862e-05,-0.002317664366349172,0.007493358295776888,0.9934751834980079
2012-12-24,-1,-0.0005159041329459227,-0.00032537337988736636,-0.002317664366349172,0.007751161632527424,0.9929286530096746
2012-12-27,-1,-0.001728668793307437,-0.0013992168032602608,-0.0010373091534260736,0.008538700741095081,0.9924688288011848
2012-12-31,-1,-0.0010395410676259551,-0.0007916706857740731,-0.0010373091534260736,0.008538700741095081,0.9924423064805697
2013-01-03,-1,-0.00020184009749023713,-6.0979819677791747e-05,-0.0007263891396850892,0.008538700741095081,0.9932236242106142
2013-01-07,-1,-0.00037055139537913546,-0.0002356222530538459,-0.0007263891396850892,0.008538700741095081,0.9929706039304402
2013-01-09,0,-8.449821339567853e-05,5.199084639403577e-05,0.0007375774768882589,0.00799803384175277,0.9930851669787217
2013-01-11,1,0.000333275023465951,0.000421669794713782,-0.00045389611012590527,0.00799803384175277,0.9937116797948057
2013-01-15,1,0.00040868193321076966,0.0004882582004614388,-0.0012120757885267703,0.00799803384175277,0.9937563670347632
2013-01-17,1,0.00032403260394553456,0.00038771925363306314,-0.0016345409039901617,0.007918331895881887,0.9938699399579116
2013-01-22,1,0.0011729207861965539,0.0011809479740730149,-0.0021134345693092234,0.007459467879833244,0.9938546786169594
2013-01-24,1,0.0016052402334862802,0.0016948548120837377,-0.0016345409039901617,0.006224071704545135,0.9947646552225479
2013-01-28,1,0.001450664447053052,0.0015130309859036543,-0.0016345409039901617,0.006224071704545135,0.9942577396983859
2013-01-30,1,0.0014188299318774477,0.0014862815980930596,-0.0010576781101604997,0.006224071704545135,0.9950320762378764
2013-02-01,1,0.0017051430274507267,0.0018197153076913665,-0.0005947178152803691,0.006224071704545135,0.9950707353207802
2013-02-05,1,0.0016677568082449161,0.0017530560824394726,0.00036511102402740495,0.006224071704545135,0.9956170851550306
2013-02-07,1,0.0017643796307206263,0.0018513257564558103,-0.0005947178152803691,0.005943149038339295,0.9954771974612244
2013-02-11,1,0.0015854467314053602,0.0016527234096442207,-0.001232888245756767,0.005943149038339295,0.9953344872192872
2013-02-13,1,0.001544050411217651,0.001589317627259691,-0.0009354624847714827,0.0064801578416027175,0.9952739373154493
2013-02-15,1,0.0020811756511387234,0.0022451940563555242,-0.0009354624847714827,0.005943149038339295,0.995605720519151
2013-02-20,0,0.0,0.0,0.0002240566919895755,0.006920246695217729,0.9949499609107207
2013-02-22,0,0.0,0.0,-0.0009354624847714827,0.006920246695217729,0.9947205403115146
2013-02-26,1,0.0015552434342882596,0.0017167475246146918,-0.00021594833499596154,0.006920246695217729,0.9957995079358932
2013-02-28,1,0.0016029211695781222,0.0017767723338693634,-0.00021594833499596154,0.006277574648867367,0.9958685943414372
2013-03-04,1,0.0019858325236223823,0.0022042091927135556,-0.0014243433778114837,0.0041427874689389035,0.9959457245651356
2013-03-06,1,0.0016135908754507616,0.001784746582467251,-0.004069723020948964,0.0041427874689389035,0.9946389463559919
2013-03-08,1,0.0014664522974132095,0.001613303209489416,-0.004104177485943055,0.005467503435746303,0.9945146860837681
2013-03-12,1,0.0014216451902786796,0.0015622703467439872,-0.005495347169167748,0.006277574648867367,0.9940039525667389
2013-03-14,1,0.0016675171617285772,0.0018584482728350629,-0.005495347169167748,0.006277574648867367,0.9938109361150891
2013-03-18,1,0.0017209643178895955,0.0019343499535287335,-0.0061262669059734,0.0068900059577125215,0.9924845536909159
2013-03-20,1,0.0016408404340171267,0.0018172251331907592,-0.0061262669059734,0.0058794192546424255,0.9927032314841643
2013-03-22,1,0.00111388666345343,0.001187057307045867,-0.005495347169167748,0.00660174007726029,0.9925265810526986
2013-03-26,1,0.001475363248093544,0.0016152393949974476,-0.0061262669059734,0.0058794192546424255,0.9920083537580843
2013-03-28,1,0.0015230885405456698,0.001661790528503784,-0.0061262669059734,0.005366814513277126,0.9918772231842133
2013-04-02,1,0.0011411983563029827,0.0012235968773879197,-0.0061262669059734,0.005366814513277126,0.9922617504794351
2013-04-04,1,0.0001963122727478261,0.0002537042867518498,-0.0057437423927225225,0.005366814513277126,0.9929406020540262
2013-04-08,1,0.00013461014810869942,0.00020921283251184303,-0.005840181888887954,0.006299673309852759,0.9921062163806594
2013-04-10,1,2.0859908099948833e-05,0.00010615403780599603,-0.00576619349799941,0.00659203873674306,0.9921317728229435
2013-04-12,1,0.00031343163701791246,0.0003756204252916077,-0.006227877577965841,0.0026899949855573946,0.9918694938531301
2013-04-16,1,0.0005413588410477822,0.0005764883477115236,-0.00576619349799941,0.0039599375477854665,0.9922906527125951
2013-04-18,1,0.00045757005137945866,0.0004949142258296231,-0.006227877577965841,0.007122604728058266,0.991504126287921
2013-04-22,1,0.0008155742777933315,0.0008158107091495214,-0.006227877577965841,0.00455609342114039,0.9918411109366781
2013-04-24,0,0.0,0.0,-0.006227877577965841,0.00455609342114039,0.9921976579029705
2013-04-26,0,0.0,0.0,-0.007464588276005696,0.00455609342114039,0.9917751744855837
2013-04-30,-1,-0.00021064527676421617,-0.0001095286307327371,-0.010567504339364748,0.00615128853268501,0.9908982093934111
2013-05-02,-1,-0.0005115118620265623,-0.00019310045286332223,-0.011107427419343415,0.00615128853268501,0.9906683347703016
2013-05-06,1,4.380425375577696e-05,0.0002225102979795902,-0.011107427419343415,0.004444472380726441,0.9914824531971397
2013-05-08,0,0.0,0.0,-0.012945402586862116,0.004070557520089988,0.9911649046803191
2013-05-10,0,0.0,0.0,-0.011107427419343415,0.004917922910361702,0.991075267555044
2013-05-14,0,0.0,0.0,-0.011107427419343415,0.004070557520089988,0.991631898906356
2013-05-16,0,0.0,0.0,-0.00856866798088628,0.004070557520089988,0.9920704170882144
2013-05-20,0,0.0,0.0,-0.00856866798088628,0.004737398215752125,0.9917146821689955
2013-05-22,0,0.0,0.0,-0.013681049291934543,0.004737398215752125,0.9900112073757386
2013-05-24,0,0.0,0.0,-0.009219979754211644,0.005498093408442329,0.9898897217032652
2013-05-29,0,0.0,0.0,-0.007070430822285442,0.004737398215752125,0.9906869493225435
2013-05-31,0,0.0,0.0,-0.004695500620321497,0.0069476413173029435,0.9890619452040506
2013-06-04,0,0.0,0.0,-0.003331915736150497,0.00829984709554317,0.9889270546962731
2013-06-06,0,0.0,0.0,-0.002978467007518099,0.00974679556912747,0.9893830571347132
2013-06-10,0,0.0,0.0,-0.003331915736150497,0.00760282590934782,0.989905740886886
2013-06-12,-1,-0.0020572809374513846,-0.0016085393531526046,-0.002978467007518099,0.011901442169084562,0.9888992836972349
2013-06-14,-1,-0.0014938466087653947,-0.0011339766289302465,-0.002736224191948571,0.009810378610498514,0.989206443441814
2013-06-18,-1,-0.0008490837297942076,-0.0005863113344679954,-0.0032354693208884217,0.008618379206017919,0.9898858602835692
2013-06-20,-1,-0.00235028598244092,-0.0019211409270263784,-0.0012396091426921095,0.008618379206017919,0.9912040688400543
2013-06-24,-1,-0.0018410179038423368,-0.0014661765429689884,-0.0012396091426921095,0.0074590275170430854,0.991892461110054
2013-06-26,-1,-0.0015547638048773343,-0.0012402270256732652,-0.0020460144003477325,0.0074590275170430854,0.9919861313873424
2013-06-28,0,0.0,0.0,-0.003663689108566556,0.005854038081228166,0.9944917256206021
2013-07-02,0,0.0,0.0,-0.004213509444203302,0.005033433739943672,0.9945838646601416
2013-07-05,0,0.0,0.0,-0.004213509444203302,0.006192555846784866,0.9939875998682642
2013-07-09,0,0.0,0.0,-0.004203612491949219,0.006192555846784866,0.9940066766883029
2013-07-11,0,0.0,0.0,-0.00457610309005263,0.004957857874400575,0.9949351745960759
2013-07-15,0,0.0,0.0,-0.00457610309005263,0.0034651419443372787,0.9953953965424781
2013-07-17,0,0.0,0.0,-0.004737432610066459,0.0034651419443372787,0.9947849646728438
2013-07-19,0,0.0,0.0,-0.005909754544521285,0.0007466624786133727,0.9933822781247352
2013-07-23,1,0.001365533983202063,0.0014492464118555808,-0.005909754544521285,0.0028679973892160953,0.9929524259126167
2013-07-25,0,0.0,0.0,-0.006692215937001539,0.0023831221354502306,0.9931884352040525
2013-07-29,0,0.0,0.0,-0.007187564921564842,0.0028679973892160953,0.9921180416296957
2013-07-31,0,0.0,0.0,-0.008905158565279308,0.0028679973892160953,0.991815110509054
2013-08-02,0,0.0,0.0,-0.008905158565279308,0.0023831221354502306,0.9924738720011443
2013-08-06,0,0.0,0.0,-0.008905158565279308,0.002329975110298592,0.992776871048491
2013-08-08,0,0.0,0.0,-0.008905158565279308,0.002329975110298592,0.9930771034680557
2013-08-12,0,0.0,0.0,-0.012883199355153124,0.002329975110298592,0.9899277124287892
2013-08-14,-1,-0.0004083959366614106,-0.00036127844725919293,-0.008905158565279308,0.0024186477183293638,0.9902050207131572
2013-08-16,-1,-0.0013570145211000166,-0.0012173413943004441,-0.0047314914813743995,0.003075404997181044,0.9914265689353531
2013-08-20,-1,-0.0008395600476037541,-0.0007837312702842875,-0.006717023535434576,0.003075404997181044,0.9910402522086895
2013-08-22,-1,-0.001089727622263854,-0.0010071332637420906,-0.006717023535434576,0.0042201793323366115,0.9896397796426067
2013-08-26,-1,-0.001947077362565152,-0.0017462426491261513,-0.006702122493368443,0.003075404997181044,0.9909404305128062
2013-08-28,-1,-0.0024866541171469324,-0.0022265591629524214,-0.006702122493368443,0.003075404997181044,0.9910989027830903
2013-08-30,-1,-0.0024532159963862256,-0.0022010685891448844,-0.007022214442441426,0.0026397280591744067,0.9911078982870141
2013-09-04,-1,-0.0019785451701538337,-0.001811690385629592,-0.007022214442441426,0.004104840285785242,0.9907082745053835
2013-09-06,-1,-0.0018190142557407804,-0.001686978869576946,-0.0072435224993228475,0.004104840285785242,0.9905023078986999
2013-09-10,-1,-0.0030546622714881172,-0.0027769656148700205,-0.0072435224993228475,0.004104840285785242,0.9929979020681245
2013-09-12,-1,-0.002193046121116856,-0.0020506176104774397,-0.0072435224993228475,0.004104840285785242,0.9924797194029145
2013-09-16,-1,-0.0016935455548180009,-0.0015772751630634952,-0.0072435224993228475,0.0033938957047311953,0.9929855677888051
2013-09-18,0,0.0,0.0,-0.006963588691745234,0.0033938957047311953,0.992896660744153
2013-09-20,0,0.0,0.0,-0.005552649779880922,0.0033938957047311953,0.9947149566396589
2013-09-24,-1,-0.002635255621185364,-0.002439914059879344,-0.0034647643411383974,0.003745720873152643,0.9934249810525145
2013-09-26,-1,-0.00349573116794096,-0.00311556632196419,-0.0034647643411383974,0.003745720873152643,0.993318409936118
2013-09-30,-1,-0.003442347633893097,-0.0030772750620680083,-0.001470195624133112,0.0049643617331591,0.9924664232752564
2013-10-02,-1,-0.0033358768947803472,-0.002958913742045105,-0.0034287275290408913,0.004312868588980586,0.9930165460430795
2013-10-04,-1,-0.0029966046342755756,-0.002697894904237069,-0.0034287275290408913,0.004312868588980586,0.9930401935246301
2013-10-08,-1,-0.0030617997956103064,-0.0027639544337025087,-0.003367279248260758,0.0070572411363468155,0.9917166114756185
2013-10-10,0,0.0,0.0,-0.004778434502626995,0.006097373602102805,0.9924563469843504
2013-10-14,0,0.0,0.0,-0.0049988161570649016,0.009023309729484326,0.9919391339460494
2013-10-16,0,0.0,0.0,-0.0049988161570649016,0.009023309729484326,0.9917908003694831
2013-10-18,0,0.0,0.0,-0.004778434502626995,0.009023309729484326,0.991782886610192
2013-10-22,-1,-0.001784672164211864,-0.0015637177034780597,-0.005450550062808893,0.007877915425519522,0.9923158824656012
2013-10-24,-1,-0.002147927053370422,-0.0018807475710046417,-0.005483718584883345,0.007877915425519522,0.9922026593926341
2013-10-28,-1,-0.001608734575906607,-0.0013921893535118865,-0.005483718584883345,0.007877915425519522,0.9924676717384682
2013-10-30,-1,-0.001406749703623215,-0.0012440107221436281,-0.00567027581418445,0.009023309729484326,0.9919256618162154
2013-11-01,-1,-0.0016709793639825446,-0.0014736375798469876,-0.004840620245727364,0.009023309729484326,0.9919472655454559
2013-11-05,-1,-0.0005293986207858339,-0.00048061620963505585,-0.0035763176927838002,0.007877915425519522,0.9932082327602745
2013-11-07,-1,-0.0006355805478852261,-0.0005944447894656093,-0.0035763176927838002,0.007877915425519522,0.9935111186637294
2013-11-11,-1,-0.001447508462314404,-0.0012392272912847353,-0.0035763176927838002,0.00601956391889134,0.9934909872553668
2013-11-13,-1,-0.0007923404052357255,-0.0006759129164794211,-0.005733468642045177,0.002511696284861328,0.993641271345607
2013-11-15,-1,-0.000599303283667784,-0.0005120512083148406,-0.007701124149963988,0.0019295446690058688,0.9931645385060038
2013-11-19,-1,-0.00011279154005966593,-5.765702441658588e-05,-0.007701124149963988,0.0037397432280735637,0.9927706281672128
2013-11-21,-1,-0.00022324975328831258,-0.0001629242217246328,-0.005733468642045177,0.006576530476089224,0.9906195464473069
2013-11-25,1,0.00030341532387596296,0.00044792806590789177,-0.006967970668776523,0.005424435145663173,0.9909634316513588
2013-11-27,1,0.0005810431602477822,0.0007558294923478425,-0.006967970668776523,0.004268387097621351,0.9914863346486447
2013-12-02,1,0.0011577007844150305,0.0014689680070401503,-0.006967970668776523,0.0038785957762692094,0.9918144399437828
2013-12-04,1,0.0014023196973693016,0.0017589141199608476,-0.006967970668776523,0.0038785957762692094,0.9915257795070165
2013-12-06,1,0.001540027686043031,0.0019133547190380961,-0.005297595377092901,0.0038785957762692094,0.991436263348387
2013-12-10,1,0.001210228225637891,0.0015539784168935346,-0.005297595377092901,0.0038785957762692094,0.9918655950864925
2013-12-12,1,0.000978454146918844,0.001290039339944865,-0.005297595377092901,0.0038785957762692094,0.9919496104316896
2013-12-16,1,0.0008448682692268187,0.0011424043267692875,-0.004087590140498891,0.004268387097621351,0.9922037030881138
2013-12-18,1,0.0010238035882547411,0.001331895027517151,-0.004087590140498891,0.004268387097621351,0.9918098010438979
2013-12-20,1,0.0020782562571950375,0.002507403228280144,-0.004087590140498891,0.003964704660634633,0.9942425909442817
2013-12-24,1,0.0026064086867730527,0.003162058330304228,-0.005648115526665127,0.0038785957762692094,0.9932679759147071
2013-12-27,1,0.0026430440071182728,0.0031933339902858486,-0.006611775631374725,0.0039534001408545695,0.9928931846339263
2013-12-31,1,0.0026239537239409593,0.003152920638625491,-0.008335877224930049,0.003947349416593867,0.991263502116606
2014-01-03,1,0.0024868917678668436,0.0030040696705933593,-0.009320985341910809,0.003947349416593867,0.9899085509317683
2014-01-07,1,0.002752590929885309,0.0032738772340201307,-0.009320985341910809,0.00387727373303246,0.9905536943462542
2014-01-09,1,0.002124687373871462,0.002510270121921169,-0.009320985341910809,0.003978890703706493,0.9909924059118146
2014-01-13,1,0.001914698920425374,0.0022790735530962966,-0.012525829269390908,0.0043633380198835415,0.988180065280489
2014-01-15,1,0.0015038429638882602,0.0017788752327671695,-0.012525829269390908,0.003978890703706493,0.9885474156852099
2014-01-17,1,0.0012301930611557424,0.0014606932149545562,-0.007444340534427863,0.003978890703706493,0.989047869428194
2014-01-22,1,0.0012690911243753052,0.0014875052054596038,-0.011975044992571543,0.0017538574436336755,0.9880209149495518
2014-01-24,1,0.0006400085283425366,0.0007714047668250746,-0.006688027716701764,0.0020298838096999214,0.9895084709197272
2014-01-28,1,0.0008456285662858512,0.0010075635479669257,-0.0064837928097720866,0.0011275470401519543,0.9896560393767022
2014-01-30,1,0.00015438718014868405,0.00022283038985080215,-0.0043382464083299415,0.0020298838096999214,0.9910451120223033
2014-02-03,-1,-0.0011355338719087804,-0.0009947226393501709,-0.0038005879647383467,0.004153110969199321,0.9923004015123265
2014-02-05,-1,-0.001166207085505573,-0.0010093449768705776,-0.0038005879647383467,0.005095790795164686,0.9918874733968029
2014-02-07,-1,-0.000984393402775759,-0.0008595840429828088,-0.0038005879647383467,0.0057615912557890826,0.9915632952011846
2014-02-11,-1,-0.0018254754490971204,-0.0016138095305757202,-0.0035836919041054563,0.00614084136664202,0.9941918860319507
2014-02-13,-1,-0.002351369505180962,-0.0020431333030815875,-0.003601584790679539,0.00614084136664202,0.9938701703281293
2014-02-18,-1,-0.0023089253122368742,-0.0019948735177038567,-0.002732535081520054,0.00614084136664202,0.9939087231840135
2014-02-20,-1,-0.0029011849277530387,-0.0025134154271824007,-0.0021934024476931123,0.008114325286870925,0.9934299404989152
2014-02-24,-1,-0.002672504370975197,-0.0023165782321038528,-0.0018901930230571938,0.008114325286870925,0.99331366606193
2014-02-26,-1,-0.0027980199424181788,-0.0024357356096139223,-0.0008674839120269484,0.008114325286870925,0.992808824496538
2014-02-28,-1,-0.0028134847974966,-0.002434953265235299,-0.0006857298769009063,0.008114325286870925,0.9922145175378606
2014-03-04,-1,-0.002690072003402036,-0.002312578804755374,-0.0008489991940284342,0.008114325286870925,0.9923153408563617
2014-03-06,-1,-0.0020460492155974204,-0.0017772071084173355,-0.0008489991940284342,0.010070091554693489,0.9923099999411716
2014-03-10,-1,-0.0018841899239805822,-0.0016269420789242896,-0.0009338299354915687,0.008776546080050083,0.9921545488797275
2014-03-12,-1,-0.0011823403917387175,-0.0010255124220110786,-0.002153575541643182,0.008025652921857588,0.9928465457082363
2014-03-14,-1,-0.001795591459850621,-0.001562110037802981,-0.003785643454645379,0.008025652921857588,0.9923613997732591
2014-03-18,-1,-0.0009108358640927737,-0.0008179892200468658,-0.003785643454645379,0.00834478737017646,0.9926752011386949
2014-03-20,-1,-0.0009853532155231918,-0.0008624883712362648,-0.0008811144196966297,0.00834478737017646,0.9928499493500287
2014-03-24,-1,-0.0006418115194786755,-0.0005892489449220425,-0.003600591352159995,0.00834478737017646,0.9929671259238714
2014-03-26,-1,-0.0007835963444506813,-0.0007004433815968638,-0.003600591352159995,0.00834478737017646,0.9929796609235435
2014-03-28,-1,-0.00040891654675188004,-0.0003637961176180856,-0.004014044474765808,0.005798879600619384,0.9932502445351116
2014-04-01,1,0.00022162185954660877,0.00030853769047091634,-0.004014044474765808,0.0042588744506589305,0.9937504659451732
2014-04-03,1,0.00037305830264539416,0.00043934754415531893,-0.004014044474765808,0.0034665721009045705,0.9943624508587673
2014-04-07,-1,-2.0596751490566943e-05,-1.2407312140593285e-06,-0.004744857826231129,0.002246827158620092,0.9946446227278525
2014-04-09,1,0.00035570608049857326,0.00045324596306871144,-0.005745395303911107,0.0023229322281194302,0.9934061944688201
2014-04-11,0,-1.6907077061175386e-05,2.599581378550075e-05,-0.004189701518774977,0.005651044999729132,0.993689588132851
2014-04-15,1,0.0001673473129730632,0.0002232308528708677,-0.004189701518774977,0.006326043877360965,0.9934685573497518
2014-04-17,1,0.00022733419966542687,0.00027399742060857835,-0.005745395303911107,0.006326043877360965,0.9930999048537801
2014-04-22,1,0.00021006360698311603,0.0002655762086017432,-0.005745395303911107,0.006326043877360965,0.9930664810850439
2014-04-24,1,0.0002699305985728994,0.0003500245010904455,-0.005745395303911107,0.006326043877360965,0.9929398404516405
2014-04-28,1,4.920184214247391e-05,9.741425057978727e-05,-0.003947876949108093,0.006326043877360965,0.9933935830974304
2014-04-30,1,0.00010563829088729206,0.00017006689254022808,-0.0025973609350997484,0.008028903545753571,0.9928702134307316
2014-05-02,1,0.00026002336922732223,0.0003461794557341604,-0.0039457080849559685,0.008028903545753571,0.992843371247311
2014-05-06,-1,-0.0001898229222208912,-0.00018328881326276305,-0.001743000230883743,0.008028903545753571,0.9929808481685936
2014-05-08,-1,-7.752626162550997e-05,-6.431845436487881e-05,7.936872708853686e-05,0.007018685847055011,0.9940943636686909
2014-05-12,1,0.00019969177313841432,0.0002459133005513859,-0.0022843102595037886,0.005887146510390635,0.9945907932284344
2014-05-14,1,0.000591013669245665,0.0007015113269024744,-0.002719929838381371,0.005191471261016188,0.9950833315965117
2014-05-16,1,0.0008947675137354817,0.0010761698350586477,-0.0022843102595037886,0.0054558496302129274,0.9954199696011786
2014-05-20,1,0.0005631440116639311,0.0006927361158431389,-0.0018008034489159141,0.0054558496302129274,0.9920633251564062
2014-05-22,1,0.0012641027273874131,0.0015183851383694822,-0.0047562151722683865,0.004428713251648706,0.9897434730270892
2014-05-27,1,0.0012460802535601795,0.0015042467754582626,-0.0047562151722683865,0.004428713251648706,0.9898105203107442
2014-05-29,1,0.0017463110653353582,0.0020586935181885722,-0.0047562151722683865,0.004428713251648706,0.9900851315531789
2014-06-02,1,0.0016998394918958594,0.002032849103126083,-0.0034889603872881162,0.005887146510390635,0.9895278648553121
2014-06-04,1,0.0019232842138023419,0.0022808550387957835,-0.0034889603872881162,0.00835950535382481,0.9884926515430573
2014-06-06,1,0.002104096752511479,0.0024744071661429628,-0.0034889603872881162,0.008513700133748529,0.987814686845103
2014-06-10,1,0.0020021587376949203,0.002367736914990477,-0.00419000171302746,0.008513700133748529,0.9874152663527438
2014-06-12,1,0.0017519490782957406,0.002073294806090719,-0.002738971769923248,0.008513700133748529,0.9878219006431525
2014-06-16,1,0.002393648326501804,0.0028122712623547983,-0.002738971769923248,0.008717000689929207,0.9879175664868267
2014-06-18,1,0.0005986186995830822,0.0007430568053207254,-0.002738971769923248,0.008717000689929207,0.9909095596617636
2014-06-20,-1,-0.000380902542354057,-0.00035367281468629864,-0.00179251480773333,0.008717000689929207,0.9932350884715745
2014-06-24,-1,-0.0007448898131956173,-0.0006921807501651348,-0.00179251480773333,0.01080890576007577,0.9924625133360898
2014-06-26,-1,-0.0009045222731641665,-0.0007976069070736371,-0.0017096936792911997,0.01080890576007577,0.9928239287598941
2014-06-30,-1,-0.00020685597361435972,-0.00018639614291685315,-0.0023490693362020853,0.006384941289393934,0.9934178235586022
2014-07-02,1,0.0003609192866932794,0.00041583333874570553,-0.004064419881318223,0.0021122725958664865,0.9938779766581971
2014-07-07,-1,-8.519069007970959e-05,-8.562927027086541e-06,-0.004064419881318223,0.0032775839534328493,0.9941202488576761
2014-07-09,-1,-0.0007606244992120883,-0.0005941654128230201,-0.003999365939542927,0.005907480786594248,0.9943419446461363
2014-07-11,-1,-0.000625183981202783,-0.00048340264759961143,-0.003999365939542927,0.005907480786594248,0.9941862241406033
2014-07-15,-1,-0.0007580604509387298,-0.0005644150587324015,-0.003999365939542927,0.005907480786594248,0.9940417373955406
2014-07-17,-1,-0.0013036958402071548,-0.0010446930428839596,-0.0024272913763336086,0.008080337310631536,0.9937657043541942
2014-07-21,-1,-0.0013704052549723148,-0.0010876595035456326,-0.0030973840051261134,0.008080337310631536,0.9938024668971838
2014-07-23,-1,-0.0008666390108775287,-0.0006455583180039874,-0.0030973840051261134,0.005870447943995598,0.9944060106397364
2014-07-25,-1,-0.0008019990458491441,-0.0006038888184155536,-0.003999365939542927,0.005870447943995598,0.9939401044810012
2014-07-29,-1,-0.001146290534254863,-0.0009257339424937255,-0.0030973840051261134,0.007963855386326803,0.9936866822704128
2014-07-31,-1,-0.0014579285251433843,-0.0012158759051255942,0.0,0.008159452736132004,0.9936936058725854
2014-08-04,-1,-0.0006178248699344531,-0.0004955761550883022,-0.0006987661024854567,0.005935647060597332,0.9947494523289008
2014-08-06,-1,-0.0008507861368505608,-0.0006754598401972399,0.0,0.005935647060597332,0.9947232494915231
2014-08-08,-1,-0.0004693005587273198,-0.00035801578255097556,0.0,0.005730771829851525,0.9948635856176123
2014-08-12,1,4.578700591502627e-05,8.971135698294946e-05,-0.001391276325309191,0.00428774760611411,0.9955408836063633
2014-08-14,1,0.0005049096260446184,0.000518155647779328,-0.002802280654206255,0.00406409558523522,0.9959514533022134
2014-08-18,1,0.00047920309591255344,0.0004931877342815396,-0.001391276325309191,0.00406409558523522,0.996245805732188
2014-08-20,1,0.0007313622632537115,0.0008059922556851644,-0.0033270676426444415,0.004275392525586697,0.9936687860860332
2014-08-22,1,0.0005353003435861617,0.0005911242075636784,-0.0024839218759220615,0.0041425514300021836,0.9940053151679215
2014-08-26,1,0.0008177925299942411,0.000943771604971372,-0.0024839218759220615,0.0041425514300021836,0.9937088684478299
2014-08-28,1,0.0008205489715337317,0.0009217717737630405,-0.0033270676426444415,0.0041425514300021836,0.9925559853014158
2014-09-02,1,0.000794349603158378,0.0008942989788360749,-0.005069734904148445,0.0041425514300021836,0.9923254722427473
2014-09-04,1,0.0007224317238011234,0.0007826911739773634,-0.006087744613764925,0.002357441627783156,0.9922303851088322
2014-09-08,1,0.001023614173253213,0.0011405767583620068,-0.006087744613764925,0.005612425898764429,0.9911885054724783
2014-09-10,1,0.001040641312120746,0.001179541746581364,-0.008209198362336158,0.010816617677477656,0.9901994342396162
2014-09-12,1,0.0008593998441420582,0.0009681632019985687,-0.009613350066428099,0.010816617677477656,0.9898742153281345
2014-09-16,1,0.0007613524204342723,0.0008460858062742977,-0.010366745955885458,0.011115343664822135,0.9887603721833066
2014-09-18,1,0.0015533055706777718,0.0017237228265882735,-0.009946616898594336,0.010816617677477656,0.990970756257523
2014-09-22,1,0.001270615324102618,0.0013932279317951247,-0.009946616898594336,0.011115343664822135,0.990012729532815
2014-09-24,1,0.001299566141399801,0.0014278421067667824,-0.009482315377253213,0.011078577849148473,0.9906135774376241
2014-09-26,1,0.0008552885618915691,0.0009003273277859285,-0.008209198362336158,0.010804362405586436,0.9916301767832626
2014-09-30,1,0.0007632671511350719,0.0008095582204464089,-0.0073763938946930195,0.010804362405586436,0.9915192783843998
2014-10-02,1,0.0007324807755437238,0.0007952811291192223,-0.007487482838748432,0.010804362405586436,0.990445501121227
2014-10-06,1,0.0015726482886098405,0.0017697125965291493,-0.007487482838748432,0.01074639240903162,0.9911756297687577
2014-10-08,1,0.0016495659000357703,0.0018536032395216756,-0.0047516397573318615,0.008406172182178146,0.9923177159115426
2014-10-10,1,0.0011729417099817928,0.0013007614217531943,-0.004094774765052942,0.01074639240903162,0.9922468287008487
2014-10-14,1,0.0013679065840412888,0.0015368109471798255,-0.004094774765052942,0.008406172182178146,0.992678873709701
2014-10-16,1,0.0010847936726246918,0.0012114582754451984,-0.0038292123566226704,0.01074639240903162,0.9925763288964997
2014-10-20,1,0.0020691525024023136,0.002355950517443879,-0.0038292123566226704,0.006659373039875267,0.9936764060191097
2014-10-22,1,0.001809591818879006,0.0020537157371709174,-0.0031123610224584155,0.008406172182178146,0.993060405192599
2014-10-24,1,0.0019045147550111382,0.0021719281728147773,-0.002675406448476939,0.008406172182178146,0.993249902027679
2014-10-28,1,0.002083234483034684,0.0023882304464701524,-0.0023329072182445227,0.0074319299703084745,0.9936024430484105
2014-10-30,1,0.0017369891586860346,0.0019833108620195107,-0.0018282305873752497,0.009945119455244244,0.9940486432175242
2014-11-03,1,0.001902240638055032,0.0021569658771277917,-0.0023329072182445227,0.009945119455244244,0.9938819715826535
2014-11-05,1,0.002043043042759556,0.002343767317746246,-0.0027027277120864825,0.009945119455244244,0.9935705757633566
2014-11-07,1,0.0013538263827774,0.0014515985596608577,-0.0023329072182445227,0.00999623807607328,0.9937465799801948
2014-11-11,0,-2.7219646640381308e-05,0.00011359319771295521,-0.0018282305873752497,0.00999623807607328,0.9940545073861415
2014-11-13,1,0.00022759419928898496,0.0003408500990253457,-0.002436021120236617,0.00999623807607328,0.9933762942800667
2014-11-17,1,0.00034876564370032147,0.0004486756381847384,-0.003003392216424507,0.00999623807607328,0.9933877028620992
2014-11-19,1,0.000952343733220972,0.0009588945215534667,-0.003214033757376743,0.00999623807607328,0.9928963901936648
2014-11-21,1,0.0009055656215626094,0.0009579011631728543,-0.003214033757376743,0.00999623807607328,0.9927224834295985
2014-11-25,1,0.0009019615308121642,0.0009666243804128788,-0.003214033757376743,0.00999623807607328,0.9927082424390977
2014-11-28,1,0.0012202213393490296,0.0013072513016443963,-0.003214033757376743,0.0033379046750619075,0.9938617888927245
2014-12-02,1,0.0012475721858027727,0.0013369489200977507,-0.004019208114804561,0.0018990485474204438,0.9935607684827832
2014-12-04,1,0.001181077121125348,0.0012640450433447324,-0.006372568850143017,0.0018990485474204438,0.992832125590182
2014-12-08,1,0.0012196630264968732,0.001285307229505596,-0.010130919286926467,0.0018990485474204438,0.9917520311558196
2014-12-10,1,0.0011642417618364458,0.0012167540003379363,-0.011232075781288205,0.0033379046750619075,0.9905388558205506
2014-12-12,1,0.00115075126857532,0.0012179240047185845,-0.011232075781288205,0.0024052303286203063,0.9909871409116189
2014-12-16,1,0.0009227339896768443,0.0009539579246834716,-0.011232075781288205,0.004856450018661495,0.9898053217464895
2014-12-18,1,0.0009234478131944057,0.000927598802768772,-0.010130919286926467,0.0024052303286203063,0.9910172783365886
2014-12-22,1,0.0005021144631546068,0.0005659584896037912,-0.010130919286926467,0.0024052303286203063,0.9901995726484095
2014-12-24,1,0.0005613397666288521,0.0006005191243450777,-0.010923449682190979,0.0041669864238680805,0.9895837489327141
2014-12-29,1,0.0005428278984395898,0.000582916025861137,-0.010923449682190979,0.0041669864238680805,0.9890800551972592
2014-12-31,1,7.990410599019947e-05,0.00017340744573443915,-0.010923449682190979,0.0041669864238680805,0.9886213305785073
2015-01-05,-1,-0.0003615306111309764,-0.00022685823559304266,-0.00896044635008596,0.007083143461972073,0.989108182774388
2015-01-07,1,0.0002010317632688056,0.0002558359936112367,-0.007848504149142427,0.006770682139624745,0.9900434665501271
2015-01-09,1,0.0001809271891202625,0.00024296373687778455,-0.0076058774660155044,0.005538325177319779,0.9913032997742672
2015-01-13,0,-6.610212924572904e-05,2.1973572374602875e-05,-0.007247719499644711,0.0066918614360599454,0.9915741954577859
2015-01-15,1,0.0001764656228280323,0.0002448630842206967,-0.007247719499644711,0.006553111351099314,0.9906306321340139
2015-01-20,0,-2.830192482360268e-05,7.231773496463279e-05,-0.0076058774660155044,0.006553111351099314,0.9890834852922911
2015-01-22,1,0.0007021281406919331,0.0007111608510326485,-0.0076058774660155044,0.006553111351099314,0.9888869477647005
2015-01-26,1,0.0003367967491921948,0.00039293156023457196,-0.007247719499644711,0.006553111351099314,0.9894827595219843
2015-01-28,1,6.0701728645295034e-05,0.00014120365821518866,-0.006005211806183001,0.006553111351099314,0.989916332189689
2015-01-30,-1,-0.000653188462058494,-0.0004952996983753847,-0.0029181904429396296,0.007050585591922094,0.990607531219048
2015-02-03,-1,-0.0003964288617970908,-0.00025943597396087606,-0.006005211806183001,0.005657899895940495,0.9907136033097733
2015-02-05,-1,-0.0002194033218390507,-9.614561658839022e-05,-0.007273720707096885,0.005637596235840324,0.9900582474918337
2015-02-09,-1,-0.0005541405795273472,-0.00039018809335615687,-0.008483216255483764,0.005637596235840324,0.9896941379602362
2015-02-11,0,-2.2657048354633513e-05,4.4737785588944796e-05,-0.010429194864501525,0.005637596235840324,0.9890707089357936
2015-02-13,-1,-0.0011699428182238144,-0.0009605990117760865,-0.007481228117143924,0.0061450005567527085,0.9904778563995709
2015-02-18,-1,-0.0021871600429659264,-0.0018597091450608945,-0.004674180266348566,0.0061450005567527085,0.9916345353219879
2015-02-20,-1,-0.0015420364524964866,-0.0012782451894625736,-0.005807220418682703,0.0061450005567527085,0.9922045164960295
2015-02-24,-1,-0.0015674186210974895,-0.0012893842378941586,-0.007481228117143924,0.004808222696962521,0.9919073342293114
2015-02-26,-1,-0.001838173647491931,-0.00151600591669274,-0.007481228117143924,0.008944034905715364,0.9913395756446078
2015-03-02,-1,-0.0011595468432926074,-0.0009443996202937817,-0.007481228117143924,0.009176174522695566,0.9889306551293527
2015-03-04,-1,-0.001652772117075543,-0.001386150504885073,-0.007481228117143924,0.009237588797984444,0.9886369535396562
2015-03-06,-1,-0.00213005792661588,-0.001789305694625522,-0.005807220418682703,0.010384559926465494,0.9881528401097086
2015-03-10,-1,-0.002479448529924439,-0.0021004160389755926,-0.005453173936268194,0.010384559926465494,0.9887165586090338
2015-03-12,-1,-0.0023566291398492614,-0.001978232921780362,-0.0029367639930867706,0.008972252676124743,0.9899610660182144
2015-03-16,-1,-0.001526877025211505,-0.0012930070922339448,-0.0029367639930867706,0.006600698212866737,0.9906857976711556
2015-03-18,-1,-0.0015027381776738461,-0.0012631477039710811,-0.005453173936268194,0.006600698212866737,0.9906222262811788
2015-03-20,-1,-0.0011422444335051213,-0.0009462136004690485,-0.005152363599134167,0.006600698212866737,0.9912286947445828
2015-03-24,-1,-0.0014683010811958822,-0.0012382811660368428,-0.0030590117111772832,0.006600698212866737,0.9918349902049604
2015-03-26,-1,-0.0014695075037495422,-0.001223909168671267,-0.0022033971153224293,0.005244135664175269,0.9924133018585031
2015-03-30,1,0.0006163271520575846,0.0006342959395850975,-0.004662488318880039,0.001463287541754339,0.994346022139991
2015-04-01,1,0.0005137717680809787,0.0005157289749446002,-0.005248316426292478,-0.00013327511320539468,0.9941575769479933
2015-04-06,1,0.0014354031783026,0.001564628884467422,-0.005248316426292478,-0.00013327511320539468,0.9938728548417646
2015-04-08,1,0.0010330058150674138,0.0010815942657678083,-0.005248316426292478,0.001463287541754339,0.9939716380317001
2015-04-10,1,0.001135872012222407,0.0012221264199973522,-0.005248316426292478,0.004489151083746574,0.993846791249379
2015-04-14,1,0.0011158414698066725,0.0012083789436708975,-0.004662488318880039,0.0045092901008466,0.9938365240362873
2015-04-16,1,0.0010004734633368283,0.0011066199057702417,-0.0039319391426524295,0.005924142487851158,0.9936112880034101
2015-04-20,1,0.0011459364830917426,0.0012658694138420838,-0.0039319391426524295,0.005924142487851158,0.9934666226341496
2015-04-22,1,0.0009831493267864688,0.001079140981052411,-0.0039319391426524295,0.00862224407814716,0.9933019118521791
2015-04-24,1,0.0013891568565420202,0.0015890467669054545,-0.0039319391426524295,0.00862224407814716,0.9932467129442972
2015-04-28,1,0.0010809402690228182,0.0012529426804628726,-0.003155607478764443,0.00862224407814716,0.9932249088287358
2015-04-30,1,0.00027548385968703063,0.00032497794436269064,-0.0011600813503857823,0.00862224407814716,0.9941255068616336
2015-05-04,1,0.0012924843938748828,0.001502123717440284,-0.002485005149598385,0.006741428437256262,0.9941992247222747
2015-05-06,1,0.001236516299399107,0.0014271923050818511,-0.0026772297301212765,0.006741428437256262,0.9938345272088397
2015-05-08,1,0.001423252485691891,0.0016343548633514526,-0.00425886525682105,0.006876696183102152,0.9930878915805362
2015-05-12,1,0.001489144318873244,0.0016993600482580636,-0.0032038137666092095,0.0068637903651354885,0.9933840427444097
2015-05-14,1,0.0018643550034741214,0.0021276731768956536,-0.002333171706572041,0.006741428437256262,0.9939232323320423
2015-05-18,1,0.002466015349882584,0.002822074026803286,-0.002333171706572041,0.006741428437256262,0.9936884523144618
2015-05-20,1,0.0027461674453137515,0.00313719666171118,-0.002333171706572041,0.006741428437256262,0.9937676868497637
2015-05-22,1,0.002491906292822731,0.002848676413397987,-0.003553987339170442,0.0068637903651354885,0.9888396519069103
2015-05-27,1,0.0020310927937509933,0.0022917524896554236,-0.002333171706572041,0.0073274416581981415,0.9889425861549277
2015-05-29,1,0.0015002647642696533,0.0016432793008520673,-0.0019665824676737844,0.0073274416581981415,0.9888814670394536
2015-06-02,1,0.0012662533624910183,0.001401081306440247,-0.0019665824676737844,0.0073274416581981415,0.9890702799215553
2015-06-04,1,0.0011727271223307832,0.0013106454405348285,-0.001131825525828183,0.007809647211316917,0.9887702981508223
2015-06-08,1,0.0007685651229589495,0.0008291234203917283,-0.00039520783504169536,0.008893579625896264,0.9886457194263097
2015-06-10,1,0.0012110143387653598,0.0013554657133716124,-0.0019665824676737844,0.008893579625896264,0.9880253020793234
2015-06-12,1,0.0011914114401774074,0.0013275440643889598,-0.0019910166393525917,0.008893579625896264,0.9878901189457466
2015-06-16,1,0.0019597319917077217,0.002241615731977372,-0.0025682392368882507,0.007809647211316917,0.9883707856846052
2015-06-18,1,0.002196579586814823,0.00249613932533897,-0.0031922280563705715,0.007138388266111529,0.9883736907055828
2015-06-22,1,0.004712808968268242,0.005318618172266242,-0.003539993040702686,0.006748886545809934,0.9922904533027126
2015-06-24,1,0.004596952228118558,0.005124433940477328,-0.0037259613550366796,0.0036346338942246726,0.9921943266130946
2015-06-26,1,0.004746943000300119,0.005315304897212301,-0.004549635725769839,0.0034544353075306178,0.9914236883929658
2015-06-30,1,0.0045909107584890365,0.005155853097304724,-0.0037259613550366796,0.004288329334585314,0.9922306838871991
2015-07-02,1,0.004880760567359377,0.005461334964004539,-0.004549635725769839,0.004288329334585314,0.9923282963176748
2015-07-07,1,0.005311708248038513,0.005941933226157365,-0.004549635725769839,0.0034544353075306178,0.9924955709398376
2015-07-09,1,0.004011427359505472,0.00438667129542595,-0.0037259613550366796,0.004472068101727504,0.9944544603227243
2015-07-13,1,0.003236661744765899,0.003430031266207544,-0.0037259613550366796,0.004288329334585314,0.9947289615499435
2015-07-15,1,0.0032407304009430624,0.0034794734296945268,-0.0037259613550366796,0.004288329334585314,0.994733314291369
2015-07-17,1,0.003080792284098968,0.0033000298621605065,-0.004115962189102781,0.004472068101727504,0.994007597761165
2015-07-21,1,0.0025187531966629844,0.002653040684374282,-0.004115962189102781,0.004472068101727504,0.9941107934585616
2015-07-23,1,0.002497297375795551,0.002642616787040097,-0.00627626309110078,0.004472068101727504,0.9932134817218586
2015-07-27,1,0.0017537846427657352,0.0017590516919203797,-0.0065478139816562645,0.004472068101727504,0.9910719358715786
2015-07-29,1,0.0016787290900478588,0.0016963236085675115,-0.007322896016844778,0.004231096225511358,0.9884805871721403
2015-07-31,1,0.0011219079588218241,0.0012271454086074279,-0.0065478139816562645,0.0029748054849628915,0.989106503028686
2015-08-04,1,0.0010773363204490693,0.0011842533698830863,-0.008441397017840005,0.0029748054849628915,0.9880973253738916
2015-08-06,1,0.0015208018195542118,0.0015672363828764077,-0.008441397017840005,0.0029748054849628915,0.9877798175739858
2015-08-10,1,0.0012934888196692474,0.0013651028591303834,-0.012064976335341818,0.0033810348744087726,0.9870667106399981
2015-08-12,1,0.0010392507573197625,0.0011316096118845866,-0.013422202082141857,0.0033810348744087726,0.9868074803828076
2015-08-14,1,0.0010169360918729727,0.001135749874064445,-0.013422202082141857,0.0033810348744087726,0.9869814056215716
2015-08-18,1,0.000505021437113837,0.0006837713576998303,-0.013422202082141857,0.012421898107324126,0.986430202127654
2015-08-20,1,0.0007839554923347447,0.00083134511013243,-0.01295184846637078,0.012421898107324126,0.9864610773117569
2015-08-24,-1,-0.0011137112805539157,-0.0008421604036195485,-0.011908191796751458,0.012421898107324126,0.9856219860386554
2015-08-26,-1,-0.00039279798220503233,-0.00024561224594799844,-0.008875777742804083,0.012421898107324126,0.9866291320389422
2015-08-28,-1,-0.0006277886779465383,-0.0004391922105736474,-0.011908191796751458,0.012421898107324126,0.9850897447083983
2015-09-01,-1,-0.001437836258797373,-0.0011492312978941114,-0.00961615132516826,0.012421898107324126,0.9848823058591946
2015-09-03,-1,-0.0008751934749387714,-0.000647747811491077,-0.00961615132516826,0.012421898107324126,0.984443911704502
2015-09-08,-1,-0.0011928445570844846,-0.0009053231744020391,-0.009335720473956076,0.012593092037640889,0.9844279608555578
2015-09-10,-1,-0.0016445192827902139,-0.0013112336904659567,-0.009335720473956076,0.012645148848983202,0.9829546116799638
2015-09-14,-1,-0.0016714636899951315,-0.0013253474261086412,-0.009335720473956076,0.012601500303724918,0.9834784935289569
2015-09-16,-1,-0.0008630422633648502,-0.0006078412078646805,-0.012450046195411159,0.0112085892975597,0.983687227130764
2015-09-18,-1,-0.0015001933306586603,-0.0011427760450953477,-0.011119244360007946,0.011592465430182454,0.9832481428272798
2015-09-22,-1,-0.00433929573334583,-0.00361022933431054,-0.011093251126855823,0.011592465430182454,0.9857951212996213
2015-09-24,-1,-0.002463841734156439,-0.0019945646811164435,-0.011093251126855823,0.011592465430182454,0.9866795319064529
2015-09-28,-1,-0.003139662651867907,-0.0025867880923214942,-0.011093251126855823,0.011592465430182454,0.9870033844961487
2015-09-30,-1,-0.0029810161263672226,-0.0024575571235048938,-0.012529101846633897,0.010573195501602276,0.9871080963739371
2015-10-02,-1,-0.0018727634068316597,-0.0014832289432018992,-0.012529101846633897,0.007206338233248531,0.9885182690036571
2015-10-06,-1,-0.0017869795360858835,-0.0014154052644055125,-0.012529101846633897,0.007206338233248531,0.9889955025025966
2015-10-08,-1,-0.0016604627003048206,-0.0013264402495964647,-0.005889952967513975,0.006498224699152813,0.99060390547132
2015-10-12,-1,-0.001333356645552214,-0.001050804986177808,-0.012529101846633897,0.006999567023175446,0.9896395772009718
2015-10-14,-1,-0.0025358584534319016,-0.0021079120038450367,-0.004665292232659402,0.006999567023175446,0.9905983195419628
2015-10-16,-1,-0.0018993867109950162,-0.0015352859905141416,-0.010203039178118156,0.005662910222077748,0.9896906627205833
2015-10-20,-1,-0.0025787778709238417,-0.0021274936964153905,-0.009654573194127353,0.005995406559105696,0.988583336274242
2015-10-22,-1,-0.0017836573784442273,-0.0014025925612183231,-0.009654573194127353,0.005995406559105696,0.9879981282927361
2015-10-26,-1,-0.002883421799288929,-0.0023592372940354307,-0.007097820389276397,0.007041469368494181,0.9882092623148162
2015-10-28,-1,-0.003877921294240482,-0.003226243548859047,-0.006141641283521037,0.007041469368494181,0.9887061351557731
2015-10-30,-1,-0.0036761629359236773,-0.0030607803220550163,-0.007097820389276397,0.006607574965138093,0.9883304295803882
2015-11-03,-1,-0.00335826995619206,-0.0027811372854159274,-0.007097820389276397,0.004577765634920894,0.9890069560147836
2015-11-05,-1,-0.0029172409599430684,-0.0024110940479799368,-0.009654573194127353,0.006985802785183728,0.98730356410957
2015-11-09,-1,-0.0026109603140391435,-0.0021628520368269038,-0.009284952003308358,0.002121461777526739,0.9882638140153336
2015-11-11,-1,-0.0011262208915011646,-0.0010061845319916886,-0.009284952003308358,0.002121461777526739,0.9882277294750017
2015-11-13,-1,-0.0024617513319255763,-0.002220873880138124,-0.006870685154865025,0.002121461777526739,0.9893785431371926
2015-11-17,-1,-0.0017931539535067165,-0.001639431308577922,-0.00538385371100018,0.005151229167597965,0.9890503925407526
2015-11-19,-1,-0.00025845037562398197,-0.00024051840613955813,-0.00538385371100018,0.001082004321971156,0.9909115116872251
2015-11-23,1,0.0005149476001967451,0.0006745445500316515,-0.004412719319849033,0.0031192617956702904,0.9908827818605666
2015-11-25,1,0.0009547766316974802,0.0012166378588530232,-0.005572268144827339,0.008572125471176738,0.989376265140335
2015-11-30,1,0.00013049453009321166,0.0002451781260152847,-0.004412719319849033,0.008572125471176738,0.9898472382643451
2015-12-02,1,0.00019046393255026475,0.0003248896156787585,-0.005572268144827339,0.008572125471176738,0.9893664639802979
2015-12-04,1,0.00044986201315348566,0.0006090186462985559,-0.005572268144827339,0.007877552083523568,0.9909514372007608
2015-12-08,1,6.270404320588382e-05,0.00017415678086820356,-0.0048340996726567685,0.007877552083523568,0.9897895661932318
2015-12-10,-1,-0.00021217867900045532,-0.00015417689761647158,-0.007407874380357063,0.007877552083523568,0.9893750025045142
2015-12-14,-1,-0.0009726530481666128,-0.0009375616417837754,-0.007407874380357063,0.008572125471176738,0.9885169960818485
2015-12-16,1,0.00016912223665351407,0.0002624393071727672,-0.009365788026046021,0.008305048332671684,0.9886799299552752
2015-12-18,1,0.00029447301463413745,0.00043148919231413,-0.009365788026046021,0.008305048332671684,0.9885276157906724
2015-12-22,1,0.0009605460437055836,0.001184217278897988,-0.009365788026046021,0.008951634767966265,0.987604443928166
2015-12-24,1,0.0015279334957269677,0.001830508234825708,-0.01124872950239226,0.00852819718352789,0.9871425912775247
2015-12-29,1,0.0022487129034063314,0.0026804242071364615,-0.01124872950239226,0.011170647206484285,0.9863914325316687
2015-12-31,1,0.001920104992817569,0.002311137252772298,-0.010518175159284045,0.012492873565667542,0.9852239852215275
2016-01-05,1,0.0014376598074568015,0.0017540493825936405,-0.013024562866114099,0.012492873565667542,0.9845202842816562
2016-01-07,1,0.0008367777282165024,0.001099774187993537,-0.018173868049138134,0.012492873565667542,0.9841839615613244
2016-01-11,1,0.0006581014935731629,0.0008854023168766626,-0.018173868049138134,0.01303942563364838,0.9838225333078291
2016-01-13,0,-7.286697572837439e-05,2.401505898357763e-05,-0.008947468787438104,0.013754459526320834,0.9850542032894719
2016-01-15,-1,-0.0014854369014850794,-0.0013155708621244242,-0.004930317305778541,0.014300592988795612,0.9848196128803249
2016-01-20,-1,-0.0015753396363120391,-0.0014098580158546645,-0.0046881302646554135,0.014300592988795612,0.9849228386711544
2016-01-22,-1,-0.00017984200891835292,-0.0001764269512256466,-0.0046881302646554135,0.011460905443243234,0.9869854119154775
2016-01-26,-1,-0.0012176637063476855,-0.0010599157250854386,-0.0022695220380931705,0.009524412107026977,0.9885204162062693
2016-01-28,-1,-0.00021315289027057106,-0.00020854646314872919,-0.0029070191714351164,0.009101505910071386,0.9889293605706717
2016-02-01,1,0.0012681125804633409,0.0014597447149471304,-0.0029070191714351164,0.006707965678365949,0.9910354336324042
2016-02-03,1,0.00036607065639381064,0.0004103793921799875,-0.0007754130237234236,0.008462856122377948,0.9917382873641288
2016-02-05,-1,-0.0010034191627947581,-0.0008914178493873756,6.013270279435609e-05,0.008462856122377948,0.9924440099899242
2016-02-09,-1,-0.00012723809194421415,-8.353355760355846e-05,6.013270279435609e-05,0.008462856122377948,0.9933182031198008
2016-02-11,1,0.00026007092323607466,0.00034538604414717316,6.013270279435609e-05,0.008437903121404956,0.9935350206615304
2016-02-16,1,0.0002664924446756931,0.0003050695474216569,-0.0007065931661302174,0.007412580644894295,0.9948652171647938
2016-02-18,1,0.0009102427678389818,0.0010315325402427496,-0.0015634201643537965,0.007412580644894295,0.9946965613778953
2016-02-22,1,0.0007497198869696748,0.0008197241731228411,-0.0031011210422200544,0.007412580644894295,0.9940565114494984
2016-02-24,1,0.000795417579797273,0.000873616985905669,-0.004220871670899873,0.007942281660196799,0.993465278632087
2016-02-26,1,0.0013410186591447252,0.0015500326553416768,-0.0031011210422200544,0.007942281660196799,0.9936261580212701
2016-03-01,1,0.0016727202021107972,0.0019288920718289475,-0.0031011210422200544,0.007942281660196799,0.9936660184272667
2016-03-03,1,0.001959277561657893,0.002245826480093259,-0.004220871670899873,0.009112278238105228,0.9925863812987162
2016-03-07,1,0.0018626812666058573,0.0021468761978123323,-0.004843436865897206,0.009112278238105228,0.9924190174610864
2016-03-09,1,0.0016050762889562179,0.001795734630800256,-0.004843436865897206,0.009112278238105228,0.9920603930654869
2016-03-11,1,0.0023554677141965938,0.002686375823607574,-0.0058610417064207795,0.007809597145248892,0.9919825565374445
2016-03-15,1,0.0022180703262762416,0.0025009512049045586,-0.0071205518710356136,0.009331540965965834,0.9911301086669432
2016-03-17,1,0.0023635121006098164,0.0027216648247207673,-0.007418263678163997,0.009667610785774168,0.9909102953285807
2016-03-21,1,0.001541409736006911,0.001745235772186121,-0.007418263678163997,0.009667610785774168,0.9910512722776194
2016-03-23,1,0.0012429826002414508,0.001364615307930433,-0.007707963368220667,0.009667610785774168,0.990534427062244
2016-03-28,1,0.00187319086477768,0.0020794749036113433,-0.007707963368220667,0.007921620418518335,0.9913018997421291
2016-03-30,1,0.002401744568398614,0.0026924586749062502,-0.007707963368220667,0.006593674994296066,0.9914815069745909
2016-04-01,1,0.0029680813030780037,0.0033431736267266945,-0.007707963368220667,0.0037630353689649663,0.9922439613394568
2016-04-05,1,0.002422651553910654,0.0027248422600426553,-0.008352804998206207,0.006593674994296066,0.9924688953381035
2016-04-07,1,0.0028050255717033167,0.0031349968313755163,-0.008352804998206207,0.0037630353689649663,0.9927375053579037
2016-04-11,1,0.0015869219714871538,0.0016616591210760802,-0.005146686291894956,0.006616069405871123,0.992936150133017
2016-04-13,1,0.001662066758479089,0.001765594304608632,-0.005146686291894956,0.006616069405871123,0.9930039405204429
2016-04-15,1,0.0021531516348438666,0.002395356997802433,-0.005146686291894956,0.006616069405871123,0.9927954877323977
2016-04-19,1,0.0020335219727155244,0.0022766869107255037,-0.005926554265631989,0.006616069405871123,0.9918861849863914
2016-04-21,1,0.0014533177828395189,0.0016171873964695087,-0.0040008827812407464,0.006616069405871123,0.992876630667439
2016-04-25,1,0.0012034532873573232,0.001302367332632855,-0.005075881062195903,0.006616069405871123,0.9925043439473139
2016-04-27,1,0.0012863061477508373,0.0013874734343342359,-0.005075881062195903,0.0061362445444487915,0.9924548282244183
2016-04-29,1,0.0011175330724817775,0.0012085661642182452,-0.004843207769925837,0.008260389900185131,0.9919564842805804
2016-05-03,1,0.0006491611632123533,0.0006510668741958705,-0.003621135734190597,0.009327329547717533,0.9924189506206978
2016-05-05,1,0.000816576418755439,0.0008263432787537581,-0.003621135734190597,0.00941539003883662,0.992180645393813
2016-05-09,1,0.0007783653741248509,0.0008191488186983688,-0.004071292368708102,0.008094709254018239,0.9923865164311028
2016-05-11,1,0.00138342094995093,0.0014779274994602743,-0.003621135734190597,0.008024499072706357,0.9932623840330186
2016-05-13,1,0.0012179961564987886,0.0012769048456707458,-0.004002948934414965,0.0073033019863521795,0.9936372478113393
2016-05-17,1,0.0006748739951732243,0.0006943073021277871,-0.002971446699320555,0.0073033019863521795,0.9947076321029306
2016-05-19,1,0.0008983423848633311,0.0009757604557953476,-0.0035437771286492147,0.008024499072706357,0.994054245858173
2016-05-23,1,0.0008092884850974588,0.0008966758625315492,-0.002971446699320555,0.008246565165901956,0.994016024824883
2016-05-25,1,0.0008059521111460095,0.0008692044594142029,-0.002971446699320555,0.008842110567107278,0.9937475686047496
2016-05-27,1,0.0008605495381755996,0.0009051771192223481,-0.002994817854765882,0.008246565165901956,0.9936617096372728
2016-06-01,1,0.0005616109316780917,0.0006059743498407861,-0.002994817854765882,0.008246565165901956,0.9934646931185721
2016-06-03,1,0.0009073530432696996,0.0009222572176691881,-0.002994817854765882,0.008246565165901956,0.9935699385613
2016-06-07,1,0.0005377029122455709,0.0006204793789828535,-0.0037708731177908184,0.008246565165901956,0.9931773709242292
2016-06-09,1,0.0005049926695134877,0.0006270064445161722,-0.0037708731177908184,0.008707529593705788,0.992885727996011
2016-06-13,-1,-0.0003574743647941379,-0.00011437253585585086,-0.0036938398281369314,0.008707529593705788,0.9929403823965217
2016-06-15,1,0.00026577336444310093,0.00038369898182624837,-0.0036938398281369314,0.009883579004525559,0.9927189824797074
2016-06-17,0,-2.1179544305202332e-05,0.00017034197604679445,-0.0028545715830460543,0.008463469896210732,0.9932717243907833
2016-06-21,1,0.0005267681497905954,0.0006284555382399949,-0.00512263433908897,0.006041480706331395,0.9931585940616838
2016-06-23,1,0.001587504886369117,0.0016891482757863193,-0.006252624844692037,0.005333728694481886,0.9928538172053581
2016-06-27,1,0.0004160570281904819,0.0005049915102145186,-0.006252624844692037,0.005333728694481886,0.9931852446758269
2016-06-29,0,-0.00019726833550854478,4.1169186777903445e-05,-0.007207673927819454,0.005333728694481886,0.9927705045233463
2016-07-01,1,0.0003295953805976942,0.0004952840508981504,-0.007207673927819454,0.005333728694481886,0.9929703632463207
2016-07-06,-1,-0.00023625829689006422,-1.672643893918448e-05,-0.006252624844692037,0.005333728694481886,0.9935605448277074
2016-07-08,1,0.0010774012201715548,0.0010946260516315157,-0.007207673927819454,0.003475596817499093,0.9934018613585256
2016-07-12,1,0.00041893535170399134,0.0005183443330843246,-0.006252624844692037,0.004911321294246469,0.9938584455377597
2016-07-14,1,0.0006367829728551658,0.0007095769999501841,-0.006549147359299338,0.003475596817499093,0.9937737505847338
2016-07-18,1,0.0004678063889534196,0.0005619176151551889,-0.006557429109749801,0.004911321294246469,0.9932433566116137
2016-07-20,0,-0.0001314893678647449,2.8966433799755347e-05,-0.0071491391179051775,0.006941838635282922,0.9929378145814165
2016-07-22,0,-0.00013822788636422354,1.0486729670334117e-05,-0.00643225762538537,0.007391732634827233,0.9930478935701929
2016-07-26,-1,-0.0004957323545388147,-0.00032701931163254833,-0.00643225762538537,0.007391732634827233,0.9928715512197244
2016-07-28,-1,-0.0009149456716868375,-0.0006831150344439234,-0.005004647813636616,0.005044648669896923,0.9938863821216898
2016-08-01,-1,-0.0003924273241669629,-0.0002355026853467917,-0.005004647813636616,0.005044648669896923,0.9938452360579108
2016-08-03,-1,-0.0001429925420751661,-3.757118122367124e-05,-0.0054725434502748745,0.006368165678584553,0.9936339847667581
2016-08-05,-1,-0.0006234286962293862,-0.0004701717116459406,-0.0054725434502748745,0.00783571727789316,0.9930128381212235
2016-08-09,-1,-0.0006273240602830063,-0.00045361420778821775,-0.00643225762538537,0.006862062194243428,0.9926545631594352
2016-08-11,-1,-0.0014441066651630962,-0.0011475967294780729,-0.010849243089130226,0.006862062194243428,0.9905302292938803
2016-08-15,-1,-0.001301439332130406,-0.0010293371846581446,-0.010998901831242192,0.007316564488018704,0.98948219774253
2016-08-17,-1,-0.0008363303933821106,-0.0006567869857048591,-0.010998901831242192,0.0032684395453391364,0.990192106460757
2016-08-19,0,-3.0500549335142434e-05,2.9173791966471122e-05,-0.010998901831242192,0.0002615259753189474,0.990093245769723
2016-08-23,-1,-0.00023640621153266152,-0.00018479599093457284,-0.01082193998231341,0.0011865841215507828,0.9899426786089381
2016-08-25,-1,-0.0007588474433494693,-0.0006176472860665268,-0.01082193998231341,0.006498026670992694,0.9899111028927267
2016-08-29,1,0.00014692692015949734,0.0001530664869210508,-0.011608189478661627,0.004995980419400975,0.9893188618548069
2016-08-31,0,-2.558683880556916e-05,5.027295784739601e-06,-0.011608189478661627,0.005450393106359026,0.9862848843329299
2016-09-02,1,4.989376047147918e-06,2.6415249732402215e-05,-0.01082193998231341,0.008124766622135413,0.9862060411733548
2016-09-07,-1,-0.0005804074415671521,-0.0004876691029515721,-0.00968584903634749,0.008124766622135413,0.9868480728918817
2016-09-09,-1,-0.0024367525431732546,-0.0021165150174642954,-0.0064057307550651555,0.008124766622135413,0.9893232974560224
2016-09-13,-1,-0.0022408416348679164,-0.0019173151896971067,-0.0064057307550651555,0.008124766622135413,0.9901622909619886
2016-09-15,-1,-0.002422898764571104,-0.0020816905626018386,-0.006554784215760465,0.008124766622135413,0.9897349858821335
2016-09-19,-1,-0.002527668701061344,-0.002186944883535504,-0.006204193550861909,0.009622587556025863,0.9892718664818186
2016-09-21,-1,-0.0025815662530390576,-0.002225311624473252,-0.006204193550861909,0.009622587556025863,0.9890197043806497
2016-09-23,-1,-0.002465919455743186,-0.002115914950435097,-0.006554784215760465,0.011308106359842064,0.9886984750152017
2016-09-27,-1,-0.002456730583427124,-0.002126105995626724,-0.006431280306088885,0.011308106359842064,0.9890088827758986
2016-09-29,1,2.522349206900458e-05,3.931205864682357e-05,-0.006788884099355464,0.009477111894213174,0.9919059374685465
2016-10-03,1,0.0008028329369465099,0.0008942893406917646,-0.006788884099355464,0.006622095187562868,0.9924738498103097
2016-10-05,1,0.0005795646221171838,0.0006424097328105245,-0.006932155592716012,0.006622095187562868,0.9922926555364368
2016-10-07,-1,-7.76321996832046e-05,-1.7454415061099693e-05,-0.009070485582085605,0.006622095187562868,0.9915139380398059
2016-10-11,0,-1.635143871511993e-05,3.6540895776681156e-05,-0.008538080072451243,0.011597084427699189,0.990286969115854
2016-10-13,-1,-0.00025139074075950245,-0.00016039052049883278,-0.011170567982016452,0.011597084427699189,0.9861805272871846
2016-10-17,1,0.00021298482534064163,0.00024880248895103337,-0.011170567982016452,0.012993919197350703,0.9852068120518058
2016-10-19,1,0.0006168344454657218,0.0006497357701550032,-0.011170567982016452,0.012647238011658863,0.9856753898657131
2016-10-21,1,0.0008204120094194039,0.0008944300438074014,-0.011170567982016452,0.012647238011658863,0.9860312675948406
2016-10-25,1,0.0009595211038331455,0.0010825315981682943,-0.011170567982016452,0.012993919197350703,0.985674191375157
2016-10-27,1,0.0007408521790221018,0.0008395729723399685,-0.010351143136973356,0.013397968162661276,0.9851998135147105
2016-10-31,1,0.0013343852550857464,0.0015295300961097591,-0.010351143136973356,0.013117547420735046,0.9858997817594889
2016-11-02,1,0.0007465063377178572,0.000836551815511153,-0.010351143136973356,0.013117547420735046,0.9846610139178877
2016-11-04,1,5.407764788780374e-05,5.518501767052008e-05,-0.002493444478318016,0.013117547420735046,0.9846803487202183
2016-11-08,1,0.0015136682868132148,0.0017192576144714608,-0.002493444478318016,0.012584962318796928,0.9867328598391903
2016-11-10,-1,-0.001290208573104978,-0.0011646676829677532,0.0008634570945985086,0.012930720342149246,0.9890179915921623
2016-11-14,1,6.021531766566498e-05,0.00011644606483433379,-0.00172212579810354,0.011777907009153155,0.9908194312029833
2016-11-16,1,0.00041985662706284894,0.0004872763950941556,-0.0035425226733175256,0.01180003385130781,0.9902583648550697
2016-11-18,1,0.001099914458104779,0.0012830194295139592,-0.0035425226733175256,0.01180003385130781,0.9909414225780355
2016-11-22,1,0.0019974347851191556,0.002330237305269213,-0.005577208600849256,0.00816509492709758,0.9911618523842098
2016-11-25,1,0.0017978023386803535,0.0020682375971111744,-0.003901124343713506,0.011691407423852855,0.99031417462326
2016-11-29,1,0.0020712968962842805,0.0024089788476290876,-0.005577208600849256,0.011691407423852855,0.9900225741462529
2016-12-01,1,0.0008375936063211586,0.0009894011655223122,-0.003901124343713506,0.011691407423852855,0.9910920046577113
2016-12-05,1,0.0015429582456093827,0.0018030172641298986,-0.0055236273005917404,0.007606520706707718,0.9908824341739895
2016-12-07,1,0.0020553032958026546,0.0023811703817813194,-0.0055236273005917404,0.005499720741271108,0.9908478210258677
2016-12-09,1,0.0023489326945420764,0.002687858401504723,-0.005840392859173181,0.004839400647856243,0.9910674013090289
2016-12-13,1,0.002209227518079009,0.0025225535028228184,-0.005840392859173181,0.005499720741271108,0.9909990804265219
2016-12-15,1,0.001930390256867241,0.002178407805717515,-0.005489075133885135,0.003275018619376841,0.9927098117098371
2016-12-19,1,0.001721259726760781,0.0019294795002815944,-0.005489075133885135,0.0034641918258388566,0.9928556772882214
2016-12-21,1,0.0015460041733715139,0.0017488068457279012,-0.005489075133885135,0.005499720741271108,0.9926543857045045
2016-12-23,1,0.002876571004087904,0.0032532929002365343,-0.005489075133885135,0.0034641918258388566,0.9939672351438062
2016-12-28,1,0.002377714819805905,0.002659955101289479,-0.005489075133885135,0.0034641918258388566,0.9941763536193208
2016-12-30,1,0.0024191463085982945,0.0027169561220388846,-0.0042744703625533275,0.0026598454056244785,0.9946084948557194
2017-01-04,1,0.001793744243352255,0.0019848759211432763,-0.0038535346265276636,0.0026598454056244785,0.9953673566652386
2017-01-06,1,0.0014871743101032985,0.0016398848839472057,-0.0036263281696129294,0.002964982918401113,0.9957256314454157
2017-01-10,1,0.001071614813696197,0.0011676874839152904,-0.001422249500696784,0.004410716600260794,0.9960584288912917
2017-01-12,1,0.0013998175320300782,0.0015618078323089962,-0.0005730864342644406,0.003813092366623469,0.9964239645385896
2017-01-17,1,0.0011743513489722536,0.0012770661388402304,-0.0010831647884965397,0.003813092366623469,0.9963374501822642
2017-01-19,1,0.0010951340393309293,0.001177007347700309,-0.0008813908651092947,0.004155735835379113,0.9963159042268332
2017-01-23,1,0.0013367260644059462,0.0014672868085605479,-0.0008813908651092947,0.004155735835379113,0.9960465834790905
2017-01-25,1,0.0015276293666575593,0.0016814706505060882,-0.0008813908651092947,0.004155735835379113,0.9961130441504944
2017-01-27,1,0.001284930684164255,0.0014046025671569386,-0.0008813908651092947,0.005726592373698029,0.9954123611267262
2017-01-31,1,0.0009942436039116244,0.001040513648106253,-0.0008813908651092947,0.0071499174458134855,0.9950372706839827
2017-02-02,0,-8.776860614410377e-05,9.045066814640545e-05,-0.0008813908651092947,0.005726592373698029,0.9952812520876355
2017-02-06,1,5.891243729990586e-05,0.00019927449867633367,-0.0008813908651092947,0.005726592373698029,0.9949117590000199
2017-02-08,0,-9.634858432646049e-06,0.00015588920207595193,-0.0023553632972370753,0.005597799102134947,0.9944759658429548
2017-02-10,0,-0.0001339226179728726,6.86798085736633e-05,-0.0023553632972370753,0.006578763816725982,0.9943173997837882
2017-02-14,-1,-0.00034308116708204727,-0.00011512789133888814,-0.0010370548968977153,0.006578763816725982,0.9937916649482625
2017-02-16,-1,-0.0002767178716909472,-6.109095107094625e-05,-0.0019341897524927426,0.006578763816725982,0.9939464698884181
2017-02-21,-1,-0.0003841402387656939,-0.00013547194708011482,-0.0019341897524927426,0.006340880929536594,0.9943472471059268
2017-02-23,1,0.001187841974190368,0.0012205969763158637,-0.004187858686824523,0.005598579789102729,0.9940066027483418
2017-02-27,1,0.0019073497390957712,0.0020869427987339857,-0.004447898067769936,0.0035713511934432115,0.994575897470141
2017-03-01,1,0.001897989063003683,0.0020550184327068266,-0.004447898067769936,0.0035713511934432115,0.9945498703396075
2017-03-03,1,0.0015963172380754488,0.0016939238446382788,-0.007609297301458045,0.0035713511934432115,0.9943533965833737
2017-03-07,1,0.001198785746362304,0.0012455698742947115,-0.004316289775366583,0.0035713511934432115,0.994810696995345
2017-03-09,1,0.0009244536234987604,0.0009264378615701357,-0.003214051960529437,0.0033493826154960536,0.995442971417856
2017-03-13,1,0.0014373488227130138,0.0015273712163366236,-0.003214051960529437,0.002228623102857456,0.9958026447864009
2017-03-15,1,0.0018802363696904577,0.0020401084666743087,-0.003214051960529437,0.0019768477763372825,0.99582634711406
2017-03-17,1,0.0017288908548877028,0.0018720104932047742,-0.004262682363006591,0.002225845781148852,0.9956365882340676
2017-03-21,1,0.0010219643417414047,0.0010597809044686094,-0.004262682363006591,0.002965713911455904,0.9958014405164752
2017-03-23,1,0.00033701042665071584,0.00040263309159054017,-0.0020994893237320914,0.0030985861851401007,0.9960213536306355
2017-03-27,1,0.0003711259864875526,0.0004060340857657316,-0.0020994893237320914,0.0037230035411712067,0.994293916011096
2017-03-29,1,0.0004204665876970841,0.00047076621457879414,-0.005691485844519829,0.0030902542200142878,0.9941172363924223
2017-03-31,-1,-0.00044125619022088343,-0.0002456655451891208,-0.005691485844519829,0.0030902542200142878,0.9939766566924112
2017-04-04,1,0.0003621744026016517,0.0003884026308041349,-0.007439113196434784,0.0030902542200142878,0.9933241502030247
2017-04-06,-1,-0.0016331288058479179,-0.0012056855426343716,-0.007439113196434784,0.002222544712536765,0.9939850263183836
2017-04-10,-1,-0.0009519942188240693,-0.0006646183712996592,-0.007734044472563878,0.0015365083129111035,0.9935132024110679
2017-04-12,-1,-0.0005894979155867693,-0.00037758743939257384,-0.007734044472563878,0.001663825943178092,0.9930290029831067
2017-04-17,-1,-0.0005381500380808087,-0.0003542536420137058,-0.007734044472563878,0.0022779979869962013,0.9929846257843071
2017-04-19,-1,-0.00020214624639221826,-8.734508445114265e-05,-0.007582285577441578,0.0011284813618189925,0.9931821235762928
2017-04-21,0,-4.6849631669037075e-05,4.488389445614344e-05,-0.007582285577441578,0.0011289037569213567,0.9933526754883657
2017-04-25,-1,-0.0013017711148168533,-0.0010607877021350035,-0.0056945069585057195,0.0013968548093596844,0.9949888673478344
2017-04-27,-1,-0.0025576757044555613,-0.0021108161439199755,-0.003445748070442793,0.0049429121806488716,0.9946185989709686
2017-05-01,-1,-0.002690923457376093,-0.00225939769344328,-0.003445748070442793,0.005873456158093818,0.9942291277014271
2017-05-03,-1,-0.0028729542336936136,-0.002448195607442127,-0.0017878742531752534,0.007527149148311791,0.9924358090753264
2017-05-05,-1,-0.0021342341746035296,-0.0018347715246392142,-0.002519917914860505,0.007527149148311791,0.9922648687123811
2017-05-09,-1,-0.002502295990647697,-0.0021592363328498594,-0.001331573612440413,0.007527149148311791,0.9920695954419334
2017-05-11,-1,-0.00223781075384208,-0.0019284535725151975,-0.007577102725331559,0.005873456158093818,0.9921111006236546
2017-05-15,-1,-0.001961111576888819,-0.0016823486837563913,-0.007577102725331559,0.005865946969342702,0.9923938834019328
2017-05-17,-1,-0.0023579072825253714,-0.0020180969676177885,-0.003189853566832694,0.00724261962226336,0.9921208121429992
2017-05-19,-1,-0.0013998765340824402,-0.0012402883482728567,-0.00883447201247506,0.00724261962226336,0.990664216992816
2017-05-23,-1,-0.0009575299364940674,-0.0008422860781249564,-0.00883447201247506,0.00572294759224042,0.9912261208291139
2017-05-25,-1,-0.0005576032607522245,-0.0004902580154816367,-0.008964701988167971,0.005141239790182384,0.9908975230831064
2017-05-30,-1,-0.00096589557037412,-0.0008349079528913294,-0.008964701988167971,0.00545462823446995,0.9904362902928902
2017-06-01,0,-1.735603541275232e-05,1.4925969305691156e-05,-0.009981281577050312,0.00545462823446995,0.9899455373687533
2017-06-05,-1,-0.0003888987349770333,-0.0002929810705666608,-0.00993470437932336,0.004496717616672411,0.9899983657835416
2017-06-07,-1,-0.00061820198876272,-0.0005013215283004944,-0.015898564167341766,0.004496717616672411,0.9886339839175091
2017-06-09,-1,-0.0011565915501241964,-0.0009796929777029137,-0.016780870970263144,0.004496717616672411,0.9883507144974482
2017-06-13,-1,-0.0009366441650338802,-0.0007884456785530922,-0.016780870970263144,0.004496717616672411,0.9880131136209906
2017-06-15,-1,-0.000605388382059204,-0.0005038518795117387,-0.016780870970263144,0.0038794668357310003,0.987959839201619
2017-06-19,-1,-0.001883695483180446,-0.0016470335067124379,-0.015898564167341766,0.0038794668357310003,0.9901869639895609
2017-06-21,-1,-0.0018331289377495055,-0.0015940476197188191,-0.015898564167341766,0.0038794668357310003,0.989691975410424
2017-06-23,-1,-0.002135355086202171,-0.00186631958536118,-0.010806887968020071,0.003937440075117355,0.9904228173010204
2017-06-27,-1,-0.0022201725322819384,-0.001948560712292994,-0.009067048195906875,0.003937440075117355,0.9909031761621933
2017-06-29,-1,-0.0030368882714983756,-0.0026711705952455174,-0.007670304292762573,0.003937440075117355,0.9923770239085802
2017-07-03,-1,-0.0033227815482499605,-0.002938619283324835,-0.006678974118667692,0.003937440075117355,0.9923110559405288
2017-07-06,-1,-0.004385627238740289,-0.0038946731328398177,-0.00478795645797433,0.005489106513021272,0.9925419917577591
2017-07-10,-1,-0.0051571863329396275,-0.004579641674866552,-0.0035964188748635363,0.006537137227098271,0.9922558405154648
2017-07-12,-1,-0.004745116677132649,-0.004227294338745538,-0.0030340822591767196,0.005656034613579481,0.9924111549546627
2017-07-14,-1,-0.0042174603539879875,-0.003777925048184104,-0.0035964188748635363,0.006751328574142547,0.9918512817050638
2017-07-18,-1,-0.004244207329838208,-0.0038216410216009066,-0.0030161825591956985,0.006751328574142547,0.9913540702578731
2017-07-20,-1,-0.0033710303886197936,-0.0030729079324028534,-0.004800615674139288,0.006106446975558837,0.991836139768174
2017-07-24,-1,-0.0028936289809340893,-0.0026703078487938557,-0.008015344201513981,0.006106446975558837,0.9919803216755864
2017-07-26,-1,-0.0027250452859485224,-0.0025251505609710113,-0.00771722483099386,0.005656034613579481,0.9925287442079332
2017-07-28,-1,-0.002307917425679721,-0.002146782767293874,-0.00870139711420893,0.003590262679716287,0.9922081404112038
2017-08-01,-1,-0.002649288485569079,-0.002447187388521584,-0.00870139711420893,0.003590262679716287,0.9919514650702133
2017-08-03,-1,-0.001727338766946992,-0.0016575896557597673,-0.00881317016653796,0.0033375295251634827,0.991940095980818
2017-08-07,-1,-0.001408672231825996,-0.0014009275372053162,-0.008440535427798485,0.006106446975558837,0.990671084594253
2017-08-09,-1,-0.0010887994772849179,-0.0010463257545713452,-0.008440535427798485,0.007547320119798317,0.9900363703316515
2017-08-11,-1,-0.0007796606825296851,-0.0007224121930509515,-0.00771722483099386,0.006969141193080679,0.9910102549237246
2017-08-15,-1,-0.0007321010138980273,-0.0006838093419332117,-0.00771722483099386,0.006969141193080679,0.9909997836986101
2017-08-17,-1,-0.0008476324940370147,-0.0008190261974003047,-0.007270925873739797,0.007824555738311841,0.9907937563693525
2017-08-21,-1,-0.0007099596502883197,-0.0006370266395577312,-0.007499610177971447,0.007824555738311841,0.9901424387234131
2017-08-23,-1,-0.0009354909163443342,-0.0008953998424580788,-0.008369588714730376,0.007824555738311841,0.9895599781418825
2017-08-25,-1,-0.0018995681184781346,-0.0018243096847504981,-0.008136341488911411,0.009582589977798674,0.9901699451577134
2017-08-29,-1,-0.00231406931699318,-0.0022095921762104826,-0.0074185143944976596,0.009582589977798674,0.9908845474120036
2017-08-31,-1,-0.0019847419735278676,-0.0019297837861524548,-0.006438751842296175,0.010474577597785657,0.99057646919563
2017-09-05,-1,-0.0005060990980710011,-0.0003624107532557047,-0.0074185143944976596,0.004878169468353673,0.9919583967783288
2017-09-07,1,0.0002447962433118377,0.000488216559153185,-0.0074185143944976596,0.004903453598275757,0.9919223535336223
2017-09-11,1,0.0007546047845246867,0.0010717821657979425,-0.008136341488911411,0.0026052979891575466,0.9913182638919017
2017-09-13,1,0.0009631751173384284,0.0013230960448716836,-0.008136341488911411,0.005034493461012347,0.9911344398529608
2017-09-15,1,0.0008670678930029687,0.0011678889058642148,-0.008136341488911411,0.005034493461012347,0.9907064585458218
2017-09-19,0,-9.431395322305415e-05,5.6624995659582795e-05,-0.008136341488911411,0.005656546675847994,0.9913618878317263
2017-09-21,-1,-0.0009673602100393626,-0.0009553273990222585,-0.0076571547102598815,0.005656546675847994,0.9917473535064923
2017-09-25,-1,-0.0010528742093325653,-0.0010316946289034897,-0.006518298614216916,0.005656546675847994,0.9918596919974209
2017-09-27,-1,-0.0010729130547236783,-0.0010527173231006841,-0.00714687583321998,0.005656546675847994,0.9916892329020408
2017-09-29,-1,-0.0007490203382071584,-0.0007479229517716088,-0.0077388869674299,0.005656546675847994,0.9916604588073805
2017-10-03,-1,-0.0008775942197024682,-0.000876134997357033,-0.00714687583321998,0.008039633532871807,0.9911770439165647
2017-10-05,1,0.00011418892858301499,0.00026708903616139276,-0.007615166549416171,0.005656546675847994,0.9918231045727424
2017-10-09,-1,-0.0005362056465720452,-0.0004784565339887453,-0.007615166549416171,0.005656546675847994,0.9918593685406409
2017-10-11,0,-4.130256999961582e-05,9.286390916254754e-05,-0.007615166549416171,0.008956925199288044,0.9908804744587892
2017-10-13,1,0.0009342698830892016,0.001237432988641529,-0.008034662384432546,0.008956925199288044,0.9906790908153272
2017-10-17,1,0.0011624047063165425,0.0015283888557293555,-0.007245467638887528,0.0102665038288103,0.9899474266924809
2017-10-19,1,0.0006911553997028886,0.0009836209561488191,-0.007245467638887528,0.012681610628978424,0.989102583202999
2017-10-23,1,0.0021429155699066857,0.0027341709049098183,-0.007245467638887528,0.012681610628978424,0.9895459125643061
2017-10-25,1,0.0019173919171063306,0.0024755312277126252,-0.006800202767805312,0.012681610628978424,0.9896285333992555
2017-10-27,1,0.0016557293420453388,0.0021657518317386836,-0.005169373640911811,0.01328802237863228,0.9901777227930169
2017-10-31,1,0.002002798763331767,0.0025260675358226787,-0.002663513580039615,0.013630293897424369,0.9897946719094098
2017-11-02,1,0.001939348312775991,0.0024744278713292457,-0.0009851523640066152,0.013630293897424369,0.9903146664221623
2017-11-06,1,0.0016415922026415198,0.0021597319760736124,-0.0009851523640066152,0.013630293897424369,0.9896510463868685
2017-11-08,1,0.002025959594923295,0.0025014894666548757,-0.0016613267634905777,0.012764391989036152,0.9905890010917379
2017-11-10,1,0.002767393220688793,0.0033542383043523743,-0.0009851523640066152,0.012334114058993756,0.9920745099984177
2017-11-14,1,0.0037988684724897387,0.004498458640820579,-0.0016613267634905777,0.009312353093826137,0.9926064063590598
2017-11-16,1,0.003518404182759618,0.004171603738487851,-0.0016613267634905777,0.009312353093826137,0.9928043956113303
2017-11-20,1,0.003260086428794161,0.003824012218501722,-0.0016613267634905777,0.009312353093826137,0.9927355546029901
2017-11-22,1,0.002620341434155675,0.003060148128941325,-0.0016613267634905777,0.009312353093826137,0.9927325808484628
2017-11-27,1,0.002260461353704791,0.002556045365864513,-0.0008066107627635326,0.006638609486620273,0.9931175811821857
2017-11-29,1,0.002967917856266565,0.0032872349750158476,-0.0027318934334815297,0.004828460101626578,0.9941700872341201
2017-12-01,1,0.0032301219492253735,0.0035886670351771683,-0.0043845457024052304,0.004828460101626578,0.9931689179926902
2017-12-05,1,0.002887421376362587,0.0032095926247675786,-0.004252398255854878,0.004828460101626578,0.9937692359445109
2017-12-07,1,0.0026646513592744944,0.002932796943428291,-0.005196076668056257,0.004549540667277157,0.9932810162485665
2017-12-11,1,0.0028237240105783777,0.0031392225660132073,-0.006095286739840618,0.004549540667277157,0.9923728801968937
2017-12-13,1,0.002850673727927042,0.0031712304125133426,-0.005698844400189562,0.003613529837185996,0.9925895125881907
2017-12-15,1,0.0031693770600364343,0.003526971171107769,-0.004252398255854878,0.003613529837185996,0.9933241040717478
2017-12-19,1,0.0035007728437426006,0.003927280292810441,-0.004252398255854878,0.003613529837185996,0.992490125200326
2017-12-21,1,0.002930532285421586,0.0032476777926469403,-0.003743431804276901,0.003225669273118603,0.9929360936337018
2017-12-26,1,0.0034609007557580658,0.0038768371207853615,-0.003743431804276901,0.002016592433361289,0.9920382303396171
2017-12-28,1,0.0030502810255023023,0.00339694514745601,-0.004252398255854878,0.005297769225631042,0.9918556728407973
