JNU-Tangyin/eata/results/Batch4_SP500/Batch4_SP500-ZION.csv
Date,Action,Predicted_Q25,Predicted_Q75,Actual_Q25,Actual_Q75,RL_Reward
2010-12-14,0,0.0,0.0,-0.008443599572466194,0.013164111105324455,0.9880457829622042
2010-12-16,0,0.0,0.0,-0.008115567408800305,0.014994355349951558,0.9871644867445112
2010-12-20,0,0.0,0.0,-0.009487116947613795,0.014994355349951558,0.9865711439664393
2010-12-22,0,0.0,0.0,-0.009487116947613795,0.00932913140045084,0.987426627729366
2010-12-27,1,0.00606203577239502,0.007102456952858308,-0.010835711750591615,0.0061055939899642584,0.9844869776823387
2010-12-29,1,0.0055424218565566985,0.0064432286402640315,-0.010947467037294586,0.0061055939899642584,0.9843269330979894
2010-12-31,1,0.0048052573656249195,0.005540789132283988,-0.012419126400916988,0.00666642591148635,0.9842723305440171
2011-01-04,1,0.004342344476989211,0.004902459019839289,-0.010947467037294586,0.00666642591148635,0.9853414356239218
2011-01-06,0,0.0,0.0,-0.010947467037294586,0.00962198008756036,0.9860367294816195
2011-01-10,0,0.0,0.0,-0.00952436870984812,0.0171269011810871,0.9858418365436498
2011-01-12,0,0.0,0.0,-0.00952436870984812,0.0171269011810871,0.985266878818922
2011-01-14,0,0.0,0.0,-0.010167074628195653,0.014693624015441976,0.9861469011605738
2011-01-19,0,0.0,0.0,-0.00913555653808144,0.014693624015441976,0.9871849909523578
2011-01-21,0,-1.5157499713645806e-05,0.00018507481005152176,-0.010167074628195653,0.008356973887446889,0.9877724761949868
2011-01-25,-1,-0.00022276331061984328,-4.427972919291974e-05,-0.010167074628195653,0.008752499680771669,0.9869673642098913
2011-01-27,1,0.0010511252799744529,0.001117522177264611,-0.007987879930939882,0.008752499680771669,0.9870917699309203
2011-01-31,1,6.903295271791493e-05,0.00017139258047626902,-0.007987879930939882,0.008752499680771669,0.986824971817126
2011-02-02,0,0.0,0.0,-0.009731316426205719,0.007740167393517522,0.9875216596906736
2011-02-04,0,0.0,0.0,-0.009731316426205719,0.005292444800876486,0.9875772537219952
2011-02-08,0,0.0,0.0,-0.009731316426205719,0.007681940413982169,0.9872627096719225
2011-02-10,1,0.0044488832746452985,0.004821045080219859,-0.009731316426205719,0.009997788589370457,0.9859135119665363
2011-02-14,1,0.002090917993067049,0.002195133209857676,-0.011926088892838282,0.007681940413982169,0.9862036929423469
2011-02-16,1,0.002033545277593345,0.0021474998389092803,-0.016170814172967982,0.009997788589370457,0.9850214590677596
2011-02-18,1,0.0007623697825880539,0.0008364179090494159,-0.011926088892838282,0.01054807939718902,0.9855132613802141
2011-02-23,-1,-0.00011854257701083556,-4.944084210665024e-06,-0.011926088892838282,0.012085067993272403,0.9860049656687266
2011-02-25,0,0.0,0.0,-0.011926088892838282,0.01113520413584597,0.9862697112459367
2011-03-01,0,0.0,0.0,-0.011926088892838282,0.01113520413584597,0.9862314696538212
2011-03-03,0,0.0,0.0,-0.011926088892838282,0.01113520413584597,0.9867091235863925
2011-03-07,0,0.0,0.0,-0.011926088892838282,0.01400314722148851,0.9855981200702232
2011-03-09,0,-2.037413287224899e-05,0.00013209958395488515,-0.011926088892838282,0.013431334222023701,0.9862629467516978
2011-03-11,-1,-0.0002242392549105227,-4.622163048279205e-05,-0.01097714218552076,0.01321355528128762,0.987290991574923
2011-03-15,0,0.0,0.0,-0.003195316326748693,0.01321355528128762,0.9882298090319881
2011-03-17,0,0.0,0.0,-0.005723803628123959,0.01321355528128762,0.988184562513435
2011-03-21,-1,-0.0018406356828704713,-0.0015346172368617137,-0.010946310305409417,0.011511366565184377,0.9884147581885837
2011-03-23,-1,-0.0034035073535132283,-0.002939716792237021,-0.010946310305409417,0.011511366565184377,0.9877285506517146
2011-03-25,-1,-0.003152285735974544,-0.0026529432887026135,-0.010946310305409417,0.013329344544701282,0.9875298161756642
2011-03-29,-1,-0.0034138040553955947,-0.0029175431684120004,-0.010104980001902844,0.014080890540653729,0.9877029823859506
2011-03-31,-1,-0.0018418151812823042,-0.0016383287454492402,-0.010104980001902844,0.014080890540653729,0.9878039431678177
2011-04-04,-1,-0.0013767489191496163,-0.0011466289712883347,-0.010104980001902844,0.009366487665728293,0.9894563216322638
2011-04-06,1,0.0007525140069373868,0.000848470985834297,-0.010946310305409417,0.004308844266729553,0.9895436277300016
2011-04-08,-1,-0.00018486604078059545,-0.00013668677977519855,-0.010104980001902844,0.004308844266729553,0.9901805590183632
2011-04-12,-1,-0.0012418935643805887,-0.0009813286226260103,-0.010104980001902844,0.005706320861956796,0.9896873218058555
2011-04-14,0,0.0,0.0,-0.010104980001902844,0.005706320861956796,0.9890804957367146
2011-04-18,0,0.0,0.0,-0.005103521752064419,0.009818462016638468,0.9889674127069908
2011-04-20,-1,-0.001561393201545198,-0.0012123910287657512,-0.004917604144214118,0.006146521498616746,0.991400875148832
2011-04-25,-1,-0.0014261244761464712,-0.0010761055687016218,-0.006820796450900361,0.004308844266729553,0.9913883197314973
2011-04-27,-1,-0.00013757271628707493,-1.770144138539087e-05,-0.006820796450900361,0.004308844266729553,0.9915572942628464
2011-04-29,0,0.0,0.0,-0.006820796450900361,0.004382886894669726,0.9906860225900147
2011-05-03,0,0.0,0.0,-0.012574959874111145,0.005097420999864374,0.9890717024381214
2011-05-05,0,0.0,0.0,-0.0083175625566429,0.005097420999864374,0.9895233784958654
2011-05-09,0,0.0,0.0,-0.01728576216541399,0.005097420999864374,0.9874135256463694
2011-05-11,0,0.0,0.0,-0.01728576216541399,0.005278801251901449,0.9875404504376852
2011-05-13,0,0.0,0.0,-0.0083175625566429,0.006052719908186586,0.9886294081543935
2011-05-17,-1,-0.0017343286496949383,-0.0015292610211555372,-0.010099071866604652,0.006052719908186586,0.9886523213906163
2011-05-19,-1,-0.001176288600929112,-0.001087475300544455,-0.010099071866604652,0.008173296685604839,0.9871306491860299
2011-05-23,-1,-0.001982640035498467,-0.001811192042293941,-0.0072508551656781,0.008212128936793007,0.9877066674120961
2011-05-25,-1,-0.0020336518196499348,-0.0018416212777761418,-0.010461380473433741,0.008212128936793007,0.986974695537508
2011-05-27,-1,-0.00046505079113065583,-0.0004396164619136368,-0.01298714527180894,0.008212128936793007,0.9869767093617935
2011-06-01,-1,-0.0015553312792356523,-0.0014713382062221312,-0.010461380473433741,0.011889234109628579,0.985944115710441
2011-06-03,-1,-0.0028583209885644396,-0.0025637427979335776,-0.010461380473433741,0.01458386988025392,0.9853723933119214
2011-06-07,-1,-0.0041589267497635475,-0.0037318759400392356,-0.007844691602332017,0.01458386988025392,0.9865947488555843
2011-06-09,-1,-0.0023136866300532324,-0.0021654402374056353,-0.007844691602332017,0.015259912767136025,0.9871410031069027
2011-06-13,-1,-0.0024780424284861257,-0.0022798041669894794,-0.010461380473433741,0.015259912767136025,0.9864291910920542
2011-06-15,-1,-0.001847576477791794,-0.001746078348880214,-0.012728441883467275,0.015005656428764393,0.9858349984733312
2011-06-17,-1,-0.0010183951496430615,-0.0009839563076962264,-0.013362703954453985,0.010155061404799291,0.9864708995371991
2011-06-21,-1,-0.0006495874177976924,-0.0006361522959136643,-0.013362703954453985,0.014960036748833486,0.9858278352131123
2011-06-23,-1,-0.0014525643574351892,-0.0013423525435741622,-0.008212425761964428,0.016388413372874725,0.9860710860718156
2011-06-27,-1,-0.0006937518796196841,-0.0006540642671756695,-0.008212425761964428,0.014960036748833486,0.9866218384140867
2011-06-29,1,0.0013632874567382613,0.001715075040580561,-0.013928120833683767,0.00407473752929687,0.9874449348235401
2011-07-01,1,0.0025176211246500523,0.003076636444406626,-0.013928120833683767,0.0018947227175337173,0.9871079026773583
2011-07-06,1,0.0015526580473329465,0.001922687758366124,-0.0173217214945687,0.00261774013677888,0.9862273789343429
2011-07-08,1,0.0026187629389493304,0.0031861459808617946,-0.02233272320151425,0.0018947227175337173,0.9823002871838017
2011-07-12,1,0.0017244589132139406,0.0021385290130609773,-0.023459201250084702,0.0019818270209983027,0.9779017255002932
2011-07-14,1,0.00035895690228924095,0.0005400604726150606,-0.023459201250084702,0.004336050439690626,0.972379454977416
2011-07-18,-1,-0.0008674091811058803,-0.0008197388475005435,-0.03345372446356756,0.006244988208615431,0.9698058186423609
2011-07-20,1,0.00026305933802013174,0.0003747766447505196,-0.03345372446356756,0.00438087647579158,0.9688674759748926
2011-07-22,1,0.0005146718142199432,0.0006160477627353167,-0.04218058868017434,-0.0005601294840246174,0.9641140362409986
2011-07-26,-1,-0.00037356357950792975,-0.0003520809270191749,-0.04218058868017434,0.00438087647579158,0.9633343853185065
2011-07-28,-1,-0.0015478219259151345,-0.0013789055148314393,-0.04218058868017434,0.016618605095692306,0.9622837220967742
2011-08-01,-1,-0.0009791372298072092,-0.0009306412065055381,-0.04218058868017434,0.040065606776051296,0.9585485955159033
2011-08-03,-1,-0.0019915662581833768,-0.0018199396780833401,-0.035376058277678486,0.040065606776051296,0.9600383726985041
2011-08-05,-1,-0.004711027202062073,-0.004204721541297359,-0.035376058277678486,0.040065606776051296,0.9609129665628655
2011-08-09,-1,-0.0055353279580366045,-0.004925275043531376,-0.030398448488401803,0.04125051871420067,0.9638264129307951
2011-08-11,-1,-0.006674281212277454,-0.005961495807719318,-0.029853395343325862,0.027195873884826936,0.9697194533223505
2011-08-15,-1,-0.006554405529641605,-0.005836534365800702,-0.028085915913690997,0.017753219975600434,0.9717740417490283
2011-08-17,-1,-0.007365906750682061,-0.00659357159464538,-0.027109526806731087,0.025270919139499554,0.9703956789029702
2011-08-19,-1,-0.011318555671722885,-0.010069053757440851,-0.018991046726520838,0.025270919139499554,0.9722741717923176
2011-08-23,-1,-0.008526863973053717,-0.007616330768695994,-0.027109526806731087,0.01875053124190129,0.9725529010988944
2011-08-25,-1,-0.00932092503775691,-0.008426640406071996,-0.029853395343325862,0.016451484975281476,0.9734078786556201
2011-08-29,-1,-0.005087831281443973,-0.004745703106409968,-0.029853395343325862,0.014937265995756868,0.9743672106157251
2011-08-31,-1,-0.005585807612442655,-0.005156219102891488,-0.03351458877630824,0.016451484975281476,0.97178527902558
2011-09-02,-1,-0.007444309300732827,-0.006817615831708572,-0.03351458877630824,0.016451484975281476,0.971136863142191
2011-09-07,-1,-0.005247869851880942,-0.004776584595493192,-0.03351458877630824,0.016451484975281476,0.969903921814196
2011-09-09,-1,-0.008388339898626432,-0.00756275543915113,-0.03139794217374904,0.018171346176692908,0.966782621198074
2011-09-13,-1,-0.006055640338755927,-0.005485801527183266,-0.03139794217374904,0.031034524822317056,0.9646792377316852
2011-09-15,-1,-0.003322095342217896,-0.003118320291404463,-0.033811641164227454,0.03402343712442383,0.9638244868309929
2011-09-19,-1,-0.005274859421437093,-0.004874273707430092,-0.033811641164227454,0.03402343712442383,0.9641489642688921
2011-09-21,-1,-0.0070190757916420345,-0.006424134660615226,-0.03224990761072072,0.045469662942261874,0.9622528401110473
2011-09-23,-1,-0.007082392906608842,-0.006503279359500649,-0.029213630300167746,0.045469662942261874,0.96219709543237
2011-09-27,-1,-0.005403603519496213,-0.00499723595070182,-0.03224990761072072,0.045469662942261874,0.959882630583667
2011-09-29,-1,-0.005919854741266405,-0.00545845675304884,-0.029213630300167746,0.04971992965768425,0.9585844160877216
2011-10-03,-1,-0.008737192463063446,-0.00800714505138188,-0.02915997177584952,0.04971992965768425,0.9595207802115635
2011-10-05,-1,-0.005435298388818475,-0.005031653103093878,-0.03224990761072072,0.045469662942261874,0.9616690697383099
2011-10-07,-1,-0.003403405559466572,-0.003303066307532933,-0.03224990761072072,0.03402343712442383,0.9646968727135883
2011-10-11,-1,-0.0007373844787700943,-0.0004899172119241211,-0.03224990761072072,0.022973567954076055,0.9673431817336429
2011-10-13,-1,-0.0006423799085761104,-0.00042868688706086146,-0.03552487521447319,0.021851303610314426,0.9675338640634296
2011-10-17,-1,-0.0021663271151491103,-0.0021405179033374346,-0.027245991667597703,0.022973567954076055,0.9671188836956204
2011-10-19,-1,-0.0007361472281110021,-0.0004518455595203171,-0.021316418549716325,0.021851303610314426,0.9711909397364523
2011-10-21,1,0.00037433872033952934,0.0006813942861895151,-0.025623474343356184,0.021219956681158485,0.9713497816425135
2011-10-25,0,-2.5445913701088556e-05,0.0002239104675657625,-0.025966595876316993,0.019446767412235107,0.974698772028849
2011-10-27,1,0.002081389193398357,0.0025319075954394615,-0.028715766831928256,0.009998257251845307,0.9766700369399427
2011-10-31,1,0.0004442044498631322,0.0007964124416788944,-0.025966595876316993,0.019446767412235107,0.9780891666465484
2011-11-02,1,0.0007788250580484746,0.0011746133548539617,-0.02506981521080241,0.019446767412235107,0.977028809643814
2011-11-04,1,0.0010175707524983008,0.0014559439528802711,-0.02506981521080241,0.020006768667001948,0.9763276639168882
2011-11-08,1,0.0025836825140792318,0.0032847429548740325,-0.025966595876316993,0.01904237140751626,0.9747477097974765
2011-11-10,1,0.000623149810726943,0.001087510338105899,-0.025966595876316993,0.01904237140751626,0.9756998755834896
2011-11-14,1,0.0008706492356792851,0.001342514506904603,-0.025966595876316993,0.01701780391762298,0.9769718954985928
2011-11-16,1,0.0013508506615476203,0.0019054692377133888,-0.025966595876316993,0.0073410888451361225,0.9774098615416338
2011-11-18,1,0.0018562031096882121,0.0025640548251450387,-0.026358965817502838,0.012146642801086717,0.976955484362513
2011-11-22,1,0.0009863718335355823,0.0016312210747491597,-0.017305109961712025,0.017577752889160907,0.976978258996946
2011-11-25,1,0.00027347353579845854,0.0008248242287285472,-0.014360128793055767,0.020389240784657058,0.9769190570518017
2011-11-29,1,0.000680283656146847,0.0013125241846949987,-0.01682237591844288,0.017577752889160907,0.9772493820301726
2011-12-01,1,0.0019102659082924473,0.00266621255388852,-0.01682237591844288,0.017577752889160907,0.9797151825577073
2011-12-05,1,0.0025613395556591118,0.003349358072080151,-0.01682237591844288,0.018219333286736195,0.9800290543498407
2011-12-07,1,0.001024989035725132,0.0015897577568833377,-0.012544513494846735,0.022607012708539216,0.9811565792301554
2011-12-09,1,0.0010745534640098306,0.0017016298860226809,-0.011012679121610974,0.022607012708539216,0.9828755150474469
2011-12-13,1,0.000957028442652329,0.001639255635096662,0.001795831167561515,0.022607012708539216,0.98322332391553
2011-12-15,1,0.0005633732479436394,0.0011561153832115806,-0.0005001129140157555,0.022607012708539216,0.9828517247130584
2011-12-19,1,7.018613027745275e-05,0.0005518518559293197,-0.00034620382920496446,0.022607012708539216,0.9832178973862836
2011-12-21,1,0.002555499844911051,0.0033729479943677533,-0.00494369877095806,0.0214125782805981,0.9862816753097894
2011-12-23,1,0.003538752540532592,0.004428064837905619,-0.006064788307225001,0.021290390686260582,0.9837588643407819
2011-12-28,1,0.0016820547112075751,0.002203651307685197,-0.006064788307225001,0.021290390686260582,0.9808140705133326
2011-12-30,1,0.0020254576804149757,0.002544586872541647,-0.006064788307225001,0.019321825861625102,0.9817712098498564
2012-01-04,1,0.002804819295658663,0.0033606962983546485,-0.006064788307225001,0.017319489606705263,0.9830932832066718
2012-01-06,1,0.0036483660133783324,0.004324947494180485,-0.006064788307225001,0.017319489606705263,0.982722734930407
2012-01-10,1,0.0031127782069716595,0.003648139010516478,-0.006064788307225001,0.017319489606705263,0.9826497522627817
2012-01-12,1,0.0020049744880580754,0.0021838182007980758,-0.007683303387748853,0.0158811805428465,0.9825608888503773
2012-01-17,1,0.0022293674616383156,0.002543381429273618,-0.007146892508120675,0.0158811805428465,0.9827091656260212
2012-01-19,1,0.0019561354180704198,0.0021647605013566905,-0.007146892508120675,0.0158811805428465,0.9821234419199262
2012-01-23,1,0.003180255290463227,0.003696822414655015,-0.007146892508120675,0.017453337744169,0.9810792135812336
2012-01-25,1,0.0026809105228390332,0.003102551130384654,-0.007146892508120675,0.0158811805428465,0.9835447708172906
2012-01-27,-1,-0.00019613616204668759,-0.0001281754398797009,-0.004175252123377862,0.012865630944554153,0.9856263614097602
2012-01-31,1,0.0005996155727184208,0.0007533733184253486,-0.004175252123377862,0.012865630944554153,0.9859176087166696
2012-02-02,1,0.00021913899590865048,0.00024566006107299446,-0.006886258442412225,0.01034613852552765,0.9866657780075525
2012-02-06,1,0.0019152559464613748,0.0022175431624169377,-0.008534178267804065,0.008348927638766768,0.986520525385181
2012-02-08,1,0.003576891975910581,0.004144754160982299,-0.008534178267804065,0.008348927638766768,0.9859883164876353
2012-02-10,1,0.0017829169821949554,0.0019372137475947274,-0.012270940694289415,0.011361703509965662,0.9850055587950183
2012-02-14,1,0.00042177483733475414,0.0005303168063970435,-0.012270940694289415,0.02002244313014051,0.9787704034958692
2012-02-16,1,0.0015153466646069627,0.0015445256090314417,-0.012270940694289415,0.02002244313014051,0.979304822643084
2012-02-21,1,0.001402626850384137,0.001433864821938337,-0.012270940694289415,0.017028439865707196,0.9801996043469932
2012-02-23,-1,-0.0006633143480426233,-0.00040836937440788524,-0.012270940694289415,0.017028439865707196,0.9804737187364162
2012-02-27,-1,-0.0019173954884215362,-0.0013903108439221228,-0.012270940694289415,0.017028439865707196,0.9797070929703215
2012-02-29,1,5.169111370905685e-05,0.0001941037828901384,-0.014268754442571132,0.017028439865707196,0.9797409183991365
2012-03-02,1,0.00025699216718100634,0.00032707750164506983,-0.014268754442571132,0.017028439865707196,0.9793235343563386
2012-03-06,1,0.0004776819386086565,0.0005410446161186116,-0.0073545391020289255,0.017028439865707196,0.9814869040391376
2012-03-08,1,0.0015951667216452291,0.0018080754737270915,-0.010109536344333654,0.012741881237001254,0.9824696277515683
2012-03-12,1,7.961646613967397e-05,0.00018602817764228194,-0.014466086123121082,0.011193154824415694,0.9820399794664754
2012-03-14,1,0.0033487129548057356,0.003709224986298113,-0.014466086123121082,0.011193154824415694,0.9867725232847226
2012-03-16,1,0.004091178836969965,0.004609363595927816,-0.01650911632074939,0.011193154824415694,0.9857942891392198
2012-03-20,1,0.004118620385637236,0.0045967565558526075,-0.014466086123121082,0.011193154824415694,0.9866392980129521
2012-03-22,1,0.004678202615629741,0.005390246123783988,-0.014466086123121082,0.011193154824415694,0.986678243002403
2012-03-26,1,0.004584433289744238,0.00518772763716801,-0.016308851845235173,0.008133877230873006,0.9848867166230708
2012-03-28,1,0.00465006824483677,0.005282281267757897,-0.016308851845235173,0.011830069251806108,0.9855037523780563
2012-03-30,1,0.003993173153390534,0.004527940597313472,-0.016308851845235173,0.011830069251806108,0.9856934346387287
2012-04-03,1,0.0048098251689558304,0.005500727227031538,-0.016308851845235173,0.013146612349948536,0.9847405416062011
2012-04-05,1,0.002951867568515657,0.003265830730493585,-0.016062223004189535,0.013146612349948536,0.9842092021049277
2012-04-10,1,0.0021792909541112756,0.002397371104690505,-0.012811376790750109,0.013174012945991818,0.9855361101201005
2012-04-12,1,0.0035810948775272028,0.00400941761487376,-0.013713579032213919,0.011830069251806108,0.9863918556459161
2012-04-16,1,0.002408787816217082,0.0026295635581555115,-0.013713579032213919,0.011434734608846404,0.9863685076537236
2012-04-18,1,0.0017823400166001912,0.0018327959713191166,-0.015238064722257073,0.011295522330610402,0.9853294684687626
2012-04-20,-1,-0.0007086682983600337,-0.0003538620540913417,-0.015238064722257073,0.011295522330610402,0.9859399057939032
2012-04-24,-1,-0.0003358403325066224,-2.685445474578821e-05,-0.014221997526279487,0.011295522330610402,0.9869625281894293
2012-04-26,1,0.001119920138583882,0.0012039810247900015,-0.01501043701211852,0.011338501805604676,0.9857413208133757
2012-04-30,1,0.0015865389126089669,0.0016306274754530506,-0.01501043701211852,0.011983206784271212,0.9859460623639178
2012-05-02,1,0.0007900057742465973,0.000916379189426373,-0.016964112444816094,0.012541497025495757,0.9854248158127353
2012-05-04,-1,-0.0009202438145236864,-0.000527196560907605,-0.02041058745842373,0.012541497025495757,0.9834673020184147
2012-05-08,-1,-0.001479343064823768,-0.0009671535319339527,-0.02041058745842373,0.012541497025495757,0.9822965882311688
2012-05-10,-1,-0.0023037724612027326,-0.0016832380570205563,-0.02041058745842373,0.012541497025495757,0.9829254236233381
2012-05-14,-1,-0.003510612602798844,-0.002701524578701734,-0.02041058745842373,0.015845756169984664,0.98225995314979
2012-05-16,-1,-0.0034077821455025647,-0.0027245042720137275,-0.017602857590822363,0.017097346972666357,0.9819526525006322
2012-05-18,-1,-0.0034753879653007316,-0.002856764543781444,-0.010824956135838948,0.01776590769492691,0.9813927312961747
2012-05-22,-1,-0.0033359608245167776,-0.0026887143595541625,-0.010824956135838948,0.018686344100095318,0.9807670492502658
2012-05-24,-1,-0.0033783026310027,-0.002733506065734735,-0.012503273076400076,0.017348219812285546,0.9805282286480738
2012-05-29,-1,-0.0018137368605158494,-0.0014431950047447417,-0.02574227448509484,0.018450775396059778,0.979487325978113
2012-05-31,-1,-0.001223696751570003,-0.0009678137018473834,-0.016358123529457973,0.01882682348415541,0.9798299138428135
2012-06-04,-1,-0.003770440475461806,-0.0032323325430659196,-0.0038485264203056034,0.02026881344637406,0.9806936972434067
2012-06-06,-1,-0.0015299023846990717,-0.001302720820743754,-0.009375222757854455,0.01882682348415541,0.9828132796182227
2012-06-08,-1,-0.0018178942545317121,-0.0015102364717762902,-0.011756471485603815,0.01882682348415541,0.9824737941653724
2012-06-12,-1,-0.002179164833023756,-0.0018590568684567123,-0.011756471485603815,0.018450775396059778,0.9839216897140662
2012-06-14,-1,-0.0019262879690906862,-0.0016224224032999172,-0.01439895227820029,0.018450775396059778,0.9839017034511894
2012-06-18,-1,-0.0018008964595725347,-0.0014853965188229548,-0.01439895227820029,0.018808034700015467,0.984162134499503
2012-06-20,-1,-0.0022032308701009883,-0.0017416468141445455,-0.01439895227820029,0.012717208232591239,0.9857594212411798
2012-06-22,-1,-0.0033049935766992465,-0.002692686259478471,-0.01439895227820029,0.012717208232591239,0.986200862294152
2012-06-26,-1,-0.0030504671266963447,-0.0025102451099487917,-0.01439895227820029,0.008693786643709152,0.9872706405352549
2012-06-28,-1,-0.0020760782466841673,-0.0017002116841860712,-0.01439895227820029,0.010906591665462803,0.9869735501612047
2012-07-02,0,0.0,0.0,-0.01439895227820029,0.004671339128998959,0.9877057560444393
2012-07-05,0,0.0,0.0,-0.01317562986189207,0.0052934999752000935,0.9877448556442349
2012-07-09,0,0.0,0.0,-0.011243258232499189,0.008786831262434154,0.9858915265811837
2012-07-11,-1,-0.0010536432935791737,-0.0009205741194657003,-0.010004448805770906,0.011444548471274671,0.9866128388499538
2012-07-13,-1,-0.000680353779867772,-0.0006031473887480154,-0.009131500378554466,0.006093131394934645,0.9878300743835425
2012-07-17,-1,-0.00045462414301635103,-0.0003644940444907226,-0.009131500378554466,0.004302314006227079,0.9883326402654369
2012-07-19,-1,-0.0006555456749670373,-0.0005672185979191159,-0.008638971754340953,0.006093131394934645,0.9878034950369641
2012-07-23,-1,-0.0016835987011867785,-0.0014617824873426467,-0.00779658297138687,0.011444548471274671,0.9877829508804703
2012-07-25,-1,-0.003188093091423953,-0.0027519839616282193,-0.007489485704097188,0.011444548471274671,0.9889546703353191
2012-07-27,-1,-0.002834473042943833,-0.0023886065681440064,-0.00800728320441198,0.0050063154695673,0.9897775388745894
2012-07-31,-1,-0.002481403720497429,-0.0021603372991403826,-0.007489485704097188,0.007096312560473052,0.9896645355656764
2012-08-02,-1,-0.002661596319475118,-0.0023138364147878314,-0.0062129988331062844,0.007096312560473052,0.9900188169835977
2012-08-06,1,0.0003760104188542582,0.0005663784216673058,-0.0053522284675330415,0.00522341647835803,0.992649531592026
2012-08-08,1,0.0010544701847982007,0.0013691916295092206,-0.0053522284675330415,0.00522341647835803,0.9924739447126514
2012-08-10,1,0.0010171093661271132,0.0013384798648721698,-0.0053522284675330415,0.007096312560473052,0.99087504192584
2012-08-14,1,0.0005404272213123522,0.000747930378405532,-0.004300598480055059,0.010554184755724054,0.9902919642909149
2012-08-16,1,0.0015660194043315995,0.001954030843808305,-0.004300598480055059,0.019228571826922957,0.9895586120945626
2012-08-20,1,0.0018837894574492864,0.0023051106645085835,-0.005030446802713594,0.010680277204583921,0.990452387832192
2012-08-22,0,0.0,0.0,-0.005030446802713594,0.010680277204583921,0.9894190607826912
2012-08-24,0,0.0,0.0,-0.004300598480055059,0.010680277204583921,0.9900479575268963
2012-08-28,1,0.0022191624617506215,0.002732747501984007,-0.005030446802713594,0.010168377390648114,0.9898453494425593
2012-08-30,1,0.0008793743572607852,0.0010719786432036174,-0.0007833890720623661,0.014350717750407062,0.9892479668012722
2012-09-04,0,0.0,0.0,-0.0008115830125521527,0.014350717750407062,0.9886468031418714
2012-09-06,1,0.0019427649062763446,0.002314324289370195,-0.0008115830125521527,0.01786948977680984,0.9883727196790774
2012-09-10,1,0.002551535153057523,0.0030334353456006884,-0.0008115830125521527,0.013897690400369356,0.9897551692798667
2012-09-12,1,0.002679064452852386,0.003125862502992519,-0.0035953412199170765,0.01077364321921447,0.9903422366942477
2012-09-14,0,0.0,0.0,-0.0063555300081470905,0.007918064386079948,0.9889046538477342
2012-09-18,0,0.0,0.0,-0.0038821443285744868,0.010034431808867029,0.9883981072725713
2012-09-20,1,0.0033888597250560765,0.00392405987515693,-0.0038821443285744868,0.010034431808867029,0.9887831471366632
2012-09-24,1,0.0037009829425054355,0.0042799283570503525,-0.0038821443285744868,0.010034431808867029,0.988531157566213
2012-09-26,1,0.002297891692309352,0.002638973409124612,-0.0038821443285744868,0.010034431808867029,0.9892570258439033
2012-09-28,1,0.002878902701435741,0.0033212567460891382,-0.008024816228837842,0.008176042288294534,0.9890620166113998
2012-10-02,1,0.00285898063822805,0.0032768438161646504,-0.008024816228837842,0.010645847611189588,0.9883262098883506
2012-10-04,1,0.0038470181624808133,0.004358529769858174,-0.011074329182287162,0.008176042288294534,0.9891641250802179
2012-10-08,1,0.0030754993617719954,0.003419541136854771,-0.013631690159536147,0.008003678667007635,0.9867398730177122
2012-10-10,1,0.002564702816571148,0.0027883033273660867,-0.014531685434166334,0.008003678667007635,0.9859202545195762
2012-10-12,1,0.002989426601365696,0.003310474487857602,-0.014531685434166334,0.007370698110181278,0.9872494886565174
2012-10-16,1,0.002815293967505846,0.0031119298233066306,-0.015880200816793158,0.0064018367676142475,0.9871685196493282
2012-10-18,1,0.0024561605220239724,0.0027377018510644693,-0.014435571968505163,0.007719787490885394,0.988047846574033
2012-10-22,1,0.002299939498172365,0.0025491263516043425,-0.014435571968505163,0.008468026913007633,0.9874773104320856
2012-10-24,1,0.0005898196086745083,0.000707301503107055,-0.011641959870305016,0.010052926100293662,0.9873010426002579
2012-10-26,1,0.0010753578407850012,0.001089982914010955,-0.015880200816793158,0.010052926100293662,0.9861295779104463
2012-11-01,0,0.0,0.0,-0.015880200816793158,0.008383590694928502,0.9864944333863099
2012-11-05,0,0.0,0.0,-0.014409354556557884,0.008383590694928502,0.9862682079885187
2012-11-07,0,0.0,0.0,-0.010309415907257563,0.007662594595285698,0.9893642089845802
2012-11-09,-1,-0.0018139066278639452,-0.0015367807957003524,-0.007837663703830447,0.008383590694928502,0.989262637571496
2012-11-13,-1,-0.000738231746923693,-0.0006151832946807937,-0.004958575250500994,0.010574737186061292,0.9885501038142723
2012-11-15,0,0.0,0.0,-0.0016596277553199653,0.010574737186061292,0.9895486427913173
2012-11-19,0,0.0,0.0,-0.0016596277553199653,0.015573685412087005,0.98838700853177
2012-11-21,0,0.0,0.0,-0.002108829593642927,0.01592520085713608,0.9885710354748602
2012-11-26,0,0.0,0.0,-0.0046465883974372586,0.010574737186061292,0.9887111249783229
2012-11-28,0,0.0,0.0,-0.0046465883974372586,0.010574737186061292,0.9902913513312008
2012-11-30,0,0.0,0.0,-0.00432069856816923,0.013421817663342193,0.9901691471941805
2012-12-04,-1,-0.0014996803416484983,-0.0012142217079609665,-0.002108829593642927,0.01592520085713608,0.9896632734563686
2012-12-06,-1,-0.0015836658896082913,-0.0012916925467210886,-0.002667553271177482,0.01783021722871931,0.9880300005951363
2012-12-10,-1,-0.00035555922841526476,-0.0002460884342203794,-0.005171046144131191,0.01783021722871931,0.9879595625870748
2012-12-12,1,0.00020562533143165184,0.00029220893725479734,-0.006454398850562459,0.013993936483406603,0.9888930581438925
2012-12-14,-1,-0.000359621998968743,-0.00016871973357119967,-0.006454398850562459,0.013993936483406603,0.9882954867039595
2012-12-18,1,0.0002520257793520202,0.0004223970280931627,-0.006454398850562459,0.00946655692164422,0.9896747643562201
2012-12-20,1,0.0013825024462435535,0.001398398161865668,-0.006454398850562459,0.008560191195354068,0.990285856561113
2012-12-24,1,2.2898779823393614e-05,0.00021198271724922886,-0.00549349022772143,0.008560191195354068,0.9908242691755115
2012-12-27,-1,-0.0005550530264830516,-0.00028228484957911186,-0.004963936321705522,0.00946655692164422,0.9903200709556477
2012-12-31,1,0.00045652296977780684,0.0005421897898937226,-0.004963936321705522,0.00946655692164422,0.9893831504478029
2013-01-03,1,0.0011548475115090852,0.0011745533497483113,-0.005603051168213297,0.00946655692164422,0.9891126578587767
2013-01-07,1,0.0015757026690432305,0.0016380001609076068,-0.007192710531082222,0.00946655692164422,0.9893538687712727
2013-01-09,1,0.00040882098716331697,0.0004977821214494704,-0.004258936954479889,0.00946655692164422,0.9904884746893681
2013-01-11,1,0.0005394914070392747,0.000580445360190939,-0.0034750112474726735,0.00946655692164422,0.9907002332988134
2013-01-15,1,0.0011284615157551004,0.001177614698559445,-0.0034750112474726735,0.011621971712489666,0.9904849576968316
2013-01-17,1,0.0012856346698704075,0.0013343785147555177,-0.004656294314214965,0.010547560673493207,0.9904764325857711
2013-01-22,1,0.0012608717556159134,0.0012873496941100697,-0.005603051168213297,0.011646387286302368,0.9889761897605509
2013-01-24,1,0.001180976550695324,0.0011982795482542406,-0.00725125906412149,0.01218271489153546,0.9880429680307389
2013-01-28,1,0.0012975431139894762,0.0013169290728579901,-0.009952939205705898,0.011940045874516473,0.9877556626117565
2013-01-30,1,0.0022273537662308054,0.002371743758623102,-0.009952939205705898,0.011940045874516473,0.9892202306103578
2013-02-01,1,0.002649424117333249,0.0028735137946261516,-0.006359663634386012,0.010547560673493207,0.9904310276742971
2013-02-05,1,0.0028636048953756795,0.0031279395298234704,-0.004473402160514793,0.011668763095788454,0.9904951398280127
2013-02-07,1,0.002942942339929573,0.0032490932758304546,-0.004473402160514793,0.011668763095788454,0.9907077998813224
2013-02-11,1,0.003650079783367186,0.004115617907695213,-0.004976778494170343,0.01224478856560774,0.9901467617325083
2013-02-13,1,0.003844862645011345,0.004303212466444688,-0.004976778494170343,0.01224478856560774,0.9907303615420378
2013-02-15,1,0.0032307194980113405,0.003572891354970557,-0.006333778088355185,0.01224478856560774,0.9905199838720905
2013-02-20,1,0.0029408317202270786,0.0032536544973710523,-0.004976778494170343,0.008377424147378432,0.9920624822034317
2013-02-22,1,0.0023201714249423038,0.0024983504974235527,-0.004976778494170343,0.00709786465918112,0.99274437693951
2013-02-26,1,0.002229143014485759,0.0024147034518757775,-0.0032203751342823566,0.00709786465918112,0.9934469675309245
2013-02-28,1,0.0027372044728656104,0.002991497663361994,-0.004907158751474074,0.006165823736518198,0.9934783474849249
2013-03-04,1,0.003268987378608669,0.0036566075486953904,-0.006333778088355185,0.0056162215322594355,0.992637164180271
2013-03-06,1,0.004203218443640513,0.004711600101811543,-0.007056138599813043,0.0046225349565756964,0.9919181650979946
2013-03-08,1,0.00430599800605902,0.0048290552093962855,-0.008995122374068333,0.0046225349565756964,0.9911212258492796
2013-03-12,1,0.004485986592920683,0.005032010024863954,-0.008995122374068333,0.0056162215322594355,0.9914832527191054
2013-03-14,1,0.004516853821255543,0.005056907089840084,-0.010829465371231826,0.006015891172749659,0.9898250918475073
2013-03-18,1,0.00360792031934628,0.003989448614188522,-0.010829465371231826,0.006015891172749659,0.9896749924691062
2013-03-20,1,0.003570623235508141,0.003935780377876674,-0.011281382895321828,0.0056695700173316835,0.9888136092694091
2013-03-22,1,0.003032294303684559,0.0033197755810152794,-0.011104532198648744,0.00810954538608477,0.9889788643106929
2013-03-26,1,0.0027416072062411323,0.0029720939564925257,-0.011104532198648744,0.011045513927770373,0.9878619662927951
2013-03-28,1,0.002786622247783991,0.003063932057428065,-0.011893367432538816,0.011045513927770373,0.987612840688599
2013-04-02,1,0.0018575428256977296,0.0019857599216941925,-0.011033460216970822,0.011045513927770373,0.9882485133432325
2013-04-04,1,0.0009563007363818519,0.001021161926867611,-0.011033460216970822,0.011828346559855105,0.9880318618065379
2013-04-08,1,0.00025879567912533803,0.000444700545673271,-0.00611874798700014,0.013265603948920464,0.9870298216711023
2013-04-10,1,0.00042475675459415364,0.0006291163934178577,-0.00611874798700014,0.013265603948920464,0.9875020402886185
2013-04-12,0,0.0,0.0,-0.001054391374761639,0.011943468250483877,0.9886678848893822
2013-04-16,0,0.0,0.0,0.00032010975517230935,0.01477268975564232,0.9887103736745675
2013-04-18,-1,-0.0018321923028272317,-0.0014096796879180921,-0.000831487013711586,0.01477268975564232,0.9884414279540733
2013-04-22,-1,-0.0012691271873928058,-0.0009463483821939935,0.0005771582706755528,0.019606065944408828,0.9877610100274958
2013-04-24,-1,-0.0008509696276848609,-0.0005127276163768242,-0.0036067982207777633,0.013750378960142045,0.9891861509231744
2013-04-26,-1,-0.0013996639297487266,-0.0009924654045771143,-0.0005557980085803976,0.013750378960142045,0.9889358407091384
2013-04-30,-1,-0.001555422547772043,-0.0010906504921944149,-0.000831487013711586,0.019606065944408828,0.9885928183890398
2013-05-02,-1,-0.0019035811924142628,-0.0013812583341927585,-0.000831487013711586,0.018644875223994585,0.9884893452366778
2013-05-06,-1,-0.00035528022729141955,-4.0428299566974755e-05,-0.004510306345198174,0.01145220331094458,0.9896063244865633
2013-05-08,1,0.0005139292010867263,0.0006889149981149289,-0.006874970889430709,0.012373686889211527,0.988469267067725
2013-05-10,1,0.0004689409981083382,0.000657646735707914,-0.006874970889430709,0.01679299042175872,0.987052541924178
2013-05-14,1,0.0021693015715074215,0.002260640740461144,-0.01398403870329545,0.014532734932093115,0.986939087588965
2013-05-16,1,0.0021578134759013042,0.0022595443874078953,-0.016099439184590565,0.014862155197247203,0.985833818818501
2013-05-20,1,0.002567678210891796,0.0026586004292837853,-0.016099439184590565,0.014040561524374561,0.9866878702803059
2013-05-22,1,0.001563616843567527,0.0016217731727894446,-0.016099439184590565,0.014862155197247203,0.9861726225437952
2013-05-24,1,0.001731793768029159,0.0017600657204752505,-0.016099439184590565,0.016350881819696343,0.9856689962146349
2013-05-29,1,0.002823231678607789,0.002973419618068564,-0.016099439184590565,0.016829609619639155,0.9848963483927129
2013-05-31,1,0.002966501456364173,0.003176030157406547,-0.014354494273052416,0.016350881819696343,0.985942278358637
2013-06-04,1,0.0009354736031455836,0.0010424684174022252,-0.0053386001878661755,0.016350881819696343,0.9864450028055463
2013-06-06,1,0.0003130422145243303,0.0005112970459241557,-0.0022402871755406325,0.01704033835425468,0.9857431157092225
2013-06-10,1,0.0016625867395260547,0.0016903323065670306,-0.0053386001878661755,0.015248335421442848,0.986327058107822
2013-06-12,1,0.0008251352317831338,0.0009199881163903388,-0.011432714770289223,0.015248335421442848,0.9856293102071341
2013-06-14,1,0.0005554203498166466,0.000674088175769697,-0.0053386001878661755,0.017210777761797795,0.9857141919975391
2013-06-18,1,0.000830365710303299,0.0009225150402569155,-0.011432714770289223,0.017210777761797795,0.9850675792372463
2013-06-20,1,0.0010411647752425711,0.001101651928240195,-0.0053386001878661755,0.017469700219564777,0.9852236623900857
2013-06-24,1,0.0018640361622069253,0.0019654765862002913,-0.012143151131221804,0.016330534623430842,0.9845180214295289
2013-06-26,1,0.003236383135548129,0.003544140427264847,-0.01317101174898993,0.010039088424239478,0.9860563341038805
2013-06-28,1,0.00291647298311977,0.0031788074184410926,-0.01317101174898993,0.010039088424239478,0.9856370933790041
2013-07-02,1,0.0032852602413848252,0.003579624698841863,-0.01317101174898993,0.010039088424239478,0.9858644484447756
2013-07-05,1,0.004994444128322877,0.005526351435772027,-0.01317101174898993,0.010039088424239478,0.9869789124063191
2013-07-09,1,0.004247693602297069,0.004713230873997453,-0.01317101174898993,0.010039088424239478,0.9867200246898685
2013-07-11,1,0.002674300890518488,0.0028899310563405174,-0.011385166396376578,0.01200551455659377,0.987675078749618
2013-07-15,1,0.0033737175790812613,0.0036583060082077796,-0.011385166396376578,0.008062469025566937,0.9886610345586009
2013-07-17,1,0.0023084398027764684,0.0024416935495613756,-0.011385166396376578,0.008062469025566937,0.9893600942484625
2013-07-19,1,0.0030979171021734172,0.003317009031809643,-0.011877211474930486,0.004993814198786486,0.9894730208904096
2013-07-23,1,0.002365995324028049,0.002506429193948881,-0.011385166396376578,0.004993814198786486,0.9899500128311368
2013-07-25,1,0.0018462338821908053,0.0019118098114661902,-0.010932649377503323,0.006902768866269235,0.9897108777307817
2013-07-29,1,0.0018019452739290696,0.0019230997059546946,-0.009325110277082615,0.006902768866269235,0.9899046812420661
2013-07-31,1,0.0021903144148814647,0.0023630041398851327,-0.010932649377503323,0.005805017894751529,0.987795329527675
2013-08-02,1,0.002727489801911736,0.0029776578661615287,-0.011775075710453891,0.005342817338542647,0.9875193730154715
2013-08-06,1,0.0017832721805795299,0.001924023584836019,-0.010932649377503323,0.0072093786487925065,0.9885961048153213
2013-08-08,1,0.0016909187070975585,0.001787303714258573,-0.009448619500737367,0.0072093786487925065,0.9885791734398582
2013-08-12,1,0.0016664516105501545,0.0017579440680589283,-0.009448619500737367,0.009237355781948786,0.9880760511401692
2013-08-14,1,0.0008992593606812376,0.0009231811108863454,-0.008863709101238251,0.009237355781948786,0.988298046424356
2013-08-16,1,0.0003194776658083103,0.0004248106110714929,-0.00610380330951033,0.010551697211125243,0.988860468033295
2013-08-20,1,0.001133102505849757,0.0011564140213922965,-0.008863709101238251,0.009034094127144641,0.9891985481791348
2013-08-22,1,0.0003892737098806198,0.0005426835179837992,-0.008863709101238251,0.007840595159333162,0.9890098118947105
2013-08-26,-1,-0.000700685263434485,-0.00039267057422527716,-0.009868751987442793,0.007840595159333162,0.9890095732767814
2013-08-28,-1,-0.0018479232330807747,-0.00140669862438319,-0.009868751987442793,0.006957583596097176,0.9908276481328497
2013-08-30,-1,-0.0020759428030852492,-0.0016277439650412148,-0.005599602752844527,0.005482025528684802,0.9912953199477471
2013-09-04,-1,-0.0018726258960014629,-0.0014289907249610515,-0.009868751987442793,0.005482025528684802,0.9901539740462434
2013-09-06,-1,-0.0020230104072921974,-0.0015117282059347102,-0.008899710122927337,0.005482025528684802,0.9897496159625646
2013-09-10,-1,-0.0020535185435994717,-0.001517477433662734,-0.012554159730708376,0.0027491628690437127,0.989518438820808
2013-09-12,-1,-0.002465301401847744,-0.0018862935042862172,-0.012554159730708376,0.003664759420153811,0.9876534105904924
2013-09-16,-1,-0.0014541713602817417,-0.0010527789775254667,-0.012554159730708376,0.005526926694414593,0.9872185392392874
2013-09-18,-1,-0.0024998798136124144,-0.001948011322132125,-0.008899710122927337,0.009045193260103085,0.9874292937357041
2013-09-20,-1,-0.0033576931466518956,-0.0027267000501104387,-0.005520278966159787,0.014580073558982968,0.9869493653204787
2013-09-24,-1,-0.0036082417008412027,-0.002964144087608005,-0.005520278966159787,0.014580073558982968,0.984300441460132
2013-09-26,-1,-0.0029942974845139124,-0.0025048019580977614,-0.0037006869553453726,0.014580073558982968,0.9836743936921499
2013-09-30,-1,-0.00251125433604519,-0.002081790154950876,-0.0037006869553453726,0.014580073558982968,0.9838579372168391
2013-10-02,-1,-0.0029759133078773098,-0.002497334029954457,-0.0037006869553453726,0.012283949122985676,0.9856321050828459
2013-10-04,-1,-0.0012112439207487738,-0.0009955823009616834,-0.003199058048664191,0.010018411821890363,0.9875812562576244
2013-10-08,-1,-0.0029658870039432094,-0.002516045590363061,-0.0012093496754444436,0.010680161464769647,0.9875591124926855
2013-10-10,-1,-0.0006928353204615197,-0.0005635997321395428,-0.0012093496754444436,0.009549550336791206,0.9893269060361627
2013-10-14,-1,-0.00058711871924525,-0.0004310330542143362,-0.002042110674617493,0.009549550336791206,0.9873066458728271
2013-10-16,0,-4.295635249435635e-05,2.4048909660108806e-05,-0.0025653862458474754,0.008793303015716219,0.9877555958634644
2013-10-18,1,0.0011885046267827279,0.0013018893920125276,-0.0025653862458474754,0.004844609384133166,0.9889850511109003
2013-10-22,-1,-0.001135290257127566,-0.000951149669516374,-0.006673717819637775,0.004844609384133166,0.9904080237938024
2013-10-24,-1,-0.0010475493327030396,-0.0008341826103856805,-0.006673717819637775,0.003717149409030755,0.9899982818959303
2013-10-28,-1,-0.0011017789187503188,-0.0008827415219957133,-0.006673717819637775,0.004844609384133166,0.9895681963963479
2013-10-30,-1,-0.0008932406433125551,-0.0007442532538838089,-0.010633557171238085,0.006996884069406042,0.9887249574563329
2013-11-01,-1,-0.0014725613035690703,-0.0012077810953380632,-0.010633557171238085,0.006996884069406042,0.9883683663452797
2013-11-05,-1,-0.0011009105084991777,-0.0008682164377200686,-0.010956096353651093,0.0071091163884129446,0.9878085190729311
2013-11-07,-1,-0.0015700896311082668,-0.0013083625882907182,-0.010633557171238085,0.010997920644593177,0.9879957419401463
2013-11-11,-1,-0.0003565655059435889,-0.00025358625133953136,-0.010633557171238085,0.00602831367322822,0.9904827758106581
2013-11-13,-1,-0.00038384054075432867,-0.00027580083276136614,-0.010634511284083034,0.009502370376038951,0.989440632695298
2013-11-15,1,0.00043933164096251906,0.0005001042922971714,-0.010818302022634944,0.009502370376038951,0.9890421261932626
2013-11-19,-1,-0.0004454337278118538,-0.00038325447202523306,-0.010587625727566035,0.010997920644593177,0.988614219633174
2013-11-21,1,0.0007674600013073468,0.0008910989855127097,-0.010587625727566035,0.010997920644593177,0.9893906239660561
2013-11-25,1,0.0016054855378040698,0.0019365175962454489,-0.010587625727566035,0.0122977291344094,0.9889909228285941
2013-11-27,1,0.001317329390587151,0.001555722519573107,-0.006762026259304809,0.010126796088065031,0.9898532361728106
2013-12-02,1,0.0004524202526501452,0.0005257881882712491,-0.00525609012184799,0.010126796088065031,0.9902584600800315
2013-12-04,1,0.0012302433583580125,0.0014611428011053159,-0.0051500140044460335,0.007591102529158815,0.9906678062210404
2013-12-06,1,0.0011351881761078601,0.0013091527204947698,-0.007861417672489115,0.004798951102263525,0.9912716202607836
2013-12-10,1,0.0012032201043865919,0.00144882503890352,-0.003014896455139368,0.007685593382641824,0.9914862569103239
2013-12-12,1,0.0007349280503448792,0.0008874782680961068,-0.005729089739532085,0.007145325786408078,0.9920877437265729
2013-12-16,1,0.0004476701722933494,0.0005451143493940645,-0.002580308735711581,0.007685593382641824,0.9918824314880893
2013-12-18,1,0.0006035974535998888,0.0006963575647764965,-0.002580308735711581,0.007685593382641824,0.9929220803937455
2013-12-20,1,0.0009164752066092385,0.0010780233450604845,-0.002580308735711581,0.009019505463108405,0.9911519559981061
2013-12-24,1,0.0018203782300125538,0.0021343550980563366,-0.007861417672489115,0.007685593382641824,0.9896549921029633
2013-12-27,1,0.0013255625850875632,0.0015233854811808937,-0.010029696662789717,0.007685593382641824,0.9889135950106532
2013-12-31,1,0.0016130513084736237,0.0018637109836594935,-0.010742446379020169,0.007685593382641824,0.9878115502481135
2014-01-03,1,0.0016981119987745244,0.001962043704805347,-0.015101848442396707,0.007685593382641824,0.9860573476646152
2014-01-07,1,0.0011486991279916702,0.001311191382015426,-0.015101848442396707,0.009019505463108405,0.9853141299968128
2014-01-09,1,0.0014157837923570679,0.0015955971675141777,-0.015101848442396707,0.01008556215889176,0.9852198962696567
2014-01-13,1,0.0012729768917565864,0.0014848172163080642,-0.013818648294487035,0.011595971928406045,0.9848033770967928
2014-01-15,1,0.001773860993593693,0.00204482448398951,-0.013818648294487035,0.010943059383188923,0.9851560303304373
2014-01-17,1,0.001508480690892858,0.0017125902095488144,-0.012315229813236482,0.011137282281835468,0.985344829975953
2014-01-22,1,0.00229641894340001,0.0025509059188829988,-0.01949422125424151,0.008428426239848269,0.9858422277308964
2014-01-24,1,0.0006497849330592673,0.0006645434241764493,-0.009702111021529167,0.011137282281835468,0.9876743184556616
2014-01-28,1,0.0005297210265611601,0.0005520268235587049,-0.0052479708091039915,0.011137282281835468,0.9879859396429278
2014-01-30,1,0.00037003998081199825,0.000399665987210087,-0.001689811313200693,0.012310184664630337,0.9881501886699203
2014-02-03,-1,-0.0010096307416097147,-0.0008930267933135595,0.00023783587940493878,0.012857614174213435,0.9887778689127005
2014-02-05,-1,-0.0001458825837111577,-0.00011593920991674448,-0.0014591699878701448,0.012310184664630337,0.9902517207024882
2014-02-07,1,0.00015365825601207402,0.00018030612643560938,-0.001138775871756785,0.012310184664630337,0.9908174943000606
2014-02-11,1,0.0009933946094466519,0.0011024720697678033,-0.0015844011153758565,0.00861783696234904,0.9925231744584223
2014-02-13,1,0.0008441793536664241,0.0008805689671617927,-0.001746199539559822,0.00861783696234904,0.9928137338700042
2014-02-18,1,0.0008381067279756342,0.0008555937271481932,-0.001746199539559822,0.005242107644189365,0.9936376048488152
2014-02-20,-1,-0.0004951574943812191,-0.00033312917600924775,-0.001138775871756785,0.009868218135269648,0.9929782252407284
2014-02-24,1,0.0002285054959264904,0.0002910303195216446,-0.001746199539559822,0.00861783696234904,0.9896982078436786
2014-02-26,1,0.00010067949190128571,0.00020165342650215915,-0.002385688138510215,0.008779123094426695,0.9890951113444312
2014-02-28,1,0.0012827310297417946,0.0013709546271563331,-0.004392595979258989,0.005505009872772264,0.9886039785463616
2014-03-04,1,0.0005803142977817566,0.0006562980202980943,-0.002385688138510215,0.008202152118972718,0.9885178441878357
2014-03-06,1,0.0012438599958512061,0.0013241719387852714,-0.001746199539559822,0.010939495261462644,0.9879868602698736
2014-03-10,1,0.0014770691211118553,0.0016213815971626727,-0.009463012961703153,0.010939495261462644,0.9867241216144992
2014-03-12,1,0.0016111172391080717,0.0017889686388400986,-0.009463012961703153,0.010939495261462644,0.9864480266784261
2014-03-14,1,0.001978267190066406,0.0022643381260356943,-0.012456733030495494,0.010939495261462644,0.9842615724921551
2014-03-18,1,0.0009434282428923601,0.0009527814386150101,-0.012456733030495494,0.011448029433125645,0.9838348079199759
2014-03-20,1,0.003119001972284695,0.0034350108164638415,-0.012456733030495494,0.010167940383121528,0.9851736824110815
2014-03-24,-1,-0.0001187609748778426,-2.248269358959428e-05,-0.01193716982315772,0.010167940383121528,0.9882408862309132
2014-03-26,-1,-0.0006058446746113098,-0.00044222600685237554,-0.01193716982315772,0.010167940383121528,0.9879909948816312
2014-03-28,-1,-0.00033523704400733294,-0.00020086117924375877,-0.011891493713797267,0.008345685189769986,0.9885219983082424
2014-04-01,1,0.000810591322642886,0.0008358136182920786,-0.011891493713797267,0.006826453500277035,0.9894025796049908
2014-04-03,1,0.0007041970236166533,0.0007344214880998943,-0.011891493713797267,0.006567473310269481,0.989321340812401
2014-04-07,1,0.0003969190371148703,0.0004053267095653799,-0.011891493713797267,0.006567473310269481,0.9898219770092543
2014-04-09,1,0.0001727433657250925,0.0002114850567218736,-0.011891493713797267,0.008298111169722183,0.9892406047872013
2014-04-11,-1,-0.0013189512865875164,-0.0011115695222033602,-0.00679502417302572,0.00934177932064975,0.9902134554901862
2014-04-15,-1,-0.0014019751727452905,-0.0011349026453066375,-0.012260118504390717,0.008298111169722183,0.9890853307011668
2014-04-17,-1,-0.00010431750527805405,-3.851622872494057e-05,-0.012260118504390717,0.006383134609163886,0.9894759111861633
2014-04-22,-1,-0.0004785829732058819,-0.00037359941096289816,-0.011056649883728741,0.007486114876397847,0.9898726315448734
2014-04-24,-1,-0.0014952767543905644,-0.0012799826580452453,-0.009312274217012036,0.007486114876397847,0.9908400452695287
2014-04-28,-1,-0.002344562355241069,-0.0020065487586891735,-0.006169294025601055,0.007486114876397847,0.9912103579925834
2014-04-30,-1,-0.0018008617507560905,-0.00154101904864008,-0.006169294025601055,0.006878598872776601,0.9915610319780255
2014-05-02,-1,-0.0016081898179124872,-0.0013929805176259116,-0.003969626266783305,0.006878598872776601,0.9919288644971891
2014-05-06,-1,-0.0026540130283946384,-0.00228720963646626,-0.002696216228266932,0.006878598872776601,0.9920525098817715
2014-05-08,-1,-0.001989694945354182,-0.0016820120103412143,-0.002696216228266932,0.007239233865904598,0.991954661730997
2014-05-12,-1,-0.0013003394113471488,-0.0010619978700216197,-0.002696216228266932,0.007239233865904598,0.992756002357159
2014-05-14,-1,-0.002692780523948565,-0.0023132783060959426,-0.002696216228266932,0.007239233865904598,0.9933639765196024
2014-05-16,-1,-0.002853480562866228,-0.002460569046034619,-0.0013937709064289663,0.007239233865904598,0.9928557727598328
2014-05-20,-1,-0.0022079832299254647,-0.0019270303641877855,-0.0005254076788290575,0.007239233865904598,0.9925329978063014
2014-05-22,-1,-0.0020351534411886746,-0.0017721417826457807,-0.001292674134048102,0.008824085903377962,0.992528260904118
2014-05-27,-1,-0.0018021854905298004,-0.001578237070973106,-0.0023478782908910828,0.008824085903377962,0.9922758155928729
2014-05-29,-1,-0.0014641322639434462,-0.0012891166118467327,-0.0023478782908910828,0.008824085903377962,0.9922525427652039
2014-06-02,-1,-0.0012121982252675505,-0.0010460803973378159,-0.0047090098465605,0.005555349571680485,0.992466655042958
2014-06-04,-1,-0.0011024528206697785,-0.0009760908666091736,-0.005501666548247353,0.005555349571680485,0.9924618124976132
2014-06-06,-1,-0.00022521691530458915,-0.00016943793984818163,-0.005501666548247353,0.0028731907160686834,0.9933099353324628
2014-06-10,1,0.00036497570338960364,0.0004198302597929613,-0.00654415014283995,0.0028731907160686834,0.9925862966257633
2014-06-12,-1,-0.0002556698832501741,-0.00023389719952467995,-0.005501666548247353,0.0060984888135144745,0.9923218374167831
2014-06-16,1,0.0001850183022123,0.00029955525580932697,-0.005498769767238478,0.0060984888135144745,0.9928194122218997
2014-06-18,1,0.0001206978303579865,0.0001412898295376788,-0.005998828358319635,0.0018600060455479315,0.9922375002960497
2014-06-20,1,0.00017675039083991803,0.00018795861400284247,-0.005998828358319635,0.0018600060455479315,0.9922244350968172
2014-06-24,-1,-0.000630180127470789,-0.0005254353254158853,-0.0057268049266974265,0.005568605133193846,0.9921572553024864
2014-06-26,-1,-0.0012259137692885945,-0.0009731291246018427,-0.0057268049266974265,0.011404170540115215,0.9908551797750969
2014-06-30,-1,-0.0011273789874485757,-0.0009370326951232948,-0.00599013801529301,0.011404170540115215,0.9901177712900616
2014-07-02,-1,-0.001255985884043482,-0.0010524003872993976,-0.00849547721193222,0.011404170540115215,0.9897063687257336
2014-07-07,1,3.442562431562555e-05,4.254767629421502e-05,-0.010014485599836403,0.009646301096473197,0.9889074557654179
2014-07-09,1,0.0001920896605223178,0.00024433271137989975,-0.00849547721193222,0.0009412214646969544,0.9897786404801007
2014-07-11,1,0.0004891701549855952,0.0005960649540810575,-0.00849547721193222,0.0009412214646969544,0.9893546390316086
2014-07-15,-1,-0.0004206376629484986,-0.0003593121495298171,-0.00849547721193222,0.0009412214646969544,0.989926848219326
2014-07-17,-1,-0.001103200568501331,-0.0009909012861545577,-0.008147240588654231,0.008712264871675295,0.9908900488210232
2014-07-21,-1,-0.0007952242691984605,-0.0007305861138690682,-0.008147240588654231,0.009544811154865867,0.9906853431643012
2014-07-23,1,3.809054795302785e-05,0.0001191040614503601,-0.008147240588654231,0.008900544823365329,0.990830802111638
2014-07-25,1,0.001125307833655018,0.0013593588299383784,-0.008147240588654231,0.007272093400464012,0.9915563509174952
2014-07-29,1,0.00037657324412709625,0.000508907475660238,-0.004693668334414572,0.007272093400464012,0.9927092907301954
2014-07-31,0,-9.569622145849096e-06,7.629938423722813e-05,-0.0035463664512402917,0.007272093400464012,0.9931027035372164
2014-08-04,-1,-0.000516761257005795,-0.0004938536101211906,-0.003293999183837782,0.007806738211325062,0.993785054713791
2014-08-06,-1,-0.000641331471057803,-0.0006402945004750726,-0.003293999183837782,0.007806738211325062,0.993695330401801
2014-08-08,-1,-0.00039156927599842055,-0.0003488158438302072,-0.003458093167734895,0.0070151570186225195,0.9948518033854146
2014-08-12,1,0.0003752454329323501,0.0006344762755997712,-0.0035201948470670644,0.007806738211325062,0.9941851459804991
2014-08-14,-1,-0.0005079807126249898,-0.0004924239417532667,-0.0035201948470670644,0.008129735677840852,0.9938621855960778
2014-08-18,-1,-0.00028663777906363637,-0.0002825178289027606,-0.0044882338861621,0.0054895421939708585,0.9940855831011666
2014-08-20,1,0.00016535563704593077,0.00024598624499410076,-0.0044882338861621,0.008137590353967505,0.9937375875557878
2014-08-22,1,0.0008916499672158608,0.0011141508206935625,-0.004944783116347961,0.0054895421939708585,0.9936539399699145
2014-08-26,1,0.0012370735234384506,0.0015292849555727304,-0.005809531980945361,0.0054895421939708585,0.9931854252884097
2014-08-28,1,0.0007814246911749102,0.0009669149599413624,-0.0063124999589269665,0.008137590353967505,0.992540719046773
2014-09-02,1,0.0009623143933828718,0.0011666186643864344,-0.0063124999589269665,0.006077330718454793,0.992499498467895
2014-09-04,1,0.00016763715973671848,0.00019677245849749036,-0.00886510025557214,0.006077330718454793,0.9918978483917117
2014-09-08,1,0.0001942906094190442,0.00025443214402315985,-0.00898414210666748,0.010105518684193217,0.9913542315024957
2014-09-10,1,0.0009569181271982509,0.0011503069800629735,-0.009758110042507857,0.010105518684193217,0.9909711327177012
2014-09-12,1,0.001020820582711806,0.0011929354791204681,-0.012201056367345801,0.006195018989591008,0.9896990508746873
2014-09-16,1,0.0002659614298917955,0.0003046267091110232,-0.01280888053513949,0.006195018989591008,0.9893499276450279
2014-09-18,1,0.0007734824540039359,0.000843412917444784,-0.01285443429062468,0.001940412951805279,0.988508225048117
2014-09-22,1,0.000618451103243513,0.0006854590665391369,-0.01285443429062468,0.002009123839344367,0.9889554392183875
2014-09-24,1,0.00017244507020547004,0.00017379020419352873,-0.012847154095390396,0.006032614233021944,0.9877320540889916
2014-09-26,-1,-0.0003682092443176238,-0.0002692505171946231,-0.011819093191454919,0.006032614233021944,0.9882859259661454
2014-09-30,-1,-9.077633366811243e-05,-6.88987129828839e-05,-0.011819093191454919,0.009789913024458566,0.9868962732355769
2014-10-02,-1,-0.0002274108296888336,-0.0002215190526218063,-0.011284201083008087,0.01146106635555875,0.9869825177257222
2014-10-06,-1,-0.0011176624018973558,-0.000942104861352765,-0.011284201083008087,0.010439776057054716,0.9873271145444407
2014-10-08,-1,-0.0016743954877985277,-0.0014100665462614915,-0.006387121055835066,0.010336578398916281,0.9879781165929441
2014-10-10,-1,-0.00293531001566855,-0.002536018392459285,-0.003555477152945326,0.010336578398916281,0.9887081669197225
2014-10-14,-1,-0.0036149502346887476,-0.0031511359756384687,-0.0011793130867767542,0.010336578398916281,0.9890711707242665
2014-10-16,-1,-0.003941032652516953,-0.003445749928315917,-0.0011793130867767542,0.010336578398916281,0.9895235175743814
2014-10-20,-1,-0.003974900073524018,-0.003485835210047075,-0.002890904841617198,0.010336578398916281,0.9896973895527618
2014-10-22,-1,-0.0024619535152545055,-0.0021697624947750165,-0.002890904841617198,0.0073584073826200936,0.9916839672878011
2014-10-24,-1,-0.001745715550661664,-0.0015375669977475957,-0.002890904841617198,0.007443387285060534,0.9918738840564294
2014-10-28,1,0.00034495500426230235,0.0004570034922590793,-0.003801352488628366,0.006469022703896549,0.9932556259693831
2014-10-30,1,0.0007434295680487252,0.0009288093597386936,-0.005730916876281533,0.005919064066879043,0.9924310877570074
2014-11-03,1,0.0008875795894932007,0.0010541483473765823,-0.009076795668876474,0.005919064066879043,0.9910858388428958
2014-11-05,1,0.0011566090268257249,0.0013314550275816287,-0.009076795668876474,0.005919064066879043,0.991020526838445
2014-11-07,1,0.0017803569912166585,0.002085669499013995,-0.009076795668876474,0.005947390701025857,0.9897352839237328
2014-11-11,1,0.0018317382856065786,0.0021635658970608016,-0.010685641586329247,0.005947390701025857,0.9881929299163977
2014-11-13,1,0.0011546175674801977,0.0013602307733170662,-0.010685641586329247,0.005493871204056375,0.9882540538271968
2014-11-17,1,0.0008720566251677542,0.0010574525587237634,-0.010685641586329247,0.005493871204056375,0.9885476200211448
2014-11-19,1,0.0003864651181647804,0.0004835093850444497,-0.008170572647219848,0.010130705985917383,0.9868024948432995
2014-11-21,1,0.0009152170426983968,0.001071924907300111,-0.008190045182192704,0.007529314545540812,0.9867794846467831
2014-11-25,1,0.001042167496301652,0.0012512202432931319,-0.007377466140173072,0.010425209221277315,0.9869022801801962
2014-11-28,-1,-0.00011837545514372381,-5.8575834342368687e-05,-0.006290478723539544,0.010425209221277315,0.9884573628127922
2014-12-02,-1,-0.0006518618669297102,-0.0006484602562432623,-0.0056681341157412074,0.008049884900469031,0.990039286654686
2014-12-04,-1,-0.00041142053840888303,-0.00040519270360998925,-0.007377466140173072,0.005886061686787623,0.9885026692003519
2014-12-08,-1,-0.00019728304504663784,-0.00015958024540417033,-0.007476845637263634,0.005886061686787623,0.9876815485057622
2014-12-10,-1,-0.001639498205905764,-0.0014430095087325735,-0.007476845637263634,0.007439561805873018,0.9875194430966996
2014-12-12,-1,-0.0021062593940416553,-0.0018869100992181566,-0.009624719853645223,0.007439561805873018,0.9869273175809573
2014-12-16,-1,-0.001386426977626717,-0.0013322817942196504,-0.015774359204114182,0.007439561805873018,0.9858207876849919
2014-12-18,1,0.0004054515646369612,0.000521484704817115,-0.016066387341602588,0.005886061686787623,0.9868247965530148
2014-12-22,-1,-7.103944019452102e-05,-5.993478478418349e-05,-0.016066387341602588,0.006588083720722591,0.9858606843303926
2014-12-24,-1,-0.00012566964499959908,-7.871912842703465e-05,-0.01707425594011873,0.006588083720722591,0.9850149296262083
2014-12-29,1,3.565093722522791e-05,7.37988076067445e-05,-0.01741135946955111,0.004231467702396919,0.9828707372834733
2014-12-31,-1,-0.00038229975980299223,-0.0002963865599105485,-0.01741135946955111,0.010119622301089924,0.9820214982138677
2015-01-05,-1,-0.0024722627440752387,-0.0021268594505257396,-0.01707425594011873,0.012869739968310064,0.981797792879947
2015-01-07,-1,-0.003044425949496269,-0.0026671844323753763,-0.01707425594011873,0.014475313058929334,0.981545087457904
2015-01-09,-1,-0.003426962101025335,-0.0030244347548012184,-0.01650376834190754,0.015361186954626453,0.9823493125375365
2015-01-13,-1,-0.004368780542005823,-0.003875659372354657,-0.015884344360483475,0.015361186954626453,0.9835068516465411
2015-01-15,-1,-0.005035259666460903,-0.00449396691219245,-0.012903738153655916,0.018826142476188763,0.9825494172208149
2015-01-20,-1,-0.004917946751825349,-0.004406724993896274,-0.013049531820424232,0.018826142476188763,0.9823457788413547
2015-01-22,-1,-0.003058171094831796,-0.002764130377580977,-0.013049531820424232,0.015361186954626453,0.9835905326355902
2015-01-26,-1,-0.002979806962372803,-0.0027159212551097207,-0.011326253834795935,0.015361186954626453,0.9845451659693855
2015-01-28,-1,-0.005202657534713498,-0.004674627207432088,-0.005337283181905059,0.015361186954626453,0.9857777414808631
2015-01-30,-1,-0.004909888147109843,-0.00440500136537369,-0.0035638819498002546,0.014483315234179393,0.985528261289771
2015-02-03,-1,-0.00205838659108016,-0.0019133705950630368,-0.00430285615098349,0.01225605151079969,0.9888483704093803
2015-02-05,-1,-0.0008095346315323941,-0.0007766521152364896,-0.003318591563295457,0.010911011908691714,0.9913147398698018
2015-02-09,-1,-0.0011984635778361547,-0.0011540341480384677,-0.003318591563295457,0.009326241329849161,0.9906880673227388
2015-02-11,-1,-0.0008536101819799318,-0.000800948168530927,-0.0015796994698922086,0.01225605151079969,0.9884392833632846
2015-02-13,1,0.00011569070272074981,0.00027817565387596685,-0.003318591563295457,0.010911011908691714,0.9892486188179332
2015-02-18,-1,-0.000321392442948357,-0.00023293854919785622,-0.00347430810027349,0.009598929154495789,0.9902259204780035
2015-02-20,1,0.0003985709830748008,0.0005835416033266689,-0.004402358970882515,0.009598929154495789,0.9882036645949013
2015-02-24,1,0.00030731236064906846,0.00046589398898660555,-0.006407608504396812,0.009598929154495789,0.9878333761790719
2015-02-26,1,6.126424978581622e-05,0.00016023653498865636,-0.007110841560433001,0.010013084678034797,0.9863683606598086
2015-03-02,1,0.001068927597916418,0.0012991778458010111,-0.00865806991233754,0.009026932252963523,0.9858236396799601
2015-03-04,1,0.001156673763536652,0.0013903967462403886,-0.00865806991233754,0.007316227524748399,0.9861814555838029
2015-03-06,1,0.0005417357453977387,0.0006122712296239794,-0.008709050703710822,0.007373277044459295,0.9860701729793678
2015-03-10,-1,-0.0011687717179987857,-0.0009902227122433683,-0.007695274726640102,0.009961851802065477,0.9875603363984746
2015-03-12,1,0.0009048542140544124,0.0009666588269964552,-0.007695274726640102,0.007373277044459295,0.9889689053597359
2015-03-16,-1,-0.00030975820469470236,-0.0002004637677116523,-0.007638551351009489,0.009556067512165591,0.9894020492016403
2015-03-18,-1,-2.899169782677097e-05,-4.402608951438106e-06,-0.007602504799636864,0.01030679100905466,0.988769135465712
2015-03-20,1,0.0008440680773170856,0.0009690493201899646,-0.007602504799636864,0.009556067512165591,0.9907924951591195
2015-03-24,1,0.000852634399536839,0.001051476552469011,-0.007655544948133916,0.01030679100905466,0.9899297439799423
2015-03-26,1,0.000707962848372079,0.0008903724235562873,-0.007602504799636864,0.01030679100905466,0.9909159096130722
2015-03-30,1,0.001234394175782993,0.0015112384429879842,-0.007008047300639491,0.01030679100905466,0.9916457181370757
2015-04-01,1,0.0013653932204568142,0.0016879460195167286,-0.007008047300639491,0.011570291367879603,0.9912719141817738
2015-04-06,1,0.0016546348073033191,0.002029856482336472,-0.005463835704867439,0.012328289125946624,0.991252787357208
2015-04-08,1,0.0019261447174642647,0.0023341674687963783,-0.005463835704867439,0.012328289125946624,0.9913047125097209
2015-04-10,1,0.0018231122582306072,0.002200183139540332,-0.005463835704867439,0.012328289125946624,0.991579595341503
2015-04-14,1,0.0017908304493035794,0.0021428110786566837,-0.004513287436871699,0.008247303934374926,0.9922124324411704
2015-04-16,1,0.0020551756041095916,0.002426052045381666,-0.00395615155413536,0.0067766877998013415,0.9929285810453905
2015-04-20,1,0.0020647561581162693,0.002472231780199102,-0.00395615155413536,0.00977510659429939,0.9923154889464042
2015-04-22,1,0.002588648657258927,0.0030567627346300926,-0.00395615155413536,0.008456686564384745,0.9929604468250669
2015-04-24,1,0.0015889981994138503,0.001862786932427109,-0.002761263067256615,0.008456686564384745,0.9933097286272474
2015-04-28,1,0.0017636313693579347,0.002031664878744671,-0.0021522688616651612,0.008456686564384745,0.9935938293536518
2015-04-30,1,0.0023332675471670877,0.002692877347521292,-0.004065748164155761,0.0067766877998013415,0.9933222107293668
2015-05-04,1,0.0029145788192102362,0.003388225192488552,-0.005325825241194391,0.0067766877998013415,0.9902562083826157
2015-05-06,1,0.002058442044480533,0.00235158093873536,-0.005325825241194391,0.008456686564384745,0.9899310178240356
2015-05-08,1,0.001713672468074601,0.0019296028721349767,-0.0043494454959074145,0.00927474512539129,0.9888325672396983
2015-05-12,1,0.0017954115011907675,0.0020120810881997016,-0.0043494454959074145,0.011045903699751843,0.9883563843346208
2015-05-14,1,0.0026147720427644417,0.003023785197328567,-0.00564895498462138,0.011045903699751843,0.9876661019982758
2015-05-18,1,0.002600606844467758,0.002997600786051149,-0.0043494454959074145,0.00927474512539129,0.9889113495369898
2015-05-20,1,0.002591582497152704,0.0030069428622483026,-0.0043494454959074145,0.006580356217462777,0.9891889179571841
2015-05-22,1,0.002602400782466601,0.003030550089681101,-0.00564895498462138,0.011045903699751843,0.9880091927911134
2015-05-27,1,0.0027456291217859115,0.003174231101209118,-0.006923044720554406,0.010288049006982138,0.9878292414465374
2015-05-29,1,0.0015607113218538027,0.001763646096728116,-0.004774142074551757,0.010288049006982138,0.9882614786558707
2015-06-02,1,0.002489981108278559,0.002783637600748782,-0.004774142074551757,0.008856945695791187,0.9902651496782298
2015-06-04,1,0.001989094937093941,0.002189397775380213,-0.007574916385615567,0.0074080134792823375,0.9900507838673678
2015-06-08,1,0.0021143531290802008,0.002295635015848161,-0.011658109374372684,0.006707134675066241,0.990037729918206
2015-06-10,1,0.0021824284223654865,0.0023302142668672823,-0.014188816911108699,0.006707134675066241,0.9884322044438566
2015-06-12,1,0.0015947903708982685,0.0016484566254894983,-0.011658109374372684,0.008775646480404806,0.9880196976093631
2015-06-16,1,0.0021143783219270437,0.002298996729100974,-0.011658109374372684,0.009104785296628367,0.9874938062718898
2015-06-18,1,0.00181895993568671,0.0019518436138479674,-0.014389130013408313,0.009104785296628367,0.9863105863134142
2015-06-22,1,0.0011094213967065988,0.0011632227842310024,-0.010902072311568764,0.009104785296628367,0.9863748226086805
2015-06-24,1,0.0008047709062359229,0.0008852404081580507,-0.011507356009998209,0.009900642992254374,0.9859522125005432
2015-06-26,1,0.001585532080507435,0.0016696835878129371,-0.01379511274033505,0.009900642992254374,0.9852085625067072
2015-06-30,1,0.001240618869065672,0.0013086292540039602,-0.011410883395077977,0.009900642992254374,0.9866167131693345
2015-07-02,1,0.0009062400792241706,0.000912178025953681,-0.010043014119869586,0.009900642992254374,0.9870807093675158
2015-07-07,1,0.000100977221187336,0.00021343306879382693,-0.007915162191519257,0.009900642992254374,0.9880523157365728
2015-07-09,1,0.00019917242609831165,0.0002714825392472549,-0.007093673075624323,0.009900642992254374,0.9893783444641149
2015-07-13,1,0.00048586069051472717,0.0005385789446950159,-0.00785971887791372,0.008684996837231233,0.9890335824537866
2015-07-15,1,0.0010869323241125945,0.0011344516499862717,-0.010791612715093048,0.005301183285592327,0.9873565712427921
2015-07-17,-1,-0.00012716441789724402,-1.5994853140223096e-05,-0.009675963040197506,0.008706011817086032,0.9884355021310376
2015-07-21,1,0.0005697452171661433,0.0006023985936844756,-0.009675963040197506,0.007281891161155896,0.9894877513246743
2015-07-23,1,0.0007962524940150318,0.000824965980536548,-0.011840828085460029,0.005312779065246322,0.9876941330506961
2015-07-27,1,0.0005102288927106262,0.0005389747051204119,-0.017885121809758694,0.005312779065246322,0.9855001054645491
2015-07-29,1,0.0008265098468901651,0.0008563781429851747,-0.017885121809758694,0.005312779065246322,0.9829950169276142
2015-07-31,-1,-0.00018629797898237193,-4.6691942154371464e-05,-0.017885121809758694,0.008585278437030795,0.9817057598730118
2015-08-04,1,0.0004845736496202871,0.00050022992048506,-0.02196930332540757,0.008585278437030795,0.9797760103508075
2015-08-06,1,6.854296130190599e-05,0.00013523698805535677,-0.02196930332540757,0.011664673362421255,0.9793592980004756
2015-08-10,1,0.0005027232411177502,0.0005214565662233134,-0.02196930332540757,0.011664673362421255,0.979027856911404
2015-08-12,-1,-0.0003665902740723131,-0.00026409119704654124,-0.016970554373164286,0.011664673362421255,0.9803530673834993
2015-08-14,-1,-0.0004895819099533979,-0.0003426749044733562,-0.016970554373164286,0.009724908276694378,0.9807030232991707
2015-08-18,-1,-0.0005267844032996534,-0.00037699790996383633,-0.016970554373164286,0.015300682431720529,0.9796322251775205
2015-08-20,-1,-0.0018502309155799907,-0.0015436948786150039,-0.019225601015624344,0.015300682431720529,0.9797308889142489
2015-08-24,-1,-0.0028620598831375714,-0.002430927099052346,-0.013481916730664803,0.015300682431720529,0.9815918417418151
2015-08-26,-1,-0.001894867348105837,-0.0015912710265331743,-0.01076837325862485,0.01366716860764613,0.9842213793442329
2015-08-28,-1,-0.0013668170585010525,-0.0011264898442773996,-0.014146302980240912,0.01366716860764613,0.9840762706545267
2015-09-01,-1,-0.0023734953455672916,-0.0020093649018841243,-0.01076837325862485,0.01366716860764613,0.9858501514643847
2015-09-03,-1,-0.0016644164502900554,-0.0013866626504597157,-0.01076837325862485,0.010255349140677524,0.9872387563586554
2015-09-08,-1,-0.0013206265130609545,-0.0010965189044276741,-0.008552163905999742,0.010635763615437674,0.9877230079661825
2015-09-10,-1,-0.0014907292805409278,-0.001234901884877479,-0.00773365512528778,0.01366716860764613,0.9875553065376914
2015-09-14,-1,-0.0018272202656621794,-0.0015533266198264257,-0.008235432447699453,0.01366716860764613,0.9868370258741889
2015-09-16,-1,-0.0013392745120042494,-0.001097653862968259,-0.011454811398651713,0.006805624707727602,0.987512535815387
2015-09-18,-1,-0.0022251143295163563,-0.0019048794863305205,-0.004297250193838317,0.010635763615437674,0.9890309478864105
2015-09-22,-1,-0.0018551875047277148,-0.001592303509853404,-0.004297250193838317,0.011225285544681487,0.9890495918594802
2015-09-24,-1,-0.0017086906259566078,-0.00146935824689178,-0.007941307177328867,0.014585456353922492,0.987224306939679
2015-09-28,-1,-0.00223947401959313,-0.0019302459452942063,-0.004530324344547196,0.014585456353922492,0.9882302772460932
2015-09-30,-1,-0.0019155483536822991,-0.0016449033445923972,-0.007941307177328867,0.01599239107385241,0.9858109681710043
2015-10-02,-1,-0.0014810959467602288,-0.001268861571626428,-0.010434002575301686,0.01599239107385241,0.9848792836431065
2015-10-06,-1,-0.0013554341842041892,-0.001161374678944139,-0.010434002575301686,0.015166440547238555,0.9853399938981113
2015-10-08,-1,-0.0009195942972358277,-0.0007845539327351718,-0.010434002575301686,0.015166440547238555,0.9852002248880503
2015-10-12,-1,-0.0013724981452282988,-0.0011677623539466573,-0.008127820022650575,0.01599239107385241,0.984391174971207
2015-10-14,-1,-0.0020114122575757357,-0.0017291481291974642,-0.008127820022650575,0.01599239107385241,0.9847267669115809
2015-10-16,-1,-0.0014980320250922792,-0.0012949090901631984,-0.009742692131404117,0.015331473846525034,0.9841896704862931
2015-10-20,-1,-0.0013869784459952983,-0.0011706268215032703,-0.009742692131404117,0.014365150611480033,0.9848579323711252
2015-10-22,-1,-0.0010038890330606666,-0.0009154284974614425,-0.009632541171428071,0.015159175165399497,0.9857171626452927
2015-10-26,-1,-0.0005098676641750873,-0.0004730441084872307,-0.009632541171428071,0.009630437530360548,0.9869943536052779
2015-10-28,1,0.0012278203176222463,0.0014586186971846005,-0.008306636635499506,0.006035187100305167,0.990030937326981
2015-10-30,1,0.0003343101452275652,0.00048081720448885,-0.005634870205012363,0.006035187100305167,0.9908780352246899
2015-11-03,1,0.0002871450025055138,0.0004072201572348449,-0.006064745074228578,0.006035187100305167,0.9904888492814887
2015-11-05,1,0.0013778368837050383,0.00165793499240537,-0.009632541171428071,0.006035187100305167,0.9897013581583015
2015-11-09,1,0.0017309964107251237,0.00205852466864958,-0.011173824189278597,0.005114356237375271,0.9877384982305762
2015-11-11,1,0.0016943988384704738,0.002024786253108284,-0.011169890663869753,0.005114356237375271,0.9875200674281713
2015-11-13,1,0.0009346242094195343,0.0011488330951914959,-0.01510288560088377,0.005114356237375271,0.9870502535881155
2015-11-17,1,0.001321514061996949,0.0016079152623351052,-0.01510288560088377,0.01174998181928043,0.9851931896731505
2015-11-19,1,0.001244192919219574,0.001494307756104452,-0.01576151498679583,0.006444707473650152,0.9836796070028624
2015-11-23,1,0.0011244264559055923,0.0013562829172001148,-0.01576151498679583,0.011703737157379946,0.9832417036946666
2015-11-25,1,0.0009081154664242265,0.0010768206084985177,-0.01576151498679583,0.014614768493783058,0.982377184514619
2015-11-30,1,0.0008349760167408566,0.0009832298443099648,-0.01576151498679583,0.014614768493783058,0.982277068513071
2015-12-02,1,0.0010762650997680554,0.0012882499950920957,-0.01576151498679583,0.011703737157379946,0.9827764051608419
2015-12-04,1,0.0020394363570776083,0.002412958887924206,-0.017366744522900702,0.0073000841227626794,0.9828985858873772
2015-12-08,-1,-0.0006345017520185942,-0.0005902368129078939,-0.017366744522900702,0.0073000841227626794,0.9840059042207421
2015-12-10,1,0.00046860577337415967,0.0006238820413849867,-0.020341949131729865,0.004519212373282856,0.9833476296807785
2015-12-14,-1,-0.000608313662099177,-0.0005947415483978761,-0.020341949131729865,0.004519212373282856,0.9833237909123111
2015-12-16,1,0.0005037339520037647,0.0006455887994983497,-0.023277082337015056,0.002678662553950907,0.9836452171555193
2015-12-18,-1,-0.0007362227120493659,-0.00072759808757536,-0.021469518411907678,0.002678662553950907,0.9847942428755212
2015-12-22,-1,-0.00019536428558488396,-0.00013547064438677368,-0.021469518411907678,-0.0021168925445891346,0.9836026467245337
2015-12-24,0,-1.8174603149912155e-06,7.147182889470475e-05,-0.023277082337015056,-0.004816650619657456,0.9800578453883755
2015-12-29,1,0.00015171175822236723,0.00025480673305707934,-0.023277082337015056,-0.002018570031596393,0.9785218231132159
2015-12-31,1,0.00014752395818394434,0.0002956383909714163,-0.023277082337015056,0.007523555776646759,0.9779144602978491
2016-01-05,-1,-0.001272636325942507,-0.0011720957098955462,-0.028491010618810958,0.012603540852879989,0.9773133377743511
2016-01-07,-1,-0.002534511210454857,-0.0023128085587973907,-0.02029454600070116,0.01354447366768685,0.9788131830146787
2016-01-11,-1,-0.0033296927141450634,-0.0030280600966490004,-0.023134872943928946,0.01354447366768685,0.9780594886309748
2016-01-13,-1,-0.005223927379610239,-0.0046187814272389514,-0.023134872943928946,0.01354447366768685,0.978471324511567
2016-01-15,-1,-0.006406016070744902,-0.005596998475785913,-0.01964124619525813,0.02091794038751821,0.9753721403784683
2016-01-20,-1,-0.006731553601916801,-0.005933780457166986,-0.019149080892009018,0.02091794038751821,0.9758636790579804
2016-01-22,-1,-0.006373816074765367,-0.005670720198761315,-0.019149080892009018,0.02418114968250786,0.9747593713335291
2016-01-26,-1,-0.0074492836840592625,-0.0065649880002133934,-0.02083712970902382,0.018722958811676068,0.9764030421230463
2016-01-28,-1,-0.0057878147097245435,-0.0051539915144586754,-0.02083712970902382,0.024304784452892504,0.9760938504005336
2016-02-01,-1,-0.004952742620420162,-0.004435142994505139,-0.021750050876434123,0.025725737747580787,0.9745096882921447
2016-02-03,-1,-0.005131909122925442,-0.004598450097310211,-0.019757761123685963,0.027940643278701466,0.9739397198726985
2016-02-05,-1,-0.006317901838524468,-0.005623235746896593,-0.019757761123685963,0.03219979378857971,0.9728353168078413
2016-02-09,-1,-0.006050266972432473,-0.005451322508969147,-0.019757761123685963,0.03219979378857971,0.9737126047510211
2016-02-11,-1,-0.008335961469509103,-0.00738970955838414,-0.008030605287905265,0.032762559429962375,0.9714487911143298
2016-02-16,-1,-0.0050241074980227705,-0.004480597210491412,-0.008030605287905265,0.027940643278701466,0.9771243688392415
2016-02-18,-1,-0.005911943735621962,-0.005275742977025559,-0.0040641822824172835,0.027940643278701466,0.9765725900505546
2016-02-22,-1,-0.004210941557745804,-0.003759035046861616,-0.0040641822824172835,0.025725737747580787,0.9790407915319987
2016-02-24,-1,-0.005900624478677442,-0.005273450235035133,-0.0021843499522314147,0.025725737747580787,0.9802566781504503
2016-02-26,-1,-0.004214844941123483,-0.003798119138394267,-0.0040641822824172835,0.023418195355614783,0.9835159850653857
2016-03-01,-1,-0.002396505036488853,-0.0022257755897342095,-0.0040641822824172835,0.015074807365255708,0.9859221344236847
2016-03-03,-1,-0.00034121298845197313,-0.00022438122141652683,-0.005865088022171322,0.0081145121333752,0.9883201945136824
2016-03-07,1,0.0005626144832662028,0.0007848851894432321,-0.012136929692984076,0.007354215985602958,0.9889529184399403
2016-03-09,-1,-0.0010125237834810736,-0.0009899620670102477,-0.012136929692984076,0.0081145121333752,0.9888754976057187
2016-03-11,1,0.0010056355352055357,0.0012701979505382794,-0.012136929692984076,0.00747129450134527,0.99056084199675
2016-03-15,1,0.0012567809980796162,0.0015802747449009877,-0.012136929692984076,0.009013810728866055,0.9877494739585052
2016-03-17,1,0.0012007040879093715,0.0014875101144337123,-0.012136929692984076,0.01006526388454854,0.987644916748946
2016-03-21,1,0.0018428312643841511,0.002253596237474993,-0.012136929692984076,0.011071528488740986,0.987022592144706
2016-03-23,1,0.002012373314014099,0.0025313504567864285,-0.007993290374285228,0.012523383642025173,0.986668760735909
2016-03-28,1,0.0013022030847087821,0.0016589104681683407,-0.00300427473529489,0.015066228825666808,0.9861887539434648
2016-03-30,1,0.001516833706577297,0.0019144293419063238,-0.001585804398099622,0.01589525467411688,0.9868423395501206
2016-04-01,1,0.0017764221299615263,0.002271825070571197,-0.0013218481079548742,0.01589525467411688,0.9873020660667099
2016-04-05,1,0.0013708834966134394,0.0018504273409530312,-0.0009359913280834873,0.01589525467411688,0.9870204730845056
2016-04-07,1,0.001147390454080346,0.0015989545724400466,-0.0016548402983809192,0.01589525467411688,0.9871054612715074
2016-04-11,1,0.0013291503234369184,0.0017598669427784587,-0.0016548402983809192,0.01589525467411688,0.9876871993994566
2016-04-13,1,0.0037119231430140084,0.0044736709701687066,-0.0016548402983809192,0.010954196708093751,0.9895140310832473
2016-04-15,1,0.0037662066555778756,0.004552084484125175,-0.007733555810688615,0.0088376858274715,0.9882088591102964
2016-04-19,1,0.004855483567804084,0.005783783617945628,-0.007733555810688615,0.007874805636539896,0.9880552133528774
2016-04-21,1,0.005021703686948998,0.00597883168392088,-0.010277696430533004,0.007874805636539896,0.9866480042357341
2016-04-25,1,0.005922904708174531,0.00700352777221438,-0.010277696430533004,0.006531579145801598,0.9867597413712818
2016-04-27,1,0.006510449422205293,0.007668170662818169,-0.010277696430533004,0.0098807000496405,0.9858045587786602
2016-04-29,1,0.006383851708741704,0.007560947816273559,-0.010242981875240982,0.012098276267056968,0.9860086732094503
2016-05-03,1,0.0044169984942201545,0.0051933384930552655,-0.00616678863385027,0.013381206385819428,0.9872789250012729
2016-05-05,1,0.00375270628389941,0.004469974077718721,-0.00616678863385027,0.013381206385819428,0.9884756150066247
2016-05-09,1,0.0034634716543437485,0.00407263555196186,-0.00616678863385027,0.014393730798779683,0.9870437998931881
2016-05-11,1,0.004788574158850569,0.005660573715434224,-0.010191906765291081,0.013381206385819428,0.9873114741298251
2016-05-13,1,0.0031012284544142234,0.003646715479985573,-0.011561361919433315,0.013381206385819428,0.9867375450338787
2016-05-17,1,0.003922646021168406,0.004619315289360418,-0.012307065813255705,0.011921885221711647,0.9859955354539642
2016-05-19,1,0.004847740441218104,0.005687643268845709,-0.012307065813255705,0.010270549525209048,0.9874478525495909
2016-05-23,1,0.005144464779878599,0.006027751294595382,-0.012307065813255705,0.010270549525209048,0.9876573225895828
2016-05-25,1,0.005938879565101356,0.006893573452885406,-0.012307065813255705,0.00814099937973023,0.9867433603788387
2016-05-27,1,0.0048339138066238446,0.005575722080352466,-0.017144283119190758,0.006109990768839864,0.9796058165924924
2016-06-01,1,0.004346216641894847,0.004929494512621229,-0.017144283119190758,0.00814099937973023,0.9782225215003756
2016-06-03,1,0.003741890116969165,0.004195402916914049,-0.017144283119190758,0.006109990768839864,0.9786427770365114
2016-06-07,1,0.0031947903955902505,0.0035007805065861734,-0.019836231227589908,0.006109990768839864,0.9761962360675962
2016-06-09,1,0.0027406503331767382,0.0029450014887063307,-0.019836231227589908,0.014516109409977142,0.9757973202525119
2016-06-13,1,0.0008206782360550409,0.0009139331261893766,-0.010817900277283184,0.018996506224876107,0.9759648245963791
2016-06-15,0,-0.00013697903885499406,9.049663815564912e-05,-0.003846293750262025,0.019662546424679843,0.9760833703442129
2016-06-17,-1,-0.0006322686696192874,-0.0003328624003668685,-0.003198915790757864,0.019662546424679843,0.976910473370694
2016-06-21,0,-9.207006115810774e-07,0.00018540812645025367,-0.003198915790757864,0.019662546424679843,0.9771805457624103
2016-06-23,1,0.0017417778638549068,0.001783332664948133,-0.003198915790757864,0.017729311453333823,0.9791954166412538
2016-06-27,-1,-0.0035688548741186774,-0.002970392209193708,-0.00038115138006501406,0.017729311453333823,0.9845775171571245
2016-06-29,-1,-0.0021202149682878098,-0.0016492684055528749,-0.00038115138006501406,0.014516109409977142,0.9854969336750399
2016-07-01,-1,-0.002841688070538904,-0.00226472853827872,-0.0008739685071264464,0.014516109409977142,0.9846763464319781
2016-07-06,-1,-0.004736873108008939,-0.0038409113984148972,-0.0008739685071264464,0.014114861665008874,0.986470348949158
2016-07-08,-1,-0.0029332201838832483,-0.0023802208907315707,-0.0008739685071264464,0.01291786905518105,0.9863246498634345
2016-07-12,-1,-0.002584812815373436,-0.002016493256597502,-0.003055190023487052,0.011250752420885317,0.9881429141640993
2016-07-14,-1,-0.001515708614465591,-0.001146226148999102,-0.005335820668595845,0.009855322277666778,0.9886918385523985
2016-07-18,-1,-0.00296314301890775,-0.002334703606804013,-0.0050109293193323235,0.011250752420885317,0.9874600136116974
2016-07-20,-1,-0.0021391377434423486,-0.0016650092212896657,-0.0050109293193323235,0.011250752420885317,0.9877900001708515
2016-07-22,-1,-0.001241560018679931,-0.0009160260381151,-0.0050109293193323235,0.01166837959740719,0.9877704313680145
2016-07-26,-1,-0.00022660266700013287,-8.615010842636522e-05,-0.0050109293193323235,0.010497050774693322,0.9884038853589913
2016-07-28,1,0.0014959150577972854,0.0016071053357535163,-0.0050109293193323235,0.006234848245224262,0.9910967775636251
2016-08-01,-1,-0.000249016376341468,-7.641615434506369e-05,-0.0002649132803142955,0.009963507427357696,0.9913843664505642
2016-08-03,1,0.001050736365479956,0.0011138737176269319,0.0002619689794353033,0.00976443501393134,0.9922377919486728
2016-08-05,1,0.0022177675121770185,0.0024299960581118125,-0.0001634558488387246,0.009095059129951713,0.9941031459193799
2016-08-09,1,0.00175272645448347,0.0019074629037363622,-0.0001634558488387246,0.009095059129951713,0.9932238700021676
2016-08-11,1,0.0013716039669418824,0.001484422749457692,0.0002619689794353033,0.009095059129951713,0.9938308311329134
2016-08-15,1,0.0013780222118345274,0.0014530411893747112,0.0002619689794353033,0.009095059129951713,0.9932152299431585
2016-08-17,1,0.0010845852505762077,0.0011071471697526119,-0.0001634558488387246,0.010405442367914667,0.9923442515064113
2016-08-19,1,0.001471615864033759,0.0015387379133559227,-0.001467891472430006,0.00900917257077697,0.9923452255279225
2016-08-23,1,0.0011188310945687572,0.0011260894471570634,-0.0017300016770745814,0.00900917257077697,0.9920933624402561
2016-08-25,1,0.0007035328775738498,0.0008051628092288305,-0.0017300016770745814,0.010405442367914667,0.9914017713956639
2016-08-29,1,0.0007789425816615235,0.0009006415825248792,-0.0046681014014824575,0.010405442367914667,0.9907434042879952
2016-08-31,1,0.0014507929559753213,0.0014791201576986467,-0.007880818365756954,0.01046423683857935,0.990322487859548
2016-09-02,1,0.0025646243980920057,0.0027936443802558954,-0.007880818365756954,0.01046423683857935,0.9904157253158148
2016-09-07,1,0.002061056234849974,0.002213290068692749,-0.0046681014014824575,0.011199559168571276,0.9906425913918594
2016-09-09,1,0.0022388342710905375,0.0024622053887584047,-0.005035326708698417,0.011199559168571276,0.9907224577012287
2016-09-13,1,0.002040791762906356,0.0022446244005049627,-0.005035326708698417,0.01046423683857935,0.9914705283712194
2016-09-15,1,0.0024260952812616026,0.0027188380486075914,-0.005974026579491527,0.009977010405680949,0.9906695374240453
2016-09-19,1,0.0021392639636436195,0.0024218018033697578,-0.005001036453621306,0.011421539590489308,0.9904786946137963
2016-09-21,1,0.001998531623465927,0.002236537198472113,-0.005001036453621306,0.013649084660522639,0.9886451246040239
2016-09-23,1,0.0021412164259028677,0.002357019318764023,-0.005001036453621306,0.013649084660522639,0.9892547141310538
2016-09-27,1,0.0014503083262216402,0.0015177747198604928,-0.005001036453621306,0.013649084660522639,0.9899356927435621
2016-09-29,1,0.0013408546481276974,0.001398800779317224,-0.003256485591244738,0.010335246763263355,0.9908061200013292
2016-10-03,1,0.0019999256052988857,0.002172314151916931,-0.005001036453621306,0.007930969452964193,0.9911981276994234
2016-10-05,1,0.001968862432144657,0.0020880031738987424,-0.0073427615429983275,0.004285711377419573,0.9899785470061836
2016-10-07,1,0.0019942120890346993,0.0021313547618425385,-0.0073427615429983275,0.006851745131798299,0.9898487298164634
2016-10-11,1,0.0018216577469673022,0.0019725691011278795,-0.003857792598256102,0.0071603806557716445,0.989360956196712
2016-10-13,1,0.0011462845806395256,0.001211480015812282,0.0016355530663337602,0.016593217757201795,0.984678679659607
2016-10-17,1,0.001820942574073036,0.0020322105959969614,0.0023274930677065456,0.01957363811088655,0.9839961651761546
2016-10-19,1,0.003037630317818715,0.003404641735635089,0.0016355530663337602,0.008967583537072159,0.9844819929588973
2016-10-21,1,0.0030917039450467044,0.0034837470585682455,0.0016355530663337602,0.010585232393704392,0.9840173196405039
2016-10-25,1,0.002710395646509033,0.003041827416083536,0.0028027772717736867,0.010585232393704392,0.9842185380692552
2016-10-27,1,0.0029929538967614,0.0033793684519882773,0.0025680823590169335,0.01192714326174456,0.984059789586652
2016-10-31,1,0.002596567001237979,0.0029144422579445435,0.001990224923959887,0.01192714326174456,0.9834469108024109
2016-11-02,1,0.0009881937140071243,0.0010255185270642696,0.004266812670912901,0.018535653016072916,0.9822123205193194
2016-11-04,1,0.0010435879322780268,0.0010541069666256452,0.0029210012243157286,0.018535653016072916,0.9822263648180605
2016-11-08,1,0.001560828611389075,0.0016209833666582317,0.0029210012243157286,0.02006296227497172,0.9820467459189689
2016-11-10,1,0.004653951268856116,0.0051249411737154,0.0029210012243157286,0.012905070064001786,0.9886150676053675
2016-11-14,1,0.006749424194611704,0.0075607924448332815,-0.0014351529167458573,0.01192714326174456,0.989362660289011
2016-11-16,1,0.003554509946011523,0.0036283755075602418,-0.0005610360082117116,0.012905070064001786,0.9896905934329183
2016-11-18,1,0.004534286600121868,0.004837218091337294,-0.0015844834636384556,0.015671593500009958,0.9885046213510501
2016-11-22,1,0.004376595831442277,0.004631594977168139,-0.004567897431243697,0.016685027441195405,0.987067004497983
2016-11-25,1,0.0036014349389527174,0.0037093503590802795,-0.004567897431243697,0.016685027441195405,0.9874848853385455
2016-11-29,1,0.0030602416101066527,0.0031190617486466198,-0.004567897431243697,0.016685027441195405,0.9876024465674557
2016-12-01,1,0.004615076226298259,0.004920795447700599,-0.005775553233470439,0.010605061883899656,0.9886677448004773
2016-12-05,1,0.0044232872763846735,0.004706858141392583,-0.005775553233470439,0.014754116397204354,0.988735804797336
2016-12-07,1,0.005214615030854332,0.005574137113806705,-0.007442107991174842,0.008463117891140154,0.9890475674009113
2016-12-09,1,0.005371665820358915,0.005748900608619591,-0.010958087804442606,0.008463117891140154,0.9884913090100839
2016-12-13,1,0.004600724814566213,0.004885627986160704,-0.010958087804442606,0.009787910357639928,0.9888329961346042
2016-12-15,1,0.004714077450159983,0.005023717477476881,-0.012190258538644586,0.009787910357639928,0.986513699586484
2016-12-19,1,0.005265339531389116,0.0057102778244118935,-0.010958087804442606,0.009787910357639928,0.9873562226696164
2016-12-21,1,0.004886307847909454,0.0052151142438890755,-0.010958087804442606,0.006939596521215691,0.9885665001893337
2016-12-23,1,0.004702242306718699,0.005012635695769841,-0.010958087804442606,0.009787910357639928,0.9882154650475223
2016-12-28,1,0.0045720060130759205,0.004943432792794102,-0.008747917799660084,0.009787910357639928,0.988722285535255
2016-12-30,1,0.0040262700657533014,0.00429226067028175,-0.008747917799660084,0.009787910357639928,0.9880814778153131
2017-01-04,1,0.0038367108176069168,0.004041714749428816,-0.01218019967036368,0.006939596521215691,0.9875087224813731
2017-01-06,1,0.0032864564184688725,0.0034413206052998097,-0.008747917799660084,0.01004444456093261,0.9864503737518937
2017-01-10,1,0.0031419621964219554,0.003262439999798507,-0.009833651226978235,0.006865821113109879,0.9864879259523016
2017-01-12,1,0.002646711508123436,0.0027275051715127526,-0.007900683740799304,0.011529391725253916,0.9866300819737293
2017-01-17,1,0.0016113292732848037,0.0016717342833172093,-0.0049639761959293545,0.013008321128282312,0.9884139374983872
2017-01-19,1,0.0017964546479883325,0.0018344478978677384,-0.007900683740799304,0.010226421521980975,0.9887757325275911
2017-01-23,1,0.0017998278647460785,0.001823053756482345,-0.007900683740799304,0.010226421521980975,0.9885789142555612
2017-01-25,1,0.002343476688270485,0.002414053488034536,-0.007900683740799304,0.007233085129757223,0.9892334291870665
2017-01-27,1,0.0021291697140400053,0.002179001046168943,-0.006480676042105477,0.010226421521980975,0.9889438800518059
2017-01-31,1,0.001134356302355491,0.0012295985497264752,-0.005681973065953922,0.01192155742990349,0.9881724357185669
2017-02-02,1,0.00042719616378183393,0.0006024431227222148,-0.005681973065953922,0.01192155742990349,0.9871730928743874
2017-02-06,1,0.0008261161452850201,0.0009698350753276808,-0.004883432173529192,0.010226421521980975,0.9892048068161756
2017-02-08,1,0.00014317282439404696,0.00037096494231288364,-0.003669904559015001,0.010226421521980975,0.990143233586541
2017-02-10,1,0.000413730548501975,0.000644388255390674,-0.004883432173529192,0.006255526780699956,0.9911968376198665
2017-02-14,1,0.001164041936196892,0.0013083104754328014,-0.006560918660716305,0.0032240289888722925,0.9914709429045965
2017-02-16,1,0.0009189292241094246,0.0010745821139889712,-0.006560918660716305,0.0033477631727468838,0.991232594051432
2017-02-21,1,0.0005339878788727526,0.0007502845644451818,-0.010078261241703872,0.0020090452312573055,0.9885267937480368
2017-02-23,1,0.00019483838069662485,0.0004981295995128886,-0.010078261241703872,0.0029860663527528893,0.9886070364725333
2017-02-27,1,0.0003934156452124096,0.0006568845365630476,-0.010078261241703872,0.0010348429878100232,0.9892341232193218
2017-03-01,1,0.001302341868971265,0.0014423115220953786,-0.010078261241703872,0.0010348429878100232,0.9901766263386776
2017-03-03,1,0.0002672425338540741,0.0005391709870065676,-0.009084980929362968,0.0010348429878100232,0.9910967251308322
2017-03-07,-1,-0.000397402249805916,-1.5839586838451228e-05,-0.009084980929362968,0.0010348429878100232,0.9909686390433091
2017-03-09,-1,-0.0012813596166249609,-0.0007335227628213422,-0.010078261241703872,0.0029860663527528893,0.9899955563355826
2017-03-13,-1,-0.0016447695886881554,-0.0010538470127483207,-0.012250352872759255,0.001348922426902579,0.9898953149722374
2017-03-15,-1,-0.001797343813798153,-0.001246314472585464,-0.01315062831628058,0.001348922426902579,0.989909319835075
2017-03-17,-1,-0.0021852503733224174,-0.0015879846919385854,-0.013321696453301389,0.001348922426902579,0.9891456061956642
2017-03-21,-1,-0.0045285048875333914,-0.0036413054042707172,-0.00877470216520834,0.0038065370817553937,0.9913991399849508
2017-03-23,-1,-0.004510591727090627,-0.003632356210893198,-0.00877470216520834,0.005565025903912759,0.9902564945988398
2017-03-27,-1,-0.00457379264919858,-0.003692896349047463,-0.010277394651327683,0.011409535045805276,0.98749058075347
2017-03-29,-1,-0.00506609220899938,-0.004079116865704516,-0.013023130767763139,0.012481997501138004,0.9871514936058658
2017-03-31,-1,-0.00468507428050402,-0.0037522161749791593,-0.014318106459464646,0.011281910391236131,0.9874592828132105
2017-04-04,-1,-0.004675254928065747,-0.003773397627148441,-0.014318106459464646,0.012932536559921676,0.9862021616319995
2017-04-06,-1,-0.0026312009460926922,-0.00214361869453462,-0.01354758669531928,0.012932536559921676,0.9867974002277584
2017-04-10,-1,-0.0023603171355858618,-0.001960509315922782,-0.012802318737469289,0.012932536559921676,0.9866335849406321
2017-04-12,-1,-0.0034877831000606242,-0.002912630873279737,-0.012768116027146798,0.012932536559921676,0.9868710272757929
2017-04-17,-1,-0.0031447237649941786,-0.002633531272682079,-0.009689947537353492,0.011342438053028599,0.9878932765210612
2017-04-19,-1,-0.003225223288916196,-0.0027164053215363027,-0.012768116027146798,0.011342438053028599,0.9863467159153599
2017-04-21,-1,-0.002543013129443374,-0.0021250324723383275,-0.012768116027146798,0.012465112026009946,0.9863646998849852
2017-04-25,-1,-0.0030841618716888402,-0.002580906837497978,-0.00807193180948675,0.012465112026009946,0.987548112341121
2017-04-27,-1,-0.0021556390838281046,-0.0018248801605427185,-0.008212547741682973,0.011342438053028599,0.9881905406544597
2017-05-01,-1,-0.0022188550964169175,-0.0018828057840528686,-0.011186439597213946,0.010045909771575302,0.9885248033312544
2017-05-03,-1,-0.0013911899245138144,-0.001209164122305781,-0.007544706332842466,0.010045909771575302,0.9890179882020083
2017-05-05,-1,-0.0009351375479023033,-0.0008333485525882755,-0.010663306048222911,0.010045909771575302,0.9884147811681661
2017-05-09,-1,-0.0011108811433239104,-0.0009629360496911741,-0.010663306048222911,0.009161568385605888,0.9887832938479386
2017-05-11,-1,-0.0011716352405834003,-0.0010386929328576788,-0.007270738480713665,0.012268734773986554,0.9870651168246036
2017-05-15,-1,-0.0011554798794946016,-0.0010174834994234343,-0.006337029072520873,0.013337101520075216,0.9868310465865948
2017-05-17,-1,-0.0017012297943240157,-0.0015249789445705778,-0.005789270655219434,0.013337101520075216,0.9882701066178203
2017-05-19,-1,-0.00086943645683935,-0.0007981697205120914,-0.005789270655219434,0.009727935092290495,0.989354347176322
2017-05-23,-1,-0.00018331110349483262,-0.00017673465684797876,-0.009548495031093625,0.006943867102416158,0.9899587678578545
2017-05-25,-1,-0.0005799246584703426,-0.0005229030373859839,-0.008866546696053496,0.006943867102416158,0.9904781169502562
2017-05-30,-1,-0.0008926786904995369,-0.0008214047784997621,-0.005789270655219434,0.009177728267699197,0.9907752419511284
2017-06-01,-1,-0.0005283906870791849,-0.0004893379877462562,-0.005789270655219434,0.009860683660351918,0.9900532439007788
2017-06-05,-1,-0.00048303641394421934,-0.0004573563858253118,-0.002599770692797077,0.01106480960049298,0.9900378412611048
2017-06-07,-1,-0.0006562678543949479,-0.0005958816279801944,-0.003445868647446494,0.01106480960049298,0.9898039563625675
2017-06-09,1,0.00014388946368635636,0.00014397057122144552,-0.003445868647446494,0.007884254339761478,0.9916579514531072
2017-06-13,1,0.0006498839239883386,0.0007344541898781069,-0.008432428345393567,0.007884254339761478,0.9916225472067123
2017-06-15,1,0.0004806925708711031,0.0005426395794951942,-0.006853401277632385,0.007884254339761478,0.9915801983941435
2017-06-19,1,0.0009795541602097503,0.0011370930964011662,-0.008559760173076799,0.007884254339761478,0.9913291886685054
2017-06-21,1,0.0004002628402113642,0.0004762239610617908,-0.005953355279934909,0.007884254339761478,0.9922551980448182
2017-06-23,-1,-7.382891706090714e-05,-6.0262144287413824e-05,-0.005953355279934909,0.009860683660351918,0.9914850340030211
2017-06-27,1,0.00014747537656832697,0.0001493403086854494,-0.005953355279934909,0.010603949723326477,0.9907247760844153
2017-06-29,1,0.0013849530586318487,0.001589493339454567,-0.0063774083883138336,0.007301177261402581,0.9916517387876259
2017-07-03,1,0.0015752375594000022,0.0017756627037956753,-0.0063774083883138336,0.005526126945330329,0.9926020617219458
2017-07-06,1,0.0015958123821987254,0.001848414238132376,-0.005953355279934909,0.007301177261402581,0.9928472544596555
2017-07-10,1,0.0023518705042349813,0.002756808224636495,-0.0063774083883138336,0.007457489940188632,0.9921198158026826
2017-07-12,1,0.0023339525737995615,0.0027275408155352497,-0.0063774083883138336,0.00537786694600286,0.9923947575259607
2017-07-14,1,0.0023356333960086436,0.002729995510023034,-0.00752070802860683,0.0038552517912973172,0.9913749187192789
2017-07-18,1,0.0019664798221300773,0.002310469578423733,-0.006988710741924143,0.007457489940188632,0.9915282319186101
2017-07-20,1,0.001957839670901604,0.0023132315515916493,-0.00752070802860683,0.007457489940188632,0.9904092255341048
2017-07-24,1,0.003217780222699096,0.0038169113250552775,-0.00801731134497218,0.0041953141405299,0.9905931585370588
2017-07-26,1,0.003584225496564621,0.004181876675100466,-0.00801731134497218,0.0027717265910964482,0.990910407337537
2017-07-28,1,0.003265209483958323,0.0038155354676566,-0.00752070802860683,0.007280908716853266,0.9914313820719917
2017-08-01,1,0.0033824928598520897,0.003949727171867711,-0.00883802874946328,0.007280908716853266,0.9901662548371674
2017-08-03,1,0.0032730132444996844,0.0038134606421292485,-0.00883802874946328,0.004136453732751445,0.9903886592648684
2017-08-07,1,0.0031039469120099803,0.003582082397412323,-0.009884823779970277,0.004136453732751445,0.9890589049641019
2017-08-09,1,0.002653125024120577,0.00305818214635541,-0.010265168575387455,0.004136453732751445,0.9881245394872199
2017-08-11,1,0.000650833064822477,0.0006770485697824639,-0.00883802874946328,0.008186305765816282,0.9883115594145292
2017-08-15,1,0.001174157131137436,0.001272042573976604,-0.00883802874946328,0.008186305765816282,0.9883533688815707
2017-08-17,1,0.00043980061221105595,0.00044346868464037735,-0.008753829264840085,0.010266525244502646,0.9886582782648387
2017-08-21,1,0.00030279955275027207,0.000310113707422645,-0.007111376208667134,0.011261933516814647,0.9879233293333328
2017-08-23,1,0.0007168764643020382,0.0007848538796633869,-0.007111376208667134,0.014164656942149627,0.987601177956259
2017-08-25,1,0.0009842043708595467,0.0010745338024847786,-0.007111376208667134,0.014164656942149627,0.9878040350395921
2017-08-29,1,0.00041466411992024574,0.0004299598450530629,-0.00406123354514548,0.01467932397879205,0.987658027858335
2017-08-31,-1,-8.258472425903737e-05,-1.0227740711644143e-05,-0.003953684031022405,0.01467932397879205,0.987225635660143
2017-09-05,-1,-0.0009836872141791915,-0.0007809576158924211,-0.003953684031022405,0.014164656942149627,0.9889468106825038
2017-09-07,-1,-0.0018352797084090124,-0.0015416296475570489,0.00031112354117334047,0.014828035056567861,0.9888665290957408
2017-09-11,-1,-0.001000877615280687,-0.0007858859293861297,-0.005158287035190482,0.014164656942149627,0.9901934606851028
2017-09-13,-1,-0.0005089697458461058,-0.0003794948726891967,-0.005158287035190482,0.011310821176502511,0.9905128228051246
2017-09-15,-1,-0.0005402681166259711,-0.0003772087806265924,-0.005158287035190482,0.008994782453622209,0.991023188133356
