JNU-Tangyin/eata/results/Batch4_SP500/Batch4_SP500-AXP.csv
Date,Action,Predicted_Q25,Predicted_Q75,Actual_Q25,Actual_Q75,RL_Reward
2010-12-14,0,0.0,0.0,-0.008192589045259924,0.010029508709832108,0.9895383246158337
2010-12-16,0,0.0,0.0,-0.007203644801786411,0.01155595531978739,0.9893899553737693
2010-12-20,1,0.0021088027249440812,0.0025275800807660724,-0.006250287868657566,0.01155595531978739,0.9908646927376283
2010-12-22,1,0.001977427527580957,0.0023614923328789277,-0.002210649385967846,0.01155595531978739,0.9914165877524935
2010-12-27,1,0.001836819002751211,0.0021646912959413867,-0.006250287868657566,0.01155595531978739,0.9902712435205029
2010-12-29,1,0.0014190586579030861,0.0016633838599064911,-0.007059423228057337,0.01155595531978739,0.9901815939662421
2010-12-31,1,0.0017040801561629467,0.002012169320607825,-0.007759924324072702,0.01155595531978739,0.9896087331993079
2011-01-04,1,0.001688464912652342,0.0019098535293532864,-0.007759924324072702,0.003332117897260674,0.9903630181419643
2011-01-06,1,0.0019238170577978095,0.0021457705288810682,-0.007759924324072702,0.003332117897260674,0.9913319794503762
2011-01-10,1,0.0017263368102261108,0.0019259701359889447,-0.005321220428779564,0.00825793890256752,0.9897806816754801
2011-01-12,1,0.00164169740178926,0.0017834357400518274,-0.005321220428779564,0.009027934797532057,0.989355685629156
2011-01-14,0,0.0,0.0,-0.005587154540767851,0.005469074524111601,0.9900154967334994
2011-01-19,0,0.0,0.0,-0.0054632728335462875,0.008622906903548326,0.9902784673662538
2011-01-21,0,0.0,0.0,-0.007217644127845551,0.005469074524111601,0.9897041510542527
2011-01-25,0,0.0,0.0,-0.008427942402002155,0.005469074524111601,0.9887138347481158
2011-01-27,0,0.0,0.0,-0.008056297280337464,0.005469074524111601,0.9890041287594674
2011-01-31,1,0.000744595070062344,0.0007971003833669307,-0.005869115681599931,0.005469074524111601,0.9897973045609735
2011-02-02,0,0.0,0.0,-0.005869115681599931,0.008622906903548326,0.9885499939990269
2011-02-04,-1,-0.00039554975746163706,-0.00021211740256086144,-0.0077302264051345645,0.006525203750802691,0.9885824138481687
2011-02-08,1,0.0013237464264755504,0.0013658134261252133,-0.0077302264051345645,0.003038159644211618,0.9883744034582497
2011-02-10,1,0.0012586497783511875,0.001386335712371234,-0.010502840328515589,0.003038159644211618,0.9880933493805811
2011-02-14,0,0.0,0.0,-0.010502840328515589,0.00137981923274634,0.9881857754245601
2011-02-16,0,0.0,0.0,-0.014617315280533382,0.00137981923274634,0.9865890637869411
2011-02-18,1,0.0015177474656107616,0.001726647224117154,-0.010502840328515589,0.004023595598365475,0.9866837257677318
2011-02-23,-1,-9.04084213631372e-05,-5.448970951323472e-05,-0.006700686846847216,0.006950690591202236,0.9884862775910711
2011-02-25,0,0.0,0.0,-0.006700686846847216,0.010441887920786352,0.9880180818416143
2011-03-01,0,0.0,0.0,-0.004687145596912258,0.010441887920786352,0.9883196165817572
2011-03-03,-1,-0.0016645682208821537,-0.0013098087699457079,-0.006700686846847216,0.006950690591202236,0.988788720836041
2011-03-07,-1,-0.0015298310292657688,-0.0011963447907003878,-0.004687145596912258,0.006950690591202236,0.9890566810016501
2011-03-09,-1,-0.00044440877436455564,-0.00026767575141759404,-0.002685526791962769,0.006950690591202236,0.9902303572639513
2011-03-11,-1,-0.001288024816601019,-0.0009956966175303267,-0.0017965113499940814,0.006950690591202236,0.9911290116245429
2011-03-15,-1,-0.0018612927331259732,-0.0015238493086439653,-0.0003827629754771375,0.006950690591202236,0.9909402767703263
2011-03-17,-1,-0.0017769911058484302,-0.0014352265502173044,-0.0003827629754771375,0.00577998670917669,0.9933475274551454
2011-03-21,-1,-0.0010267768013062727,-0.0007811414938792462,-0.0017965113499940814,0.00577998670917669,0.9942040460469104
2011-03-23,0,0.0,0.0,-0.0017965113499940814,0.0062012816599176165,0.9942279919022904
2011-03-25,0,0.0,0.0,-0.0017965113499940814,0.004078732767803011,0.9946753337535528
2011-03-29,0,0.0,0.0,-0.0016034554820477831,0.0062012816599176165,0.994293557533523
2011-03-31,1,0.0003770666627541108,0.0003962697503321891,-0.00031841101949503807,0.008808456940343929,0.9939961866115224
2011-04-04,0,0.0,0.0,-0.00031841101949503807,0.011165677462374641,0.9932532728218395
2011-04-06,1,0.001390811116001576,0.0014999296317481968,-0.002850101387451667,0.008808456940343929,0.9942563333713197
2011-04-08,0,0.0,0.0,-0.0018606671752487741,0.011165677462374641,0.9933798674971016
2011-04-12,0,0.0,0.0,-0.0018606671752487741,0.011165677462374641,0.9935154436455349
2011-04-14,0,0.0,0.0,-0.0018606671752487741,0.011165677462374641,0.9934997215112501
2011-04-18,0,0.0,0.0,-0.0010753635245898997,0.011640138665681067,0.9928424114708857
2011-04-20,1,0.00041538565640946085,0.0004585864617804798,-0.0010753635245898997,0.011640138665681067,0.9929262452790176
2011-04-25,1,0.0005314625341356693,0.0005619583683421171,-0.0019310206087852942,0.011640138665681067,0.99239984870638
2011-04-27,1,0.0008486001685991179,0.0009043932048608228,-0.00371831015000883,0.011640138665681067,0.9921831717752978
2011-04-29,1,0.0014695752213732182,0.0016138170638760744,-0.00371831015000883,0.00956286429901648,0.9929613463687349
2011-05-03,1,0.004777975934321903,0.005430755860324246,-0.004460974758128875,0.008957494006643621,0.9911143209519119
2011-05-05,1,0.0046496999427114456,0.00531721572549456,-0.006059075475667619,0.008957494006643621,0.9909030661093913
2011-05-09,1,0.005089616900056055,0.005807290728459259,-0.007619190233082588,0.006652483677344016,0.9905447430758448
2011-05-11,1,0.0038300809172939236,0.0042827557747925305,-0.0103482203753152,0.006652483677344016,0.9905993630589387
2011-05-13,1,0.0022735323280263704,0.0023897083013853554,-0.011255299004885776,0.008957494006643621,0.9900996064221077
2011-05-17,1,0.0033324351021987095,0.0035996673096812103,-0.012170051921832634,0.005494623380233519,0.9897654013213275
2011-05-19,1,0.004114340740075051,0.004489912762167382,-0.012170051921832634,0.004925353353050509,0.989081801874169
2011-05-23,1,0.003179862596924519,0.0034104389340594865,-0.01126786208408212,0.008096119503350475,0.9896533797773629
2011-05-25,1,0.0023764387423836747,0.002495349408452217,-0.012365431793530302,0.008096119503350475,0.9896762759223374
2011-05-27,1,0.0033267139459055386,0.0036255634550100353,-0.01366856342023469,0.008174356204751026,0.9880453386774659
2011-06-01,1,0.0025383205451121496,0.00277292852677685,-0.012365431793530302,0.008494654477525412,0.9890479803211772
2011-06-03,1,0.001695418142220355,0.0017963496909105042,-0.010661513400428382,0.012711073668219944,0.9886971389939555
2011-06-07,1,0.0015114083260366934,0.001615172582465792,-0.0044511913448370315,0.012711073668219944,0.9888401061283938
2011-06-09,1,0.0015669501205966296,0.001747528904496881,-0.003825083897317238,0.014109799313842725,0.9886839290582444
2011-06-13,1,0.0009225979310783525,0.0009579248116339083,-0.003825083897317238,0.014109799313842725,0.9886558946239642
2011-06-15,1,0.0003698278393213336,0.0003732516048696987,-0.008866678269370586,0.014109799313842725,0.9884925158552542
2011-06-17,1,0.0007794509528871748,0.0007926430990916473,-0.009374286578776274,0.012711073668219944,0.9889393164232283
2011-06-21,1,0.0014536218579364129,0.0015070860527141938,-0.009374286578776274,0.010108210058385081,0.9894271234187754
2011-06-23,0,0.0,0.0,-0.008757003339181847,0.010149895659535625,0.9892586781852662
2011-06-27,0,0.0,0.0,-0.00832038464693785,0.009365142523852888,0.9907111364818226
2011-06-29,1,0.0013406165492529142,0.001373042867502918,-0.008757003339181847,0.008614577540823102,0.9909835679546942
2011-07-01,1,0.0038405225782031606,0.004260747300289365,-0.009374286578776274,0.006107507925392754,0.9907835384457784
2011-07-06,1,0.004351534555273838,0.004871795987954531,-0.00979973045693016,0.005805109465773821,0.9892060316119382
2011-07-08,1,0.0044012237487758695,0.004917850180836226,-0.010309761417552287,0.005805109465773821,0.9880223546064609
2011-07-12,1,0.0038563523188938536,0.004313677689599093,-0.010309761417552287,0.00723036917385974,0.9815124219763326
2011-07-14,0,0.0,0.0,-0.012850821452161699,0.008016661684337264,0.9773059248720423
2011-07-18,1,0.0001870057321288923,0.00025435226938120214,-0.012850821452161699,0.008262218278552688,0.9769804776260739
2011-07-20,0,0.0,0.0,-0.020506695972898354,0.008276113478936201,0.9756740922354113
2011-07-22,1,0.0004892665819960275,0.0005163065329291511,-0.023349243118085998,0.00723036917385974,0.9745042114132183
2011-07-26,0,0.0,0.0,-0.023349243118085998,0.011103735462057295,0.9731230446220562
2011-07-28,0,0.0,0.0,-0.022719616441417075,0.02094008792244225,0.972486838758367
2011-08-01,0,0.0,0.0,-0.022719616441417075,0.02094008792244225,0.9725310540354192
2011-08-03,0,0.0,0.0,-0.00806955078346541,0.02158581296861634,0.9731533939294784
2011-08-05,0,0.0,0.0,-0.008168371306620525,0.02158581296861634,0.9743394418112411
2011-08-09,-1,-0.0048042309967952414,-0.004126335831038326,-0.005487456644256138,0.02158581296861634,0.9785026466901491
2011-08-11,-1,-0.005796076418640725,-0.005059968507186189,-0.009071806405691649,0.020932557739545832,0.9819894786393436
2011-08-15,-1,-0.005199670152878061,-0.004556193804447373,-0.009071806405691649,0.01234783317895399,0.9823380561307387
2011-08-17,-1,-0.005191418718050953,-0.004564650203564643,-0.005419267026499157,0.01234783317895399,0.9823910628296894
2011-08-19,-1,-0.0048838710211995,-0.004315111145772432,-0.005419267026499157,0.01694235704370901,0.9822435733696547
2011-08-23,-1,-0.003764674263014361,-0.0033266250199717184,-0.009071806405691649,0.012939239758875473,0.9835226422290066
2011-08-25,-1,-0.0020044235137824133,-0.0017756532572947552,-0.01195728992132698,0.009983255030229274,0.9842300538739579
2011-08-29,-1,-0.002409391340144505,-0.002144454383076792,-0.012569387078498778,0.012939239758875473,0.9832501811836085
2011-08-31,-1,-0.0018725497692362993,-0.0016995685250489985,-0.0147175199463144,0.009983255030229274,0.983641566998888
2011-09-02,-1,-0.0020674980846939715,-0.0018580745040140108,-0.02301390302970246,0.009983255030229274,0.9814393505751582
2011-09-07,-1,-0.0025012486617533615,-0.0022203363506268555,-0.02301390302970246,0.007982158925202612,0.9837413427670135
2011-09-09,0,0.0,0.0,-0.021457977034624032,0.009983255030229274,0.9838501551321753
2011-09-13,0,0.0,0.0,-0.021457977034624032,0.012939239758875473,0.981905783409613
2011-09-15,0,0.0,0.0,-0.021457977034624032,0.012939239758875473,0.9813117861770984
2011-09-19,0,0.0,0.0,-0.021145679669956778,0.00814546372575846,0.982174668965625
2011-09-21,0,0.0,0.0,-0.01647757032959197,0.010989696364352517,0.9815418375305585
2011-09-23,0,0.0,0.0,-0.013438524473734155,0.023596844515409516,0.9808962409621732
2011-09-27,0,0.0,0.0,-0.013438524473734155,0.024561052440164467,0.9806002375417889
2011-09-29,0,0.0,0.0,-0.012557761614178785,0.028347111205373955,0.9789482421080575
2011-10-03,0,0.0,0.0,-0.01045760237619313,0.028347111205373955,0.9809363296728192
2011-10-05,0,0.0,0.0,-0.012557761614178785,0.028347111205373955,0.9781662681083807
2011-10-07,0,-0.0020576102955668567,0.0,-0.01045760237619313,0.028347111205373955,0.9794569790660581
2011-10-11,-1,-0.0006659313381640613,-0.0006324078202377433,-0.01045760237619313,0.027299644039714254,0.9809129591336718
2011-10-13,-1,-0.0006331221966568022,-0.0005996564082479152,-0.01045760237619313,0.027057368543071687,0.9809170387325787
2011-10-17,-1,-0.0008750527779540088,-0.0008705727836701996,-0.01045760237619313,0.027057368543071687,0.9799231961382585
2011-10-19,-1,-0.0003424384017470495,-0.00024342362147211595,-0.01207822056077654,0.026312658821502306,0.9800616721905978
2011-10-21,-1,-0.00033844713394303095,-0.00027502953163090606,-0.020800328622050168,0.022149996293729192,0.9808932327045621
2011-10-25,1,0.00026566786802386413,0.0003873801500628855,-0.020800328622050168,0.012793871908724766,0.9819808791507078
2011-10-27,0,0.0,0.0,-0.02177566338058474,0.002280674452093057,0.983414496691918
2011-10-31,0,0.0,0.0,-0.0185899158040505,0.005418602970612831,0.9832565444632795
2011-11-02,0,0.0,0.0,-0.017684796555875765,0.005418602970612831,0.9832313976686748
2011-11-04,-1,-0.002650018567453286,-0.002498990055402364,-0.017684796555875765,0.009432994436303431,0.9841621128820883
2011-11-08,0,0.0,0.0,-0.017684796555875765,0.010434336211136905,0.9833449730618589
2011-11-10,0,0.0,0.0,-0.017684796555875765,0.011641710369564658,0.9831399417105137
2011-11-14,0,0.0,0.0,-0.017780480038492995,0.010434336211136905,0.9838775580952279
2011-11-16,0,0.0,0.0,-0.014886941788422684,0.00975610734540295,0.9851466981694607
2011-11-18,0,0.0,0.0,-0.014886941788422684,0.010283107187564162,0.9854154214756673
2011-11-22,0,0.0,0.0,-0.01133513707615645,0.011641710369564658,0.9839119665518521
2011-11-25,0,0.0,0.0,-0.01010850355898129,0.011641710369564658,0.9844987850957475
2011-11-29,0,0.0,0.0,-0.01133513707615645,0.010283107187564162,0.9850766302861284
2011-12-01,-1,-0.0019512901237730108,-0.001618529669603278,-0.01133513707615645,0.010283107187564162,0.9874028529743624
2011-12-05,-1,-0.00168699435566447,-0.001361816634157775,-0.01133513707615645,0.010359584784478714,0.9871101091068203
2011-12-07,-1,-0.0010309082504457408,-0.0008056497659309936,-0.01165016537691443,0.010334331586812814,0.986669999179547
2011-12-09,-1,-0.0016026865626850386,-0.0013099055899910223,-0.010545602592333798,0.007516232299129261,0.9886164967656733
2011-12-13,-1,-0.002845737920953264,-0.002383272446198341,-0.007767329949921405,0.010334331586812814,0.9887465721996059
2011-12-15,-1,-0.0035802393536143373,-0.0030311117565384213,-0.006377331211724398,0.010334331586812814,0.9884592117041863
2011-12-19,-1,-0.0041456415549129535,-0.003478255322431198,-0.0038368214704001063,0.009835466807788285,0.9885609909823777
2011-12-21,-1,-0.002023297652587088,-0.0016121047422011708,-0.006377331211724398,0.008096304376507442,0.9905016995456686
2011-12-23,-1,-0.002160863583593223,-0.0016659834935967446,-0.006377331211724398,0.009835466807788285,0.9900427340395269
2011-12-28,-1,-0.0032507776587370517,-0.0026515935909774946,-0.0039022110123541924,0.009835466807788285,0.9905272002833586
2011-12-30,-1,-0.00256293008466276,-0.0021000768244036454,-0.0039022110123541924,0.009835466807788285,0.9898372778806586
2012-01-04,-1,-0.0031951743906585574,-0.0026034763035581296,-0.0039022110123541924,0.009846824175515105,0.9898672062461326
2012-01-06,-1,-0.0032211116544716917,-0.0026520345680962404,-0.0039022110123541924,0.009846824175515105,0.9894873940965551
2012-01-10,-1,-0.0031655832505066155,-0.0025890105409018373,-0.005290922398801777,0.009846824175515105,0.989458815140411
2012-01-12,-1,-0.0017179907967955646,-0.0013275181890085046,-0.008665672257185997,0.009846824175515105,0.9897076906387
2012-01-17,-1,-0.00043338594386421205,-0.00028475557013233927,-0.008665672257185997,0.009846824175515105,0.9899462577953035
2012-01-19,1,0.0003343231991613033,0.0003817489758806251,-0.008700922046357095,0.011244423181553312,0.9888707096855028
2012-01-23,1,0.0006587038592056403,0.0007631125887177491,-0.005290922398801777,0.011244423181553312,0.9903083442465157
2012-01-25,1,0.0021211140803281854,0.0024805657832520436,-0.004945578995586036,0.009846824175515105,0.9910294895153214
2012-01-27,1,0.0015208754449617856,0.001745572330385516,-0.0038101639251738473,0.012641811078506638,0.9903353581541858
2012-01-31,1,0.0038320444891913534,0.004289835595553126,-0.007919237501809588,0.011133534545692948,0.9906177991528758
2012-02-02,1,0.003150338018858248,0.003346474551429306,-0.008432776278221008,0.012612411500272648,0.9900733034714082
2012-02-06,1,0.00310697247460331,0.0035095647306540934,-0.008700922046357095,0.007765036434955336,0.9901295251515462
2012-02-08,1,0.003260733007072334,0.0037234232472688755,-0.007930987431533287,0.012612411500272648,0.990081668027333
2012-02-10,1,0.0037595494075624205,0.0042983839692876695,-0.007834659011532822,0.010815356655841768,0.9904911276857881
2012-02-14,1,0.0031187920263002784,0.003499275186598552,-0.007834659011532822,0.012895004036529028,0.9881460100816655
2012-02-16,1,0.0037074762977067346,0.004039441013615916,-0.004185904163403,0.012612411500272648,0.9891179472493262
2012-02-21,1,0.0034237632053302812,0.0037132096584011785,-0.006652511808396689,0.012763307604852394,0.9885652165530596
2012-02-23,1,0.0031511989640070374,0.0034005982428370585,-0.006652511808396689,0.012763307604852394,0.9889448130317621
2012-02-27,1,0.0028387352677838114,0.002888707739988162,-0.006652511808396689,0.012763307604852394,0.9886767920490409
2012-02-29,1,0.0018049099928842793,0.0018833116393645933,-0.0038194165818973367,0.012895004036529028,0.9889079612366659
2012-03-02,1,0.0008517353399095431,0.0010903140272914176,-0.0038194165818973367,0.012801432968229649,0.9888891253359867
2012-03-06,1,0.0008706085653023936,0.001049401807836472,-0.0012729670825943457,0.012801432968229649,0.9897455045685624
2012-03-08,1,0.0012323135712891571,0.00137547038224936,-0.0038194165818973367,0.012726338827101783,0.9893660193451163
2012-03-12,1,0.0003248108650162893,0.0006087470850610251,-0.006589725414685487,0.012726338827101783,0.9882274946430188
2012-03-14,0,-0.00013382914811906207,0.00018119508603465064,-0.006589725414685487,0.012726338827101783,0.9896779832537158
2012-03-16,1,0.0012856667858308162,0.001369444401878276,-0.008899235294208661,0.012726338827101783,0.9892202981294727
2012-03-20,1,0.0009738900228989768,0.0010942507702020137,-0.008899235294208661,0.010382609763978232,0.989727151446056
2012-03-22,1,0.002808374735115497,0.0029550966869883307,-0.009347026895718476,0.010382609763978232,0.9891545745413824
2012-03-26,1,0.0032400798790783937,0.0033717405012254277,-0.009347026895718476,0.0073134621928383735,0.9899284804124676
2012-03-28,1,0.003980294020726723,0.004257568731679957,-0.009347026895718476,0.010087265830742617,0.9896698390138349
2012-03-30,1,0.004147212263721171,0.004472438795585601,-0.003829207132408477,0.010185616784201835,0.9906518288178848
2012-04-03,1,0.004284028297474072,0.0046266321422735535,-0.003829207132408477,0.01181290862280824,0.9903001579839279
2012-04-05,1,0.003780307418603485,0.004020005118539935,-0.004358606604112093,0.010185616784201835,0.9905789746541908
2012-04-10,1,0.0036721390049445288,0.003910723869252282,-0.0025827811848629654,0.010185616784201835,0.9920547827904931
2012-04-12,1,0.003810720286145699,0.003994477592175631,-0.0032076757994312422,0.006939648787095664,0.9924699892919513
2012-04-16,1,0.002847118516468168,0.00286310668963561,-0.0032076757994312422,0.005569242708403206,0.9926283902735646
2012-04-18,1,0.0028235637160866573,0.002831870512257378,-0.007409347254089953,0.004128922922230315,0.9918987536266012
2012-04-20,1,0.00036668995143070816,0.0004650565210362437,-0.007438965312554002,0.004128922922230315,0.9915690786828841
2012-04-24,0,0.0,0.0,-0.007438965312554002,0.005210144155767868,0.991136585901821
2012-04-26,1,0.000992463368195843,0.0010520467485397472,-0.007438965312554002,0.0019096855513010501,0.9918634629126616
2012-04-30,1,0.0012144577643987944,0.0013180419853447759,-0.008514054774659588,0.0019096855513010501,0.9911091425473663
2012-05-02,0,0.0,0.0,-0.00942850318930671,0.001191862677552839,0.9909286902629391
2012-05-04,0,0.0,0.0,-0.00942850318930671,0.002048556211417473,0.9895125494399337
2012-05-08,0,0.0,0.0,-0.00942850318930671,0.006625879943122925,0.9879862412019806
2012-05-10,0,0.0,0.0,-0.00942850318930671,0.007199500442801878,0.9876984127298877
2012-05-14,0,0.0,0.0,-0.00942850318930671,0.009393503851423849,0.9869920212629507
2012-05-16,0,0.0,0.0,-0.010456731860315508,0.009393503851423849,0.9866204266855583
2012-05-18,0,0.0,0.0,-0.00808206864083744,0.011777411311071689,0.986855442137962
2012-05-22,0,0.0,0.0,-0.00808206864083744,0.011777411311071689,0.9863125213824937
2012-05-24,-1,-0.0010863781348756977,-0.0007838506659279666,-0.010456731860315508,0.011777411311071689,0.9856632037780965
2012-05-29,-1,-0.0005356719714826905,-0.0003453993905153732,-0.013174239409179693,0.009393503851423849,0.9860867241001792
2012-05-31,-1,-0.0008609979861046754,-0.0006454930536195412,-0.008987904490458835,0.011848561428585456,0.9865095935729098
2012-06-04,-1,-0.0013218657068344113,-0.0010531752360801669,-0.004415400198306426,0.01570202617381875,0.9864982126747511
2012-06-06,1,9.13137372041696e-05,0.00019153258818270367,-0.004415400198306426,0.013899917289769949,0.9879598039643354
2012-06-08,1,0.00010501754454348832,0.00020126593270088577,-0.008346310625090394,0.013899917289769949,0.9879217942669135
2012-06-12,-1,-0.00016356355330866997,-3.6049211983447526e-05,-0.005891908681328822,0.010016643039821636,0.9895600048812193
2012-06-14,-1,-0.001599416409492912,-0.0012041614435829324,-0.005891908681328822,0.013899917289769949,0.9889946724995476
2012-06-18,-1,-0.0005165652083053931,-0.00026480432967812073,-0.004141546105595149,0.012622879536850535,0.9898126266327278
2012-06-20,0,-4.1821912302181545e-05,0.00016214747108909597,-0.007600683998205557,0.009322932973775658,0.989159090280809
2012-06-22,1,4.7096284407524927e-05,0.00023286654451653416,-0.006851977230470808,0.007636442928696861,0.9900528716508991
2012-06-26,-1,-0.00021473482595387383,-9.953770467497898e-06,-0.005643366472367209,0.008726426415688906,0.9903449712345742
2012-06-28,1,0.00020713643776851628,0.00033393654763590614,-0.005643366472367209,0.01252487484027222,0.9889486178442429
2012-07-02,1,0.00011686061448865483,0.00031053607353076474,-0.006851977230470808,0.006459866609739981,0.990269973868846
2012-07-05,1,0.0001637194724147474,0.00035050154776652823,-0.008089537445367482,0.002399070419097203,0.9896126562905511
2012-07-09,-1,-0.0006515750964338818,-0.000370295615785242,-0.007815134126894097,0.008726426415688906,0.9891972814919104
2012-07-11,-1,-0.0006099385366937659,-0.00036907637751979123,-0.007815134126894097,0.010156870672707586,0.9886803212639406
2012-07-13,-1,-0.0008744047035683515,-0.0005974638654776029,-0.009127070057359635,0.008026664849071587,0.9888647833621143
2012-07-17,0,0.0,0.0,-0.009127070057359635,0.005647569081623976,0.9889279445621139
2012-07-19,-1,-0.0012214188598620676,-0.0010143653121296734,-0.007815134126894097,0.009678414913644224,0.9900575578885288
2012-07-23,0,0.0,0.0,-0.009127070057359635,0.009678414913644224,0.9895248873092118
2012-07-25,-1,-0.001930149874956509,-0.0015811286715538444,-0.009127070057359635,0.009678414913644224,0.9896273288061224
2012-07-27,-1,-0.0010464937174290328,-0.0007590368202115661,-0.009127070057359635,0.006124383833963536,0.9906434022882263
2012-07-31,-1,-0.0011890060463771238,-0.0009174666565802456,-0.00749301789944283,0.006124383833963536,0.9910409438294243
2012-08-02,-1,-0.002065621633963345,-0.0016831829013057163,-0.005714296323791302,0.006124383833963536,0.9916561159560194
2012-08-06,-1,-0.0004903397676806452,-0.0003925023856884552,-0.004583528158596192,0.0063522881343419935,0.9918109735452978
2012-08-08,1,8.526135195951933e-05,0.00010505907188568896,-0.005714296323791302,0.005089443510047444,0.9911296571727283
2012-08-10,-1,-0.00096968045517597,-0.0008364473658693832,-0.0038166766428400015,0.005381494988087385,0.9924054479705079
2012-08-14,-1,-0.0006968460176903929,-0.0006061635130359549,-0.004525847975821179,0.005381494988087385,0.9924197241902447
2012-08-16,1,0.0004435349351520892,0.0005348060729336189,-0.004525847975821179,0.004244547552882226,0.9919449448368762
2012-08-20,1,0.0003254296510551417,0.00041439120352558463,-0.004525847975821179,0.004244547552882226,0.9921755718361945
2012-08-22,-1,-2.6247725913138872e-05,-2.005018228455245e-05,-0.004525847975821179,0.004214472806592841,0.9923066913212747
2012-08-24,1,0.0004970083859843204,0.0005898668840123244,-0.004525847975821179,0.0037559696593591563,0.9929566406684376
2012-08-28,1,0.00045761602910210613,0.0005364833420439309,-0.006275390900911979,0.0037559696593591563,0.9917735140248307
2012-08-30,-1,-0.0004003495924222241,-0.0003138589424651306,-0.006275390900911979,0.005174143171783593,0.9916327594370923
2012-09-04,1,0.0009884006355075359,0.0011352224037676777,-0.008325170527028025,0.004166737927045405,0.9914252288201656
2012-09-06,1,0.00029012103251676257,0.00033782048279105406,-0.006275390900911979,0.005238290349445077,0.9919545262033932
2012-09-10,0,0.0,0.0,-0.006275390900911979,0.004611498530999365,0.992035583067453
2012-09-12,0,0.0,0.0,-0.008325170527028025,0.004611498530999365,0.9916049226672985
2012-09-14,0,0.0,0.0,-0.008804251902760338,0.004611498530999365,0.9924050583504929
2012-09-18,0,0.0,0.0,-0.008511610101290203,0.00575966331683799,0.991760160506107
2012-09-20,0,0.0,0.0,-0.009404451923004365,0.007900858982611956,0.9899614255477851
2012-09-24,0,0.0,0.0,-0.009610461352210232,0.007900858982611956,0.9897841932045456
2012-09-26,0,0.0,0.0,-0.009610461352210232,0.007900858982611956,0.9897849240786806
2012-09-28,-1,-0.0007377819653079362,-0.0006501790702555121,-0.009610461352210232,0.006350029315305653,0.9899962874804967
2012-10-02,-1,-0.0005074431007831904,-0.000446116482479063,-0.0063518112849019264,0.006350029315305653,0.9901885375733734
2012-10-04,-1,-0.00045297050890938894,-0.00036005878779730917,-0.007093932645828489,0.004727810333165763,0.9908855479857605
2012-10-08,0,0.0,0.0,-0.00987533047368211,0.006350029315305653,0.9890656131929804
2012-10-10,0,0.0,0.0,-0.007108705156800207,0.006350029315305653,0.9895283961158053
2012-10-12,1,0.00023456858340827966,0.0002591650384079459,-0.007883436411764732,0.0050426283877794366,0.9894404905042552
2012-10-16,1,0.0001908207121340067,0.00019247718880965395,-0.013276172082817781,0.004174562515138515,0.9895749770613544
2012-10-18,1,0.00020104260219104897,0.00020732401325986144,-0.007883436411764732,0.0050426283877794366,0.9902224703183461
2012-10-22,-1,-0.0007507419083698503,-0.0006295176074456092,-0.00570737709045838,0.007045457510778983,0.9902972119452477
2012-10-24,0,0.0,0.0,-0.00570737709045838,0.009952449856576666,0.9904689620050434
2012-10-26,0,0.0,0.0,-0.008141035468127148,0.01163120961896399,0.9888672592874702
2012-11-01,-1,-0.0005127144274786357,-0.00041305087401722804,-0.008141035468127148,0.009952449856576666,0.989480204586909
2012-11-05,-1,-0.0006224933023450278,-0.0005335828981844451,-0.007676688351717673,0.009952449856576666,0.9896061820604681
2012-11-07,-1,-0.0017999361694962766,-0.001520723682756772,-0.005111587328766447,0.00960790343673528,0.9907527857315892
2012-11-09,-1,-0.0014033499213961238,-0.0011897685823445553,-0.005111587328766447,0.00960790343673528,0.9905088846961284
2012-11-13,-1,-0.0015170619212007987,-0.0013384752883517487,-0.0009379645795579141,0.010194119598785982,0.9903281102815745
2012-11-15,-1,-0.002210813395425246,-0.0019331567689484146,-0.0009379645795579141,0.010194119598785982,0.9900663698407028
2012-11-19,-1,-0.001455221191789303,-0.0012492356621909915,-0.0009379645795579141,0.009709883355575053,0.99082737241939
2012-11-21,-1,-0.0008272436510056552,-0.0007174643068832008,-0.003250453968433606,0.009709883355575053,0.9904195189452781
2012-11-26,-1,-0.00022198313584166206,-0.0001951737682283035,-0.00223094978067675,0.009709883355575053,0.9914525182908603
2012-11-28,1,5.541442850621705e-05,0.0001264700814195369,-0.003250453968433606,0.008949394755632738,0.9929056278611059
2012-11-30,-1,-0.00021012184642673544,-0.000199566542336185,-0.003250453968433606,0.009709883355575053,0.9924771121765984
2012-12-04,-1,-0.0002382554085971187,-0.00023780114806709813,-0.002802326746392648,0.010194119598785982,0.99135684592963
2012-12-06,0,0.0,0.0,-0.0007849965032276399,0.01042685624984402,0.9914494411318435
2012-12-10,0,0.0,0.0,-0.0007849965032276399,0.01042685624984402,0.9916720266714235
2012-12-12,1,0.0003174015855155298,0.0003272306431059418,-0.0007849965032276399,0.009787462239261066,0.9918009026729323
2012-12-14,0,0.0,0.0,-0.000887832191887936,0.009787462239261066,0.9922387158676648
2012-12-18,0,0.0,0.0,-0.0021372149009480134,0.007750725313227446,0.9930400016150863
2012-12-20,1,0.0008648769379170599,0.0010327164454690411,-0.003317251913360148,0.006110578165627472,0.9935352932342758
2012-12-24,1,0.0005065711145862311,0.0005926294320418332,-0.006505660027758453,0.006559599571409586,0.9930713322414916
2012-12-27,-1,-0.00011941665348502083,-8.944270844586107e-05,-0.003317251913360148,0.006559599571409586,0.9931672089435473
2012-12-31,1,0.0005284081740367187,0.0005918473318872027,-0.003317251913360148,0.0063172290474836825,0.9936207054592291
2013-01-03,1,0.0013852106137383323,0.0015943681579719798,-0.006574170372851044,0.0063172290474836825,0.9936303069113847
2013-01-07,1,0.0011953306302881098,0.0013110299835882183,-0.00725811003548911,0.0063172290474836825,0.9927250135837631
2013-01-09,1,0.0012253246881609632,0.0013449321482836298,-0.00725811003548911,0.006675434178546685,0.9915891336753242
2013-01-11,1,0.0022593402763736743,0.0025624076764170015,-0.00725811003548911,0.0040991750210197415,0.9916645786589746
2013-01-15,1,0.0017519383134648142,0.0019642112078356163,-0.006574170372851044,0.0042318182492881926,0.992096642053419
2013-01-17,1,0.0015435977401040781,0.0017257053477178143,-0.007398291478920004,0.004468225445140437,0.9916108910177154
2013-01-22,1,0.001173436248485839,0.0013370278828842878,-0.00626239520370689,0.0063172290474836825,0.9920904991494027
2013-01-24,1,0.0010183302093742254,0.0011537475769995112,-0.005949771267902175,0.00721578560659208,0.9916566898222029
2013-01-28,1,0.0007803118822299838,0.0008696400951388272,-0.005949771267902175,0.00721578560659208,0.9915609432926599
2013-01-30,1,0.0012701775416934977,0.0014708506463580245,-0.005949771267902175,0.009416204050293333,0.9912441551468417
2013-02-01,0,0.0,0.0,-0.005685205433579818,0.008594750592927925,0.9920427140788296
2013-02-05,0,0.0,0.0,-0.005503632727279037,0.008594750592927925,0.9921195986307886
2013-02-07,0,0.0,0.0,-0.005503632727279037,0.008283636530995233,0.9933109302939902
2013-02-11,0,0.0,0.0,-0.003804563566018607,0.008594750592927925,0.9929565101768358
2013-02-13,0,0.0,0.0,-0.003804563566018607,0.008594750592927925,0.993142846923929
2013-02-15,0,0.0,0.0,-0.003577203864461637,0.009416204050293333,0.9930807791537102
2013-02-20,0,0.0,0.0,-0.003577203864461637,0.009740110320103417,0.9926995316487737
2013-02-22,0,0.0,0.0,-0.003577203864461637,0.009740110320103417,0.9927680614639908
2013-02-26,1,0.20614528268429969,0.21049695197778712,-0.002160660315860357,0.011235884452261098,0.8304207633615448
2013-02-28,1,0.0024867078798043564,0.0027605580978649867,-0.001497175223788942,0.011235884452261098,0.993381063445932
2013-03-04,0,0.0,0.0,-0.0021003057517262618,0.011235884452261098,0.9930499361735271
2013-03-06,0,0.0,0.0,-0.003025029200310024,0.008148894402609339,0.9930513389194242
2013-03-08,0,0.0,0.0,-0.003577203864461637,0.008148894402609339,0.9919449741463572
2013-03-12,0,0.0,0.0,-0.0049660628830171145,0.006048590796933267,0.9922903821196712
2013-03-14,0,0.0,0.0,-0.0049660628830171145,0.006048590796933267,0.992057414421006
2013-03-18,0,0.0,0.0,-0.0065793155079267645,0.006048590796933267,0.9912633162614194
2013-03-20,1,0.002720846894042276,0.0030081783109928333,-0.006124938823771053,0.006048590796933267,0.9914949026403637
2013-03-22,1,0.00225322275914065,0.0024301424688698103,-0.006124938823771053,0.006048590796933267,0.9904122090259051
2013-03-26,1,0.0027145617475970866,0.0029632307682404798,-0.006124938823771053,0.006048590796933267,0.9907200676686582
2013-03-28,1,0.0030366056834584144,0.0033607745948712694,-0.006124938823771053,0.007345068424090722,0.9901742903629014
2013-04-02,1,0.002793537490164046,0.003064559705273901,-0.006124938823771053,0.008365951073228926,0.9899436989201124
2013-04-04,1,0.002005262912576246,0.0021357873838505734,-0.005631309447696795,0.010781599412515093,0.9903688396353875
2013-04-08,1,0.0013869693341009817,0.001431911325621192,-0.0032099083617996276,0.011612849752611848,0.990881624677241
2013-04-10,1,0.0006931812569592858,0.0007738694640665138,-0.0020304587889780922,0.011612849752611848,0.9912166240492345
2013-04-12,1,0.0002148699826020889,0.0003884824207239079,-0.0020304587889780922,0.011612849752611848,0.9913324344023453
2013-04-16,0,-5.252175742267442e-06,0.00015308920462989828,-0.0020304587889780922,0.011951177244013554,0.9914678773758498
2013-04-18,1,0.00030758055044618945,0.0004134911192793107,-0.0020304587889780922,0.011951177244013554,0.9912439616509245
2013-04-22,1,0.001051849210407823,0.0010846727873100117,-0.001863756309772143,0.012871087279698852,0.9919250634476476
2013-04-24,1,0.0011996760350873172,0.0012194754864436315,-0.0020304587889780922,0.012871087279698852,0.9916150066407695
2013-04-26,1,0.0012449131219535075,0.0012553761080899767,-0.001863756309772143,0.012871087279698852,0.9919782560447145
2013-04-30,1,0.0013625984158331544,0.0013687436120112858,-0.0020304587889780922,0.012871087279698852,0.9918470814115419
2013-05-02,1,0.002130393112687975,0.0022275823541374447,-0.0028500605144268472,0.011931009696395965,0.992381075822049
2013-05-06,1,0.0023950230065785576,0.0025412986222019983,-0.004186857364127763,0.010484797715692436,0.9923989051349262
2013-05-08,1,0.0025443970090997282,0.0027287768486765466,-0.004590162147443057,0.012550639248143553,0.9906989209904813
2013-05-10,1,0.0019497455789846854,0.002007059328024081,-0.004590162147443057,0.01482013973617222,0.9898072409886222
2013-05-14,1,0.0025986378774021917,0.0027793834076700217,-0.006124861234715765,0.012550639248143553,0.9889722463314925
2013-05-16,1,0.0028388795542758963,0.003022716278083504,-0.0064656780995314056,0.010484797715692436,0.9884821856612486
2013-05-20,1,0.003473666556089968,0.0037386769246769425,-0.0064656780995314056,0.010484797715692436,0.9887038024629268
2013-05-22,1,0.00311143004409321,0.0032981469450287693,-0.011774927702504169,0.010484797715692436,0.9878868517868797
2013-05-24,1,0.0033247621515974483,0.003562122224032637,-0.017230762606126312,0.010484797715692436,0.9869929281189995
2013-05-29,1,0.0034249857380244933,0.003699707602968421,-0.017230762606126312,0.010509409506068658,0.9868648927425733
2013-05-31,1,0.0034309754062730705,0.0037295676338270876,-0.017230762606126312,0.012801701232712615,0.986314247545987
2013-06-04,1,0.003444984581542777,0.003755160241346126,-0.017230762606126312,0.012801701232712615,0.9858410073614496
2013-06-06,1,0.0032810725935336926,0.0035714310458816395,-0.01452564334463178,0.012801701232712615,0.9864705651282911
2013-06-10,1,0.003696374526118036,0.004013174864921372,-0.01452564334463178,0.011808882806874477,0.9870315921505074
2013-06-12,1,0.0020221046229947862,0.0021121889965410165,-0.010873221282005992,0.011808882806874477,0.9879916689103515
2013-06-14,1,0.0004060307596817508,0.0005534761500959895,-0.007096639020096217,0.012801701232712615,0.9883030114723064
2013-06-18,1,0.0011868698393542386,0.0012464759915444623,-0.010873221282005992,0.010117456304881076,0.9884412893299532
2013-06-20,1,0.00016955901484901666,0.00036122835672221644,-0.007967193371964687,0.010117456304881076,0.9879818592871414
2013-06-24,-1,-0.00036353523499943626,-0.00010909040706897006,-0.005126245926148877,0.010117456304881076,0.988404117444019
2013-06-26,1,0.0006105128474999258,0.000746485564026363,-0.005126245926148877,0.010117456304881076,0.9889097403902769
2013-06-28,1,0.0007576829332645505,0.0008629359860724171,-0.005788295938315383,0.009075379035811683,0.9894126850940169
2013-07-02,1,0.0006764899949518613,0.0007788603803331136,-0.005788295938315383,0.00822165311001173,0.9896382800132211
2013-07-05,1,0.0009704731906175293,0.0010506641276970892,-0.005788295938315383,0.00822165311001173,0.9895931812936107
2013-07-09,1,0.0013235927721197789,0.00136709828428334,-0.005788295938315383,0.006078280286083515,0.9900405472554301
2013-07-11,1,0.0006128011993840634,0.000753844938867479,-0.005788295938315383,0.006308310237200138,0.9902271935925768
2013-07-15,1,0.0009130018297411554,0.0010175239761543763,-0.006465770254683176,0.005406350045774814,0.990830720662485
2013-07-17,1,0.0008105199085380571,0.0009014637251019365,-0.004862354461416425,0.006308310237200138,0.9913258538937841
2013-07-19,-1,-0.0006707090461609112,-0.00038788686761075857,-0.004862354461416425,0.006308310237200138,0.9923919236349291
2013-07-23,-1,-0.0005813352080200961,-0.00031122965554988564,-0.006465770254683176,0.004264781544504872,0.99249198186498
2013-07-25,0,-4.5234917495032864e-05,0.00014176784810161628,-0.008892479825509055,0.0033463189440442946,0.9924871423395472
2013-07-29,-1,-0.0002149060905511542,-3.5796544036738234e-05,-0.008892479825509055,0.0033463189440442946,0.9928132909441438
2013-07-31,-1,-0.0007277746845701066,-0.0004857042960391798,-0.008892479825509055,0.0033463189440442946,0.9927009502714982
2013-08-02,0,-0.00010905752313070344,3.628562179341878e-05,-0.008892479825509055,0.0029798866357488396,0.9935150860625525
2013-08-06,0,-0.00013725435207098105,3.0343898926868764e-05,-0.008892479825509055,0.00433438899378162,0.9929239036766083
2013-08-08,0,-0.00011716712653372241,2.8415877169042972e-05,-0.006837301652139073,0.00433438899378162,0.9932903771067106
2013-08-12,-1,-0.0004681245883401615,-0.0002827265405620792,-0.004967991757249913,0.006097000406229021,0.9929207308570869
2013-08-14,-1,-0.0004400386648685306,-0.00023909886547866213,-0.004743710105038651,0.006097000406229021,0.99314849769722
2013-08-16,-1,-0.0006123039473667845,-0.00040740867174165574,-0.003205504830845544,0.006097000406229021,0.9937164458953548
2013-08-20,-1,-0.000609002335247737,-0.00043581081357499726,-0.0011181424096835077,0.008087077757947148,0.9928483411874834
2013-08-22,-1,-0.0008581816219358314,-0.0006563681245066104,-0.0013869960129677568,0.008087077757947148,0.9934575533080637
2013-08-26,-1,-0.0010053948772719029,-0.0007702148770656864,-0.0034902730688878766,0.008087077757947148,0.9928229693734658
2013-08-28,-1,-0.002170555048436825,-0.0017692924471201434,-0.0015944891281633156,0.008087077757947148,0.9933005632358252
2013-08-30,-1,-0.004040023474580524,-0.003296081135826976,-0.0036272799650026205,0.008087077757947148,0.9927517407435867
2013-09-04,-1,-0.003250880732775085,-0.0026040167681141034,-0.004849203579586078,0.006015511525630487,0.9930878437631169
2013-09-06,-1,-0.003794659024943564,-0.0030396405592391144,-0.004849203579586078,0.00461429420378762,0.9931296499290743
2013-09-10,-1,-0.002983501991294075,-0.002332941282870312,-0.006102828159613528,0.004073677315190986,0.993344653479644
2013-09-12,-1,-0.002004083447115608,-0.0015206397349971622,-0.006102828159613528,0.004073677315190986,0.9921374961354826
2013-09-16,-1,-0.001662540534167761,-0.0012399023508122666,-0.006102828159613528,0.006293284912775924,0.9914149282640067
2013-09-18,-1,-0.0004121309103455957,-0.00014085455229255407,-0.008099374478513777,0.00461429420378762,0.9914277423308553
2013-09-20,-1,-0.0005505519779709218,-0.00027934023625529874,-0.008099374478513777,0.006293284912775924,0.9888926733328106
2013-09-24,-1,-0.0011155865723236403,-0.000806119577873572,-0.006102828159613528,0.006605818957204379,0.9892514043689592
2013-09-26,-1,-0.0008127258447843415,-0.0005572881524901756,-0.006102828159613528,0.006605818957204379,0.9892057324711551
2013-09-30,-1,-0.0013556991773958573,-0.0010412486030719945,-0.004103041566695797,0.00914233042288939,0.9883300438951546
2013-10-02,-1,-0.002177631395754087,-0.0017559028609834412,-0.0038993008984616103,0.010152386840664059,0.9883688243444736
2013-10-04,-1,-0.0018577956056958782,-0.0015183416865743083,-0.0038993008984616103,0.010152386840664059,0.988021376669194
2013-10-08,-1,-0.002974024431819116,-0.0025272947400168267,-0.0018175534170994912,0.010152386840664059,0.9885976925360332
2013-10-10,-1,-0.0004645262992861869,-0.00038018364005172644,-0.0028415408321150666,0.00914233042288939,0.9903774942925665
2013-10-14,1,0.000424482507402519,0.0004472489611024315,-0.003387490190804948,0.007041286738934747,0.9906534843323018
2013-10-16,1,0.0008036311077338511,0.0009048035462631474,-0.0033622174042828145,0.0052563712882802835,0.9914906922611533
2013-10-18,1,0.0032715996221461853,0.003715779814696214,-0.0033622174042828145,0.005605573531755257,0.9935426613829654
2013-10-22,1,0.003333901907381416,0.003778624350337159,-0.004570760988563493,0.005176300393462537,0.9933278301690209
2013-10-24,1,0.0033695337110765814,0.0038277688756642642,-0.004570760988563493,0.006801074054481507,0.992525175317031
2013-10-28,1,0.004297013248914769,0.004879912696702558,-0.004570760988563493,0.00635044145962265,0.9928170379835889
2013-10-30,1,0.00499079008865356,0.005731669146193491,-0.003235964431367915,0.0058848146621678765,0.9934364730743402
2013-11-01,1,0.0033341657677537165,0.00373043225671017,-0.003235964431367915,0.0058848146621678765,0.9940682838253582
2013-11-05,1,0.0025230379549389757,0.0027453574164922833,-0.004570760988563493,0.0058848146621678765,0.993855551622522
2013-11-07,1,0.002497902886427405,0.002783449861640281,-0.003046380722632064,0.006639462800097482,0.9939531727506031
2013-11-11,1,0.00197998863062793,0.002118658402018479,-0.003046380722632064,0.0058848146621678765,0.994079647177341
2013-11-13,1,0.0015621462905177437,0.0016067938130940043,-0.005412224716668584,0.0058848146621678765,0.9932366206941937
2013-11-15,1,0.0017114089311088948,0.0018751108045492757,-0.005412224716668584,0.0058848146621678765,0.9933553102958242
2013-11-19,1,0.00170234366161792,0.0018802404986574047,-0.00497926228665664,0.006639462800097482,0.9924033037415885
2013-11-21,1,0.002110645789842235,0.002335558950454566,-0.00497926228665664,0.006639462800097482,0.9928468321878944
2013-11-25,1,0.0025392610815982075,0.002855312170284892,-0.00497926228665664,0.006545737864678981,0.993001105852865
2013-11-27,1,0.0030339608617931243,0.003440398283950582,-0.00497926228665664,0.00577585686340375,0.9932408162808628
2013-12-02,1,0.0027973216174648277,0.0031538193638147383,-0.002783767886438391,0.008847317918982047,0.9931513496711741
2013-12-04,1,0.0026563834917654487,0.003011937630126976,-0.002783767886438391,0.008847317918982047,0.9930126080261112
2013-12-06,1,0.0029935391500634885,0.0033657178219776134,-0.004055497869658904,0.00577585686340375,0.9933598548861591
2013-12-10,1,0.002082107277486555,0.0022618623178928595,-0.004055497869658904,0.00577585686340375,0.9932646589197132
2013-12-12,1,0.0013300644109600801,0.00141438856645185,-0.0037321975702186406,0.00577585686340375,0.9931646674859117
2013-12-16,1,0.0019966779879986747,0.002197912745605585,-0.0037321975702186406,0.00577585686340375,0.9933163228386609
2013-12-18,1,0.002203174189558086,0.002411604678855629,-0.0037321975702186406,0.00577585686340375,0.9926117387488914
2013-12-20,1,0.0021716123193621954,0.0023470750390689474,-0.0038870925651382704,0.004853787665382494,0.9927736615064667
2013-12-24,1,0.0028275305365248965,0.003127195915345404,-0.005476299654057497,0.0037426546570556896,0.9905141991177617
2013-12-27,1,0.0028818006971326944,0.0031852542532125575,-0.007972830622495798,0.004853787665382494,0.9893471191515081
2013-12-31,1,0.0032961350695462606,0.003657111360866497,-0.012962529549179367,0.003921767048038711,0.98846616828775
2014-01-03,1,0.0025556122630901717,0.0028011858888806716,-0.015013815091643606,0.002611093907061179,0.9872005219658887
2014-01-07,1,0.002378035297680655,0.002602948763837211,-0.015013815091643606,0.007153848967747606,0.9869109019776282
2014-01-09,1,0.001955115227316585,0.0021022243417005457,-0.015013815091643606,0.012623122068861844,0.9858337180582756
2014-01-13,1,0.001056319714196115,0.0010575701886164936,-0.012972067011772337,0.013167472181856307,0.9862701340186936
2014-01-15,1,0.00122705140172551,0.001235624526646573,-0.012972067011772337,0.012820010942715423,0.9865675492669598
2014-01-17,1,0.0018695383287746677,0.0019509886765247029,-0.012972067011772337,0.01117627264777312,0.9885157923897543
2014-01-22,1,0.0013723127301202372,0.0013975694581889995,-0.012972067011772337,0.01117627264777312,0.9888416664131836
2014-01-24,-1,-0.000320007511911407,-8.808184358569137e-05,-0.0030241127302044414,0.012676245731847958,0.9903907373127621
2014-01-28,-1,-0.00029427684652418853,-8.402405998720903e-05,-0.002246776781401817,0.012676245731847958,0.9915115893877965
2014-01-30,-1,-0.00040668374776500326,-0.00018306385797593196,-0.0020070092431644366,0.011519253710812178,0.9918502453011898
2014-02-03,-1,-0.0015839615754415885,-0.0012476739049242522,-0.0015114689908212917,0.013326843170814649,0.9914078758467659
2014-02-05,-1,-0.0011975074190047374,-0.0009177202690422846,-0.0015114689908212917,0.01363160319146927,0.9914009748960028
2014-02-07,0,-6.816567090472015e-05,7.943895237905017e-05,-0.0017790304763582385,0.007421849618605151,0.9934079818072192
2014-02-11,1,0.0008294676195831914,0.0008357360191464851,-0.002246776781401817,0.005285631325172211,0.9937485370310866
2014-02-13,1,0.0007440082816326865,0.0007733983858413026,-0.003682891091732271,0.004286950796288233,0.9925478787332431
2014-02-18,1,0.00032693903898292886,0.0004332633638646517,-0.003682891091732271,0.007421849618605151,0.9919709888677178
2014-02-20,1,0.00022355212345055378,0.0003428796024237017,-0.005140339146635685,0.010676786742719532,0.9911988740322448
2014-02-24,1,0.00018668561945497675,0.00033431890802792917,-0.0053952577596879945,0.007325896656922603,0.9916141570206298
2014-02-26,-1,-0.0002998352564940182,-7.078576825084268e-05,-0.005612835837577264,0.007325896656922603,0.9911159416715732
2014-02-28,0,-2.5354622292552884e-05,0.00018668263330984508,-0.005612835837577264,0.004066083724771548,0.9914631347634582
2014-03-04,-1,-0.00031933589378535163,-1.8920510948612483e-05,-0.0053952577596879945,0.004066083724771548,0.9928496674007923
2014-03-06,1,0.00040415067946967945,0.0005750135270537367,-0.005612835837577264,0.004066083724771548,0.9929111111009941
2014-03-10,1,0.0006084997622444865,0.0007366141664341536,-0.008681691787301608,0.004066083724771548,0.9906511271942298
2014-03-12,1,0.00015945997624961536,0.00034118925735749544,-0.008681691787301608,0.005521099504422453,0.9899227211382031
2014-03-14,1,0.00010859811327888996,0.0002225111483906548,-0.009443788667241472,0.005521099504422453,0.9890267990110619
2014-03-18,1,0.0006202620278231684,0.0006710656434126919,-0.009443788667241472,0.0063408374737731485,0.9888055252000573
2014-03-20,1,0.0005220344296765346,0.0005874148383809002,-0.010452225073172424,0.0063408374737731485,0.9883742252519951
2014-03-24,1,0.0006038275560975173,0.000622651223926338,-0.010452225073172424,0.0063408374737731485,0.9883424086631738
2014-03-26,1,6.437224596577218e-05,0.00014193343010145557,-0.008735885353082708,0.0063408374737731485,0.9889265648314985
2014-03-28,1,3.555822212250137e-05,0.00013864800292151064,-0.008735885353082708,0.0063408374737731485,0.989135082222482
2014-04-01,1,0.00013132663555267215,0.0002316624994566118,-0.008735885353082708,0.0063408374737731485,0.9893841567942134
2014-04-03,-1,-0.0003108007265935273,-0.0001351346105604456,-0.007634355193333765,0.00549332845416228,0.9897069872276908
2014-04-07,-1,-0.0020179624717622646,-0.0016490484394655971,-0.0050047925539278395,0.00549332845416228,0.9908926190397702
2014-04-09,-1,-0.001207960103452776,-0.0009337965770145924,-0.0050047925539278395,0.00655544346772571,0.9909052462359724
2014-04-11,-1,-0.002597006804083075,-0.002186026057463546,-0.0007666544126009086,0.007552045149068143,0.9918337211283969
2014-04-15,-1,-0.002100635215942111,-0.0017397558235782919,-0.004849896124363255,0.00573297174028163,0.9926631467138798
2014-04-17,-1,-0.0017103193170740025,-0.0014232486211694499,-0.004849896124363255,0.005014676936702229,0.9937552037578345
2014-04-22,-1,-0.0012548007609499636,-0.001032126670114048,-0.006512327847556341,0.005481320552587802,0.9935274858622143
2014-04-24,-1,-0.0008993429747681964,-0.0007374587717637099,-0.006512327847556341,0.007132902587938351,0.9931254731397139
2014-04-28,-1,-0.0011413128389248562,-0.000944370672252261,-0.006512327847556341,0.007552045149068143,0.991447427596697
2014-04-30,-1,-0.0012200392286639715,-0.0009976053908885875,-0.006512327847556341,0.0071787513789914395,0.9917621201681756
2014-05-02,-1,-0.001114597165183302,-0.0009310459597030186,-0.00429754666009978,0.0071787513789914395,0.9917341881478303
2014-05-06,-1,-0.0015805254765871002,-0.0013295652713760596,-0.002208606469134413,0.0071787513789914395,0.9923666186369152
2014-05-08,-1,-0.0011396260778161796,-0.0009000382730423355,-0.002208606469134413,0.007570527506763749,0.9922542719891815
2014-05-12,-1,-0.0005138956093461147,-0.0003686265521521306,-0.003178555565454544,0.007101028605574244,0.9925128466583906
2014-05-14,-1,-0.00068059322118754,-0.0005435670150330083,-0.0023328919574613282,0.007101028605574244,0.992867489542253
2014-05-16,-1,-0.0006998643781238065,-0.0005903566762278459,-0.0023328919574613282,0.007101028605574244,0.9930200674883033
2014-05-20,-1,-0.0006004738956607153,-0.0005234095027141518,-0.0018306379682445457,0.007570527506763749,0.9932765824080724
2014-05-22,-1,-6.364624872912385e-05,-5.864268273228324e-05,-0.0023328919574613282,0.0070021550823423425,0.9935512283253575
2014-05-27,1,0.0013138214026358693,0.0015216513504503477,-0.003117221863517908,0.004432650941526942,0.9949458719103711
2014-05-29,1,0.001070624123479176,0.0012253837400784684,-0.003117221863517908,0.004432650941526942,0.994955620467157
2014-06-02,1,0.0011728236041952007,0.0013323212042114538,-0.003117221863517908,0.005377998047871344,0.9947895565202085
2014-06-04,1,0.0010240797333614503,0.0011529217906633598,-0.003117221863517908,0.0054648266486186925,0.994636464344433
2014-06-06,1,0.0015996828364755467,0.001764417867815725,-0.0034223183530129315,0.004972681398648551,0.9955317585368929
2014-06-10,1,0.0018449104682407673,0.0020645721156118727,-0.003842124714317132,0.0035406997099202728,0.9954586666050836
2014-06-12,1,0.0023131959137486485,0.002649874560473028,-0.003842124714317132,0.0035406997099202728,0.9954493408517118
2014-06-16,1,0.0021620305065534664,0.002480270985723367,-0.0031147138198642124,0.0035406997099202728,0.995698116065394
2014-06-18,1,0.0016921488745746133,0.0018553777330392548,-0.003842124714317132,0.0019041581174048228,0.9953009485618682
2014-06-20,1,0.001504019118144838,0.00163259619095142,-0.003842124714317132,0.0019041581174048228,0.9952394778859661
2014-06-24,1,0.0010708949186868724,0.0011354814059453212,-0.0031147138198642124,0.002932772372722967,0.9957742003167506
2014-06-26,1,4.325903240076385e-06,0.00015469568911256388,-0.0033643159212973523,0.0026130706596291338,0.9956064914062618
2014-06-30,1,0.00030752268670907373,0.000410483230328538,-0.0033643159212973523,0.0010051272683524977,0.9957147535816182
2014-07-02,1,0.0011067021622721725,0.0011702304665675068,-0.007387300847859773,0.00034409130171233495,0.9935385789857063
2014-07-07,1,0.001432209992370569,0.0015712193015793004,-0.00870594633082923,0.00034409130171233495,0.9927816053120794
2014-07-09,1,0.0011965953853968663,0.0013088766344207755,-0.007393018480793908,0.0002746451176434256,0.9930060102637532
2014-07-11,1,0.0010579710000193719,0.0011518971002856101,-0.007393018480793908,0.0005326341790276429,0.9923115127436692
2014-07-15,1,0.0009951785829785246,0.0010770435625529237,-0.007393018480793908,0.0007211830818297221,0.9920989934459039
2014-07-17,1,0.0005849329298892802,0.0006319253939241676,-0.006655161821310653,0.0020400708138356297,0.9928651042458403
2014-07-21,1,0.0004611541971940731,0.00048561461321739943,-0.006837072904392789,0.0020400708138356297,0.992840164426059
2014-07-23,1,0.0008874452090385516,0.0010029027913000283,-0.006837072904392789,0.003805774733355513,0.9923491367590798
2014-07-25,1,0.0006656124059568299,0.0007834059947871015,-0.00609795720379756,0.004479011541315314,0.9926981542805264
2014-07-29,1,0.0007641968755804164,0.0009162295841515026,-0.00609795720379756,0.005606458243720026,0.9922601430338057
2014-07-31,-1,-0.0006309641238651226,-0.000607517266826469,-0.004526454615958625,0.005606458243720026,0.9940075768834391
2014-08-04,-1,-0.0012328018314143319,-0.0011250674711504138,-0.0032871392492010267,0.006081986042125437,0.9946116943143134
2014-08-06,-1,-0.0020698462967626736,-0.0018101435168118608,-0.0032871392492010267,0.006081986042125437,0.9943324431694869
2014-08-08,-1,-0.0011626731086501092,-0.0010399709980891928,-0.0034153892806530273,0.004999355137393797,0.9951797140876024
2014-08-12,-1,-0.0012261007143258645,-0.0010993009138509187,-0.0034153892806530273,0.005840001608276588,0.9946774378603954
2014-08-14,-1,-0.001253706287303334,-0.0011116106867638613,-0.005042394732778629,0.005840001608276588,0.9944945552370164
2014-08-18,-1,-0.0015631869090090927,-0.0013596716700970922,-0.0034528308846861642,0.005840001608276588,0.9944682147645791
2014-08-20,-1,-0.0007826634092925075,-0.0006867219714783912,-0.0034528308846861642,0.00630171290749902,0.9943413287012937
2014-08-22,-1,-0.00043370930170410186,-0.0003933043293591458,-0.005042394732778629,0.005840001608276588,0.99431214594655
2014-08-26,-1,-0.0003502123163553125,-0.0003162558095008999,-0.005974084136184675,0.0049614255129307415,0.9944511866724408
2014-08-28,-1,-0.001469460347630944,-0.0012179582702425617,-0.00760165951439379,0.005840001608276588,0.9927483862359934
2014-09-02,-1,-0.0006627953536545114,-0.0005486046547481488,-0.00760165951439379,0.0049614255129307415,0.9927930107628904
2014-09-04,-1,-0.001636342909224855,-0.0013332828972826686,-0.0077097995175231335,0.003234000248344923,0.9924669656170433
2014-09-08,-1,-0.0015998096599802863,-0.001328327331800373,-0.0077097995175231335,0.006360378907417354,0.9919873792684898
2014-09-10,-1,-0.0018030559900437007,-0.00150935376499682,-0.0077097995175231335,0.008830329724732681,0.9907226342140344
2014-09-12,-1,-0.0019893230439540486,-0.0016869564392205008,-0.008556081615541241,0.008830329724732681,0.9899773454746127
2014-09-16,-1,-0.0016333192615856453,-0.0013785280414881983,-0.01220624337534884,0.0037923071719487447,0.9893627590230637
2014-09-18,-1,-0.0010494018714473524,-0.0008553360626029605,-0.017867945195339394,-0.00018759475748686893,0.9888703574723484
2014-09-22,-1,-0.001422745242874892,-0.001191585836708167,-0.017867945195339394,0.005539161984155293,0.9871184623411325
2014-09-24,-1,-0.0017713944937022565,-0.0014883302988949302,-0.019382020396598518,0.015596175407050283,0.9857866917511738
2014-09-26,-1,-0.0019407452788206651,-0.0016263436773060786,-0.017867945195339394,0.015596175407050283,0.9861103601783762
2014-09-30,-1,-0.001710042377335265,-0.0014681412576942729,-0.017867945195339394,0.016276541209149106,0.9853136864067163
2014-10-02,-1,-0.0021117375141766538,-0.0018430793444058737,-0.01220624337534884,0.016276541209149106,0.9856441329168281
2014-10-06,-1,-0.0018789180150613244,-0.0016161798815205793,-0.01220624337534884,0.016276541209149106,0.9852174769255728
2014-10-08,-1,-0.0019210913759494185,-0.0016358968525582449,-0.009014071746518209,0.014208965235783695,0.9863100480032876
2014-10-10,-1,-0.0029559367605343466,-0.0025430094988623695,-0.00249389385436467,0.014208965235783695,0.9862529108328637
2014-10-14,-1,-0.003581872356808331,-0.0031173081851302176,-0.0006476411404119282,0.014208965235783695,0.9868011332752604
2014-10-16,-1,-0.003788465947914409,-0.003363161209425457,0.0006203295457117735,0.014208965235783695,0.9876301878882603
2014-10-20,-1,-0.002110108807753827,-0.0018819937958721915,-0.004604950168853844,0.01034944609553129,0.990674264723783
2014-10-22,-1,-0.001894675293539904,-0.0017050431448831932,-0.0026513210677516167,0.009422322411195182,0.9922469088797989
2014-10-24,-1,-0.0008402606504597072,-0.0007745432201893387,-0.0030016416573830167,0.006231635267981358,0.9938941496583498
2014-10-28,1,0.00040031622515418307,0.0005530741999596658,-0.0030016416573830167,0.006173103441639596,0.9945595212740407
2014-10-30,1,0.0007820233514274475,0.0009956195890044614,-0.0030016416573830167,0.007249609714028363,0.9944987259251893
2014-11-03,1,0.0014470373658643934,0.0017396514523801115,-0.0033702862182642384,0.006173103441639596,0.9949709411749825
2014-11-05,1,0.001896841139873418,0.0022409756271224695,-0.004604950168853844,0.005333675464663965,0.9942952961476775
2014-11-07,1,0.0020626764735113467,0.002452017990319826,-0.0033702862182642384,0.006564907809357322,0.9943835244336496
2014-11-11,1,0.001899561642444753,0.0022668497568400885,-0.0033702862182642384,0.006564907809357322,0.9942563651910307
2014-11-13,1,0.0015160886925074239,0.0018119913753083788,-0.0033702862182642384,0.006564907809357322,0.9935018214041449
2014-11-17,1,0.0012321803062217023,0.0014897479811631993,-0.0039056890774927886,0.006564907809357322,0.9925164441420973
2014-11-19,1,0.0015395271438007887,0.0018540510979930685,-0.0039056890774927886,0.009030562524080065,0.9902611399526695
2014-11-21,1,0.0015726662950748763,0.001897622364946154,-0.0039056890774927886,0.009030562524080065,0.9899724241081196
2014-11-25,1,0.00198190539442371,0.0023666711308436127,-0.0039056890774927886,0.009030562524080065,0.9903500747032569
2014-11-28,1,0.002258033285328121,0.0026692325899133748,-0.0039056890774927886,0.00804509664462171,0.9907124917735036
2014-12-02,1,0.0024234347007040177,0.0028521411298139364,-0.007537750597463734,0.006704708867245002,0.9904053178410838
2014-12-04,1,0.0020836641248970665,0.002468892434170345,-0.007537750597463734,0.005010324600574462,0.9901485761037684
2014-12-08,1,0.0023405756492299824,0.0027289625262644423,-0.011173976439883195,0.0031027165328664785,0.9887642718117856
2014-12-10,1,0.002024797609632438,0.0023678352975763308,-0.012761816680329304,0.005010324600574462,0.9882162094039753
2014-12-12,1,0.0015541719649810539,0.0018430373909276295,-0.01107872056885921,0.004016035705754099,0.9887563823365957
2014-12-16,1,0.0004500794816108605,0.0005665339093493924,-0.012761816680329304,0.004016035705754099,0.9885455107010588
2014-12-18,1,0.0020138097621675032,0.002333933252120977,-0.012761816680329304,0.002366921537061676,0.9901695424196267
2014-12-22,1,0.0014173230552483429,0.0015865419343725773,-0.01320248632955234,0.002366921537061676,0.9887381785148857
2014-12-24,1,0.001209260973471846,0.0013310577999313196,-0.01320248632955234,0.0019553638530218683,0.9881231918534633
2014-12-29,1,0.0011022262287844957,0.0011977667011470803,-0.01320248632955234,0.0004657768608132057,0.9872377942994536
2014-12-31,1,0.0008561360747255977,0.0009362810597874039,-0.01424428932421684,0.002223210406178487,0.9871429303844511
2015-01-05,1,5.81937810774861e-05,8.895516231494034e-05,-0.012916718716480386,0.007067656803767888,0.9869388785618407
2015-01-07,0,-4.6556928807204114e-06,3.129797650648316e-05,-0.011269894940381657,0.006872807125228855,0.9881881650787594
2015-01-09,0,-2.9899379748928083e-05,1.208471324763084e-05,-0.010332124955616391,0.003653089165145315,0.9893287756105881
2015-01-13,-1,-0.00017322239253339625,-0.00013462594933250443,-0.010100296508639688,0.006053903535922311,0.9893795465735948
2015-01-15,-1,-0.0009842229226906794,-0.0008592044161506668,-0.010100296508639688,0.006053903535922311,0.9866227831113111
2015-01-20,-1,-0.0005640659109128597,-0.0004918881645972819,-0.010100296508639688,0.009168803952129007,0.9863610138574053
2015-01-22,-1,-0.0014401306196263194,-0.0012642495991430388,-0.010100296508639688,0.010791803121531806,0.9866643916065992
2015-01-26,-1,-0.0016322163154335937,-0.001445086483783195,-0.008799369104478084,0.010791803121531806,0.9863204887290651
2015-01-28,-1,-0.0021224646191559905,-0.0018792439071076761,-0.0006229666722934343,0.013206519100466167,0.9852454194941732
2015-01-30,-1,-0.00254048066084462,-0.0022402469412888546,-0.0006229666722934343,0.013206519100466167,0.984743636404293
2015-02-03,-1,-0.0015564777080015555,-0.0013652422190367855,-0.005003861229422165,0.010791803121531806,0.9865275652325596
2015-02-05,-1,-0.001343080367544702,-0.0011664499544846402,-0.011670183910169576,0.009168803952129007,0.9865031561531006
2015-02-09,-1,-0.0010961792612406247,-0.0009597910971613939,-0.01604462238024932,0.009168803952129007,0.985830902917296
2015-02-11,-1,-0.00042728405618465317,-0.0003946533904259129,-0.01604462238024932,0.00984066182789655,0.9849892432943501
2015-02-13,-1,-0.003035638248842689,-0.0026852438277939466,-0.010706053841933554,0.011576548370682109,0.9876954574310649
2015-02-18,-1,-0.0024635690569046165,-0.002175862251981766,-0.010706053841933554,0.01019352102056486,0.9884283403754218
2015-02-20,-1,-0.002399023796443745,-0.0021194702239252594,-0.006636914764630345,0.01019352102056486,0.9892930900120892
2015-02-24,-1,-0.002146259892386841,-0.0018861667705890922,-0.010160752620422776,0.01019352102056486,0.9896001945238895
2015-02-26,-1,-0.0016658432249290224,-0.0014375820302283415,-0.012699060674581202,0.005656952349167862,0.9896156976824932
2015-03-02,-1,-0.0018075938550582446,-0.0015816913177529787,-0.010706053841933554,0.0048356415502889705,0.9905013007022102
2015-03-04,-1,-0.002121466744918635,-0.001866568799978571,-0.010160752620422776,0.007304266898215435,0.9904933728013521
2015-03-06,-1,-0.002597261854842197,-0.0022527362755716453,-0.00739818677668622,0.009783895381084014,0.9906886727989148
2015-03-10,-1,-0.0033342859127874274,-0.0028719169066679087,-0.00739818677668622,0.009783895381084014,0.9906312615126109
2015-03-12,-1,-0.003023857472711027,-0.0025585073068252334,-0.00739818677668622,0.006918474245709349,0.9916187718598444
2015-03-16,-1,-0.0022205633017615004,-0.0019099996629469793,-0.006159086550374868,0.0055671627058792245,0.9924050359971094
2015-03-18,-1,-0.0020955053554886473,-0.0017997582575931211,-0.006159086550374868,0.0055671627058792245,0.9920872191715806
2015-03-20,-1,-0.0012910725510347054,-0.0011262264106959188,-0.00739818677668622,0.004804946854665812,0.9909351292243456
2015-03-24,-1,-0.001365780345186511,-0.001214757624069458,-0.004640075938301822,0.0055671627058792245,0.9906733822205074
2015-03-26,-1,-0.002027601085372523,-0.0018107639266013702,-0.0024598199713466917,0.0055671627058792245,0.9919330804182745
2015-03-30,-1,-0.001734263838872795,-0.001581778511233199,-0.0024598199713466917,0.0055671627058792245,0.992062669453601
2015-04-01,-1,-0.0011055943611725993,-0.0010492376962567096,-0.0037779791458573647,0.004804946854665812,0.9925105016795914
2015-04-06,-1,-0.0008156465581912273,-0.0007944539182703375,-0.0037779791458573647,0.004804946854665812,0.992457191731838
2015-04-08,-1,-0.0010477353638485246,-0.0009953622193150451,-0.0037779791458573647,0.00417673854906699,0.9931777834103761
2015-04-10,-1,-0.0007849450498470185,-0.0007584456769790259,-0.0037779791458573647,0.004571918048498233,0.9930633643802405
2015-04-14,-1,-0.0008630856791490229,-0.000818231488967555,-0.0038374634835572174,0.007122058317548824,0.9925611775815114
2015-04-16,-1,-0.00032838638055792893,-0.0003004512142754244,-0.0038374634835572174,0.007518680394950918,0.9924992363378435
2015-04-20,-1,-0.0012889238354488873,-0.0012032073606868042,-0.0038374634835572174,0.007518680394950918,0.994172420246114
2015-04-22,-1,-0.0006615492277326797,-0.0006571697310803163,-0.004423014369724894,0.007518680394950918,0.9941704418678686
2015-04-24,-1,-0.0005628302544854108,-0.0005270103203147036,-0.004423014369724894,0.007518680394950918,0.9940091488391085
2015-04-28,-1,-0.0005250318966258556,-0.00047097740271874125,-0.004423014369724894,0.007518680394950918,0.993700591738114
2015-04-30,-1,-0.0005737058875025485,-0.0005378371018608235,-0.004693916365804514,0.007518680394950918,0.9938656104510364
2015-05-04,0,-2.6592644247598336e-05,0.00011154168877364342,-0.004693916365804514,0.007122058317548824,0.9939943967732908
2015-05-06,-1,-0.00013409802936367515,-1.6288713436684015e-05,-0.004693916365804514,0.007494176612728627,0.9931435645016922
2015-05-08,1,6.262609008562096e-05,0.00018573532798640753,-0.00532819276634769,0.006813970781800172,0.9934468767721863
2015-05-12,-1,-0.00018472521901895058,-0.00013257099259613968,-0.004693916365804514,0.006813970781800172,0.9934250192038049
2015-05-14,1,0.0009267408355318037,0.0011941667106198392,-0.00532819276634769,0.004942800453808948,0.993728148130439
2015-05-18,1,0.0009283931179112221,0.00120701020015254,-0.004693916365804514,0.004942800453808948,0.9939565018749592
2015-05-20,1,0.001276907762836009,0.0016115974491218263,-0.003795437034414371,0.005718747117587797,0.9941331747324289
2015-05-22,1,0.0014592714027784732,0.0018236876085830577,-0.0052600096003901356,0.005837740588216039,0.9935030213074639
2015-05-27,1,0.0011079468913342755,0.0014117404922279885,-0.0052600096003901356,0.005837740588216039,0.9939526217416086
2015-05-29,1,0.0007907769938283214,0.001021117985550879,-0.007212041658437906,0.005837740588216039,0.9936289186447694
2015-06-02,1,0.0009336474184749098,0.001187299004620912,-0.007384418349378386,0.004826605003949619,0.9926775673961432
2015-06-04,1,0.0008608976822743864,0.001109427959940088,-0.007212041658437906,0.004826605003949619,0.9932659556941191
2015-06-08,1,0.0006375991562438499,0.0008418615420072591,-0.00729073087928939,0.004826605003949619,0.9931926787907823
2015-06-10,1,0.0006299993037866604,0.0007870799791735211,-0.007697217065655268,0.002390929737045788,0.9926635553649847
2015-06-12,1,0.0006767718016142493,0.0008615076755065815,-0.00729073087928939,0.006389253864330221,0.9918811668036621
2015-06-16,1,0.0003519776734523315,0.00045983234990127687,-0.00729073087928939,0.006389579209221809,0.9915755796659205
2015-06-18,1,0.0006122323761361272,0.0007372982273096855,-0.00729073087928939,0.005450489856606228,0.9920035313809908
2015-06-22,1,0.0005354342338065187,0.0006252966019865358,-0.005988953640461864,0.004978612443920958,0.9927321687461823
2015-06-24,1,0.00023993183415490458,0.000273375946467684,-0.0060656846941842925,0.004978612443920958,0.9919178516771493
2015-06-26,1,0.000454632252122906,0.000566872776397711,-0.009173500151117564,0.004978612443920958,0.9911114781547595
2015-06-30,1,4.3862131059245604e-05,0.00011901454450182684,-0.0060656846941842925,0.005450489856606228,0.9919726058682906
2015-07-02,1,0.00026818587076781917,0.00037965762435143106,-0.0060656846941842925,0.005436816857532436,0.9922531142799956
2015-07-07,1,0.00029055068779003325,0.0004253565712317567,-0.004671549353113781,0.005436816857532436,0.992463874817253
2015-07-09,-1,-0.0015721079086432463,-0.0013565163931537729,-0.004671549353113781,0.00501577131295084,0.9931858015789529
2015-07-13,-1,-0.0003617083094239384,-0.00031868286491218596,-0.004671549353113781,0.00501577131295084,0.9905633235296747
2015-07-15,-1,-0.00032682570272171154,-0.0002893208611103421,-0.004238379301110528,0.004060583392791312,0.9908492155143451
2015-07-17,1,0.00016665223295808833,0.00021228803891385647,-0.004238379301110528,0.002027048250829353,0.9910220960309183
2015-07-21,1,0.0005398521474714633,0.0006863598901152171,-0.00361147093581652,0.002642787464808036,0.9911480975207888
2015-07-23,-1,-0.00033733739965457213,-0.00033078930717798087,-0.003722246210658963,0.002642787464808036,0.9908717445094732
2015-07-27,-1,-0.0016159558777436816,-0.0014510225642278764,-0.003722246210658963,0.002642787464808036,0.989697813952383
2015-07-29,-1,-0.0010731124866441583,-0.0009643726773965586,-0.005086259604256614,0.0021337646258091075,0.9881804239840603
2015-07-31,-1,-0.0011230258209669565,-0.0009884021262450836,-0.005086259604256614,0.0021337646258091075,0.9875779556505611
2015-08-04,-1,-0.0006691779587375134,-0.0006319820628330505,-0.0096382560170653,0.0021337646258091075,0.9858358322820662
2015-08-06,-1,-0.0008362526123994749,-0.0007777609861413969,-0.006919298443465266,0.006378242814774872,0.9853431483723799
2015-08-10,1,0.001210016206837346,0.001418500915194168,-0.015272775187896798,0.003289722072678844,0.9877117333885195
2015-08-12,1,0.0012556102928798127,0.0014840995254384133,-0.015272775187896798,0.003289722072678844,0.9876377447724122
2015-08-14,1,0.0010355465104090163,0.0012126605235696529,-0.015272775187896798,0.003289722072678844,0.9875398701529751
2015-08-18,1,0.0006616950952091059,0.0007398472612023443,-0.015272775187896798,0.011214896618024849,0.9863094364807509
2015-08-20,-1,-0.00012734039180413458,-9.671845626703582e-05,-0.014587619595376144,0.011214896618024849,0.9869108022674696
2015-08-24,-1,-0.0012262323057831614,-0.001081278524037245,-0.007031417340293161,0.011214896618024849,0.9882723589652216
2015-08-26,-1,-0.000721644025869331,-0.0006470768681126767,-0.006783150710085636,0.010480931909128197,0.9898342610096257
2015-08-28,-1,-0.0005404634274190164,-0.00047417025413705824,-0.01267712880326859,0.006717375146310302,0.9893694604254251
2015-09-01,-1,-0.001173287946610483,-0.0010467392388208673,-0.006783150710085636,0.010480931909128197,0.9903256685571198
2015-09-03,-1,-0.0007538769962481061,-0.000676056131662844,-0.006783150710085636,0.00787855764336728,0.990704701354483
2015-09-08,-1,-0.00041413760245954473,-0.0004002430805640063,-0.0049372526773362015,0.00787855764336728,0.9901919659185315
2015-09-10,-1,-0.0011981171194791126,-0.0010364342237508253,-0.004837482514008174,0.00787855764336728,0.9904138230259194
2015-09-14,-1,-0.0009900214277070575,-0.0008733540220201583,-0.0037833247912000935,0.00787855764336728,0.9905803625096807
2015-09-16,-1,-0.0002913654429823685,-0.00024921259721876713,-0.006506134316073279,0.0040052404172334025,0.9913487152895379
2015-09-18,-1,-0.0008657498241779241,-0.000748468864809353,-0.005187347811382438,0.00635283093668537,0.9914856988834984
2015-09-22,-1,-0.0009442145180351999,-0.0008173787753085419,-0.0037156181215748135,0.005648125173914788,0.9925537094766848
2015-09-24,-1,-0.0011509007284445278,-0.0010140667405338847,-0.005187347811382438,0.005648125173914788,0.9903448255364815
2015-09-28,-1,-0.0014908535432949098,-0.0013091836462466389,-0.005124594427655164,0.00635283093668537,0.9900784584806317
2015-09-30,-1,-0.0009685693881037329,-0.0008656813989186193,-0.005124594427655164,0.005989952351056745,0.9905264509759982
2015-10-02,-1,-0.0008172949215135273,-0.0007350110187373621,-0.005425320968157948,0.004119182809614055,0.9903243522105928
2015-10-06,1,0.00023902482416449339,0.0003134878662411879,-0.005425320968157948,0.004119182809614055,0.9918148736318496
2015-10-08,1,0.0002519388138248259,0.00031956892945430047,-0.005425320968157948,0.002943914402342003,0.9918627369575457
2015-10-12,1,0.00041653294739184564,0.0005188375368153224,-0.005639668716247714,0.005239846573425891,0.9911242713154041
2015-10-14,1,0.00018049873615695133,0.00025783631162671066,-0.005451408565065894,0.005239846573425891,0.9915462925860663
2015-10-16,1,0.00033550113018881707,0.0004166900663007748,-0.007411292812094966,0.0007095387927228649,0.9909479184220277
2015-10-20,1,0.00023115747808701476,0.00029346516108527465,-0.00846548906307289,0.0021640580116488273,0.9904840111536409
2015-10-22,-1,-0.0010392383974385784,-0.0009511379019220434,-0.006620978513890663,0.006073996391198902,0.9923807414632547
2015-10-26,-1,-0.0005338132588495998,-0.0004977000712693028,-0.006620978513890663,0.005239846573425891,0.9937339563225629
2015-10-28,-1,-0.0005037467015435934,-0.0004642400552511343,-0.007867402074447648,0.0021640580116488273,0.9936844216609343
2015-10-30,-1,-0.0005931233057683192,-0.0005647831309413215,-0.006620978513890663,0.0029250248955746605,0.9941777435196847
2015-11-03,-1,-0.0003940566996328717,-0.00038055434981694154,-0.007867402074447648,0.0029250248955746605,0.9936376030500377
2015-11-05,-1,-0.0004164704090674898,-0.00039959767764761284,-0.00904217099181007,0.005368770686396524,0.9927466596224067
2015-11-09,-1,-0.0002965517092421971,-0.00027442626731954235,-0.008811454668552857,0.003289024243479419,0.9927548252805937
2015-11-11,-1,-0.00032141766354825416,-0.00029211790823069497,-0.008811454668552857,0.004299131466264508,0.9928659587032909
2015-11-13,-1,-0.000866170185249668,-0.0008229484275540688,-0.007867402074447648,0.004299131466264508,0.9931894363836117
2015-11-17,-1,-0.0009699539440719376,-0.000904801299566355,-0.0072797749489543085,0.007858335762677962,0.9924661563732108
2015-11-19,-1,-0.0007627676287198063,-0.000692415209436366,-0.01017393487464791,0.0025684784888639887,0.9917588853722581
2015-11-23,-1,-0.0007947705134834617,-0.0007299339348508526,-0.01017393487464791,0.006886434055241722,0.9912407786091252
2015-11-25,-1,-0.001059956112437516,-0.0009558547375745402,-0.01017393487464791,0.007810978322765767,0.9906598579841551
2015-11-30,-1,-0.001274316403712415,-0.0011279116443267975,-0.01017393487464791,0.007858335762677962,0.990060744857877
2015-12-02,-1,-0.0009470733937217927,-0.0008747389423773936,-0.008999207428475115,0.007852486009442008,0.9905364695643011
2015-12-04,-1,-0.0009060834621004538,-0.000841325671272592,-0.011281873261848718,0.006886434055241722,0.9894971860199557
2015-12-08,-1,-0.0011898415416312722,-0.0011082207496055524,-0.015570639990212059,0.006886434055241722,0.9883223487179934
2015-12-10,-1,-0.0010562044781030704,-0.0009880657500187023,-0.015570639990212059,0.006902775448641715,0.9880717881901543
2015-12-14,-1,-0.0018292916475685607,-0.001642631598565748,-0.015570639990212059,0.006902775448641715,0.9876094121127916
2015-12-16,-1,-0.001452107656652903,-0.001276639884576489,-0.015570639990212059,0.0065843497364488105,0.9883888178605769
2015-12-18,-1,-0.0022833265076344306,-0.0020255731302749862,-0.008771661900323574,0.0065843497364488105,0.9898467787379154
2015-12-22,-1,-0.0018263686381189762,-0.001630908488913855,-0.010599236677394099,0.005654853582209879,0.9856247736599951
2015-12-24,-1,-0.0014025165433329987,-0.0012535233404508466,-0.010599236677394099,0.0023203085030455714,0.9863825181344489
2015-12-29,-1,-0.0013451716623559015,-0.0011915252646597636,-0.017557187239727982,-0.00022680784137385967,0.9853478241804008
2015-12-31,-1,-0.00032061164484857205,-0.00023699008921780618,-0.017557187239727982,0.005654853582209879,0.9838734401331366
2016-01-05,-1,-0.0013132319893943674,-0.001271859410747393,-0.01251322825395429,0.006319705749997165,0.9847533950074179
2016-01-07,-1,-0.0022541099993584595,-0.002107056620513804,-0.00810342998546227,0.006319705749997165,0.9860737972013781
2016-01-11,-1,-0.0019284927798147858,-0.0018322393703873153,-0.01251322825395429,0.005654853582209879,0.9848936241918597
2016-01-13,-1,-0.0027302816808456513,-0.002506074045250474,-0.01251322825395429,0.005298893932046269,0.98523644070941
2016-01-15,-1,-0.0034394368010484313,-0.0030691504255968127,-0.01251322825395429,0.006766070258902268,0.9837403802322611
2016-01-20,-1,-0.0030619048294734273,-0.002758403978815973,-0.01251322825395429,0.008758280974322323,0.9830539597470763
2016-01-22,-1,-0.005671276816071993,-0.005087896916500767,-0.00810342998546227,0.010139972989746048,0.985718657994757
2016-01-26,-1,-0.006304190728469787,-0.005610272585113854,-0.009597286780910805,0.010139972989746048,0.9859458854388631
2016-01-28,-1,-0.006982250010503642,-0.006241884069017751,-0.007648859981179446,0.010687358446675054,0.9858552488069438
2016-02-01,-1,-0.005792626740415415,-0.005206997046326789,-0.007648859981179446,0.010139972989746048,0.9865668815832176
2016-02-03,-1,-0.005873252289634843,-0.005283361499407535,-0.006684065773714934,0.01118775066883549,0.9862147613602914
2016-02-05,-1,-0.005758197482142699,-0.005188053693310251,-0.0017504299203914158,0.012566897785892824,0.9855296656937528
2016-02-09,-1,-0.005690418949303458,-0.005181430856865458,-0.001733904528221253,0.012566897785892824,0.9864953883575512
2016-02-11,-1,-0.0066234327478484,-0.0059904969540401,0.002537082952324344,0.012566897785892824,0.9858456475252247
2016-02-16,-1,-0.005119941827138211,-0.004669337872399567,-0.001405487639460462,0.012108933356646603,0.9889004366733996
2016-02-18,-1,-0.004543303048786668,-0.004150297229895034,-0.001405487639460462,0.012108933356646603,0.9893422646429534
2016-02-22,-1,-0.003755512586412617,-0.003435842974038517,-0.001405487639460462,0.012108933356646603,0.9900905593955354
2016-02-24,-1,-0.0038840565760547676,-0.003574242217521904,-0.0001676620779248672,0.012108933356646603,0.9900177333828287
2016-02-26,-1,-0.0030627412622305705,-0.0028603443581516584,-0.0027647398417710435,0.008972664194931331,0.9913764763318718
2016-03-01,-1,-0.0013791357729253497,-0.0013188656824359205,-0.003626677528642222,0.007449902739284302,0.992870689392135
2016-03-03,-1,-0.00046384558952875324,-0.00026838639074095014,-0.004934639162669363,0.007449902739284302,0.9932328994400814
2016-03-07,1,0.00020943326851532702,0.0005059057911669887,-0.00526349692346891,0.006595917895681467,0.9933346108730765
2016-03-09,1,0.0002022807990070839,0.00048102978627826353,-0.0052896309474551925,0.005572710558214745,0.9928687443640403
2016-03-11,1,0.0008041904235743119,0.0011945321279277835,-0.0052896309474551925,0.005572710558214745,0.9928971919050945
2016-03-15,1,0.0008404438184377646,0.0012389160226583093,-0.005124182734057025,0.008669703519393312,0.9914490147602562
2016-03-17,1,0.0005778668002433634,0.0008631999851622081,-0.005342496574370231,0.0069412665969838475,0.9914823787523159
2016-03-21,1,0.0017496886968265473,0.0022482042926407902,-0.005342496574370231,0.008149605482980774,0.9913563119060277
2016-03-23,1,0.0017396513282250921,0.0022622124947423274,-0.005124182734057025,0.011833870351224372,0.9906609374364437
2016-03-28,1,0.0014118018156445721,0.0018615671336867285,-0.005124182734057025,0.011833870351224372,0.9906147830766922
2016-03-30,1,0.0017630777369049932,0.0022862104460570146,-0.004952111489620471,0.011833870351224372,0.9908876733862886
2016-04-01,1,0.0023383059235851946,0.002940938428181851,-0.005896265867627065,0.00952395641545549,0.9913471787273533
2016-04-05,1,0.0018861562383251614,0.002420887024368174,-0.005334906522462252,0.00952395641545549,0.9913938516303878
2016-04-07,1,0.001205071404752897,0.001641527259176764,-0.005440469093778255,0.00952395641545549,0.9915846362590389
2016-04-11,1,0.001461876624195753,0.0018909028529043332,-0.005896265867627065,0.009113231938772694,0.9913973185580787
2016-04-13,1,0.002793320683763151,0.0033977019437790253,-0.005896265867627065,0.00797631095257254,0.992398244660686
2016-04-15,1,0.0032670823646310013,0.003981681645032599,-0.005440469093778255,0.00797631095257254,0.992304497509265
2016-04-19,1,0.003979836970004272,0.004779135700259188,-0.0059732962585062645,0.005560563051472086,0.9913772245097053
2016-04-21,1,0.004962912052547306,0.005881689417893413,-0.00672432329960386,0.004084983089724346,0.9907063805257704
2016-04-25,1,0.004999975999250483,0.005921922894321453,-0.00672432329960386,0.0047682455491014665,0.9900290152232043
2016-04-27,1,0.005227520160549405,0.006171016260813291,-0.00672432329960386,0.007394624622378791,0.9895550756552579
2016-04-29,1,0.004844560130098954,0.005735865249562645,-0.006022255249301493,0.007394624622378791,0.9904444013233837
2016-05-03,1,0.004304114340023642,0.005092236329203036,-0.005194771083713337,0.007394624622378791,0.9913567801967657
2016-05-05,1,0.003933882422616114,0.004680077712020389,-0.004193594437625059,0.007997163927030891,0.9915962469798079
2016-05-09,1,0.0037105711408166446,0.004394230468890957,-0.0038593757658796296,0.007050036594872979,0.9921037805346152
2016-05-11,1,0.004526725389799324,0.0053731063775877335,-0.004193594437625059,0.006804874119743836,0.9921028726352688
2016-05-13,1,0.003617906355248305,0.004265564111226564,-0.00904090265836203,0.006804874119743836,0.9910948955075581
2016-05-17,1,0.003251880473565503,0.00388232435677531,-0.00904090265836203,0.006804874119743836,0.990270077179754
2016-05-19,1,0.003641482781574226,0.004363557773249038,-0.005947174284502527,0.006804874119743836,0.9910142061192608
2016-05-23,1,0.004237564237492159,0.005051893318530388,-0.0029937988145139647,0.006804874119743836,0.9917866894073588
2016-05-25,1,0.004838248504235668,0.005702799083311027,-0.00616892670798712,0.00601616448734924,0.9911711629896259
2016-05-27,1,0.0038106417334832256,0.004441832905016952,-0.011909534220532102,0.00601616448734924,0.986827411703627
2016-06-01,1,0.003232305509219926,0.0037120445751979867,-0.011909534220532102,0.0069317144262559,0.9857065836981036
2016-06-03,1,0.003096436296055752,0.003562440196933681,-0.00904090265836203,0.0069317144262559,0.9857784714959661
2016-06-07,1,0.002984946603565173,0.003401765401074552,-0.013448499155288856,0.00607653073349364,0.9846348464817858
2016-06-09,1,0.002905707498458737,0.003311351855561635,-0.013448499155288856,0.007410489682352165,0.9839853203019464
2016-06-13,1,0.0019304255852018821,0.002208135715135096,-0.002228637154397824,0.01155041694136803,0.9846477817322516
2016-06-15,-1,-0.0010818518634214814,-0.0008083782819666384,-0.0011357447950258045,0.01155041694136803,0.9856664349442225
2016-06-17,-1,-0.0009648784167494964,-0.0007020629299010841,-0.00040838221343257456,0.01155041694136803,0.9857806861695841
2016-06-21,-1,-0.0016362394287723076,-0.0012315912879336248,0.000902440839775657,0.01155041694136803,0.9854596790338792
2016-06-23,-1,-0.0006457384338206516,-0.0004058930044549729,0.000902440839775657,0.011522181682262862,0.985730233116264
2016-06-27,-1,-0.0038814280932025127,-0.003241603800403895,0.001384931627877784,0.011522181682262862,0.9876743648297148
2016-06-29,-1,-0.00287477960825884,-0.0023491795235981838,0.001384931627877784,0.008785844840702307,0.9897327048661855
2016-07-01,-1,-0.0029172739766354025,-0.0023449919288905186,0.0007388728302212307,0.0062048627326434305,0.9906968989614079
2016-07-06,-1,-0.0043809560430382675,-0.0035797842874108984,0.0007388728302212307,0.006274596119146073,0.9907136552871729
2016-07-08,-1,-0.002645769072825669,-0.0021060721924392543,0.0007388728302212307,0.006274596119146073,0.9919270651225465
2016-07-12,-1,-0.0016652241875795,-0.0012628301945742956,-0.0008069956322807329,0.004795475899388812,0.9932278326614294
2016-07-14,-1,-0.0009761338026300669,-0.0006927283100503451,-0.005099925698832897,0.004795475899388812,0.9930104970717457
2016-07-18,-1,-0.0012785956215085159,-0.000928508022169188,-0.005099925698832897,0.004795475899388812,0.9930852345236412
2016-07-20,-1,-0.0009286400171389232,-0.0006369407653380096,-0.005099925698832897,0.004966589495964893,0.9930793786468959
2016-07-22,-1,-0.0006796590973833164,-0.0004526279058589631,-0.00504442684180989,0.004050714404622345,0.9945023826455087
2016-07-26,-1,-0.0003289039236170204,-0.0001756016361807803,-0.00504442684180989,0.004772583396020991,0.9942200752137793
2016-07-28,1,5.6557349144606124e-05,0.00014478874734695583,-0.005099925698832897,0.004772583396020991,0.993973842942514
2016-08-01,-1,-0.0003380170185487461,-0.00020316808526263673,-0.0036800914068019592,0.0050899622173852166,0.9938341899310036
2016-08-03,-1,-0.0004452433462421452,-0.0003042855449485747,-0.0027533416032202436,0.004772583396020991,0.994485555755811
2016-08-05,1,0.00023156890932992842,0.0003019003653428364,-0.0036800914068019592,0.004772583396020991,0.9948710374070185
2016-08-09,1,0.000328973472522101,0.0003687253313163824,-0.0027533416032202436,0.0052707456370929325,0.9946832917927134
2016-08-11,1,0.0006283364628246933,0.0006519512074891728,-0.0027533416032202436,0.00494394453161041,0.9948295744220784
2016-08-15,1,0.0004699258905638511,0.0004850540090248973,-0.0036800914068019592,0.0052707456370929325,0.9933591638631112
2016-08-17,1,0.00029797475980338026,0.0003449147907382057,-0.004402347116951722,0.005194328247972794,0.9929796159965083
2016-08-19,1,0.000134840470276083,0.00020235353810344397,-0.004402347116951722,0.00570602388214258,0.9926938875168966
2016-08-23,1,0.00038514374890755447,0.0004062466839810329,-0.005959881181258329,0.006347241857147367,0.9923444624556362
2016-08-25,-1,-0.00030960365120703733,-0.000182728985768859,-0.006725344250230536,0.006347241857147367,0.9920228884210861
2016-08-29,-1,-0.0005684560298773875,-0.0003741742942501506,-0.0077956480801698435,0.006347241857147367,0.991750122786328
2016-08-31,-1,-0.0003437717520901475,-0.00019765710640517358,-0.011251401572880439,0.006347241857147367,0.9912262358814757
2016-09-02,1,0.00012037700562263443,0.00015431451726224276,-0.008068074346554082,0.007090117234940925,0.991261692574572
2016-09-07,1,0.0005111959495068103,0.0005223403256066404,-0.008068074346554082,0.006472799283465128,0.991577914493225
2016-09-09,1,0.0003478973978061351,0.00037402973711497475,-0.008068074346554082,0.006472799283465128,0.9904283569227192
2016-09-13,1,0.0004667981255216573,0.0005581868001734102,-0.008068074346554082,0.00570602388214258,0.9912459358671493
2016-09-15,1,0.00029849850485600483,0.00037064937197389284,-0.005664235174788417,0.005654514732599152,0.9917986043841791
2016-09-19,1,0.0005190764329499914,0.0006335518422375479,-0.005664235174788417,0.003061394693631601,0.9917363615128246
2016-09-21,1,0.00045863809882773705,0.0005470079296158715,-0.005143827356627677,0.0036149862249580432,0.9913853567559041
2016-09-23,1,0.00015694747821430946,0.0001903669627039505,-0.004381319098506372,0.007452188350069021,0.9874530204145885
2016-09-27,1,0.00013959140196251427,0.00015103708551405918,-0.004381319098506372,0.004014050917586078,0.9879702291494066
2016-09-29,-1,-0.00020061610337998752,-0.00017212591624499356,-0.004193180757919259,0.004014050917586078,0.9885606009258421
2016-10-03,1,0.0001054486585934096,0.00012705686178190686,-0.004381319098506372,0.002451421834124222,0.9888653024694314
2016-10-05,1,0.00021038347658260917,0.00023560560046930541,-0.004764405205034994,0.002026272765191232,0.9885175184073423
2016-10-07,-1,-0.001102916418468132,-0.0009465750557568675,-0.004381319098506372,0.00238898029488452,0.9905540381297379
2016-10-11,-1,-0.0014435290700083468,-0.0012479460061791715,-0.004193180757919259,0.0028176887477315577,0.9902430411529562
2016-10-13,-1,-0.0014417255416044822,-0.0012632509808173983,-0.004045351665429314,0.011382447896238263,0.988134983187597
2016-10-17,-1,-0.0011863337136306983,-0.0010722048580721444,-0.0020149002395485785,0.019588055721741514,0.9867331344785752
2016-10-19,-1,-0.0005085017316776592,-0.0004793695621183667,-0.002921676138947077,0.011496500067924065,0.9875237778859528
2016-10-21,1,0.0018413940328497246,0.0021270228944471094,-0.0043104952971963414,0.0034571050193101557,0.9917888283215143
2016-10-25,1,0.0015517338645768817,0.0017899335243051452,-0.0020149002395485785,0.006073420513215846,0.9921676812269616
2016-10-27,1,0.0016803660825348348,0.0019435896219982558,-0.0020149002395485785,0.009747723635039129,0.991409150580637
2016-10-31,1,0.0014561295979568496,0.0016853538581379215,-0.004137796983419823,0.009747723635039129,0.9908619432326498
2016-11-02,1,0.0006971867354668403,0.0007809752684308133,-0.0006641297792729099,0.009813558567724742,0.9909233063061731
2016-11-04,1,0.00020449101958620113,0.00023144878170704183,-0.0024239983215886473,0.009813558567724742,0.9903516394892412
2016-11-08,1,0.0007792004753960878,0.0008323621023189124,-0.0024239983215886473,0.009813558567724742,0.9902174194565676
2016-11-10,1,0.0018437653527136918,0.002042221036306406,-0.0036199673016627837,0.007627591675130093,0.9920846847807163
2016-11-14,1,0.0029099235997563063,0.0032647855259132236,-0.008964028176777421,0.007002721962520309,0.9924979280137878
2016-11-16,1,0.0013824295570097594,0.0013833565517666808,-0.0036199673016627837,0.007627591675130093,0.9924913312465086
2016-11-18,1,0.0013945075727207373,0.0014483205177938433,-0.002901742052128298,0.007627591675130093,0.9927369350849204
2016-11-22,1,0.001735879734260134,0.0018582109792990146,-0.002901742052128298,0.007054085886953392,0.9928360766497346
2016-11-25,1,0.0016625280109381713,0.0017424054424594203,-0.006718184559430318,0.006811553366461409,0.9928650092422584
2016-11-29,1,0.0014689589315627512,0.0015696737208183431,-0.002901742052128298,0.006811553366461409,0.9933763008037894
2016-12-01,1,0.0020185608531588344,0.002222939594309882,-0.006012691551191062,0.0042227581536177245,0.9936505115431054
2016-12-05,1,0.0018637110318480326,0.002058032085423926,-0.002901742052128298,0.0072171565433226115,0.9929509015219299
2016-12-07,1,0.0025983671881515255,0.0028940547817711336,-0.006012691551191062,0.0056321998369146895,0.993594432279653
2016-12-09,1,0.002748204610242046,0.0030699607622237546,-0.006012691551191062,0.0056321998369146895,0.993615713689756
2016-12-13,1,0.0022852270656069326,0.0025372803082882034,-0.001792602042361187,0.0056321998369146895,0.9943534060502274
2016-12-15,1,0.002541289484966305,0.0028248817288453283,-0.0040363567251494635,0.005183024994858324,0.9943879095177551
2016-12-19,1,0.0023827948228366184,0.002650444592110882,-0.004049088966444693,0.0056321998369146895,0.9938383982829864
2016-12-21,1,0.002403529419391753,0.002653647518170936,-0.006135524002515884,0.005183024994858324,0.9933628206978636
2016-12-23,1,0.0021378977922943704,0.002339923541904457,-0.006135524002515884,0.006479189166456851,0.9928765436524049
2016-12-28,1,0.002149279898073049,0.0023879888805306026,-0.004049088966444693,0.006479189166456851,0.9932540254740465
2016-12-30,1,0.0019296645816439494,0.0021327096339621783,-0.004133724693883829,0.006799972815070676,0.9928545005949052
2017-01-04,1,0.0025208603472757153,0.0028000916612246924,-0.004133724693883829,0.005023293388791286,0.9935338246883514
2017-01-06,1,0.0021653223063027435,0.002397086161222986,-0.0032881340429529254,0.005274535983312803,0.99323894617589
2017-01-10,1,0.002429570913405208,0.002692837912733103,-0.0032881340429529254,0.0037878492841876468,0.9934336690742371
2017-01-12,1,0.00235820704583821,0.0026036533733284017,-0.0032881340429529254,0.004907009574751896,0.9934676167620766
2017-01-17,1,0.0021819749005732377,0.0024025352505579723,-0.0030779637032374548,0.005508159865768204,0.9935700703311346
2017-01-19,1,0.0019477080133352125,0.0021172311072903903,-0.002868891254313274,0.00510116801627642,0.9944794626233329
2017-01-23,1,0.0016955019108553717,0.0018388753005712753,-0.0011692047368184752,0.00510116801627642,0.9950215925295721
2017-01-25,1,0.0018707483877518992,0.002033796627588854,-0.0011692047368184752,0.004907009574751896,0.996162101985492
2017-01-27,1,0.001653174000696576,0.001774047125900119,-0.0013076286842660964,0.005016484210138483,0.995875834644178
2017-01-31,1,0.0015748297805359196,0.0017030367239994383,-0.0013067708181863373,0.005016484210138483,0.9954997010798575
2017-02-02,1,0.0012890422280009558,0.0013523477949847762,-0.0013729498314525661,0.004948305299982506,0.9944462986882924
2017-02-06,1,0.0014123389211360931,0.001470919317348616,-0.0013729498314525661,0.004099073989241777,0.9952569465116162
2017-02-08,1,0.0011525032655046422,0.0011597539593168845,-0.0017182880931617562,0.004099073989241777,0.9948584985134569
2017-02-10,1,0.001248216393475816,0.0012673205454607557,-0.002292826311022524,0.0032687633807562087,0.9950012663223764
2017-02-14,1,0.001412322266077935,0.0014514939244743216,-0.0029656233349197106,0.002701989050538122,0.9948511937747452
2017-02-16,1,0.0011864570748000183,0.0011907586525403042,-0.003906335687541179,0.0032687633807562087,0.9943966113817625
2017-02-21,1,0.001260697982441111,0.0012665347480310316,-0.00522859246454951,0.00260677073514048,0.9933418091184459
2017-02-23,1,0.0008930035434256021,0.000957201222220297,-0.00522859246454951,0.0024639179739775817,0.9935691164296943
2017-02-27,1,0.0008452028795537912,0.0009120777476875577,-0.005958942088478371,0.0024639179739775817,0.9934006555096505
2017-03-01,1,0.001372496736924496,0.0013737945859581496,-0.005958942088478371,0.0024639179739775817,0.9935540036081251
2017-03-03,0,-0.00017136508452214854,6.822298930583804e-05,-0.00522859246454951,0.0036233454024953917,0.9944506927207596
2017-03-07,-1,-0.0007309832888772873,-0.0004001721694106351,-0.005958942088478371,0.0036233454024953917,0.9943047416103677
2017-03-09,-1,-0.0011884643739790983,-0.0007855586382787378,-0.0059265071209275814,0.002797762703157678,0.994464076112021
2017-03-13,-1,-0.0015946178354376004,-0.0011270714419194046,-0.0059265071209275814,0.002797762703157678,0.9945417697505905
2017-03-15,-1,-0.0012678125749913589,-0.0008960952616634938,-0.006421394670486001,0.002090352504655073,0.9946055964573789
2017-03-17,0,-7.359280163532185e-05,0.00011214796015343402,-0.0064350147729319955,0.002090352504655073,0.9937156631522406
2017-03-21,-1,-0.0011887666296635702,-0.0008548837748769543,-0.0064350147729319955,0.002090352504655073,0.9944473891636683
2017-03-23,-1,-0.0010743570768524976,-0.0007683409971283078,-0.0064350147729319955,0.002699391466947741,0.9914993757214172
2017-03-27,-1,-0.0014627683552743767,-0.0010970404481220823,-0.005627485394505389,0.004379410247538337,0.9915171099809943
2017-03-29,-1,-0.0016432102590964726,-0.0012291798867994797,-0.005627485394505389,0.0021025261747956896,0.9924304125262687
2017-03-31,-1,-0.0014685391738826223,-0.0010711200899514428,-0.0064350147729319955,0.0003251478442843848,0.9923764017659793
2017-04-04,-1,-0.0015978860091967304,-0.0012079506485863087,-0.006668505355177403,0.0021025261747956896,0.9921998168389231
2017-04-06,-1,-0.000969228102763916,-0.0007241247217667279,-0.006633857648121128,0.0004635853981885692,0.9920771023774094
2017-04-10,-1,-0.0006249552253710347,-0.0004670923325718055,-0.006633857648121128,0.0025736586413578704,0.991892676504628
2017-04-12,-1,-0.0012009630088815866,-0.0009590331969029747,-0.006988650761056534,0.002903490139570844,0.9918640554683098
2017-04-17,-1,-0.0014475389233324424,-0.0011602201675955592,-0.00572455409431328,0.002903490139570844,0.9922338961291507
2017-04-19,-1,-0.0017993507346385858,-0.0014829745581722298,-0.00572455409431328,0.002903490139570844,0.9917429274076289
2017-04-21,1,9.752942627398744e-05,0.00017296996400173998,-0.00572455409431328,0.002903490139570844,0.994319827566909
2017-04-25,1,4.4372217611738946e-05,0.00015918770311157816,-0.00572455409431328,0.002722345761526835,0.9947361950281086
2017-04-27,1,8.136922395859307e-05,0.00017344724843981155,-0.00572455409431328,0.0030389461670170276,0.9946605041344598
2017-05-01,-1,-0.0005994605494484213,-0.00041406204778743935,-0.004962141961199831,0.0030389461670170276,0.9951135011188722
2017-05-03,-1,-0.00024378635667460848,-0.00014927265061410831,-0.003109192499674584,0.0030389461670170276,0.994774479132079
2017-05-05,-1,-0.00037658472610193196,-0.00027447252946565404,-0.0021704773346239298,0.0037241278479689752,0.9946040447084276
2017-05-09,-1,-0.0006034070286918295,-0.0004561520524888341,-0.0020976135660408825,0.00448675456461632,0.9941872461676978
2017-05-11,-1,-0.0005937207925333545,-0.00046736573089602396,-0.0016261240063415929,0.004751840997010387,0.994402767855434
2017-05-15,-1,-0.0005707776703228538,-0.0004379883119586784,-0.0015755087058304906,0.004686827720406786,0.9948773965747463
2017-05-17,-1,-0.0011860814212214046,-0.0009951049658916983,-0.0011570455592681043,0.004686827720406786,0.9956041491259907
2017-05-19,-1,-0.0011289643619324726,-0.0009369271616832726,-0.0011570455592681043,0.0052489626166296,0.9951900685061762
2017-05-23,-1,-0.0011446924742065778,-0.0009383410828400494,-0.0015726514763502574,0.005488355217770758,0.9950007973577815
2017-05-25,-1,-0.0011625704374122118,-0.000947285582130895,-0.0015726514763502574,0.005488355217770758,0.9951474932403502
2017-05-30,-1,-0.0008173890928389977,-0.0006833140871977587,-0.0006534448870015534,0.006510165365911515,0.9948840891670414
2017-06-01,-1,-0.0005644592551130121,-0.0004431019653245163,-0.0006534448870015534,0.006510165365911515,0.9952289270361242
2017-06-05,-1,-4.133634171253796e-05,-2.6525722846183227e-06,-0.0006534448870015534,0.008020739163389749,0.9949720389841876
2017-06-07,1,0.0003113696097225289,0.00031809198531529165,-0.0017346656905206771,0.007394092211190181,0.9949456399663409
2017-06-09,1,0.00039193834766837563,0.0004013821099439986,-0.0017346656905206771,0.007394092211190181,0.9948756023132127
2017-06-13,1,0.00046009007002649753,0.00048006041101901573,-0.00167849824141934,0.007731224340351801,0.9947706588641505
2017-06-15,1,0.0002906177369551927,0.0003087801234152151,-0.0012058927518119537,0.007731224340351801,0.9946022389813675
2017-06-19,1,0.0008064084105362042,0.0008742214416485077,-0.0012058927518119537,0.007394092211190181,0.9951294753593392
2017-06-21,1,0.0008427789486204016,0.0009124773036915342,-0.0012058927518119537,0.007107758902197111,0.9951198750268034
2017-06-23,1,0.0007018227177384097,0.0007410057034668545,-0.0018624647167527323,0.007107758902197111,0.9946888235473605
2017-06-27,1,0.0009341233548278054,0.001004096370157673,-0.0018624647167527323,0.006624683039627816,0.9948481754310076
2017-06-29,1,0.0013299155398216256,0.0014762631368128996,-0.0018624647167527323,0.006624683039627816,0.9942169806749335
2017-07-03,1,0.0017587554985930842,0.0019579696240456784,-0.0018624647167527323,0.0048853689048701,0.9946802082195889
2017-07-06,1,0.0013670601670281435,0.0015265375381813336,-0.0011126888318613423,0.0048853689048701,0.9955330216474951
2017-07-10,1,0.0016605571547225308,0.001876340508029759,-0.0013149012875534431,0.004874402251415141,0.9956108939503864
2017-07-12,1,0.001801585447181508,0.0020359790349856978,-0.0013149012875534431,0.004801575521565068,0.9958079880077086
2017-07-14,1,0.001973241101547637,0.0022376239231768763,-0.00297999451242949,0.003838745774004227,0.9951541088498528
2017-07-18,1,0.002033564979491892,0.002305312085376611,-0.00297999451242949,0.004874402251415141,0.9941165104218609
2017-07-20,1,0.0019461908263317144,0.00220647824837415,-0.00297999451242949,0.005037858172902289,0.9936138170800708
2017-07-24,1,0.0021988655129195596,0.0025293688547089396,-0.00297999451242949,0.005037858172902289,0.9934087383121392
2017-07-26,1,0.001826148714380115,0.0020608757848812,-0.00297999451242949,0.005037858172902289,0.9935361079849333
2017-07-28,1,0.001557423603895357,0.0017478158118340477,-0.0017741523139415845,0.0033669033181665075,0.9949413053225443
2017-08-01,1,0.0015776162885125131,0.0017619880743499133,-0.0017741523139415845,0.0016698936806271007,0.9949741502495768
2017-08-03,1,0.00159550783236857,0.0017775078666051553,-0.0017741523139415845,0.0035668373984088725,0.9948515932064816
2017-08-07,1,0.0016193133044752417,0.0018023616160029318,-0.00297999451242949,0.0017567257872631603,0.9945286201556641
2017-08-09,1,0.0014796731707836287,0.0016424372721277197,-0.00445651280962614,0.0017567257872631603,0.9941647491632283
2017-08-11,1,0.0006158962967584697,0.0006255801115443926,-0.0011771546858452713,0.0035668373984088725,0.9944059408439251
2017-08-15,1,0.001399570896698009,0.0015162738533096875,-0.0011771546858452713,0.0017567257872631603,0.9950801805328566
2017-08-17,1,0.0010602480328157711,0.0011216726238944912,-0.0011771546858452713,0.0017567257872631603,0.9955858996306253
2017-08-21,1,0.0008489966872035745,0.0008938714140916979,-0.0007609012148012815,0.005908923386253216,0.9951355637596359
2017-08-23,1,0.0009526355272941236,0.0010264895621979694,-0.0011771546858452713,0.005908923386253216,0.9948341736572164
2017-08-25,1,0.0007744854726307548,0.0008031394104862793,-0.001959002196800409,0.005908923386253216,0.9946520461734406
2017-08-29,1,0.0006053330699769159,0.0006095912416413001,-0.001959002196800409,0.00908553956303925,0.9941098780012353
2017-08-31,1,0.0006452614636295115,0.0006556497753347338,-0.001959002196800409,0.00908553956303925,0.9939713758566632
2017-09-05,1,4.06152628024439e-05,0.0001399772436317862,-0.0011771546858452713,0.009418800044910466,0.9939571755120783
2017-09-07,-1,-0.00041245908022534005,-0.00025560710069866445,-0.000643504734209259,0.009418800044910466,0.9940326656842624
2017-09-11,-1,-0.00032344547421510913,-0.0001485762568616921,-0.00014136976597433113,0.00908553956303925,0.9947064206733344
2017-09-13,1,0.0010582698398978326,0.001124491123573206,-0.00014136976597433113,0.007702581654833712,0.9955697426592878
2017-09-15,1,0.0013606050529249608,0.0014897028826196788,-0.00014136976597433113,0.007702581654833712,0.9955199557536585
2017-09-19,1,0.0020179998706195616,0.0022210735888233274,-0.0023460173059658,0.004569038498347286,0.9956820982778909
2017-09-21,1,0.0014067359580617078,0.0014968465024725864,-0.0020034560889304037,0.004569038498347286,0.9958914817789267
2017-09-25,1,0.0011186255966525464,0.0011557302207278826,8.262651282326262e-05,0.004569038498347286,0.9959160221930091
2017-09-27,1,0.0013681796462424664,0.0014188002746907493,-0.0022001245473101867,0.0042596383193208975,0.9956102308608753
2017-09-29,1,0.0015921254338481434,0.0016714954809040788,-0.0022001245473101867,0.0042596383193208975,0.9949451879678463
2017-10-03,1,0.0016908941833831933,0.001762599717679978,-0.0030809905589557424,0.0042596383193208975,0.9947695282111215
2017-10-05,1,0.001513790935431229,0.0015671182752146468,-0.0022001245473101867,0.0042596383193208975,0.9949911486613843
2017-10-09,1,0.0009864262236886356,0.0010460681458892489,-0.0022001245473101867,0.004362203190306111,0.9947709060999005
2017-10-11,1,0.0010120802528233524,0.0010674267735851712,-0.0030809905589557424,0.004362203190306111,0.9941447556825488
