JNU-Tangyin/eata/results/Batch4_SP500/Batch4_SP500-ILMN.csv
Date,Action,Predicted_Q25,Predicted_Q75,Actual_Q25,Actual_Q75,RL_Reward
2010-12-14,0,0.0,0.000748200992143047,-0.005867057897862766,0.009103894556923595,0.9911618999381151
2010-12-16,1,0.004354204508321453,0.004362592560679243,-0.005669929843833737,0.0133158123819908,0.9890235099789367
2010-12-20,1,0.006287689476020326,0.0066911490121839305,-0.005867057897862766,0.01531057425001825,0.9868845100245837
2010-12-22,1,0.006115144350955601,0.006556456914595683,-0.006367573420989329,0.01531057425001825,0.9868657672241339
2010-12-27,1,0.005946783203328466,0.006385126381245302,-0.006140890855595259,0.01531057425001825,0.9868678684381456
2010-12-29,1,0.00616191000516331,0.006678186700083964,-0.006140890855595259,0.01531057425001825,0.9868544533912649
2010-12-31,1,0.004877348790982101,0.00516243076689492,-0.006140890855595259,0.01531057425001825,0.9866681121516732
2011-01-04,1,0.004537391271350367,0.004703310294114511,-0.006140890855595259,0.016632777584140567,0.9866156094235005
2011-01-06,1,0.005880274315341363,0.006203750640585364,-0.007670565680245718,0.012988550698585141,0.9872826520617305
2011-01-10,1,0.00499581082272031,0.005215521828265216,-0.007670565680245718,0.012988550698585141,0.9875785001789061
2011-01-12,1,0.004618165682806415,0.004709372286595983,-0.00921108155146087,0.012988550698585141,0.987057433518364
2011-01-14,0,0.0,0.0,-0.00921108155146087,0.012988550698585141,0.9878835442830577
2011-01-19,0,0.0,0.0,-0.00921108155146087,0.00830658517358005,0.9888455289930964
2011-01-21,0,0.0,0.0,-0.0024910701010182343,0.00830658517358005,0.9892717961409249
2011-01-25,1,0.0011533857357843497,0.0012226745008828569,-0.012087234370136705,0.006612255946388425,0.986671718058474
2011-01-27,1,0.0014396801136095613,0.0015036714060209675,-0.012087234370136705,0.008839352207556883,0.9856890745694652
2011-01-31,1,0.0008496297119099857,0.0010112872070443223,-0.012087234370136705,0.008839352207556883,0.984886377687911
2011-02-02,1,0.002868113494649045,0.0031394605139655595,-0.012087234370136705,0.011968483879551685,0.9845872737639444
2011-02-04,1,0.0026540233858036288,0.00292050326834081,-0.013101379540628474,0.011968483879551685,0.9841867715414597
2011-02-08,1,0.0032182816828639754,0.0032919498017051655,-0.014468068773204489,0.011968483879551685,0.9833853323590991
2011-02-10,1,0.003538703347798192,0.003578549174272503,-0.01946929062248607,0.011415893111670255,0.9830152017690321
2011-02-14,1,0.004631277466615148,0.004719065927747848,-0.01946929062248607,0.0054856508705298955,0.9834306642325478
2011-02-16,1,0.0034899641304807355,0.0035279180816138417,-0.01658760122308453,0.003708495594007837,0.9838745192785021
2011-02-18,1,0.00285869839387903,0.002998181568050747,-0.01658760122308453,0.011415893111670255,0.983240027203113
2011-02-23,-1,-0.0016589270641432577,-0.0009406810050436969,-0.009803740006913935,0.011415893111670255,0.9883139221404958
2011-02-25,0,-0.00010298973745980042,0.00042237235022055206,-0.009803740006913935,0.0043191781962526495,0.987224513083238
2011-03-01,-1,-0.001989515837633977,-0.0012770366560836586,-0.00838696277256527,0.011415893111670255,0.9877093262250959
2011-03-03,-1,-0.001969325436667312,-0.0011680370755738677,-0.00838696277256527,0.008827136773750766,0.9876288508061334
2011-03-07,-1,-0.0030541276461609496,-0.002140492022436852,-0.007298681143833101,0.010483069788646894,0.987605746860633
2011-03-09,-1,-0.005436522704439165,-0.004172608874344837,-0.007298681143833101,0.010483069788646894,0.9872360160558984
2011-03-11,-1,-0.0062355729640382815,-0.0049108632844134924,-0.007298681143833101,0.008191397431962967,0.987952436520233
2011-03-15,0,0.0,0.0,-0.00838696277256527,0.008191397431962967,0.987445674808195
2011-03-17,-1,-0.0002531305467467051,-0.00016788676090622115,-0.007428866009621749,0.00970445870132066,0.9876336999308042
2011-03-21,-1,-0.0033043307823665464,-0.0026822282194967958,-0.007735959277264194,0.00814377351678349,0.9873118739766473
2011-03-23,-1,-0.005774818430012341,-0.004693091977333037,-0.007735959277264194,0.00970445870132066,0.9855505803466339
2011-03-25,0,0.0,0.0,-0.006635157367132383,0.00970445870132066,0.9880498183953097
2011-03-29,0,0.0,0.0,-0.006635157367132383,0.008622305959066715,0.9893433053150329
2011-03-31,0,0.0,0.0,-0.007643467734657205,0.008622305959066715,0.9900308717313686
2011-04-04,-1,-0.0003325960994527028,-7.843746668678188e-05,-0.007643467734657205,0.008622305959066715,0.9901519544591991
2011-04-06,-1,-0.0017670254812634902,-0.00120404838336341,-0.011092203167940632,0.008622305959066715,0.9891732979445
2011-04-08,0,0.0,0.0,-0.007643467734657205,0.010590188946969769,0.9878382320845376
2011-04-12,0,0.0,0.0,-0.007643467734657205,0.013115168392860936,0.9869547906420356
2011-04-14,0,0.0,0.0,-0.00031997583180564965,0.014678785868397996,0.9869263123343442
2011-04-18,0,0.0,0.0,-0.00818192954764045,0.014678785868397996,0.9855264525660417
2011-04-20,0,0.0,0.0,-0.00896073701006199,0.012127712224529276,0.9860324005216208
2011-04-25,0,0.0,0.0,-0.012844274756792132,0.011262459772518914,0.9862269204686696
2011-04-27,0,0.0,0.0,-0.012844274756792132,0.012127712224529276,0.9856438849031101
2011-04-29,0,0.0,0.0,-0.012844274756792132,0.011783665597697935,0.9858705371471049
2011-05-03,0,0.0,0.0,-0.012844274756792132,0.011783665597697935,0.9861217617661358
2011-05-05,0,0.0,0.0,-0.008187610025503018,0.011783665597697935,0.9872862825217142
2011-05-09,0,0.0,0.0,-0.008187610025503018,0.008363490473694463,0.9893134460564867
2011-05-11,0,0.0,0.0,-0.007722761682085908,0.007648209140976932,0.990849751096652
2011-05-13,0,0.0,0.0,-0.010091239212670685,0.006580128556069505,0.9901449439205773
2011-05-17,0,0.0,0.0,-0.008187610025503018,0.007648209140976932,0.9908121702574628
2011-05-19,0,0.0,0.0,-0.008015968258317595,0.006580128556069505,0.9913807169329438
2011-05-23,1,0.0007043555498706359,0.0008704116762542656,-0.007591982524489355,0.008417077036815379,0.9907626585839484
2011-05-25,1,0.00020478007602858447,0.00038504579660686986,-0.006617078636376296,0.008417077036815379,0.9909180379981534
2011-05-27,1,0.0009000628171889053,0.0010648304939732817,-0.006992020880070261,0.01063220225753386,0.9902014682706858
2011-06-01,1,0.001128072035251537,0.001192610692063154,-0.006992020880070261,0.011560457931947885,0.9892596134921099
2011-06-03,1,0.0014414412470064317,0.001495394643692976,-0.005932030723569921,0.012013263736424735,0.9892087137610295
2011-06-07,1,0.0020822449549702292,0.0021268692508123344,-0.005932030723569921,0.014120655939747656,0.9888017823346195
2011-06-09,1,0.002932790912572312,0.0031621071460787007,-0.008016030338542864,0.014120655939747656,0.9879460733728872
2011-06-13,1,0.00035491098958171497,0.000384937506331017,-0.005932030723569921,0.014120655939747656,0.9879393716673195
2011-06-15,1,0.001893924785618052,0.0019119779176078034,-0.00479648100117301,0.012013263736424735,0.9891984407580464
2011-06-17,1,0.0030007638632600225,0.003178865895212283,-0.0076432393874678066,0.012013263736424735,0.9873416160977824
2011-06-21,1,0.002633965322498622,0.0028830335557249688,-0.0076432393874678066,0.011171228109291283,0.9877794112449622
2011-06-23,1,0.001976286293513636,0.0022129251403840366,-0.007274985522343406,0.0123435591298173,0.9879681608456108
2011-06-27,1,0.0035187195651737537,0.00387108672229748,-0.014556063722518319,0.011171228109291283,0.9858111635781903
2011-06-29,1,0.0035333168015356667,0.00401981961659399,-0.023312468962395184,0.011171228109291283,0.9798871673536045
2011-07-01,1,0.0018514835268484495,0.0019361984109322592,-0.02400456064904597,0.01207100024124126,0.9777435595988779
2011-07-06,1,0.0028613868868830254,0.003130970697442974,-0.02624061979041638,0.0069481203213526315,0.9767498940945052
2011-07-08,1,0.004571141655129464,0.005280851908844277,-0.02980901555489304,0.0069481203213526315,0.9731977072998206
2011-07-12,1,0.0025813207015064057,0.002968339430924734,-0.03121983747640701,0.01207100024124126,0.9695824093362625
2011-07-14,1,0.002624538705629311,0.0030201741779708148,-0.03634701256030693,0.015054659133692885,0.9665205854951717
2011-07-18,-1,-0.000840990640914933,-0.0006152350785638177,-0.03634701256030693,0.015187361075923164,0.9660940709327679
2011-07-20,0,0.0,0.0,-0.03634701256030693,0.015187361075923164,0.9648019825921255
2011-07-22,1,0.0008866367342378748,0.0009078303944760679,-0.03951015213452133,0.004667639228612005,0.9612651569711554
2011-07-26,-1,-0.0012231057340242862,-0.0010121213285952464,-0.03951015213452133,0.02044614133944544,0.9621308087616282
2011-07-28,-1,-0.0036656457178112175,-0.0031337909760739907,-0.032031632452027996,0.004667639228612005,0.9686907111090497
2011-08-01,-1,-0.003866031908308455,-0.0032601441044091597,-0.032031632452027996,0.021593535359351712,0.9668012689393346
2011-08-03,-1,-0.005873897897514307,-0.004994348707425677,-0.026300785495409994,0.021593535359351712,0.9683432539730003
2011-08-05,-1,-0.009779279930922676,-0.008432649326048362,-0.025729757472455025,0.021593535359351712,0.9710293129766989
2011-08-09,-1,-0.009004918233710664,-0.007702770166967186,-0.021954640770949392,0.018037403604944116,0.9752049134552808
2011-08-11,0,0.0,0.0,-0.021954640770949392,0.013107797240109756,0.9747912173511981
2011-08-15,0,0.0,0.0,-0.021954640770949392,0.013107797240109756,0.9751639686231616
2011-08-17,-1,-0.010289768563266355,-0.009307353984834208,-0.01896483359642358,0.027286882934999118,0.9752152733686479
2011-08-19,-1,-0.014889428636916835,-0.013072292106446372,-0.01896483359642358,0.027286882934999118,0.9769872459637977
2011-08-23,-1,-0.01161439657243007,-0.010267842327586608,-0.028312742817290647,0.013107797240109756,0.9759739486344117
2011-08-25,-1,-0.012710312554406297,-0.01125823704592967,-0.028312742817290647,0.02057879627338546,0.9749108213477171
2011-08-29,-1,-0.008166832496917176,-0.007211180109391422,-0.028312742817290647,0.011007534482415926,0.978433139185624
2011-08-31,0,0.0,0.0,-0.029534284798546286,0.008612879185940954,0.9754572136165459
2011-09-02,-1,-0.00923390711019344,-0.00811457458133797,-0.03260209743343766,0.008612879185940954,0.9761978334927841
2011-09-07,-1,-0.008184779214546214,-0.007194169328175356,-0.03260209743343766,0.01889457757329224,0.9748003459328446
2011-09-09,-1,-0.010238048354577246,-0.008994264640347367,-0.03538446132290904,0.01889457757329224,0.9716693477918465
2011-09-13,-1,-0.006407332986356281,-0.005678574029477131,-0.03538446132290904,0.008612879185940954,0.9724544877498544
2011-09-15,-1,-0.00632533177487082,-0.005648109624740969,-0.029534284798546286,0.008612879185940954,0.9735542480287748
2011-09-19,-1,-0.007301164065515279,-0.006538086090142962,-0.027119381024229373,0.008612879185940954,0.9743676404883632
2011-09-21,0,0.0,0.0,-0.016364585184679068,0.008612879185940954,0.9777220516897908
2011-09-23,0,0.0,0.0,-0.015137001550846543,0.016466900110119975,0.9774857202802137
2011-09-27,0,0.0,0.0,-0.015137001550846543,0.021688495092474572,0.972832033633268
2011-09-29,0,0.0,0.0,-0.015137001550846543,0.02648700834761534,0.9710372904438352
2011-10-03,0,0.0,0.0,-0.013397876785955323,0.02648700834761534,0.9716549348823497
2011-10-05,-1,-0.003525614306150317,-0.003249443261874939,-0.013397876785955323,0.02230078065106607,0.9739101006523501
2011-10-07,-1,-0.00717860207000193,-0.0063912523497470924,-0.011079190804118559,0.030401057549720552,0.9742911558275287
2011-10-11,-1,-0.007722496602925291,-0.006903019748851741,-0.00857833478187981,0.030401057549720552,0.9736495498085912
2011-10-13,-1,-0.006060871187431909,-0.005425691983463346,-0.013397876785955323,0.02230078065106607,0.9741974048166527
2011-10-17,-1,-0.005556298688198699,-0.005007727167204728,-0.013397876785955323,0.02230078065106607,0.9735300589281962
2011-10-19,-1,-0.006544689199128836,-0.005889178087716461,-0.01159298626595976,0.02230078065106607,0.9719422075732687
2011-10-21,-1,-0.0040669856512564545,-0.003728430743918758,-0.022167282938498088,0.01898439182006135,0.9730208268867694
2011-10-25,1,0.00018272509658669948,0.00034972197073138904,-0.02553947987015397,0.013445384187614175,0.9766996998303815
2011-10-27,1,0.0023451759417713342,0.002823890235777832,-0.024570505137135892,0.007329376082587511,0.9787739248517039
2011-10-31,1,0.001788659920504127,0.0022218385822371308,-0.021747730921601763,0.003499149916539051,0.9813704511108449
2011-11-02,1,0.0011952494992798477,0.0014724738349842247,-0.021747730921601763,0.007329376082587511,0.9806483443036369
2011-11-04,1,0.004017166859245577,0.00466403943247957,-0.021747730921601763,0.004616317311142183,0.9805826100359852
2011-11-08,1,0.005663725450280522,0.006558582322651499,-0.021747730921601763,0.004616317311142183,0.9802032996211668
2011-11-10,1,0.004117469644488267,0.00489046068731683,-0.021230917529337652,0.004616317311142183,0.9816338313460763
2011-11-14,1,0.005084294130811328,0.005997266118867306,-0.026858483866947978,0.0031963063850433873,0.9768767421358744
2011-11-16,1,0.0036374007704990854,0.004361741391000642,-0.024570505137135892,0.004616317311142183,0.9773843136696689
2011-11-18,1,0.0022345604539301344,0.002823763310595796,-0.024570505137135892,0.004616317311142183,0.9787537906632184
2011-11-22,1,0.001058076851171167,0.001528274446382089,-0.01676291099720084,0.01169339519502697,0.9800216790778046
2011-11-25,1,0.0016403516150472483,0.00224644104368249,-0.009672735101613513,0.018075107997810858,0.9778945290900216
2011-11-29,1,0.0006482045910248513,0.0011441648858549621,-0.01321558321622882,0.021489442899531294,0.9769785858934877
2011-12-01,1,0.0016321402306950501,0.0021982863935717163,-0.01321558321622882,0.021489442899531294,0.9769645514722747
2011-12-05,1,0.003552085850019261,0.004380305590659885,-0.01321558321622882,0.021489442899531294,0.9776161961328196
2011-12-07,1,0.004203446443511315,0.005039916125350366,-0.01321558321622882,0.021489442899531294,0.9776930667339413
2011-12-09,1,0.003085193711765506,0.0038494605060746564,-0.0078763354919697,0.024327307988722954,0.9786317837825466
2011-12-13,1,0.0008277443783101515,0.0013028309622321087,-0.00015157510885250962,0.03206984396150828,0.9780519169615667
2011-12-15,1,0.0018535721925245507,0.002290323652488308,-0.00015157510885250962,0.02643176479289542,0.979990483969127
2011-12-19,1,0.0015708043388231812,0.00186956368969511,0.002063818254405517,0.02643176479289542,0.9806326025326608
2011-12-21,0,0.0,0.0,0.0008428967686822924,0.02643176479289542,0.9806622669044224
2011-12-23,0,0.0,0.0,0.0012492260384253343,0.03206984396150828,0.9774490286521399
2011-12-28,0,0.0,0.0,-0.0021570319766331825,0.03206984396150828,0.9761564712770268
2011-12-30,0,0.0,0.0,-0.010152292744513274,0.03206984396150828,0.9763297313865117
2012-01-04,0,0.0,0.0,-0.004504402950056174,0.020819168555700568,0.978547175074263
2012-01-06,0,0.0,0.0,-0.004504402950056174,0.020819168555700568,0.9789165725389658
2012-01-10,0,0.0,0.0,-0.005514596713477712,0.013712771814286318,0.980305342662854
2012-01-12,0,0.0,0.0,-0.005514596713477712,0.012682910164535204,0.9833161644410935
2012-01-17,0,0.0,0.0,-0.002260962281401777,0.012682910164535204,0.9840002135257524
2012-01-19,0,0.0,0.0,-0.00538485834396389,0.008452974326222279,0.9842223524207361
2012-01-23,0,0.0,0.0,-0.00828655114338015,0.008452974326222279,0.9825820636872288
2012-01-25,0,0.0,0.0,-0.00828655114338015,0.004653855008424149,0.9887940867562959
2012-01-27,1,0.0033332848994334432,0.0038509771452001048,-0.004105457157748253,0.004653855008424149,0.9919225600449649
2012-01-31,1,0.011756723683504566,0.013689671940353853,-0.0034251880247432925,0.003745532933265906,0.9864449337627642
2012-02-02,0,0.0,0.0,-0.0034251880247432925,0.004535592166602627,0.9928109090549293
2012-02-06,1,0.0148898608388537,0.017311443909583744,-0.006741290316736881,0.004535592166602627,0.9825897946553211
2012-02-08,1,0.01107823972828741,0.012852135263973694,-0.006741290316736881,0.003745532933265906,0.9861472780301525
2012-02-10,1,0.01128119514939871,0.012998587038975763,-0.007432631934509221,0.0031053206426887732,0.9845904564945721
2012-02-14,1,0.00869381602497413,0.009812372282181542,-0.007432631934509221,0.0024356689950314125,0.9869913244724785
2012-02-16,1,0.008116028652708999,0.009148042179975712,-0.006741290316736881,0.001735267688863022,0.9877100437791424
2012-02-21,0,0.0,0.0,-0.004640786089718957,0.0024356689950314125,0.9953012522048381
2012-02-23,0,0.0,0.0,-0.004640786089718957,0.002187335123803568,0.9953604777691843
2012-02-27,1,0.004976221735396266,0.0050474192256860706,-0.004640786089718957,0.0024435166493505596,0.9932141119345007
2012-02-29,0,0.0,0.0,-0.0064657090643743,0.0024435166493505596,0.9945863707168986
2012-03-02,0,0.0,0.0,-0.0064657090643743,0.0033932926970728964,0.9922814606765303
2012-03-06,0,0.0,0.0,-0.006099921298674876,0.004145226200785887,0.9914814041671076
2012-03-08,0,0.0,0.0,-0.006099921298674876,0.00461327507100708,0.9913550574995922
2012-03-12,1,0.0001500172320028133,0.00031217851429021505,-0.004640786089718957,0.004930345377864911,0.9914782679740866
2012-03-14,-1,-0.0008051805278811025,-0.00046365518127875307,-0.006099921298674876,0.004930345377864911,0.9888129248428731
2012-03-16,-1,-0.00045700788720605173,-0.0001866542713046392,-0.00747115136380937,0.004930345377864911,0.9844793452011146
2012-03-20,1,0.0026206981047744767,0.0029629306361597745,-0.012642409787716254,0.004930345377864911,0.9840497362220976
2012-03-22,1,0.0032141187780500634,0.003704154042420917,-0.012975005096911352,0.005423868596235577,0.9837362146597066
2012-03-26,1,0.002678686287438845,0.002995313956055421,-0.013169751757998595,0.005423868596235577,0.9826573177896513
2012-03-28,1,0.0016088555084246361,0.0017477150328329724,-0.013169751757998595,0.007873155123809579,0.9825199471001854
2012-03-30,1,0.004531975398039166,0.005239904369368105,-0.013169751757998595,0.005858493849844189,0.9839952623476931
2012-04-03,0,0.0,0.0,-0.01017493499228302,0.007873155123809579,0.9842278554163889
2012-04-05,0,0.0,0.0,-0.015929344751032252,0.007873155123809579,0.9828669920405374
2012-04-10,0,0.0,0.0,-0.016063042631362257,0.011197204388678363,0.9814886701715243
2012-04-12,0,-0.00014544474093710247,0.00013765654051317903,-0.014665002748293904,0.011197204388678363,0.9835409474662862
2012-04-16,-1,-0.004531150906841428,-0.00365106622797512,-0.010869824569099726,0.011197204388678363,0.9875097235764327
2012-04-18,-1,-0.004958293516927894,-0.003943700637719257,-0.010386060147384591,0.009476429582486269,0.9886224461150488
2012-04-20,-1,-0.006995608421123038,-0.0057054222005956026,-0.010918960051142712,0.009476429582486269,0.988242425268643
2012-04-24,-1,-0.008536447723717588,-0.00702707917772048,-0.012932799184262062,0.011511595625440765,0.9865079986696429
2012-04-26,-1,-0.006819520146918556,-0.005569212662880548,-0.012932799184262062,0.009208192905480259,0.9874355616981875
2012-04-30,-1,-0.0059195076459781825,-0.004887921036298729,-0.012932799184262062,0.009208192905480259,0.9863363652628432
2012-05-02,-1,-0.0039565913333523715,-0.0031711237013997274,-0.014665002748293904,0.008567491720137103,0.9873491119364595
2012-05-04,-1,-0.0072983373722032615,-0.00599639240991595,-0.015774052400534665,0.008567491720137103,0.9863539393144153
2012-05-08,-1,-0.008944276049208812,-0.007283943995331357,-0.01395271691628282,0.008567491720137103,0.9872272055070891
2012-05-10,-1,-0.008832199853170313,-0.007242199719575239,-0.020701819577275002,0.008285958692424315,0.9865623912731167
2012-05-14,-1,-0.009704744945978474,-0.007945306116482524,-0.020701819577275002,0.008344693820228961,0.986036043781004
2012-05-16,-1,-0.009563474339128769,-0.007891650225755508,-0.020701819577275002,0.008344693820228961,0.9857788366239751
2012-05-18,-1,-0.009589184744080036,-0.008029435847864206,-0.018332105912979593,0.010457736758937505,0.9845028158092602
2012-05-22,-1,-0.009471278561037973,-0.007945473357568813,-0.013337124441650609,0.010457736758937505,0.9848344927013419
2012-05-24,-1,-0.008085894447224505,-0.006789277077473687,-0.02033381777398767,0.012108870133130141,0.9818586810564024
2012-05-29,-1,-0.006880852691149516,-0.005777822285086126,-0.020353457218051107,0.012108870133130141,0.9823796700181838
2012-05-31,-1,-0.00764692613847719,-0.006476871987541906,-0.018309836840267445,0.013162281156345726,0.9821201637744358
2012-06-04,-1,-0.0076336075875134204,-0.006617099500778729,-0.01697705553638521,0.0157124699036839,0.9811504383914894
2012-06-06,-1,-0.005429845020924974,-0.004818950978087938,-0.01697705553638521,0.0157124699036839,0.9822981763808406
2012-06-08,-1,-0.00608484820898521,-0.005348352406241002,-0.016583210352873794,0.0157124699036839,0.9825601746513853
2012-06-12,-1,-0.005830155920872017,-0.005172115937457753,-0.016583210352873794,0.0157124699036839,0.9832102009022202
2012-06-14,-1,-0.00641111553395189,-0.0056646994416827585,-0.016583210352873794,0.0157124699036839,0.9818946095513477
2012-06-18,-1,-0.0022110024084402023,-0.0021866915583447157,-0.016583210352873794,0.019184734811660144,0.9820707212905934
2012-06-20,0,0.0,0.0,-0.016583210352873794,0.019184734811660144,0.9818636881952937
2012-06-22,0,0.0,0.0,-0.013352122805375401,0.015304037789762786,0.9859567371489959
2012-06-26,-1,-0.004222552058282466,-0.0038953972235475044,-0.008474672762447243,0.015304037789762786,0.9850416922392956
2012-06-28,-1,-0.0037061002683099575,-0.0034488894508874573,-0.008474672762447243,0.015346353148686912,0.9848626127974881
2012-07-02,-1,-0.0015690681014470399,-0.0015632492370812705,-0.01280769347195981,0.011761273240833413,0.9868079021257167
2012-07-05,-1,-0.0009794227333948594,-0.0008065387639718527,-0.01280769347195981,0.011761273240833413,0.9862078435886653
2012-07-09,-1,-0.0006721084412499938,-0.0004471665395712809,-0.010586259038940117,0.013402118549731447,0.9862959466218212
2012-07-11,-1,-0.0017359270026034703,-0.0016556062299740997,-0.00214530363958166,0.014374780020802903,0.9857844362972599
2012-07-13,-1,-0.0012760462467922293,-0.0012205706420875741,-0.007909844658235389,0.015029521034300218,0.9859907076887432
2012-07-17,1,1.5979772672882332e-05,0.00024831087554250564,-0.011113209159324247,0.012187006473901495,0.9857355327393447
2012-07-19,1,0.0011684491978373693,0.001562679691300147,-0.011113209159324247,0.01012933609723736,0.9867977786007714
2012-07-23,1,0.0010938474437180974,0.0014720936721325135,-0.01304932932146267,0.010903039780733289,0.9861360092283242
2012-07-25,1,0.00025208777132194394,0.0005339280754218324,-0.010666804322107738,0.011990327022826836,0.987099684858344
2012-07-27,1,0.000830704636046564,0.0011587241881215423,-0.009826783580326875,0.010903039780733289,0.989152466355087
2012-07-31,1,0.00014842364402419374,0.00039754190277873323,-0.009463341849879604,0.010903039780733289,0.9899097658373083
2012-08-02,1,0.00024315446422643462,0.0004946502760571977,-0.00748403147282401,0.011990327022826836,0.9897732067494626
2012-08-06,1,0.0012206735962936395,0.0016072431558423414,-0.00748403147282401,0.00918359557298324,0.9905134795957297
2012-08-08,1,0.0020451946690484895,0.002538564002055305,-0.00748403147282401,0.00918359557298324,0.990403100741927
2012-08-10,1,0.002591194933414048,0.0031960781543490134,-0.00748403147282401,0.00918359557298324,0.9882341302840519
2012-08-14,1,0.0009499548439031037,0.001328907288839548,-0.004405508120904442,0.00918359557298324,0.9906812386906301
2012-08-16,1,0.001047708202600159,0.0014661645303385884,-0.0027547321511236207,0.013608083980228777,0.9884357407249192
2012-08-20,1,0.0009554614613719124,0.0013340870262232643,-0.0020113912861268964,0.013608083980228777,0.9892892886896529
2012-08-22,1,0.002498637927886996,0.003211526287891509,-0.0023702852772834694,0.01122510099234042,0.9897555540651887
2012-08-24,1,0.0025869485742942098,0.003304209261040152,-0.004021792397698002,0.01122510099234042,0.9893243679920254
2012-08-28,1,0.002868962416939797,0.0036402505400879638,-0.006310201232468018,0.01122510099234042,0.9881251868468262
2012-08-30,1,0.0033777076137925565,0.004228397192133559,-0.004976642940218428,0.011702607516085097,0.9881886100672311
2012-09-04,1,0.0034329548362038815,0.004214310708449039,-0.004976642940218428,0.020311373254802548,0.986027302731388
2012-09-06,1,0.0018583597355973816,0.0022195216664843086,-0.0025606635503881317,0.01951215982469565,0.9856472783112682
2012-09-10,1,0.0029903748068171535,0.003478216388531076,-0.0025606635503881317,0.01646396298893003,0.9890215488501183
2012-09-12,1,0.003154320826890007,0.003655697735355365,-0.005301134221292425,0.01646396298893003,0.9879063986645754
2012-09-14,1,0.004706096013731077,0.005369528779850128,-0.0077702689828857375,0.011113855387109087,0.9883189709866161
2012-09-18,1,0.005180270750463449,0.005961112100193344,-0.009920049511521438,0.011113855387109087,0.9853411344031011
2012-09-20,0,0.0,0.0,-0.013276593203193462,0.010211847495124559,0.984417780415927
2012-09-24,0,0.0,0.0,-0.013276593203193462,0.010211847495124559,0.9846050538048179
2012-09-26,1,0.004375048366209028,0.005050771856935435,-0.011231181039508275,0.01646396298893003,0.9835824518007659
2012-09-28,1,0.005534933796744525,0.006380747841075231,-0.011231181039508275,0.01646396298893003,0.9831220880120792
2012-10-02,1,0.007331051561455191,0.008402608069933436,-0.011231181039508275,0.010211847495124559,0.9827177478259727
2012-10-04,1,0.007935309503996173,0.00907671219006292,-0.01733195164077076,0.007025179848078593,0.9811942536489068
2012-10-08,1,0.0074282285111448455,0.008477064651579796,-0.01733195164077076,0.008255649531176796,0.9814498171720463
2012-10-10,1,0.005897876425511721,0.006653472963957149,-0.013390731332135367,0.011551924509598126,0.9828443000701353
2012-10-12,1,0.00584149684753589,0.0065913609998250345,-0.012443689273882595,0.010244711059076383,0.9838369901229878
2012-10-16,1,0.003926961368285969,0.0044389185498772705,-0.010267924630557625,0.010244711059076383,0.9864854730621456
2012-10-18,1,0.003368032585558606,0.0038368340846007113,-0.009115585852708023,0.012882242276858752,0.9865532358534047
2012-10-22,1,0.0024302214185531936,0.002719219587176245,-0.006246995352096114,0.014855638098262826,0.9859196165462948
2012-10-24,1,0.0008563469721768969,0.0008957178278454386,-0.006246995352096114,0.015500469791810212,0.985176340880929
2012-10-26,0,0.0,0.0,-0.006246995352096114,0.012882242276858752,0.9868551248439814
2012-11-01,0,0.0,0.0,-0.004121670939623951,0.014888503188922002,0.9864920948535608
2012-11-05,1,0.0009248848148571359,0.0010870075524408744,-0.0059213248454503195,0.014888503188922002,0.9862925265097903
2012-11-07,1,0.0008766914629259135,0.0009840205136689819,-0.004121670939623951,0.014888503188922002,0.9871563664995037
2012-11-09,1,0.001644494828898273,0.0016721534063525094,-0.00549767190289314,0.014888503188922002,0.9869126564741517
2012-11-13,1,0.0016697983326482196,0.0017258059521961665,-0.004121670939623951,0.017496382895067865,0.9871895062972961
2012-11-15,1,0.0009995693473580142,0.0010555843917410314,-0.0025078246557740103,0.017496382895067865,0.9857360492965371
2012-11-19,0,0.0,0.0,-0.0025078246557740103,0.01347752095608901,0.9867613930117132
2012-11-21,0,0.0,0.0,-0.0025078246557740103,0.01347752095608901,0.984252919516146
2012-11-26,0,0.0,0.0,-0.0022999853899250524,0.011411868149676704,0.9866357116040763
2012-11-28,0,0.0,0.0,-0.005666199642996172,0.011411868149676704,0.9860640950619372
2012-11-30,0,0.0,0.0,-0.006173989312815022,0.007391429605730565,0.987115170513013
2012-12-04,0,0.0,0.0,-0.00524796819175877,0.007391429605730565,0.9886338360998397
2012-12-06,0,0.0,0.0,-0.006173989312815022,0.007391429605730565,0.9847644170876929
2012-12-10,1,0.0012534919058778786,0.0013203477142895935,-0.005866059793350814,0.007752509182518153,0.9840755625238989
2012-12-12,1,0.0017632443324337574,0.0019167942651628954,-0.008057978483483181,0.007752509182518153,0.983042396481853
2012-12-14,0,0.0,0.0,-0.008057978483483181,0.007752509182518153,0.9839866565728796
2012-12-18,0,0.0,0.0,-0.012488763186390863,0.00846434959761281,0.9826797228258345
2012-12-20,1,0.0030166297623279658,0.003270409815891952,-0.012488763186390863,0.0027601411351739704,0.9849800705217234
2012-12-24,1,0.002060070683499728,0.002134224303387146,-0.012488763186390863,0.0037334509328004685,0.9852882119815125
2012-12-27,1,0.0016116033346327038,0.0016190751468651012,-0.012488763186390863,0.009023398252292283,0.9846860060258812
2012-12-31,1,0.0019713241743981595,0.002057790107235703,-0.01514034782856764,0.00852442533413339,0.9839883741621006
2013-01-03,1,0.0018307242993142307,0.001927873342144263,-0.01514034782856764,0.01430579929872768,0.9832217216761777
2013-01-07,1,0.00019162143227198324,0.00029288777647409615,-0.012510072005153862,0.01430579929872768,0.9864435178029654
2013-01-09,-1,-0.00032109874422509585,-8.720719247898377e-05,-0.012510072005153862,0.014029538998014433,0.986854396796535
2013-01-11,-1,-0.0006913710156794896,-0.00039905878586667966,-0.011236656610288151,0.009265520767458135,0.9878951049108248
2013-01-15,-1,-0.0014064411460394206,-0.0010298258454960287,-0.0103226545309808,0.009265520767458135,0.9884911214184627
2013-01-17,0,0.0,0.0,-0.0103226545309808,0.007164073300691929,0.9889955013722467
2013-01-22,0,0.0,0.0,-0.01006237294641146,0.007164073300691929,0.9892942416214336
2013-01-24,-1,-0.0018774976940272188,-0.001440822133069539,-0.01006237294641146,0.009265520767458135,0.989153691803699
2013-01-28,-1,-0.001797050526609782,-0.00137114356186357,-0.01006237294641146,0.006439675903772642,0.9903220087722114
2013-01-30,-1,-0.0017441366559255507,-0.001354221854907451,-0.009423264344744511,0.006439675903772642,0.9908123815221841
2013-02-01,-1,-0.0015087176814776873,-0.0011415395778397329,-0.009423264344744511,0.00798747620162331,0.9892953699235006
2013-02-05,-1,-0.0014501538761591034,-0.0011301401295371986,-0.008445183603944265,0.007044332756204735,0.9898389506446738
2013-02-07,-1,-0.0014554947849313702,-0.0011374818134153042,-0.006176906251654671,0.007044332756204735,0.99049418574131
2013-02-11,-1,-0.000927592349979175,-0.000755202501277114,-0.004589670764996486,0.007044332756204735,0.9909558046388793
2013-02-13,-1,-0.00048462958031393085,-0.0003835957588198417,-0.004589670764996486,0.007044332756204735,0.9907559616759717
2013-02-15,-1,-0.0017412534518391157,-0.0014611844920023012,-0.004589670764996486,0.007044332756204735,0.9909916403994401
2013-02-20,-1,-0.001730225864744684,-0.0014503127466941267,-0.006286133628313472,0.008238421359116623,0.989973853834326
2013-02-22,0,0.0,0.0,-0.0034941797730958244,0.007044332756204735,0.9910812286414227
2013-02-26,0,0.0,0.0,-0.0021403842469820003,0.008238421359116623,0.9903609801635375
2013-02-28,-1,-0.00021670523249521674,-0.00018393972678422708,-0.0021403842469820003,0.007044332756204735,0.9915513216767995
2013-03-04,1,0.0010509290167457217,0.0011751633073282277,-0.0021403842469820003,0.004739952200762206,0.9938192106331436
2013-03-06,1,0.0013257534152418702,0.0014698270920025036,-0.0032636273706249837,0.004739952200762206,0.9934545062944187
2013-03-08,1,0.0012996977656851737,0.0014013972785863994,-0.0055944764209009505,0.004739952200762206,0.9926154601293885
2013-03-12,1,0.0008875642082074962,0.000933699794638215,-0.0032636273706249837,0.007067605846432727,0.991457738573887
2013-03-14,1,7.42652149420059e-05,0.00014894296671047978,-0.0021403842469820003,0.011898933164492215,0.9914951246071242
2013-03-18,-1,-0.0011027133949045682,-0.000838486291084508,-0.002129472039380003,0.01265567054917195,0.9878381752186426
2013-03-20,-1,-0.0009982864859087275,-0.0007167040279406951,-0.002938426920673097,0.011898933164492215,0.988191392616357
2013-03-22,-1,-0.0011990978480383014,-0.000881923425096811,-0.004341635700069697,0.011898933164492215,0.9875870772073749
2013-03-26,1,0.00011143716466066123,0.00017654478451600345,-0.004341635700069697,0.011898933164492215,0.9835697446214605
2013-03-28,1,0.00035419739458518776,0.00037082078753666143,-0.004341635700069697,0.011898933164492215,0.9835144342976322
2013-04-02,0,0.0,0.0,-0.004341635700069697,0.01265567054917195,0.9823455692379852
2013-04-04,0,0.0,0.0,-0.005471101104491763,0.01544982347370562,0.9816418533877622
2013-04-08,0,0.0,0.0,-0.0035280321602473453,0.018363464929043505,0.9817791238800204
2013-04-10,0,0.0,0.0,-0.0035280321602473453,0.01333169121385023,0.9829416927852597
2013-04-12,0,0.0,0.0,-0.0035280321602473453,0.018363464929043505,0.9815157861889725
2013-04-16,0,0.0,0.0,-0.0035280321602473453,0.018363464929043505,0.9832411410060576
2013-04-18,0,0.0,0.0,-0.004503065694822218,0.018363464929043505,0.9837759268700458
2013-04-22,0,0.0,0.0,-0.000940586336108493,0.022301282282103842,0.9824621405121258
2013-04-24,0,0.0,0.0,-0.005633218549402245,0.018363464929043505,0.9858832769619819
2013-04-26,0,0.0,0.0,-0.007689275197826133,0.018363464929043505,0.9852365858990332
2013-04-30,0,0.0,0.0,-0.008108104998188698,0.017937465983882003,0.9855792131196014
2013-05-02,0,0.0,0.0,-0.008108104998188698,0.015907981075606197,0.986024407291907
2013-05-06,0,0.0,0.0,-0.010381968360954784,0.012574852886615438,0.9859768084910744
2013-05-08,1,0.004806116462007201,0.005399159345327755,-0.011616502911552452,0.009722676590593662,0.9855670137093199
2013-05-10,1,0.0047330346631655525,0.005311842951968319,-0.011616502911552452,0.00871712520165166,0.9868377927137622
2013-05-14,1,0.0037411225018619734,0.00419901034248567,-0.014052478949857686,0.006210909206345523,0.9871056836966675
2013-05-16,1,0.004775185328467407,0.005392724671392557,-0.014052478949857686,0.006659611301982275,0.9879706495711132
2013-05-20,1,0.006423777818866625,0.007134991076001401,-0.014052478949857686,0.006659611301982275,0.9870715266327528
2013-05-22,1,0.004354369993196381,0.004746557978614566,-0.014490268674533211,0.006659611301982275,0.987619953412494
2013-05-24,1,0.004258454025931019,0.0047407505020893555,-0.014490268674533211,0.009999704914166853,0.9868830058548899
2013-05-29,1,0.004824103665427753,0.005359426580231993,-0.014490268674533211,0.011729152064171366,0.986965355017625
2013-05-31,1,0.004267097738459677,0.0046792249734533276,-0.014052478949857686,0.011729152064171366,0.9875910363369661
2013-06-04,1,0.003946472317196901,0.004380948194644412,-0.014490268674533211,0.014275239032747506,0.9859334921708034
2013-06-06,1,0.0038121880538908434,0.004208018823243667,-0.006545173155525148,0.016140491229378037,0.9855241917327203
2013-06-10,1,0.003565848374362352,0.003870879108165286,-0.013223754631608898,0.016140491229378037,0.9850265222707273
2013-06-12,1,0.0021858893681698122,0.0023069408447572545,-0.0020761230920792115,0.018647106497913492,0.9856990748032886
2013-06-14,1,0.0018847217300124578,0.0019319034906233694,-0.006081027684419362,0.018647106497913492,0.9846459954199414
2013-06-18,1,0.0034805760031534523,0.003731632717105103,-0.013083051032431623,0.015110777455592658,0.9858866623778346
2013-06-20,1,0.002269582414150397,0.002385230770646615,-0.004895454943046973,0.015110777455592658,0.9868689697448786
2013-06-24,1,0.0030237988019722445,0.003216874674098208,-0.009062795108067567,0.010905645455516415,0.9878847693336379
2013-06-26,1,0.00415118464888444,0.004492152859681381,-0.00968300528347794,0.008345173834506517,0.9839812319096493
2013-06-28,1,0.0038057308489066466,0.004065284965169854,-0.00968300528347794,0.008345173834506517,0.983594354822466
2013-07-02,1,0.0029941759758649296,0.0031478183086328833,-0.00968300528347794,0.007338092528740377,0.9853188618082525
2013-07-05,1,0.003149753355447057,0.003269109374811249,-0.01267621893712494,0.0070366167615422874,0.9847474911360196
2013-07-09,1,0.0019130901609688727,0.0019706567339208324,-0.009739710888418147,0.00794869903744841,0.9850559656241481
2013-07-11,1,0.0020851677012965236,0.002176336109837986,-0.009739710888418147,0.0070366167615422874,0.9854860992161996
2013-07-15,1,0.0015046668727339788,0.0016706377286504206,-0.008083959091831969,0.00672138386379873,0.9865577107365291
2013-07-17,1,0.0005618363477808706,0.0008413860700999487,-0.006942300121443046,0.0070366167615422874,0.9876113057841109
2013-07-19,1,6.61486630076538e-05,0.0004252212711942506,-0.009739710888418147,0.006032285951896415,0.9866621613316034
2013-07-23,0,-1.3125676881629964e-05,0.00031045580559805523,-0.007149036846579838,0.008329732706657189,0.986640222209226
2013-07-25,1,0.0014260520439434241,0.0015178020796536588,-0.006118500181856434,0.008329732706657189,0.9905750214818153
2013-07-29,1,0.0013748974565747547,0.0014616016430713426,-0.005437833555009061,0.008329732706657189,0.9907366944881987
2013-07-31,1,0.0008576011233532202,0.0010024847667322637,-0.005437833555009061,0.008329732706657189,0.9893092706459307
2013-08-02,-1,-0.0008135370622813728,-0.00044835869652569134,-0.004277214484981015,0.008329732706657189,0.9903741267823135
2013-08-06,-1,-0.0005360080365115955,-0.00017987574689975723,-0.005437833555009061,0.007588726857025994,0.9902162003152485
2013-08-08,-1,-0.0013932088786707977,-0.0008989517805991895,-0.004431362832787337,0.009063121162671606,0.9891331500882687
2013-08-12,-1,-0.0011318373453872012,-0.0006689213495975836,-0.004431362832787337,0.011127416396664775,0.9883702640303068
2013-08-14,-1,-0.000898488784204802,-0.0004654309853523468,-0.004980762950636623,0.011498586822869855,0.987137507662599
2013-08-16,-1,-0.002147447707702135,-0.0015862600075590124,-0.0039983850105135095,0.012542252063558176,0.9872441241556074
2013-08-20,-1,-0.0016399001298886137,-0.0011369216228915133,-0.004980762950636623,0.012542252063558176,0.9874508260418319
2013-08-22,-1,-0.0011146404137274675,-0.0006823945961278687,-0.009369564774048225,0.010090741127247102,0.9873719601217247
2013-08-26,-1,-0.001237683125407476,-0.0007901076324366575,-0.009369564774048225,0.010090741127247102,0.9870798197306367
2013-08-28,-1,-0.002523646571836075,-0.0019250753962448044,-0.008348683392602514,0.012542252063558176,0.9877087538269427
2013-08-30,-1,-0.001660709520748785,-0.0012347268064065728,-0.009369564774048225,0.012542252063558176,0.9875444963208566
2013-09-04,-1,-0.0016477775742892555,-0.0012355501396208379,-0.008348683392602514,0.010090741127247102,0.9884011428648074
2013-09-06,-1,-0.000985995334845186,-0.0006364498769599111,-0.009369564774048225,0.010090741127247102,0.987043763358906
2013-09-10,-1,-0.0009212834324303597,-0.0005274443505026386,-0.014191170971862604,0.008636842298033957,0.9848471370935458
2013-09-12,-1,-0.0009873484318741925,-0.0005968514070029589,-0.014191170971862604,0.008636842298033957,0.9852992942701194
2013-09-16,1,0.00032513179891592743,0.0005190301952556528,-0.014191170971862604,0.005771879807515682,0.984034100753909
2013-09-18,-1,-0.0009889176861232738,-0.0006341355913679983,-0.012668412906714381,0.012309684346377421,0.9834511945728243
2013-09-20,-1,-0.0015984950275768676,-0.0012364391100447045,-0.009107001622581806,0.012309684346377421,0.984165022062535
2013-09-24,-1,-0.0016211001817329047,-0.0012622705403694061,-0.009107001622581806,0.02477402484644083,0.9798066283285711
2013-09-26,-1,-0.0006493307513339174,-0.0004226163484069189,-0.009107001622581806,0.027073148624507763,0.9797653256471487
2013-09-30,-1,-0.0011573581220822504,-0.0008936561049862051,-0.0067606346549287585,0.027073148624507763,0.9799322591406072
2013-10-02,-1,-0.00032000502051329267,-0.0002337837043379279,-0.009107001622581806,0.027073148624507763,0.9789683689828395
2013-10-04,1,0.0001524163758440712,0.00016852818859241104,-0.0067606346549287585,0.02439301751049078,0.9801935366852184
2013-10-08,-1,-0.0032473496170457705,-0.00280848777154859,-0.005834378763484306,0.02439301751049078,0.9813001337797925
2013-10-10,-1,-0.000917203625747163,-0.0008437469560287918,-0.008792414870999389,0.01889918464598219,0.9824385857311548
2013-10-14,0,-6.107913580635245e-05,1.7312501561323411e-06,-0.008792414870999389,0.01889918464598219,0.9829097166562702
2013-10-16,1,0.0007313107510634723,0.0007324367273466456,-0.008792414870999389,0.013037311882638434,0.9842784398406174
2013-10-18,1,0.0003246920134256197,0.00035180473602591827,-0.011149603710623119,0.013037311882638434,0.9840067651968266
2013-10-22,1,0.0013015605874758167,0.0013721278377865041,-0.012576041069233051,0.006850192885973355,0.9878875586059553
2013-10-24,1,0.002136792724965125,0.0022976812727036207,-0.012576041069233051,0.010616130210916728,0.9854018314788815
2013-10-28,1,0.001872514313182984,0.001957476264394341,-0.013084860545096891,0.010616130210916728,0.9847190516559631
2013-10-30,1,0.001972978927912295,0.002076706538170381,-0.012576041069233051,0.010463722908556645,0.9856916219229312
2013-11-01,1,0.002261850512622233,0.0023112620955730613,-0.012968275375649561,0.010007782275468871,0.9859069512039682
2013-11-05,1,0.0020828670889365647,0.0021111305568551632,-0.012576041069233051,0.008491452814667518,0.9862129548671439
2013-11-07,1,0.0020034245096171048,0.0021365463053780905,-0.012196835359205412,0.010007782275468871,0.9867245487476035
2013-11-11,1,0.0023082350011254444,0.002407511006404973,-0.012576041069233051,0.010007782275468871,0.9865317120671987
2013-11-13,1,0.002639052040290784,0.0028599460341716997,-0.01223662356316691,0.010463722908556645,0.98612870859341
2013-11-15,1,0.0022488431520849544,0.0025139062109199536,-0.009046965383374645,0.01178053833818703,0.9867242661430786
2013-11-19,1,0.0013937172825466385,0.0015419139817332511,-0.00616148417203577,0.014715072337615053,0.9863860029824952
2013-11-21,1,0.0037748441246769427,0.004193357646965547,-0.007979048943969922,0.013755979971424576,0.9891852125514211
2013-11-25,1,0.0038381820622612785,0.004316835986761368,-0.00616148417203577,0.014715072337615053,0.989338813891623
2013-11-27,1,0.0037558533989204656,0.004178109182206423,-0.00616148417203577,0.01596810753690574,0.9892295046020285
2013-12-02,1,0.0037421807153122794,0.004218720614563163,-0.004673962049321072,0.01596810753690574,0.9898848584739517
2013-12-04,1,0.003356004245467382,0.0037633956091479444,-0.004673962049321072,0.01596810753690574,0.9895675524967404
2013-12-06,1,0.003371409699531439,0.0037321826603223295,-0.0031574363322759676,0.01625427385379367,0.9890354038250975
2013-12-10,1,0.0035269280099651922,0.003891872288086827,-0.0017882003323967347,0.014576097262890109,0.9900908307024326
2013-12-12,1,0.003500268966835223,0.0038579358909216037,-0.0017882003323967347,0.014576097262890109,0.9893425219698502
2013-12-16,1,0.00432189880000162,0.004814351372294653,-0.0024978535489928047,0.015944138256646423,0.9867038716860993
2013-12-18,1,0.005314572561633741,0.00589517501674176,-0.0017882003323967347,0.01807847349567372,0.9829155700994046
2013-12-20,1,0.004539488878228385,0.005005198462282527,0.0013877462758522601,0.027108585126028775,0.9814411339911934
2013-12-24,1,0.0047257327668645335,0.005124854128685871,-0.0024978535489928047,0.027108585126028775,0.9799441868346429
2013-12-27,1,0.005644638268171159,0.006227206171636879,-0.0024978535489928047,0.031246285211624723,0.9791037335055807
2013-12-31,1,0.005250853931545247,0.00574431793595454,-0.0024978535489928047,0.031246285211624723,0.9778954080869258
2014-01-03,1,0.004179743329423824,0.0045650950274761515,0.0009930277038522534,0.031246285211624723,0.978099933341789
2014-01-07,1,0.005296870590748088,0.005870912349835729,-0.003495420844645815,0.028850387027416886,0.9795444167047971
2014-01-09,1,0.00487860302283703,0.005300098123327535,-0.004458440427003936,0.031432936939084256,0.9774149672777221
2014-01-13,1,0.0047910002909948134,0.005223985633170051,-0.0040559384200030075,0.031681054523733244,0.9776423026773435
2014-01-15,1,0.007337374387265828,0.00812925952822586,-0.004458440427003936,0.03059963120412988,0.9795804106871739
2014-01-17,1,0.009793904013245175,0.010895062924502905,-0.004458440427003936,0.030420859104912656,0.9833091668188785
2014-01-22,1,0.01041571919378913,0.011528904838363892,-0.004458440427003936,0.02881836494819437,0.9841074399578446
2014-01-24,1,0.008128993144431603,0.008941411217335214,-0.002045536099810199,0.02881836494819437,0.9859292593428965
2014-01-28,1,0.009124802576833766,0.01003477393692802,-0.00416151736271987,0.026378497286939098,0.9856563685980408
2014-01-30,1,0.010169049372026284,0.011243676379135011,-0.004917219042298773,0.022037858231249326,0.9840532955893436
2014-02-03,1,0.010322015719114185,0.011441001681411777,-0.00416151736271987,0.02690198797943769,0.9838179173026455
2014-02-05,1,0.010560429030488934,0.0117611593570161,-0.00416151736271987,0.02690198797943769,0.9818262076784526
2014-02-07,1,0.012993202388799498,0.014532716257639145,-0.011370982187117637,0.022037858231249326,0.9809119592070807
2014-02-11,1,0.011753914184798063,0.013057251959691013,-0.011370982187117637,0.014875825138146784,0.9824128505262798
2014-02-13,1,0.011191388165787386,0.012330656227065726,-0.011987483715682602,0.014875825138146784,0.9802985309180784
2014-02-18,1,0.01201595179761129,0.013238865650452163,-0.016311043211663857,0.013180992116924955,0.9794504283437618
2014-02-20,1,0.012593686999467179,0.01389000880473169,-0.016311043211663857,0.009741321302626735,0.9787163526602708
2014-02-24,1,0.012165023429667752,0.01331686508195698,-0.020805603312308654,0.00819962195660762,0.9756989806022794
2014-02-26,1,0.011634816725296964,0.012668450532724623,-0.03205790928057702,0.00819962195660762,0.9730466250483446
2014-02-28,1,0.009719720778190558,0.010486169382320741,-0.022743678610373005,0.009741321302626735,0.9751853075725588
2014-03-04,1,0.008847837065002497,0.009274019071381898,-0.022743678610373005,0.013180992116924955,0.9731072431880572
2014-03-06,1,0.006786184145112083,0.006966539859490055,-0.022743678610373005,0.013180992116924955,0.9735705794647674
2014-03-10,1,0.005919998313786861,0.006006381765351865,-0.035747326864060756,0.013735627366616371,0.9719925409612638
2014-03-12,1,0.006255461275147223,0.006398008109500825,-0.035747326864060756,0.015840233788434917,0.9712956285482158
2014-03-14,1,0.0042500306527980085,0.0044172609560147276,-0.035747326864060756,0.013735627366616371,0.9721374478585214
2014-03-18,1,0.003746642279563062,0.003903734889068142,-0.031282236014353045,0.010671684506426755,0.9724887025267221
2014-03-20,1,0.0035007534568141695,0.0036321012272379875,-0.031282236014353045,0.015551283919612913,0.9709389670074899
2014-03-24,0,-9.152966678484622e-05,0.0004950595478171321,-0.02125531499380377,0.031121927752601933,0.9706446161297032
2014-03-26,-1,-0.004476790084125803,-0.003357222125104262,-0.008328698663179687,0.038802400568734116,0.9715309520056238
2014-03-28,-1,-0.0030649012487670223,-0.002157491432721098,-0.028965775085066897,0.038802400568734116,0.9674374814246429
2014-04-01,1,0.00018489217444486554,0.0007352680696649384,-0.028965775085066897,0.017315910934751707,0.9709959890028305
2014-04-03,-1,-0.0035135713913675985,-0.0024409876977551973,-0.015909024923429792,0.028230997624091043,0.9724152588232117
2014-04-07,-1,-0.00546686873392136,-0.004225520218854859,-0.013550124085327657,0.028230997624091043,0.9744944100189986
2014-04-09,-1,-0.0045782110614579884,-0.003406173309752083,-0.013550124085327657,0.020521888900017764,0.9755423548394334
2014-04-11,-1,-0.008826959395601252,-0.007097376801482542,-0.012324904583749848,0.029691269380610515,0.9745524257459152
2014-04-15,-1,-0.011513300336646787,-0.009405961964104616,-0.012324904583749848,0.029691269380610515,0.9730709805010757
2014-04-17,-1,-0.008250205202956107,-0.006685767615474619,-0.012324904583749848,0.025326511671349347,0.9758168398122041
2014-04-22,-1,-0.005276997670712828,-0.004037386559170741,-0.013550124085327657,0.019566472902869274,0.9776851889965121
2014-04-24,-1,-0.004705715405402523,-0.0035413604375367233,-0.01279669088720839,0.02270317027047376,0.976921492912344
2014-04-28,-1,-0.010720757448076133,-0.008812646925204361,-0.00405282447036508,0.02270317027047376,0.9781732942324869
2014-04-30,-1,-0.010460869009101724,-0.008564518494831658,-0.0068008013286800055,0.02270317027047376,0.9786343997080688
2014-05-02,-1,-0.00946779829033276,-0.007703374977602006,-0.01061834231043098,0.019010497768293576,0.9804907266774119
2014-05-06,-1,-0.009434391622158648,-0.0076696213330825205,-0.006315662037364746,0.017354555965925614,0.9805048937116718
2014-05-08,-1,-0.009281064847345376,-0.0075364657579358426,-0.0011571236879311872,0.02270317027047376,0.9785970535585786
2014-05-12,-1,-0.006684619127992791,-0.0052706876249427655,-0.0011571236879311872,0.02026371641552362,0.9808845875002042
2014-05-14,-1,-0.007812833349771469,-0.006297507775699042,-0.0011571236879311872,0.02026371641552362,0.9798382792314667
2014-05-16,-1,-0.008329422606144065,-0.006751325641730735,-0.007208765879819546,0.02026371641552362,0.9800660180311253
2014-05-20,-1,-0.00677381478199765,-0.005428618758958788,0.00035196854988165825,0.0167267297258008,0.9834496794353111
2014-05-22,-1,-0.0038078049866647947,-0.0028405858769617776,0.00035196854988165825,0.013626667192713177,0.9864528629484153
2014-05-27,-1,-0.003545405067963398,-0.002601550712718743,-0.008986395523119174,0.013626667192713177,0.9862002743029873
2014-05-29,-1,-0.004535245200356214,-0.0034179764083405286,-0.007208765879819546,0.01273621616679082,0.9864182541225636
2014-06-02,-1,-0.004380210979504375,-0.003341726410667039,-0.00115918582103415,0.013626667192713177,0.9845001589925203
2014-06-04,-1,-0.0036200421837687203,-0.002711181282593741,-0.007208765879819546,0.01556305303493435,0.9840977673236521
2014-06-06,-1,-0.0020347009359989216,-0.0012814466057625442,-0.009265537185789496,0.01333291952536937,0.9852686116481991
2014-06-10,1,0.001148633978457534,0.0014171130871068166,-0.011502448040239144,0.012702608440128035,0.9844135049687793
2014-06-12,1,0.001222211671295244,0.0013093637947973733,-0.009265537185789496,0.01333291952536937,0.9852648392213396
2014-06-16,1,0.00186885717576674,0.001958907431762987,-0.011502448040239144,0.01333291952536937,0.9842703645870764
2014-06-18,1,0.0011086975132876997,0.0012275953486842435,-0.015408946521665306,0.01333291952536937,0.9828043683901843
2014-06-20,1,0.0028429098804001,0.00304067247608049,-0.015408946521665306,0.013782165056023882,0.9811694198742762
2014-06-24,1,0.0022993189040317295,0.002487457773294481,-0.008372389511605067,0.017248074172319487,0.9820631443193031
2014-06-26,1,0.002794457953834122,0.003057788122599075,-0.015785113140402967,0.017248074172319487,0.9798717643081183
2014-06-30,1,0.004395092480782842,0.004857937570749171,-0.026973052641872768,0.013782165056023882,0.9799796099880146
2014-07-02,1,0.005489923374750209,0.0061985547043131965,-0.028846969232393008,0.011253568134803759,0.979015039638074
2014-07-07,1,0.00522245843124775,0.005949165152953318,-0.028846969232393008,0.007695573235047955,0.9809646274124767
2014-07-09,1,0.005109055433177481,0.005851747294817791,-0.016155045694348284,0.0061867124413216065,0.9828598368502176
2014-07-11,1,0.006262977279194426,0.007229751468529494,-0.016155045694348284,0.0061867124413216065,0.9808312128050999
2014-07-15,1,0.005513576011854516,0.0064334196182658345,-0.013893015491527407,0.0054170906477512375,0.9812772084601974
2014-07-17,1,0.0047283956750258736,0.005619556582814999,-0.010585870835591675,0.010757834221074406,0.9828469260504018
2014-07-21,1,0.00698013901992412,0.008134959058305278,-0.010585870835591675,0.00733158653060037,0.9832062229756929
2014-07-23,1,0.007492831171807248,0.008641245479900847,-0.01077626630458339,0.00733158653060037,0.9828268467269452
2014-07-25,1,0.006321847186631185,0.00741523467206549,-0.010199628322603056,0.00733158653060037,0.9857049163121065
2014-07-29,1,0.004229926314746725,0.004954981334127539,-0.008108555955024669,0.012109197089835003,0.9865794811435662
2014-07-31,1,0.0017683674911121864,0.002082654437687677,-0.004842061808957113,0.012109197089835003,0.9883247610329967
2014-08-04,1,0.002631770552076285,0.003100112600702352,-0.004842061808957113,0.012109197089835003,0.9886401353553489
2014-08-06,1,0.0016219230954953082,0.0019060628673576068,-0.004842061808957113,0.012109197089835003,0.9886871563664801
2014-08-08,1,0.0027479237558576948,0.003139790158236676,-0.004842061808957113,0.009389490812691657,0.9906801836387255
2014-08-12,1,0.0013808546896282733,0.0015798279515794771,-0.003641695713045771,0.012109197089835003,0.9897994406488061
2014-08-14,1,0.001296781283488844,0.0013445476579380428,-0.005175984009138167,0.008678817029258197,0.989455401652448
2014-08-18,1,0.00042054781788810225,0.0006432730752680735,-0.0068076777373321995,0.008678817029258197,0.987909079535412
2014-08-20,1,0.00079686889943395,0.0009428186509074606,-0.005175984009138167,0.008678817029258197,0.9877916371350995
2014-08-22,1,0.0023662322527577486,0.002645757422935901,-0.010505820531890897,0.008678817029258197,0.9860988621929118
2014-08-26,1,0.0029547904476787926,0.0032241039847449586,-0.012830096601298654,0.008089548667928681,0.9864713249214322
2014-08-28,1,0.0015615604495242534,0.0016096427232458192,-0.02027437360788601,0.00832954007250561,0.9851819151232584
2014-09-02,1,0.002365842151833893,0.00249975794938133,-0.02027437360788601,0.00832954007250561,0.9844832706959777
2014-09-04,-1,-0.00048697004125238625,-6.388734332763205e-05,-0.025316359699039122,0.00832954007250561,0.9840140122969957
2014-09-08,-1,-0.0009287448254448353,-0.0003705008793486568,-0.025316359699039122,0.008522527441947265,0.9837979806181371
2014-09-10,-1,-0.001163462376740771,-0.000615045610521797,-0.025316359699039122,0.008522527441947265,0.9828594949568987
2014-09-12,-1,-0.000809440208828721,-0.0006207518495528749,-0.027244550136868842,0.008522527441947265,0.9813062825990471
2014-09-16,-1,-0.00028759319073507286,-0.0001037548704982482,-0.026059792359194915,0.006017317405198063,0.9824157405770068
2014-09-18,-1,-0.003344638715219797,-0.0025634474355246332,-0.026059792359194915,0.008522527441947265,0.9810109934925193
2014-09-22,-1,-0.005229536024636357,-0.004248204315271125,-0.025118878256341834,0.013015628406521587,0.9811247228621395
2014-09-24,-1,-0.004465008052839418,-0.003601935829695629,-0.025118878256341834,0.02924384257535446,0.976228497269952
2014-09-26,-1,-0.005418263277585936,-0.004434619968867964,-0.012162712633490117,0.02924384257535446,0.9763167762694835
2014-09-30,-1,-0.006017430724851272,-0.004964328158775717,-0.01076092193377329,0.02924384257535446,0.975551459464682
2014-10-02,-1,-0.0057980246259368845,-0.004877802283050455,-0.006820438471046467,0.02924384257535446,0.9757354683583367
2014-10-06,-1,-0.005493704199548696,-0.004547495471214797,-0.006820438471046467,0.02924384257535446,0.9767117345868507
2014-10-08,-1,-0.005635663224863876,-0.0046561484004486895,-0.010719472536709667,0.025329307752198577,0.9783486684396459
2014-10-10,-1,-0.008113667968862134,-0.006886396180735358,-0.006820438471046467,0.025329307752198577,0.9778288984816226
2014-10-14,-1,-0.007969712026707269,-0.006892762389995245,-0.0036731534144329816,0.025329307752198577,0.9775253574202235
2014-10-16,-1,-0.004625570353731502,-0.003977176810153627,-0.00678810808546968,0.017932150377428433,0.9828200308645278
2014-10-20,-1,-0.0036473190790655306,-0.0031231482637203672,-0.009530919328217289,0.014426261838355343,0.9828495812626971
2014-10-22,-1,-0.00250211097898674,-0.0020958379593757886,-0.009530919328217289,0.01202292704581818,0.9868811758938807
2014-10-24,-1,-0.0009726240158422638,-0.0007734008561146689,-0.011460317534158304,0.010622377676616918,0.9870977701408087
2014-10-28,1,0.00060243063193106,0.000697643404468159,-0.011460317534158304,0.01106534227558121,0.9855899924330919
2014-10-30,1,0.0020345434658731276,0.0024140129924658774,-0.011460317534158304,0.01106534227558121,0.9859623539960249
2014-11-03,1,0.0018101861965052206,0.0021152138708750374,-0.011460317534158304,0.01106534227558121,0.9857600173463513
2014-11-05,-1,-0.00028168693262362813,-0.0002731616160053738,-0.00832464486077758,0.013568100459958054,0.987468194289086
2014-11-07,0,-4.514304458803797e-05,2.1787063794571025e-06,-0.006875283212721381,0.01106534227558121,0.989020004263259
2014-11-11,1,0.0009378603949693179,0.0011695497219419049,-0.010218588095248421,0.004049013954401761,0.9876585923781878
2014-11-13,-1,-0.0005709959688196705,-0.0005208201872938842,-0.011036075952574716,0.013568100459958054,0.9874703773129017
2014-11-17,-1,-0.0007295631212216841,-0.0007038461942764146,-0.013552992592398031,0.004265293571648754,0.9869575926645375
2014-11-19,1,0.0017549793549911316,0.002138417173186847,-0.013552992592398031,0.014701104911876798,0.9847262102027964
2014-11-21,1,0.0010362445945121194,0.0013661204028129416,-0.011036075952574716,0.014770452448932821,0.9853632940771592
2014-11-25,1,0.0015684273202840712,0.0019395141694492813,-0.013552992592398031,0.014437775754758261,0.9848699989682205
2014-11-28,1,0.0015810826897958176,0.0019327509526713984,-0.013552992592398031,0.014437775754758261,0.9851259327289512
2014-12-02,1,0.001162043672615047,0.0014865467188321534,-0.014463854354351857,0.014437775754758261,0.9846158109398108
2014-12-04,1,0.0010880447799799698,0.0013458188873592602,-0.014463854354351857,0.014437775754758261,0.9840199505730876
2014-12-08,1,9.286657790339453e-05,0.00013942534696515432,-0.014463854354351857,0.015155571629886413,0.9819630372192151
2014-12-10,1,5.96037475636228e-05,0.00023169105285961741,-0.012862687406722716,0.015155571629886413,0.9826186431123884
2014-12-12,1,0.0009476494056104932,0.0012932165904978683,-0.017209642637267347,0.014437775754758261,0.9816909772075987
2014-12-16,-1,-0.0024089086404215526,-0.0021687262335977173,-0.013097109255173281,0.014437775754758261,0.9829571575227379
2014-12-18,-1,-4.8955276406154836e-05,-2.3820448637800235e-05,-0.013097109255173281,0.014437775754758261,0.9819626486247556
2014-12-22,-1,-0.0010282119994648197,-0.0008158189571252634,-0.0151332893874228,0.011996886598124538,0.9811367919880666
2014-12-24,-1,-0.001531161847569253,-0.0012831318853760462,-0.013097109255173281,0.01628033840456488,0.981323157727768
2014-12-29,-1,-0.001173169334264365,-0.0009326373074459787,-0.0151332893874228,0.01628033840456488,0.9806570870274605
2014-12-31,-1,-0.0011449768318706158,-0.0009961198473250061,-0.01687204930982222,0.01628033840456488,0.9800941812108411
2015-01-05,-1,-0.00036240522148700733,-0.0002411844184861029,-0.01687204930982222,0.012312504419670339,0.9812651820958812
2015-01-07,1,0.0013207277231590685,0.0014873453795073927,-0.01687204930982222,0.011519819510689332,0.9825599861803623
2015-01-09,1,0.0018459479156624715,0.0021416581483859856,-0.01687204930982222,0.011519819510689332,0.9827802038100745
2015-01-13,-1,-0.0002370535811872502,-0.00020439309056025022,-0.00921921686971849,0.011519819510689332,0.9846287832488609
2015-01-15,-1,-0.0014029623920955542,-0.0012845305131042482,-0.006041350688113653,0.011519819510689332,0.9848015266798874
2015-01-20,1,0.0026610708035135567,0.0031743892312444642,-0.006041350688113653,0.009604242371913645,0.9894936974336876
2015-01-22,1,0.002087744506902982,0.0025220051326980417,-0.0028702833923127838,0.009604242371913645,0.9903421230544127
2015-01-26,1,0.003924873579265044,0.0046137755375578885,-0.006937255600211634,0.00867964001939318,0.9909037443549366
2015-01-28,1,0.002751918713153726,0.0032467665504532558,-0.006937255600211634,0.009087395765271318,0.9912390851534132
2015-01-30,1,0.002585634341955252,0.0031059198258562865,-0.00764389394639735,0.00867964001939318,0.99159799711185
2015-02-03,1,0.0018648485951271948,0.002262394287258213,-0.00777544724557509,0.009087395765271318,0.9911134704681969
2015-02-05,1,0.0015250176170485009,0.0017978603536667314,-0.009905596174417691,0.009087395765271318,0.9883634376108565
2015-02-09,1,0.0010942216249383698,0.001298625236718367,-0.008067166652741068,0.009087395765271318,0.9888931139143368
2015-02-11,1,0.0025114466361833903,0.0029630794085149697,-0.012125545170499496,0.006363057525149538,0.9879391657840025
2015-02-13,1,0.00215823666244015,0.002442952220273244,-0.012125545170499496,0.005503193774709819,0.9862897133538571
2015-02-18,1,0.001741905216028876,0.001960278173084188,-0.012192049553174928,0.005503193774709819,0.9859080074182451
2015-02-20,1,0.0021791677369661063,0.0024004614202506962,-0.014963814514009388,0.004812926634677309,0.984557495630347
2015-02-24,1,0.0011302619633237708,0.001173027631496076,-0.015609609874719864,0.004812926634677309,0.984476820514589
2015-02-26,1,2.284541901621627e-05,0.00015814142072142795,-0.015609609874719864,0.0037618413196543327,0.9840499491202536
2015-03-02,-1,-0.00059416383264765,-0.0004227832787771746,-0.015457028648980554,0.006998250009208635,0.9843006482322674
2015-03-04,-1,-0.0010026296924277498,-0.0007916861767646455,-0.015803861085237993,0.0037618413196543327,0.9842842939750331
2015-03-06,-1,-0.0026428653473750136,-0.0021119957120795257,-0.012192049553174928,0.003372667954531904,0.9876361987723059
2015-03-10,-1,-0.0037318605810539736,-0.003002019370950467,-0.012192049553174928,0.004779644598818372,0.9869610614783352
2015-03-12,-1,-0.003062185406402149,-0.0025861583739046415,-0.010736187911302224,0.006902156497975026,0.9868432722585389
2015-03-16,-1,-0.0008095890589349045,-0.0006278119084617927,-0.01132709871953056,0.006902156497975026,0.9884598893518562
2015-03-18,-1,-0.0004219274521321129,-0.0003597235235669108,-0.010778205261742752,0.01174529776128229,0.9878379994378305
2015-03-20,1,0.0003335262322297605,0.00041998587553638547,-0.009865538406781553,0.010821716224476991,0.9890700301786818
2015-03-24,-1,-0.0005594682273193576,-0.000555107615825846,-0.009865538406781553,0.01174529776128229,0.9863054816084839
2015-03-26,-1,-0.001597637364955039,-0.001494239942348087,-0.009865538406781553,0.012528023878827982,0.986844093434445
2015-03-30,-1,-0.0005729357799363741,-0.0005486015034886808,-0.010778205261742752,0.01174529776128229,0.9863565096713873
2015-04-01,-1,-0.002992302984639632,-0.0026526167408881633,-0.01009052024315135,0.01174529776128229,0.9858845284296456
2015-04-06,-1,-0.002763842833035695,-0.002455839881429305,-0.01009052024315135,0.012528023878827982,0.9841337349968327
2015-04-08,-1,-0.001755957554571681,-0.0015867098901749346,-0.011605948869023826,0.01174529776128229,0.9841212251894331
2015-04-10,-1,-0.0014352971604429192,-0.0012690542015249377,-0.011605948869023826,0.012528023878827982,0.9830728736295571
2015-04-14,-1,-0.0016649586850353993,-0.0014404985458083231,-0.010243318341323032,0.012528023878827982,0.9836097568943354
2015-04-16,1,0.0002549075708263101,0.00033184186136311455,-0.010243318341323032,0.011633292203154736,0.9846596677699595
2015-04-20,-1,-0.00024306287134501114,-0.00021133313474557764,-0.009212819565743664,0.011633292203154736,0.9850451970807675
2015-04-22,-1,-0.000580218783083445,-0.000548863632733979,-0.004229666532838317,0.009500796774078755,0.9883797742371034
2015-04-24,-1,-0.0003648793949656596,-0.00035028742222391595,-0.0013521070421157314,0.008940214328944216,0.9890887725406162
2015-04-28,-1,-0.0019201832622919779,-0.0017246189090313207,0.00011900683711502954,0.009816219152529374,0.9889287527757714
2015-04-30,-1,-0.0014931875000301744,-0.001381941111361095,-0.0013521070421157314,0.008940214328944216,0.9896325750402308
2015-05-04,-1,-0.00044550214972313945,-0.00044391729810139334,-0.001634038092093929,0.008575826907813333,0.9921355765764763
2015-05-06,-1,-0.0015640893165827572,-0.0013731779365603383,-0.001634038092093929,0.008940214328944216,0.9917787940401307
2015-05-08,1,0.00013226666267308462,0.00014722733567707776,-0.001634038092093929,0.008575826907813333,0.993516681840782
2015-05-12,-1,-0.0009069228878421064,-0.0006743259903424175,-0.0009349692470868921,0.008680967700630204,0.9927078177059094
2015-05-14,1,0.0004963353820263145,0.0005438422415248526,-0.0016890719909979847,0.009646574529199791,0.9923514448523342
2015-05-18,1,0.0011052960427356217,0.0012587123598692782,-0.0016890719909979847,0.009646574529199791,0.9925656257351476
2015-05-20,1,0.0007710745329782289,0.000860796922497787,-0.0027561387721387245,0.010852996140750906,0.992005270112363
2015-05-22,1,0.0017036653616238492,0.0019504730803143458,-0.0031062711672501346,0.010852996140750906,0.9920550132834268
2015-05-27,1,0.0016005285574083672,0.0017570543839015432,-0.0031062711672501346,0.009307619481981921,0.9927583241034336
2015-05-29,1,0.0016909449255484038,0.0019515067517570433,-0.0031062711672501346,0.009307619481981921,0.9931244050125867
2015-06-02,1,0.001552436909478685,0.0018155138726844607,-0.0034043047356819584,0.010852996140750906,0.991590088407785
2015-06-04,1,0.001874814291176969,0.0021736934531358595,-0.0028501687222485354,0.010673312121426514,0.9920654756597819
2015-06-08,1,0.0014371597687235257,0.0015842314959883352,-0.0028501687222485354,0.009258927524252537,0.9922450615619228
2015-06-10,1,0.0015569660141279398,0.0016698204485247018,-0.0034043047356819584,0.009258927524252537,0.9909136217888742
2015-06-12,1,0.002573400714440711,0.002975529537723081,-0.0028501687222485354,0.009528307923714199,0.9914026283519097
2015-06-16,1,0.0026815891366025768,0.003071937729836552,-0.0028501687222485354,0.010530166639627612,0.9898761670073735
2015-06-18,1,0.0037711941574221104,0.0043819097760405,-0.0028501687222485354,0.010530166639627612,0.9889535866099772
2015-06-22,1,0.003764869117845233,0.00433700200391275,-0.0031461500073199653,0.010530166639627612,0.9886649435094841
2015-06-24,1,0.003066910663041153,0.0035638042728518386,-0.004547703246864402,0.010784682979182765,0.9843324826961983
2015-06-26,1,0.0022561699492005807,0.002611035122821429,-0.004656217330247118,0.010784682979182765,0.9838649372973715
2015-06-30,1,0.0022879379598962747,0.002649560533366114,-0.0027961675373441874,0.010530166639627612,0.9855082587229053
2015-07-02,1,0.0021991877468435336,0.0025193433714089165,-0.001311906817548,0.009528307923714199,0.9858467106408995
2015-07-07,1,0.00280447480136648,0.0032412704730563143,-0.010506655859238502,0.009528307923714199,0.9846984864231725
2015-07-09,1,0.0019685186923766675,0.0023245547719937107,-0.010506655859238502,0.008128866880410385,0.98542618587699
2015-07-13,1,0.0026163378798451037,0.003060789286761968,-0.010506655859238502,0.007358178215859759,0.9859087216362921
2015-07-15,1,0.004162918275717365,0.004867911356948588,-0.011235785546749914,0.0063330878328141426,0.986091742964107
2015-07-17,1,0.005216546665692099,0.00601286108451342,-0.011235785546749914,0.005463955318496734,0.9868916796287616
2015-07-21,1,0.004447080920349242,0.005121986898593322,-0.011235785546749914,0.005463955318496734,0.9874369264269863
2015-07-23,1,0.005869950539491539,0.0066806013222225295,-0.011235785546749914,0.004323397435272527,0.9891554119146828
2015-07-27,1,0.004974769732900768,0.005655477706142644,-0.011235785546749914,0.0029001871822178778,0.9882259483948125
2015-07-29,1,0.007840868130956143,0.008765200532748034,-0.011294293610685752,0.004513170480272284,0.9845852414849018
2015-07-31,1,0.0052550074782791965,0.0058800170375346615,-0.011294293610685752,0.004513170480272284,0.9852295918946986
2015-08-04,1,0.003046250212671592,0.003295473309806852,-0.01633165187074329,0.004513170480272284,0.9852053811596324
2015-08-06,1,0.0026075748043910916,0.0028428107893347463,-0.013824258979708855,0.004513170480272284,0.9852143056982103
2015-08-10,1,0.0027742194141850514,0.002994485469602628,-0.013824258979708855,0.0012075890980674862,0.9834561571432692
2015-08-12,1,0.0013710750584053038,0.00141261224751686,-0.012144113659421283,0.00943197031460597,0.9840594414667758
2015-08-14,1,0.0003010271376047127,0.00046728773557409663,-0.012144113659421283,0.018683358922697332,0.9833719444995366
2015-08-18,-1,-0.00031224730214332553,-1.3112049685726798e-05,-0.012144113659421283,0.018683358922697332,0.9837177283850315
2015-08-20,-1,-0.001858597639103975,-0.0014028899451879685,-0.011259439750749247,0.023873012824064475,0.9843230230243245
2015-08-24,1,0.00032749045999338816,0.0006758573261639622,-0.012144113659421283,0.023873012824064475,0.982059384392405
2015-08-26,-1,-0.003607481907063329,-0.0030133013632167634,-0.014161538055002447,0.01804579073042495,0.9838558459726842
2015-08-28,-1,-0.003504523925607993,-0.003093282265046301,-0.02087594060080862,0.0029504542247524917,0.9804019032483621
2015-09-01,-1,-0.003955222895500862,-0.0033370274192935923,-0.014161538055002447,0.01804579073042495,0.9795847436241188
2015-09-03,-1,-0.004438075366095614,-0.003979322127997389,-0.021140667810211268,0.01804579073042495,0.9746593415336338
2015-09-08,-1,-0.0025693124868973564,-0.002167916596905025,-0.03700046401800146,0.014421700360654637,0.9718342803095665
2015-09-10,-1,-0.0028423184070244293,-0.0024557121047218706,-0.03902552568644249,0.004116278156105636,0.97117980373467
2015-09-14,-1,-0.0023265538494464354,-0.0019290648521329225,-0.03902552568644249,0.004116278156105636,0.969905673513906
2015-09-16,-1,-0.002460129751838902,-0.002049247512961729,-0.03902552568644249,0.004116278156105636,0.9695075608456845
2015-09-18,-1,-0.0028927805651191543,-0.0023511602154656177,-0.03902552568644249,0.004116278156105636,0.9681827794605403
2015-09-22,-1,-0.006962074633855829,-0.005931824788042418,-0.02322156823041455,0.004116278156105636,0.971509851030799
2015-09-24,-1,-0.008393004497677742,-0.007271211799917413,-0.03502407067611417,0.013667327521453639,0.9700305558542438
2015-09-28,-1,-0.011668761962953658,-0.010148498109065558,-0.016663271432557334,0.019175605330466004,0.9712655886328353
2015-09-30,-1,-0.009543471643334179,-0.00834144925414613,-0.017868463380905836,0.0133873190690842,0.9734844676540929
2015-10-02,-1,-0.0072504250361215845,-0.006327033410186357,-0.016994502032270223,0.004446093055965635,0.9797101266794471
2015-10-06,-1,-0.006179415560474688,-0.005406090706472189,-0.016289398131906607,0.01697197739761561,0.980464236251258
2015-10-08,-1,-0.007498819704408542,-0.006568179409556377,-0.016289398131906607,0.029670367819884802,0.9792061893728092
2015-10-12,-1,-0.0054392716857722245,-0.004760276445503198,-0.016289398131906607,0.01697197739761561,0.9811728349836235
2015-10-14,-1,-0.005625217605173646,-0.00495765149970894,-0.016289398131906607,0.01697197739761561,0.9804266274043002
2015-10-16,-1,-0.0033544084956605366,-0.0029912829326669407,-0.016289398131906607,0.01697197739761561,0.9796029658018944
2015-10-20,-1,-0.005793889123074986,-0.005129249741254685,-0.008446509347846323,0.026945434018360154,0.9778691898405569
2015-10-22,-1,-0.007124556132733538,-0.0062972068137095915,-0.008446509347846323,0.026945434018360154,0.9783276347090553
2015-10-26,-1,-0.005644941871857258,-0.00501893774643881,-0.008446509347846323,0.021589081299590366,0.9802747430801024
2015-10-28,-1,-0.005281084464920869,-0.004732769079794034,-0.008028939208415017,0.02447178224852651,0.9797283895072338
2015-10-30,-1,-0.005869985502216685,-0.005287780038384253,-0.0007686331892937056,0.026945434018360154,0.9783859308309396
2015-11-03,-1,-0.00344514807208904,-0.0031424120618799064,-0.008037741448787076,0.020771582257973438,0.9804601099544401
2015-11-05,-1,-0.0026891441614357962,-0.0024770884114931235,-0.008037741448787076,0.020771582257973438,0.9806778189458922
2015-11-09,-1,-0.002262088239659635,-0.0021304067181214907,-0.008591165392891752,0.02447178224852651,0.9792331630911807
2015-11-11,-1,-0.0018308766225086158,-0.001766488087584605,-0.010478618996963151,0.02447178224852651,0.9785051088029667
2015-11-13,0,-5.75496891660523e-05,0.00010239670460171019,-0.015138013063777416,0.021848660248003696,0.9804468610986898
2015-11-17,1,0.0014343979836945427,0.001755586421153403,-0.015138013063777416,0.021848660248003696,0.979711542569268
2015-11-19,1,0.0013879345687554225,0.0017009909608858152,-0.015466841918058737,0.021848660248003696,0.9795990884492992
2015-11-23,1,0.0017979176226622772,0.0021783295803583886,-0.015466841918058737,0.02447369282555792,0.9785112675966644
2015-11-25,1,0.0031135824903800405,0.003688890487373771,-0.015466841918058737,0.02266806986665203,0.9786512400112346
2015-11-30,1,0.0028339633876335235,0.0033144823300785995,-0.015466841918058737,0.02266806986665203,0.9785886475558669
2015-12-02,1,0.0025325218242881085,0.0030127507404072527,-0.015466841918058737,0.02266806986665203,0.9800014452225319
2015-12-04,1,0.002546480238283446,0.0030990343232486567,-0.01593037364664023,0.02008102657229154,0.9794974332226297
2015-12-08,1,0.004074373430270579,0.004940196612169006,-0.016507794594863928,0.008377300602727445,0.9782877708107819
2015-12-10,1,0.004456080396329229,0.005269993514749316,-0.016507794594863928,0.004006579373717448,0.9787942277272622
2015-12-14,1,0.0032412146265001353,0.003965593237144809,-0.016507794594863928,0.007874552284492424,0.9798844364660919
2015-12-16,1,0.00513554588968292,0.006068320245404603,-0.019140998873680565,0.007874552284492424,0.9779149600121858
2015-12-18,1,0.0037962611222249194,0.004574877702907242,-0.016507794594863928,0.01273504296483735,0.9792583510001003
2015-12-22,1,0.004765880449370209,0.005702897826504601,-0.016507794594863928,0.01273504296483735,0.9774231332127917
2015-12-24,1,0.00464622902806041,0.005514201289847129,-0.016507794594863928,0.0062257509903295965,0.9772500039337031
2015-12-29,1,0.004959240714258241,0.005816220830626034,-0.023112945632230094,0.003603454817118095,0.9730503858940552
2015-12-31,1,0.004646072246355196,0.005512963023521459,-0.023112945632230094,0.0074724412927493315,0.9733849191330635
2016-01-05,1,0.0018961109994555052,0.0023279695793450247,-0.025188546394542592,0.0074724412927493315,0.9748517742230269
2016-01-07,1,1.3024223081578752e-05,0.00021278325499071585,-0.028601824009601158,0.0074724412927493315,0.9737113165460543
2016-01-11,-1,-0.0026740192181505754,-0.002617344375880446,-0.028601824009601158,0.01273504296483735,0.9736269822651883
2016-01-13,-1,-0.0032957509844019324,-0.003199494492759368,-0.028601824009601158,0.0074724412927493315,0.9756382967532452
2016-01-15,-1,-0.0023287129219607787,-0.0022457920044051485,-0.028601824009601158,0.014311434815797119,0.9756962114400439
2016-01-20,-1,-0.000501506403622687,-0.00043444043161118377,-0.03400345673849323,0.025599056072479923,0.9724412605743675
2016-01-22,1,0.0010537512941263907,0.001370804026947448,-0.03400345673849323,0.014026601936955175,0.974067934866688
2016-01-26,-1,-0.0007682727830495117,-0.0007445178484047165,-0.03400345673849323,0.014026601936955175,0.9742371600343626
2016-01-28,-1,-0.005317773304555185,-0.004787607111552331,-0.021395622518449654,0.020954569270480127,0.9772727397120923
2016-02-01,-1,-0.0036159295017099396,-0.0033162099324960063,-0.028357378936974362,0.02256661109179514,0.9747646026661816
2016-02-03,-1,-0.006559877682231695,-0.0059415584015319114,-0.015749218354994515,0.02256661109179514,0.9759571943056705
2016-02-05,-1,-0.009466092397744246,-0.008576849489720078,-0.006327683661768682,0.030518127991605526,0.976304865250632
2016-02-09,-1,-0.008073274740191741,-0.007351635427851444,-0.009860523671364979,0.02264955754697571,0.9748498296066868
2016-02-11,-1,-0.007458094330611389,-0.006856723394409302,-0.009860523671364979,0.024765772060861037,0.9729412061268149
2016-02-16,-1,-0.0070078002179794424,-0.006283451291175644,-0.02068532927404922,0.019306823306695347,0.9754649085347558
2016-02-18,-1,-0.007419354515702649,-0.006595605351165168,-0.015749218354994515,0.017586934016024104,0.9788239528946582
2016-02-22,-1,-0.007075565327818925,-0.0060144711397680795,-0.015749218354994515,0.020086202216689015,0.9773675048456203
2016-02-24,-1,-0.007414125317001332,-0.006369179376295619,-0.016883181791252064,0.020086202216689015,0.9765168297908347
2016-02-26,-1,-0.006672997923523649,-0.005632450110868504,-0.02152002588234622,0.018895282937789113,0.9772594464775228
2016-03-01,-1,-0.0034355766577048386,-0.0029812077605006716,-0.01602745055776018,0.018895282937789113,0.979602426350987
2016-03-03,-1,-0.004620856916638508,-0.003919504018759771,-0.015119135498866607,0.02439930315679728,0.9771486928870341
2016-03-07,-1,-0.003102275171679907,-0.0027203119553537046,-0.021270909284734112,0.021076502934191756,0.9780135290730194
2016-03-09,-1,-0.004021741970525577,-0.003408782740789135,-0.021270909284734112,0.02439930315679728,0.9774195550738685
2016-03-11,-1,-0.003302091472631795,-0.0028999549422654572,-0.021270909284734112,0.022710432462223394,0.9786878584514905
2016-03-15,-1,-0.006038039002117818,-0.005270295648049892,-0.007218201355010827,0.022710432462223394,0.9786515975139854
2016-03-17,-1,-0.006395094282921959,-0.005442465686847196,-0.00129949112412464,0.022710432462223394,0.978326932744818
2016-03-21,-1,-0.004211918477458053,-0.0036107242297804794,-0.011070885858792671,0.02023142866350826,0.9760778800088878
2016-03-23,-1,-0.005071805072218494,-0.004350374040489498,-0.00129949112412464,0.02671886963938084,0.9741147976052589
2016-03-28,-1,-0.005744452038237376,-0.004889135673453033,-0.0046842799960709405,0.02671886963938084,0.9754573884417395
2016-03-30,-1,-0.0029222262452706415,-0.0025173346740613584,-0.008250449725011018,0.020710536501115775,0.9771601161140758
2016-04-01,-1,-0.001045819249890841,-0.0009223952917082642,-0.012159930863914085,0.010607924623481462,0.9791226629419786
2016-04-05,-1,-0.00212017501384978,-0.0018697952125378945,-0.0112121706470995,0.010607924623481462,0.9793754193759567
2016-04-07,1,0.000565899687444572,0.0006341169290233407,-0.008250449725011018,0.011155104045171439,0.9821720755097471
2016-04-11,1,0.0006718859691598746,0.0007538653137252819,-0.008250449725011018,0.01352094297870098,0.9816858740662032
2016-04-13,1,0.0031783910726311377,0.0037008866296887924,-0.0112121706470995,0.010665211440250386,0.9812905702928147
2016-04-15,1,0.003125738449529857,0.0036464767585942318,-0.014545405119124385,0.010665211440250386,0.9809462994008332
2016-04-19,1,0.0023798594611737136,0.002812704977614297,-0.012163925594336022,0.010665211440250386,0.9852711832822452
2016-04-21,1,0.004637615050239286,0.005436144742440413,-0.014292269668870717,0.008183042142960468,0.9862723744565051
2016-04-25,1,0.004395449085065535,0.00520191092870658,-0.014292269668870717,0.010037684867068793,0.986325018908979
2016-04-27,1,0.0031604497954520806,0.0037786106037435083,-0.012163925594336022,0.011148470654235151,0.9869830252725355
2016-04-29,1,0.0020165505767504393,0.002452455945968868,-0.006531999251711201,0.011148470654235151,0.9879824757085162
2016-05-03,1,0.0020164240512649863,0.002490020970522454,-0.0034565106947009854,0.011148470654235151,0.9887153681480233
2016-05-05,1,0.003544309360928145,0.004228550749704416,-0.006280875270159414,0.009421328772725803,0.9897153882960239
2016-05-09,1,0.0035482549043362706,0.004154492097214,-0.01085624126676126,0.009421328772725803,0.988730120017654
2016-05-11,1,0.004162960327449497,0.005047155707108515,-0.01085624126676126,0.009421328772725803,0.9896389503158017
2016-05-13,1,0.002837725922395711,0.0034838567061045967,-0.011844852975670603,0.009421328772725803,0.9890684596888226
2016-05-17,1,0.0038372974819298636,0.004670539867992948,-0.012579658527140332,0.007373164142851308,0.9893905950465713
2016-05-19,1,0.003991858734803266,0.004876328573331514,-0.011091481031015243,0.006622700518348328,0.9902697589794032
2016-05-23,1,0.00502117839514581,0.006110789577398414,-0.011091481031015243,0.006622700518348328,0.9896611093383679
2016-05-25,1,0.005959634655095563,0.007153377948283024,-0.011091481031015243,0.007373164142851308,0.9885566722376723
2016-05-27,1,0.004667505989312073,0.005608340903781248,-0.012871866534807954,0.007373164142851308,0.9850701342827746
2016-06-01,1,0.004376901045491729,0.005219686849377637,-0.012871866534807954,0.010099248627161914,0.9841758116698381
2016-06-03,1,0.004177730428090214,0.004977443410184978,-0.012871866534807954,0.01346303590844082,0.984307215603207
2016-06-07,1,0.0038048527480995676,0.004512979143854883,-0.012871866534807954,0.013746482380680268,0.9844921567003087
2016-06-09,1,0.004584285065273725,0.005463411115536943,-0.01278460775868462,0.013746482380680268,0.984672006594873
2016-06-13,1,0.003579672627716206,0.004326271499515434,-0.00851121487372989,0.016224964773383675,0.9826817236291695
2016-06-15,1,0.0027110180044226154,0.0032719566588053617,-0.008470559705250756,0.016224964773383675,0.9825400004152278
2016-06-17,1,0.00240970547188143,0.0028849164598023576,-0.008470559705250756,0.016224964773383675,0.982374305990815
2016-06-21,-1,-0.0002581380076408638,-0.00014693359106515453,-0.007312425177514925,0.016224964773383675,0.9815345152155205
2016-06-23,1,0.001840340523011597,0.0020538705126332654,-0.009140921781580274,0.011361295283358747,0.9836392694362576
2016-06-27,-1,-0.0018780751688392463,-0.0015288581633946478,-0.0053763701266662835,0.011361295283358747,0.9871484143819103
2016-06-29,-1,-0.0031300311825815472,-0.002480046268442849,-0.0053763701266662835,0.01655399857722552,0.9828297497448653
2016-07-01,-1,-0.0019040960488114296,-0.0014305458458540904,-0.0053763701266662835,0.01789131109400617,0.9828386594196641
2016-07-06,-1,-0.0024519937290148498,-0.001903412289647512,-0.006559987634852154,0.013964547351037866,0.9828440111432378
2016-07-08,-1,-0.001402863628727186,-0.0011016990545190852,-0.006559987634852154,0.013964547351037866,0.9829119563362377
2016-07-12,-1,-0.0003904011382101142,-0.00023029894420611334,-0.005407529410647191,0.009557494534505422,0.9865254822614207
2016-07-14,-1,-0.00023238788628812083,-0.00011129471533131947,-0.004032842173286985,0.01061195283282796,0.987243292078268
2016-07-18,-1,-0.00042295152674073856,-0.0002309543993495052,-0.005407529410647191,0.015643283742413812,0.9859263174614998
2016-07-20,1,0.0007455565560998737,0.000745747751074274,-0.0054524610118002245,0.007011440406174274,0.9860364326328712
2016-07-22,1,0.000661890633020026,0.0006892488001575396,-0.004352396173907237,0.013977108459524322,0.9855913681927068
2016-07-26,1,0.00018966441443389563,0.00024030831367907482,-0.0053012118432089325,0.013977108459524322,0.9850252869135556
2016-07-28,1,0.005234244578722288,0.0059418608457403425,-0.005676467665668631,0.006967838195714052,0.9879087509908667
2016-08-01,1,0.0036933420496281133,0.004077745421239232,-0.007196245193597978,0.006967838195714052,0.9884884427378423
2016-08-03,1,0.002801411277317291,0.0031285465166216693,-0.005676467665668631,0.006967838195714052,0.9897828777541161
2016-08-05,1,0.0018827218669233493,0.001950019368923556,-0.005676467665668631,0.004795478385373402,0.9898587499897777
2016-08-09,1,0.002605832156304988,0.0027609516056437645,-0.005676467665668631,0.012159882592823242,0.9892659461358563
2016-08-11,1,0.0017005339899624867,0.001772694762781852,-0.006695409135807578,0.005196213130765242,0.9884442424538171
2016-08-15,1,0.003703953872040677,0.004005257879923697,-0.006241661630033701,0.005196213130765242,0.9878737363896024
2016-08-17,1,0.0030750523422116037,0.003319217721991344,-0.004427065058530039,0.012482086496092686,0.9886402009908044
2016-08-19,1,0.004448543276275897,0.0050634449475082015,-0.006241661630033701,0.010213928784760736,0.9884989857583952
2016-08-23,1,0.005225296078767428,0.005889745473798947,-0.005034403866335817,0.013953106799864626,0.9881519045814813
2016-08-25,1,0.003912828122908523,0.004354774428967188,-0.003863711990262295,0.013953106799864626,0.9895712933499599
2016-08-29,1,0.00452531321458342,0.005148858590538146,-0.003863711990262295,0.01129538415163666,0.9900693582849667
2016-08-31,1,0.0034286948315708277,0.003967579768550705,-0.003623104155176159,0.01129538415163666,0.9898261159845312
2016-09-02,1,0.00428244225629983,0.004919537109804786,-0.0033417752883518146,0.013953106799864626,0.9890255753848229
2016-09-07,1,0.004577290682326968,0.005269307435985176,-0.0036592769080455627,0.015131610156319282,0.9882478190021895
2016-09-09,1,0.003274940800715923,0.003491603255817137,-0.0036592769080455627,0.015131610156319282,0.9890680743727991
2016-09-13,1,0.00483445813174204,0.005350956455813907,-0.00498232773075782,0.0116689861142196,0.9856487523771355
2016-09-15,1,0.004356670826457727,0.004976304304609514,-0.00582196441169726,0.008085875681712646,0.9853602381394813
2016-09-19,1,0.0032986972857405117,0.0037006508230138235,-0.00498232773075782,0.0116689861142196,0.9853610471473958
2016-09-21,1,0.0036344270693781417,0.003986079593801921,-0.00498232773075782,0.010380369405071135,0.9849074541592012
2016-09-23,1,0.003267197644137513,0.003514188293643435,-0.006798296839591772,0.010380369405071135,0.9831683728525704
2016-09-27,1,0.0037199652189514936,0.0040638066949212695,-0.01046286445045885,0.008034661953484696,0.9822524868002703
2016-09-29,1,0.0028989529409189684,0.0031646334843197805,-0.006798296839591772,0.010949219424950132,0.9828971145993101
2016-10-03,1,0.0035411134307401174,0.0038333791543229607,-0.009898900938775747,0.008034661953484696,0.9825992583723571
2016-10-05,1,0.003459207236403899,0.0037000481414613184,-0.018525482702776895,0.008034661953484696,0.9816733973498857
2016-10-07,1,0.0031249700371069745,0.0033431431238894016,-0.018525482702776895,0.008034661953484696,0.9818311870655408
2016-10-11,1,0.003959890454326351,0.004268251424918538,-0.01151163277310226,0.010949219424950132,0.9860752935240302
2016-10-13,1,0.0037176276143917925,0.004014961139634255,-0.01151163277310226,0.014156558223643718,0.9839078436711325
2016-10-17,1,0.005050068130864447,0.005591089383268029,-0.011733872097963487,0.010949219424950132,0.9834689149912194
2016-10-19,1,0.005597506228209645,0.006204758078463966,-0.015071563413537516,0.0036166196934851683,0.9834017270664251
2016-10-21,1,0.0041689505587717566,0.004607066399695745,-0.014720197116646322,0.0036166196934851683,0.9847770494807071
2016-10-25,1,0.0030844280572111466,0.0033300217124515273,-0.014720197116646322,0.006594505655933204,0.9837684040965146
2016-10-27,1,0.003131361305164975,0.003357263890480429,-0.014720197116646322,0.004805546217494812,0.9842053760151215
2016-10-31,1,0.001656914483114923,0.0016625840945929658,-0.01077055350544473,0.006070918307276956,0.9855192914202789
2016-11-02,1,0.00044554574718780966,0.0006639592215745357,-0.014720197116646322,0.004805546217494812,0.9849259990938813
2016-11-04,-1,-0.0006035495174839961,-0.00021580411523339097,-0.014720197116646322,0.004805546217494812,0.9855325173724605
2016-11-08,0,-0.00016646751350212017,0.0001732507527043227,-0.017506104460544708,0.0026975337743187777,0.9843453221142008
2016-11-10,0,-7.388468031512864e-05,0.00025120456628260153,-0.014720197116646322,0.0026975337743187777,0.9871530681846716
2016-11-14,1,0.0006404972463871957,0.0008570504473973152,-0.014720197116646322,0.005863562542917444,0.9863905072902418
2016-11-16,-1,-0.002391336970179626,-0.0016716738097720583,-0.013050813834042111,0.006700887189477073,0.9845265985905531
2016-11-18,-1,-0.00346131477682487,-0.0026373263768366766,-0.010756269148009466,0.006700887189477073,0.984637948495631
2016-11-22,-1,-0.0023263995435793884,-0.0016700435980370547,-0.010756269148009466,0.005863562542917444,0.9872810872306449
2016-11-25,-1,-0.0030028071244403475,-0.0022559512858751243,-0.010756269148009466,0.006700887189477073,0.9865187276271559
2016-11-29,-1,-0.002822028177749906,-0.002092824057069414,-0.010756269148009466,0.002730193194568225,0.9867979176241707
2016-12-01,-1,-0.004910233975502555,-0.004037174382066182,-0.00862748184346226,0.006254827280824869,0.989069857630046
2016-12-05,-1,-0.005251440585299763,-0.0043165978568134675,-0.00862748184346226,0.012878696252078128,0.9864633466030375
2016-12-07,-1,-0.007195138589308396,-0.006060078537947152,-0.007583310482732751,0.017157690353187177,0.9848616176694622
2016-12-09,-1,-0.006537825251591505,-0.005536866981926517,-0.007583310482732751,0.02236392051498548,0.9806545892780032
2016-12-13,-1,-0.006677895854189751,-0.005726293101716459,-0.007928513010825259,0.017747441930735547,0.981631745875646
2016-12-15,-1,-0.005256814989632595,-0.004463053579270862,-0.007928513010825259,0.008536160464154778,0.9843823841306844
2016-12-19,-1,-0.002571224978856603,-0.0021588680856694823,-0.005920413719142792,0.008536160464154778,0.984676366676872
2016-12-21,-1,-0.0026701196355003428,-0.0022941216291114085,-0.00524397245047847,0.009304086220551174,0.9845444603717936
2016-12-23,-1,-0.0032603121444717865,-0.002745123857061234,-0.004747584718898997,0.0064312344848594365,0.9853085413613648
2016-12-28,-1,-0.003358199186032248,-0.0028497384904527727,-0.004747584718898997,0.0064312344848594365,0.9851838191536745
2016-12-30,-1,-0.003495921691533812,-0.002958754356893175,-0.004747584718898997,0.005827770064659182,0.9849520410701635
2017-01-04,-1,-0.00103669553573084,-0.0008149454053928779,-0.004747584718898997,0.005827770064659182,0.9870876455405453
2017-01-06,1,0.0009321271597532502,0.0009977974879761319,-0.0047149862789371355,0.005203819581291402,0.9895393887811083
2017-01-10,1,0.0009359412414528534,0.0009376980181934331,-0.0047149862789371355,0.00483909329916351,0.9943419469576149
2017-01-12,1,0.0007494734264243923,0.0007635364101678181,-0.004159346733740766,0.00483909329916351,0.9952191734759224
2017-01-17,1,0.00015548625333354824,0.000200510769837831,-0.002919128294006984,0.00496714589155144,0.9955106931941821
2017-01-19,-1,-0.0004343386003049346,-0.00027531461750684717,-0.0047149862789371355,0.00496714589155144,0.9949240846500912
2017-01-23,-1,-0.0003261372207293069,-0.0001852091007415133,-0.0048662293303808,0.00496714589155144,0.9945452569791613
2017-01-25,-1,-0.00073739370691304,-0.0005177047319390159,-0.006155558436724598,0.00496714589155144,0.9943729402867945
2017-01-27,-1,-0.000925800709492643,-0.0006757285721798422,-0.0064832196154157185,0.00496714589155144,0.9924761575901256
2017-01-31,-1,-0.0012468763359519434,-0.0009786806170318098,-0.00497544972327784,0.005706948657777519,0.9924667213548612
2017-02-02,-1,-0.0013434339033473886,-0.001010489440022285,-0.006304180050280132,0.004000832537610307,0.9929082525907975
2017-02-06,-1,-0.0008737885058227944,-0.0006473400927980805,-0.006772871785375655,0.004000832537610307,0.9925407864279677
2017-02-08,-1,-0.00012566174248112232,-4.0451942761372464e-05,-0.007117333040792362,0.004000832537610307,0.9923200528240368
2017-02-10,-1,-0.00045753249018577616,-0.00031187885126570286,-0.007117333040792362,0.004714648199377197,0.9915251199743892
2017-02-14,1,0.0005966702098329111,0.000642789793225707,-0.007211814048762517,0.005186663101808797,0.9908797058397025
2017-02-16,-1,-9.661588534589345e-05,-4.784704782115627e-05,-0.007211814048762517,0.006213911019845906,0.9896894610011581
2017-02-21,1,0.00018894401999728638,0.0001939049979142456,-0.006775931568414828,0.006213911019845906,0.9897268584696116
2017-02-23,-1,-0.0006927387169042845,-0.0005441016981393098,-0.006463354071553917,0.00718695163244503,0.988850181290645
2017-02-27,1,0.0009604080879903357,0.0010791253406786186,-0.006463354071553917,0.008778585599977195,0.9900134066474252
2017-03-01,1,0.0017101334093794522,0.001967692013139367,-0.006775931568414828,0.010226124633486182,0.9895321830037831
2017-03-03,1,0.0014288811296524876,0.0016267286193461317,-0.007492420111708261,0.010226124633486182,0.989218935534489
2017-03-07,1,0.0017573925798190764,0.002067969760634534,-0.005427316960089568,0.010226124633486182,0.9898842918287376
2017-03-09,1,0.0013275247692883746,0.001553345543629426,-0.005793224681887946,0.012287736161706973,0.9887866956758365
2017-03-13,1,0.0023114398431666773,0.0027286859818480506,-0.005932536922592783,0.01098332718331519,0.988984220682799
2017-03-15,1,0.0027772237858268494,0.003333597418195473,-0.005932536922592783,0.012889263228465748,0.9884087221485959
2017-03-17,1,0.0010750498349395674,0.0013237464326095578,-0.004907355897051076,0.012889263228465748,0.9901781323598573
2017-03-21,1,0.0012432095633681652,0.0014599453157695603,-0.004907355897051076,0.012488536569759023,0.9902302451630048
2017-03-23,1,0.0021973604219240606,0.0025637810503843826,-0.005932536922592783,0.01098332718331519,0.9908373503643644
2017-03-27,1,0.0026292114031728777,0.002992389138782772,-0.005932536922592783,0.01098332718331519,0.9904870082418548
2017-03-29,1,0.00276409471730637,0.003177978335204923,-0.004926759110856516,0.012488536569759023,0.9904204215649861
2017-03-31,1,0.0020768986347972406,0.002373674809828293,-0.0048673862214179435,0.012488536569759023,0.9905458302109849
2017-04-04,1,0.002303191373492534,0.002671319360406441,-0.004634836632661642,0.012488536569759023,0.9907824132642902
2017-04-06,1,0.0025420136300053167,0.002924765172677875,-0.004634836632661642,0.010771619554478367,0.9916950053643937
2017-04-10,1,0.0022495511224977717,0.0025564276639784716,-0.0051002363949004155,0.008047794287005855,0.9912078329718924
2017-04-12,1,0.00232946110259347,0.0026141576960989083,-0.0051002363949004155,0.006375213176304462,0.9920546033754065
2017-04-17,1,0.0020721501946871124,0.0022689601003744926,-0.006320787491453938,0.006375213176304462,0.9913831524537993
2017-04-19,1,0.0026961614835077233,0.00305569924456403,-0.009304317842681488,0.006038607995306345,0.9906754389796536
2017-04-21,1,0.002108697193612418,0.0023914327428827165,-0.008309773772962702,0.0061635543988909375,0.9915236935985171
2017-04-25,1,0.003111074782434009,0.003542190812240774,-0.009304317842681488,0.005561979086663992,0.9919169967072305
2017-04-27,1,0.0023745704664796157,0.0025643260450737503,-0.009304317842681488,0.003993490315535008,0.9925950102479729
2017-05-01,1,0.002727383059394308,0.0029606220789074457,-0.010491367595116052,0.0022901599746187025,0.9917338791068107
2017-05-03,1,0.0019367237349234416,0.0019593605890530167,-0.010491367595116052,0.004146040498992154,0.9905958911127201
2017-05-05,1,0.001862664861982235,0.001869143993634591,-0.011956780796713518,0.004233030186034916,0.9898986300125161
2017-05-09,1,0.0017222944479622527,0.0017289416664167414,-0.011463723438776212,0.004233030186034916,0.9902352646978376
2017-05-11,1,0.0015355611168826053,0.0016067657808745165,-0.011956780796713518,0.004233030186034916,0.9894109238807292
2017-05-15,1,0.0006590589893197503,0.0007327189583318772,-0.011956780796713518,0.007691823217176628,0.9891592628297883
2017-05-17,-1,-0.0007694367424262999,-0.0004929348687907594,-0.011463723438776212,0.007691823217176628,0.9904717038044762
2017-05-19,-1,-0.0004929255773377393,-0.0002553036569398364,-0.011463723438776212,0.011841756200392515,0.9894073835143772
2017-05-23,-1,-0.0012960427133464267,-0.0009469309003096113,-0.008949466881257293,0.011992398328488259,0.9893439024527757
2017-05-25,-1,-0.0016621840159110335,-0.001260228498060913,-0.008949466881257293,0.013731149606811618,0.9872736450263969
2017-05-30,-1,-0.0007994758766459488,-0.0005885829947758498,-0.011613282029119279,0.013731149606811618,0.9860794078384051
2017-06-01,1,0.0013375304315114325,0.0014059975596124488,-0.01306672324156584,0.012027614908087887,0.9850136001317439
2017-06-05,1,0.0018287223754505637,0.0020006208183540788,-0.015856486121306197,0.011714741755785657,0.9852916861027142
2017-06-07,1,0.0010433211879981071,0.0010814351837920685,-0.015856486121306197,0.011714741755785657,0.9855874517444086
2017-06-09,-1,-0.0005992942320779686,-0.0004210797057439008,-0.015805353081932448,0.011714741755785657,0.986408141827283
2017-06-13,-1,-0.0006736957586175962,-0.00047114353298225874,-0.013249889835540115,0.012027614908087887,0.9864621867474269
2017-06-15,-1,-0.0010411201184872538,-0.0007971899146342715,-0.013249889835540115,0.012027614908087887,0.9866630063500266
2017-06-19,0,-0.0001228818940835203,1.3925319060404697e-05,-0.013249889835540115,0.011351105378505725,0.9872073899273237
2017-06-21,-1,-0.00014566903329786616,-2.9455629216695845e-06,-0.013249889835540115,0.005431506054811008,0.9875523417470287
2017-06-23,1,0.0010556221053400958,0.001066125271555635,-0.013249889835540115,0.003770503176414137,0.9888989804574485
2017-06-27,-1,-0.000486676773747141,-0.00033032801327593337,-0.005650768295410733,0.005196259445519959,0.990794813674241
2017-06-29,-1,-0.0006598531243055102,-0.0004746752478319298,-0.005650768295410733,0.003770503176414137,0.9925421010509069
2017-07-03,-1,-0.001238145513677957,-0.0009890681734491902,-0.006816714896622316,0.0036721905934216995,0.9929875320352416
2017-07-06,-1,-0.0009972561166613565,-0.0007349445472969816,-0.004433875538749894,0.005196259445519959,0.9884823626271424
2017-07-10,-1,-0.00145808705713073,-0.0011561320502691272,-0.004433875538749894,0.008178445822037389,0.9869999352559202
2017-07-12,-1,-0.0009837771719334231,-0.0007023007233097956,-0.006816714896622316,0.007433011258359433,0.9875112298996214
2017-07-14,-1,-0.001046636854546758,-0.000763136298997465,-0.00915449553427083,0.007433011258359433,0.9865396634687903
2017-07-18,-1,-0.001674509578605216,-0.0013084495578955437,-0.00915449553427083,0.005196259445519959,0.9868775781889284
2017-07-20,-1,-0.001151602371327835,-0.0008673173676483551,-0.00915449553427083,0.005196259445519959,0.9866819968107573
2017-07-24,-1,-0.00046271904838636056,-0.0002781979890804549,-0.00984212004333506,0.004334155376137513,0.9864293547282678
2017-07-26,0,-0.0001368594438173182,1.1739160636847171e-05,-0.00984212004333506,0.004334155376137513,0.9857805973466924
2017-07-28,-1,-0.0009503273884203763,-0.0006750675959531183,-0.009302356431192814,0.004108241796040576,0.9860963773960678
2017-08-01,-1,-0.0017824641991823138,-0.0014059664675175369,-0.009302356431192814,0.007437130359326036,0.9852987650200038
2017-08-03,1,0.0008967327346268492,0.000944320504739721,-0.009302356431192814,0.010996882536459047,0.9880536792846718
2017-08-07,1,0.0008977191962141215,0.000959995938397015,-0.006671419912061532,0.009437591848612828,0.9897022567884135
2017-08-09,1,0.00020351237286662157,0.00039050248550635304,-0.005688157046761789,0.013218096377047068,0.9899690954929697
2017-08-11,-1,-0.0003505826972497329,-0.0001280194759481528,-0.004796381860057626,0.013218096377047068,0.9903602344256573
2017-08-15,1,8.104305539075583e-06,0.00014962913443504613,-0.003263663868479064,0.013218096377047068,0.9902710769688045
2017-08-17,1,1.670508973763095e-05,0.00011462132512408149,-0.003263663868479064,0.013218096377047068,0.9904225795032974
2017-08-21,-1,-0.00014953775989009983,-3.0272507677762863e-05,-0.005688157046761789,0.013218096377047068,0.9898986242582561
2017-08-23,0,-2.3338474959788756e-05,9.078161858570437e-05,-0.0069670505561780505,0.012445992675911165,0.9901083742781505
2017-08-25,-1,-0.000536259654798203,-0.0003530538628778331,-0.005790886200147741,0.012445992675911165,0.9903538213686771
2017-08-29,1,0.0001762624872608399,0.000273323526800441,-0.0069670505561780505,0.009024252882475338,0.9909494589837287
2017-08-31,1,0.0018391693596423156,0.001954224594019903,-0.0069670505561780505,0.005949797954061389,0.9922103164276197
2017-09-05,1,0.0023744003545713155,0.0025719863824692863,-0.0069670505561780505,0.005949797954061389,0.991957511926974
2017-09-07,1,0.002887105057141097,0.003161670014163168,-0.0069670505561780505,0.005949797954061389,0.9915841528379413
2017-09-11,1,0.0034114202904810135,0.0037967604350856174,-0.008100339620676902,0.0023137747105263238,0.9911526741841545
2017-09-13,1,0.003146826336206836,0.003464490911271176,-0.008100339620676902,0.004707619398007495,0.9912947027614468
2017-09-15,1,0.0035405645282392973,0.003958463044874724,-0.006697987031223641,0.005949797954061389,0.9914921919051922
2017-09-19,1,0.002582912838536079,0.0029146456263983624,-0.004927315071969036,0.005949797954061389,0.9929971776996566
2017-09-21,1,0.0021199202709030612,0.0024256093384807014,-0.0036113401554189236,0.005949797954061389,0.9939550661994204
2017-09-25,1,0.0026656579091892474,0.00301021888865762,-0.0036113401554189236,0.007613605713001897,0.992867873509866
2017-09-27,1,0.0017787854715735976,0.0020213009983657826,-0.0036292893048727806,0.007613605713001897,0.9923248902084297
2017-09-29,1,0.0011684848109772576,0.0013895899271905137,-0.0036292893048727806,0.009339150858140506,0.9915852134397551
2017-10-03,1,0.0015445695352991765,0.0017912372443958649,-0.004237990300843643,0.008043916578979798,0.9904621547952139
2017-10-05,1,0.0018993335073396005,0.002173519395312932,-0.004237990300843643,0.008043916578979798,0.9905762318349041
2017-10-09,1,0.0009294377502936994,0.0010148270991681716,-0.0036292893048727806,0.00933556253923274,0.9888367917133283
2017-10-11,1,0.001638882295749791,0.001832890630252237,-0.0036292893048727806,0.009276154724357806,0.988922164381648
2017-10-13,1,0.0013296389921549794,0.0014500134170790423,-0.0036292893048727806,0.009276154724357806,0.9888999567213524
2017-10-17,1,0.001059565584444712,0.0011282448474972885,-0.005005889475645571,0.009276154724357806,0.9883310323572053
2017-10-19,1,0.0007329265514944895,0.0007502923029725506,-0.0044701234330436785,0.012249297494101322,0.9878149157272532
2017-10-23,1,0.0025377785253589006,0.0028797391581961785,-0.0044701234330436785,0.009276154724357806,0.9889780451165474
2017-10-25,1,0.001140882092497601,0.0013153004064021356,-0.0030922513837426755,0.012249297494101322,0.9896285352312573
2017-10-27,1,0.001646558971618804,0.0018596044079857842,-0.0030922513837426755,0.012249297494101322,0.9886587725566464
