JNU-Tangyin/eata/results/Batch4_SP500/Batch4_SP500-CLX.csv
Date,Action,Predicted_Q25,Predicted_Q75,Actual_Q25,Actual_Q75,RL_Reward
2010-12-14,0,0.0,0.0,-0.001773918663878092,0.003911998459749956,0.9951621921519096
2010-12-16,0,0.0,0.0,-0.0005088067943318533,0.006086572368341602,0.9948547489044893
2010-12-20,0,0.0,0.0,-0.001773918663878092,0.005066980491736819,0.9949364243019039
2010-12-22,0,0.0,0.0,-0.0024275073801899765,0.005066980491736819,0.9947279983928258
2010-12-27,-1,-0.0004055232896567534,-0.0003509195537648695,-0.002779733005644973,0.005066980491736819,0.9944551307631406
2010-12-29,-1,-0.0003451728855420885,-0.00030180915852204103,-0.002779733005644973,0.006543461326552959,0.9938379848287935
2010-12-31,-1,-0.0003589320570922849,-0.00033259232756773286,-0.004303657395594005,0.006543461326552959,0.9931251052470779
2011-01-04,-1,-0.0007122243529106625,-0.0005714710586236585,-0.004303657395594005,0.008288759877818498,0.9935510507961118
2011-01-06,-1,-0.0002628291117888216,-0.000162854774179379,-0.004303657395594005,0.008989592712292374,0.9922538531188211
2011-01-10,1,1.9172987694674324e-05,5.604368211069481e-05,-0.004303657395594005,0.009565795717459667,0.9918832016696828
2011-01-12,0,0.0,0.0,-0.006003592345193883,0.009565795717459667,0.9919639527798011
2011-01-14,0,0.0,0.0,-0.006881266584159777,0.01030356118728863,0.985904092468334
2011-01-19,-1,-0.0008565047247331306,-0.0007411312301010761,-0.006003592345193883,0.010339867725425365,0.9856207303069401
2011-01-21,0,0.0,0.0,-0.006003592345193883,0.011480551979914395,0.9857265794531231
2011-01-25,0,0.0,0.0,-0.006346177867362138,0.011480551979914395,0.9855550709686811
2011-01-27,0,0.0,0.0,-0.006346177867362138,0.010287102979828162,0.9858562958787295
2011-01-31,0,0.0,0.0,-0.0032873164853710647,0.010287102979828162,0.9867141136065397
2011-02-02,0,0.0,0.0,-0.002900068547810972,0.011667548239681962,0.9867530125466717
2011-02-04,0,0.0,0.0,-0.004045858031984267,0.008818504035926638,0.9881637767372379
2011-02-08,0,0.0,0.0,-0.004045858031984267,0.005537550236945203,0.9885230692515574
2011-02-10,1,0.0025328106360362514,0.0028640901981030406,-0.003864659875947654,0.005537550236945203,0.9880771191178884
2011-02-14,1,0.0026266394653226715,0.00292396165841479,-0.003864659875947654,0.004460804387653679,0.9942283127389647
2011-02-16,1,0.002702916617127756,0.002999282981765703,-0.0037115016748742874,0.004460804387653679,0.9945580665059024
2011-02-18,1,0.003074953699428928,0.003430840065560662,-0.0037115016748742874,0.004643862252428122,0.9940721949071034
2011-02-23,1,0.002663769582142204,0.0029654816313934764,-0.004646616021067038,0.004643862252428122,0.9941797819438916
2011-02-25,1,0.0027564283769559677,0.0030641894110538742,-0.004646616021067038,0.004643862252428122,0.9938847782804757
2011-03-01,1,0.002723709420483902,0.00303878469680857,-0.004646616021067038,0.004664554030186438,0.9941920471478404
2011-03-03,1,0.0034419613166515777,0.0038831594810423663,-0.004646616021067038,0.004571726325323257,0.9946446347221859
2011-03-07,1,0.002905112816944218,0.003280204036796779,-0.002712582600348179,0.004664554030186438,0.9950295035124139
2011-03-09,1,0.0031174477032048136,0.0035180563205845696,-0.003766833355956174,0.006171831000323409,0.9941475226706389
2011-03-11,1,0.0029216673803961193,0.0032835464006618553,-0.003766833355956174,0.006171831000323409,0.9936448698475174
2011-03-15,0,0.0,0.0,-0.0032261168718106924,0.008129133476797201,0.9937813404568778
2011-03-17,0,0.0,0.0,-0.003766833355956174,0.008129133476797201,0.9934174691942944
2011-03-21,1,0.0023895124964151805,0.002744837320477566,-0.0048341531863319645,0.003524954423198885,0.9940734048500932
2011-03-23,1,0.0019113904444068683,0.0021878554140567536,-0.004117903662351194,0.00518873762568591,0.9942041903012245
2011-03-25,1,0.0019636546057587283,0.0022427194836729847,-0.006004438361785167,0.003854904137240677,0.9940273666130118
2011-03-29,1,0.0023374094927129238,0.0025828084829539475,-0.006004438361785167,0.004451223659845014,0.9936287191540654
2011-03-31,1,0.002093200221884599,0.002288639778448834,-0.006004438361785167,0.007105946756824047,0.9933357791827953
2011-04-04,1,0.002246737079470305,0.0024647001548752713,-0.007333046200695642,0.005297333009528563,0.9920529976139134
2011-04-06,1,0.002005264437373426,0.0022085731616455495,-0.006004438361785167,0.00641314527276871,0.9927092574572389
2011-04-08,1,0.0015826333295158271,0.0017368410835787147,-0.0028688597795597645,0.007105946756824047,0.9929557365606714
2011-04-12,1,0.0015834903251648645,0.001707124280082643,-0.0028688597795597645,0.00641314527276871,0.9932467029311306
2011-04-14,1,0.0012448123548856082,0.001317534320238583,-0.0004656729177268362,0.007255507922387319,0.9930514498907427
2011-04-18,1,0.0008543505580972371,0.0008593243577249988,-0.0008895102219857462,0.007255507922387319,0.9930774520526431
2011-04-20,0,0.0,0.0,-0.0008895102219857462,0.006690957001657106,0.9930311685181941
2011-04-25,0,0.0,0.0,-0.0008895102219857462,0.006690957001657106,0.9933441973866641
2011-04-27,1,9.526231642733214e-05,0.000100851269560219,-0.001996136995670922,0.005109149369285158,0.9932688051323397
2011-04-29,0,0.0,0.0,-0.002801510454677534,0.0035370895547037094,0.993430469447346
2011-05-03,0,0.0,0.0,-0.002801510454677534,0.003909026975783759,0.9937954213557184
2011-05-05,0,0.0,0.0,-0.006225869667393788,0.0028638684092778905,0.9931700466088824
2011-05-09,0,0.0,0.0,-0.006225869667393788,0.0018300332762080265,0.9936768725089713
2011-05-11,0,0.0,0.0,-0.008096733918722301,0.0027117629348760346,0.9932174059995849
2011-05-13,0,0.0,0.0,-0.008096733918722301,0.002219414109559429,0.9936877923124843
2011-05-17,0,0.0,0.0,-0.008863571882238604,0.0027117629348760346,0.9930823487584359
2011-05-19,0,0.0,0.0,-0.008863571882238604,0.003325266184931665,0.9925836284305242
2011-05-23,0,0.0,0.0,-0.008174663895573399,0.0039659663021720665,0.9928517827777152
2011-05-25,1,0.0005501268152344925,0.0006834116316613939,-0.007331853524618303,0.0039659663021720665,0.9929989026082124
2011-05-27,1,9.332164593915898e-05,0.0002882518878715779,-0.008568328572356811,0.0039659663021720665,0.9926920703861121
2011-06-01,1,0.0002529884464520599,0.0004082290547783724,-0.007331853524618303,0.0043153844589040495,0.9934711547638281
2011-06-03,-1,-0.0005403815237917548,-0.0002872236932510546,-0.003625035076590913,0.004693888447209329,0.9942095661262592
2011-06-07,-1,-0.0005777003046998001,-0.0003339498292895143,-0.00458662306171279,0.004693888447209329,0.9940580029003844
2011-06-09,-1,-0.0005068380592692411,-0.000292579902841692,-0.0037316577840876735,0.004693888447209329,0.9943254210820383
2011-06-13,-1,-0.0010424153526004604,-0.0007444036893551333,-0.003102193628349399,0.00547650249179073,0.9931850707934802
2011-06-15,-1,-0.0011675808920771486,-0.0008592543016987702,-0.0037316577840876735,0.00547650249179073,0.9928048171554928
2011-06-17,-1,-0.001852715912364012,-0.001594993581808218,-0.00458662306171279,0.004693888447209329,0.98828817007136
2011-06-21,-1,-0.0014770950122593848,-0.001302098240087187,-0.005481518742956551,0.006586193733301748,0.98712088746348
2011-06-23,-1,-0.0017302222649434986,-0.001486778305303629,-0.004904399101445815,0.006586193733301748,0.9871936848717289
2011-06-27,-1,-0.002146151556234868,-0.001856297201485064,-0.004904399101445815,0.009370644094119633,0.9862500811861772
2011-06-29,-1,-0.0007487820073405922,-0.000699408067719441,-0.006855405968234744,0.005474427547968009,0.9864981761473067
2011-07-01,-1,-0.0005778186211562662,-0.0005229505706131903,-0.009279428813746729,0.0034426803936251594,0.9861970175552582
2011-07-06,-1,-0.0010654449539255094,-0.0009398490390156193,-0.013358058795509347,0.003105547922833172,0.985194369829936
2011-07-08,-1,-0.0007129749717573113,-0.0006505872299013148,-0.01544857968806145,0.005474427547968009,0.980791900024085
2011-07-12,-1,-0.0002323263977591884,-0.00022844409098456814,-0.017311802397913023,0.005474427547968009,0.9775725202317253
2011-07-14,-1,-0.0005218712741356852,-0.0004992117251370165,-0.020108575803193276,0.012391406121304868,0.9756152706944717
2011-07-18,-1,-0.0015165956818460338,-0.00136515343778046,-0.016364580319705446,0.012391406121304868,0.979400923101545
2011-07-20,-1,-0.0015338488741092832,-0.001393146480043135,-0.020659424747464118,0.005474427547968009,0.9788696511318787
2011-07-22,-1,-0.0014187572143300783,-0.001290553642385155,-0.023986565238767545,0.005474427547968009,0.9770827078145051
2011-07-26,-1,-0.001447237421993688,-0.0013310254609238221,-0.02218770387491022,0.011636898536463519,0.977122909769821
2011-07-28,-1,-0.0017503031251270237,-0.0015860799493828213,-0.02218770387491022,0.011636898536463519,0.9777164125006604
2011-08-01,-1,-0.0019504045030098247,-0.0017731483262947597,-0.02218770387491022,0.01954440980245391,0.9764932716553576
2011-08-03,-1,-0.002385368697550879,-0.002154496786434945,-0.01743590776416009,0.0235290439116965,0.9759011799229996
2011-08-05,-1,-0.003702865891123574,-0.003320873932420851,-0.012151946438361164,0.01954440980245391,0.9797537982092244
2011-08-09,-1,-0.0031459213079294743,-0.002835659174798156,-0.010331597488880212,0.01813079807713836,0.9833174351912415
2011-08-11,-1,-0.0026410107422051698,-0.002406943574272123,-0.011301280062114463,0.01785198388557755,0.9853379053095705
2011-08-15,-1,-0.002364430600108131,-0.002158191579246922,-0.011301280062114463,0.011602954653114507,0.9864745113536549
2011-08-17,-1,-0.00344714107543148,-0.0031246378061311397,-0.007039492632533931,0.011602954653114507,0.9874519006629284
2011-08-19,-1,-0.004458798364144869,-0.004032544631237709,-0.00686776893944477,0.012750269129764614,0.9880339457194456
2011-08-23,-1,-0.0036721830963980227,-0.0033438978035867824,-0.009384324504987634,0.007193314215160373,0.9885986502560505
2011-08-25,-1,-0.003682964047670816,-0.0033759151409448853,-0.009441196891367501,0.012750269129764614,0.9861754993275137
2011-08-29,-1,-0.002467758066213658,-0.002277968057429555,-0.010222723108666535,0.007193314215160373,0.9858086132168417
2011-08-31,-1,-0.0024234284062143513,-0.002233690094709584,-0.010222723108666535,0.007071583112824875,0.9863586771747844
2011-09-02,-1,-0.002377597229818445,-0.002199793324374376,-0.012736020717712966,0.007071583112824875,0.9854151510167494
2011-09-07,-1,-0.0022685506582450416,-0.0021114054543591404,-0.012736020717712966,0.009311231743535323,0.9852438473985266
2011-09-09,0,0.0,0.0,-0.010083452032855132,0.010602892620770087,0.9850805449351536
2011-09-13,0,0.0,0.0,-0.010083452032855132,0.010782233438776465,0.9849421561363148
2011-09-15,1,0.000208265196256513,0.00022532882801375823,-0.010083452032855132,0.010782233438776465,0.9849808669272213
2011-09-19,1,0.0004352248998713403,0.0004698442413625375,-0.012655357546004968,0.010797672855301213,0.9842758390435538
2011-09-21,-1,-0.00014240935508625467,-0.0001189068780753945,-0.010083452032855132,0.010797672855301213,0.9852402079402133
2011-09-23,0,0.0,0.0,-0.009507259999697867,0.010797672855301213,0.9867359944020028
2011-09-27,0,0.0,0.0,-0.009507259999697867,0.010602892620770087,0.9879403961168295
2011-09-29,0,0.0,0.0,-0.009507259999697867,0.010797672855301213,0.9875233577940111
2011-10-03,0,0.0,0.0,-0.00809505555725809,0.010820844752576468,0.9878569547511573
2011-10-05,0,0.0,0.0,-0.013097478659682183,0.010820844752576468,0.9873881636161371
2011-10-07,0,0.0,0.0,-0.01387344506657866,0.010820844752576468,0.9875866137002284
2011-10-11,0,0.0,0.0,-0.01387344506657866,0.011117087107435683,0.9874899907112681
2011-10-13,0,0.0,0.0,-0.01591807079339968,0.012956930160991484,0.9861784831296496
2011-10-17,0,0.0,0.0,-0.01591807079339968,0.011117087107435683,0.9874573780122506
2011-10-19,-1,-0.0019599808366363106,-0.0018678570358744183,-0.01591807079339968,0.011117087107435683,0.9875144014246265
2011-10-21,-1,-0.0014130714885112728,-0.001390022199043851,-0.01591807079339968,0.00566300734890788,0.9887080727867835
2011-10-25,-1,-0.0007995725315302661,-0.0006773141151251187,-0.013979717852428703,0.00566300734890788,0.9896662857323191
2011-10-27,1,0.002622480180924926,0.002776656500863344,-0.013132902921632196,0.004003212980620069,0.9901995318457567
2011-10-31,-1,-0.0010940663018675096,-0.0010132275072117906,-0.009568015374725389,0.00464771641429838,0.9913626937585078
2011-11-02,-1,-0.002713102614643334,-0.0024686136176007263,-0.005358417642436214,0.00464771641429838,0.9922719214160775
2011-11-04,-1,-0.001722128301534991,-0.0017136318442485218,-0.0029398248311992893,0.004216197494381881,0.9936997425061947
2011-11-08,1,0.0021213285975984182,0.0021829640005060187,-0.0024962629941065557,0.004216197494381881,0.9940325295747038
2011-11-10,1,0.0020456634350695816,0.002087226685920752,-0.0024962629941065557,0.004003212980620069,0.9951436282415974
2011-11-14,-1,-0.0013809335721710948,-0.001375185802128172,-0.004540706703398188,0.0021893733688672905,0.9955541874785542
2011-11-16,-1,-0.0015823372770016947,-0.0015551994594339691,-0.0024962629941065557,0.0045170806280403685,0.9955154561407353
2011-11-18,1,0.001275019591023179,0.0013440812914094328,-0.00241434099463598,0.0045170806280403685,0.9957136047705111
2011-11-22,-1,-0.0012719639834597235,-0.0011737651430286196,-0.0016033379397173302,0.0046185122303056,0.9956742775464602
2011-11-25,-1,-0.0010033996587623419,-0.0009144659841236173,-0.0009583172366018822,0.0063473920716623925,0.9954729161375405
2011-11-29,-1,-0.0007429188869436618,-0.0006155808222154474,-0.0016033379397173302,0.0046185122303056,0.9960450534099632
2011-12-01,-1,-0.0010700466380575214,-0.0010078478446296309,-0.00241434099463598,0.005053099867282647,0.9952380896547467
2011-12-05,-1,-0.0008563323833949199,-0.000534550864859967,-0.004294940704986462,0.006414801120342805,0.9947612004674314
2011-12-07,-1,-0.0028503794574772793,-0.0028390067822438945,-0.004294940704986462,0.005049898872537224,0.9941133772410352
2011-12-09,1,3.369047686872003e-05,0.00018958291234934358,-0.0014954890778788987,0.006414801120342805,0.9951022376265395
2011-12-13,1,9.807856151262869e-05,0.00026992968289571374,-0.0004426828445738306,0.0065123252071745946,0.9950623641420144
2011-12-15,1,0.00021409951770496162,0.0003915935064374822,-0.0013690105907482077,0.0069200033446661985,0.9946245853358539
2011-12-19,1,0.0001302974964056737,0.0002882413987437171,-0.0004426828445738306,0.008022784321233151,0.9939119948668269
2011-12-21,1,0.00017001874540703712,0.00031391961139537754,-0.003912669009447966,0.008022784321233151,0.9935486427110465
2011-12-23,1,0.0002484670480496176,0.0003663687331370411,-0.00515168197890316,0.006814903452402125,0.9939021986878255
2011-12-28,-1,-0.0007436319633050618,-0.00035795647567025317,-0.004293788661443662,0.006814903452402125,0.994032773634026
2011-12-30,-1,-0.0011915085104043537,-0.0007545014274613986,-0.0037516771917135414,0.00618915650876548,0.9941731620506887
2012-01-04,0,0.0,0.0,-0.0037516771917135414,0.00618915650876548,0.9945631442586851
2012-01-06,0,0.0,0.0,-0.004293788661443662,0.006569276703362877,0.9935209403025429
2012-01-10,0,0.0,0.0,-0.0051762773447695636,0.00618915650876548,0.9931496094548675
2012-01-12,0,0.0,0.0,-0.005949936538782098,0.005366120575713347,0.9929360436300216
2012-01-17,0,0.0,0.0,-0.005949936538782098,0.004823379623337103,0.9935864616842718
2012-01-19,0,0.0,0.0,-0.005949936538782098,0.0036607848098344823,0.9941447474734789
2012-01-23,0,0.0,0.0,-0.005949936538782098,0.0036607848098344823,0.9942221439512577
2012-01-25,0,0.0,0.0,-0.004497066830750214,0.004265034765035366,0.9942050356040314
2012-01-27,1,0.00016244420810029742,0.00021767158220812544,-0.005949936538782098,0.004265034765035366,0.9939821143435531
2012-01-31,1,0.0006477017523074857,0.0008211468640767667,-0.005949936538782098,0.004265034765035366,0.993904956823302
2012-02-02,1,0.00034732865265218077,0.0004393091002401371,-0.00513406090014557,0.0036607848098344823,0.9942580728459417
2012-02-06,1,0.000678231671178327,0.0008149751613726011,-0.003610007284522399,0.0036607848098344823,0.9950050133866082
2012-02-08,1,0.0003077888084313252,0.00039717304627069703,-0.003320413834970578,0.003803385629446914,0.9956224151784532
2012-02-10,1,0.0003694933744089459,0.0004806064043560717,-0.003023842066291633,0.003803385629446914,0.9959859258453032
2012-02-14,-1,-0.0003156363646462738,-0.0002582233285447121,-0.003215939099055448,0.003803385629446914,0.9956620313687887
2012-02-16,-1,-0.0010526095604632391,-0.0008493226331909424,-0.003320413834970578,0.004017805890849352,0.9955735167084271
2012-02-21,0,0.0,0.0,-0.003320413834970578,0.004017805890849352,0.9955811925955802
2012-02-23,1,0.0005584940217278006,0.0006298872056238246,-0.003320413834970578,0.0035784664043206826,0.9958472787219793
2012-02-27,-1,-0.0003866233428823311,-0.00029012443211425394,-0.0032104643436217115,0.0039887314433530545,0.9960244462500953
2012-02-29,0,0.0,0.0,-0.0032104643436217115,0.003729097180185297,0.9962251211994754
2012-03-02,0,0.0,0.0,-0.002667573198245308,0.00407477924349086,0.9961550852682397
2012-03-06,1,0.0004141339870267273,0.0004885123711786727,-0.002667573198245308,0.004882756480490428,0.9959728350765792
2012-03-08,1,0.00042227681243155705,0.0005359042878103112,-0.002667573198245308,0.004882756480490428,0.9957841756779706
2012-03-12,0,0.0,0.0,-0.002667573198245308,0.004882756480490428,0.9958471007302476
2012-03-14,0,0.0,0.0,-0.0017080615325201413,0.0050587855987800695,0.9956666644871617
2012-03-16,1,0.0009218773359040556,0.001098170554526827,-0.0016199608829147074,0.005353976965981539,0.9960333191485068
2012-03-20,1,0.0005557169270390801,0.0006321438433988402,-0.0013407870341326188,0.005353976965981539,0.9962650257510007
2012-03-22,1,0.000565623103886734,0.0006491252187107513,-0.0016199608829147074,0.005353976965981539,0.996036178862279
2012-03-26,1,0.000511776240512662,0.000579647799695425,-0.0016199608829147074,0.00545067027151737,0.9952670826609304
2012-03-28,1,3.6426831658792255e-05,7.886166986750611e-05,-0.0013407870341326188,0.0055156277613089555,0.9950788460903903
2012-03-30,1,0.00020278385485120035,0.00021815637158971213,-0.0016199608829147074,0.00545067027151737,0.9950276801889657
2012-04-03,1,0.0005651150399404953,0.0006062992390075011,-0.0025299444895175265,0.004770678423099365,0.9940564987206413
2012-04-05,1,0.0003018754558886645,0.00030355094582114377,-0.0025299444895175265,0.005353976965981539,0.993713113643593
2012-04-10,1,0.000287552855918542,0.00029556261214065807,-0.0025299444895175265,0.005484514202894468,0.9930787871899697
2012-04-12,1,0.00040331184605537593,0.0004042624874903836,-0.0025299444895175265,0.004880681747501292,0.9935522058812327
2012-04-16,1,0.00026454348780034374,0.00028879747151168596,-0.0023515841842228955,0.004924896865016553,0.9935433808593187
2012-04-18,1,0.00026174762104963587,0.0002954861245333024,-0.004169283975711039,0.004924896865016553,0.9934056574593174
2012-04-20,1,5.189009523123977e-05,0.00011515937160178912,-0.004232587392391778,0.004924896865016553,0.9931158923135694
2012-04-24,-1,-6.300110742245749e-05,-2.5595685391665516e-06,-0.0029186153717434336,0.004924896865016553,0.9937001494591725
2012-04-26,1,6.725308882883719e-05,0.00011842179933420219,-0.0029186153717434336,0.005124367654235873,0.9935789394435361
2012-04-30,1,0.00010208114672356365,0.00014688828427777972,-0.0020870576651150392,0.005939581053535117,0.9936462922660683
2012-05-02,-1,-0.0006142834852051584,-0.0004932170483746064,-0.0020870576651150392,0.005939581053535117,0.9947225782261754
2012-05-04,-1,-0.0009476755089331096,-0.0007766288965845696,-0.0013366422153979361,0.007613953169339465,0.9945975065698958
2012-05-08,-1,-0.0006823527241384781,-0.0005339790328324683,-0.0013366422153979361,0.007613953169339465,0.9946843565286267
2012-05-10,-1,-0.0006461587873112752,-0.0005118275077596081,-0.0007230968196279529,0.007613953169339465,0.994301257848661
2012-05-14,-1,-0.0004978805402170018,-0.00037214055800374306,-0.0015256526112381156,0.006975322174359156,0.9942663767886627
2012-05-16,-1,-0.0006605836287493805,-0.00052476744883826,-0.0007230968196279529,0.00826072830615242,0.9935673250383347
2012-05-18,-1,-0.0007897748824793228,-0.0006604344500088862,-0.00035963274219478114,0.00826072830615242,0.9936060578288174
2012-05-22,-1,-0.0005914212281347489,-0.0004789791739537832,-0.0020389404198266387,0.006975322174359156,0.9937385167963733
2012-05-24,-1,-0.00024136506337362536,-0.00017169217751498598,-0.004887988514509913,0.005982636180481982,0.9937257836054945
2012-05-29,0,-1.4602697867311973e-05,2.0622424509856405e-05,-0.005783597934403816,0.006605465208530696,0.9933466458400628
2012-05-31,-1,-0.00029210775168494844,-0.00022983830792761332,-0.004887988514509913,0.006605465208530696,0.9932029859139329
2012-06-04,1,0.0004252657318831179,0.0004656810690628398,-0.004887988514509913,0.0063976281196678865,0.9937013406025054
2012-06-06,1,0.0008797212481649237,0.0009894290765773482,-0.004887988514509913,0.005678515780460278,0.9942888735876921
2012-06-08,1,0.0011784723146398975,0.0013395534729527966,-0.005182534993218334,0.005456445603661026,0.9944564462634664
2012-06-12,1,0.001400360591796475,0.0016198983962993868,-0.004805422246559144,0.005097754857109697,0.9948614434751809
2012-06-14,1,0.001517611081157718,0.001722594245930534,-0.004805422246559144,0.005097754857109697,0.995097120403836
2012-06-18,1,0.0012476352917069901,0.0014036732519504252,-0.004761959215938659,0.005675079150014996,0.9949956308043241
2012-06-20,0,0.0,0.0,-0.001755957119308023,0.005675079150014996,0.9953397592111829
2012-06-22,0,0.0,0.0,-0.001755957119308023,0.005675079150014996,0.9955224515085759
2012-06-26,0,0.0,0.0,-0.002105986265997687,0.005097754857109697,0.9958875910961599
2012-06-28,0,0.0,0.0,-0.002105986265997687,0.003817718523351087,0.9957864195115296
2012-07-02,0,0.0,0.0,-0.0027896934809759208,0.0027269831709824848,0.9960109138754127
2012-07-05,0,0.0,0.0,-0.004620102126992743,0.0020569294151158166,0.9959233306470442
2012-07-09,1,0.0022153330648343,0.0023793188606417402,-0.004620102126992743,0.0020569294151158166,0.9950294493540635
2012-07-11,1,0.0009962290007474236,0.001102674925435269,-0.004967824681307416,0.0027269831709824848,0.9949916587133749
2012-07-13,1,0.0010686532464251747,0.0011587604237172056,-0.004967824681307416,0.002291524021527341,0.9952345511964726
2012-07-17,0,0.0,0.0,-0.004661810205514533,0.002291524021527341,0.9955828206820856
2012-07-19,0,0.0,0.0,-0.005405259365217626,0.002314602288430384,0.9953278780413684
2012-07-23,1,0.0009505553042166385,0.0009863497042289398,-0.004661810205514533,0.002727242095060987,0.9955447269560085
2012-07-25,1,0.0004880232366768736,0.0005163486840621827,-0.004055932884813008,0.002727242095060987,0.9957919493778009
2012-07-27,1,0.0011108449777056367,0.0011666731753623757,-0.004055932884813008,0.0020800939900450267,0.9959869050906937
2012-07-31,1,0.0005429746303216268,0.0005485599719045579,-0.00315358207230573,0.0020800939900450267,0.9962931725582506
2012-08-02,0,0.0,0.0,-0.002488041741295386,0.0025978300136717475,0.99654786827372
2012-08-06,0,0.0,0.0,-0.0012830107952538697,0.003655239698886076,0.9965850281933996
2012-08-08,0,0.0,0.0,-0.0012369737201897205,0.003655239698886076,0.9968321891407134
2012-08-10,0,0.0,0.0,-0.001626323175951773,0.0030095739255381385,0.9963916673397134
2012-08-14,0,0.0,0.0,-0.0029038488286089476,0.0025978300136717475,0.9964698648592231
2012-08-16,0,0.0,0.0,-0.0029038488286089476,0.0030095739255381385,0.9957631890058967
2012-08-20,0,0.0,0.0,-0.0036342149148417854,0.0033808671398326785,0.9949968646621573
2012-08-22,0,0.0,0.0,-0.0036339136734346027,0.004330122369521921,0.9946115475512701
2012-08-24,1,0.00021871038093581468,0.00024564691707652873,-0.005114622997741817,0.00470509343118403,0.9942918973242146
2012-08-28,-1,-0.0001837188831117823,-9.534568787809123e-05,-0.005948408392938481,0.006429822101422595,0.9936537479172193
2012-08-30,-1,-0.00016364744992200552,-7.076186146931702e-05,-0.005948408392938481,0.006429822101422595,0.9933184233732253
2012-09-04,1,0.0004199782885656788,0.0004199826151191135,-0.005948408392938481,0.006159463814616334,0.9935074695335221
2012-09-06,1,0.0005561498159822412,0.0005708814006208455,-0.005948408392938481,0.007100476802157344,0.9932229861869708
2012-09-10,1,6.384478756287881e-06,4.8798297655681694e-05,-0.00497779876185072,0.007405968661462421,0.9933941907687441
2012-09-12,-1,-0.0004488652326134068,-0.0003439161665054443,-0.004969883774794655,0.007405968661462421,0.9934137920136956
2012-09-14,-1,-0.0011692169275686008,-0.0009671195661302304,-0.00324712821424996,0.007405968661462421,0.994149721268695
2012-09-18,-1,-0.0005671551241363545,-0.0004497706010219287,-0.0004730181197041835,0.0071628253066147,0.9945200853220104
2012-09-20,-1,-0.0002534786880782024,-0.00017588591592317438,-0.0004730181197041835,0.007382148008532599,0.9946983156071378
2012-09-24,-1,-0.0006805297015282001,-0.0005103736620316864,-0.0033389844751617746,0.0071628253066147,0.9940522455892972
2012-09-26,-1,-0.0008966534866316056,-0.0006856958675886202,-0.0052533675445861645,0.007066467464666771,0.9942141167759712
2012-09-28,-1,-0.00048714842661898576,-0.00035177070965262047,-0.005266236489602653,0.007066467464666771,0.9943504587105257
2012-10-02,-1,-0.0006334230168436993,-0.00047089653405944006,-0.005266236489602653,0.007066467464666771,0.9940848875930764
2012-10-04,1,0.00027235603294819454,0.00031042155169068653,-0.005266236489602653,0.004373283117702018,0.9947428527150809
2012-10-08,1,0.00045505548627940054,0.000492883411543045,-0.005266236489602653,0.004373283117702018,0.9945964092160109
2012-10-10,-1,-0.00032535812423319284,-0.00016621918743401352,-0.005637815010447624,0.004373283117702018,0.9944943747352949
2012-10-12,-1,-0.00027071310465931,-0.00013537524318236105,-0.005637815010447624,0.006109713632094772,0.9941502704185599
2012-10-16,1,0.0006268113715887549,0.0006357628642143591,-0.0070396820549491375,0.0035720712455909426,0.9942402792849623
2012-10-18,1,0.000972533655977936,0.0010174347669538674,-0.0070396820549491375,0.0035720712455909426,0.9934036745933599
2012-10-22,-1,-0.00037793467156278706,-0.000233111872563742,-0.005210197804179078,0.003691485626826023,0.9945885784159845
2012-10-24,-1,-0.0005488278395026712,-0.00042378971522078125,-0.002246932831591225,0.004078993094350381,0.9949030129913123
2012-10-26,-1,-0.0005888315702025312,-0.0004884806104319696,-0.0018705984793162662,0.0045993719919821836,0.9948684973846574
2012-11-01,1,9.899466587754403e-05,0.00010297533753457478,-0.0018705984793162662,0.0045993719919821836,0.9946442209710271
2012-11-05,1,6.978632234158178e-05,7.824960099487096e-05,-0.002407570318326386,0.0045993719919821836,0.9943535130143639
2012-11-07,1,0.0005325461405004463,0.0006238953508208804,-0.00219693040813248,0.004078993094350381,0.9949610907204544
2012-11-09,1,0.00022522746280743082,0.00026540821293609645,-0.00219693040813248,0.0045993719919821836,0.9947691870603744
2012-11-13,1,0.0003664351670437256,0.00039684987371296716,-0.002407570318326386,0.004078993094350381,0.9949292290061228
2012-11-15,-1,-0.0004904651871291161,-0.0003908121981721479,-0.002407570318326386,0.004078993094350381,0.9951943809899486
2012-11-19,1,0.0003120071038054457,0.0003188405754833708,-0.00219693040813248,0.004078993094350381,0.9957822034894929
2012-11-21,1,0.0006965818354136347,0.000772158189916481,-0.002527262907730248,0.0030318844211067526,0.9953349706619726
2012-11-26,1,0.0009268279441489603,0.0010440953030986565,-0.004236650364403903,0.0023491635082248385,0.9944689757302517
2012-11-28,1,0.0013131128694894077,0.0014822118231678587,-0.004562203166230509,0.0021584326679241674,0.9943040396479006
2012-11-30,1,0.0018670373679907292,0.002093250779181585,-0.005422393147531207,0.0018458957371542614,0.9940214833099027
2012-12-04,1,0.00114369999009877,0.0012737499629509078,-0.004562203166230509,0.0023491635082248385,0.9942487265378115
2012-12-06,1,0.0015454867188110385,0.0017574722076003134,-0.004562203166230509,0.003572667750308371,0.9934683383585025
2012-12-10,1,0.0016372010045053338,0.0018708924967711365,-0.0044721953926448975,0.0027284859204040604,0.993873615966581
2012-12-12,1,0.0014489348102960302,0.0016555370127177707,-0.0043288086730269865,0.004144152964147576,0.9937925363686128
2012-12-14,1,0.0011244536281096722,0.0012662104834021354,-0.0043288086730269865,0.007985626277044772,0.993547816873659
2012-12-18,1,0.0014913248244709013,0.001655030564323665,-0.0052895860659819835,0.007985626277044772,0.9933844559417394
2012-12-20,1,0.0010329550393779923,0.0011624969242372662,-0.0043288086730269865,0.007985626277044772,0.9940483013096807
2012-12-24,-1,-4.286847401357322e-05,-1.8738772040738234e-05,-0.001260070781201309,0.007985626277044772,0.9950524250025603
2012-12-27,-1,-0.0004689873289542202,-0.0003834240130091623,-9.77783327371605e-05,0.007985626277044772,0.9948068610538421
2012-12-31,-1,-0.0007249784610357133,-0.0005889956731857521,-9.77783327371605e-05,0.008912517880618446,0.9946739811679315
2013-01-03,-1,-0.0005342903321609929,-0.00041532154042923664,-9.77783327371605e-05,0.008912517880618446,0.9948358752342106
2013-01-07,-1,-0.00016092195368147368,-9.600324998794931e-05,0.00013036449418922112,0.007510991525890029,0.9952000495738186
2013-01-09,1,0.00028126296430950454,0.0002882119569830106,-9.77783327371605e-05,0.008912517880618446,0.9950285119008607
2013-01-11,1,0.0006182168794429887,0.0006537277074577483,-0.0009890934151924888,0.007602289614990196,0.9953815137906095
2013-01-15,1,0.0009760035226013961,0.0010595135726995525,-0.0009890934151924888,0.005956469483452057,0.9957851215216026
2013-01-17,1,0.0010397589420453124,0.0011200614890493985,-0.0008015384646968327,0.004991952853840173,0.9961829860379461
2013-01-22,1,0.0011163438383714353,0.0012142433195577458,-0.0009518158021885275,0.005956469483452057,0.9958726892199038
2013-01-24,1,0.0009625620692965541,0.001029913421762391,-0.0009518158021885275,0.007612334876827815,0.9953796479761056
2013-01-28,1,0.0013349728625359604,0.0014554230642267049,-0.001248792914820273,0.009311221407648139,0.9945276480941182
2013-01-30,1,0.0017943763047050592,0.0019929699580048367,-0.001248792914820273,0.00903350768083277,0.994673133045694
2013-02-01,1,0.002038318500446068,0.0022796033479445324,-0.0009518158021885275,0.0075479730386822635,0.9952350530222723
2013-02-05,1,0.0019653892791167203,0.002154990562122172,-0.0009518158021885275,0.007588595898478687,0.9951664204923281
2013-02-07,1,0.002022884452516756,0.0021961287053769,-0.001248792914820273,0.0059700104367175315,0.9952277468859587
2013-02-11,1,0.001358724391174588,0.0014106746130458764,-0.0009397028133655043,0.0059700104367175315,0.9953243869213073
2013-02-13,1,0.0016169402628143192,0.001713043974128246,-0.0013524279730453882,0.005099469650278073,0.9951683311036891
2013-02-15,1,0.001969807574996569,0.0021313463978572403,-0.002016293298566104,0.004364939970661498,0.9951372349663169
2013-02-20,1,0.002204233855620721,0.002397898974990551,-0.002016293298566104,0.006786916064850035,0.9949614471857732
2013-02-22,1,0.0024317718938961586,0.0026509528146239775,-0.002016293298566104,0.006786916064850035,0.9947088431998401
2013-02-26,1,0.002621948050945451,0.002863632432746868,-0.001321381672136912,0.006786916064850035,0.9952131433615994
2013-02-28,1,0.00252303492147072,0.0027514109885240835,-0.001321381672136912,0.006786916064850035,0.9950830044012833
2013-03-04,1,0.002830544655462045,0.0031277802528882535,-0.0019596621825393734,0.00824639137612818,0.9944149962648215
2013-03-06,1,0.0031255715138003557,0.0034847515223865658,-0.002569781885986369,0.007904894857235703,0.9932355515449259
2013-03-08,1,0.002618888885197252,0.0028917412482703194,-0.002569781885986369,0.009394712997506053,0.9932744447984776
2013-03-12,1,0.0024608787411971875,0.002702543929421627,-0.003184321350982994,0.010063503829696455,0.9928199031717972
2013-03-14,1,0.002438735662991614,0.0027048409339242353,-0.002569781885986369,0.011107072543634983,0.9928249533421581
2013-03-18,1,0.002488249899352238,0.002779670721153965,-0.0030144280029028026,0.0116504357274202,0.9913936755390651
2013-03-20,1,0.0024771983892979484,0.0027211273964145724,-0.004705084088509658,0.011157180517769996,0.9912673141820931
2013-03-22,1,0.0024440319924183933,0.002647391595494328,-0.004705084088509658,0.009899085426479722,0.9914071887895942
2013-03-26,1,0.0023445920727161737,0.0025147479659296226,-0.005298505358600428,0.008882438356309811,0.9908492920911202
2013-03-28,1,0.0027150977036066626,0.002941987412765144,-0.005298505358600428,0.007989976663884483,0.990908933075224
2013-04-02,1,0.0027526424631544276,0.002978426454064502,-0.005298505358600428,0.004737944885019953,0.9911712949209541
2013-04-04,1,0.0018817281695279117,0.0019899120979401607,-0.005298505358600428,0.007989976663884483,0.9915725095008873
2013-04-08,1,0.0017526392455913186,0.0018280185487434763,-0.006443658556167518,0.00499976825086001,0.9915848950496737
2013-04-10,1,0.0018689078428774854,0.0019725404092900524,-0.0060423968273652495,0.004903835508520558,0.9919388721410543
2013-04-12,1,0.001831200413085855,0.0019007034165592638,-0.0060423968273652495,0.004282838439751705,0.9920595624078232
2013-04-16,1,0.0022927633920801294,0.002455110105009707,-0.004542382134045872,0.004282838439751705,0.992683420683008
2013-04-18,1,0.0018716559291179712,0.0019789300751107608,-0.004542382134045872,0.004282838439751705,0.9929948964135915
2013-04-22,1,0.0019175645259213786,0.0020263796910682864,-0.004910777702141873,0.002952157441927895,0.9927621927555378
2013-04-24,1,0.0012516360995066546,0.001282590524811237,-0.004542382134045872,0.0016287556610374123,0.9938690829777891
2013-04-26,1,0.0011192339640337813,0.0011602228939520726,-0.004474430922151346,0.004282838439751705,0.9940443528331757
2013-04-30,0,0.0,0.0,-0.004654667013854495,0.005088690364152109,0.9930755576085946
2013-05-02,0,0.0,0.0,-0.004654667013854495,0.004282838439751705,0.9932540084252824
2013-05-06,0,-5.069489561816584e-05,6.637118933828292e-05,-0.003103975241718187,0.005088690364152109,0.9933280232499699
2013-05-08,1,3.4478277842898487e-05,0.00015025392854588275,-0.004654667013854495,0.005088690364152109,0.9925504586869375
2013-05-10,0,-9.363730759551615e-05,5.175052466327646e-05,-0.004654667013854495,0.005971599857013746,0.9925619617022617
2013-05-14,1,0.0007979505561990618,0.0008171440391066795,-0.004654667013854495,0.002317110701441533,0.9932652290594529
2013-05-16,1,0.00011162335581440234,0.00023965206357005458,-0.002810154424115498,0.005971599857013746,0.9932559787654455
2013-05-20,-1,-0.0009593609090606346,-0.0006612613749553096,-0.0018869094384397472,0.00701719148733017,0.9932982824880384
2013-05-22,-1,-0.001589596507903082,-0.0012012440927563492,-0.005849601442021897,0.00701719148733017,0.9910625286119573
2013-05-24,0,0.0,0.0,-0.009409625796267291,0.0073811856784502285,0.9905216512442354
2013-05-29,0,0.0,0.0,-0.004553297928260973,0.008964079892794786,0.9912667466033362
2013-05-31,0,0.0,0.0,-0.004553297928260973,0.008964079892794786,0.9914521660862354
2013-06-04,0,0.0,0.0,-0.0069507920717745515,0.008149653412434071,0.9914130900473832
2013-06-06,0,0.0,0.0,-0.004165787858017034,0.007839781437387193,0.9921742527682859
2013-06-10,0,0.0,0.0,-0.004165787858017034,0.008149653412434071,0.9918065067948904
2013-06-12,-1,-0.0019515682588970688,-0.001574445077846993,-0.0054291470513844805,0.008149653412434071,0.9909787219797147
2013-06-14,0,0.0,0.0,-0.0054291470513844805,0.007839781437387193,0.9913339394348216
2013-06-18,0,0.0,0.0,-0.006620977054957334,0.007618777055172724,0.9912896505002848
2013-06-20,-1,-0.003155469843847251,-0.002648496370524055,-0.0014429254545358003,0.007839781437387193,0.9918123942478348
2013-06-24,-1,-0.0028580549266283093,-0.0024074470111319947,-0.0054291470513844805,0.007618777055172724,0.9920919290908334
2013-06-26,-1,-0.0023325199582181037,-0.0019599447963032845,-0.005846390618040219,0.007205577697844582,0.9928859814345513
2013-06-28,0,0.0,0.0,-0.005190183256887682,0.007191630777057748,0.9937606650033698
2013-07-02,0,0.0,0.0,-0.002047353622030316,0.0064650595737409,0.994362224568767
2013-07-05,-1,-0.0017553114948214714,-0.0014541971634099227,-0.005190183256887682,0.005958479182714804,0.9934591563451828
2013-07-09,-1,-0.0011417008569315668,-0.0009216610710961812,-0.005190183256887682,0.0057969041998638645,0.9941987261280698
2013-07-11,0,0.0,0.0,-0.002720435524586957,0.0057969041998638645,0.994424683710113
2013-07-15,0,0.0,0.0,-0.004615479668181449,0.005150105633634621,0.9946640236134626
2013-07-17,-1,-0.0006376075297462715,-0.0005314310710548821,-0.004615479668181449,0.0049338184577858435,0.9946171199170946
2013-07-19,-1,-6.897471067044023e-05,-3.5879852925722386e-05,-0.006520393721908869,0.002669712451220563,0.994557673488158
2013-07-23,-1,-0.0007839018045923197,-0.0006786149003283764,-0.004426651548418005,0.0032358048839240114,0.9953092774621815
2013-07-25,-1,-0.0008503996210612487,-0.0007420709019842058,-0.004426651548418005,0.0032358048839240114,0.995163348220568
2013-07-29,-1,-0.00044815370071548874,-0.00039652153907453544,-0.00574241283979789,0.0031950235188939434,0.9946091778689596
2013-07-31,-1,-0.0005734850612280139,-0.0004952213772287082,-0.008486789804714113,0.0031950235188939434,0.9941279280243686
2013-08-02,-1,-0.000799987730725143,-0.0006975794339805878,-0.00574241283979789,0.0038312233387408977,0.9945728160449288
2013-08-06,-1,-0.0007677806123550064,-0.0006605985639907219,-0.00574241283979789,0.0031464099489324792,0.9946735169810417
2013-08-08,-1,-0.00047270599533968456,-0.00039925722994011825,-0.007798200591827487,0.0027576127780374114,0.9947960078474762
2013-08-12,-1,-0.00015249115608874044,-0.0001422745986505659,-0.007798200591827487,0.00322012089471884,0.9943148713190579
2013-08-14,-1,-0.00023764397539191193,-0.00023531026000065568,-0.005537376928499512,0.00322012089471884,0.9947058449451027
2013-08-16,-1,-0.0004957487735146634,-0.0004889360347614541,-0.0022438041207536235,0.0038312233387408977,0.9949806792402162
2013-08-20,-1,-0.00015033749875340339,-8.669709441116844e-05,-0.0021554122365289733,0.00322012089471884,0.9954152831830342
2013-08-22,-1,-0.0001267434804688536,-4.593504029178221e-05,-0.004194144543490489,0.00322012089471884,0.9949068356393509
2013-08-26,-1,-0.0008119677994696572,-0.0007581798082707511,-0.00198870604017287,0.00322012089471884,0.9950083387512031
2013-08-28,-1,-0.00115908355467078,-0.0010703163581644581,-0.0005937011598414518,0.003981143390849271,0.9942283708601266
2013-08-30,-1,-0.0006036732170923343,-0.0005757092315400484,-0.004510658644873253,0.003046813984395797,0.9943873772640649
2013-09-04,-1,-0.0002086817684692882,-0.0001630892369175268,-0.004510658644873253,0.005498146914264522,0.994066282371379
2013-09-06,-1,-0.00024899191290466706,-0.0001884813580263916,-0.004510658644873253,0.005498146914264522,0.9937647836577899
2013-09-10,1,0.0001733334393900375,0.00027878747051789284,-0.004510658644873253,0.00343847561543881,0.9944385208986318
2013-09-12,1,0.0004991405481506489,0.0006609937271482393,-0.004510658644873253,0.0060612892032837285,0.9934732720056995
2013-09-16,1,0.0003641472050377826,0.00046749023925559286,-0.004510658644873253,0.0060612892032837285,0.9933285668885565
2013-09-18,1,0.00021282265828884676,0.00027950235177565005,-0.006191669054478346,0.006786525058797879,0.99186676248411
2013-09-20,-1,-0.0005701391954626374,-0.0005282261648496207,-0.00525408814471331,0.006786525058797879,0.9921828213497613
2013-09-24,-1,-0.00021202284063112653,-0.00020511956726933272,-0.00525408814471331,0.006786525058797879,0.9916509763029367
2013-09-26,-1,-0.0006323406680526957,-0.0005675123748565461,-0.0034412583413464147,0.00732552367666849,0.9921861840105585
2013-09-30,-1,-0.0008902209469693425,-0.0008090434870391136,-0.0003074711081933978,0.007640870902257074,0.9920949438812297
2013-10-02,-1,-0.0003950536208206424,-0.0003773294197917401,-0.0019234679581801245,0.009871983926133043,0.9920233081076306
2013-10-04,-1,-0.00037468208186158293,-0.0003453089642168344,-0.0019234679581801245,0.009871983926133043,0.9923674982593315
2013-10-08,-1,-0.0004302104287121193,-0.00041748274880929923,-0.000312818053944177,0.009871983926133043,0.9920995064899333
2013-10-10,1,0.00021383901967564882,0.00029199251708892146,-0.003208583004392913,0.009871983926133043,0.9923820045491556
2013-10-14,1,0.0005171008545543931,0.0006254227697243737,-0.004320651669393959,0.00793321883391076,0.9925046635237862
2013-10-16,1,0.0010899667472598455,0.0012859404551428147,-0.003208583004392913,0.009336218621564358,0.9930530344252051
2013-10-18,1,0.0007798593795428203,0.000895215060192081,-0.000312818053944177,0.009336218621564358,0.9929364907501405
2013-10-22,1,0.001030504784688308,0.0011356686955470172,-0.004523553237005842,0.0075423051939901165,0.9933302879435425
2013-10-24,1,0.0015975671416441713,0.0018029315208964926,-0.004523553237005842,0.0075423051939901165,0.9931316136583903
2013-10-28,1,0.0017656741479716923,0.0019835109408351233,-0.005980435036854701,0.0075423051939901165,0.9926234712709767
2013-10-30,1,0.002136306066406121,0.0024159124510514307,-0.005980435036854701,0.005995228795149625,0.9934301509377108
2013-11-01,1,0.001841214488301518,0.0020746706502261067,-0.00608542773259012,0.005995228795149625,0.9933624784294786
2013-11-05,1,0.002193819751552776,0.002495468953719469,-0.00608542773259012,0.007379378519388956,0.993129342617533
2013-11-07,1,0.002344221970828993,0.002673983494676583,-0.00608542773259012,0.007379378519388956,0.9924418751461198
2013-11-11,1,0.0013335673269091303,0.0014321533012230415,-0.006090002332529166,0.007379378519388956,0.9919096932297724
2013-11-13,1,0.002129905700821904,0.0023319534165269764,-0.007496546957595534,0.005667003463806787,0.992101082039789
2013-11-15,1,0.002711770169017582,0.0030195394376007576,-0.007496546957595534,0.004162952457841317,0.9920876975081002
2013-11-19,1,0.00206851538461656,0.002283209370044323,-0.007496546957595534,0.004949494521530085,0.9921440393087653
2013-11-21,1,0.002665382842821109,0.0029569221391900448,-0.009250465221959884,0.0041301280970896794,0.9920035103370183
2013-11-25,1,0.002207392400233537,0.002447736859004706,-0.007453796899465459,0.0041301280970896794,0.9926803784660045
2013-11-27,1,0.002598778260071,0.00291903924743265,-0.007453796899465459,0.004851021439275172,0.9923649295115035
2013-12-02,1,0.0023491896451570053,0.0026373860671874364,-0.009250465221959884,0.004851021439275172,0.9923288747121339
2013-12-04,1,0.002930122355131325,0.003315378580635823,-0.009542027055872074,0.0038405971001443584,0.9915297725755514
2013-12-06,1,0.0035742116850835362,0.004039851013254105,-0.009413776881481848,0.0022835607149017216,0.9923007891530827
2013-12-10,1,0.0032482423177731066,0.003695300818014703,-0.009413776881481848,0.0022835607149017216,0.9924325559752599
2013-12-12,1,0.0023598221469251376,0.002640245491462705,-0.007405672143185049,0.0022835607149017216,0.9934665245489304
2013-12-16,1,0.0021879583970691187,0.0024354012222288246,-0.007405672143185049,0.0038405971001443584,0.9934602607983434
2013-12-18,1,0.002261895015118234,0.002530280735123293,-0.005493211198436888,0.0038405971001443584,0.9943147121488056
2013-12-20,1,0.0020152605205959106,0.0022482110076246986,-0.004379059907945581,0.0022835607149017216,0.994823599348365
2013-12-24,1,0.001647249260246611,0.0018132788083362469,-0.005230644161767568,0.002167200413744688,0.9945647735064062
2013-12-27,1,0.001840604279292379,0.002035051935097059,-0.006911311524770383,0.002167200413744688,0.9934675970338255
2013-12-31,1,0.0016318256164691222,0.0018151664082916017,-0.006911311524770383,0.002167200413744688,0.9933284227649974
2014-01-03,1,0.0011037151643564888,0.0012103731994710073,-0.006911311524770383,0.002381872464568439,0.9929682794823917
2014-01-07,1,0.0005648957589961993,0.0005799307499367878,-0.009064471315099888,0.002381872464568439,0.992546224132727
2014-01-09,-1,-0.0003726811650213896,-0.0002483454843777202,-0.006584111547982672,0.005158010973564599,0.9929778544008123
2014-01-13,-1,-0.0003840228720061869,-0.00026202660486461494,-0.006584111547982672,0.00603404680671214,0.9924382563394906
2014-01-15,-1,-0.0003571913643117903,-0.00022491889267109568,-0.006584111547982672,0.005770008787099486,0.9923930899700549
2014-01-17,-1,-0.0005287409247189907,-0.00035804823729679655,-0.007579105978772996,0.006110008219388687,0.9916611600159707
2014-01-22,-1,-0.0009538264493253062,-0.0007067820136317466,-0.007579105978772996,0.006110008219388687,0.9915763157817015
2014-01-24,-1,-0.0012883961542902497,-0.0010157800350061382,-0.006932944836584526,0.006110008219388687,0.9918820680237243
2014-01-28,-1,-0.0014703979387963913,-0.001179946610031287,-0.00571349540039475,0.005770008787099486,0.9929576033691538
2014-01-30,-1,-0.0021025827026211986,-0.0017216429646889457,-0.004311189471268625,0.005886464581575868,0.9932479733746755
2014-02-03,-1,-0.002239514398804041,-0.0018699089693078902,-0.004311189471268625,0.005886464581575868,0.9938703903402247
2014-02-05,-1,-0.002887380470401573,-0.0024508562689932265,-0.0034840418255096413,0.005886464581575868,0.9939374149264568
2014-02-07,-1,-0.002359657574680334,-0.001992956455671056,-0.0034840418255096413,0.005070508863231963,0.9946280399853251
2014-02-11,-1,-0.0019136083460263033,-0.0015965717528565967,-0.0034840418255096413,0.0032099758320773943,0.9953399757669114
2014-02-13,-1,-0.00235523218570437,-0.0019487879099052815,-0.0031328265214603797,0.0032099758320773943,0.9951464888881452
2014-02-18,-1,-0.0019950392747140706,-0.0016496094962332683,-0.002362777561097105,0.0037405862292728374,0.9956291311635238
2014-02-20,-1,-0.002408375592429249,-0.001997273557686476,-0.002362777561097105,0.0037405862292728374,0.995220163283667
2014-02-24,-1,-0.00269802578472458,-0.0022295924446021752,-0.002362777561097105,0.004731940970274669,0.994802577644008
2014-02-26,-1,-0.002766777109080353,-0.0023077156782351843,-0.0016727079819792616,0.005348070012134064,0.9940146269662185
2014-02-28,-1,-0.002753822890610347,-0.0022732438659934665,-0.0016727079819792616,0.004731940970274669,0.9943910144603418
2014-03-04,-1,-0.0027376066437751704,-0.002254795242322207,-0.0012269675440343538,0.00348120369280363,0.9950887711440226
2014-03-06,-1,-0.0026984455464258515,-0.002258454690984804,-0.000965126529751612,0.004210594528055609,0.9952238506364757
2014-03-10,-1,-0.002459795717287255,-0.002066102054167391,-0.0003976895760738634,0.004210594528055609,0.9951294254757301
2014-03-12,-1,-0.002314794292094232,-0.0019548122468012975,-0.0003976895760738634,0.004731940970274669,0.9947155974523071
2014-03-14,-1,-0.002107636894222346,-0.0017709354069201106,-0.0019444757162294462,0.004210594528055609,0.9950344209680052
2014-03-18,-1,-0.0013475404184063828,-0.0011330867281179112,-0.0019444757162294462,0.0044713812522687545,0.9949028235272095
2014-03-20,-1,-0.0014536343198353575,-0.0012485291870652378,-0.000965126529751612,0.005950412614851836,0.9947554639655578
2014-03-24,-1,-0.0009046529582669477,-0.0007824547702250247,-0.004614123027443129,0.004824377158816463,0.9945306661447604
2014-03-26,-1,-0.000710462345133293,-0.0006295980405534263,-0.0019444757162294462,0.003758465387937708,0.9951996728241145
2014-03-28,-1,-0.0007528581309297088,-0.0006568274315719583,-0.0019444757162294462,0.007183615078721764,0.9939523545432206
2014-04-01,-1,-0.0006757595443537285,-0.000600708278162434,-0.004740176549956495,0.007183615078721764,0.993592843101051
2014-04-03,-1,-0.000385059294270117,-0.00035195898243443045,-0.00494100485403653,0.007183615078721764,0.9930744781689651
2014-04-07,-1,-0.00019695246867494807,-0.00018112942638534007,-0.005783818708010769,0.007183615078721764,0.9921501612154189
2014-04-09,1,0.0004281728479385938,0.0005411525021327174,-0.0053760856640620155,0.006217183640103402,0.9927051593870958
2014-04-11,1,0.00031547836337832136,0.0004397392580513692,-0.004740176549956495,0.006217183640103402,0.9928498081179983
2014-04-15,1,0.000655273734095563,0.0007929912321355329,-0.004740176549956495,0.005749157194254873,0.9932941102860368
2014-04-17,1,0.00134038153579023,0.0016073772586877267,-0.005791632573338305,0.003967008368183767,0.9932142709890628
2014-04-22,1,0.0005037081539162088,0.0006362168090604792,-0.003806500089046344,0.003967008368183767,0.9940069437340779
2014-04-24,1,0.0006872214689290059,0.0008559885941362292,-0.004740176549956495,0.003967008368183767,0.9936628392761125
2014-04-28,1,0.0014478679842907115,0.001704365294603625,-0.004740176549956495,0.0027187395308083265,0.9946971317247674
2014-04-30,1,0.0014025757719023676,0.0016803389457488733,-0.0033290983090303247,0.0031485100127206954,0.994796292802987
2014-05-02,1,0.0014372408373036624,0.0017629764025678132,-0.0033290983090303247,0.0031485100127206954,0.9951345588209523
2014-05-06,1,0.0005138914582742619,0.0006942276980113447,-0.0033290983090303247,0.003874402318285226,0.9957910065477713
2014-05-08,1,0.0005990378758728617,0.0007687707773728038,-0.0033290983090303247,0.003839283193236317,0.995880535883623
2014-05-12,1,0.0007881484797118443,0.0009942121711708674,-0.003466307280166629,0.003839283193236317,0.994120882951265
2014-05-14,1,0.0012105235408310078,0.0014765161531038484,-0.005258321755996175,0.0031485100127206954,0.9937536729250898
2014-05-16,1,0.000988970078100751,0.0012181383717917423,-0.004292716306400105,0.0027214592946362428,0.9941038954214246
2014-05-20,1,0.0008576980124673499,0.0010640691656020912,-0.004292716306400105,0.004870338419065727,0.9938535600416845
2014-05-22,1,0.0009294020148673938,0.0011631861259384462,-0.004124155225200751,0.005205390881385758,0.9936283325784315
2014-05-27,1,0.0009482313024347867,0.0011744315733324849,-0.004124155225200751,0.005205390881385758,0.9935512288243449
2014-05-29,1,0.0012247500180095443,0.0014608684293460582,-0.004124155225200751,0.004870338419065727,0.9937841265118551
2014-06-02,1,0.0007806942754343233,0.0009345574666787036,-0.004038695700399348,0.005205390881385758,0.9938590781057195
2014-06-04,1,0.0005735895182391762,0.0006699665825382365,-0.0037464686103681442,0.004990767624394567,0.9939909503683985
2014-06-06,1,0.0007726636614558361,0.0008944768122342983,-0.0037464686103681442,0.0048105037084182995,0.9940714524168006
2014-06-10,1,0.0017577472505236938,0.002022750402501486,-0.003366231526713334,0.0048105037084182995,0.9958422455272403
2014-06-12,1,0.0012924199553327044,0.001502036240189335,-0.0023384452310626067,0.0048105037084182995,0.9964859516870624
2014-06-16,1,0.0011630959798480793,0.0013534639803430525,-0.0023384452310626067,0.0048105037084182995,0.9962087142056619
2014-06-18,1,0.0013593573084420179,0.0015491616016234402,-0.0029139872354702646,0.002765582636763791,0.9963190887173285
2014-06-20,1,0.0014188309878930764,0.0016040366633200828,-0.0029139872354702646,0.0023763154924438356,0.996147841100888
2014-06-24,1,0.0011139100066830988,0.0012329585970043166,-0.0029139872354702646,0.0023763154924438356,0.995875089896127
2014-06-26,1,0.0006343843710906363,0.0006623359694536687,-0.00402112026230452,0.002765582636763791,0.9953616233937707
2014-06-30,1,0.00020169117875974856,0.0002719242087969941,-0.006294860061650891,0.0023763154924438356,0.9953883483674631
2014-07-02,1,0.0005511557406324723,0.0005600167329990181,-0.006902121777059727,0.0023038168978605405,0.9945804106558881
2014-07-07,1,0.0008851305739486892,0.0009494858159956412,-0.0072300229479065215,0.0023038168978605405,0.9917882334435267
2014-07-09,1,0.0011099016442422025,0.0012042697511799195,-0.0072300229479065215,0.0023038168978605405,0.9912781100318078
2014-07-11,1,0.0011209401313471406,0.0012240580241484704,-0.008426214213856864,0.002681347928326893,0.9904781695051189
2014-07-15,1,0.0008579601255778208,0.0009131271691213594,-0.008426214213856864,0.002709210719656858,0.9903446444124517
2014-07-17,1,0.0006346484349675824,0.0006606610320736665,-0.008426214213856864,0.002709210719656858,0.9906938344402965
2014-07-21,0,-6.534819348656505e-05,8.400516345232888e-06,-0.0072300229479065215,0.004379130820416115,0.9914235353846745
2014-07-23,-1,-0.00022320541879458172,-0.00014698205779771592,-0.0072300229479065215,0.004379130820416115,0.9917730849233486
2014-07-25,-1,-0.0005116163410493078,-0.00040580628371029943,-0.006129606913532859,0.005432750227370407,0.9921941016787568
2014-07-29,-1,-0.0011780956659019942,-0.0009724695012203364,-0.003221865305334465,0.005432750227370407,0.9924278457105323
2014-07-31,-1,-0.002000422510868383,-0.0017000707137110357,-0.0018481966565066731,0.005432750227370407,0.9929516105224823
2014-08-04,-1,-0.0021857373383259117,-0.0018651838114475063,-0.0014308743330437386,0.002130587030326859,0.9955314301215281
2014-08-06,-1,-0.0012184078197871322,-0.001023744200395942,-0.0014308743330437386,0.0008171779032218079,0.9968731830805254
2014-08-08,-1,-0.0009124524060542196,-0.0007724439315340092,-0.0014308743330437386,0.0008171779032218079,0.997178714295893
2014-08-12,-1,-0.0010500770810494757,-0.0008747457701670634,-0.0008428406715928837,0.0012646627424524133,0.9973998903700283
2014-08-14,-1,-0.0008955018723119608,-0.000752042348660831,-0.0014308743330437386,0.0017554090499351436,0.9968549060825574
2014-08-18,-1,-0.0007420197383293472,-0.0006134080249786629,-0.0014308743330437386,0.002992964722817561,0.996491515851647
2014-08-20,-1,-0.0007018983270303637,-0.0005817410622455,-0.0018481966565066731,0.002992964722817561,0.9963332700215427
2014-08-22,-1,-0.0006830068194861154,-0.0005581895819693774,-0.0014308743330437386,0.00512006208000976,0.9926533170723959
2014-08-26,-1,-0.0004213826560819523,-0.0003521839716332163,-0.0011529305046013706,0.006117339857852419,0.9912274847142986
2014-08-28,-1,-0.0004184148456082092,-0.0003563247013557371,-0.0014210433363197402,0.006117339857852419,0.9908801891828667
2014-09-02,-1,-0.00033183368384091555,-0.00028615143004101084,-0.0027898079209296325,0.006759047506657616,0.9905242517259017
2014-09-04,-1,-0.0004503157286032314,-0.0003780275650159335,-0.004040703042774655,0.006759047506657616,0.9900677197154233
2014-09-08,-1,-7.267521511759251e-05,-6.492676458205967e-05,-0.0027898079209296325,0.0059454656828390965,0.9906687840245151
2014-09-10,1,0.00020860549282500238,0.000250725838935324,-0.0027898079209296325,0.006759047506657616,0.989921370196901
2014-09-12,-1,-0.00029269688743401945,-0.000248030525000669,-0.003845348821896015,0.006759047506657616,0.9896468988853669
2014-09-16,1,4.522215845794987e-05,4.883378773697441e-05,-0.004040703042774655,0.006759047506657616,0.9891858612198512
2014-09-18,1,0.00028173196904834213,0.0003432558530264137,-0.004649850342741653,0.006759047506657616,0.9888160241809097
2014-09-22,1,0.0016974861330820812,0.0019332636363292434,-0.004649850342741653,0.005632845915468303,0.9922068302895628
2014-09-24,1,0.001263912379516968,0.001425258016740726,-0.0038940291419683653,0.005632845915468303,0.9931559724368997
2014-09-26,1,0.0009435705632168689,0.0010283076381376306,-0.004357135481718311,0.007581853412079988,0.9926831418015127
2014-09-30,1,0.0010482876319987912,0.0011544357129142139,-0.006094250134768636,0.006627525995903995,0.9922217882749703
2014-10-02,1,0.0010049151439352412,0.0011059284187527646,-0.00591070781066237,0.00931799357581469,0.992296311247189
2014-10-06,1,0.0011753711954381604,0.0013098533162812084,-0.00591070781066237,0.009487326910863228,0.9921471206273103
2014-10-08,1,0.0016059386936971547,0.0017874038407250255,-0.00591070781066237,0.009487326910863228,0.9926683927730104
2014-10-10,1,0.001140326540868167,0.0012531305828181198,-0.0042035212321163895,0.009487326910863228,0.9931437928548129
2014-10-14,1,0.0010381119642061368,0.001130300079783133,-0.003278879355091217,0.008958471328306744,0.9936908170027079
2014-10-16,1,0.0007970838895858691,0.0008575697888290932,-0.0022730145687982293,0.008958471328306744,0.9941025082330784
2014-10-20,1,0.0012759665291835367,0.0014156319212215327,-0.003278879355091217,0.00892380809643446,0.9936735726355359
2014-10-22,1,0.0014290453903931942,0.0015768035829318938,-0.003278879355091217,0.008773754900884025,0.9939729745841257
2014-10-24,1,0.0014511955450622997,0.0016009113289616535,-0.004076734263766108,0.005396183300493208,0.9941179930378521
2014-10-28,1,0.001092199106251083,0.001199518128902986,-0.003278879355091217,0.005504692651054691,0.9946783903478116
2014-10-30,1,0.0013119671617418459,0.001480350005457948,-0.003278879355091217,0.005504692651054691,0.994393825263556
2014-11-03,1,0.001293755079126884,0.0014422555692388747,-0.0036826068631397807,0.004320748326373045,0.9941936475210964
2014-11-05,1,0.0013783298615134528,0.0015320675329465513,-0.004104916187903028,0.004297322553672673,0.9939436418820836
2014-11-07,1,0.0014392595688285357,0.0016129932132552182,-0.005354375506210304,0.004358980358833413,0.9936610578098958
2014-11-11,1,0.0015073748822410835,0.0016933039627719123,-0.005354375506210304,0.003965146270197731,0.9938859111196654
2014-11-13,1,0.0015190553865808594,0.001701481838807497,-0.006049046260496102,0.004358980358833413,0.9925731823180473
2014-11-17,1,0.001268194217277362,0.001410934122971288,-0.005354375506210304,0.004358980358833413,0.9937580646528099
2014-11-19,1,0.0012632842777462122,0.0014054283066024876,-0.005354375506210304,0.005281597572659466,0.9923266191658356
2014-11-21,1,0.001052455427624561,0.0011682240210206846,-0.0034915143671912126,0.005779506542433348,0.9926036195443356
2014-11-25,1,0.00108018490697558,0.001202588072076169,-0.004024985005685254,0.008145206766079903,0.9918763081841236
2014-11-28,1,0.0014741853387266416,0.0016553658998712437,-0.004024985005685254,0.005779506542433348,0.9925625313121339
2014-12-02,1,0.0012085609383992938,0.0013520372884696708,-0.004024985005685254,0.005779506542433348,0.9924662261510449
2014-12-04,1,0.0009708104967064296,0.0010771216066870215,-0.0033015614441963626,0.005779506542433348,0.9930338310735342
2014-12-08,1,0.0008427992220197685,0.0009246610870399225,-0.002164462403804307,0.007855540028958684,0.9927091357378905
2014-12-10,1,0.000699044832938613,0.00074318251596394,-0.002164462403804307,0.012003580160252447,0.9921416293358585
2014-12-12,1,0.0005427432331056858,0.0005536423898413437,-0.0019584572084198706,0.007065631007157529,0.9931923530933248
2014-12-16,1,0.0005182897869027482,0.0005217289917552315,-0.0019584572084198706,0.007065631007157529,0.9932235660006413
2014-12-18,1,0.0011089383412017928,0.0011663906487839682,-0.0026445920414987127,0.004597192000097736,0.9940747651899907
2014-12-22,1,0.0008524958199894232,0.0008585322943095966,-0.0026445920414987127,0.005979872043862323,0.9937614543983817
2014-12-24,1,0.0008609574138632812,0.000868484247603398,-0.0026445920414987127,0.0041443892923173214,0.9939389783288443
2014-12-29,1,0.0009256252017061178,0.000948169679175043,-0.003547073407015321,0.0041443892923173214,0.9935592295272511
2014-12-31,1,0.0005780599132673411,0.0005989957215152034,-0.003547073407015321,0.005979872043862323,0.9926601945284341
2015-01-05,1,0.0004641900915333729,0.0005038329649564854,-0.0029290578208620113,0.010675239236617139,0.9922877033504137
2015-01-07,1,0.0007447241008098704,0.0007468117896511099,-0.0049078333209428065,0.010675239236617139,0.9916958980237119
2015-01-09,1,0.0007964741333658225,0.0007995285762339023,-0.0053836899242893435,0.00570951168990226,0.9919666616765214
2015-01-13,1,0.0007191437635227225,0.0007299197096786314,-0.0053836899242893435,0.01065452365771351,0.991671744111516
2015-01-15,1,0.0007526663109476134,0.0007601833581231338,-0.0053836899242893435,0.01065452365771351,0.9914656835398057
2015-01-20,1,0.0008243330324090425,0.0008310746139781819,-0.003813041638160431,0.008893433600936381,0.9919743130912184
2015-01-22,1,0.0009433234662299646,0.0009443312677461785,-0.005431231636944524,0.0072163633396958755,0.9920843863584197
2015-01-26,1,0.00042590950885104645,0.0004912753489752695,-0.003576554092730125,0.007528610856926245,0.9926645941489277
2015-01-28,1,0.00010922981961947116,0.00021382416891354536,-0.003329211444822271,0.007528610856926245,0.9930183407382639
2015-01-30,0,-2.359643149222663e-05,9.48981130185806e-05,-0.003329211444822271,0.007528610856926245,0.9938437034569455
2015-02-03,1,0.00013788202575623225,0.0002351120521469172,-0.0036599435713586754,0.007528610856926245,0.993581585926495
2015-02-05,0,-5.490052268180916e-05,7.94603486308043e-05,-0.0036599435713586754,0.006939458906700205,0.9944392219453759
2015-02-09,-1,-0.00023287043134324637,-8.770213654184483e-05,-0.0036599435713586754,0.006939458906700205,0.9939452048039348
2015-02-11,-1,-0.00019164652734127749,-4.376535283898364e-05,-0.003836244408578835,0.006939458906700205,0.9935680075639509
2015-02-13,1,0.0012511042235862026,0.001333486304824921,-0.004075794844698347,0.006643156612322671,0.9933757502866102
2015-02-18,1,0.0011416649391333405,0.001167640891563246,-0.004075794844698347,0.006643156612322671,0.9933171902977616
2015-02-20,1,0.00078153179917669,0.0008036897688028471,-0.0037894070320140917,0.007296061225960649,0.9926704750753472
2015-02-24,1,0.0008434705357496423,0.0008541726969415151,-0.004075794844698347,0.006687511414352747,0.9927696475180047
2015-02-26,1,0.0006064603193285215,0.0006514796277355986,-0.004926727937784104,0.006687511414352747,0.9923005532613686
2015-03-02,1,0.0008095769726891378,0.0008276568839264167,-0.0047862158080898744,0.006511754992122493,0.9926166556032844
2015-03-04,1,0.0010997605586356742,0.0011583278294741886,-0.004063477062546015,0.005954139155606379,0.9929417380481202
2015-03-06,1,0.00031479883611425946,0.0003867541305960984,-0.0037894070320140917,0.006511754992122493,0.9932538878072665
2015-03-10,0,-8.858054902997323e-05,3.1194855955131494e-05,-0.0037894070320140917,0.006025587472608836,0.9939167857805468
2015-03-12,1,4.11406321680345e-05,0.00016707526024327754,-0.003733531096524359,0.004095075509813871,0.9946366589712127
2015-03-16,1,0.00029206711305264376,0.0003640328710027306,-0.0034453457751503075,0.0034817490580106017,0.9949624691157795
2015-03-18,1,0.0005796549160528799,0.0005998888824671192,-0.003768050690936771,0.002708524249180851,0.9951076632143354
2015-03-20,1,0.0011214189484113214,0.001172618042095226,-0.005107361224537085,0.002239287172673274,0.9951543304338059
2015-03-24,1,0.0004793705041335662,0.0005400403448672514,-0.004274016673173854,0.002708524249180851,0.9955114081828028
2015-03-26,1,6.0695894640788034e-05,0.00015890779304378154,-0.003547194629415712,0.002708524249180851,0.9961451001892663
2015-03-30,1,0.0005319387830658388,0.0005608288159135392,-0.004274016673173854,0.001988163414504515,0.9960877652206224
2015-04-01,1,0.00034994615007150894,0.0003872532181367532,-0.006791042497205912,0.001988163414504515,0.9954781214948969
2015-04-06,1,0.0006757701008773993,0.0006760007469508655,-0.006791042497205912,0.0014445514541089634,0.9958552131616983
2015-04-08,1,0.00043837016532062936,0.0004610625922592277,-0.0072536618754904456,0.001988163414504515,0.995629205294539
2015-04-10,1,0.0005082298544785833,0.0005179476311978946,-0.0072536618754904456,0.0023786335717090193,0.9954250848387703
2015-04-14,1,0.0003214163205544914,0.00036770907046850844,-0.0072536618754904456,0.0034038834931513625,0.9950082667801278
2015-04-16,1,1.5242062641625774e-06,9.134225891838706e-05,-0.0072536618754904456,0.004583749991893982,0.9946032635103496
2015-04-20,-1,-0.0008474047771476277,-0.0006391003273729311,-0.0035803117641941716,0.004719451326614808,0.9947948556589393
2015-04-22,-1,-0.0008054733529244229,-0.0006001065463011121,-0.0035803117641941716,0.005242483714288171,0.994612797455826
2015-04-24,-1,-0.0004585815234410306,-0.0003156998099680169,-0.005563940934209054,0.005242483714288171,0.9946393674111661
2015-04-28,-1,-0.0010382471966329842,-0.0008075186644086445,-0.005563940934209054,0.005446865447549284,0.9943331847176134
2015-04-30,-1,-0.002004169784133287,-0.0016432324276300365,-0.005537067575952175,0.005446865447549284,0.9942809193235922
2015-05-04,-1,-0.00198705133196933,-0.0016230511607590438,-0.005867882680434227,0.005446865447549284,0.994084731450981
2015-05-06,-1,-0.002080180702983445,-0.0017025447887196847,-0.005537067575952175,0.005117224307869989,0.9944454107719525
2015-05-08,-1,-0.001834621610539711,-0.001480647342745864,-0.005945969292334769,0.0034600744290978185,0.9947200136576212
2015-05-12,-1,-0.0018143604710573965,-0.0014711033486534712,-0.0058670381928108625,0.003528201673518189,0.994498689798944
2015-05-14,-1,-0.0007768676636206236,-0.0006162004335888227,-0.006603665730467761,0.0024867398342849636,0.9945280937957491
2015-05-18,-1,-0.0004166725254494583,-0.00030318097564953144,-0.007037908847867197,0.0023263071074599755,0.9941742669631063
2015-05-20,1,2.857180275873757e-05,7.290943131713747e-05,-0.007037908847867197,0.0030845412901559345,0.9937519820473226
2015-05-22,-1,-0.00019672287650785304,-0.00012491938267946738,-0.007037908847867197,0.0030868417913132206,0.9938980815543574
2015-05-27,-1,-0.0005313040261660969,-0.00040168849060969765,-0.00702018917642986,0.002339619873549974,0.9941346285956747
2015-05-29,-1,-0.0012228792373839667,-0.0010058431159450155,-0.006520746725460186,0.0034545163953240967,0.994387345037357
2015-06-02,-1,-0.0010133821077590367,-0.0008558652418140288,-0.006520746725460186,0.0034545163953240967,0.9936127781800312
2015-06-04,-1,-0.0010469133769295098,-0.000890639595965939,-0.006932443835945648,0.006535061649094649,0.9922665359902242
2015-06-08,-1,-0.0014390158024778375,-0.0012390070514754028,-0.006932443835945648,0.008597420694245747,0.9916667171585156
2015-06-10,-1,-0.0009066476555446594,-0.0007782861700425911,-0.006932443835945648,0.006535061649094649,0.991827723590298
2015-06-12,-1,-0.0011499718259718884,-0.0010117723576902867,-0.005784959028230378,0.008597420694245747,0.9915661815520816
2015-06-16,-1,-0.0007457456910906258,-0.0006772397723286221,-0.005104039835938478,0.008597420694245747,0.991818649518918
2015-06-18,-1,-0.0005712802322285987,-0.00049657610049438,-0.005538157868738939,0.008676655733529777,0.9917570754408128
2015-06-22,-1,-0.000705520103485125,-0.0006006493140452939,-0.005538157868738939,0.008676655733529777,0.9917470364694854
2015-06-24,-1,-0.0010605292101932562,-0.0009096077358104649,-0.005104039835938478,0.008676655733529777,0.991738862252049
2015-06-26,-1,-0.0005348469725275577,-0.00045923770322474496,-0.005104039835938478,0.008360674417388886,0.992019237119271
2015-06-30,-1,-0.0014716949845137465,-0.0012923043393587366,-0.0024837141222140316,0.008360674417388886,0.992713978118369
2015-07-02,-1,-0.00098109249945631,-0.0008421092338897127,-0.0022601934600893895,0.006478843328582043,0.99440892841143
2015-07-07,-1,-0.0001340231711824046,-0.00010958207380500324,-0.0022601934600893895,0.008360674417388886,0.9934320248195939
2015-07-09,-1,-0.00037077936115550346,-0.0003361596398983138,-0.0005458807428761225,0.009589553445564164,0.9928501780138617
2015-07-13,1,0.00036974150407296754,0.00044300468435952,-0.0022601934600893895,0.007089746427306764,0.992962383955156
2015-07-15,1,0.0005756623403931703,0.0006610250947975474,-0.0024837141222140316,0.0055661945143758666,0.9929165372853131
2015-07-17,1,0.0008390424795842216,0.0009667939642769884,-0.002444093286104488,0.0055661945143758666,0.9932042615262215
2015-07-21,1,0.0007544978801797767,0.0008654029242021006,-0.0030354136002593273,0.0055661945143758666,0.9930301503674677
2015-07-23,1,0.0009440842402476072,0.0010946416286265778,-0.003882881836061649,0.005461270437393951,0.9928364992049772
2015-07-27,1,0.0011167479975437264,0.0012928868391732726,-0.007148950143419238,0.005461270437393951,0.9903892187075596
2015-07-29,1,0.000989089451498101,0.0011212239022868344,-0.00783830504284144,0.006419400463102878,0.9887009318074094
2015-07-31,1,0.0008240618237299769,0.000919358600521379,-0.00783830504284144,0.010429256587042437,0.9882202835656101
2015-08-04,1,0.0022684649810080244,0.0025751007283039036,-0.009830652683612768,0.0041617558123851015,0.988532030049149
2015-08-06,1,0.0027371761760097957,0.003105564919093612,-0.009830652683612768,0.006055581740704703,0.9882967753706405
2015-08-10,1,0.0020515296827221074,0.0023328829498996976,-0.009165729726281257,0.008695626222862704,0.9880648892778969
2015-08-12,1,0.0023051762872201642,0.002650091955386862,-0.01524897938398512,0.008695626222862704,0.9874130792016801
2015-08-14,1,0.002368141709943045,0.00270850090880477,-0.01524897938398512,0.004961754945671968,0.9878547517479783
2015-08-18,1,0.0019498539035793386,0.0022094805435705616,-0.01524897938398512,0.012942625778940927,0.9870463775244747
2015-08-20,1,0.0017711504719834345,0.002022828294799874,-0.01524897938398512,0.012942625778940927,0.987297224858832
2015-08-24,1,0.00017147971735600694,0.0001978082738647475,-0.005561210866460654,0.012942625778940927,0.9890571303405407
2015-08-26,1,0.0005293851976042796,0.0006259890858512068,-0.004850537944636009,0.009765320682788396,0.9908416767858329
2015-08-28,1,0.0007923181847086715,0.0009096163861943882,-0.005561210866460654,0.010352167283731256,0.9896646137606212
2015-09-01,1,0.00010959375191002087,0.00013930196903158757,-0.004244544355183269,0.010352167283731256,0.9902843049559629
2015-09-03,1,0.0007859827211821221,0.000909812213831983,-0.004244544355183269,0.0100348502526829,0.9908568990360884
2015-09-08,1,0.0007918765004530889,0.0009069162722410641,-0.0019357305305946267,0.009776514741572519,0.9918999114541126
2015-09-10,-1,-7.135582682845454e-05,-4.520733905795935e-05,-0.0005146524807780296,0.01053711556657638,0.9918902079849824
2015-09-14,1,0.00012885628559673032,0.00013187901410712004,-0.0005146524807780296,0.01053711556657638,0.9919415177646392
2015-09-16,1,0.0011051179131275793,0.0012416762800414633,-0.0018643718690043104,0.00857585083466025,0.9936159245749002
2015-09-18,1,0.0008925099068403386,0.0009843812913322004,-0.0013878553185920637,0.009155368126053127,0.9932895026616432
2015-09-22,1,0.0006013941520815105,0.0006164508939475376,-0.0013838816973131968,0.00882938444299487,0.9936917111123003
2015-09-24,1,0.000621980616482196,0.0006436568452242136,-0.000761182853868169,0.01053711556657638,0.9935017166632476
2015-09-28,1,0.0006222047648380281,0.0006404014639099257,-0.0013838816973131968,0.00882938444299487,0.994686166818545
2015-09-30,1,0.0010415547632884492,0.001130755125340455,-0.0013838816973131968,0.007032264865594543,0.9948701440030102
2015-10-02,1,0.0012955115593256063,0.0014138570602283042,-0.0016443685625998523,0.005636905414975968,0.9952015918673053
2015-10-06,1,0.0015615989888264539,0.0017306788926232481,-0.0018643718690043104,0.005636905414975968,0.9938787882869842
2015-10-08,1,0.0020243657202041036,0.0022669228118567747,-0.002574390122534815,0.0028611975669941923,0.9939995961871682
2015-10-12,1,0.002191078975732399,0.0024650882592830324,-0.0033159488441613736,0.0012898636999882295,0.9928121533010764
2015-10-14,1,0.0019300532189216299,0.0021576167081747617,-0.0033159488441613736,0.003979204467206064,0.992939052266463
2015-10-16,1,0.0021749360583137554,0.0024284034867752304,-0.006895023826218739,0.0030386917647866113,0.9923055871125022
2015-10-20,1,0.0018645161929014033,0.002044771920037576,-0.006895023826218739,0.003979204467206064,0.9921396658806512
2015-10-22,1,0.001998397887208707,0.0021798088594110372,-0.006895023826218739,0.005947748107569281,0.9919063104776544
2015-10-26,1,0.0015177217089739747,0.00162661632912617,-0.004424412629942413,0.006883987791857318,0.9920187315419886
2015-10-28,1,0.0013460138750486903,0.0014073067647229058,-0.00499915739126322,0.0067607057289862035,0.9919639830410647
2015-10-30,1,0.0012386480710413637,0.0013003654568669479,-0.0055382590243741115,0.0067607057289862035,0.9918349317391276
2015-11-03,1,0.0014595125969665747,0.001520602128570931,-0.003972157695994205,0.0067607057289862035,0.9927104483385849
2015-11-05,1,0.0012694633132240055,0.0013047553142695443,-0.003972157695994205,0.009331893924260742,0.9918229255861595
2015-11-09,1,0.0008596907167003262,0.0008607467624531418,-0.002725884585113911,0.009331893924260742,0.9925456104121814
2015-11-11,1,0.0011111963436638834,0.001139231067703761,-0.005093416073686679,0.0067697389971388576,0.9919241097271807
2015-11-13,1,0.00015409584512825024,0.0002597412988170295,-0.003972157695994205,0.0067697389971388576,0.9924750880598278
2015-11-17,1,0.0004895211452566964,0.0005456884788537954,-0.003972157695994205,0.01285985089968477,0.9912343934161011
2015-11-19,1,0.00043708580388683127,0.0005505740976632465,-0.005093416073686679,0.006323954013982826,0.9905451601586635
2015-11-23,1,0.0008855833267270278,0.0009166109167213181,-0.005093416073686679,0.004456542191421863,0.9910721059358021
2015-11-25,1,0.0010302454144558023,0.001041000570109385,-0.0035555598952779813,0.004648753222690652,0.9911531991769087
2015-11-30,1,0.00042628321945736885,0.0005101835744729664,-0.002404847446084614,0.005396497024408553,0.9912903403252834
2015-12-02,1,0.0010730101974310868,0.0010862951626129564,-0.006392162529764065,0.004648753222690652,0.9914735109488997
2015-12-04,1,0.0015997565091350192,0.0016941213927013543,-0.006921721627370178,0.004648753222690652,0.9914335809781972
2015-12-08,1,0.0017254343229140732,0.0018431151329945249,-0.008287609211812572,0.004648753222690652,0.9908763728654341
2015-12-10,1,0.0009909817837073893,0.001006874538113962,-0.006580927234332559,0.005396497024408553,0.991423835752182
2015-12-14,1,0.0008249968304301317,0.000831504523511983,-0.003441961764265442,0.006083879137336557,0.9915968194265481
2015-12-16,1,0.0016914424956809564,0.0017956372379918032,-0.006194578136786236,0.004648753222690652,0.9926776682389046
2015-12-18,1,0.0008887443990657979,0.0009001629084271295,-0.006194578136786236,0.004951665424569591,0.9932630542802451
2015-12-22,1,0.0008774515455658624,0.0008824579321301146,-0.006194578136786236,0.0057664107822894585,0.9927416212584669
2015-12-24,1,0.0013139318431262916,0.001446844268525952,-0.00738052070506947,0.0057664107822894585,0.9919736159228665
2015-12-29,1,0.0017153888513106142,0.0019297970401600721,-0.008107700392802727,0.0057664107822894585,0.9913723757743623
2015-12-31,1,0.001026148783716935,0.0011180508575446622,-0.006436971366030655,0.011336029776883668,0.9902006740766276
2016-01-05,1,0.0010045084173398982,0.0010883629418387782,-0.006436971366030655,0.011336029776883668,0.9897304887500132
2016-01-07,1,0.0008409868175979293,0.0009059883715627347,-0.006436971366030655,0.011336029776883668,0.9877536163211905
2016-01-11,1,0.0011478089964888677,0.0012408478110806746,-0.006436971366030655,0.013057898308490296,0.9869164457418308
2016-01-13,1,0.0010094727472942898,0.0010610516006022155,-0.007253787840501729,0.013057898308490296,0.9865186177932191
2016-01-15,-1,-0.0003481792164409384,-0.00014425693788602573,-0.007253787840501729,0.013057898308490296,0.9865845445770688
2016-01-20,-1,-0.0007864324416383845,-0.0005361535119035266,-0.007253787840501729,0.013057898308490296,0.986614506277632
2016-01-22,0,-6.0931882557813035e-05,8.780174853103727e-05,-0.007253787840501729,0.011591398680055303,0.9871457950298531
2016-01-26,-1,-0.0012904080240581917,-0.0009493652444690884,-0.006299847455475907,0.011591398680055303,0.9874605553628566
2016-01-28,-1,-0.0008536963941584892,-0.0005942111817463333,-0.006305497980248435,0.011318113060350757,0.9865961405414264
2016-02-01,1,0.000633577324091098,0.0007259449203447329,-0.00837418591787454,0.009504546314709735,0.9879669936525456
2016-02-03,0,-0.00016874374504284096,5.462459042875447e-05,-0.0073317069934864644,0.0066623177710591185,0.9893881125218682
2016-02-05,-1,-0.002094343403832858,-0.0016492339710384848,-0.0073317069934864644,0.0066623177710591185,0.9909854393999536
2016-02-09,-1,-0.00034696146363063303,-0.00015613904419294598,-0.0073317069934864644,0.004973283913687275,0.9918275758825787
2016-02-11,-1,-0.0009929873565648,-0.0007198370613780345,-0.004674947231310946,0.00621204953853014,0.9918657018415982
2016-02-16,-1,-0.0007264302680924144,-0.00048327149715219524,-0.0049035309563590975,0.00639828234678036,0.99190897045348
2016-02-18,-1,-0.0009158450549913005,-0.0006468118504992514,-0.0038045876402680043,0.0058483431176122105,0.992563685909244
2016-02-22,-1,-0.0008949675888646447,-0.000628947752874784,-0.0038045876402680043,0.005652317587408912,0.9928925864184939
2016-02-24,-1,-0.0002349091035587945,-6.141732225022105e-05,-0.0049035309563590975,0.005647794366841301,0.9929904374703441
2016-02-26,-1,-0.0007872967523304877,-0.0005699361673254903,-0.004047864566181672,0.005647794366841301,0.994194230719459
2016-03-01,-1,-0.0012834861005264948,-0.0010254903987567143,-0.00242647937873671,0.005647794366841301,0.9946793076273243
2016-03-03,-1,-0.0009842087427995728,-0.0007839172407043073,-0.0025026739537527608,0.006021006264159596,0.9938935584345308
2016-03-07,-1,-0.001584900546820886,-0.0013203223410677319,-0.001497489201442962,0.006021006264159596,0.9941642527232692
2016-03-09,-1,-0.001195216375794013,-0.0009671820604856248,-0.002007655005297427,0.006021006264159596,0.9944190018717323
2016-03-11,-1,-0.000579645566386606,-0.00044642110267322047,-0.0031672933900423646,0.005647794366841301,0.9950049373163982
2016-03-15,-1,-0.0005247636982596445,-0.0003988241622534765,-0.0031819865909078794,0.004027227695696171,0.9947220051390576
2016-03-17,0,-4.785355346864314e-05,2.071756955696638e-06,-0.0031819865909078794,0.0034086851060295222,0.9948809611172612
2016-03-21,-1,-0.0004191631843503385,-0.00030150387626272634,-0.0031819865909078794,0.0034086851060295222,0.9948884337656476
2016-03-23,-1,-0.00047475157370489884,-0.0003574204811799384,-0.004517841479446893,0.0032800173632493894,0.9935151037695533
2016-03-28,-1,-0.0004805370747176661,-0.0003473186722388483,-0.003607883901576556,0.0034086851060295222,0.993055358151853
2016-03-30,1,0.00016100894661750693,0.00018272539000077577,-0.003607883901576556,0.004587116796307136,0.9928106469043956
2016-04-01,-1,-0.00013846629625261593,-7.41680543857343e-05,-0.0015493747887591748,0.00344839345034817,0.9938487537833676
2016-04-05,-1,-0.00046350072291954177,-0.000318755868365031,-0.0015493747887591748,0.008590445504763556,0.9924285632737433
2016-04-07,-1,-7.589259807609135e-05,-5.544791731014692e-06,-0.001642600893463484,0.004825560937075873,0.9931145894742466
2016-04-11,-1,-0.0008477363004977031,-0.0006415762731884046,-0.0011773720934929479,0.009422710238039369,0.9920369478619112
2016-04-13,-1,-0.0013741314236186835,-0.001121406101252797,-0.0011773720934929479,0.009422710238039369,0.9919420648609001
2016-04-15,-1,-0.0008058436314526383,-0.0006601523265062943,-0.001642600893463484,0.009422710238039369,0.9917485012716453
2016-04-19,-1,-0.0005816472731308326,-0.0004777923254563406,-0.0030220899604271774,0.009422710238039369,0.9909601702423648
2016-04-21,-1,-0.0023815232256035788,-0.002066525428129632,-0.001642600893463484,0.009951786996810551,0.9911655978726572
2016-04-25,-1,-0.0017273484998611823,-0.0014726080894465134,-0.0030220899604271774,0.008944801427912024,0.9921096466114605
2016-04-27,-1,-0.0009126302518234566,-0.0007866001574420689,-0.005034456637784348,0.008944801427912024,0.9921870111005835
2016-04-29,-1,-0.00026751772845268445,-0.0002559680270014696,-0.005034456637784348,0.008944801427912024,0.9922940670245464
2016-05-03,1,0.0011348202645376183,0.0013241128290449261,-0.005787262130859464,0.008130275301169838,0.9931337218715006
2016-05-05,1,0.0005285113587124471,0.0005865199510543893,-0.005787262130859464,0.008130275301169838,0.9932505894861273
2016-05-09,1,0.001214619543314741,0.0013542987383156767,-0.005787262130859464,0.0025857091282132936,0.9938724535614526
2016-05-11,1,0.002052736926783244,0.002384536919918112,-0.005787262130859464,0.005364276764156278,0.9938481330665503
2016-05-13,1,0.0013528347322977002,0.0015236407027312986,-0.004770583657107369,0.005885496941147752,0.9941125463523712
2016-05-17,1,0.00066056876007465,0.0007483268184681293,-0.004610829945777263,0.0062538509869856365,0.9943541964560961
2016-05-19,1,0.0008652525053328103,0.000984683043692251,-0.004610829945777263,0.0062538509869856365,0.994939653236204
2016-05-23,1,0.0007617051948161585,0.0008880348453035415,-0.0044934969088512005,0.0062538509869856365,0.9951552690206554
2016-05-25,1,0.0004810320515812337,0.0005296966099474132,-0.0014658295317056705,0.00595825991947625,0.9953873525684452
2016-05-27,1,0.000603429198283657,0.000671027647139381,-0.0014658295317056705,0.0062538509869856365,0.9945242668644376
2016-06-01,1,0.00040465175390190814,0.00041658940879806883,-0.0031444739184254495,0.00595825991947625,0.9947146829398213
2016-06-03,1,0.0007229049651599944,0.0008149303214814471,-0.0044934969088512005,0.0062538509869856365,0.9932474803936822
2016-06-07,1,0.0006111011214132848,0.0006959132683649356,-0.0045630988204084675,0.006743183309443145,0.992395911091478
2016-06-09,1,0.000852532680256005,0.0009440222833321254,-0.004862831832125749,0.006743183309443145,0.9923984748064204
2016-06-13,1,0.000649046315431551,0.0006817566632254246,-0.005134153487793608,0.006451770112441321,0.9920564404968089
2016-06-15,1,0.0012892807038991643,0.0014484473587808404,-0.005134153487793608,0.006170064420283282,0.9925377817259443
2016-06-17,1,0.0009496157327975499,0.0010194529313443546,-0.0048254073768950485,0.005962710308020112,0.992809512032944
2016-06-21,1,0.0011838554237849435,0.0012920225745415945,-0.005577831818293897,0.0057677626702953375,0.9926686414419754
2016-06-23,1,0.0025590552025036464,0.0029642568740328138,-0.005767798179487383,0.005173494349370334,0.9922380691397821
2016-06-27,1,0.003326811408366282,0.0038186313937051313,-0.005767798179487383,0.002269986092089263,0.9918474190239149
2016-06-29,1,0.001414637907681882,0.0015109384365946724,-0.005767798179487383,0.002269986092089263,0.9922429145287885
2016-07-01,1,0.0026887246527376937,0.003039457783469503,-0.005195121079053655,0.0019099261105894735,0.9931594681482675
2016-07-06,1,0.002581463800894493,0.002879147227902225,-0.005195121079053655,0.0019099261105894735,0.9934513211075731
2016-07-08,1,0.0026973103436369137,0.0030297778626716884,-0.005767798179487383,0.0019099261105894735,0.9924435742811839
2016-07-12,1,0.001918391117783134,0.0021401649490972504,-0.005195121079053655,0.0024155843375397177,0.9936989564413947
2016-07-14,1,0.0020623214526571377,0.002308159108238517,-0.005195121079053655,0.0024155843375397177,0.9933496255344602
2016-07-18,1,0.0021217615870072768,0.002410795099648365,-0.005767798179487383,0.0024155843375397177,0.9931883255077447
2016-07-20,1,0.0014456635938276245,0.0015954513633679326,-0.005932764642732248,0.003216496205625333,0.993253639975073
2016-07-22,1,0.0008882735963933526,0.0009134899062059919,-0.005882176953038786,0.002403224255490552,0.9933551581175295
2016-07-26,1,0.00038224109574367873,0.0004198093095481161,-0.005640670919925573,0.002403224255490552,0.9937423045378161
2016-07-28,-1,-0.001277485940545193,-0.001005293695374685,-0.00396359913202851,0.002640861541655027,0.9946217816664993
2016-08-01,-1,-0.0007555970019406294,-0.0005753653899612073,-0.00396359913202851,0.003216496205625333,0.9944622502599278
2016-08-03,-1,-0.0004601064469470793,-0.00033437829493621665,-0.00396359913202851,0.0029822081471490543,0.9948960481123472
2016-08-05,-1,-0.0002442778861720411,-0.00014590861691658762,-0.0033201643604096583,0.0029822081471490543,0.9960091225591616
2016-08-09,1,1.918595894999508e-05,7.264738975423603e-05,-0.00396359913202851,0.002566885549512656,0.9952355774871011
2016-08-11,1,0.00014122620992182793,0.00018572142902495415,-0.00675713243580824,0.0022191416900338647,0.9933740021619071
2016-08-15,-1,-0.00034291684048799704,-0.00023573266026239733,-0.0064788572934278066,0.002566885549512656,0.9931012557999302
2016-08-17,-1,-0.0005472932195773823,-0.000423026438514413,-0.00499444777951407,0.0022191416900338647,0.9934644213498244
2016-08-19,-1,-0.0007414767953164357,-0.000600497451000723,-0.00499444777951407,0.0022191416900338647,0.9935483696656815
2016-08-23,-1,-0.001004765850722197,-0.0008234881684620023,-0.00499444777951407,0.003750433682478436,0.992958201377086
2016-08-25,-1,-0.0006945828992315853,-0.0005599776787245175,-0.00499444777951407,0.0062962380878421485,0.9924074696887762
2016-08-29,-1,-0.00045906901299118803,-0.0003609775969061372,-0.006223821377986103,0.003750433682478436,0.9925342508840844
2016-08-31,-1,-0.0007284769157670883,-0.0005899598603414103,-0.0068937488372352446,0.0027321600884204224,0.9923259268129768
2016-09-02,-1,-0.0008563562775543224,-0.0006696609369629073,-0.007067298074562624,0.0022057302747049805,0.9922037753599998
2016-09-07,-1,-0.001674509172738751,-0.001395570828951261,-0.007067298074562624,0.0022057302747049805,0.9921038298255505
2016-09-09,-1,-0.003933559214756816,-0.003392895233724318,-0.005132744960783216,0.004697748823747367,0.9933841633075369
2016-09-13,-1,-0.004884106984378089,-0.004145091535392849,-0.006001295081077992,0.0022057302747049805,0.9937439582297597
2016-09-15,-1,-0.00448508778728241,-0.0038365369716335286,-0.006001295081077992,0.0051983685001236336,0.992960540747648
2016-09-19,-1,-0.0042246136188416675,-0.003624722762485583,-0.006250765525681614,0.0051983685001236336,0.9930446708948942
2016-09-21,-1,-0.003525622852318194,-0.0030149810599115786,-0.0066965626675693345,0.0032601284731040704,0.9938898401949485
2016-09-23,-1,-0.0019592924101852188,-0.0016944545899393202,-0.007184614857159747,0.002869272302745027,0.9942519717491026
2016-09-27,-1,-0.002248110746546257,-0.0019432209495697148,-0.008248797047261076,0.0032601284731040704,0.9937310541467057
2016-09-29,-1,-0.0020574291939329417,-0.0018195724929749833,-0.008248797047261076,0.0032601284731040704,0.9938057084061239
2016-10-03,-1,-0.0020134404664140762,-0.0017907409552743508,-0.008248797047261076,0.005567416157379323,0.9932976368003475
2016-10-05,-1,-0.002923752995087055,-0.002594436013715242,-0.008248797047261076,0.005567416157379323,0.9927373277081153
2016-10-07,-1,-0.0027719172268995847,-0.002424064457774531,-0.00873441130445839,0.003427001698562826,0.9926428728655101
2016-10-11,-1,-0.0030974898218979327,-0.0027225620891942236,-0.008436043677359378,0.00789422494255861,0.9920150665360996
2016-10-13,-1,-0.002612604180215981,-0.002283312955933498,-0.009304766916945744,0.004155605944075201,0.9917035074797076
2016-10-17,-1,-0.002627104719641419,-0.0023025917044558375,-0.009304766916945744,0.007283539195134781,0.9915239008454938
2016-10-19,-1,-0.0029127020237519853,-0.0025620014125383953,-0.009304766916945744,0.00789422494255861,0.9911926044829721
2016-10-21,-1,-0.0030157251962908576,-0.0026585504924831463,-0.008635616518064864,0.008403844712328795,0.9910207947255515
2016-10-25,-1,-0.003064837778168709,-0.002705313401150875,-0.0053651888592761675,0.008727176239603672,0.9910534141763419
2016-10-27,-1,-0.003568375347790213,-0.003145097965232863,-0.004989212890527006,0.008934443271777311,0.990245936032486
2016-10-31,-1,-0.002506076674950922,-0.0022318771099928214,-0.004989212890527006,0.008727176239603672,0.9911192012884298
2016-11-02,-1,-0.0037713004005662733,-0.0033575505590560635,-0.007085065638151598,0.008727176239603672,0.9908892361966221
2016-11-04,-1,-0.004185874122084031,-0.0037422302053720835,-0.0024560360635357114,0.008727176239603672,0.9908848318524
2016-11-08,-1,-0.003304190837373192,-0.0029718703349059777,-0.0024560360635357114,0.007643271836287524,0.9912986517275666
2016-11-10,-1,-0.003985214666161283,-0.0035885362276598482,-0.0024560360635357114,0.007643271836287524,0.9914630853389159
2016-11-14,-1,-0.0033139609313857076,-0.0030174677531225108,-0.0024560360635357114,0.009264193035448837,0.9913375159633213
2016-11-16,-1,-0.0023168365777910148,-0.0021791326684379745,-0.004704163321362882,0.009929121061408495,0.9908717876835981
2016-11-18,-1,-0.002197087537315948,-0.0020593363576923503,-0.003124344846215563,0.007184006943330186,0.991197861072882
2016-11-22,-1,-0.001159813421464801,-0.0011429873013852673,-0.003124344846215563,0.0065582211561196774,0.9918567392529772
2016-11-25,-1,-0.00055190685988254,-0.00043507117392315494,-0.0019223985179594733,0.0065582211561196774,0.9925535414690955
2016-11-29,-1,-0.0002391281385798721,-7.220112841918027e-05,-0.0036936828266884874,0.007219322893263609,0.9918244622775021
2016-12-01,-1,-0.001535677042324822,-0.0015106061331688566,-0.0019223985179594733,0.008089236627548943,0.9920145353279798
2016-12-05,-1,-0.0011979583381762262,-0.001166723010392299,-0.0009840574711278663,0.008378815518540516,0.9915393749922828
2016-12-07,-1,-0.0005355804983784851,-0.00041996573087647627,-0.0015802600720772808,0.008042366017938486,0.9924052176689445
2016-12-09,-1,-0.0005964125572891674,-0.0004930595969060631,-0.0038092048689996787,0.008042366017938486,0.9918666139256502
2016-12-13,1,6.111527518817567e-05,0.0002564004339368392,-0.00651556218488042,0.007626046490421647,0.9923952416774781
2016-12-15,1,0.0003839468139230711,0.0006083816974586226,-0.002822173827521788,0.007626046490421647,0.9930211729897587
2016-12-19,1,0.00024762773159954537,0.0004092976042290356,-0.005476109558569519,0.007626046490421647,0.992816021011976
2016-12-21,1,0.0005564180407479858,0.0007669110115257415,-0.005476109558569519,0.008042366017938486,0.9926624570180601
2016-12-23,1,0.0010638154134563794,0.0013520172571503998,-0.005476109558569519,0.007722572787418838,0.9928764064236876
2016-12-28,1,0.0010655952068007075,0.0013659107405681208,-0.005476109558569519,0.006616165646536945,0.993410694189662
2016-12-30,1,0.0011185150013767351,0.001433843921101981,-0.003958948427280981,0.005421760050816504,0.9940618155024259
2017-01-04,1,0.0018175332554524132,0.0022385570318478633,-0.004408675404439217,0.004052026390077668,0.9940521334592208
2017-01-06,1,0.001897658489814271,0.0023160428956120905,-0.005476109558569519,0.004052026390077668,0.9918664554324793
2017-01-10,1,0.0010552362458086458,0.0013558674887154329,-0.0036089616631078815,0.006994949606500921,0.9922746276610197
2017-01-12,1,0.0009751767499850906,0.0012582355804724953,-0.0033993578372289975,0.006994949606500921,0.9924164267580071
2017-01-17,1,0.00161237588842714,0.0019771055488807124,-0.0033993578372289975,0.005363832557825434,0.9930976627067283
2017-01-19,1,0.0014778563783297,0.0018367464443189041,-0.0026585575438319137,0.008437118367717572,0.9928521868552352
2017-01-23,1,0.001838927471592117,0.002257010971531575,-0.001764591020390945,0.012565680964544317,0.9917285886519837
2017-01-25,1,0.00198559663516623,0.0024195182063298784,-0.001764591020390945,0.012565680964544317,0.9918522197689849
2017-01-27,1,0.001919545583531973,0.0023621595331207953,-0.0008700710726108627,0.012565680964544317,0.992285880615924
2017-01-31,1,0.0015162534104786463,0.0018678234774413618,0.0007187434869010412,0.012565680964544317,0.9924045049304765
2017-02-02,1,0.0007216104333022534,0.0008681826502159841,0.0007187434869010412,0.012565680964544317,0.9921970221928721
2017-02-06,1,0.001716312443099614,0.001997803218878128,0.0007187434869010412,0.009115048706978586,0.9950496779019147
2017-02-08,1,0.0024610635227065077,0.0028307618050554496,0.00021949051074252366,0.0041728815700156595,0.9958147253626954
2017-02-10,1,0.002431858154596299,0.0027982172420795664,0.0007187434869010412,0.005416027969490215,0.9957943393442232
2017-02-14,1,0.0027166693595547563,0.003146800523855107,0.00021949051074252366,0.007379497009835794,0.9953380475889066
2017-02-16,1,0.003683210470464421,0.004273736344402265,-0.0015086812301832644,0.0041728815700156595,0.9950554007524673
2017-02-21,1,0.004859552693745594,0.0055925970582135515,-0.0015086812301832644,0.0029198274400909453,0.9952674216611437
2017-02-23,1,0.004746867694753923,0.0054438469182241,-0.002705780514465626,0.0027264143313698915,0.9952362580781959
2017-02-27,1,0.004772483283734936,0.005463838368730908,-0.0034275241877145687,0.002596697606238085,0.994772402736478
2017-03-01,1,0.0044110608810395855,0.005004764496071207,-0.0035330726526769875,0.0017848279638439232,0.9944677868700821
2017-03-03,1,0.004367370742322492,0.0049683509021046495,-0.0038241060032400973,0.0013959800741740996,0.9941753393691775
2017-03-07,1,0.003991567319809236,0.004509485419019291,-0.0038241060032400973,0.0015317236632857987,0.9944464784033225
2017-03-09,1,0.004153355546095201,0.004714560364873452,-0.004427189136269473,0.0012764940419855647,0.9936106598290813
2017-03-13,1,0.004253335550736494,0.004816357148446717,-0.004427189136269473,0.0015317236632857987,0.9936186747055726
2017-03-15,1,0.004013856192451946,0.004518328580244024,-0.003732577242249372,0.0015317236632857987,0.9941697091410172
2017-03-17,1,0.0034854484079602454,0.0039018752251791006,-0.003792634047528351,0.001925354030792395,0.9947430853861394
2017-03-21,1,0.0032929482574765813,0.0036699991321566838,-0.003792634047528351,0.0022157333030933687,0.9950651667591794
2017-03-23,1,0.0029117703908014088,0.00320574834063879,-0.005144318206951,0.001925354030792395,0.9948347627323055
2017-03-27,1,0.002917735190136471,0.0032411926650718764,-0.003792634047528351,0.0037396689250948347,0.995014765821005
2017-03-29,1,0.0019795777993907816,0.002096985439698746,-0.003792634047528351,0.0037396689250948347,0.9947962101450725
2017-03-31,1,0.001097855807861618,0.001142629300638741,-0.002588604103496153,0.0037396689250948347,0.9951408953492467
2017-04-04,1,0.001357473538601902,0.0013590470118025081,-0.00400893375897837,0.004134579918329308,0.9935902309957446
2017-04-06,0,-5.341081527074397e-05,0.00017112691101778136,-0.001700335166864363,0.005107504665662459,0.9936841229892713
2017-04-10,1,0.0001601611693824612,0.00035110935405644774,-0.0031833652976037156,0.005107504665662459,0.9934294710970634
2017-04-12,1,0.00041560360360368034,0.000568732475977428,-0.004433652459198904,0.004933561798039364,0.9932893976650118
2017-04-17,1,0.0005064935342048349,0.0006413061718227185,-0.003596485397425979,0.004539643670657768,0.9936248457632187
2017-04-19,1,0.0007561675794728049,0.0008450558048506071,-0.004828970164734677,0.004539643670657768,0.9928920113038062
2017-04-21,1,0.0003774431936854738,0.0005014813955307022,-0.0037954870520793393,0.004933561798039364,0.9927001986711043
2017-04-25,1,0.0008851494241489941,0.0009473363713304262,-0.004663734258115986,0.004119230703529926,0.9928221502277695
2017-04-27,-1,-0.0009167511559559007,-0.0005660705873544828,-0.0037954870520793393,0.006166040870116115,0.9927055430165223
2017-05-01,-1,-0.0012464301189019425,-0.0008561798494509843,-0.0037954870520793393,0.006166040870116115,0.9927325807074491
2017-05-03,-1,-0.0017690708982447117,-0.0013451892372881005,-0.0035348263597308072,0.005559888844768495,0.9938000340470555
2017-05-05,-1,-0.001487500720886971,-0.0010838726897309905,-0.0035348263597308072,0.005559888844768495,0.9941188772811594
2017-05-09,-1,-0.0014112321057576317,-0.0010438322953935672,-0.0016441492301765134,0.005559888844768495,0.9943159478441772
2017-05-11,-1,-0.001213426038360166,-0.0008918617061971405,-0.0016441492301765134,0.004943567643890897,0.994248144988239
2017-05-15,-1,-0.0011946887301907366,-0.0008806825551722221,-0.0005924379297311752,0.004943567643890897,0.9944016519425273
2017-05-17,-1,-0.0016780716260873139,-0.0013136939779502487,0.00010993118709966163,0.006637685900047849,0.9939712823261155
2017-05-19,-1,-0.0012249458081776822,-0.000932123128915072,0.00010993118709966163,0.006637685900047849,0.9941450468632061
2017-05-23,-1,-0.0016062279577820473,-0.001256081629653777,-0.0005924379297311752,0.006637685900047849,0.9939308510167131
2017-05-25,-1,-0.0007249683458107871,-0.0004668276853219735,-0.0016200473559725055,0.004943567643890897,0.9955462730581748
2017-05-30,-1,-0.0005419712883831024,-0.00033276754655076686,-0.0037062962621770613,0.004943567643890897,0.9946391206114199
2017-06-01,-1,-0.00029706675096965323,-0.00012284370356024238,-0.005444562041290763,0.0038899982110492852,0.9937253597484218
2017-06-05,-1,-0.0007336227556098187,-0.00045569896735202285,-0.005444562041290763,0.0037494242005937143,0.9939075713466707
2017-06-07,-1,-0.0007873901396946992,-0.0004928470440717733,-0.005444562041290763,0.0031188731931215373,0.9939657259379449
2017-06-09,-1,-0.0006286915260841667,-0.00038512327548968176,-0.005444562041290763,0.0031188731931215373,0.9940053718230405
2017-06-13,-1,-0.0009158146226594417,-0.0006146276482950355,-0.00581214388451994,0.0031188731931215373,0.9935412286233303
2017-06-15,0,-0.00015979594666855551,5.237962801249961e-05,-0.00581214388451994,0.0024959234058463927,0.993722277686374
2017-06-19,1,4.635106087450436e-05,0.0002306596442136717,-0.00581214388451994,0.0008832639858725813,0.9943038688044743
2017-06-21,-1,-0.0008939205623067912,-0.0005769552418828195,-0.005690057292655004,0.002483529053467827,0.9946063688015351
2017-06-23,-1,-0.001325242588167592,-0.0009434865520585554,-0.006650730643072444,0.00277038572385065,0.994006319125013
2017-06-27,-1,-0.0020588013858509717,-0.001590870899634794,-0.005690057292655004,0.004093246740887308,0.9941254039757118
2017-06-29,-1,-0.002721122384746406,-0.0022242768235010667,-0.005515442632740142,0.004300988306627446,0.9944431911187148
2017-07-03,-1,-0.001960314232503007,-0.0016035418003277084,-0.005515442632740142,0.004775782856698824,0.9944326595012202
2017-07-06,-1,-0.0020119035018954083,-0.0016484146247578804,-0.006650730643072444,0.005453695776087777,0.9932126973563931
2017-07-10,-1,-0.0020139266104736812,-0.0016588446612652674,-0.005617543637199926,0.0060369681994320796,0.9932907094389587
2017-07-12,-1,-0.0021136690132158354,-0.0017891890436088332,-0.005446562166842743,0.0060369681994320796,0.9935341178531767
2017-07-14,-1,-0.001032011859904338,-0.0009122154702864422,-0.004019004028203903,0.005453695776087777,0.993873418384001
2017-07-18,-1,-0.0010325503182320043,-0.0009195122771953931,-0.004019004028203903,0.0060369681994320796,0.9932238431169989
2017-07-20,-1,-0.0010717087712150619,-0.000964453997395768,-0.002839535791600209,0.0060369681994320796,0.9933075022602854
2017-07-24,-1,-0.0007569875418540385,-0.0006982836617981176,-0.002183062167670378,0.0060369681994320796,0.9935239676924087
2017-07-26,-1,-0.00011264545446088643,-9.657599972817519e-05,-0.002400288183671368,0.005453695776087777,0.9943019679303063
2017-07-28,-1,-0.0002686604871858345,-0.00026544858105195096,-0.002400288183671368,0.0053942104450427466,0.9942529010848552
2017-08-01,-1,-0.00011825391820195918,-9.838438476284084e-05,-0.0020842130006937984,0.004867800076101398,0.9946401652001887
2017-08-03,1,0.0005255879577223865,0.000651320382962634,-0.0018389021063628466,0.004867800076101398,0.9958238531140189
2017-08-07,1,0.0008191398710545053,0.000991526211269792,-0.0020842130006937984,0.00423576069097039,0.9960174684742604
2017-08-09,1,0.0003393515268626141,0.0004314394773230417,-0.0020842130006937984,0.00423576069097039,0.9955713358304131
2017-08-11,1,0.00038757086429486203,0.00048642077910951805,-0.0023493768170866217,0.004867800076101398,0.9947262357335617
2017-08-15,1,0.0009422656917635612,0.001115478878162941,-0.002862462967248794,0.004020007867211517,0.9947111628872759
2017-08-17,1,0.001092834556812329,0.0012762760096816296,-0.002862462967248794,0.004292496095516439,0.9942598374009992
2017-08-21,1,0.0014024482580725973,0.001610898271364524,-0.002862462967248794,0.004700314973881306,0.9943837341629485
2017-08-23,1,0.0011808483807338244,0.0013400227197331264,-0.011378827074180616,0.004700314973881306,0.9921781567346413
2017-08-25,1,0.0008246694605515047,0.0009340868991965804,-0.011098406434822905,0.004924225822888247,0.9921823861838317
2017-08-29,1,0.0004960981115789284,0.0005304775020491563,-0.012108473261826735,0.004994570910000749,0.9912193197148153
2017-08-31,1,0.0009059505927980199,0.0010056788587241097,-0.012108473261826735,0.005245417952621938,0.9907997144709836
2017-09-05,1,0.0009680289346305688,0.0010907985275579648,-0.014284089961696106,0.005245417952621938,0.990101706911888
2017-09-07,1,0.00036130494462139934,0.0004105434275861934,-0.014722829086400642,0.005649772636777965,0.9894342299969688
2017-09-11,1,0.0001514875343378582,0.0001812188224881339,-0.01231716140007039,0.005245417952621938,0.9898907659765609
2017-09-13,-1,-0.00036648838619534143,-0.00031323327626042426,-0.01231716140007039,0.007324991122809308,0.9894660199853544
2017-09-15,1,0.0005885397763625807,0.0006877377589670508,-0.01231716140007039,0.005649772636777965,0.9902586300226167
2017-09-19,1,0.0006136782412588183,0.0006772758914687168,-0.01231716140007039,0.005649772636777965,0.9904918735612002
2017-09-21,-1,-0.0014883810471777524,-0.0012906922113411576,-0.0077308516065961765,0.005649772636777965,0.9915518219396982
2017-09-25,-1,-0.00210447229209182,-0.0018013988924651873,-0.0077308516065961765,0.006286408252501873,0.9910437137105881
2017-09-27,-1,-0.0021518571384288657,-0.0018696877163237092,-0.0077308516065961765,0.005624698830321547,0.9915932253831553
