JNU-Tangyin/eata/results/Batch4_SP500/Batch4_SP500-AON.csv
Date,Action,Predicted_Q25,Predicted_Q75,Actual_Q25,Actual_Q75,RL_Reward
2010-12-14,0,0.0,0.003928676314422084,-0.005291502720885148,0.0038555079473810146,0.9959684056056054
2010-12-16,1,0.0009695450151358485,0.0010362535492097792,-0.004001250031883954,0.004648338828928609,0.9940595410883953
2010-12-20,0,0.0,0.0,-0.005448819441965501,0.0031859074919420595,0.9946492996583114
2010-12-22,0,0.0,0.0,-0.005448819441965501,0.0031859074919420595,0.9944944824242418
2010-12-27,0,0.0,0.0,-0.006912340539997024,0.004336436558735503,0.9936495530232362
2010-12-29,0,0.0,0.0,-0.006912340539997024,0.004340217910684263,0.9936807281187247
2010-12-31,0,0.0,0.0,-0.007207030071069024,0.004843696391410681,0.9927722105105533
2011-01-04,0,0.0,0.0,-0.005376756381635349,0.006477064137407052,0.9931935648115059
2011-01-06,0,0.0,0.0,-0.005106647264728639,0.009755183661202897,0.9910897669473829
2011-01-10,1,0.0019269484166487285,0.0019576073366993217,-0.0014210848267411638,0.011214059811752997,0.9914799490949944
2011-01-12,1,0.0006277570178180453,0.0007033790328664189,5.881810045073842e-05,0.011214059811752997,0.9909609985671294
2011-01-14,0,0.0,0.0,0.0019358913463694556,0.011214059811752997,0.990408480570409
2011-01-19,0,0.0,0.0,0.0028885384482186124,0.011214059811752997,0.9900740983948076
2011-01-21,0,0.0,0.0,0.0023625535770219796,0.011251615560467011,0.9898288821628121
2011-01-25,0,0.0,0.0,0.001889919500084488,0.010349329122577761,0.9898707849558535
2011-01-27,1,0.0024816760579478335,0.0025215175158341016,0.0002169115524906539,0.011037033157547935,0.990691848593833
2011-01-31,1,0.0021122370337746782,0.0021371679674503322,0.0002169115524906539,0.011037033157547935,0.9908112830663895
2011-02-02,1,0.0022499947570445876,0.002259479027164389,-0.0018538067924175723,0.011037033157547935,0.989602770360436
2011-02-04,0,0.0,0.0,-0.005285212141138366,0.010290792298306243,0.9904918207159967
2011-02-08,1,0.0023910654675937198,0.002530379949688224,-0.006308318272089734,0.009227087635218992,0.9910357186407079
2011-02-10,1,0.002670310537472254,0.0028794726228418646,-0.008555519260969667,0.009759426476499031,0.9888607004741552
2011-02-14,1,0.0030367859848004497,0.003286482455542139,-0.008555519260969667,0.009759426476499031,0.9890337702213716
2011-02-16,1,0.003749324137932882,0.004103223446590951,-0.010190082733594907,0.009633444254144787,0.9882550933661284
2011-02-18,1,0.004132429490818051,0.004532801656197804,-0.010190082733594907,0.008359769484267605,0.9889694703141425
2011-02-23,1,0.003317745563417414,0.003579452965340451,-0.009660951445790765,0.008359769484267605,0.9893083172533355
2011-02-25,1,0.0034012626946415443,0.003667229629331923,-0.009660951445790765,0.008359769484267605,0.9894107841685842
2011-03-01,1,0.0029633795686475014,0.0031762473759927973,-0.008555519260969667,0.008359769484267605,0.9902955934817724
2011-03-03,0,0.0,0.0,-0.006308318272089734,0.00801657117395279,0.9910068820640671
2011-03-07,0,0.0,0.0,-0.0007721814087103613,0.008359769484267605,0.9909591101788859
2011-03-09,0,0.0,0.0,-0.0007721814087103613,0.00801657117395279,0.9912975650639864
2011-03-11,0,0.0,0.0,-0.0007721814087103613,0.00801657117395279,0.9925731030613849
2011-03-15,0,0.0,0.0,-0.0035613177455610795,0.005215380949329236,0.9924810424473871
2011-03-17,1,0.0024002772196764625,0.002447182291472942,-0.0031739059252291345,0.0047557187326641645,0.9937343748373407
2011-03-21,0,0.0,0.0,-0.0055292257928470905,0.004738563491554211,0.9924451276866558
2011-03-23,0,0.0,0.0,-0.0025963898349535067,0.006307976968177296,0.9925513421606756
2011-03-25,0,0.0,0.0,-0.0025963898349535067,0.005628075137634603,0.993011123907519
2011-03-29,0,0.0,0.0,-0.0025963898349535067,0.006307976968177296,0.9927177872998019
2011-03-31,0,0.0,0.0,-0.0055292257928470905,0.0066927663865950756,0.9915630018067941
2011-04-04,0,0.0,0.0,-0.0055292257928470905,0.006274256671098045,0.991731470050704
2011-04-06,0,0.0,0.0,-0.006647807067596649,0.006274256671098045,0.9916860682350672
2011-04-08,0,0.0,0.0,-0.0025963898349535067,0.005628075137634603,0.9926797106881002
2011-04-12,0,0.0,0.0,-0.0025963898349535067,0.006274256671098045,0.9930218039420976
2011-04-14,0,0.0,0.0,-0.00234750444872769,0.007231441552728516,0.993007964084769
2011-04-18,0,0.0,0.0,-0.00234750444872769,0.007231441552728516,0.9932070375490013
2011-04-20,-1,-0.0006800204067742182,-0.0005050892876958693,-0.001463226142160348,0.005947136764844759,0.9933696562471191
2011-04-25,0,0.0,0.0,-0.007176026220835931,0.005631169072465326,0.993079338200682
2011-04-27,0,0.0,0.0,-0.00733183374854442,0.005631169072465326,0.9927384026059941
2011-04-29,0,0.0,0.0,-0.00733183374854442,0.005124198702272785,0.9935193837359443
2011-05-03,0,0.0,0.0,-0.008348466006162838,0.005124198702272785,0.9927402064305385
2011-05-05,-1,-0.000306422212778714,-0.00012469153798971768,-0.00733183374854442,0.005124198702272785,0.9932474608359103
2011-05-09,1,7.010176869783253e-05,0.00018529223656492004,-0.00733183374854442,0.0049048376709007946,0.9933837269446908
2011-05-11,0,-0.0001111422374129542,3.49928773263199e-05,-0.008348466006162838,0.004863793799477665,0.9929464429718284
2011-05-13,1,0.00012280860822855635,0.00022120048078750373,-0.01055756915758093,0.004863793799477665,0.9926249563062893
2011-05-17,1,1.2145300479723703e-05,0.00010749260090160017,-0.01055756915758093,0.004863793799477665,0.9922135515659963
2011-05-19,0,-4.801512237029065e-05,6.222532807176231e-05,-0.011183395002436852,0.004863793799477665,0.9917247537297086
2011-05-23,-1,-0.0004970918578057008,-0.0003306751619821807,-0.011183395002436852,0.005053822642246656,0.9916718928811853
2011-05-25,-1,-0.0005736031353423364,-0.00039667700323571764,-0.011900945957065525,0.004863793799477665,0.9916903939767215
2011-05-27,-1,-0.001221199864620147,-0.0009446707362856428,-0.011900945957065525,0.004121636165140703,0.9921872046861031
2011-06-01,-1,-0.001346739161681825,-0.0010462579812805725,-0.007341382028557723,0.005053822642246656,0.9920654923022012
2011-06-03,-1,-0.0016343944794442603,-0.001273729966271531,-0.007341382028557723,0.008225832896268194,0.9910985086240818
2011-06-07,-1,-0.001810293750000371,-0.0014231328087514865,-0.007341382028557723,0.008225832896268194,0.9912356989084001
2011-06-09,-1,-0.0018159584966096734,-0.0014639896916888674,-0.004073595930179625,0.008225832896268194,0.9920009355779615
2011-06-13,-1,-0.002130557202340907,-0.0017298237519725748,-0.004073595930179625,0.009270838775263987,0.991386009724638
2011-06-15,-1,-0.002146009638197907,-0.0017607983647790213,-0.006460466565025815,0.008225832896268194,0.991942097151684
2011-06-17,-1,-0.002482892625948853,-0.0020616183094694946,-0.008040760422460706,0.008225832896268194,0.991320657941828
2011-06-21,-1,-0.0021811667343610637,-0.0017927265434024152,-0.008040760422460706,0.008225832896268194,0.9913952095011701
2011-06-23,-1,-0.002895004610067233,-0.002409618459293615,-0.004600360549324589,0.009455852480672598,0.9910744156707756
2011-06-27,-1,-0.0027574258536801075,-0.002302039200918548,-0.004600360549324589,0.009455852480672598,0.9909376635912756
2011-06-29,0,0.0,0.0,-0.00891928879818527,0.007097150958035703,0.9913833548191954
2011-07-01,0,0.0,0.0,-0.010988296396825914,0.004050043674800904,0.9908284314776745
2011-07-06,-1,-0.0008169866242854816,-0.0006627543815874706,-0.011843520118809826,0.006024629395028848,0.9901519363832421
2011-07-08,-1,-0.00032736268588713473,-0.00026340629120585185,-0.016713770642338047,0.004050043674800904,0.9878247656554345
2011-07-12,-1,-0.000264960183320413,-0.0002300687234019217,-0.016982669454061364,0.004050043674800904,0.9816470124647284
2011-07-14,-1,-0.00041897652751830193,-0.00039416551749644964,-0.02087990962272633,0.006289664183527397,0.9779941154301882
2011-07-18,-1,-0.001488030619128822,-0.0013169366637370136,-0.01820755440290376,0.008697463487756971,0.9783901449101262
2011-07-20,0,0.0,0.0,-0.01820755440290376,0.007903322017449716,0.9780915404746711
2011-07-22,-1,-0.0004824522641407825,-0.00041536572868111475,-0.024844352555514135,0.006289664183527397,0.9767941548033213
2011-07-26,-1,-0.00034379142709181333,-0.00029600155377506357,-0.024844352555514135,0.007903322017449716,0.9742163688077718
2011-07-28,0,0.0,0.0,-0.024844352555514135,0.007903322017449716,0.9748926585422558
2011-08-01,-1,-0.0021202000923328844,-0.0018476541631692854,-0.018503132349712306,0.0198445384116277,0.9746223986342338
2011-08-03,-1,-0.0022276965483313095,-0.001949071862714953,-0.018503132349712306,0.0198445384116277,0.9752805415437921
2011-08-05,-1,-0.003318843460295766,-0.002946681576292115,-0.01310932147469638,0.0198445384116277,0.97588754379316
2011-08-09,-1,-0.002308259376421997,-0.0020444411095079584,-0.01085899971088398,0.0198445384116277,0.9814223977284763
2011-08-11,-1,-0.002692691959759709,-0.0024095624770310723,-0.012923117326187717,0.010955364159459913,0.9839994724608377
2011-08-15,0,0.0,0.0,-0.01361273567553958,0.0025175705486769322,0.9837016128311352
2011-08-17,0,0.0,0.0,-0.01361273567553958,0.005978458379128016,0.9833859061316896
2011-08-19,0,0.0,0.0,-0.012596541725140326,0.009211770125049826,0.9847907897423663
2011-08-23,-1,-0.001964860913320771,-0.0018024238980796031,-0.012596541725140326,0.0024783628573544735,0.9857216294753035
2011-08-25,0,0.0,0.0,-0.01361273567553958,0.0024783628573544735,0.9840984933209634
2011-08-29,0,0.0,0.0,-0.01361273567553958,0.0024783628573544735,0.9847664498769574
2011-08-31,-1,-0.0013838752347492696,-0.0013781723776749698,-0.016060685161544463,0.007167883263712806,0.9815982000095649
2011-09-02,-1,-0.0031776111787777976,-0.0029385064749491226,-0.016060685161544463,0.007167883263712806,0.9822527826869648
2011-09-07,-1,-0.0031187152659959026,-0.002910278986238154,-0.016060685161544463,0.013277392424184263,0.9808500484712223
2011-09-09,-1,-0.004910751748687924,-0.004469251244503095,-0.013542837882174995,0.01693144237673721,0.981564195398889
2011-09-13,-1,-0.0052710350129286775,-0.004810782038237343,-0.013236122611872741,0.01894495513640633,0.9803614837292989
2011-09-15,-1,-0.004343355269299256,-0.004010864255659976,-0.013236122611872741,0.01693144237673721,0.9809870684676967
2011-09-19,-1,-0.004104170717042711,-0.0038228041437366645,-0.015168591965268548,0.01693144237673721,0.9807025417252494
2011-09-21,-1,-0.0063741646852588695,-0.005820725550065649,-0.0117444878157008,0.02028381108966818,0.9797438359866383
2011-09-23,-1,-0.006688873123905727,-0.0061257879285129616,-0.004339797563031708,0.025869274153820798,0.976927895054433
2011-09-27,-1,-0.005517970014000824,-0.005083115489945905,-0.009265510118480836,0.025869274153820798,0.9775081480284745
2011-09-29,-1,-0.004939585411211899,-0.0045822976224003855,-0.004339797563031708,0.02481179715742958,0.9794458761372583
2011-10-03,-1,-0.006084451661892175,-0.005622065981567834,-0.0062749372256160904,0.02481179715742958,0.9767277615159875
2011-10-05,-1,-0.002569161265968607,-0.002511488965158606,-0.015168591965268548,0.019057485985425015,0.9788970246464623
2011-10-07,-1,-0.0024392373319479838,-0.002383408044043581,-0.0062749372256160904,0.019057485985425015,0.9797181267275573
2011-10-11,-1,-0.001647950241687477,-0.0015870239618541492,-0.0062749372256160904,0.017562545277364887,0.9802576570859708
2011-10-13,-1,-0.001503629082459424,-0.0014489652311142358,-0.015443979695603093,0.017562545277364887,0.9803028580192023
2011-10-17,-1,-0.0015868569920879628,-0.0015396233609503772,-0.014122058405817527,0.017562545277364887,0.9800791492578681
2011-10-19,0,-0.00021388381585941605,9.968896004218476e-06,-0.017013856680439587,0.015898205272636422,0.9819521514273811
2011-10-21,0,0.0,0.0,-0.017013856680439587,0.013317960791319625,0.9839093149919383
2011-10-25,0,0.0,0.0,-0.01781697006336513,0.009443732715834667,0.9839050554267511
2011-10-27,0,0.0,0.0,-0.01781697006336513,0.0038226405985964215,0.9847422341273412
2011-10-31,0,0.0,0.0,-0.014481143942405189,0.008835374608494437,0.9881925183601155
2011-11-02,-1,-0.0006898130600799172,-0.0005552888157073102,-0.01342806256538245,0.008835374608494437,0.9891738861838215
2011-11-04,-1,-0.0003272929218130716,-0.0001609619591246837,-0.01342806256538245,0.0065122605748769765,0.989231555890369
2011-11-08,0,-5.630877414460327e-05,0.00012423257571682854,-0.01342806256538245,0.0035931414038945946,0.9899892352979346
2011-11-10,-1,-0.0002814512717797491,-0.0001037768329201316,-0.01030308648377453,0.0065122605748769765,0.9899852738018674
2011-11-14,-1,-0.0005685536284596793,-0.00046781121626517666,-0.01474884840338037,0.0035931414038945946,0.9895326483019813
2011-11-16,-1,-0.0009035146733934923,-0.0007934645466848316,-0.010422781662637083,0.0065122605748769765,0.9896862109593096
2011-11-18,-1,-0.0009943732511337468,-0.0008759629139122683,-0.00813154390816932,0.0065122605748769765,0.9897736306435662
2011-11-22,-1,-0.0017544064797559255,-0.001700910107654355,-0.006555772786457128,0.01080848662055382,0.9894739981804769
2011-11-25,-1,-0.0012739948121212276,-0.0011192904506237503,-0.005420319697514074,0.01080848662055382,0.9897181657884493
2011-11-29,-1,-0.00106996063532674,-0.0009162034264485063,-0.006616614143454633,0.01080848662055382,0.9898427444662478
2011-12-01,1,6.060441996468902e-05,0.00039847302061563885,-0.006616614143454633,0.0068359864034287674,0.9916312485566173
2011-12-05,1,0.00014248116523639897,0.00042412541735740257,-0.0077692797450515305,0.0068359864034287674,0.9909208472373904
2011-12-07,0,-0.0001217150097450909,6.470443911886991e-05,-0.007769528839880328,0.006891782345912872,0.9903220499659384
2011-12-09,1,0.0003159454490592082,0.0006273800014217472,-0.007741699514882223,0.006811152608561915,0.9907758283850966
2011-12-13,-1,-0.0007314006382231422,-0.0005735894587179289,-0.0063393259948157955,0.006811152608561915,0.9918480953599238
2011-12-15,1,0.0005621829217987413,0.0009506948111104641,-0.0069097520373561086,0.0055670049246335125,0.9923197608909107
2011-12-19,-1,-0.0006098646918357789,-0.0004727023106414037,-0.003892148785718214,0.010177978786945518,0.9915651375831424
2011-12-21,-1,-0.00039163185930911744,-0.00024720379224861755,-0.006711565327525742,0.0055670049246335125,0.9932224946922353
2011-12-23,0,-9.99739331303545e-05,7.89255243916734e-05,-0.006711565327525742,0.0055670049246335125,0.9935475389239016
2011-12-28,-1,-0.0010437690127318667,-0.0010144388603743723,-0.0037255629908792293,0.006715512477376243,0.9931845788130873
2011-12-30,1,1.5276390679038647e-05,0.0002002576342072631,-0.004306612613755936,0.009690392326834135,0.9931210929171909
2012-01-04,0,-2.878522293302385e-05,0.00019708044923773564,-0.002950279232558785,0.01002321109068803,0.9932503871265529
2012-01-06,1,0.0005471647790033705,0.0008308267064180777,-0.002950279232558785,0.01002321109068803,0.9926036768322367
2012-01-10,1,0.0010779374396219375,0.0014294454320463216,-0.002950279232558785,0.01002321109068803,0.9926989532572459
2012-01-12,1,0.0003378483158411456,0.0005131213015932341,-0.0020766127744515214,0.01002321109068803,0.9929652870354077
2012-01-17,1,0.0002589857311033082,0.0004834240282990356,-0.0020766127744515214,0.01002321109068803,0.9930934428583452
2012-01-19,1,0.0008256793654915416,0.001094096701164648,-0.004149847387223922,0.004765771978721783,0.9933129560306859
2012-01-23,1,0.0013911255167657528,0.0017658459051775397,-0.002950279232558785,0.004765771978721783,0.9936089472685669
2012-01-25,1,0.0013232278107764273,0.0017124183639599703,-0.00227029598207709,0.004620207165567875,0.9938229475479223
2012-01-27,1,0.0012707974491409646,0.0015161458845659483,-0.004149847387223922,0.0026413493974228076,0.9935656100246129
2012-01-31,1,0.0016398101452494082,0.0019579918604677666,-0.006506925014281292,0.001722347655728912,0.9930731798778769
2012-02-02,0,0.0,0.0,-0.006506925014281292,0.001722347655728912,0.9937843118277094
2012-02-06,0,0.0,0.0,-0.005143657638682742,0.0018868515170078286,0.9948545684209361
2012-02-08,0,0.0,0.0,-0.005143657638682742,0.0018868515170078286,0.9950638635174205
2012-02-10,0,0.0,0.0,-0.005143657638682742,0.0028162974333678864,0.9945201908688618
2012-02-14,0,0.0,0.0,-0.0016865736327752894,0.0049230199928800185,0.9942204855666431
2012-02-16,0,0.0,0.0,-0.0004778052589600932,0.0049230199928800185,0.994880043972637
2012-02-21,-1,-0.001154914776568702,-0.0008707974357663652,-0.0006262375147616,0.0049230199928800185,0.9942725338081735
2012-02-23,0,0.0,0.0,-0.0028271430966907395,0.0031043442127450787,0.9948858856737385
2012-02-27,0,0.0,0.0,-0.0014826849557365743,0.006503621724316892,0.9949532034536863
2012-02-29,0,0.0,0.0,-0.0014826849557365743,0.006831556252899162,0.9948312667815425
2012-03-02,0,0.0,0.0,-0.002711615292723463,0.006503621724316892,0.9950359376232568
2012-03-06,0,0.0,0.0,-0.0014826849557365743,0.006503621724316892,0.9951886364371315
2012-03-08,0,0.0,0.0,-0.004182986736038199,0.00483100908706084,0.9947703818294317
2012-03-12,0,-0.00013321136612239222,0.00014898253919088278,-0.005332574488880701,0.0035220175684362053,0.9944216591520922
2012-03-14,1,0.0013813780637285677,0.0015542981398635025,-0.005332574488880701,0.004048884812248497,0.9935709877467215
2012-03-16,1,0.0012865988749038019,0.0015067499510709784,-0.005332574488880701,0.004048884812248497,0.9936649902110323
2012-03-20,1,0.0013785741118000163,0.0016466049275766451,-0.004630485272513523,0.006555523535441627,0.9936038885516846
2012-03-22,1,0.0013398516924891936,0.0015543353090862388,-0.004283901860611693,0.007352976373649541,0.9932571578274281
2012-03-26,1,0.000758997148851448,0.0008168681141063596,-0.004283901860611693,0.00916564076463322,0.9929823639027303
2012-03-28,1,0.0015965780063559114,0.0017609439058675702,-0.002243134361400996,0.011237440230869616,0.9928806486722306
2012-03-30,1,0.0016434748467022298,0.0018255121174188386,-0.002459577289941766,0.011237440230869616,0.9926825013838867
2012-04-03,1,0.002159838813272777,0.002390634772907292,-0.005383597607521818,0.011237440230869616,0.9921280026461713
2012-04-05,1,0.0012788232959025066,0.0013933705936116244,-0.006472787854841276,0.011237440230869616,0.9896978317038907
2012-04-10,1,0.00018404051963314866,0.00019982397978683547,-0.0030002835538349287,0.011237440230869616,0.9902175473684929
2012-04-12,0,0.0,0.0,-0.0030002835538349287,0.0068905489687197015,0.9912989103230664
2012-04-16,0,0.0,0.0,-0.006390671211452512,0.0068905489687197015,0.991063587687055
2012-04-18,0,0.0,0.0,-0.0064661468598855975,0.004604732682226449,0.9903654271287275
2012-04-20,0,0.0,0.0,-0.007209093855682544,0.003619289798754149,0.9902929966122932
2012-04-24,0,0.0,0.0,-0.007209093855682544,0.0024345583168781555,0.9904227895476176
2012-04-26,0,0.0,0.0,-0.007209093855682544,0.0024345583168781555,0.9906485589476451
2012-04-30,0,0.0,0.0,-0.007142488751682429,0.0016287577360792047,0.9910363494590119
2012-05-02,0,0.0,0.0,-0.007368459903081294,0.0016287577360792047,0.9904659764363576
2012-05-04,0,0.0,0.0,-0.007368459903081294,0.002371871432686239,0.9918923744049984
2012-05-08,0,0.0,0.0,-0.007368459903081294,0.004086715542989667,0.9903556418547002
2012-05-10,0,0.0,0.0,-0.009991199910650388,0.00417166009795154,0.9897783537972348
2012-05-14,1,4.155591382974224e-05,4.4103646545831204e-05,-0.011381044305386577,0.0064140899741556975,0.988679761686393
2012-05-16,0,0.0,0.0,-0.010860466869354542,0.0064140899741556975,0.9891456159822875
2012-05-18,0,0.0,0.0,-0.005067438161852042,0.010654319049843902,0.9894110517852848
2012-05-22,0,0.0,0.0,-0.005067438161852042,0.0069124245225854605,0.9896783562252364
2012-05-24,0,0.0,0.0,-0.010885205194649148,0.004193583251024874,0.9896857926986309
2012-05-29,-1,-0.0008691446242589262,-0.000691758302714506,-0.01233234317038151,0.004193583251024874,0.9889004064089648
2012-05-31,-1,-0.0016693341215001348,-0.0013955181477525232,-0.010885205194649148,0.005264749049381266,0.9891943858605381
2012-06-04,-1,-0.0021831784742398176,-0.0018708792128172458,-0.008533181492720284,0.012282982701485565,0.9889335460278968
2012-06-06,-1,-0.00123145753319141,-0.0010223263873616645,-0.008533181492720284,0.00877015777654984,0.990264812808447
2012-06-08,-1,-0.0015963779471372432,-0.001337584755833504,-0.008533181492720284,0.00877015777654984,0.9900255285854662
2012-06-12,-1,-0.0011813987621752406,-0.0010076211324874956,-0.006421193860836604,0.007948444755764443,0.9907324946430456
2012-06-14,0,0.0,0.0,-0.005930960325238765,0.009394503379491046,0.9909359190224994
2012-06-18,0,0.0,0.0,-0.005930960325238765,0.007948444755764443,0.9911683054831042
2012-06-20,0,0.0,0.0,-0.006421193860836604,0.007948444755764443,0.9909905920991885
2012-06-22,0,0.0,0.0,-0.006902064637200808,0.007948444755764443,0.9913095871781988
2012-06-26,0,0.0,0.0,-0.006902064637200808,0.007948444755764443,0.9916680913099484
2012-06-28,0,0.0,0.0,-0.006117711094891792,0.007948444755764443,0.9892961197396245
2012-07-02,0,0.0,0.0,-0.0071118391924936625,0.007427001586024493,0.9899523542738954
2012-07-05,0,0.0,0.0,-0.0071118391924936625,0.006872677672018954,0.9901775293890782
2012-07-09,0,0.0,0.0,-0.006117711094891792,0.0077740822009093324,0.9899857517378148
2012-07-11,1,0.00026748761260377647,0.0003185060649801112,-0.005271305195063551,0.009464366133064202,0.9898046337535973
2012-07-13,1,0.0005537206909756011,0.0005719360405000986,-0.005271305195063551,0.00787395281358379,0.989867812494731
2012-07-17,1,0.0008343468038579136,0.0008772925371826311,-0.004375270991921129,0.00787395281358379,0.9901312718370069
2012-07-19,1,0.0003033150124428249,0.00034953932048632124,-0.0032852477548144794,0.009464366133064202,0.989887183314361
2012-07-23,-1,-0.00030893773931085663,-0.0001588058776540976,-0.0014418820443529979,0.009464366133064202,0.9900753851359829
2012-07-25,-1,-0.0005227877770552494,-0.0003657979141152118,0.0002206871200493034,0.009464366133064202,0.9900027305024223
2012-07-27,1,0.0015941652786092796,0.001684191999099045,-0.0032852477548144794,0.00787395281358379,0.993428238787284
2012-07-31,1,0.0018637559076952743,0.0020063202089744005,-0.0032837072051396885,0.006876915517962086,0.9942117401531566
2012-08-02,1,0.002186494911065086,0.0024038221433329175,-0.0032837072051396885,0.006759754887807128,0.994162942653634
2012-08-06,1,0.0029667202774850527,0.003315131031925911,-0.003505158167377745,0.005370513224409517,0.995096819013176
2012-08-08,1,0.003602252654995993,0.004031928727503711,-0.0037061750181905245,0.004870240370096355,0.9946671803056256
2012-08-10,1,0.0036198553370553384,0.004036791080259914,-0.004462377735985886,0.004601712948801516,0.9940053969999623
2012-08-14,1,0.0036671191201690136,0.004070244255620028,-0.004462377735985886,0.004439410323057959,0.9940762677978927
2012-08-16,1,0.00440018432458304,0.004928022768811438,-0.004462377735985886,0.004439410323057959,0.9933318807555396
2012-08-20,1,0.004347180898946937,0.00487060436584719,-0.005820061303094256,0.004006409520974046,0.9930897613348516
2012-08-22,1,0.004022359578391399,0.0044947076109388105,-0.004462377735985886,0.004006409520974046,0.9934309000574092
2012-08-24,1,0.003682698819019055,0.00411163678237263,-0.004300286716964548,0.002105337308749812,0.9937591191442157
2012-08-28,1,0.0030826203694033537,0.0033925789708493426,-0.005287384416886874,0.002105337308749812,0.993659347581604
2012-08-30,1,0.00224811989194892,0.002395585562440087,-0.004300286716964548,0.004112275272320363,0.9938169608116327
2012-09-04,1,0.00262247663308784,0.002868867212040725,-0.004300286716964548,0.005424054684251367,0.9930105129400485
2012-09-06,1,0.002737168938901959,0.0029934210671117103,-0.0037216216422155507,0.004873953835724746,0.9936885875040143
2012-09-10,1,0.0023668045731223587,0.002596618429024378,-0.003460470686258081,0.007835199726196377,0.993919595981283
2012-09-12,1,0.0028565766463847985,0.00317759896304273,-0.0046066744541816895,0.007835199726196377,0.9927835512833354
2012-09-14,1,0.003759821670063338,0.004225224677201966,-0.0046066744541816895,0.0034873342465296846,0.9929653218496397
2012-09-18,1,0.0038596849926491195,0.004397872420262393,-0.0038237508879545978,0.0034873342465296846,0.9934453110148982
2012-09-20,1,0.0035193724591608805,0.004009059010699147,-0.0046066744541816895,0.005641128954950956,0.993159750992221
2012-09-24,1,0.0032736697888827333,0.0037378771704319625,-0.0054805192044670645,0.005641128954950956,0.9926130755890735
2012-09-26,1,0.0011462513964741938,0.0013105189545012342,-0.005365200720230743,0.005641128954950956,0.9928039933179332
2012-09-28,1,0.0016971966717611905,0.0018765562003918385,-0.005365200720230743,0.005843152848278787,0.9922028012815637
2012-10-02,0,0.0,0.0,-0.005365200720230743,0.005843152848278787,0.9920923888808453
2012-10-04,0,0.0,0.0,-0.005365200720230743,0.004982243264385734,0.9923773429438896
2012-10-08,0,0.0,0.0,-0.00827471694629807,0.004982243264385734,0.9911830660840415
2012-10-10,0,0.0,0.0,-0.004032755270371091,0.005835665491621176,0.9914503360902244
2012-10-12,1,0.0010550833148069276,0.0010600743744889735,-0.004032755270371091,0.0070705629948337135,0.9916615507787895
2012-10-16,0,0.0,0.0,-0.005045180152290676,0.0070705629948337135,0.9912046201981366
2012-10-18,0,0.0,0.0,-0.003972420915203439,0.00559589965878441,0.9918959380256888
2012-10-22,0,0.0,0.0,3.060456864113011e-05,0.0070705629948337135,0.9922348416328235
2012-10-24,0,0.0,0.0,0.0014080292720083012,0.008026182867118162,0.9919251515352391
2012-10-26,0,0.0,0.0,-0.00030687039199873154,0.007527600153480895,0.9925697645090089
2012-11-01,0,0.0,0.0,-0.002037647071602384,0.006983142881546009,0.9933865391191801
2012-11-05,1,0.0019269096059859672,0.0019722792142550455,-0.0021705032067339727,0.006983142881546009,0.9937074448705487
2012-11-07,1,0.0018550419673391836,0.0018689515936021156,-0.001101575821903623,0.00552685089246107,0.995305898118051
2012-11-09,1,0.001872275671813417,0.0019063567921088157,-0.0018076705279209578,0.004355603419966588,0.9954156752739153
2012-11-13,0,0.0,0.0,-0.0018076705279209578,0.003163126962916669,0.9958095970358747
2012-11-15,0,0.0,0.0,-0.0018076705279209578,0.003163126962916669,0.9958991761809585
2012-11-19,0,0.0,0.0,-0.0035742821224111635,0.0033913185362266698,0.995259786989015
2012-11-21,0,0.0,0.0,-0.003696729190477039,0.002035856241203149,0.9954449258720465
2012-11-26,0,0.0,0.0,-0.003696729190477039,0.0004432556357077839,0.9959679803297806
2012-11-28,0,0.0,0.0,-0.003696729190477039,-0.000131857592592605,0.996593454241499
2012-11-30,1,0.0010035612086415906,0.0011109159767539842,-0.003747695429864327,0.0004432556357077839,0.9954734062144159
2012-12-04,1,0.001165675992920579,0.0012645131085020419,-0.004063621574743569,0.00182526515195021,0.9937009055139063
2012-12-06,1,0.001255649404132403,0.001330810062458813,-0.004810482144942929,0.0007059126688445511,0.9934523354234548
2012-12-10,1,0.0007535700281736922,0.0008859778095097223,-0.004810482144942929,0.00182526515195021,0.9938477685566526
2012-12-12,1,0.00039431724881452957,0.0006046309236408849,-0.005599458897041306,0.00223712166334671,0.9927384049501033
2012-12-14,0,-1.756712123169744e-05,0.0002465571555611253,-0.0057054700493596065,0.003036400936792134,0.9926490391198661
2012-12-18,-1,-0.00036678203140057893,-3.140684128286422e-05,-0.006020557753670645,0.00223712166334671,0.993359714175126
2012-12-20,1,0.0010694885027963436,0.0011246057425548885,-0.006020557753670645,0.00223712166334671,0.9926257239790227
2012-12-24,1,0.0004669366681030881,0.0006076964853891538,-0.0057054700493596065,0.003036400936792134,0.9928361394590158
2012-12-27,1,0.0002890600787365504,0.00043295583180228,-0.0057054700493596065,0.003036400936792134,0.9926537137484762
2012-12-31,1,0.00011394894903776331,0.00025315254800641995,-0.005599458897041306,0.003036400936792134,0.993191578290125
2013-01-03,1,0.0012470700582447487,0.0012520332918487921,-0.0057054700493596065,0.0027081400834979095,0.9933361064657988
2013-01-07,1,0.0010206373346739507,0.001034825087450818,-0.0059496961929322335,0.003036400936792134,0.9919415856841871
2013-01-09,1,0.0009587181660579815,0.0009885295482092212,-0.0059496961929322335,0.0038352325705018906,0.9919190881307925
2013-01-11,1,0.0014910441339262333,0.0016245499928492287,-0.003758343254000958,0.0038352325705018906,0.9928390197698329
2013-01-15,1,0.001507552496288892,0.0016274370972451323,-0.002642428713839696,0.006174810952737367,0.992849208040762
2013-01-17,1,0.0010765699265919435,0.0011171702854275705,-0.002642428713839696,0.006174810952737367,0.9929480526462643
2013-01-22,1,0.001384626829105679,0.001450038729842501,-0.002642428713839696,0.007510399996327414,0.992114898067672
2013-01-24,1,0.001352777816419909,0.001388433829133178,-0.0014581439227729092,0.009520359095561039,0.9912430841408142
2013-01-28,1,0.0008696303144709943,0.000937942218611027,-9.231515005302029e-06,0.010126677134959882,0.9903495626293946
2013-01-30,1,0.0008269027947217293,0.000890679718463638,-9.231515005302029e-06,0.010919236092366568,0.9897054228670187
2013-02-01,-1,-0.0007898199310019824,-0.0005666142105940251,-0.001625805833005933,0.010919236092366568,0.9900999326746245
2013-02-05,-1,-0.000549945541691947,-0.00031509360909259734,-0.001625805833005933,0.010126677134959882,0.9914858220787751
2013-02-07,-1,-0.00040176889848587754,-0.00019158179335270256,-0.0018136803590203757,0.010126677134959882,0.9918036661316231
2013-02-11,0,0.0,0.0,-0.0037643002541859396,0.010126677134959882,0.9918956277761698
2013-02-13,0,0.0,0.0,-0.0037643002541859396,0.0076061158099894055,0.992112200279921
2013-02-15,0,0.0,0.0,-0.004097699458356587,0.0076061158099894055,0.9915085287890317
2013-02-20,0,0.0,0.0,-0.004097699458356587,0.00584003486325462,0.9926119046626722
2013-02-22,0,0.0,0.0,-0.004908060009482042,0.004605553657474285,0.9931879434342121
2013-02-26,0,0.0,0.0,-0.003543990906247363,0.00684354477972836,0.9935124518444083
2013-02-28,0,0.0,0.0,-0.004559841951181928,0.004605553657474285,0.9941093483579226
2013-03-04,0,0.0,0.0,-0.004559841951181928,0.005536866358641793,0.9939993835238135
2013-03-06,0,0.0,0.0,-0.004559841951181928,0.005536866358641793,0.9935695074520978
2013-03-08,1,0.0010272863744663699,0.0010333591980700699,-0.0055082575373793545,0.005583808913490508,0.9930549357964702
2013-03-12,1,0.0006403843973603059,0.0007146110555079007,-0.004559841951181928,0.006817158100408735,0.9929643750362415
2013-03-14,1,0.0008239233667827026,0.0008685653922649771,-0.004559841951181928,0.010456427779983592,0.9922858882071843
2013-03-18,1,0.00011563920886950444,0.00024444406131248495,-0.004559841951181928,0.010456427779983592,0.9917738604993771
2013-03-20,1,0.00032734848929034396,0.0004500172649798975,-0.006526319091642614,0.010148387559074037,0.9904140390432106
2013-03-22,0,-3.462142083095589e-06,0.00019564696873620112,-0.006526319091642614,0.00855395555007319,0.990590526463394
2013-03-26,1,0.0013035360945924134,0.001355941278001582,-0.006526319091642614,0.007622009335279112,0.9913558982058222
2013-03-28,1,0.0016608395586403708,0.0017683301389416067,-0.008973066818821858,0.007622009335279112,0.9898684773576986
2013-04-02,1,0.001614471729015131,0.0017021706348515847,-0.008973066818821858,0.009080168877074848,0.9894907460749824
2013-04-04,1,0.0012614215318452065,0.0013551956071473994,-0.002127037000011743,0.010597561962499415,0.9888372719664541
2013-04-08,1,0.0014465434741587932,0.0015256261632671598,0.00020845796948935858,0.011365930091449877,0.9887952095020174
2013-04-10,1,0.001188914393824177,0.001261653204914978,0.00020845796948935858,0.012030367728826354,0.9884321739608922
2013-04-12,1,0.0020601176157383373,0.00226366350553854,-0.0009241698252110393,0.011365930091449877,0.9893539405066275
2013-04-16,1,0.0014195774871087253,0.0015277620390647733,0.0004843815109454893,0.012030367728826354,0.9895512652570829
2013-04-18,1,0.0007206808268869094,0.0007822165535465346,0.0017168766604568882,0.012030367728826354,0.9907140725507683
2013-04-22,1,0.001353301105966542,0.001525399131353373,0.0004843815109454893,0.012030367728826354,0.9915073586521768
2013-04-24,1,0.0011194894055276752,0.0012067972019081912,-0.0003298512344281313,0.012030367728826354,0.9914123427755053
2013-04-26,-1,-0.001036608005990957,-0.000847560211825438,-0.0003298512344281313,0.012030367728826354,0.9917175717994253
2013-04-30,1,0.0009230135809571415,0.0009622608968039608,-0.0003298512344281313,0.009399665993619567,0.9932367463219768
2013-05-02,1,0.0003942877073476427,0.0004260596988651065,-0.002864328817351613,0.00614895294479223,0.9925547448796254
2013-05-06,1,0.0019641486584380265,0.0021409795191878727,-0.0037566125495564822,0.004872528064016251,0.9928588101076213
2013-05-08,1,0.0026902630013172025,0.002959150791135771,-0.0037566125495564822,0.004872528064016251,0.9924631052626072
2013-05-10,1,0.002176464286389782,0.002356859820283684,-0.0039327513144319665,0.00614895294479223,0.9915882305658117
2013-05-14,1,0.0027512178826738128,0.002999588840308192,-0.005590405426541576,0.004207850432484371,0.9917503661272542
2013-05-16,1,0.0026148675847629263,0.00284697223413606,-0.0059722407093178494,0.004207850432484371,0.9913474438641948
2013-05-20,1,0.0032796357845517395,0.00358389047796584,-0.0059722407093178494,0.005223537033987112,0.9913192317049128
2013-05-22,1,0.0019486789474159431,0.0020168957040760304,-0.00803095674936618,0.005223537033987112,0.9896619871534138
2013-05-24,1,0.0016219055107285312,0.001634689895287344,-0.007421055817631977,0.005013869732169738,0.9897820816207477
2013-05-29,1,0.0025145685821587266,0.0027089070235690347,-0.007421055817631977,0.008323810164850433,0.9888674008232091
2013-05-31,1,0.0006460917942440186,0.0007057611589186697,-0.007327029216990574,0.008712506608718692,0.9903206971119944
2013-06-04,1,0.0005373812098501492,0.0006316211279331343,-0.006007691189550706,0.01092517542603141,0.9898975289346951
2013-06-06,1,0.0008426682281655658,0.0008505149411220708,-0.006823013174302678,0.01092517542603141,0.9896997797845395
2013-06-10,1,0.001495197963270455,0.0015506975375662799,-0.006823013174302678,0.008712506608718692,0.990806194902106
2013-06-12,0,-5.965266502992912e-05,6.727220056678584e-05,-0.006823013174302678,0.01092517542603141,0.9897916692069214
2013-06-14,1,0.000973372004980963,0.0009813600946583037,-0.004758083648957763,0.008996064508886169,0.9903358462849884
2013-06-18,1,0.0015217332835568461,0.00160225627386445,-0.004758083648957763,0.008996064508886169,0.9904277555418578
2013-06-20,-1,-0.0007438961596518531,-0.00052890945602925,-0.003591293732704082,0.008996064508886169,0.9926103083736612
2013-06-24,-1,-0.00041176086377681077,-0.00023062323548396772,-0.003591293732704082,0.008996064508886169,0.9929031521476899
2013-06-26,-1,-0.0011708231295191373,-0.0008397110482436541,-0.003591293732704082,0.006493660447517513,0.9936359870269628
2013-06-28,-1,-0.0013407011717616016,-0.0009968516043813475,-0.003591293732704082,0.003948845512779814,0.9937568985534877
2013-07-02,-1,-0.001306505819458738,-0.0009527131676776514,-0.0028888622195340024,0.003948845512779814,0.9939087168738959
2013-07-05,-1,-0.0007854460821292664,-0.0005068153738811093,-0.002234550933454785,0.006042208171784309,0.993907197452021
2013-07-09,-1,-0.0009262514408370684,-0.0006416349084876532,-0.002106363291025129,0.006042208171784309,0.9938805134451865
2013-07-11,-1,-0.00041842645630078444,-0.0001805972676704135,-0.002299605156947925,0.005644165607765896,0.9949449102989415
2013-07-15,1,0.00023143191551004173,0.0003336690941212778,-0.002977211326812751,0.0038407704760647678,0.9946259621220425
2013-07-17,1,0.0007328755072015179,0.0007580405465489297,-0.002299605156947925,0.005717983061639171,0.9944234909384169
2013-07-19,1,0.0006419599125422035,0.0006454246336568175,-0.0032093049279521015,0.005717983061639171,0.9936968512008326
2013-07-23,1,0.000580132396802087,0.0005948858245532814,-0.002299605156947925,0.005717983061639171,0.9939580415924282
2013-07-25,1,0.0006399988406211225,0.0006448537691757389,-0.0028247420006631344,0.005717983061639171,0.993805858517514
2013-07-29,1,2.355662702709408e-05,0.0001081758831468193,-0.0028247420006631344,0.005717983061639171,0.993936522396329
2013-07-31,1,0.000590255338420722,0.0006175992912386357,-0.005376616720892621,0.005717983061639171,0.9930106178826477
2013-08-02,1,0.000996348159528679,0.0009990510341212166,-0.007418636947950928,0.002858253526327681,0.993478651458706
2013-08-06,1,0.0009382365635439071,0.0009431349684980932,-0.007418636947950928,0.004825567800113069,0.9933396122324704
2013-08-08,1,0.001025194787683253,0.0010532363933883615,-0.007418636947950928,0.003196093233391461,0.9935197175678557
2013-08-12,1,0.0004892285596726856,0.0005691722897025346,-0.004485579164748879,0.0061005768757340815,0.9928343601973814
2013-08-14,1,0.0005415248867173074,0.0005718393562287114,-0.004485579164748879,0.004825567800113069,0.9930918309852678
2013-08-16,1,0.0006090302387554423,0.0006151614818114859,-0.0024736083672395716,0.005634352572197736,0.9934667273104079
2013-08-20,1,0.00045360726998124284,0.0004801841576762575,-0.0024736083672395716,0.009061373180998939,0.9902438131301942
2013-08-22,1,0.000423493238069149,0.0004636291085051294,-0.002054304755821894,0.011065767733254182,0.9900259607437909
2013-08-26,-1,-0.0003217069554869405,-0.0001702217562321867,-0.0016045442074366797,0.011065767733254182,0.9902369539778357
2013-08-28,-1,-0.000832542673285811,-0.0006155091666338108,-0.0016045442074366797,0.009713697060250666,0.9913665611584525
2013-08-30,-1,-0.0008632114696290771,-0.0006658207418350831,-0.002054304755821894,0.009713697060250666,0.991174358318093
2013-09-04,-1,-0.000586095431874353,-0.00046446930041762325,-0.0024286570948218395,0.009713697060250666,0.9910083440621907
2013-09-06,-1,-0.0008762538917127656,-0.0007065984733483139,-0.002689655435245658,0.009713697060250666,0.9906083242946071
2013-09-10,-1,-0.0005939413981966825,-0.0003769053643443457,-0.0072282286841783994,0.005414757558258993,0.9913919058267852
2013-09-12,-1,-0.0005009270025505544,-0.0003196188822934586,-0.0072282286841783994,0.00701826591679878,0.9902571734169948
2013-09-16,0,-5.833700531338211e-05,5.5761472373025824e-05,-0.0072282286841783994,0.006883392645487715,0.9902280159057075
2013-09-18,1,0.0018627491826776641,0.001900871885962932,-0.008628301995486346,0.005414757558258993,0.9916657101383393
2013-09-20,1,0.002846852779679183,0.0030482442108448874,-0.008628301995486346,0.005176352005920938,0.9913786436909722
2013-09-24,1,0.003407419944000349,0.0037502664614928313,-0.008628301995486346,0.005572284414565091,0.9904915032182812
2013-09-26,1,0.003268139383737401,0.0036149316466626384,-0.008628301995486346,0.005572284414565091,0.9904323827501211
2013-09-30,1,0.0031309898276067963,0.003489651134400069,-0.007343391972216931,0.010062834756495177,0.9901927855061923
2013-10-02,1,0.0026326203941132234,0.0029097544675836416,-0.004554736489945502,0.016222741712022978,0.9899850868379546
2013-10-04,1,0.0025560024573321933,0.002880659379263474,-0.004704244233029791,0.016222741712022978,0.9896406422182905
2013-10-08,1,0.001999920287875782,0.0022557605512907616,-0.0036313788214102174,0.016222741712022978,0.9905149134046896
2013-10-10,1,0.002565982203301814,0.002906517431250862,-0.0038965121031818116,0.016222741712022978,0.9905981523224722
2013-10-14,1,0.0023907807355895067,0.002669662130878984,-0.0038965121031818116,0.016222741712022978,0.9897032820655792
2013-10-16,1,0.002868138608978366,0.0032246271905306684,-0.004275676382136575,0.015056888196283584,0.9901036858924459
2013-10-18,1,0.0032457647185870613,0.0036587850379530655,-0.004275676382136575,0.013918199952862509,0.9902929479855017
2013-10-22,1,0.002653368051536641,0.0028999785259072553,-0.005439069133573707,0.010558338643606394,0.9903117225380369
2013-10-24,1,0.002039463898476517,0.002177580207642681,-0.00497993108739216,0.012270512348555883,0.9903912926972069
2013-10-28,1,0.003386556437508982,0.0037303925290629964,-0.005705638107996699,0.012270512348555883,0.9903475883171258
2013-10-30,1,0.004321032425473753,0.004805402403888404,-0.005705638107996699,0.010099301424201469,0.9911247890018052
2013-11-01,1,0.0035226842575383855,0.0038847661192758388,-0.005705638107996699,0.010099301424201469,0.9917941334768762
2013-11-05,1,0.0034637532188349757,0.0038208600183486673,-0.005705638107996699,0.010099301424201469,0.9916132641802091
2013-11-07,1,0.003794848943053737,0.004183010489695407,-0.005011906229311877,0.010099301424201469,0.9920411736206091
2013-11-11,1,0.0033759391740307613,0.0036237085407212683,-0.005011906229311877,0.006604335098855421,0.9929054219290835
2013-11-13,1,0.002729649456644725,0.002887928270676692,-0.005011906229311877,0.006604335098855421,0.9933013714033978
2013-11-15,1,0.00328514964069381,0.003526303291383998,-0.005011906229311877,0.0034881078444001477,0.9933060407056512
2013-11-19,1,0.0026317033544788343,0.002789474815181483,-0.001816544405686447,0.005383738955004071,0.9932209598484907
2013-11-21,1,0.0031314673755573276,0.003348094398087736,-0.003907505868226508,0.0034881078444001477,0.9927863988464615
2013-11-25,1,0.00317810029062756,0.0034009746688072632,-0.003236345090111212,0.0034881078444001477,0.9934629592300386
2013-11-27,1,0.0031394668751118823,0.0033380230430024057,-0.003236345090111212,0.002211674104573204,0.9932469359254298
2013-12-02,1,0.003185688682689758,0.003452680337454871,-0.0022224147587952877,0.0022731784631078787,0.9933378609433232
2013-12-04,1,0.002891352746460155,0.0030802171746705234,-0.0022224147587952877,0.002920704954942578,0.9929883554840789
2013-12-06,1,0.003040361278055484,0.003251528711883409,-0.003236345090111212,0.002920704954942578,0.9928367486746233
2013-12-10,1,0.0031348372450323795,0.0033673320515303713,-0.0038707574088813522,0.0039183560576221185,0.9916337618524447
2013-12-12,1,0.0020993307239459066,0.0021510641529617425,-0.006147311135233844,0.0039183560576221185,0.9910376038684449
2013-12-16,1,0.002062093914822637,0.002113408492449012,-0.006147311135233844,0.007060211035545046,0.9900761539921471
2013-12-18,1,0.002722185751191078,0.0028545990345146,-0.006147311135233844,0.0069967894652281015,0.9909731654492954
2013-12-20,1,0.0022054259061551947,0.002269588666749466,-0.006613643377743044,0.0069967894652281015,0.9908135755316837
2013-12-24,1,0.002296997250088572,0.00242340033433194,-0.011800074185522782,0.006145261316125009,0.9886909772302779
2013-12-27,1,0.0019759433787865425,0.002048278002588902,-0.011800074185522782,0.0069967894652281015,0.9882508514759039
2013-12-31,1,0.0019662626021020057,0.0020316947706325045,-0.011800074185522782,0.0069967894652281015,0.9876643782570502
2014-01-03,1,0.0009016362257540304,0.0009936895871356303,-0.011800074185522782,0.0069967894652281015,0.9863237198358523
2014-01-07,1,0.0007741153134262488,0.0008701632167109521,-0.011800074185522782,0.00693138117062676,0.9868854387717447
2014-01-09,1,0.0010221515956427725,0.0011084797926365518,-0.011800074185522782,0.00693138117062676,0.9857312024252876
2014-01-13,-1,-0.0004100911261802184,-0.00015451062894885432,-0.005665327469217222,0.009474411629926264,0.9860840071235802
2014-01-15,1,0.0005346047319093089,0.0006862486773131931,-0.005665327469217222,0.008498843351268572,0.9870256513324516
2014-01-17,1,0.00034287098892003484,0.0005452343016770798,-0.005665327469217222,0.01069877954570289,0.9868498638206327
2014-01-22,-1,-0.0008224875654088122,-0.00045296686812028894,-0.003716491514170696,0.01069877954570289,0.9869896889499861
2014-01-24,-1,-0.0032843928646268524,-0.0026033212395040264,-0.001067763390972655,0.01069877954570289,0.9875602738102324
2014-01-28,-1,-0.002642999891432218,-0.0020342622550626314,-0.003716491514170696,0.009779633069953884,0.9886821792636491
2014-01-30,-1,-0.0025742174547148606,-0.0019651655474996243,-0.0022662623970812097,0.00820284830805196,0.9893591558740735
2014-02-03,-1,-0.0038355977959891804,-0.003135039083918905,-0.0018217860104806478,0.009779633069953884,0.9895927295480043
2014-02-05,-1,-0.003768289882552855,-0.003065423225751518,-0.0018217860104806478,0.009779633069953884,0.9895186486107479
2014-02-07,-1,-0.0019902668926834424,-0.0015076620447095263,-0.0022043426208637183,0.008309431225273896,0.9925028661674348
2014-02-11,1,0.0003444116551941556,0.0004300176155130962,-0.004403872857442783,0.007552798922859767,0.9936458017679746
2014-02-13,1,0.0011200412339564241,0.0011612463756996661,-0.004846444053572814,0.005859147662362469,0.9927909136958619
2014-02-18,1,0.0014395924552621877,0.0015304986183614943,-0.004846444053572814,0.007552798922859767,0.9922905514275974
2014-02-20,1,0.0012823148040801888,0.0013310899958413577,-0.0067301405526956435,0.008309431225273896,0.9913882210815256
2014-02-24,1,0.0014117934243877148,0.001443541640753714,-0.009100900778255695,0.0058427926308735065,0.9907994655603845
2014-02-26,1,0.00042563701567362947,0.000536995678307263,-0.00937435394967686,0.0058427926308735065,0.9908832684873458
2014-02-28,1,0.00010746524169361006,0.00028186531331637736,-0.00937435394967686,0.0058427926308735065,0.9908282929658467
2014-03-04,-1,-0.0004936189016739045,-0.00020592411249554404,-0.007200768909851515,0.0066069776950883645,0.9907387617705531
2014-03-06,1,0.00013753911172343313,0.0003202284207838217,-0.007200768909851515,0.0054057755431964815,0.9908523693628561
2014-03-10,1,0.0002069491135471864,0.00037217071190238514,-0.01187391652220725,0.0054057755431964815,0.9893641467644931
2014-03-12,-1,-0.00046411831827611425,-0.00021529385369160306,-0.01187391652220725,0.0074949211597190556,0.9892265495464898
2014-03-14,-1,-0.0011390779906332441,-0.0008392604964206397,-0.01187391652220725,0.0074949211597190556,0.9889180411866031
2014-03-18,1,3.426328640076203e-05,0.0001766202419017121,-0.01187391652220725,0.007144867067970857,0.9888515515824066
2014-03-20,-1,-0.0004123569570306776,-0.0001929888401239094,-0.007651675596910719,0.007144867067970857,0.9895721665752707
2014-03-24,-1,-0.00031867804433288407,-0.0001712950277182445,-0.005881694821577369,0.007144867067970857,0.9905158051199469
2014-03-26,-1,-0.0003327735365710992,-0.00023411192599077506,-0.0041501441098489595,0.007144867067970857,0.9910067472575868
2014-03-28,-1,-0.0010365692932601124,-0.0008162227637577926,-0.0041501441098489595,0.010731096208727578,0.9894451576677209
2014-04-01,0,-8.345564417539057e-05,3.073402652548074e-05,-0.0041501441098489595,0.006167280844840023,0.9903113230286882
2014-04-03,-1,-0.00022245618200928324,-0.00010798881552070207,-0.004482470121239797,0.0070237775566865815,0.9901350423967111
2014-04-07,-1,-0.0011044358819534623,-0.000941190337010323,-0.003028116503270921,0.0070237775566865815,0.9915082603262791
2014-04-09,-1,-0.0008255628218234111,-0.0006580629964747034,-0.004219153435499922,0.0070237775566865815,0.9912222740264071
2014-04-11,-1,-0.0019723934202241144,-0.0017050161385754488,-0.002309343394021558,0.008567926700575436,0.9923198624977033
2014-04-15,-1,-0.0013562385653086003,-0.001135816925761107,-0.003028116503270921,0.005152011213852414,0.9933148350831988
2014-04-17,-1,-0.000691582306189675,-0.0005681343282179674,-0.002666245484073136,0.004896840240263973,0.9936549972020055
2014-04-22,-1,-0.0006552352106076235,-0.0005356742621542771,-0.002666245484073136,0.004896840240263973,0.9935740886443559
2014-04-24,-1,-0.0004233959109751377,-0.0003523843277883172,-0.002337744255546798,0.00524299500493365,0.9931922215650336
2014-04-28,1,0.0004166537120180077,0.0004342074979633851,0.00025240156462010097,0.00524299500493365,0.9949542780803675
2014-04-30,1,0.0005449249411670397,0.0005670837342695279,-0.0008581860536720524,0.006413922136540015,0.9949307826838948
2014-05-02,1,0.0008700597639022094,0.0009672963817286396,-0.0003903254360631674,0.005648409215774694,0.9955141687131382
2014-05-06,1,0.0007884376923016218,0.0008819380498872496,-0.0003903254360631674,0.005648409215774694,0.995433761133297
2014-05-08,1,0.0008530148354279152,0.0009216134228341834,0.0006066955547671649,0.00499004798641074,0.9964414425455181
2014-05-12,1,0.0010064513908533208,0.0010914861318763636,0.0006066955547671649,0.004740511544187873,0.9968370095743557
2014-05-14,1,0.0013194794642355434,0.00149972241097429,-0.0003903254360631674,0.004740511544187873,0.9968103482670978
2014-05-16,1,0.0013481297093805023,0.0015038498712749973,-0.0005864500809934791,0.004515363463525284,0.9967616566166346
2014-05-20,1,0.0016049702652761063,0.0018105640408877135,-0.0005864500809934791,0.004742735499253402,0.9964670804586968
2014-05-22,1,0.0019093733473400185,0.0021470406143688395,-0.0009704153443893661,0.004515363463525284,0.9965672932362599
2014-05-27,1,0.002431643312024603,0.0027481222402236088,-0.0019971578173416074,0.002762305346260454,0.9961868479055791
2014-05-29,1,0.002325515575209101,0.0025893342772731953,-0.002453288520280997,0.002762305346260454,0.995863082659586
2014-06-02,1,0.002203669121097152,0.0024383690120691618,-0.0029749783600919724,0.0036235945004881587,0.9956809542556404
2014-06-04,1,0.002364637967197764,0.002654099978524442,-0.0029749783600919724,0.004517895532843081,0.9952983223102458
2014-06-06,1,0.001906698545711228,0.002056000789445125,-0.0029749783600919724,0.0030272117703436297,0.995465784509939
2014-06-10,1,0.002367641796236193,0.0026427946372902973,-0.003731912320111901,0.0030272117703436297,0.9951045164318435
2014-06-12,1,0.002086503955688679,0.002341571631659902,-0.0029749783600919724,0.0030272117703436297,0.9957434070492994
2014-06-16,1,0.0017430411512795749,0.001911805483572059,-0.003731912320111901,0.0024749999344964254,0.9956054575501568
2014-06-18,1,0.0009868301020098927,0.0010392602786082378,-0.005199912518671367,0.0015799888014290378,0.995906811389457
2014-06-20,1,0.001216790555307057,0.0012294240668598588,-0.005199912518671367,0.0021253444639769553,0.9957162884678391
2014-06-24,1,0.0009141542700093293,0.0009310063997887467,-0.003731912320111901,0.003077314034642586,0.9956867198039394
2014-06-26,-1,-0.00048519979736550355,-0.00019301704350617108,-0.003731912320111901,0.0017205466259734299,0.9940744979758911
2014-06-30,-1,-0.0004611658381530122,-0.00017586196624411936,-0.005199912518671367,0.0017205466259734299,0.9931380184865921
2014-07-02,1,0.0006802655484632169,0.0007437119546866383,-0.005199912518671367,0.0013669860505982488,0.9925302676232951
2014-07-07,1,0.0013364422713246103,0.0014164111544849637,-0.005205872648312622,0.0013669860505982488,0.991852300717816
2014-07-09,1,0.0012763244981500315,0.00137997487705746,-0.005950110862466911,0.002135343872047977,0.9914253369142177
2014-07-11,1,0.0014853379775393838,0.0016386168740397202,-0.005950110862466911,0.00449488909408184,0.9907545073169549
2014-07-15,1,0.0011862070336204355,0.001304760712011146,-0.005268416313922756,0.00449488909408184,0.991191776392937
2014-07-17,1,0.0012623415786240583,0.0014269072828777974,-0.005568162934406375,0.005789186156870667,0.9906910303690761
2014-07-21,1,0.001156271184504451,0.0012644201345238916,-0.007408932759234582,0.006638962929683744,0.9901167398996078
2014-07-23,1,0.0017841042181507129,0.00198033478296847,-0.007408932759234582,0.005511739288629905,0.9904984379781454
2014-07-25,-1,-0.0005583822016596532,-0.00045780860729592414,-0.005568162934406375,0.0063273234931587536,0.9925287831247631
2014-07-29,-1,-0.0003854154677231722,-0.0003275987610160244,-0.003990653039647359,0.0063273234931587536,0.9932649274263944
2014-07-31,-1,-0.0013442574842157744,-0.0011778044524395907,-0.0030685233402930473,0.0063273234931587536,0.993903494834677
2014-08-04,-1,-0.0016827333478597688,-0.0014466587278191873,-0.0027883439118828023,0.006500779677046498,0.9937459182753419
2014-08-06,-1,-0.0028594829908436285,-0.002429284967780175,-0.001408199258123381,0.006500779677046498,0.9938436992393055
2014-08-08,-1,-0.0015446916301021711,-0.0013267333889764566,-0.0027883439118828023,0.006021969050674987,0.9948980321708617
2014-08-12,-1,-0.001314593894650192,-0.0011214577069684794,-0.0030685233402930473,0.006021969050674987,0.9946378540743953
2014-08-14,-1,-0.0015729565531280112,-0.0013177734710192062,-0.0027883439118828023,0.003845178620533929,0.9951178159600548
2014-08-18,-1,-0.0018463553604907974,-0.0015257274394883174,-0.0027883439118828023,0.0029421178002988547,0.9956779519211645
2014-08-20,-1,-0.0016114229241403874,-0.001305849269584468,-0.0027883439118828023,0.0028007629626640934,0.9957056134736905
2014-08-22,-1,-0.0007173113816676853,-0.0005734034577004762,-0.0034067476318418192,0.0027667011366983396,0.9957388322975028
2014-08-26,-1,-0.0007502284786314011,-0.0005851434097890195,-0.0029836646590782985,0.0027667011366983396,0.9956118331985166
2014-08-28,-1,-0.001921467614212431,-0.001536878079910604,-0.003699418835016392,0.0028007629626640934,0.9945163114553038
2014-09-02,-1,-0.001106110229668837,-0.0008540546810350271,-0.003699418835016392,0.0027667011366983396,0.9948526328421591
2014-09-04,-1,-0.002048464714606495,-0.0016069684981530811,-0.004902719029432496,0.0027667011366983396,0.9943456121993839
2014-09-08,-1,-0.0018236442092146496,-0.0014533641213841267,-0.0038627621829070173,0.0029991637698854336,0.9939874263634697
2014-09-10,-1,-0.0020435510833168493,-0.001665734523573577,-0.006411274113355166,0.002990360565408054,0.9926776491404915
2014-09-12,-1,-0.0018674125072193413,-0.0015130289531263088,-0.011197173425480732,0.002812355358489462,0.9914250627872024
2014-09-16,-1,-0.0020210553700682043,-0.001643791087400891,-0.011225618138687537,0.004323945262371144,0.9908797817196434
2014-09-18,-1,-0.0009096520070316816,-0.0007189866494700472,-0.011225618138687537,0.002735184799415987,0.991251471112266
2014-09-22,-1,-0.001401846006810509,-0.0011688565319003133,-0.011225618138687537,0.004323945262371144,0.9908820826722021
2014-09-24,-1,-0.0009793004997004301,-0.0008005037904070937,-0.011225618138687537,0.004323945262371144,0.9903565549742616
2014-09-26,-1,-0.0011262526180863463,-0.0009232271678650225,-0.010364114847033312,0.004323945262371144,0.9908903439048387
2014-09-30,-1,-0.000691359522121513,-0.0005582104838044489,-0.010364114847033312,0.006786319913221405,0.9904363134640264
2014-10-02,-1,-0.000949247870447977,-0.0007967142492281722,-0.009654765854763044,0.006786319913221405,0.9906441177943912
2014-10-06,-1,-0.0008668526912146794,-0.0007161601542041165,-0.009654765854763044,0.010416032991541565,0.9887505663954561
2014-10-08,-1,-0.0024811788305613126,-0.0021584904005095343,-0.00420493438290964,0.01243684338469376,0.9894237137752361
2014-10-10,-1,-0.0038013761796684073,-0.0033356915562713103,-0.0009623149455009116,0.01243684338469376,0.9893250371088259
2014-10-14,-1,-0.00363155304740222,-0.0032118138359798895,-0.0009623149455009116,0.01243684338469376,0.9894978251001081
2014-10-16,-1,-0.003239394614801946,-0.002895073136140411,-0.00168104974896494,0.01243684338469376,0.9896077651020596
2014-10-20,-1,-0.0028032770962661906,-0.0025280427790207527,-0.0008066115631489855,0.010492856085954037,0.9903201871869447
2014-10-22,-1,-0.0018652599679069915,-0.0017053583595262782,-0.0008066115631489855,0.00983187644547099,0.9918365462031236
2014-10-24,-1,-0.0014300251276559755,-0.0013208925436173585,-0.000694148401212154,0.01039321558283433,0.9919391526776935
2014-10-28,-1,-0.0005724176979357283,-0.0005608520597566433,-0.00113274283410076,0.009948206390030141,0.9923759047658751
2014-10-30,-1,-0.0006811323961962354,-0.0006795837385750272,-0.0009343363230421636,0.009948206390030141,0.9924166095889557
2014-11-03,1,0.0009594809171683725,0.001155155799970711,-0.0009343363230421636,0.007261438354207188,0.9951880953837609
2014-11-05,1,0.0016468504942111235,0.0019397197275503285,-0.0009343363230421636,0.007983621334388956,0.99511112221489
2014-11-07,1,0.002381000399316323,0.0027997728769682353,-0.0009343363230421636,0.009516401901033734,0.9942744700442263
2014-11-11,1,0.0024467345480362274,0.0028675117394126436,-0.0016124960681828983,0.007983621334388956,0.9941281533808471
2014-11-13,1,0.002159813742187596,0.0025227567628576487,-0.0016124960681828983,0.007983621334388956,0.993637055028062
2014-11-17,1,0.0023339924835862847,0.0027199169334407016,-0.0025781946492298186,0.007983621334388956,0.9934658797730072
2014-11-19,1,0.0023275918147399057,0.002715478408628616,-0.0021065058524280885,0.010294413751126281,0.9928891197209739
2014-11-21,1,0.00274990846191168,0.003197240162190184,-0.0021065058524280885,0.009555908751180413,0.9933138696498377
2014-11-25,1,0.0029935192223754384,0.0034789075958042235,-0.0021065058524280885,0.007983621334388956,0.993415719029413
2014-11-28,1,0.0030667594290558807,0.0035476366730843,-0.003493583595399692,0.0059917948419927,0.9931992182095138
2014-12-02,1,0.0031015553542161436,0.0035881910615339144,-0.0037204460805434067,0.0059917948419927,0.9925584763398125
2014-12-04,1,0.003700567422113902,0.0042501545385860845,-0.004468732556909613,0.003250434091702785,0.9918408001589236
2014-12-08,1,0.004633101782974565,0.005292403084287867,-0.005453046650578352,0.0007043111677216018,0.9914377227530228
2014-12-10,1,0.004250555461398163,0.004871666332784961,-0.0053185692101748,0.003250434091702785,0.9918503673106908
2014-12-12,1,0.003949853176123714,0.0045611538438278185,-0.0053185692101748,0.0037582987076693716,0.9922066997281579
2014-12-16,1,0.0025362059021753823,0.0028467992351432878,-0.0053185692101748,0.0037582987076693716,0.9929068703798328
2014-12-18,1,0.003134823691888577,0.0035168078124839536,-0.005590975402722682,0.003250434091702785,0.9919921606594047
2014-12-22,1,0.0027837882688109316,0.0030721353212095266,-0.005590975402722682,0.003388932765410986,0.9916678556808208
2014-12-24,1,0.0025220263888305686,0.002768881236160415,-0.006824184331005961,0.003388932765410986,0.9912370606065554
2014-12-29,1,0.0019593042853167835,0.0021071481391199557,-0.00939689127102444,0.003388932765410986,0.9901194416008028
2014-12-31,1,0.0017076272421804703,0.0018378507639914637,-0.00939689127102444,0.0017845067366249164,0.9903415421964097
2015-01-05,1,0.001162651494043258,0.0012272261114129903,-0.008938778722775405,0.010365985158481476,0.9900994817460121
2015-01-07,1,0.0013174387002033573,0.0014047063781850021,-0.008938778722775405,0.007336539596038058,0.9905497379965218
2015-01-09,1,0.0015407393824484038,0.0016614085281236963,-0.008938778722775405,0.007336539596038058,0.990141574835496
2015-01-13,1,0.0012788953298151448,0.0013796621969441487,-0.004189274858255949,0.013131843620334056,0.9894572418870955
2015-01-15,1,0.0011817533141941876,0.001275700013218898,-0.004189274858255949,0.013131843620334056,0.9893094626298519
2015-01-20,1,0.0015882487352208005,0.00174149258702385,-0.0020020217267271018,0.010552936363877063,0.9907295911446172
2015-01-22,1,0.0018241661041996354,0.0020007639416056086,-0.00268190694190637,0.007450091145507208,0.9911050044745572
2015-01-26,1,0.0013528729556334094,0.0014825358966269902,-0.0015637754128014574,0.007450091145507208,0.9920052226100222
2015-01-28,1,0.00021263937822431226,0.0002275893662642144,-0.0014161968850004048,0.007450091145507208,0.9930977532647192
2015-01-30,-1,-0.00040564951119277643,-0.00030667080451077976,-0.0012447377499572292,0.007450091145507208,0.9934391732058093
2015-02-03,1,0.00047761192640743033,0.00049218265232334,-0.0015637754128014574,0.0044404485720841375,0.9948213732429263
2015-02-05,1,0.0008378537469816987,0.0008748315850680841,-0.0019124991590642143,0.0032168587193206204,0.9942872878064154
2015-02-09,1,0.0017826273631780403,0.001938338975434519,-0.0024133392389177077,0.0015423208495972864,0.993907291554897
2015-02-11,1,0.0030418721927592536,0.0033801263969222145,-0.0024133392389177077,0.0015423208495972864,0.9937520269195178
2015-02-13,1,0.002748733019777078,0.0030088775810715737,-0.002813879203989615,0.0015423208495972864,0.9926814155081117
2015-02-18,1,0.0027762531365695957,0.003051831723938754,-0.002813879203989615,0.0023382185881333753,0.9923286435595268
2015-02-20,1,0.0025497581272966386,0.002785804206857467,-0.0029748321578192244,0.004024724623886559,0.9923150346218498
2015-02-24,1,0.0025843528069321602,0.0028305081193475577,-0.003951558714197764,0.004024724623886559,0.9916254248641296
2015-02-26,1,0.0021608483930431023,0.0023230876994955493,-0.006967804165251117,0.004024724623886559,0.9908778542004378
2015-03-02,1,0.002094999217453393,0.002252931810826053,-0.006967804165251117,0.004708072505742591,0.989889261733481
2015-03-04,1,0.0007528686423545474,0.0008550668089893877,-0.010448905582206552,0.004708072505742591,0.9895401403971485
2015-03-06,-1,-0.0006625268991617974,-0.0003207044872213813,-0.006967804165251117,0.005816696637257173,0.9898005399918084
2015-03-10,-1,-0.0021479087804868366,-0.0016119897932085343,-0.005467167065798027,0.010947268123247924,0.9903251740887342
2015-03-12,-1,-0.0015047096816527836,-0.0010340489848729003,-0.005467167065798027,0.005731693336754643,0.9915876638436047
2015-03-16,-1,-0.0015124368739737875,-0.0010321615860349183,-0.0032020208139444607,0.003996390190385715,0.9929562107205395
2015-03-18,-1,-0.00101499207918174,-0.0006188368887617339,-0.005467167065798027,0.0038101914843179383,0.9931508781342999
2015-03-20,-1,-0.0011391351565483415,-0.0007416874035627043,-0.0060930457881232004,0.003863609526196647,0.9923028113203833
2015-03-24,-1,-0.0015020873692811441,-0.0010816537949417,-0.00361337170134374,0.003863609526196647,0.9925486538667537
2015-03-26,-1,-0.002657838926874671,-0.0020898092464331506,-0.0024427870384512137,0.004221047192502887,0.9929018787346984
2015-03-30,-1,-0.0008193684897440889,-0.0005549366016960596,-0.0024427870384512137,0.003863609526196647,0.9943126872354129
2015-04-01,-1,-0.0012793208758796783,-0.0009903638207954188,-0.0024427870384512137,0.003863609526196647,0.9944669801282447
2015-04-06,-1,-0.00044227473954867424,-0.00027381122245240936,-0.0024427870384512137,0.0037897118333989487,0.9939978840404965
2015-04-08,-1,-0.00013558794161565486,-7.522703427103607e-06,-0.003103424148043759,0.0025619050415073103,0.9941991300599216
2015-04-10,-1,-0.000466446124304325,-0.0002903286758963387,-0.003103424148043759,0.003999354114109792,0.9931077187427352
2015-04-14,-1,-0.0003092726740768772,-0.00016111812016478163,-0.004563203128223258,0.003999354114109792,0.9926337905116033
2015-04-16,-1,-0.0007931139527164017,-0.0005846499495468488,-0.0035908016160874643,0.00467135736153073,0.9921164674470179
2015-04-20,-1,-0.000711906754986751,-0.0005300353615853238,-0.0034552330202870787,0.00467135736153073,0.9925240196236499
2015-04-22,-1,-0.0007331134432199989,-0.0005567130410423258,-0.0034552330202870787,0.006004501604384655,0.9920871082591092
2015-04-24,-1,-0.0004265272357361353,-0.0002947335961833108,-0.0034552330202870787,0.006004501604384655,0.992146552654797
2015-04-28,-1,-0.00038440711774717754,-0.0002581613568010205,-0.004436431675797222,0.007774367248299573,0.9915523499190594
2015-04-30,-1,-0.0006477108057270943,-0.0005282425079446433,-0.004436431675797222,0.007774367248299573,0.9915794534201404
2015-05-04,1,0.0008559878265459152,0.0009800766406826435,-0.004436431675797222,0.006004501604384655,0.9928078686580509
2015-05-06,1,0.00013783261760257884,0.00014008479806983687,-0.004436431675797222,0.007184412742278211,0.9925146107695537
2015-05-08,1,0.0007214893277816917,0.0007716892055755415,-0.004870344565050364,0.005637313112571986,0.9935285024675803
2015-05-12,1,0.00029252923243575443,0.00030977705900429907,-0.004436431675797222,0.007184412742278211,0.9932354182459256
2015-05-14,1,0.0009715252944719789,0.0010869871931534559,-0.004463638777649206,0.007184412742278211,0.9934978565595161
2015-05-18,1,0.0013678791392892269,0.0015411933105329884,-0.003534950232138911,0.007184412742278211,0.9941602543981887
2015-05-20,1,0.001608839149884324,0.0018006032824906552,-0.003534950232138911,0.007190164981736099,0.9942004358176435
2015-05-22,1,0.0016369539195583965,0.0018172606817744813,-0.005512005961316232,0.007190164981736099,0.9933192596293368
2015-05-27,1,0.001384466646928661,0.0015049528129342199,-0.004627097402537099,0.00685158493852307,0.9936492811583281
2015-05-29,1,0.00041711768846423457,0.0004538210672313547,-0.004572218402136965,0.00685158493852307,0.9938736317869866
2015-06-02,1,0.00040936286340597673,0.00043692356309509185,-0.004787328869405912,0.00685158493852307,0.99263952610905
2015-06-04,1,0.0003867283531608218,0.00040363125055952614,-0.004572218402136965,0.004311438759176658,0.9933864463937392
2015-06-08,0,-3.986847806233801e-05,4.857459377922421e-05,-0.0039033356761667827,0.005385617008348896,0.9933838012420079
2015-06-10,1,0.0004992519842567508,0.0005312908573246935,-0.004572218402136965,0.005385617008348896,0.9934313537588215
2015-06-12,1,0.0005934651990324612,0.0005945920733999314,-0.0039033356761667827,0.005385617008348896,0.9933942091364385
2015-06-16,1,0.0010397453134746218,0.0011154266047580098,-0.0039033356761667827,0.0038410374371504346,0.993729668841313
2015-06-18,1,0.0010029720192054948,0.0010415327065612183,-0.0039033356761667827,0.003543393230745801,0.9935339922840849
2015-06-22,0,-2.818906942299163e-05,0.00011157443143255941,-0.0036971677542543546,0.0026137384772162084,0.9946497824770932
2015-06-24,-1,-0.0004568416912380948,-0.00024171079225177993,-0.0034997459977485373,0.0019707194132377683,0.9948631592497896
2015-06-26,-1,-0.00024419543169817244,-9.995798552076511e-05,-0.002999899851694705,0.0019707194132377683,0.9949074479620791
2015-06-30,-1,-0.0011197230072152748,-0.0008888421621170314,-0.002159246590518826,0.0030710126290751654,0.995976666839015
2015-07-02,-1,-0.0006293544824008414,-0.0005022423859079445,-0.002565099038378626,0.0030710126290751654,0.9954523503044751
2015-07-07,1,0.0002472099939094839,0.00028308507074364004,-0.002999899851694705,0.003499823803547567,0.9947786398528153
2015-07-09,1,0.00032462228933791473,0.0003797771109669419,-0.002999899851694705,0.003499823803547567,0.9949131976471948
2015-07-13,1,0.0008876520605152745,0.001016845746927919,-0.002999899851694705,0.004630278094985665,0.9948147503557301
2015-07-15,1,0.0007616377346697701,0.0008691405466590114,-0.0034997459977485373,0.004630278094985665,0.9941858049684688
2015-07-17,1,0.0009399267887296664,0.001074622448996951,-0.002999899851694705,0.0019559838089167336,0.9947056789081996
2015-07-21,1,0.0007901908628848823,0.0008976093584509889,-0.002999899851694705,0.004630278094985665,0.9943032779704433
2015-07-23,1,0.0006184311727658338,0.0007028146610544648,-0.005904015401974254,0.004630278094985665,0.9930966742517644
2015-07-27,1,0.0003946149441552412,0.00043574750268063025,-0.01254703805069141,0.004630278094985665,0.9895450102656889
2015-07-29,1,0.0003841274572965449,0.00041226595080811983,-0.013704964469112128,0.004630278094985665,0.9869011031911694
2015-07-31,-1,-0.00044960915891352634,-0.0003365325056188568,-0.013704964469112128,0.00779221883413888,0.9862889249993264
2015-08-04,-1,-0.00023939322031664328,-0.0001830297789848185,-0.01483760322917941,0.005792036544912267,0.9854821290394195
2015-08-06,1,2.7981670467927978e-05,4.434806336092099e-05,-0.01483760322917941,0.0054271095954657195,0.9855214741773742
2015-08-10,1,0.000525268646650434,0.0005833557319727437,-0.01483760322917941,0.0054271095954657195,0.9843679536446232
2015-08-12,1,0.00014816201597635007,0.0001518368217831057,-0.014433421102926591,0.0054271095954657195,0.9845262929971949
2015-08-14,0,-2.942973368556672e-05,2.921116648615661e-06,-0.014433421102926591,0.0054271095954657195,0.9841494081305878
2015-08-18,-1,-0.00012192750418556184,-5.199021642358594e-05,-0.014433421102926591,0.0054271095954657195,0.9841061475993752
2015-08-20,-1,-0.0006172492628586893,-0.0005142472213009984,-0.015890785627858176,0.0054271095954657195,0.9840976199811137
2015-08-24,-1,-0.0026407337190128255,-0.0022830704400109234,-0.010319684025607637,0.00944798246851083,0.9868174625367585
2015-08-26,-1,-0.0020734096880052955,-0.0018023933270555148,-0.009159862346675297,0.0054271095954657195,0.9896714260475504
2015-08-28,-1,-0.001660314076651234,-0.0014478758093493908,-0.010319684025607637,0.0054271095954657195,0.9895904450046961
2015-09-01,-1,-0.002464183985782285,-0.0021547547074390275,-0.006676649902575958,0.0054271095954657195,0.99082995112714
2015-09-03,-1,-0.0020773823997047277,-0.0018182457612019804,-0.006676649902575958,0.00478897313147792,0.9908618054200783
2015-09-08,-1,-0.0019342045885357326,-0.0016816198496987901,-0.006676649902575958,0.00478897313147792,0.991202540513364
2015-09-10,-1,-0.002168204483169466,-0.001887219050946299,-0.005109492136495189,0.010234043384768837,0.990763493302807
2015-09-14,-1,-0.002383184405664504,-0.00207601719973833,-0.005426388865938169,0.010234043384768837,0.9906222893594664
2015-09-16,-1,-0.0019401147312701939,-0.0016932488060877582,-0.007231702049289031,0.008743899705713012,0.9911054515455483
2015-09-18,-1,-0.0025438631237503103,-0.0022303307592964664,-0.0058486914705037805,0.010234043384768837,0.9915453975845311
2015-09-22,-1,-0.0027308432402269904,-0.0023757846092298794,-0.0058486914705037805,0.00979211328617131,0.9915533641153028
2015-09-24,-1,-0.0024615490639543136,-0.0021698603090838757,-0.0058486914705037805,0.01068015300439556,0.9910425950290918
2015-09-28,-1,-0.002745953628910343,-0.002406584799887892,-0.003335319352187985,0.00979211328617131,0.9920169141320521
2015-09-30,-1,-0.0022524241102868815,-0.0020020114586089396,-0.003335319352187985,0.01068015300439556,0.9911805780812951
2015-10-02,-1,-0.0019692010007352906,-0.0017454947954954822,-0.0058486914705037805,0.00979211328617131,0.9913065087339902
2015-10-06,-1,-0.001622218290976367,-0.0014506389400316642,-0.003335319352187985,0.00979211328617131,0.9921422706653201
2015-10-08,-1,-0.0009661137357826289,-0.0008845020697987097,-0.003335319352187985,0.0056064950880301,0.993068225105626
2015-10-12,-1,-0.0009339355650746564,-0.0008724352470605677,-0.006118581407056369,0.0056064950880301,0.9922539583876437
2015-10-14,-1,-0.0010911970541314338,-0.0010223097886874657,-0.0019235619880548565,0.009905632590872612,0.9919059313254512
2015-10-16,-1,-0.000572324722936085,-0.000567416728659121,-0.00466729669166616,0.006909613478604502,0.9922240386661519
2015-10-20,-1,-0.0007450828061668065,-0.0007030230114382654,-0.0038203214932141702,0.006909613478604502,0.992212560176932
2015-10-22,-1,-0.00045520636921644566,-0.0004490494039523948,-0.008465567649976958,0.006909613478604502,0.9916444232987386
2015-10-26,-1,-0.00037269953189001786,-0.0003704470180812369,-0.008465567649976958,0.01011152253928775,0.9912423011799482
2015-10-28,1,0.0001245276800500257,0.00018994918073086993,-0.008465567649976958,0.006909613478604502,0.9922686610773138
2015-10-30,1,4.591322327779883e-05,0.00012704638416727817,-0.0037541341934138796,0.006909613478604502,0.992975532783804
2015-11-03,1,0.00037901950269529487,0.0005032018186322516,-0.008465567649976958,0.006909613478604502,0.9926948369062507
2015-11-05,1,0.000593136281182108,0.0007617170283036352,-0.00964620159366679,0.009873502500830224,0.9909763608384008
2015-11-09,1,0.00025446504872972094,0.0003981621559072739,-0.007811204468427578,0.009873502500830224,0.991350838663822
2015-11-11,1,0.0005788361022507747,0.0007586679728806834,-0.009030932255845593,0.004957778422729238,0.9913880346843944
2015-11-13,1,0.0004457807841122078,0.0006089956937455906,-0.007811204468427578,0.008803332978137424,0.9914343755994746
2015-11-17,1,0.0005680808536862775,0.00074242298529256,-0.0064843347145674725,0.008803332978137424,0.9910475910307827
2015-11-19,1,0.0003067385146599466,0.0004116243644761431,-0.009030932255845593,0.0038740477549678853,0.989246858124941
2015-11-23,1,0.000555069358776571,0.0006912957090643803,-0.009030932255845593,0.0025274017427398773,0.9896040768269921
2015-11-25,1,0.0006252510629539013,0.0007825333122029609,-0.009030932255845593,0.004264475357651951,0.9893276332804701
2015-11-30,1,0.0007193906467727316,0.0008904140877085006,-0.009030932255845593,0.00777249101764797,0.9883812079682245
2015-12-02,1,0.0009640814659596557,0.001198118907636778,-0.009030932255845593,0.004264475357651951,0.9885300084991414
2015-12-04,1,0.0015746905514995994,0.0018897483427675974,-0.010415794234962656,0.0038861493612009773,0.9893407280074517
2015-12-08,1,0.001309397841742058,0.0016016656044899385,-0.01430764222319198,0.0038861493612009773,0.9887147590601163
2015-12-10,1,0.000973635737480392,0.0012182579822874085,-0.01471164253153684,0.0038861493612009773,0.9882184051816933
2015-12-14,1,0.0010266767871054488,0.001272078128328612,-0.01471164253153684,0.0038861493612009773,0.9877796610717834
2015-12-16,1,0.0017908197471807508,0.0021323638924524834,-0.01493733012149481,0.0038861493612009773,0.9873718677786607
2015-12-18,1,0.00035276440274202217,0.0005205568016093823,-0.014314978422588628,0.0038861493612009773,0.9901197921230216
2015-12-22,1,0.00029845860623918454,0.0004427207884979183,-0.014314978422588628,0.0064416382807520964,0.9891556821566198
2015-12-24,1,0.000543229113930713,0.0007110381873327238,-0.014314978422588628,0.004052575121047105,0.9890045033004616
2015-12-29,1,0.0011742840577765056,0.0014379186185450256,-0.014314978422588628,0.0024169302848234503,0.9896146847324578
2015-12-31,1,0.001050773227534182,0.0013290082850909819,-0.014314978422588628,0.004052575121047105,0.9895168155015687
2016-01-05,1,0.0006584011610409527,0.0008625810114190638,-0.014314978422588628,0.004677696686610998,0.9890556110184815
2016-01-07,1,2.453022203594918e-05,0.00014987859434522857,-0.00883931083993576,0.014649871579365255,0.9878623932162043
2016-01-11,-1,-0.0003245650013299089,-0.0002212204463117618,-0.0047639708686197674,0.014649871579365255,0.9889470976448047
2016-01-13,-1,-0.0007557323010216209,-0.0007534382176733058,-0.0030766462049400334,0.014649871579365255,0.9899632522166396
2016-01-15,-1,-0.00204567774428895,-0.0017950741959159638,-0.0018426968499376927,0.012429239931328339,0.9904367956825869
2016-01-20,-1,-0.0021575096872697604,-0.0019104723225390925,-0.0018426968499376927,0.012429239931328339,0.9902455170597059
2016-01-22,-1,-0.0013863694642373273,-0.0012460062137048286,-0.0018426968499376927,0.009764949702720774,0.9911510927319693
2016-01-26,-1,-0.002194945184643017,-0.0019113435485683247,-0.0014231357755210682,0.009764949702720774,0.9907237508162653
2016-01-28,-1,-0.0019272074343636533,-0.0016955361210091837,-0.0011837059195078884,0.009764949702720774,0.9903147993456578
2016-02-01,-1,-0.0010807279324725944,-0.0009703869173550215,-0.0011837059195078884,0.007451670185536007,0.9912472948383173
2016-02-03,-1,-0.0011528935902399432,-0.0010187652244437117,-0.0006726012458520815,0.00864887337260436,0.9916085376090911
2016-02-05,1,0.0004778986217245371,0.0005251903502077819,-0.0006726012458520815,0.007001802860404235,0.9946581296018823
2016-02-09,1,0.0006579364998421257,0.0007507986314471848,-0.0007807414533247307,0.007001802860404235,0.9943802258857795
2016-02-11,1,0.0001211715517979745,0.0001486817252439562,0.0011175240099711083,0.007552109296409326,0.9931978249920904
2016-02-16,1,0.0006231431693765469,0.0006603861251214156,-0.0023471667145848448,0.007001802860404235,0.9937571941236907
2016-02-18,1,0.0005893249889709592,0.0006077748750474509,-0.001156010111100264,0.007001802860404235,0.9932584820528035
2016-02-22,1,0.00014471592914614136,0.00019377126963586396,-0.001156010111100264,0.007001802860404235,0.9934043291556105
2016-02-24,1,0.00044770575173002947,0.0004600822011981348,-0.002442616021709647,0.007001802860404235,0.9933540696893766
2016-02-26,1,0.0009474388973726119,0.001022797292367815,-0.002442616021709647,0.007552109296409326,0.9932649634258439
2016-03-01,1,0.001072097331624612,0.0011719867238483854,-0.0013649155442445383,0.008869003773527149,0.9931209605766487
2016-03-03,1,0.0020412319559636326,0.0023008026592940527,-0.0013649155442445383,0.00737959990188386,0.9940516667017489
2016-03-07,1,0.002134541183970654,0.002389689969183136,-0.002514603580045976,0.006584473010425803,0.9926838705690333
2016-03-09,1,0.001696118856054178,0.0018638045614329819,-0.002514603580045976,0.006584473010425803,0.9925663061765012
2016-03-11,1,0.002433930450930502,0.0027291543762890842,-0.0022587365054608306,0.005077121019480229,0.9934590755247735
2016-03-15,1,0.0021129766353140088,0.0023614617520162366,-0.0010707210862385488,0.008351475589950749,0.993137240022558
2016-03-17,1,0.002801394254615356,0.003154646551739587,-0.0004629714143672526,0.006584473010425803,0.9941935282653885
2016-03-21,1,0.0026788425344717415,0.0030181498938658723,-0.0004629714143672526,0.008351475589950749,0.9938167061802661
2016-03-23,1,0.0026702152350239977,0.0030473538566933096,-0.0012551251773220203,0.008351475589950749,0.9934189381028448
2016-03-28,1,0.0028951781916243084,0.003269144098361172,-0.0012551251773220203,0.005493102297639078,0.9937227388337321
2016-03-30,1,0.003604310388950233,0.004095595273207342,-0.004119835993468565,0.004194171450459121,0.9932799577167583
2016-04-01,1,0.00379708268009744,0.004313355303128006,-0.005142441561021425,0.005449738614454002,0.9917438471517337
2016-04-05,1,0.0023499451997012117,0.002622098130146458,-0.005142441561021425,0.010711097695962362,0.9928283635005022
2016-04-07,1,0.002258073769379711,0.0025446325881612504,-0.004657304024827189,0.010711097695962362,0.9931096793371531
2016-04-11,1,0.0021804264903547282,0.0024367858971617124,-0.005457545706825781,0.010711097695962362,0.9926099429172892
2016-04-13,1,0.002870063835850717,0.0032261739489640234,-0.005805338550159796,0.005980700052232629,0.9922795665483172
2016-04-15,1,0.0029550310848460064,0.0033218705137560123,-0.005805338550159796,0.00469162331018326,0.9921807919394862
2016-04-19,1,0.0032692365180429428,0.0036916567126843414,-0.005805338550159796,0.0024725409493831863,0.9924870904375921
2016-04-21,1,0.002539903275823976,0.0028577165651721133,-0.00540042233348108,0.0024725409493831863,0.9933564669017185
2016-04-25,1,0.0025520842343319744,0.00287264116923245,-0.00540042233348108,0.0040780768883833364,0.9931003226664524
2016-04-27,1,0.002682145832333635,0.003012124893322463,-0.00540042233348108,0.0040780768883833364,0.9929180533444435
2016-04-29,1,0.0032150799476881745,0.003654874325111113,-0.0045703158428744145,0.0040780768883833364,0.9935599187738294
2016-05-03,1,0.003031774525728825,0.003412958492190252,-0.0034241669658349847,0.0040780768883833364,0.9944722159063579
2016-05-05,1,0.002584654078685761,0.002876808715456029,-0.0034241669658349847,0.0040780768883833364,0.9945154570677466
2016-05-09,1,0.0023095683342544,0.0025659258517546826,-0.0026306531817397887,0.005839183954553958,0.9949398839525077
2016-05-11,1,0.0029201014409479375,0.0033103269749121342,-0.002089681666817604,0.0040780768883833364,0.995584540817744
2016-05-13,1,0.001759169820256377,0.001881497846706031,-0.0034241669658349847,0.0040780768883833364,0.9949126870637551
2016-05-17,1,0.0016070872321015007,0.001705315813045921,-0.0046179359883255925,0.003282658285145397,0.9944878863813571
2016-05-19,1,0.0014105877298181766,0.0014950837675480764,-0.002965336294940641,0.0043405606214658235,0.9948780250909296
2016-05-23,1,0.0016961606752307792,0.0018483970419210774,-0.0025879704455209433,0.00415008489621016,0.9950022891324928
2016-05-25,1,0.0016856373512405451,0.001803779148174848,-0.0020263315439218565,0.00415008489621016,0.9953625728064251
2016-05-27,1,0.0017180926022396178,0.0018286363671285565,-0.005440391436716166,0.0038629779707774073,0.9921417415088811
2016-06-01,1,0.0013091285854636148,0.0013134870538912655,-0.005440391436716166,0.00415008489621016,0.9899086486626857
2016-06-03,1,0.0005306903328475038,0.0006632930826392827,-0.0046179359883255925,0.005271376803586937,0.988905667526044
2016-06-07,1,0.0004215552632733034,0.0005798217133011092,-0.005911768256894251,0.004885520247228203,0.9884149795526969
2016-06-09,1,0.0003249103086684251,0.0004959081864735506,-0.005911768256894251,0.006257116527150793,0.9879067110621204
2016-06-13,-1,-0.0006381776614023405,-0.00032435177382162403,-0.002657985159735627,0.006257116527150793,0.988255376999479
2016-06-15,-1,-0.0009805068131820908,-0.0006398405223759873,-0.0013730146010585346,0.006257116527150793,0.9884851629690588
2016-06-17,-1,-0.0011989978350840905,-0.0008191322356736312,-0.002063555497510609,0.006257116527150793,0.9884024642149843
2016-06-21,-1,-0.0011352661850402219,-0.0007578500480118497,-0.0027568234910362636,0.006257116527150793,0.9885002102453182
2016-06-23,-1,-0.0007221152187399158,-0.0004114633515594349,-0.003756490054547685,0.006257116527150793,0.9882593776786288
2016-06-27,-1,-0.0033202906548001794,-0.0026946678360317044,-0.002306415150586792,0.006747947165307076,0.990553397421688
2016-06-29,-1,-0.0005965620206769872,-0.000379681275962173,-0.0027568234910362636,0.005529630444031392,0.9939970178332379
2016-07-01,1,0.00019109659983708433,0.0003151243698779847,-0.003381263333601498,0.005529630444031392,0.9934927643289244
2016-07-06,-1,-0.0004502682179318492,-0.00024223150725288128,-0.0027568234910362636,0.005854319381591483,0.9935874769335165
2016-07-08,1,8.11132818075872e-05,0.0002100480745383519,-0.0027568234910362636,0.005693240656750153,0.9938966154611238
2016-07-12,1,0.0002812529914297384,0.00038547731445548624,-0.0027568234910362636,0.0035589038883173446,0.9941198629207305
2016-07-14,0,-3.0363790202956665e-05,0.00012893110569244572,-0.0032311404002329652,0.003553677451527827,0.9941433590783175
2016-07-18,0,-3.014706882815949e-05,0.00011857311229556463,-0.003044937206401674,0.0032950270863082594,0.9942475731786257
2016-07-20,0,-0.0001132999495883083,3.275567382316153e-05,-0.002846273156968831,0.0036473142759564656,0.9944132125292883
2016-07-22,0,-5.562615830989728e-05,8.629837812368867e-05,-0.002846273156968831,0.0023276834230737896,0.9948847443165988
2016-07-26,1,0.0003587547371865922,0.0004215828123884912,-0.002846273156968831,0.0023276834230737896,0.9948310402988443
2016-07-28,1,0.00023332177785645542,0.00030088707206692644,-0.002150889386833927,0.003499639380858446,0.9948901321762199
2016-08-01,-1,-0.0004832082892345,-0.0003223814457940114,-0.0017874923540216092,0.003499639380858446,0.9962505672071287
2016-08-03,1,0.00013241527791900661,0.00020086490602757245,-0.002052036587080716,0.0023276834230737896,0.9967031497622431
2016-08-05,1,0.00018880473630688256,0.0002619593842930799,-0.002052036587080716,0.0017662158838437014,0.9967731747588645
2016-08-09,1,0.00035174135119797384,0.000375934609680711,-0.0011057620063581672,0.0017662158838437014,0.9969153272995324
2016-08-11,1,0.00010612714842096947,0.00016725421098707805,-0.0023422124060260736,0.0017662158838437014,0.9956854272395653
2016-08-15,-1,-0.0002676624630758251,-0.0001433566152039689,-0.002549714757709199,0.003499639380858446,0.9941562711547678
2016-08-17,0,-7.621992435101802e-05,3.5999527115795123e-06,-0.0030286827500954714,0.005999717511325446,0.9936058395999293
2016-08-19,-1,-7.202728510277725e-05,-1.7115064060887157e-05,-0.0030286827500954714,0.005999717511325446,0.9933276024760085
2016-08-23,1,0.00027971691194587304,0.0002824567256591393,-0.0030286827500954714,0.005999717511325446,0.9928186254740518
2016-08-25,-1,-9.351140195402714e-05,-4.82661795470234e-06,-0.0055304241788789385,0.007839079936503384,0.9920230100709492
2016-08-29,1,3.5053151395917726e-05,0.00012466338744307812,-0.0055304241788789385,0.0067986350141229345,0.9921323340186283
2016-08-31,0,-7.796774323599344e-06,8.3822087480782e-05,-0.006538165867977752,0.0067986350141229345,0.991658751659258
2016-09-02,1,0.0005075565377329592,0.0005078644100840566,-0.006538165867977752,0.00802842879716803,0.9910372965091819
2016-09-07,1,0.0005563333846867653,0.0005685043474606127,-0.006538165867977752,0.00802842879716803,0.9906234023025126
2016-09-09,-1,-0.00023275498260362634,-0.00016254200395695713,-0.005720438804758169,0.011413327813377207,0.9912530826076728
2016-09-13,-1,-0.00044024274920710817,-0.0003173109671906038,-0.005720438804758169,0.00802842879716803,0.9918197563467329
2016-09-15,-1,-0.00025500063332606376,-0.00015526926234045793,-0.005720438804758169,0.007175440536787248,0.9920487574913901
2016-09-19,-1,-0.0002471147356368408,-0.00015912160738075176,-0.005720438804758169,0.007175440536787248,0.9921660078371831
2016-09-21,1,0.00037635323042869767,0.0003799327997912107,-0.005720438804758169,0.005975388555120583,0.9926901513416632
2016-09-23,1,0.00043141704624473056,0.0004413776739547159,-0.005720438804758169,0.004812676752797148,0.9932069422084092
2016-09-27,1,0.0003858509930330979,0.0003878776642977321,-0.006041781248627044,0.004420545542467943,0.9925706964970374
2016-09-29,-1,-0.00016055304339080326,-8.217180323743056e-05,-0.005720438804758169,0.004420545542467943,0.9930485241395655
2016-10-03,1,0.00019677704912566716,0.0002243917689702403,-0.005720438804758169,0.004420545542467943,0.9924129031939432
2016-10-05,1,0.00012674032414642348,0.00016148807453340543,-0.0062332141445879275,0.004420545542467943,0.9913715907062175
2016-10-07,1,0.00024990213023707344,0.00027339736122884207,-0.006396647212872178,0.004420545542467943,0.9915362705973942
2016-10-11,-1,-0.0006551031839840401,-0.0005124146309760006,-0.0061972087094996535,0.005934116036452489,0.9907514346062577
2016-10-13,-1,-0.0005528677910272002,-0.00042564700385774385,-0.006396647212872178,0.005934116036452489,0.9900245007781253
2016-10-17,-1,-0.0003860768320287315,-0.0002985060786211515,-0.007490056019258924,0.005934116036452489,0.989482983629967
2016-10-19,1,7.569103183818499e-05,8.562420468610176e-05,-0.007490056019258924,0.0049918648067225485,0.9896539169999934
2016-10-21,-1,-0.00012531854800879654,-0.00010033874627218496,-0.007490056019258924,0.007302409408584789,0.9893047389774943
2016-10-25,-1,-0.0006900278174406096,-0.0005911106903555142,-0.0047572844863332025,0.008616101145334157,0.9898693933475304
2016-10-27,-1,-0.00039198497735160574,-0.000338108481558592,-0.0047572844863332025,0.008616101145334157,0.9899759910483016
2016-10-31,1,0.0002629961003525359,0.00029298814065756697,-0.007033021534972249,0.007929239307059398,0.9907144769139835
2016-11-02,-1,-0.0008563805161249105,-0.0007291273275771603,-0.003626512794184223,0.007929239307059398,0.9909429627516708
2016-11-04,-1,-0.0010320133915342668,-0.00086523539492279,-0.00299574613256824,0.007045709887235562,0.9911388147167541
2016-11-08,1,0.00013608961277914754,0.00016395573614410333,-0.00299574613256824,0.007534993555297883,0.9917497176706644
2016-11-10,1,0.0004100862113455392,0.000424604896760878,-0.00299574613256824,0.006908237340925236,0.9917742326999714
2016-11-14,-1,-0.00012387102805526195,-8.732624526841263e-05,-0.0018388721656233975,0.006908237340925236,0.9925933297917331
2016-11-16,-1,-0.0018672003474538106,-0.001494100918539544,-0.002883667771987613,0.006908237340925236,0.9917159711397747
2016-11-18,-1,-0.000148657254372683,-6.89064665385244e-05,-0.0029613716281923002,0.005975104362062162,0.99272735121489
2016-11-22,1,0.0007809137331415059,0.0008704066075866164,-0.003990973994821466,0.004401389436075346,0.9930466286677395
2016-11-25,1,0.0006020484694395693,0.000637799636341738,-0.003990973994821466,0.004401389436075346,0.9929135434197353
2016-11-29,1,0.0007361816980800491,0.0008134405726966163,-0.003990973994821466,0.003806637624371666,0.9931885388348298
2016-12-01,1,0.00042851475382077876,0.0004804141057388317,-0.003550407546828199,0.003672713856291395,0.9940764540603566
2016-12-05,1,0.0004992786999953111,0.0005596663144220415,-0.0028776551998851182,0.0040496221380329185,0.9938686340331604
2016-12-07,1,0.0014125216864370608,0.00159193162013744,-0.0028776551998851182,0.003672713856291395,0.9950594659563146
2016-12-09,1,0.0005444228282039991,0.0005988428596609199,-0.0037038064103296917,0.003672713856291395,0.9955471567123205
2016-12-13,1,0.00047974234895207174,0.0005341536889571495,-0.0037038064103296917,0.003672713856291395,0.9957710678883944
2016-12-15,1,0.00048363560510798005,0.0005455532344625269,-0.0028776551998851182,0.003672713856291395,0.996049237224162
2016-12-19,1,0.0003524696468114973,0.00038539036310595746,-0.0037038064103296917,0.0037629000287002566,0.9953013923551272
2016-12-21,0,-4.8102447469408215e-05,2.756524264031383e-06,-0.0033398206317712138,0.003679929703032753,0.9953839689034261
2016-12-23,1,0.000361644392224908,0.0003817089508254928,-0.0033398206317712138,0.004657224378673634,0.9951864485386542
2016-12-28,1,0.00015339475384132465,0.00016148619599441516,-0.00207406502366004,0.004657224378673634,0.9954647413493933
2016-12-30,1,5.689023999609658e-06,2.2559880799386815e-05,-0.002228120167622072,0.005074282065173131,0.9947534543211448
2017-01-04,1,0.0004548493300379117,0.0004876426783544108,-0.004173689637466671,0.0048000704375917875,0.9943723443328704
2017-01-06,1,0.0006575527527574174,0.0007090764047237634,-0.004173689637466671,0.0048000704375917875,0.9941031477723313
2017-01-10,1,9.333008296488995e-05,0.00011632366663365198,-0.0004675790139734523,0.0048000704375917875,0.9947005765074319
2017-01-12,-1,-0.00011693128467233499,-5.266376013571459e-05,-0.0003360411859283963,0.0055307272894533355,0.9941192796775051
2017-01-17,1,0.0003217516320950956,0.0003220376726996128,-0.0005970620897486994,0.004827977485117531,0.994536809424194
2017-01-19,0,-2.3433828658692233e-05,7.256941708920668e-06,8.837680278664023e-05,0.005748248250311871,0.9947779586744679
2017-01-23,1,2.5838060602331942e-05,3.016793151901879e-05,0.0007659506058210453,0.005748248250311871,0.9941137690091003
2017-01-25,1,0.000333243292035566,0.0003668034268884191,0.00023852522391442437,0.005748248250311871,0.9945299270018938
2017-01-27,1,0.0005909331933497022,0.0006711951138276163,8.837680278664023e-05,0.005748248250311871,0.99460481928893
2017-01-31,1,0.0004088409843441022,0.0004676803849523381,8.837680278664023e-05,0.006140726770907054,0.9942898705254057
2017-02-02,-1,-0.00024477850543067834,-0.0001698412774164486,8.566607815604297e-05,0.005360032152577148,0.9948117245333106
2017-02-06,1,0.0003406587628342384,0.00034321292886317444,-0.0015093851269575257,0.0040110355354623555,0.995274762239298
2017-02-08,1,0.000482966379928782,0.0005156914224564726,-0.0015093851269575257,0.005360032152577148,0.9950890129874818
2017-02-10,1,0.0007264712842227497,0.0007832981119279921,-0.0015093851269575257,0.0061316545805451695,0.9945475338914201
2017-02-14,1,0.0010523756309139738,0.0011875484638012657,-0.002315509990861865,0.0061316545805451695,0.9942499489344906
2017-02-16,1,0.0014342126462401309,0.0016192008716553376,-0.0031686063420964562,0.005075984326554254,0.9945041292416525
2017-02-21,1,0.0009634228069705341,0.0010887197766099874,-0.004569396812751481,0.005075984326554254,0.9947907859203998
2017-02-23,1,0.0008843805579831521,0.0009722057145138818,-0.004569396812751481,0.0036549726161830614,0.9948755048871609
2017-02-27,1,0.0010714743315761186,0.0012013653756953895,-0.004569396812751481,0.005182535489882168,0.9948452014850352
2017-03-01,1,0.001314160714760147,0.0014696804451427817,-0.004569396812751481,0.005182535489882168,0.9951305091310749
2017-03-03,1,0.0011025982326122188,0.0012420455509906173,-0.0031686063420964562,0.005607037288432953,0.995468568862269
2017-03-07,1,0.0003902179797935544,0.0003923018398178988,-0.002833888459752621,0.005607037288432953,0.9954053026443581
2017-03-09,1,0.0006197290702058072,0.0006511549617054893,-0.002833888459752621,0.005182535489882168,0.9956148615978186
2017-03-13,1,0.0012482506339312042,0.0013555739779854293,-0.002833888459752621,0.003285851295410578,0.9967003038334034
2017-03-15,1,0.0013171700460920394,0.001443521985068932,-0.002833888459752621,0.002264347526050493,0.996583315433874
2017-03-17,1,0.0010222754631528978,0.0010853820182663053,-0.0034756457518030737,0.003285851295410578,0.9961669548619173
2017-03-21,1,0.00021507592399635971,0.0002827869581885549,-0.0016854709985886223,0.003285851295410578,0.9964631463605877
2017-03-23,1,0.00020776992768277701,0.00026804856732620853,-0.0019552705470608093,0.0049952871515882395,0.9951369192609927
2017-03-27,1,0.0007794098622996371,0.0008268271382375872,-0.0019552705470608093,0.005322548651738695,0.994914426214751
2017-03-29,0,-3.8796157919555375e-05,6.622771516129864e-05,-0.0005868652402502422,0.004900457606023487,0.9954314824296908
2017-03-31,1,0.00018357868973483204,0.00026308324230509,-0.001821269446974437,0.004020542352682461,0.9955450906514053
2017-04-04,1,0.0009653627257339911,0.0010512775847911736,-0.001821269446974437,0.0035655010028808223,0.9957260795582153
2017-04-06,1,0.0011798350402817937,0.0013006692545401203,-0.001821269446974437,0.005649651256987822,0.9951568121628722
2017-04-10,1,0.0008028877400487469,0.0008215770650693236,-0.001821269446974437,0.007370835164568142,0.9944190218343232
2017-04-12,1,0.0002994715302718686,0.0003457892058841148,-0.0016193701487036503,0.007370835164568142,0.9946720461541162
2017-04-17,1,0.0007022216183003639,0.0007382401775210079,-0.0007610557842986187,0.0075229536883371145,0.9947789872197055
2017-04-19,1,0.0009033177096123485,0.0009883428898199709,-0.00012068621583881908,0.0075229536883371145,0.9949488143276909
2017-04-21,1,0.0007335912420438288,0.0008019545090196453,0.0,0.006013461786093232,0.9959438041496064
2017-04-25,1,0.0011251966856132593,0.0012402064841441469,0.0,0.006013461786093232,0.9962759936849835
2017-04-27,1,0.0008180474084950421,0.000861452149865024,0.0011100867529409751,0.007500759743892563,0.9955971432706913
2017-05-01,1,0.0008467485978821874,0.0008962028705333131,0.0011100867529409751,0.007500759743892563,0.9955403510877592
2017-05-03,1,0.0013350360611514573,0.0015126926893527992,0.0015175899571777715,0.007500759743892563,0.9959691805368215
2017-05-05,1,0.0012642227776607086,0.0013823434286012082,-0.00012068621583881908,0.005591189976546624,0.9961901873423961
2017-05-09,1,0.0016120612534179916,0.0017652399178675663,-0.000784437385873623,0.005591189976546624,0.9964139412959547
2017-05-11,1,0.0014656209861005382,0.0015938230994137108,-0.00012068621583881908,0.005992083670505796,0.9962357905141889
2017-05-15,1,0.001712826936634546,0.0018687520576607603,0.0011100867529409751,0.005992083670505796,0.9965795887173885
2017-05-17,1,0.0016419996190827823,0.0017829818160046266,0.0015175899571777715,0.007067272630519679,0.996213817380333
2017-05-19,1,0.001959950953128895,0.002148037564494429,0.0015175899571777715,0.007067272630519679,0.9964609201017975
2017-05-23,1,0.001970258578832521,0.0021353074893790767,-0.001962111393967189,0.0062437360494207944,0.9960585338239694
2017-05-25,1,0.002223117525678105,0.002412555189130974,-0.0033135918298828624,0.0056750741028516235,0.9953035357561578
2017-05-30,1,0.0025006654130284313,0.0027487695289760486,-0.003567526080844686,0.0056750741028516235,0.9953009213599169
2017-06-01,1,0.0028093865984709344,0.0031085788339661642,-0.004279446816969096,0.0062437360494207944,0.9945441590515381
2017-06-05,1,0.0022647549136950683,0.002455243837186086,-0.004279446816969096,0.0062437360494207944,0.9949018018582317
2017-06-07,1,0.002220382843961488,0.002399754027886652,-0.0037248867441281902,0.005061595015918758,0.9952335792387416
2017-06-09,1,0.0025262142070253094,0.0027562251461624534,-0.0037248867441281902,0.005061595015918758,0.99498555790416
2017-06-13,1,0.0024722180466897384,0.002666968378489815,-0.0051244084171439,0.004744875268567097,0.9945560716745183
2017-06-15,1,0.0025746222561762074,0.002765449875288659,-0.0051244084171439,0.004658758242260546,0.9945477605672953
2017-06-19,1,0.0028411657346215434,0.003078906524771398,-0.0051244084171439,0.00456995938249098,0.9945513258471237
2017-06-21,1,0.002410877712526843,0.002592427551337788,-0.0019158230857015985,0.0047695515415149305,0.9950932903104391
2017-06-23,1,0.0014222534924457886,0.0014541233174353684,0.0013917109006714907,0.0047695515415149305,0.9958930999616967
2017-06-27,1,0.0011753204824911147,0.0011754566197574702,0.0013917109006714907,0.004669964528072042,0.9956507941594682
2017-06-29,1,0.0014057457031023497,0.0014479605542396883,0.0013917109006714907,0.004669964528072042,0.9946470714540783
2017-07-03,1,0.0014277798215796532,0.0014659038828314657,0.0012543210105760358,0.004996578155600421,0.9940062179801435
2017-07-06,1,0.0014862165870008538,0.0015517572242940928,-0.002045277112280852,0.004996578155600421,0.9939124176252271
2017-07-10,1,0.0018355106876649118,0.0019459489956243003,-0.002045277112280852,0.004669964528072042,0.9943473187062044
2017-07-12,1,0.0017513604192673322,0.0018695785909119314,-0.0014937357305887366,0.004996578155600421,0.9943823612745524
2017-07-14,1,0.0016780280228777056,0.0017553670388277044,-0.002762483263749191,0.004614361339450106,0.9939405441680702
2017-07-18,1,0.001894025203154039,0.0020028378176511485,-0.0028689403240210833,0.004996578155600421,0.9936068382409661
2017-07-20,1,0.0020622845923802652,0.0021910727609419393,-0.0033861525214439374,0.0028677870578093703,0.9927718955690401
2017-07-24,1,0.002459828783629132,0.0026400237428345127,-0.0033861525214439374,0.004281617603794543,0.9920345603064874
2017-07-26,1,0.0019182802052608167,0.0020015922072281304,-0.0033861525214439374,0.00941587390822737,0.9917496372400002
2017-07-28,1,0.0015251222088881165,0.0015325578322065562,-0.003215755374468332,0.0037640062707503096,0.9937118277352487
2017-08-01,1,0.0016764286224887188,0.001711975964715692,-0.003215755374468332,0.0020673704935864163,0.9940550547868107
2017-08-03,1,0.0017441139529304093,0.0018293574896950824,-0.003215755374468332,0.0036205798352583734,0.9941675311877335
2017-08-07,1,0.001551394141994981,0.0016049048412759368,-0.003215755374468332,0.007777472367189522,0.9937841973933208
2017-08-09,1,0.0017446636229013672,0.0018129792966858132,-0.0033519290258944377,0.0036205798352583734,0.9936238981290985
2017-08-11,1,0.0008819903261819319,0.0009594374200907313,-0.002836533506348631,0.007777472367189522,0.993097353624691
2017-08-15,1,0.0009056107079378995,0.0009886545676232755,-0.0024126974647037127,0.0036205798352583734,0.9936396438344501
2017-08-17,1,6.148903994614824e-05,0.00023628867451316133,-0.0024126974647037127,0.007541050822027508,0.9939385553591226
2017-08-21,1,0.00022761822180247825,0.0003983576300067633,-0.0024126974647037127,0.005700493522418977,0.9942561520047587
2017-08-23,1,0.0002253661735682127,0.0003869107008109335,-0.0024126974647037127,0.005700493522418977,0.9943500118016706
2017-08-25,1,1.3098668029742e-05,0.0002004916509924222,-0.002484057480784914,0.007346066648254029,0.9939305334302415
2017-08-29,0,-0.00012901374596290037,7.238516868818148e-05,-0.0011802628687546135,0.007346066648254029,0.9937652399399719
2017-08-31,1,0.00012921713305645208,0.00029942281370590526,-0.0029865408972589297,0.00733728282259136,0.9938191593964752
2017-09-05,1,5.6095421637662756e-05,0.00025843612514733717,-0.002010989998673886,0.00733728282259136,0.9940559992378785
2017-09-07,-1,-0.0006006911203488142,-0.00031994873765973724,-0.0011712072092621435,0.00733728282259136,0.9941825583793441
2017-09-11,1,0.00039228052246002506,0.0005634883806687723,-0.0011712072092621435,0.0056975655805314215,0.9957371154062921
2017-09-13,1,0.00011846899073808764,0.0003503014735649644,-0.0011712072092621435,0.0056975655805314215,0.9956668859961393
2017-09-15,1,0.00032505418425398064,0.0005158628483216358,8.482363961343619e-05,0.0056975655805314215,0.9959005845995867
2017-09-19,1,0.0004286639706553571,0.0006135610392973229,-0.0011712072092621435,0.004686602261664362,0.9958460697616636
2017-09-21,1,0.0003448954146056288,0.000544993043210164,8.482363961343619e-05,0.004686602261664362,0.9962121930270589
2017-09-25,1,0.00017022251143676125,0.00039903191269847224,0.0007375155239796548,0.004055241300496909,0.9964524449944436
2017-09-27,1,0.0006896571833238328,0.0008317578076578045,8.482363961343619e-05,0.003617340320109698,0.9966176683265594
2017-09-29,1,0.0008010625615007467,0.000909874284300467,-0.0007764474180085858,0.0035588556533433023,0.99522915914846
2017-10-03,1,0.0008612759534230501,0.0009548716128845139,-0.003296093126733418,0.003040230647211325,0.9946152993796302
2017-10-05,1,0.0007338948349411875,0.0008243136347970599,-0.004282791364009232,0.003040230647211325,0.9932679686281055
2017-10-09,1,0.0007859387068764848,0.0008765605946399722,-0.004282791364009232,0.003125851634630048,0.9927750766027584
2017-10-11,1,0.000960895159366924,0.0010170544075363175,-0.004282791364009232,0.004038574447251965,0.9925894282289915
2017-10-13,1,0.0014505065728208566,0.0014689051020991939,-0.004282791364009232,0.004038574447251965,0.9919900367870986
2017-10-17,1,0.0015091866221322628,0.00156022122116121,-0.004282791364009232,0.004723808795454391,0.9913943056590651
2017-10-19,1,0.0018067123492023893,0.0018981004259121166,-0.006083196852914153,0.0033487074662825423,0.9907723607636201
2017-10-23,1,0.002084716008540092,0.002220730289728856,-0.006083196852914153,0.0033487074662825423,0.9905153907847051
2017-10-25,1,0.001730095161576524,0.0018015577172377775,-0.009833442823475957,0.0013373685197983199,0.9898664675947271
2017-10-27,1,0.00013389973969178296,0.0002576308016420144,-0.006083196852914153,0.0013373685197983199,0.9920376271707027
