JNU-Tangyin/eata/results/Batch4_SP500/Batch4_SP500-EMN.csv
Date,Action,Predicted_Q25,Predicted_Q75,Actual_Q25,Actual_Q75,RL_Reward
2010-12-14,0,0.0,0.00036249308284167517,0.0008766862506364903,0.00964725399623541,0.9920557998932017
2010-12-16,0,0.0,0.0,0.0011041522917607863,0.00964725399623541,0.9916333795055993
2010-12-20,1,1.839712322125924e-05,4.221617310295999e-05,0.0011041522917607863,0.012408032783302192,0.9902841660450195
2010-12-22,1,0.0020744335552438965,0.0021578658079530206,-0.0002909554358180946,0.00964725399623541,0.990837872293307
2010-12-27,1,0.00213380358320546,0.002217347221554836,-0.001042980138171475,0.012474995123830775,0.9895446113290703
2010-12-29,0,0.0,0.0,-0.0037258277979194546,0.014345751288154423,0.9873878081449716
2010-12-31,0,0.0,0.0,-0.007721339491998506,0.014345751288154423,0.9864160489476702
2011-01-04,1,0.00141105963053834,0.0015100160433028037,-0.010893590889661018,0.01122776623473606,0.9872555959652057
2011-01-06,1,0.001005922346525798,0.0011643481815935715,-0.010893590889661018,0.01122776623473606,0.9873193049071549
2011-01-10,1,0.0016387827678174926,0.0017154551494544463,-0.010893590889661018,0.009737897638252366,0.987245746717384
2011-01-12,0,0.0,0.0,-0.011833715808091914,0.007072842127369926,0.9886304822293326
2011-01-14,0,0.0,0.0,-0.011833715808091914,0.009614727571335711,0.9885090190861072
2011-01-19,0,0.0,0.0,-0.011833715808091914,0.009614727571335711,0.9880900557971685
2011-01-21,0,0.0,0.0,-0.010893590889661018,0.01062670267904707,0.9872013329739785
2011-01-25,1,0.00024463104209207287,0.0003972480587062154,-0.010893590889661018,0.009614727571335711,0.9858200035240572
2011-01-27,1,0.0006532564181968284,0.0007435164948037165,-0.010203537026380294,0.009614727571335711,0.9873965883134664
2011-01-31,0,0.0,0.0,-0.011054112506111685,0.009614727571335711,0.9860002131240034
2011-02-02,0,0.0,0.0,-0.009185769378840794,0.017056834796517543,0.983564985956272
2011-02-04,0,0.0,0.0,-0.010389459204202162,0.017056834796517543,0.982991282539741
2011-02-08,0,0.0,0.0,-0.012391482341557515,0.02268849766380822,0.9816706713852893
2011-02-10,0,0.0,0.0,-0.013773060903541967,0.02268849766380822,0.9810471810736123
2011-02-14,1,0.0010724294196847288,0.0011322077165750342,-0.0158463512106206,0.02268849766380822,0.9808166219883038
2011-02-16,0,0.0,0.0,-0.012417925808674202,0.02268849766380822,0.9817601618765902
2011-02-18,0,0.0,0.0,-0.012417925808674202,0.02250867811758419,0.9820946249568528
2011-02-23,0,0.0,0.0,-0.010177357917082774,0.02250867811758419,0.9842487922070372
2011-02-25,0,0.0,0.0,-0.010177357917082774,0.02250867811758419,0.9845331064836118
2011-03-01,0,0.0,0.0,-0.009065258076832844,0.017346007970783128,0.9856229758184125
2011-03-03,1,0.0026812254045522005,0.0029041283082817905,-0.009065258076832844,0.010509591497629337,0.988546602310239
2011-03-07,1,0.0018987404463947893,0.002004455471703097,-0.004167965045926244,0.011350138155514708,0.9893432834713776
2011-03-09,1,0.002069452468701911,0.0021980893822777636,-0.004167965045926244,0.009932708458022355,0.9909270856378969
2011-03-11,1,0.002084153102023176,0.0022236427894987646,-0.003507202208913241,0.008159891064012229,0.9922729124421084
2011-03-15,1,0.0017130808222634696,0.0018235202504378314,-0.004167965045926244,0.008159891064012229,0.9912883303640663
2011-03-17,1,0.0014615124091410532,0.00150410101904645,-0.004167965045926244,0.007466568565727262,0.9920986982021803
2011-03-21,1,0.002352484156428118,0.0025386757895356,-0.004764160161371117,0.007466568565727262,0.9924003759752461
2011-03-23,1,0.0015863262579304354,0.0016429363085052405,-0.004121507862611231,0.008194069400148878,0.9921874508397623
2011-03-25,1,0.0024615531039128024,0.0025808411035659166,-0.004121507862611231,0.008194069400148878,0.9925288086342682
2011-03-29,1,0.002022693896076015,0.0021352328502207375,-0.0016320340092322372,0.0079119264609818,0.9932610930354204
2011-03-31,1,0.0019985853702138255,0.0020885272790726207,-0.0016320340092322372,0.008194069400148878,0.9912280558474872
2011-04-04,1,0.0025343418472359666,0.0026006553953201346,-0.008361691860259288,0.0079119264609818,0.9896777590562402
2011-04-06,1,0.002272681172306704,0.0023112099903950826,-0.009036657954886704,0.0079119264609818,0.989138322295025
2011-04-08,1,0.0014456267489671186,0.00154256821108611,-0.009036657954886704,0.009826708897664278,0.9874033126812942
2011-04-12,1,0.0003821958418790866,0.0006070282967589485,-0.00599815601781021,0.013959217700504808,0.9870939898542679
2011-04-14,1,0.0007357353290166087,0.0008948689036762404,-0.008652261045947204,0.013959217700504808,0.9868640302942575
2011-04-18,1,0.0003630414216471685,0.0006207172006767864,-0.011878346468886344,0.009826708897664278,0.9867389931760027
2011-04-20,1,0.0012119042302268157,0.0013424396411763362,-0.011878346468886344,0.010865119499398161,0.9862096040630836
2011-04-25,1,0.000823758743667006,0.001046616485195966,-0.014849035418277798,0.010865119499398161,0.9841275937776486
2011-04-27,1,0.0021012360474175927,0.0021126827423607352,-0.014849035418277798,0.02014705599366686,0.983132031914298
2011-04-29,1,0.0027069759751025837,0.002782448610005448,-0.014849035418277798,0.013963050496484579,0.9845995959766426
2011-05-03,1,0.0008322036495227063,0.001021132429422752,-0.012620907952212214,0.014933076635527936,0.9845479345836287
2011-05-05,-1,-0.0009847503742166273,-0.0005393677101523304,-0.015049018371209649,0.014933076635527936,0.9839568742722753
2011-05-09,1,0.000798372665483008,0.0010571924637566097,-0.015049018371209649,0.01233649694951612,0.9851033560544762
2011-05-11,1,0.00028625615614183983,0.0005792529248498084,-0.012620907952212214,0.00887357826881889,0.9864181169627178
2011-05-13,0,-0.0003047603079989671,4.295728309762915e-05,-0.014112100404214043,0.00887357826881889,0.9859524076388306
2011-05-17,-1,-0.00157194661924207,-0.001103863334968598,-0.014832496993883034,0.01233649694951612,0.9842044732002361
2011-05-19,1,9.595445276987312e-05,0.0003587891862687102,-0.015548650747587763,0.00887357826881889,0.9849583013916213
2011-05-23,-1,-0.001039617599804841,-0.000664213142962327,-0.010880644596212154,0.013475352129365754,0.9847961662109375
2011-05-25,1,4.2939540529995305e-05,0.00030030591007480757,-0.010880644596212154,0.01233649694951612,0.9856097508160238
2011-05-27,1,0.0007116969164988646,0.0008486884516841181,-0.010880644596212154,0.009196920315166678,0.9858597141261842
2011-06-01,1,5.557700395973945e-05,0.0002577846924594206,-0.009252895084030327,0.00936574935597295,0.9872595252342528
2011-06-03,-1,-0.00020547606690781697,-9.82743431715452e-07,-0.008055364834235294,0.014301377936164004,0.987371624936229
2011-06-07,1,0.0003764951629975241,0.0004727695570540172,-0.008055364834235294,0.011085772503919355,0.9877895359690156
2011-06-09,0,-0.0001090188105893591,5.791133157330951e-05,-0.008179530593870043,0.015618776110552353,0.9872087170726606
2011-06-13,-1,-0.001302242303437875,-0.0009728376614251185,-0.006101960157364587,0.015618776110552353,0.9871643859650431
2011-06-15,-1,-0.0021476115116491118,-0.0016794824766612115,-0.006101960157364587,0.011085772503919355,0.9896761599458606
2011-06-17,-1,-0.0026711016150565855,-0.002167658351580229,-0.006101960157364587,0.011085772503919355,0.9895548094977803
2011-06-21,1,0.0005038072500933797,0.0005313768122573251,-0.006101960157364587,0.007055072198665436,0.990407785968432
2011-06-23,1,4.3878714760790325e-05,7.786156618407104e-05,-0.005501620253423481,0.011444554625169402,0.9900883495582771
2011-06-27,-1,-0.0008871300404382545,-0.0006730534257566937,-0.005501620253423481,0.011444554625169402,0.990322268940398
2011-06-29,1,0.0008476276458616885,0.0009115684596723102,-0.009731598392468026,0.007055072198665436,0.9893289140402901
2011-07-01,1,0.0007064672693326383,0.0007494189054201171,-0.010551489964480977,0.004261607808357635,0.9888254599891222
2011-07-06,0,0.0,0.0,-0.011636322658681574,0.002623709270843642,0.9871578466530491
2011-07-08,0,0.0,0.0,-0.014380318150038943,0.0021649481571120862,0.9849757320594013
2011-07-12,0,0.0,0.0,-0.015942178772155473,0.002906588159210093,0.9782793528756372
2011-07-14,1,0.0007090042234874669,0.000735029862386771,-0.02929003433583812,0.004755980579681629,0.9752198155588079
2011-07-18,-1,-0.0007037013181464498,-0.0004162908981639008,-0.02929003433583812,0.01180366526014075,0.9751070972278973
2011-07-20,1,0.0004488724185195879,0.0005869643420797021,-0.02929003433583812,0.004603069588836897,0.9747890409143167
2011-07-22,1,0.00021095142907947043,0.00037144904794199314,-0.03574291674264241,0.0021649481571120862,0.971410043242779
2011-07-26,1,0.0008694968667487062,0.0008811833262987981,-0.03574291674264241,0.004603069588836897,0.9689635219346558
2011-07-28,-1,-0.00047403880664471476,-0.00029813659031951447,-0.03574291674264241,0.007894970508702996,0.9703676986923221
2011-08-01,-1,-0.001373028689812044,-0.0010893617012495802,-0.026162955384257214,0.016364582533881716,0.9692341973047679
2011-08-03,-1,-0.0026871526061855787,-0.002298698888002325,-0.019378500856170683,0.016364582533881716,0.9708527229300555
2011-08-05,-1,-0.004657007964971942,-0.004014909504805464,-0.021672976983019135,0.016364582533881716,0.9720591859876898
2011-08-09,-1,-0.004416135111815595,-0.0038262353327545686,-0.021672976983019135,0.016364582533881716,0.9765681199649994
2011-08-11,-1,-0.004141675057066861,-0.0036075339321326736,-0.021672976983019135,0.01180366526014075,0.9778443951231666
2011-08-15,-1,-0.003624862148595475,-0.003163035015104349,-0.021672976983019135,0.011745626978072113,0.9780131777248353
2011-08-17,-1,-0.004273611575543807,-0.0037519861095973825,-0.018979572764906652,0.020852158773918383,0.9771483581893375
2011-08-19,-1,-0.0062452082177954565,-0.005510513777062346,-0.015416681339516848,0.020852158773918383,0.9803336595011068
2011-08-23,-1,-0.005267204269777873,-0.004654642675965033,-0.022572980988088725,0.014083260666554699,0.9805721390795173
2011-08-25,-1,-0.005486878183038868,-0.004872132717387835,-0.027264567299785852,0.014083260666554699,0.9781760612441394
2011-08-29,-1,-0.003781392194227037,-0.003362988706206293,-0.027264567299785852,0.012548243962376969,0.9777570051238569
2011-08-31,-1,-0.0034812558897315323,-0.003102339886674886,-0.02973008593842426,0.014556578130121553,0.9761033881509061
2011-09-02,-1,-0.005388534487882048,-0.004744634737416259,-0.02973008593842426,0.014556578130121553,0.9771173923973859
2011-09-07,-1,-0.005596952653112239,-0.004944355233821755,-0.027264567299785852,0.014556578130121553,0.9779645919743419
2011-09-09,-1,-0.006773912719444372,-0.006004509908337969,-0.01704501765637907,0.014556578130121553,0.9790706509498088
2011-09-13,-1,-0.0056393052826898184,-0.005029157233711249,-0.01704501765637907,0.014556578130121553,0.9777623083617774
2011-09-15,-1,-0.004253931104288804,-0.003827517630572609,-0.01704501765637907,0.010631875276248558,0.9794094515428592
2011-09-19,-1,-0.004062931503378842,-0.00368674528506813,-0.025274101475665566,0.014556578130121553,0.9775474653283689
2011-09-21,-1,-0.004984232167134011,-0.0045633741458222556,-0.015199677427296636,0.016732854573506054,0.9767123168112428
2011-09-23,-1,-0.006687697105529848,-0.006032604752276252,-0.007812023503021433,0.019686548345418102,0.9772481203220366
2011-09-27,-1,-0.004900163074215708,-0.0044380759517789565,-0.015199677427296636,0.019686548345418102,0.9775692677094576
2011-09-29,0,0.0,0.0,-0.007812023503021433,0.02976904816989155,0.9764313997844862
2011-10-03,0,0.0,0.0,-0.007812023503021433,0.035395788140833453,0.9727665616974905
2011-10-05,0,0.0,0.0,-0.015199677427296636,0.02976904816989155,0.9732457141906221
2011-10-07,0,0.0,0.0,-0.01423131376555141,0.03380522249212266,0.9721800272448657
2011-10-11,0,0.0,0.0,-0.01423131376555141,0.03380522249212266,0.9720366924828794
2011-10-13,0,0.0,0.0,-0.024955980491834666,0.03380522249212266,0.9689012950377636
2011-10-17,0,0.0,0.0,-0.014311751382195186,0.03380522249212266,0.970387653190413
2011-10-19,0,0.0,0.0,-0.014129384409210608,0.03380522249212266,0.971695902234924
2011-10-21,0,0.0,0.0,-0.024650192422812255,0.02467765978763265,0.9709557698748253
2011-10-25,0,0.0,0.0,-0.022982005792558293,0.01883739905801619,0.9738230970836428
2011-10-27,0,0.0,0.0,-0.024650192422812255,0.017179336362915288,0.9757785952572424
2011-10-31,1,0.0,0.0018055383697303867,-0.022982005792558293,0.017179336362915288,0.9796174021474464
2011-11-02,1,0.0010253899108502624,0.0015350940662438365,-0.01906184790132111,0.018797084777356858,0.9768435080656122
2011-11-04,1,0.0017800658696062177,0.0023464171224945223,-0.01906184790132111,0.014211388549073372,0.9776023473806708
2011-11-08,1,0.0033535686589628725,0.004088670659560965,-0.01906184790132111,0.01289514527554911,0.9795282092573884
2011-11-10,0,0.0,0.0,-0.01906184790132111,0.011485899470990116,0.9815973699088468
2011-11-14,0,0.0,0.0,-0.022982005792558293,0.010544698532052688,0.9800539584676602
2011-11-16,0,0.0,0.0,-0.01906184790132111,0.005255439791736004,0.9812279947011703
2011-11-18,0,0.0,0.0,-0.01906184790132111,0.011485899470990116,0.9818032927634166
2011-11-22,0,0.0,0.0,-0.017017105256351486,0.01289514527554911,0.9789066176141727
2011-11-25,0,0.0,0.0,-0.013623921952264206,0.013194065931248219,0.9798359665840829
2011-11-29,0,0.0,0.0,-0.017017105256351486,0.011525536312416899,0.9808322844459598
2011-12-01,0,0.0,0.0,-0.013623921952264206,0.011525536312416899,0.9837263400786613
2011-12-05,0,0.0,0.0,-0.010759761585291072,0.011705546443835656,0.9834208819218634
2011-12-07,0,0.0,0.0,-0.010759761585291072,0.013959800408962905,0.982236805958531
2011-12-09,1,0.0032376676130402592,0.003975355155587165,-0.007531636601029086,0.01616709301848107,0.9819925005966221
2011-12-13,1,0.0019064362483025572,0.0025034857085480863,-0.0027628483982534997,0.02949538136975806,0.9820053490745435
2011-12-15,1,0.0019975204470215383,0.0026168171610340143,-0.0027628483982534997,0.02949538136975806,0.9813428025477893
2011-12-19,1,0.0012067779246121557,0.0016559839326555006,-0.0021774487232561054,0.02949538136975806,0.9817669159560736
2011-12-21,1,0.0033499740940964653,0.004073130202721707,-0.0021774487232561054,0.023257431634012345,0.9855085790403328
2011-12-23,0,0.0,0.0,-0.0021774487232561054,0.023257431634012345,0.9847506665532698
2011-12-28,0,0.0,0.0,-0.0011458914069059133,0.02949538136975806,0.9822934672199354
2011-12-30,0,0.0,0.0,-0.0011458914069059133,0.02949538136975806,0.9834769234685105
2012-01-04,0,0.0,0.0,-0.0011458914069059133,0.030534379484671064,0.9827624311866582
2012-01-06,0,0.0,0.0,-0.0011458914069059133,0.028837052749528077,0.9823171031325241
2012-01-10,0,0.0,0.0,-0.0020458466164806214,0.023001186181974914,0.9842145050099332
2012-01-12,0,0.0,0.0,-0.0023021624834676973,0.012533538539191893,0.9866013742213566
2012-01-17,0,0.0,0.0,-0.001659109310782303,0.012533538539191893,0.9871501354235662
2012-01-19,0,0.0,0.0,-0.0023021624834676973,0.012533538539191893,0.9873468326969991
2012-01-23,0,0.0,0.0,-0.0023021624834676973,0.012533538539191893,0.9878959825025758
2012-01-25,0,0.0,0.0,-0.0029413030750373263,0.00935205677154263,0.9881449348796719
2012-01-27,1,0.007495649092458883,0.008478581818646917,-0.004165595984083977,0.0067395477918579146,0.9894358777138653
2012-01-31,1,0.007240402609669901,0.008239959121870732,-0.00458880055814629,0.00935205677154263,0.9889650117709138
2012-02-02,1,0.007972267125788557,0.008916566868451952,-0.005039304635772038,0.0067395477918579146,0.9895124867027583
2012-02-06,1,0.008769107694299123,0.00988042558059178,-0.008836604752958593,0.0030069514701558785,0.9858465630518692
2012-02-08,1,0.00943277810635523,0.010663987817902341,-0.008836604752958593,0.0067395477918579146,0.985030893097961
2012-02-10,1,0.008528310200762872,0.009607286829118634,-0.007730760467854697,0.0067395477918579146,0.9854599119191042
2012-02-14,1,0.007417177520878119,0.00822694004227558,-0.008836604752958593,0.006680104808802595,0.9855961400113751
2012-02-16,1,0.006130094643364403,0.00667516550254889,-0.007730760467854697,0.006680104808802595,0.9871468384194458
2012-02-21,1,0.0066537031141646295,0.0073678292412251425,-0.007730760467854697,0.006680104808802595,0.9864981667809275
2012-02-23,1,0.005819923271328486,0.00637632109083805,-0.008494372041354828,0.006680104808802595,0.9865515179104141
2012-02-27,1,0.005528333356441319,0.005957463270818551,-0.008494372041354828,0.008325692196793634,0.9866975619281223
2012-02-29,1,0.006787247100713857,0.007537614909161564,-0.008494372041354828,0.007982917746189587,0.986431463387418
2012-03-02,1,0.007227835954518068,0.008052693020224834,-0.008494372041354828,0.008325692196793634,0.9872154397574173
2012-03-06,1,0.004173515878901045,0.00453619009388378,-0.007209131078515488,0.009391027831030102,0.9904665349951022
2012-03-08,1,0.005112171362234666,0.00559046807196949,-0.008100464158573475,0.008325692196793634,0.9904665267298948
2012-03-12,1,0.005331991332734189,0.0058294352713031215,-0.010330142936788212,0.008325692196793634,0.9890846497132937
2012-03-14,1,0.004803462275562191,0.005156902714416893,-0.00853247421390406,0.009391027831030102,0.9878941829937699
2012-03-16,1,0.004878641453341207,0.005315624415604183,-0.010436831694381244,0.009391027831030102,0.9873722660247762
2012-03-20,0,0.0,0.0,-0.011941825216141183,0.010992404628926016,0.9867875629665299
2012-03-22,0,0.0,0.0,-0.010436831694381244,0.010992404628926016,0.9872651083907193
2012-03-26,1,0.001285076874245388,0.0012947267264387353,-0.010660884336909723,0.009391027831030102,0.9872616654776489
2012-03-28,1,0.00032196653111024793,0.00048595004383812125,-0.01001091926818302,0.012586063993367955,0.9860772145765355
2012-03-30,1,0.0007834585557889032,0.0008719572721141189,-0.01001091926818302,0.012586063993367955,0.9862015960855423
2012-04-03,1,0.0018594403757705913,0.0019614020749859364,-0.01001091926818302,0.006404685018595279,0.9867224166822919
2012-04-05,1,0.000900306915520004,0.0009698429824642294,-0.010660884336909723,0.006404685018595279,0.9850477190820659
2012-04-10,0,0.0,0.0,-0.0106041934044486,0.008400149524762337,0.9862396888249275
2012-04-12,0,0.0,0.0,-0.0106041934044486,0.0055201559982331425,0.9883889842426927
2012-04-16,0,0.0,0.0,-0.0106041934044486,0.00148674509056454,0.9875446746007909
2012-04-18,0,-8.985714653121592e-05,0.00016584963993772892,-0.013651608593849755,-0.0010626703366980203,0.9872700386337492
2012-04-20,-1,-0.0008222383485236508,-0.00041838163061899366,-0.019784492689073552,-0.0024641458960802986,0.9856378089522322
2012-04-24,-1,-0.001389009599457476,-0.0009423687069218837,-0.019784492689073552,0.00023453311342665033,0.9845759007852007
2012-04-26,0,0.0,0.0,-0.019784492689073552,0.0008354610191996039,0.9844851092846387
2012-04-30,0,0.0,0.0,-0.019784492689073552,0.010549828050812277,0.9821630785608682
2012-05-02,0,0.0,0.0,-0.02113450102767645,0.010549828050812277,0.9798995916371067
2012-05-04,-1,-0.002754144447954374,-0.002104040070285463,-0.019784492689073552,0.010549828050812277,0.9807432280181829
2012-05-08,-1,-0.0041273803160535305,-0.0032204940035724123,-0.019784492689073552,0.015383914635897169,0.9784835091605344
2012-05-10,-1,-0.004994174066122294,-0.00396076625575262,-0.019784492689073552,0.01871896058102425,0.9773432051623896
2012-05-14,-1,-0.006842585894316338,-0.005545482909528639,-0.019784492689073552,0.02464800448748524,0.9751392740032551
2012-05-16,-1,-0.006846631573212222,-0.005659509656327575,-0.021358462912021092,0.02464800448748524,0.9740843677854546
2012-05-18,-1,-0.007999894160509877,-0.006705073729224297,-0.011125884686781233,0.02464800448748524,0.973890130636438
2012-05-22,-1,-0.007706529638301824,-0.006407959881341084,-0.01060500050622273,0.024581048054883804,0.9742008486210736
2012-05-24,-1,-0.006739752010159009,-0.005561352956969539,-0.021358462912021092,0.02150301907489025,0.9739613118629364
2012-05-29,0,0.0,0.0,-0.02595635698192948,0.02059186618830915,0.9745253816893461
2012-05-31,0,0.0,0.0,-0.012137631862858858,0.024215485833221646,0.9761999782581829
2012-06-04,0,0.0,0.0,-0.00824337391768683,0.0297069576516406,0.9767692223844036
2012-06-06,0,0.0,0.0,-0.012510862998381223,0.022899469779829068,0.9785572508992147
2012-06-08,0,0.0,0.0,-0.013466990744875597,0.022899469779829068,0.978986494677137
2012-06-12,0,0.0,0.0,-0.013466990744875597,0.019065093211029862,0.9805463529714139
2012-06-14,0,0.0,0.0,-0.012510862998381223,0.022899469779829068,0.9815318094164907
2012-06-18,0,0.0,0.0,-0.012510862998381223,0.022899469779829068,0.9820538060489793
2012-06-20,0,0.0,0.0,-0.012510862998381223,0.021303571037631086,0.9831197101824185
2012-06-22,0,0.0,0.0,-0.01293878714398129,0.021303571037631086,0.9839897225810216
2012-06-26,0,0.0,0.0,-0.012510862998381223,0.013816753136826388,0.9857449872777729
2012-06-28,0,0.0,0.0,-0.012510862998381223,0.021355405926123547,0.9837333467703911
2012-07-02,0,0.0,0.0,-0.012545188658044618,0.021355405926123547,0.984704198496315
2012-07-05,1,0.0010423409976179437,0.001256681882412473,-0.011612322644288003,0.01588767211867577,0.9854411875828465
2012-07-09,1,0.0008314838173193247,0.0010211562179017748,-0.007087698736949414,0.020897533434668616,0.9850612281966635
2012-07-11,0,0.0,0.0,-0.005635831269357048,0.020897533434668616,0.9858416945117082
2012-07-13,0,0.0,0.0,-0.005635831269357048,0.01588767211867577,0.9868092842302727
2012-07-17,0,0.0,0.0,-0.006490723580822093,0.01588767211867577,0.9864380460182328
2012-07-19,0,0.0,0.0,-0.006490723580822093,0.014756574908541965,0.9863931535796211
2012-07-23,0,0.0,0.0,-0.003823684766108835,0.016343180962591672,0.9870511467919189
2012-07-25,0,0.0,0.0,-0.0028704830443424187,0.016343180962591672,0.9875329767116494
2012-07-27,0,0.0,0.0,-0.005617757203022303,0.01157156706977888,0.990193518986994
2012-07-31,0,0.0,0.0,-0.003817660077330587,0.009072534101579436,0.9917644363799893
2012-08-02,0,0.0,0.0,-0.005747626543762536,0.008020678629505083,0.9917436015779422
2012-08-06,0,0.0,0.0,-0.0068803316030427945,0.00602508753508487,0.9919184755843836
2012-08-08,0,0.0,0.0,-0.005747626543762536,0.008270351876474277,0.9909588480913575
2012-08-10,0,0.0,0.0,-0.005747626543762536,0.010194116725330684,0.9905776098742461
2012-08-14,0,0.0,0.0,-0.005747626543762536,0.010194116725330684,0.9908008712967402
2012-08-16,0,0.0,0.0,-0.005747626543762536,0.010194116725330684,0.99000578364808
2012-08-20,0,0.0,0.0,-0.007098949781484109,0.008443414330239315,0.9900551271311843
2012-08-22,0,0.0,0.0,-0.00991076933185462,0.009800593611419241,0.9892146167651225
2012-08-24,1,0.0038152235765177888,0.004425401534749248,-0.00991076933185462,0.009800593611419241,0.9888853689035189
2012-08-28,1,0.003509603377073624,0.004029078321444138,-0.011176895082756877,0.009800593611419241,0.9875420733599073
2012-08-30,1,0.0021373925051687962,0.0023986051105295103,-0.011176895082756877,0.011558555161992057,0.9878383705691363
2012-09-04,1,0.0031985871564861592,0.0037161176688739906,-0.00957550208001056,0.01078800365620447,0.9885056842047069
2012-09-06,1,0.004223353082850969,0.004851991438637919,-0.00957550208001056,0.01078800365620447,0.988764761503131
2012-09-10,1,0.00435072381031423,0.005004591897726432,-0.011176895082756877,0.01078800365620447,0.9863602769115344
2012-09-12,1,0.0038120551453565982,0.004384826616291108,-0.01199949952892791,0.01078800365620447,0.9859372025255051
2012-09-14,1,0.0047325287169225315,0.005394806444541569,-0.012497506989198732,0.004623230507873052,0.9854863924394799
2012-09-18,1,0.005013925113616551,0.005807005758637091,-0.01199949952892791,0.01293993844407596,0.9847667196216578
2012-09-20,1,0.004837675477137598,0.005590700246478309,-0.011727383178190116,0.01293993844407596,0.9858112819170772
2012-09-24,1,0.004357238558383751,0.005049427215187144,-0.01199949952892791,0.01293993844407596,0.9849308382996289
2012-09-26,1,0.0023480383194676847,0.002642747414311256,-0.012497506989198732,0.01293993844407596,0.9847091523586445
2012-09-28,1,0.0032443337311411193,0.003664480145642966,-0.013946765126046926,0.010323025947039436,0.9802562167113489
2012-10-02,1,0.0023872580457468154,0.0026572622010391975,-0.014791410396168889,0.019182496611996766,0.9789916011156445
2012-10-04,1,0.0022144688109021478,0.0023946440043277318,-0.01510076828839334,0.015520329123184523,0.9783037487381211
2012-10-08,1,0.0010635075733228796,0.0011043001284695604,-0.014791410396168889,0.009102303450768687,0.980653427378845
2012-10-10,-1,-0.0008528408472595096,-0.0005200122542801134,-0.01510076828839334,0.009102303450768687,0.9800167855065733
2012-10-12,-1,-0.0011810005962194804,-0.000845455756416552,-0.01510076828839334,0.009102303450768687,0.9808160737224901
2012-10-16,1,0.0012906415235819078,0.001301890585063843,-0.017361883797956973,0.006690169006486809,0.9812293920937533
2012-10-18,1,0.0021819135420445843,0.002390697322804145,-0.017361883797956973,0.008151178211004959,0.9789402351947943
2012-10-22,1,8.429778407724329e-05,0.00023163346035088894,-0.01510076828839334,0.008916642802872592,0.9804722663546442
2012-10-24,-1,-0.00228521706388076,-0.0017710023022412319,-0.013709978435066047,0.011923394119262583,0.9811640030179035
2012-10-26,1,0.001224431169696249,0.0012303237563780853,-0.010048906990277556,0.011923394119262583,0.9853472910883193
2012-11-01,1,0.0014323244189220852,0.0014873832729187541,-0.008320542143002744,0.011414958473454176,0.9866719360598978
2012-11-05,1,0.0007606665161470017,0.0007966517856584357,-0.008320542143002744,0.008846367692036703,0.9873303765655631
2012-11-07,1,7.73036411133508e-05,0.0002318364897123229,-0.008320542143002744,0.010504633109072042,0.9871953392299636
2012-11-09,-1,-0.0011637536632557,-0.0008895750762875398,-0.00541657477512979,0.012195492387892293,0.9875854012699071
2012-11-13,-1,-0.0010419491129695737,-0.0008007827049727694,-0.006152740854858887,0.014282435590057402,0.9862346707099606
2012-11-15,-1,-0.0027174526815854157,-0.002230854403615305,0.0003678378434993706,0.01467582747749948,0.9864122052694885
2012-11-19,-1,-0.0006248532541474197,-0.00038901339670203636,0.0003678378434993706,0.01467582747749948,0.9889076538959578
2012-11-21,-1,-0.0005310217961192836,-0.00032131707147053305,-0.004160062375576365,0.01467582747749948,0.9884445783953124
2012-11-26,-1,-0.0003281250893922081,-0.0001615010186431405,-0.004160062375576365,0.014104753464252134,0.988906989793207
2012-11-28,1,0.0005411322377874569,0.0005979882072197941,-0.0016001049635907454,0.013927619700824019,0.9900611399797109
2012-11-30,1,6.695253085514945e-05,0.00020815351721112694,-0.006318340135587194,0.014104753464252134,0.9887118857096479
2012-12-04,-1,-0.0014206059297567873,-0.0010573204214906068,-0.0024174979109543976,0.014930319025404365,0.9872581629324021
2012-12-06,0,-0.00016444889573129923,2.1008054262833687e-05,-0.0024174979109543976,0.01649979470230313,0.9878066162207352
2012-12-10,1,0.0006507674599244144,0.0007350998138170993,-0.008823388445192403,0.015719501865857816,0.988171753392614
2012-12-12,1,0.0012135832455791164,0.0012298140936602554,-0.009019768475347818,0.014670221413255927,0.9889338241781092
2012-12-14,1,0.0006536443123440648,0.0007814473025325851,-0.009019768475347818,0.01434583422723498,0.9893554657227291
2012-12-18,1,0.0012936078667021003,0.001334897746630528,-0.009019768475347818,0.01434583422723498,0.989221496270752
2012-12-20,1,0.002486836870521343,0.002699520532577463,-0.005649751284531863,0.01203019797899572,0.9898574653370971
2012-12-24,1,0.0024515272327757043,0.0026762559404015103,-0.005188474514399383,0.01011780828795232,0.9903317356012581
2012-12-27,1,0.0022774845277669362,0.0024695088038230086,-0.005188474514399383,0.010796748315014584,0.9899503117498689
2012-12-31,1,0.0031477199121255684,0.0034809821959491546,-0.005188474514399383,0.00988012886263911,0.9906828329776558
2013-01-03,1,0.002765311408333724,0.00303599641313217,-0.004662819404429994,0.00988012886263911,0.990704049180099
2013-01-07,1,0.0031955474111464597,0.0035280412988406874,-0.005559924437297076,0.008585569825555693,0.9906601263715055
2013-01-09,1,0.002952980397610859,0.0032096703437520385,-0.004662819404429994,0.0062288236195435194,0.9912670000754403
2013-01-11,1,0.0030344809522522835,0.003347048138193903,-0.004280675989147949,0.009744725733251011,0.9913320111835404
2013-01-15,1,0.0028481650933671818,0.003137450667857259,-0.004140528218639233,0.011263365452072705,0.9911746338046674
2013-01-17,1,0.003441742837031878,0.0038193590132863074,-0.005559924437297076,0.009744725733251011,0.9911518996179463
2013-01-22,1,0.002946530904600736,0.0032339181996310098,-0.007445009156050738,0.009744725733251011,0.9890907764932618
2013-01-24,1,0.002945385708463799,0.0032259124469763553,-0.008617213241568951,0.011263365452072705,0.986485250965686
2013-01-28,1,0.0026571192645083773,0.0028498438544369738,-0.01033227522729799,0.011263365452072705,0.9842330395305543
2013-01-30,1,0.0023874487138472534,0.00254095945991625,-0.010489939585846151,0.011263365452072705,0.9831872210121229
2013-02-01,1,0.00404630674638743,0.004488055312199597,-0.010489939585846151,0.009083104683760545,0.9844316388220026
2013-02-05,1,0.0032670429833450768,0.0035965904590067087,-0.008617213241568951,0.011520744373560862,0.9843732052282725
2013-02-07,1,0.0028258841533342514,0.0030674589732100155,-0.008617213241568951,0.011520744373560862,0.9848519802466849
2013-02-11,1,0.0038109230633338186,0.004245854057820472,-0.008617213241568951,0.009161096760683076,0.9852191199941566
2013-02-13,1,0.0035178589302118646,0.003874475837413304,-0.008617213241568951,0.007806462755044265,0.9852885415701174
2013-02-15,1,0.002882503169326717,0.003150885590317848,-0.006729121607900705,0.007806462755044265,0.9859507125105224
2013-02-20,1,0.0011879289297853032,0.001194408846988679,-0.0021214927805140796,0.007806462755044265,0.987777741320343
2013-02-22,1,0.001706087979898103,0.0017438527971107719,-0.005440878335380449,0.007369784149551569,0.9887731295977845
2013-02-26,1,0.0007119098576888855,0.0007440705343835149,-0.005440878335380449,0.00604773335188017,0.9907218219683062
2013-02-28,1,0.0004798455448192652,0.0005632621597724674,-0.003045830919841747,0.00604773335188017,0.9923724137427461
2013-03-04,1,0.0009549039237678962,0.0009622670270894801,-0.006729121607900705,0.00604773335188017,0.9911631961139482
2013-03-06,1,0.001364454070717286,0.0013788935650423909,-0.009267311336990814,0.005324521472198849,0.9905615079748694
2013-03-08,1,0.0006875940720235477,0.0007993718279305165,-0.009267311336990814,0.00604773335188017,0.9901504179791251
2013-03-12,1,0.0005106443116322468,0.0006816516358395828,-0.009723619363365334,0.00604773335188017,0.9898001089599767
2013-03-14,1,0.0013520380327097976,0.0013740502072444967,-0.009723619363365334,0.005661613292640399,0.989738337572795
2013-03-18,1,0.0013440042335410188,0.0013734534023773313,-0.011234926472596864,0.006603425155315615,0.9869023452859226
2013-03-20,1,0.00043618093932088425,0.000562943447872963,-0.013344410111652763,0.006603425155315615,0.986283954469441
2013-03-22,-1,-0.0015440207175090395,-0.001125206465199736,-0.011151183658091526,0.009428886395235807,0.9860225931086257
2013-03-26,-1,-0.0007411204369565985,-0.0005050094074612211,-0.009723619363365334,0.012636005317320839,0.9849261200687472
2013-03-28,-1,-0.0004673536001672435,-0.00026215273316245553,-0.011151183658091526,0.012299895424815459,0.9825680242219225
2013-04-02,-1,-0.0018786468338099522,-0.0014715829539118873,-0.010927221687785187,0.012299895424815459,0.9823213855131322
2013-04-04,-1,-0.0023009685562206993,-0.0018346130271316358,-0.010927221687785187,0.012777108426521843,0.9810182103791324
2013-04-08,-1,-0.003347763499506548,-0.0026719815111440346,-0.010927221687785187,0.017895305092167114,0.9797668149176977
2013-04-10,-1,-0.003646004370042835,-0.002923136704716989,-0.010927221687785187,0.017895305092167114,0.979785760549383
2013-04-12,-1,-0.004479216356939842,-0.003589613386104776,-0.01587781040711054,0.017895305092167114,0.9788317490208442
2013-04-16,-1,-0.0033129784528832563,-0.0026603716100675598,-0.010927221687785187,0.014342266472733125,0.980962126780384
2013-04-18,-1,-0.004223610594320569,-0.0034747749711985312,-0.010122126235750623,0.017895305092167114,0.9785386016558452
2013-04-22,-1,-0.002863934441200433,-0.002259299746130719,-0.010122126235750623,0.017895305092167114,0.9794495756369711
2013-04-24,-1,-0.0013896897843110837,-0.0009767445960761588,-0.010122126235750623,0.011656069644457104,0.9809844516545085
2013-04-26,-1,-0.0029764492010973184,-0.002389170785302907,-0.00980781120891859,0.011186231353243333,0.9839506029165671
2013-04-30,-1,-0.004908318681326208,-0.004056267599195116,-0.008193095248818536,0.011186231353243333,0.9846840504131594
2013-05-02,-1,-0.004624982200609726,-0.0038450779294815214,-0.005377404286470014,0.009586732422673674,0.987801807265906
2013-05-06,-1,-0.002791004424805417,-0.002276554062620354,-0.008193095248818536,0.008196740076122658,0.9891166911811321
2013-05-08,-1,-0.0025671661152458026,-0.0021039938848864204,-0.008308812045253038,0.008196740076122658,0.9880611701394791
2013-05-10,-1,-0.0030525233462562334,-0.0025555847412001382,-0.005377404286470014,0.009022292362458533,0.9886910194123876
2013-05-14,-1,-0.0023182862166755847,-0.001954097372090146,-0.008308812045253038,0.008196740076122658,0.9887764196477726
2013-05-16,-1,-0.00018145599345179372,-7.52607825954437e-05,-0.008308812045253038,0.0035457672023438236,0.9893795014433793
2013-05-20,1,0.0006848144265000689,0.0006969751766898074,-0.0059999898272509915,0.009022292362458533,0.9897660260668472
2013-05-22,1,0.0001069936703165876,0.00019022184283163464,-0.010488631797744907,0.009022292362458533,0.9886765011565646
2013-05-24,1,0.00022099351739952178,0.000253932684445382,-0.011509761329431718,0.009022292362458533,0.9882488491148568
2013-05-29,1,0.0003299732612325299,0.00033680542652800776,-0.011509761329431718,0.010452813700744313,0.9868548009377918
2013-05-31,1,0.0005158832095849803,0.0005676809814403873,-0.0134949057301634,0.010452813700744313,0.9856032011574142
2013-06-04,1,0.0003461699885238658,0.0003889219717105199,-0.011509761329431718,0.011934397423254556,0.9854379673689416
2013-06-06,-1,-0.00034382584867883724,-0.0002974953785121488,-0.010138651585847574,0.013724630604574814,0.9865015246370582
2013-06-10,-1,-4.2087387745090185e-05,-2.300839253235806e-05,-0.010138651585847574,0.013724630604574814,0.9862028896247058
2013-06-12,-1,-0.0005665934189843588,-0.0005211756564950367,-0.006738530361101434,0.013724630604574814,0.9864512012488075
2013-06-14,1,0.0005076775502436427,0.0005940702367358656,-0.006738530361101434,0.013390889943785464,0.9886256880670247
2013-06-18,1,0.001458965885344776,0.0016642955313763775,-0.008512363979289152,0.010748698530130881,0.9887312954012776
2013-06-20,1,0.00029335731191536556,0.00035590735267299425,-0.005548691139551669,0.011736470276497787,0.9896322501884857
2013-06-24,1,0.00014204591821264328,0.000180738089763197,-0.002352177275843979,0.011736470276497787,0.990170381547152
2013-06-26,1,0.0016152076707596893,0.0019114822052856634,-0.005548691139551669,0.010231625970684367,0.9911167905619105
2013-06-28,1,0.00041034270032459726,0.0005249025889126054,-0.005548691139551669,0.011347379579003747,0.9909236123899229
2013-07-02,1,0.0006718091152274496,0.0008092892074726834,-0.002352177275843979,0.011347379579003747,0.9889759681802643
2013-07-05,1,0.0016299959970887993,0.001937248976380774,-0.002352177275843979,0.011347379579003747,0.9890194075820673
2013-07-09,1,0.0023362109075195934,0.0027525848916617104,-0.005548691139551669,0.011347379579003747,0.9888093826231035
2013-07-11,1,0.002279536540496665,0.0026551227686946424,-0.00553640714503857,0.0091998366252733,0.9892094659252004
2013-07-15,1,0.0015712186526812034,0.0017682253712706722,-0.006410347220916701,0.0091998366252733,0.9884761320773199
2013-07-17,1,0.0023931755676092382,0.0027429998741563388,-0.006122420387699966,0.0091998366252733,0.9887271898170992
2013-07-19,1,0.0017528851448264204,0.0019315866418886094,-0.007737359367331745,0.00642937328549271,0.9880608652343074
2013-07-23,1,0.001908515578659033,0.0021320834994145296,-0.007737359367331745,0.006940587557130761,0.9879918166164728
2013-07-25,1,0.0017501473889354475,0.0019542611294910404,-0.006172890357379086,0.009327818487225773,0.9880287366646677
2013-07-29,1,0.0020082037968954755,0.0022988907055523106,-0.006172890357379086,0.006940587557130761,0.9884080799458709
2013-07-31,1,0.004033647682682304,0.004593710407480849,-0.008662275597471448,0.0019447186932363561,0.9884217960133285
2013-08-02,1,0.004875365819961835,0.005566450986688767,-0.008662275597471448,0.0019447186932363561,0.9879372791010851
2013-08-06,1,0.0042106296667340625,0.004810445327340471,-0.007377630899823339,0.0036797645036094027,0.9891535911341338
2013-08-08,1,0.0038734116129744336,0.004416206093959102,-0.007377630899823339,0.0036797645036094027,0.9895827218997949
2013-08-12,1,0.0034596159952065136,0.003951391691273046,-0.006181951708009828,0.006066674228235565,0.9907135161143067
2013-08-14,1,0.0030026736022653946,0.003350511221220813,-0.006490257118056395,0.006066674228235565,0.9910795243205276
2013-08-16,1,0.001812842585960848,0.0019754059246908265,-0.006490257118056395,0.006066674228235565,0.9917890694672145
2013-08-20,1,0.0021029146005024377,0.002315993156660452,-0.006490257118056395,0.009259052457372071,0.9906213661346267
2013-08-22,1,0.001958100878500211,0.00210107787678271,-0.008341803639018621,0.006618034123792575,0.9907092689421
2013-08-26,1,0.0011768647089654184,0.0011925363902407287,-0.008341803639018621,0.006618034123792575,0.9907496139841657
2013-08-28,-1,-0.00019738556003012856,-5.434148223481714e-05,-0.005554022405846737,0.009259052457372071,0.9915749952696731
2013-08-30,1,3.200845569461023e-05,0.00015088591501362874,-0.005744474956819891,0.006618034123792575,0.9922043467281944
2013-09-04,1,0.0003543475985605006,0.0004361912195058131,-0.006874428422250224,0.006618034123792575,0.9914085489293464
2013-09-06,1,0.00019861219359919627,0.0003065854926034143,-0.007780244592841725,0.009968901476939067,0.9898066986645501
2013-09-10,0,-7.481584252007399e-05,0.0001102358464069817,-0.00977389576779975,0.009968901476939067,0.9878905055075152
2013-09-12,1,0.0006819449361156266,0.0007067420302310938,-0.008850074068401832,0.015073706383275967,0.987419719946004
2013-09-16,1,0.0006516916519553719,0.0006881470690316389,-0.007780244592841725,0.015073706383275967,0.9881459162894406
2013-09-18,1,0.0009360384785253469,0.0009400074105181959,-0.007780244592841725,0.012237743598976213,0.9885095196801449
2013-09-20,0,-0.00014971535939194668,4.2591766475139786e-05,-0.006874428422250224,0.013443548316015677,0.9883660234325196
2013-09-24,-1,-0.000989293108237422,-0.0006919165352319954,-0.005744474956819891,0.015117744142551601,0.9879964173562545
2013-09-26,1,9.341775367193849e-06,0.00014177048254489726,-0.005475535429511039,0.013443548316015677,0.9891180910833468
2013-09-30,-1,-0.00019883505059882744,-5.841971680767998e-05,-0.008170745495058192,0.013443548316015677,0.9859610465059547
2013-10-02,-1,-0.00030312996417809453,-0.00012125512282499455,-0.006318936960445482,0.013443548316015677,0.9858665248632582
2013-10-04,1,0.00011746645882551398,0.00024880572618382217,-0.00562214693028501,0.012237743598976213,0.9870341559322913
2013-10-08,-1,-0.0006408030398620185,-0.000500468183721822,-0.004855294879447978,0.012237743598976213,0.9889723217179852
2013-10-10,1,0.0004405494408474663,0.0004578520257871206,-0.005507479007496091,0.006820846964603139,0.9895787681657107
2013-10-14,1,0.00040847767312785627,0.0004116320337242263,-0.005507479007496091,0.012237743598976213,0.9882677577015445
2013-10-16,1,0.0007570319847240863,0.0007895896146721733,-0.005507479007496091,0.005882179227786466,0.9890576899870215
2013-10-18,1,0.001036669803969409,0.0010989946112504023,-0.006710330677825417,0.003108896664856425,0.9889893647556522
2013-10-22,1,0.001223278732183054,0.0012991975526863689,-0.008125591692966776,0.001180597925139855,0.9885518430111677
2013-10-24,1,0.0008495842128505309,0.0008605122260652938,-0.010525481316438486,0.003108896664856425,0.9881449678777099
2013-10-28,-1,-0.0014015404619917987,-0.0011303500060522663,-0.007107579500883364,0.003108896664856425,0.9918023881745271
2013-10-30,-1,-0.0006669900731971645,-0.0004868049485754354,-0.007107579500883364,0.003108896664856425,0.9921265260335421
2013-11-01,-1,-0.0012425683522573967,-0.0009568642660796291,-0.007148902975399515,0.0031053985187085528,0.992224669733158
2013-11-05,-1,-0.0009911023114484794,-0.0007783479186502771,-0.010525481316438486,0.0031053985187085528,0.9913916330241597
2013-11-07,-1,-0.0008889181559230796,-0.0007282545322867993,-0.008158350285781704,0.005727683600182298,0.9907369821995691
2013-11-11,-1,-0.0007993583655745501,-0.0005954042833560569,-0.010525481316438486,0.0018417046156431662,0.9917525263120023
2013-11-13,-1,-0.0005487299920778249,-0.00037169107673473077,-0.010525481316438486,-0.0005630330814710232,0.9912361569954744
2013-11-15,-1,-0.0007036191692834845,-0.000538589811371067,-0.0108876806202974,0.001076005901335139,0.9905767181023134
2013-11-19,-1,-0.001966837439123495,-0.0016066096329185714,-0.010177228885237562,0.007776190583026136,0.991160825669175
2013-11-21,-1,-0.0018501151299750974,-0.0015181379126950922,-0.009464561347935486,0.008188247612075917,0.9910146550492036
2013-11-25,-1,-0.001889448278735533,-0.001574808215231636,-0.009464561347935486,0.010909950782693098,0.9896998086061838
2013-11-27,-1,-0.0012987824417820325,-0.0010712453641223392,-0.009464561347935486,0.00980582170130964,0.9901205205139169
2013-12-02,-1,-0.0014510339698310844,-0.001212011303110226,-0.009464561347935486,0.010499922240686238,0.9895616638021065
2013-12-04,-1,-0.0020437254891505835,-0.0017388026152311388,-0.004016357665810757,0.010499922240686238,0.9902559933791487
2013-12-06,-1,-0.0010862593308527636,-0.0009169209591473121,-0.005136671942977309,0.010123910001096132,0.9916104182826894
2013-12-10,-1,-0.001412818696689219,-0.0012129442525393864,-0.004193564465472286,0.010123910001096132,0.9918633815018543
2013-12-12,-1,-0.0019840022296494482,-0.0017150766024093408,-0.0033316561477916033,0.010123910001096132,0.991637085650623
2013-12-16,-1,-0.00212439620670967,-0.0018359769031766435,-0.0018143172373280266,0.010165566721208202,0.9916654801362218
2013-12-18,-1,-0.001487004357988186,-0.0012696449554032178,-0.0018143172373280266,0.010165566721208202,0.992698714701762
2013-12-20,-1,-0.0001429422826755022,-0.00010598428620897353,-0.0033316561477916033,0.009694369861483629,0.9927452292262877
2013-12-24,1,0.0011562563672947836,0.0014122637332821932,-0.005136671942977309,0.0028690225848811094,0.9920956661807075
2013-12-27,1,0.001013706326412878,0.001212308726001513,-0.005136671942977309,0.0028690225848811094,0.9918257995494918
2013-12-31,1,0.001556208142549038,0.0018156690001171925,-0.005664824370752813,0.0013568549228727125,0.9912629519932371
2014-01-03,1,0.0010693298165734564,0.0012397153706957273,-0.009250249266393885,0.0028690225848811094,0.989499097254164
2014-01-07,1,0.0009987446053806358,0.0011768753639313822,-0.009250249266393885,0.01081036306071494,0.9890896850619122
2014-01-09,1,0.0005672125657236545,0.0006457049351800661,-0.009250249266393885,0.011393457451913433,0.9885196187540076
2014-01-13,1,0.0002479866532008538,0.00029520401406125235,-0.0050362530709156155,0.011928355481112906,0.9884955677168095
2014-01-15,1,0.0010398110369852316,0.0012144713143924742,-0.0050362530709156155,0.011928355481112906,0.9879936597748469
2014-01-17,1,0.0007975789231089991,0.0009088693725749667,-0.0050362530709156155,0.011928355481112906,0.9877762627417356
2014-01-22,-1,-0.0006096477547667489,-0.00048625660151208565,-0.0050362530709156155,0.011928355481112906,0.9878949045970516
2014-01-24,-1,-0.0017936989824179036,-0.0015466972549647412,-0.0030606093692901347,0.012802697441829993,0.9884459460642508
2014-01-28,-1,-0.0011557548177427016,-0.0010065457545650068,-0.0009220897322622186,0.01426901864793007,0.9881866529760992
2014-01-30,-1,-0.0007633553195561154,-0.0006604752022430348,0.000988872458607406,0.012802697441829993,0.9885887186259772
2014-02-03,-1,-0.0007464959164640174,-0.0006583659712376711,0.000988872458607406,0.011928355481112906,0.9906694350940822
2014-02-05,1,0.0001699891039822823,0.00018909904083717446,-0.0007807647803451166,0.011103410976649734,0.9917292087251349
2014-02-07,1,0.00019203866143208007,0.00020035790320429528,-0.002625911248133702,0.010272438387567485,0.9921734850252425
2014-02-11,1,0.0008945425473766667,0.0010458892366093356,-0.002995181118774426,0.009488273601737795,0.9920581028124285
2014-02-13,1,0.0016691920401555474,0.0018963074532680237,-0.005886273806702552,0.007188678837476512,0.9924294520584082
2014-02-18,1,0.0013576091918763881,0.0015204482383926019,-0.005886273806702552,0.0078120319939193345,0.9921264931994154
2014-02-20,1,0.0017567238402345703,0.0019993365540617878,-0.004578546449885879,0.008094962241726456,0.9922526253825985
2014-02-24,1,0.0017923476924119066,0.0020278560962457334,-0.005886273806702552,0.007188678837476512,0.9925156164944078
2014-02-26,1,0.002536044926816334,0.0028888030498497867,-0.008955126177809178,0.006873251902055794,0.9922565332500376
2014-02-28,1,0.0032766550219042274,0.003757472268879085,-0.008955126177809178,0.00626851675931437,0.9921032451571155
2014-03-04,1,0.002214569893834974,0.002445778911198259,-0.008955126177809178,0.0068692792305296655,0.9921772193375978
2014-03-06,1,0.0027826929951954744,0.0031347807812178597,-0.008955126177809178,0.0068692792305296655,0.9917824161520803
2014-03-10,1,0.002712588551106635,0.003062245324001674,-0.009259462046310207,0.0068692792305296655,0.9907249723975786
2014-03-12,1,0.0022647136861667673,0.002588296880917197,-0.007984169658269155,0.007943206217842006,0.9911806719108082
2014-03-14,1,0.0018873753802571519,0.0021877999813744043,-0.0052778450670747466,0.007943206217842006,0.990807826804035
2014-03-18,1,0.0025297123011027594,0.0029400890335325464,-0.0052778450670747466,0.00821343923781722,0.990648070458171
2014-03-20,1,0.0026397849591903756,0.0030479489921534896,-0.0034666392495792454,0.008722617504845622,0.9902785758591612
2014-03-24,1,0.0017106327594488564,0.0018457696681109088,-0.0034666392495792454,0.011164603265630561,0.9898965659503339
2014-03-26,1,0.0017355689774846972,0.0019304041018601494,-0.0034666392495792454,0.011164603265630561,0.9902106103151355
2014-03-28,1,0.002045055229645135,0.002277541312725592,-0.008388667709552105,0.007940170735198291,0.9889203424445552
2014-04-01,1,0.001965008984000129,0.0021694898087903473,-0.008388667709552105,0.011905619897992575,0.9881844749098907
2014-04-03,1,0.001979985483494128,0.0021552808625068887,-0.0112870969915614,0.0106291620401039,0.9880242658026732
2014-04-07,1,0.0014825205932725684,0.0016481518625276516,-0.006815695708625178,0.0106291620401039,0.9892438707604178
2014-04-09,1,0.0023832636073418253,0.0026866117236695086,-0.011027821931169116,0.0106291620401039,0.9889886492496772
2014-04-11,1,0.0013247691592893338,0.0014541029008345182,-0.006815695708625178,0.0106291620401039,0.9901301184535244
2014-04-15,1,0.0013990685776532979,0.0014849764481005938,-0.0088805498280559,0.006990757142529728,0.9903615961967531
2014-04-17,1,0.0020576944516193514,0.00222033131482029,-0.011027821931169116,0.0058346835017131955,0.9903057490416161
2014-04-22,1,0.001749920027111807,0.0018473209016173942,-0.01034151735198989,0.0058346835017131955,0.9900903428649098
2014-04-24,1,0.001332134417609604,0.0013945375452395787,-0.008651781634996157,0.0058346835017131955,0.9909041433854435
2014-04-28,1,0.0001122304772961059,0.00021297768499985295,-0.00627621658548839,0.0072377626866504,0.9919966587092335
2014-04-30,1,0.0004522569168627621,0.0005579938053560246,-0.00627621658548839,0.0058346835017131955,0.9923026692557535
2014-05-02,1,0.00014252977113351535,0.00025038703062468733,-0.003048220814660281,0.006831204279400253,0.9924324340332515
2014-05-06,-1,-0.0004935765605008644,-0.00028037931392737355,-0.0002875728384070115,0.007542588297529105,0.9919152478996092
2014-05-08,-1,-0.0011425655561088926,-0.0008119658889650433,-0.0002875728384070115,0.0060974186974215114,0.9922816381147571
2014-05-12,-1,-0.0009853648395086582,-0.0006599145160917743,-0.002207526658752979,0.005657487736988185,0.9927587577570234
2014-05-14,-1,-0.0010346337859291448,-0.0007352091840418739,-0.0034662137055861877,0.005657487736988185,0.9923747855461658
2014-05-16,-1,-0.001361168843228441,-0.0010475558924926236,-0.0034662137055861877,0.005657487736988185,0.9926457582769329
2014-05-20,-1,-0.0006796328825580037,-0.0004969789520918895,-0.0023799016965429217,0.005222019470555183,0.9936651189398509
2014-05-22,-1,-0.0004343344357823775,-0.00028975889175019396,-0.0036374165287532444,0.005525805056935314,0.993344458515045
2014-05-27,1,0.0004159743606986461,0.0004238273800525889,-0.005866783401069574,0.005222019470555183,0.9936833216364973
2014-05-29,1,0.0010456134394305843,0.0010975805857377074,-0.005866783401069574,0.004980606095642384,0.9946278584593055
2014-06-02,1,0.0011215434211882592,0.0011638066532738977,-0.005866783401069574,0.0043266410394722935,0.9949148099785623
2014-06-04,1,0.0013778855222601751,0.0014460146278270634,-0.005866783401069574,0.003526903763390961,0.9950987431056609
2014-06-06,1,0.0007163757604202309,0.0007641358449217492,-0.005866783401069574,0.003526903763390961,0.9949388315781148
2014-06-10,1,0.0011529494639495826,0.00119512360979447,-0.005866783401069574,0.003526903763390961,0.9946718845409865
2014-06-12,1,0.00032726754499259566,0.00038743019939869474,-0.005029624426195055,0.003526903763390961,0.9955704776016013
2014-06-16,-1,-0.0004344776116080414,-0.0002448227265061053,-0.005029624426195055,0.0014373030049383926,0.9960479450735306
2014-06-18,-1,-0.0013752177560967275,-0.0010035133547825498,-0.005029624426195055,0.0014373030049383926,0.9960980926924359
2014-06-20,-1,-0.001330098523569288,-0.0009815020006572455,-0.004054698637971057,0.0015256051052722982,0.9962974998695732
2014-06-24,-1,-0.0016778805023536772,-0.0013063661884793085,-0.0027689020455057864,0.004281206626615939,0.995649257947475
2014-06-26,-1,-0.0018603129979119148,-0.0014490021493897788,-0.0027689020455057864,0.005171494195504164,0.9951796594871434
2014-06-30,-1,-0.0012629624200539914,-0.0009661437331588007,-0.003346626215915029,0.005171494195504164,0.9916375025642905
2014-07-02,-1,-0.000825710399364863,-0.0006368149565483469,-0.004323843820302127,0.005171494195504164,0.9903707527865343
2014-07-07,-1,-0.0008659440744629263,-0.000670033402271794,-0.0038783615557917896,0.005171494195504164,0.9906334279928202
2014-07-09,-1,-0.0003848343150487381,-0.0002959969342102278,-0.0038783615557917896,0.005971882590859593,0.9903744085642137
2014-07-11,-1,-0.000545988290634028,-0.00043163928563349775,-0.0038783615557917896,0.006432773842308994,0.9899091454995002
2014-07-15,-1,-0.0008084309899897027,-0.0006751641651236082,-0.0035110786060260925,0.006432773842308994,0.9901880302423901
2014-07-17,-1,-0.0006572009190607842,-0.000542077607242802,-0.002968268085683802,0.006905772642362224,0.990003812953433
2014-07-21,-1,-0.00013136399783072485,-0.00010573951228657786,-0.0035722717024861306,0.007681942583000167,0.9897620264916933
2014-07-23,1,0.00041632289617621245,0.00048371156479126763,-0.0035722717024861306,0.006230605904405574,0.9901270700836872
2014-07-25,1,0.0006338829851620228,0.000724754855649866,-0.004341467225702942,0.005686990719225149,0.9901002024263196
2014-07-29,-1,-0.0014046923668535349,-0.0012545602108750525,-0.004297993040687832,0.006092139313970164,0.9933723297710495
2014-07-31,-1,-0.0021873760295529673,-0.001944431994183352,-0.0035722717024861306,0.007023212265392047,0.9939313738396707
2014-08-04,-1,-0.0022344355324266404,-0.0019579932846765197,-0.00177260647047897,0.0069823978194527335,0.9940091712877763
2014-08-06,-1,-0.00246275822546125,-0.0021355874616985323,-0.002469748985670794,0.0069823978194527335,0.9942776511156903
2014-08-08,-1,-0.001977691598594784,-0.0017268385634899438,-0.001401853977214465,0.0069823978194527335,0.9946052018137713
2014-08-12,-1,-0.0017758870028801218,-0.0015653011713469664,-0.002469748985670794,0.007294752843404501,0.9943354782005863
2014-08-14,-1,-0.001568442588023847,-0.0013735177599308549,-0.004327197329622366,0.007294752843404501,0.9940732196655858
2014-08-18,-1,-0.0015916789199288415,-0.0013802116737021935,-0.002469748985670794,0.007294752843404501,0.9941462737086947
2014-08-20,-1,-0.001010056493931046,-0.0008929640151002891,-0.002469748985670794,0.007670427836627731,0.9940774055862238
2014-08-22,-1,-0.0012101632308119544,-0.0010747038975027763,-0.002469748985670794,0.007670427836627731,0.9937657057527461
2014-08-26,-1,-0.0009899611713670938,-0.0008928839533501683,-0.002469748985670794,0.008848678466460144,0.9929179893838448
2014-08-28,-1,-0.0008146722092909234,-0.0007078243495414658,-0.004334949269120366,0.007670427836627731,0.9922433456067258
2014-09-02,-1,-0.000343683279926493,-0.0003240662522148296,-0.006666665809672916,0.007670427836627731,0.9916138500202404
2014-09-04,-1,-0.0009154325037664119,-0.0008009229875036801,-0.011797739575000108,0.007670427836627731,0.9905951483009996
2014-09-08,-1,-0.00037942237906941754,-0.00034891785888068025,-0.011797739575000108,0.00706566774081112,0.9904306538641711
2014-09-10,1,7.763324875829103e-05,0.00013559247824766022,-0.013073598921727075,0.007383146962643914,0.9893913865443434
2014-09-12,0,-2.0922062571867542e-05,2.7873280060041248e-05,-0.018429733435744135,0.0058472896350645785,0.988150702031056
2014-09-16,1,4.586924366879772e-05,8.32590548682448e-05,-0.020327509599711382,0.0058472896350645785,0.9857435656372158
2014-09-18,-1,-0.00013375984969867633,-0.00011029035231588362,-0.020327509599711382,0.007458965634499602,0.9854675735976831
2014-09-22,1,3.5410743166188475e-05,7.567748616028912e-05,-0.020327509599711382,0.009743119339764173,0.9851217026383114
2014-09-24,-1,-5.41760902758919e-05,-4.945054802654134e-05,-0.020327509599711382,0.009743119339764173,0.9848094171043421
2014-09-26,-1,-0.0006419598685182693,-0.0005712054568577465,-0.018429733435744135,0.009743119339764173,0.985716871357965
2014-09-30,-1,-0.0012705287566072863,-0.0011260210056460176,-0.020414234024132435,0.010176378214212597,0.9832316205323588
2014-10-02,-1,-0.0019183232558353251,-0.0017178046210939728,-0.020414234024132435,0.011031431538847353,0.982321681840146
2014-10-06,-1,-0.0017850838857739527,-0.0015916694544901254,-0.020414234024132435,0.015799100908003127,0.9789630457733295
2014-10-08,-1,-0.0024814071916278765,-0.0021817679584353713,-0.018670511106056907,0.01723152254666992,0.9786833370488838
2014-10-10,-1,-0.0038694631538967097,-0.0034219698842651866,-0.005735278076782512,0.01723152254666992,0.9798656974948584
2014-10-14,-1,-0.004416693192483786,-0.0039165729887226395,-0.0013192916151437781,0.016652536726087366,0.9810707312063941
2014-10-16,-1,-0.0033057957471009595,-0.002959344648747652,-0.005688078805046674,0.016652536726087366,0.9827030057688253
2014-10-20,-1,-0.002018202927334543,-0.0018614444658346802,-0.005688078805046674,0.016652536726087366,0.9836759357520587
2014-10-22,-1,-0.0008782756889806887,-0.0008780817569628882,-0.003811582863863628,0.016652536726087366,0.984493565354432
2014-10-24,-1,-0.0005972895182639447,-0.0005323273265030052,-0.002849649771833956,0.017166581890563214,0.9835774698881956
2014-10-28,-1,-0.0008527012013663663,-0.0008226795351654329,-0.003858604727804533,0.016652536726087366,0.9862155849504538
2014-10-30,-1,-0.0009724934391534091,-0.0009509191629273305,-0.003858604727804533,0.015758606099087198,0.9859377146980708
2014-11-03,1,0.0012508118333834093,0.001538687600715764,-0.00599394055355592,0.0105738213067167,0.9889151250432526
2014-11-05,1,0.0012399757253468637,0.0015188111087427688,-0.00599394055355592,0.008325975348196908,0.9896758717506985
2014-11-07,1,0.0014669607994830893,0.0017807416995494502,-0.009394661430117579,0.008325975348196908,0.9876460247215366
2014-11-11,1,0.0021829300832851978,0.002593974434725478,-0.010325476226847347,0.007536359743139791,0.9859286060654744
2014-11-13,1,0.001806813250013206,0.0021520139680511873,-0.011640022041361888,0.007536359743139791,0.984340445077212
2014-11-17,1,0.0019475346087852237,0.002310560263426259,-0.011640022041361888,0.005186906933797389,0.9839088922409119
2014-11-19,1,0.0024828804555817917,0.002922196351693833,-0.011640022041361888,0.008325975348196908,0.9828626030204569
2014-11-21,1,0.003459498992916009,0.004034740626978238,-0.011640022041361888,0.008960517337043868,0.9829770578791613
2014-11-25,1,0.0029946366339875605,0.0035117339171520127,-0.011640022041361888,0.008960517337043868,0.9840772526777934
2014-11-28,1,0.001683007271637195,0.0020161170122272804,-0.00963767585900822,0.008960517337043868,0.9861367443658419
2014-12-02,1,0.0019127380248036333,0.002268250681979302,-0.009815091129564624,0.004709348546610934,0.9868070837443481
2014-12-04,1,0.00159479300397126,0.0018887442004364796,-0.009815091129564624,0.004690693433700311,0.9858563607830988
2014-12-08,1,0.0003530076212563287,0.0004899690568576842,-0.00675371253527761,0.004690693433700311,0.9877708182452739
2014-12-10,-1,-0.0009477973829665309,-0.0009293338921201456,-0.00675371253527761,0.008904551998312001,0.9880878667781514
2014-12-12,-1,-0.0019812790256363328,-0.0018735302638532548,-0.007621929930981393,0.008904551998312001,0.9884767541471362
2014-12-16,-1,-0.0020911893595145946,-0.001989986111509418,-0.011600979778971312,0.008904551998312001,0.9878125121721437
2014-12-18,-1,-0.0023225680014013848,-0.0020671347691534493,-0.012107996442369168,0.004690693433700311,0.9885516270372399
2014-12-22,-1,-0.0021865653406184945,-0.0018841720934664047,-0.012107996442369168,0.004690693433700311,0.987855747850485
2014-12-24,-1,-0.0018410850538998567,-0.0015905737085257297,-0.013497647463977552,0.00840771651619772,0.9854721330382504
2014-12-29,-1,-0.0019956173955085125,-0.0017322946892294692,-0.01464060801436994,0.00840771651619772,0.9841943430984403
2014-12-31,-1,-0.0020899971845319853,-0.001827781414252343,-0.01464060801436994,0.011149731600020451,0.9830485193691211
2015-01-05,-1,-0.0031105398718626037,-0.0027338193274511202,-0.01405190162672821,0.01749610213663807,0.9822917687332502
2015-01-07,-1,-0.0030247782465350924,-0.0026869268677145995,-0.015259335876731664,0.018620327093323875,0.9802119481870357
2015-01-09,-1,-0.0021363690582595924,-0.0019090602212137513,-0.015259335876731664,0.018359226765191264,0.9808172817582438
2015-01-13,-1,-0.0032584906247306576,-0.002921842626267525,-0.01405190162672821,0.018359226765191264,0.9821741508882764
2015-01-15,-1,-0.004371145002061983,-0.003893783478540686,-0.011173798859255254,0.018359226765191264,0.9814956767981436
2015-01-20,-1,-0.004106624762409011,-0.0036686388595870943,-0.007143501552960382,0.01766053538405995,0.982903560955302
2015-01-22,-1,-0.002194666774519242,-0.002006600613862552,-0.010286481588487155,0.012028915439318931,0.9841504593553992
2015-01-26,-1,-0.003302956541417986,-0.0030055166520868886,-0.007143501552960382,0.012028915439318931,0.986233214191561
2015-01-28,-1,-0.0038752190692952614,-0.0035053494281032365,-0.007143501552960382,0.012028915439318931,0.9867983324823018
2015-01-30,-1,-0.0021397587517075984,-0.001997165358735665,-0.01026215762777788,0.011022008723899008,0.9876801366645556
2015-02-03,-1,-0.0006759382471103529,-0.000633381863122688,-0.01026215762777788,0.008202561370846982,0.989961504492856
2015-02-05,-1,-0.00026309122429346343,-0.0001733017324183946,-0.011048388523889709,0.0061371488682770104,0.9907939347322803
2015-02-09,1,0.00030840438745927503,0.0004951312971753328,-0.01139633874362057,0.005380119520362571,0.9913607433274838
2015-02-11,1,0.00028708162933701014,0.0004981891012844012,-0.01139633874362057,0.005380119520362571,0.9913021921369927
2015-02-13,1,0.0010680661548180587,0.0013667313606315437,-0.01228110804181375,0.002870499482639546,0.9912414046736864
2015-02-18,1,0.001165269165465626,0.0014892449733851132,-0.01228110804181375,0.00398305809827547,0.9900266594004243
2015-02-20,1,0.0008989423994416255,0.001153892672030502,-0.0128147420831987,0.00398305809827547,0.9895029115732009
2015-02-24,1,0.0007270414200544855,0.0009150519475034025,-0.0128147420831987,0.002300965853603127,0.9895116379870164
2015-02-26,-1,-4.2414098623224514e-05,-1.7074315923453894e-05,-0.012635239227046497,0.0018745903761535007,0.9902661076989007
2015-03-02,1,0.00026801048335341985,0.0003601991340789784,-0.012635239227046497,0.0018745903761535007,0.9900348963525054
2015-03-04,-1,-0.00041987630666106104,-0.0003958801400082563,-0.014234032624689114,0.00025005695149237563,0.9895741366009958
2015-03-06,-1,-0.0027480578486250144,-0.002361934759664692,-0.009705152837670646,0.0022918184711006985,0.990438008126516
2015-03-10,-1,-0.003911706773927418,-0.003347146535536619,-0.006386508487735502,0.00465827956105488,0.990419298564017
2015-03-12,-1,-0.003557830660311543,-0.0030747196191230723,-0.0056603920980929,0.0065273120267097424,0.989198548791125
2015-03-16,-1,-0.003763742473349448,-0.0032970155616947223,-0.0047235604557437985,0.009400796561089256,0.9887780941458917
2015-03-18,-1,-0.002285275941569378,-0.0020370217289090286,-0.003124582152288497,0.009400796561089256,0.989078678356187
2015-03-20,-1,-0.0028904819268356927,-0.002573429498204333,-0.002105417732619521,0.008820072073773243,0.9899616662921794
2015-03-24,-1,-0.0032576368800432925,-0.0028785653622304627,-0.002105417732619521,0.01640972667248658,0.9883424877463748
2015-03-26,-1,-0.003493468528218995,-0.00307180679652582,-0.002105417732619521,0.01640972667248658,0.9878808947334284
2015-03-30,-1,-0.0007100311773889562,-0.0006472813594167933,-0.0025255408323556347,0.008820072073773243,0.989620269636613
2015-04-01,-1,-0.0016567160601873294,-0.0016077964777794747,-0.001923925316165888,0.009090283875227144,0.9903426615799859
2015-04-06,-1,-0.0007082554743480938,-0.000620404737999479,-0.0012562830035925498,0.009090283875227144,0.9901557609923245
2015-04-08,1,0.00021229697017278895,0.0004737364355062566,-0.002105417732619521,0.0121342551499708,0.9901136943885217
2015-04-10,1,0.0011921827413770598,0.0015700255937968438,-0.0025255408323556347,0.0121342551499708,0.9900930879644589
2015-04-14,1,0.0018099792893703937,0.0022820603645584804,-0.0037665039261603897,0.008143382049037902,0.989950299603952
2015-04-16,1,0.003163015632528633,0.0038493419070160305,-0.005794074442429973,0.006858513156002782,0.9905169409249497
2015-04-20,1,0.003972738799647135,0.004831615494888657,-0.005794074442429973,0.006552246031088881,0.9901250116140706
2015-04-22,1,0.003981363767452542,0.004812951589512284,-0.005794074442429973,0.003926146070932191,0.9910288457959477
2015-04-24,1,0.003130034427420954,0.003773418344583582,-0.004401264393940375,0.006552246031088881,0.9916043274935761
2015-04-28,1,0.0035185423844443634,0.004236744984410257,-0.005794074442429973,0.0041183057130547915,0.990568163270128
2015-04-30,1,0.0036864569866145625,0.004417633501823458,-0.005794074442429973,0.0031856686495390354,0.9905651249371399
2015-05-04,1,0.004030983823020799,0.004721980104437103,-0.005794074442429973,0.0031856686495390354,0.9916734258332549
2015-05-06,1,0.0032451854954987295,0.0037341774008538115,-0.005535664886092501,0.0031856686495390354,0.9919881087636288
2015-05-08,1,0.0029212889064938272,0.003277207113051517,-0.005535664886092501,0.0031856686495390354,0.9930148513193167
2015-05-12,1,0.0019852211394993722,0.002185194317011213,-0.004401264393940375,0.0034616323514133985,0.9939285098243568
2015-05-14,1,0.0024482104482275494,0.0027956048822146903,-0.004600230611270178,0.0034616323514133985,0.993696320642095
2015-05-18,1,0.0026742548036631057,0.0030949101569589356,-0.003075122701620302,0.004615299420544382,0.9935981288166311
2015-05-20,1,0.0024680651800378876,0.0028690301884260194,-0.0020528852113604794,0.008093207436026855,0.9933333509110015
2015-05-22,1,0.002676795586416243,0.0030928303398672407,-0.0020528852113604794,0.008093207436026855,0.992399228921581
2015-05-27,1,0.0018815654846751988,0.0021778582839260237,-0.0020528852113604794,0.008093207436026855,0.9929322242190098
2015-05-29,1,0.001494910379332358,0.0016874752501760642,-0.0020528852113604794,0.008815058322753155,0.9924461863256919
2015-06-02,1,0.0013151391465810506,0.001461232230341202,-0.006238457652366366,0.008815058322753155,0.9913884547604466
2015-06-04,1,0.0019313330751498663,0.0021941830525908116,-0.007649952419046643,0.008093207436026855,0.9913355810638856
2015-06-08,1,0.0012636382228018205,0.0013648063483453312,-0.008406915568490094,0.008093207436026855,0.9908301417992371
2015-06-10,1,0.0009689604432491022,0.0009765287831966656,-0.009418916907475981,0.007481563942895591,0.9894421209123019
2015-06-12,1,0.0005222655437380911,0.0005662430494992752,-0.009418916907475981,0.008640458706257577,0.9891626481110581
2015-06-16,1,0.0012710700939745165,0.0013849562166844572,-0.009418916907475981,0.008969498894600863,0.9888478985654909
2015-06-18,1,0.0013532798310916987,0.0014034502571484576,-0.009734998813616037,0.007672736168837056,0.988832388600764
2015-06-22,1,0.0019417847566851156,0.0020353252403029,-0.011390896310089977,0.006777573917610511,0.9890220918468077
2015-06-24,1,0.0019258155021362171,0.002076680536193233,-0.014195483983106445,0.006777573917610511,0.9881399760476842
2015-06-26,1,0.0028917105283984275,0.00321812195008047,-0.015815987411485637,0.0012299354365733536,0.9865398005140371
2015-06-30,1,0.0021473368932797858,0.0023938867231181483,-0.015815987411485637,0.007113280800547521,0.9845017100519993
2015-07-02,1,0.0016172992246929916,0.001805807679466857,-0.015815987411485637,0.007113280800547521,0.9853453380954964
2015-07-07,1,0.0007642071145185125,0.0008211089995287383,-0.013659378667067587,0.007113280800547521,0.9859386522064955
2015-07-09,1,0.0003974395966227874,0.0004469260476639492,-0.011872624452902146,0.007068733046074924,0.9873467860827851
2015-07-13,1,0.0009020947677931069,0.0010141441313139047,-0.011872624452902146,0.005039009350622983,0.9858767592771132
2015-07-15,1,0.0013123328189417606,0.0014757398635366725,-0.013659378667067587,0.004036671714330224,0.9851150596938549
2015-07-17,1,0.0009600906678130963,0.0010835238805385798,-0.01235798427560063,0.0012589201182932517,0.9856214497455692
2015-07-21,1,0.00027366707090797557,0.00029341797532063244,-0.011653101073109054,0.004534232527083853,0.9860588767869191
2015-07-23,-1,-0.0005419253242248138,-0.0004662241751664057,-0.01235798427560063,0.004534232527083853,0.9857100332290116
2015-07-27,-1,-0.001924421721398693,-0.0016664731447952625,-0.013131805422379527,0.004534232527083853,0.9843237485876365
2015-07-29,1,0.00013827651753055018,0.0001968341985757793,-0.016219733838928902,0.0012589201182932517,0.9854111237164065
2015-07-31,-1,-0.00011283672494223271,-6.415959995063761e-07,-0.016219733838928902,0.0017932270478936117,0.9839849778284864
2015-08-04,-1,-0.000499845056254082,-0.00033226495997050996,-0.018259329093806148,0.0005671915432076174,0.9830723624271487
2015-08-06,-1,-0.0011103962700330168,-0.0008528729755276749,-0.018259329093806148,0.0058655318620424455,0.982855965757513
2015-08-10,1,5.19743099635238e-05,0.00013937548366026054,-0.023624631194022718,0.0058655318620424455,0.9823099382799813
2015-08-12,-1,-0.0010384437958540194,-0.0007955917078281858,-0.018259329093806148,0.0058655318620424455,0.9832441791028773
2015-08-14,-1,-0.0015012781571307988,-0.0011977540527222795,-0.018259329093806148,0.0058655318620424455,0.983296367154436
2015-08-18,-1,-0.0015540692573252869,-0.0012342449600778473,-0.018259329093806148,0.014149763546114061,0.982522619381236
2015-08-20,-1,-0.0023687950496895497,-0.001975068490326562,-0.01763873613126031,0.014149763546114061,0.9831940742162583
2015-08-24,-1,-0.004450900128729231,-0.003781542847941931,-0.013495074232513414,0.015892300609682927,0.9843533282213477
2015-08-26,-1,-0.003927060764183749,-0.0033374812880272546,-0.014505860656745884,0.014149763546114061,0.9855394311103448
2015-08-28,-1,-0.002785512929393191,-0.0023400676054140097,-0.020671095403957722,0.006305600537272113,0.9847665882046882
2015-09-01,-1,-0.0033489564323993595,-0.0028724506012374708,-0.014505860656745884,0.014149763546114061,0.985125530959561
2015-09-03,-1,-0.0026545319919409434,-0.002275839626946119,-0.014505860656745884,0.013411790750109169,0.9846025842304336
2015-09-08,-1,-0.002187375627556128,-0.0018995910094582,-0.011598570876757528,0.015892300609682927,0.9840750954243741
2015-09-10,-1,-0.002533278994450261,-0.00221221813606214,-0.011178170283334808,0.015892300609682927,0.9834077183446698
2015-09-14,-1,-0.0028350803409997564,-0.00248689026456737,-0.009916834762341203,0.015892300609682927,0.9832809010922985
2015-09-16,-1,-0.002035462776686486,-0.0017718354891804278,-0.009916834762341203,0.013193877956877924,0.9850296920180986
2015-09-18,-1,-0.002717625811506622,-0.0023807580925761206,-0.01000674058572086,0.013193877956877924,0.9853356163552395
2015-09-22,-1,-0.0024888193106831825,-0.00218832318353807,-0.009540462386475476,0.01294638235740326,0.9866303756410444
2015-09-24,-1,-0.0026680648511464766,-0.0023911434629782366,-0.009540462386475476,0.014017673988414994,0.9855043658129669
2015-09-28,-1,-0.004105002303345163,-0.003670065406805808,-0.005339946568957697,0.01600779979647556,0.9860161208833509
2015-09-30,-1,-0.003195588856846266,-0.0028923236928875724,-0.005339946568957697,0.01600779979647556,0.9860406369345732
2015-10-02,-1,-0.0026316425644510935,-0.002376147747712375,-0.009540462386475476,0.01600779979647556,0.986649559347329
2015-10-06,-1,-0.00110929132047191,-0.0010262367886462603,-0.009540462386475476,0.008586825511571857,0.9892296831566905
2015-10-08,-1,-0.0004995353382662777,-0.00048584576297955805,-0.010476042488501399,0.00679906189507635,0.9890877159015822
2015-10-12,-1,-0.0007709580698608332,-0.0007166894897689246,-0.013048352632967913,0.00679906189507635,0.9881355110859907
2015-10-14,-1,-0.0007008226964773938,-0.000671023166474243,-0.013711824035780744,0.00679906189507635,0.9870873852884555
2015-10-16,-1,-0.0016082245691592006,-0.001448981588505653,-0.013711824035780744,0.008569475348665513,0.9870958640749619
2015-10-20,-1,-0.0011088828705719605,-0.0010139009444651125,-0.013711824035780744,0.008807696635891368,0.987094677011888
2015-10-22,-1,-0.0003831411270549365,-0.00037855405079775177,-0.011385968964656443,0.008807696635891368,0.9875930542106837
2015-10-26,-1,-6.624204516087365e-05,-1.0131092956410339e-05,-0.009443668954240321,0.00679906189507635,0.9890572272082945
2015-10-28,1,0.0007101416021282939,0.0008722734673220994,-0.011835212163536637,0.006366891594767392,0.9890333121328505
2015-10-30,1,0.0003443647974611731,0.0004749261088861699,-0.009443668954240321,0.00785696977033007,0.9889942845607878
2015-11-03,1,0.00045067118829855105,0.0005823973554248677,-0.010159057731709883,0.007437081394520299,0.9886702013820637
2015-11-05,-1,-0.00014294820026288803,-7.69536610169772e-05,-0.009443668954240321,0.011981420261652529,0.9881089306502165
2015-11-09,-1,-0.000215530637427286,-0.00011371508545026559,-0.010159057731709883,0.011981420261652529,0.9867300674274923
2015-11-11,-1,-0.00034035773989189716,-0.00019170835016558047,-0.010159057731709883,0.015417855118613159,0.985610181704472
2015-11-13,1,0.0001697243840459295,0.0003797286965497613,-0.012854813369211515,0.011981420261652529,0.9846010132333332
2015-11-17,1,0.0009556519258645832,0.0013027759933580934,-0.012854813369211515,0.013135507838793789,0.9841042372130179
2015-11-19,1,0.0012740009941714452,0.0016329135387534784,-0.018105557853582258,0.008614009562857645,0.9844704786670821
2015-11-23,1,0.0012434286986840763,0.0015659732339452326,-0.018105557853582258,0.011147530915087932,0.9841016773926987
2015-11-25,1,0.0008046351303874688,0.0010334642949809667,-0.013778745959803242,0.01337548307529121,0.983976192804416
2015-11-30,1,0.0011516538052510983,0.0013862562666333103,-0.013778745959803242,0.01169266238708973,0.9838861822274277
2015-12-02,1,0.0011487008733702354,0.0014176468908501712,-0.01900966012406452,0.01169266238708973,0.9833838804022753
2015-12-04,1,0.002055771860422788,0.0024759529328811578,-0.01900966012406452,0.008694001308356784,0.9841957866927861
2015-12-08,1,0.00026011240405068143,0.0004218746529993619,-0.0167909661247324,0.008694001308356784,0.9856703103527671
2015-12-10,1,0.00023768792176387323,0.0003641937598942075,-0.017108335972724063,0.007352051233557422,0.9861521847353546
2015-12-14,-1,-0.0012240843715169386,-0.0011282634003788824,-0.016364713129984793,0.008694001308356784,0.9875477115587147
2015-12-16,-1,-0.0009180201802464589,-0.0008127521664234106,-0.017108335972724063,0.008249886181300278,0.9862339016973504
2015-12-18,-1,-0.0003131049000537651,-0.0002197804063348888,-0.016364713129984793,0.008249886181300278,0.9866901957731482
2015-12-22,1,0.00022159628536538362,0.0003968128973933328,-0.016364713129984793,0.008851822407228082,0.9858294360376294
2015-12-24,1,0.0007413903768669817,0.0009752772062339238,-0.017108335972724063,0.008851822407228082,0.9842718360216397
2015-12-29,1,0.0007483598930166718,0.00097044814703359,-0.017108335972724063,0.008851822407228082,0.9840072170422759
2015-12-31,1,0.0006600342316256364,0.0009097344113309184,-0.01735436896844939,0.008851822407228082,0.9831261995344807
2016-01-05,1,0.000265926656842953,0.00042322655756341933,-0.020065648648161294,0.013471817066935,0.9807141257080785
2016-01-07,-1,-0.0005828574921555375,-0.000548701153261661,-0.018048790676742497,0.013471817066935,0.9817738238880495
2016-01-11,-1,-0.0013485530025554703,-0.0013030285208767791,-0.01856267694307929,0.013471817066935,0.9822258523968634
2016-01-13,-1,-0.0015931530142498382,-0.0014726275098655118,-0.01856267694307929,0.010114831096119657,0.9827669231158949
2016-01-15,-1,-0.0031549195085758108,-0.0027700366634517185,-0.013141766010936952,0.018292576730986946,0.9823429008951724
2016-01-20,-1,-0.0032425448457322997,-0.00286906361293774,-0.013141766010936952,0.022014204891802152,0.9813597239870986
2016-01-22,-1,-0.001676166145845338,-0.0015431182335400838,-0.016032122202333583,0.024926382835002397,0.9803551828889417
2016-01-26,-1,-0.002196484016515623,-0.00195827120143054,-0.016032122202333583,0.018919004099670476,0.9814376507011174
2016-01-28,-1,-0.0016637900987144718,-0.001516707522692552,-0.016032122202333583,0.017178105563372403,0.9815709563963144
2016-02-01,-1,-0.0028316555404959043,-0.0025548793696304768,-0.015577345121267804,0.024926382835002397,0.9808834215640602
2016-02-03,-1,-0.0024720974440143127,-0.0022170962547763103,-0.008456126986995991,0.018781527248632267,0.9827012410385341
2016-02-05,-1,-0.0031002330953183053,-0.002753254141380138,-0.005865964448052418,0.01889496988766362,0.981822692729685
2016-02-09,-1,-0.003317274235107819,-0.002995593109805032,-0.004212473090300395,0.02219957115792203,0.9809179519172755
2016-02-11,-1,-0.003697798666324602,-0.003294472718031069,-0.008027607127708346,0.024926382835002397,0.9791148848323109
2016-02-16,-1,-0.0015566296606353324,-0.0014130840365664883,-0.014214779272145235,0.018330331274353382,0.9821308173968961
2016-02-18,-1,-0.0015071599470940658,-0.001325648634639413,-0.014214779272145235,0.02170927972828533,0.9807684169548764
2016-02-22,-1,-0.0020487600129913313,-0.0017152851292935563,-0.007403449906095253,0.018330331274353382,0.9829175304172985
2016-02-24,-1,-0.0019508412436832867,-0.001661678021141147,-0.006266354892364034,0.018330331274353382,0.9843776545630489
2016-02-26,-1,-0.0008757860481140333,-0.0007484812126823657,-0.006266354892364034,0.018330331274353382,0.9853132573854712
2016-03-01,1,0.0006264231488051997,0.0007712122624160565,-0.004404143199127524,0.017115354878569227,0.9878718510602698
2016-03-03,1,0.0017589426655955551,0.0020893929520671237,-0.006266354892364034,0.017871065944913857,0.9876755622152023
2016-03-07,1,0.0024240986507833894,0.002832261037474571,-0.010374974371663934,0.008860513906911963,0.9874510049672761
2016-03-09,1,0.0023447903396677733,0.002733210352042368,-0.010374974371663934,0.003472198064109955,0.9886745836586947
2016-03-11,1,0.0023684761323516284,0.002721201473295157,-0.006266354892364034,0.003805476717317767,0.9903328697357502
2016-03-15,1,0.001916304256379699,0.002229809512320091,-0.004326562929839293,0.011642906104261393,0.9905474434318287
2016-03-17,1,0.0036666020266596815,0.0042443201189426814,-0.004326562929839293,0.005529154594792329,0.9922012494018914
2016-03-21,1,0.0036292392395595205,0.004207085888869237,-0.004326562929839293,0.007523220275088121,0.9915248455020558
2016-03-23,1,0.0036374875262960935,0.00425976848183761,-0.0032585641738871788,0.007523220275088121,0.9917911411152054
2016-03-28,1,0.0034297440564004175,0.003991482352829048,-0.005651254122948843,0.007523220275088121,0.9913671113805756
2016-03-30,1,0.003633405615725167,0.004232081275656679,-0.005651254122948843,0.011100833416634634,0.9908612187264466
2016-04-01,1,0.003257643679688777,0.0037585404716264,-0.005651254122948843,0.010472280063528992,0.9910443795243635
2016-04-05,1,0.0022902883504835993,0.0026292782453660683,-0.00394429263681447,0.010472280063528992,0.9911746415618181
2016-04-07,1,0.0015568027314105596,0.0017578460428307142,-0.0042896786416163225,0.010472280063528992,0.9909859477118801
2016-04-11,1,0.002053578514007656,0.0023433747370413117,-0.00795379855820304,0.009278272273526282,0.9905495044261318
2016-04-13,1,0.002877121504319071,0.0032944704099643163,-0.00795379855820304,0.00800339250201194,0.9908914178431955
2016-04-15,1,0.0031320770147004098,0.003607916135635039,-0.009339867014425065,0.00800339250201194,0.9892864579816174
2016-04-19,1,0.0038395685665076765,0.004417082559782497,-0.009339867014425065,0.009278272273526282,0.9891249024626352
2016-04-21,1,0.0035025427306250813,0.004024224432094663,-0.009339867014425065,0.009278272273526282,0.9881022630812359
2016-04-25,1,0.0036508674189040186,0.004222862408742721,-0.009339867014425065,0.009278272273526282,0.9884963547508898
2016-04-27,1,0.003978103108456477,0.004574425252536233,-0.009339867014425065,0.00800339250201194,0.988395392571764
2016-04-29,1,0.0038380753469994555,0.00444478877181239,-0.009302647817022683,0.00800339250201194,0.988999069120266
2016-05-03,1,0.0028678436139935324,0.003256653023828101,-0.007943172918764636,0.007651058460719604,0.9896417421537942
2016-05-05,1,0.002516139953261291,0.002865929120968065,-0.008555945038167308,0.007651058460719604,0.9895487023016306
2016-05-09,1,0.0018487052260975907,0.0020547132516180546,-0.006276005776845096,0.01000427717324589,0.9897843271281824
2016-05-11,1,0.0023081465024655996,0.0026075347620187366,-0.011507529873614156,0.007889665986098672,0.9886145963760259
2016-05-13,1,0.0010972769240703295,0.0011947458179181537,-0.007074515802563404,0.010376652535266345,0.9896916031764549
2016-05-17,1,0.0019106835391116302,0.0021318423914233565,-0.011507529873614156,0.004578911907609147,0.9901467883352589
2016-05-19,1,0.0014493507005228497,0.0016354940763671309,-0.006852501560626736,0.004578911907609147,0.9915108424329482
2016-05-23,1,0.0014847691740886575,0.001676694226731927,-0.006852501560626736,0.0077562690539971025,0.9914239455264636
2016-05-25,1,0.0015377564818970387,0.0017040678471906467,-0.007884427936874095,0.0077562690539971025,0.9908161022912715
2016-05-27,1,0.0011481073138860404,0.0012533835425849273,-0.012643598401453678,0.0077562690539971025,0.9864434000535646
2016-06-01,1,0.0006961897551595617,0.0006985395242799976,-0.012643598401453678,0.009152688288763353,0.9860912993050799
2016-06-03,-1,-0.0003324999009631346,-0.00016416701377276418,-0.008250993635257544,0.009233292588856225,0.9862974746885266
2016-06-07,1,0.00021837535770121542,0.00032206790347725676,-0.013348740552643786,0.008284677919279684,0.9853935782261267
2016-06-09,-1,-0.0011141282188335939,-0.000821407795517556,-0.005197712093660939,0.01098461278466379,0.9852172016720092
2016-06-13,-1,-0.0012142086038307027,-0.0008868471917549971,-0.00494238138891757,0.01098461278466379,0.9847835622227261
2016-06-15,-1,-0.0012426706900583958,-0.0009416894289861196,-0.0007669580211429658,0.012413850459806626,0.9846345094464721
2016-06-17,-1,-0.0014224873887997637,-0.0011017823698126579,-0.0001782723971271616,0.012413850459806626,0.9841115841025848
2016-06-21,-1,-0.001325063234711449,-0.0010045829157226168,-0.00536080102521357,0.012413850459806626,0.9840042088014385
2016-06-23,-1,-0.001917122679229839,-0.0014521087804336163,-0.0021575589165753802,0.01098461278466379,0.9849572795718677
2016-06-27,-1,-0.004933960447777455,-0.004131479525065229,0.0009392870448102299,0.01098461278466379,0.9865556099469737
2016-06-29,-1,-0.004624819560270764,-0.00383236289659336,0.00022090848045255103,0.008851615412703039,0.9875894333222288
2016-07-01,-1,-0.004347067468537063,-0.003573097739153068,-0.0021575589165753802,0.008626042387702459,0.9852654616883184
2016-07-06,-1,-0.005353788853767161,-0.004455376436226735,-0.0021575589165753802,0.00995166556206583,0.9855415732535306
2016-07-08,-1,-0.0031914319689738276,-0.002639479462072744,-0.0028377255790940697,0.00862548441660875,0.9878734024313713
2016-07-12,-1,-0.002292634085297264,-0.0018663864627812426,-0.0028377255790940697,0.0058012678605378586,0.9894484404820719
2016-07-14,-1,-0.0017116929616328913,-0.0013658535402619834,-0.005744400096000784,0.005286939431799923,0.9898813818241995
2016-07-18,-1,-0.001785238012168686,-0.0014219141993556102,-0.00816873964460038,0.005286939431799923,0.9892363735345862
2016-07-20,-1,-0.0016182615087537303,-0.0012955019915070333,-0.008730388405308416,0.0033585858184520465,0.9892233061993932
2016-07-22,-1,-0.0014053149370651414,-0.0011285085516151215,-0.008730388405308416,0.00538696167539034,0.9880528595858096
2016-07-26,-1,-0.0016909328847604162,-0.0014168597297811204,-0.008168440824570897,0.006577592678275854,0.9888736449563508
2016-07-28,-1,-0.0011470927493429975,-0.000969982871240619,-0.008168440824570897,0.006577592678275854,0.9887443124294346
2016-08-01,-1,-0.0030694658338132116,-0.002668233912121004,-0.0074536020602012755,0.00782912013871689,0.9908291844718176
2016-08-03,-1,-0.0029086070684007904,-0.002546790745548658,-0.005873745637096836,0.006577592678275854,0.9918689925689476
2016-08-05,-1,-0.0029947434929879007,-0.0025957454525763995,-0.005873745637096836,0.006577592678275854,0.9916995640708618
2016-08-09,-1,-0.0018922075733413379,-0.0016924808404099661,-0.0074536020602012755,0.006577592678275854,0.9911753135139882
2016-08-11,-1,-0.0018994729706928986,-0.0016998193655105298,-0.008168440824570897,0.005806590402689854,0.9906485852530562
2016-08-15,-1,-0.0017541368579751676,-0.0015580533783310308,-0.008960663777339097,0.005806590402689854,0.9909012488453166
2016-08-17,-1,-0.0020803125310847647,-0.0018521054915399764,-0.005873745637096836,0.0065818543836088615,0.9908216303748969
2016-08-19,-1,-0.0012826630038360403,-0.00115566803350036,-0.00890619265722247,0.0065818543836088615,0.9906228120993948
2016-08-23,-1,-0.0008681077072869776,-0.0007966850995628866,-0.00926809789800347,0.008553019669859566,0.990012030826827
2016-08-25,-1,-0.0008692175868089927,-0.0007761781458867165,-0.00926809789800347,0.008553019669859566,0.9899692012401312
2016-08-29,-1,-0.0009154431528681808,-0.0008035467692144937,-0.00926809789800347,0.00669515963486611,0.9904193984186555
2016-08-31,-1,-0.0007580866536723884,-0.0006812523720798835,-0.00926809789800347,0.008553019669859566,0.9895478895962353
2016-09-02,-1,-9.295657843336513e-05,-5.271870171903789e-05,-0.00926809789800347,0.008653291477934184,0.9887621413962326
2016-09-07,-1,-0.0005598898931940283,-0.0005470319547914508,-0.008428795429008328,0.010759822102967003,0.9890523831653247
2016-09-09,-1,-0.0008269211960503867,-0.0008160189287430122,-0.007358953096588362,0.010759822102967003,0.9892797785287891
2016-09-13,-1,-0.0009953509625284067,-0.0009596659657881162,-0.007358953096588362,0.010759822102967003,0.9896002471176539
2016-09-15,-1,-0.0007332569993768606,-0.0007327887836024232,-0.011211777740930035,0.008475848719964417,0.9888314778304678
2016-09-19,-1,-0.0003296659833880247,-0.00024456301340996145,-0.008428795429008328,0.008134935039446007,0.9897376020540783
2016-09-21,-1,-0.00024210219610480016,-0.00015358262573053106,-0.008071699506268185,0.009205903224974579,0.9888928661425397
2016-09-23,-1,-0.00017607921354308886,-7.850539497837648e-05,-0.008071699506268185,0.010540649295964686,0.988917976211977
2016-09-27,-1,-0.0001671037397592189,-8.181523345743242e-05,-0.008691962905242476,0.010540649295964686,0.9889759352086411
2016-09-29,1,0.000139948947758499,0.0002611600156801656,-0.008691962905242476,0.010124911294968505,0.9895776275803335
2016-10-03,1,0.0005899469004579881,0.0007834581023110274,-0.008691962905242476,0.010124911294968505,0.9874429923000598
2016-10-05,1,0.0002164974522640086,0.00031323816641391105,-0.00933670598812471,0.009171325567787478,0.9873516642287494
2016-10-07,1,0.0004487626653221815,0.0006244458526522443,-0.0052888978678845705,0.010114804280120071,0.9880705032815726
2016-10-11,-1,-0.00022208913344640222,-0.00017366935308463726,-0.0023071721162923205,0.010510328251419383,0.9878777951964289
2016-10-13,-1,-0.0009005176937373586,-0.0008716766122930106,-0.0005020073649727535,0.012822803996391397,0.9870515683206975
2016-10-17,-1,-0.00043976070468945466,-0.0003832794835348329,-0.001288624925528828,0.012822803996391397,0.9869887084136423
2016-10-19,1,0.00043855250919508067,0.000600558459584593,-0.0031151105374787975,0.010629062812553422,0.9884285061297048
2016-10-21,1,0.000781085866333062,0.0009928920146887248,-0.004670050238366519,0.010114804280120071,0.9887355978290852
2016-10-25,1,0.0004932471531342594,0.0006478490864339126,-0.0023392581072724018,0.01150026418013934,0.9879417395560341
2016-10-27,1,0.001130073275138138,0.0014038572728717008,-0.004670050238366519,0.01150026418013934,0.9874519871846396
2016-10-31,1,0.002199929574130486,0.0025635456191355896,-0.0075194157971672955,0.008607644699471832,0.9900105385015029
2016-11-02,1,0.0019278085379336716,0.002269130222170488,-0.0075194157971672955,0.01150026418013934,0.9896318574230464
2016-11-04,1,0.001985369842830878,0.0023186982556301864,-0.0075194157971672955,0.009919692672475102,0.9899539586276627
2016-11-08,1,0.002348953408542051,0.002724482538440826,-0.0075194157971672955,0.010259383430431772,0.9898454607642636
2016-11-10,1,0.0034099451306212913,0.003938391201149119,-0.0077681857138990965,0.007545761375937599,0.9908821863927532
2016-11-14,1,0.0032700006809215673,0.003801957291097697,-0.006082745159686248,0.007545761375937599,0.9917726733473221
2016-11-16,1,0.0019813654878148173,0.0021925035951030985,-0.006082745159686248,0.008353897067902719,0.990650558315346
2016-11-18,1,0.0022426626007506414,0.002518289096321492,-0.007859858479183439,0.008353897067902719,0.9904521833121623
2016-11-22,1,0.00294666083151293,0.003331053057497279,-0.007859858479183439,0.006866643974914299,0.9911790454575461
2016-11-25,1,0.002050695412159034,0.002267660437457822,-0.006348614179982566,0.007099059033443921,0.9918755939484489
2016-11-29,1,0.0019496585678664738,0.0022042780149825257,-0.006348614179982566,0.007099059033443921,0.9922259130587614
2016-12-01,1,0.002460254315982395,0.002818843394562293,-0.004584060215960675,0.004470148857360355,0.9931024848092518
2016-12-05,1,0.0028803960996450642,0.0033202070395252515,-0.004584060215960675,0.008582865157314603,0.9921975880359974
2016-12-07,1,0.0034543147103832635,0.003974320474018092,-0.004584060215960675,0.004989562555224491,0.9926398916952781
2016-12-09,1,0.0034722134229872893,0.003990124349034299,-0.004584060215960675,0.004989562555224491,0.9925204564998676
2016-12-13,1,0.0033995578399319487,0.003906500409247633,-0.006887605556262431,0.00857237635401437,0.9914417908257356
2016-12-15,1,0.002884732781979239,0.003281489186758787,-0.006887605556262431,0.004989562555224491,0.9920828161982919
2016-12-19,1,0.002697220548189114,0.0030744374972221074,-0.006887605556262431,0.004989562555224491,0.9919651376278003
2016-12-21,1,0.0020260812548065447,0.0021865378124299156,-0.006887605556262431,0.00857237635401437,0.9917416684669748
2016-12-23,1,0.0018854615131422199,0.0020146112293191135,-0.006489041668016555,0.009447968531933781,0.9909909488428021
2016-12-28,1,0.0014302901825790568,0.0015094896269427175,-0.006489041668016555,0.009937521116875073,0.9896476384695565
2016-12-30,1,0.0011239777158499461,0.001167688893547365,-0.006489041668016555,0.009937521116875073,0.9897431224954201
2017-01-04,1,0.0016202042781919197,0.0017207696263417548,-0.008884729195067519,0.009684061206315018,0.9899526232119567
2017-01-06,1,0.001709199059616429,0.0018339033020425865,-0.008884729195067519,0.009684061206315018,0.9897844359686384
2017-01-10,1,0.0012562248980639349,0.0012873417708743231,-0.008884729195067519,0.009684061206315018,0.9901838116443259
2017-01-12,1,0.0017600577258382395,0.0018895873266041394,-0.00628886264756765,0.009684061206315018,0.9910352221296298
2017-01-17,1,0.001333097299992553,0.0014178758138027941,-0.0011586519917383498,0.009684061206315018,0.9913514168710399
2017-01-19,1,0.001065055346602895,0.0011255775313724972,-0.0011586519917383498,0.009684061206315018,0.9918090391396669
2017-01-23,1,0.0012586400520054422,0.001348766496932152,-0.0020249974524708075,0.009196049500931506,0.9917007597889705
2017-01-25,1,0.0019379752970703466,0.00211007497218792,-0.004068449037830924,0.008187792334403162,0.9927451621695657
2017-01-27,1,0.0014502023981304971,0.0015675270887750635,-0.003590709874303469,0.007318343252094498,0.9945652125185237
2017-01-31,1,0.0009502017933577115,0.0009554819933840395,-0.003590709874303469,0.008187792334403162,0.9938980505115909
2017-02-02,1,0.0003007612493836557,0.0004158714453089078,-0.003590709874303469,0.008044960564031162,0.9933109706041263
2017-02-06,1,0.0003136903188706943,0.00044317360239481767,-0.004708685437895267,0.008044960564031162,0.9928947055273044
2017-02-08,1,5.298027121453043e-05,0.00020958037904953374,-0.006256281366128188,0.008044960564031162,0.9925976381244198
2017-02-10,1,0.0004405953964151137,0.0005599781270866569,-0.006256281366128188,0.00441600902739632,0.9933963809284285
2017-02-14,1,0.0008165934415895049,0.0008833755554702478,-0.006256281366128188,0.003556711080165736,0.9929063815389042
2017-02-16,1,0.000623704476313354,0.0007194614487992965,-0.006256281366128188,0.003513280840621575,0.9930640511711195
2017-02-21,1,0.0005786603686994414,0.0006805080635244962,-0.007619479667712844,0.0032596072448399776,0.9925991106295983
2017-02-23,1,0.00035247993712753296,0.00047035538546095427,-0.007619479667712844,0.003513280840621575,0.9929028852232086
2017-02-27,1,0.0003343780961740906,0.0004430142746821018,-0.008242333661715737,0.0036941798345129706,0.9920286044435921
2017-03-01,1,0.0007220430065276493,0.0007985613598086696,-0.008242333661715737,0.0050697050964531205,0.9913447733566806
2017-03-03,0,-4.568943297380537e-05,0.00013959880685850677,-0.007619479667712844,0.005023202863515616,0.9923097064739341
2017-03-07,-1,-0.0010754343386681988,-0.0007400323054948465,-0.005121536501862379,0.005023202863515616,0.9923914658598206
2017-03-09,-1,-0.002397181120280671,-0.001852547374749259,-0.004261771997209505,0.006536296051277635,0.9922693778922278
2017-03-13,-1,-0.002488751662282543,-0.0019328984525466967,-0.004261771997209505,0.006536296051277635,0.9922327542035939
2017-03-15,-1,-0.0015555639091751122,-0.0011601833180310975,-0.00487196893617209,0.0046333927162331735,0.9926088730749628
2017-03-17,-1,-0.001327491407086354,-0.0009679072216860485,-0.007367804392283867,0.00500127509727871,0.9923792825263786
2017-03-21,-1,-0.0022822306328452303,-0.0017957948165133893,-0.004241109723513683,0.005847487579395462,0.9927719483727887
2017-03-23,-1,-0.0019456928393398786,-0.001517437092234666,-0.004758838614047434,0.006536296051277635,0.992484121500328
2017-03-27,-1,-0.0009230983284869484,-0.0007009516365481492,-0.0036259405417086218,0.006536296051277635,0.991966007426039
2017-03-29,-1,-0.00029849140990449816,-0.00011839617261642527,-0.0036259405417086218,0.00513011565298401,0.9934297360426784
2017-03-31,0,-0.00013620999227433706,1.9392572185585066e-05,-0.004758838614047434,0.00513011565298401,0.9924400836381079
2017-04-04,0,-0.00010141550233342555,2.424697984937423e-05,-0.005757118887472134,0.00513011565298401,0.992017096813203
2017-04-06,1,0.000610258731458472,0.0006405628701900369,-0.005601327619149034,0.00513011565298401,0.991291572166308
2017-04-10,1,0.00021977113820259055,0.00027316849214192656,-0.006900430587314564,0.00513011565298401,0.9906465125959599
2017-04-12,-1,-0.0005814156227384778,-0.0004295429604113117,-0.006900430587314564,0.00513011565298401,0.9910008344506281
2017-04-17,-1,-0.0008191554220950821,-0.0006372931852976973,-0.005601327619149034,0.006254448381083282,0.9908215220962405
2017-04-19,-1,-0.00024164927175595889,-0.00016587977572246954,-0.007292392510364553,0.008819791539155927,0.9890947399385611
2017-04-21,-1,-0.00020742951645688086,-0.00011287760002386712,-0.007292392510364553,0.008819791539155927,0.9891178930284792
2017-04-25,1,0.000330787479103686,0.0004001637813694437,-0.007292392510364553,0.007544813333610273,0.9898487627317077
2017-04-27,1,0.00044760746617793917,0.000488950164911568,-0.007292392510364553,0.007544813333610273,0.9899229294994725
2017-05-01,0,-3.2002496565077844e-06,7.696649498127703e-05,-0.005601327619149034,0.005971700031680132,0.9913397770384096
2017-05-03,-1,-0.0003730740621151769,-0.00028927040138091874,-0.004200754692368879,0.008590275762019726,0.9916217667455439
2017-05-05,1,0.0001622826461945377,0.00017739644424608598,-0.004200754692368879,0.005971700031680132,0.9925610808580545
2017-05-09,-1,-0.00045891273810607546,-0.00036749737259675124,-0.001560867964030334,0.006351413381050769,0.9927740273199794
2017-05-11,-1,-0.000766108998278334,-0.0006350293072054726,-0.0006209638702217226,0.008590275762019726,0.992316583808322
2017-05-15,-1,-0.0006150275135039106,-0.00048744387807222474,-0.00022032695424861314,0.00788816681087647,0.9924868345994888
2017-05-17,-1,-0.0012147739530752753,-0.0010185399006977117,-0.0006209638702217226,0.007346240487105964,0.9933852523836454
2017-05-19,-1,-0.0006072932218544999,-0.00048446631754850037,-0.0006209638702217226,0.007848848341531267,0.9923021885634529
2017-05-23,-1,-0.00042299099446914553,-0.00030535457325306424,-0.004140529472632003,0.0077267807540723574,0.9915023715596926
2017-05-25,-1,-0.0005575950485557878,-0.00041296333365457833,-0.0051436423451767625,0.0077267807540723574,0.9913417009006725
2017-05-30,1,1.1502257696236121e-05,5.0308578441561326e-05,-0.0051436423451767625,0.009029787611775652,0.9909967084522775
2017-06-01,1,0.0005066482682430902,0.0005340090469852848,-0.0069149296828724316,0.008892781823208462,0.9907813461922714
2017-06-05,1,0.0001898658015333431,0.0002078862100809562,-0.0051436423451767625,0.008892781823208462,0.9905391121376929
2017-06-07,1,0.0004669419460340923,0.0005050366033582277,-0.007687135006580844,0.008892781823208462,0.990487757089904
2017-06-09,1,0.0007892650521869014,0.0008364810482419805,-0.007687135006580844,0.008830053507767565,0.9910040575444429
2017-06-13,1,0.0009869358838789435,0.001035215966585033,-0.007687135006580844,0.008830053507767565,0.9911115403457595
2017-06-15,1,0.000523572902490705,0.0005254970677314586,-0.005318233699489659,0.008830053507767565,0.9914755340710417
2017-06-19,1,0.002278737131634647,0.002570945642250355,-0.005318233699489659,0.006322706898529939,0.9934324277987833
2017-06-21,1,0.0011015241164849653,0.001190118828126563,-0.0030225362587468713,0.0075107219199390405,0.9942485612805418
2017-06-23,1,0.0008766834581126134,0.0009268715682433424,-0.00203479032615133,0.0075107219199390405,0.994398067891763
2017-06-27,1,0.001068180924596827,0.00114323940975336,-0.0027716585907792885,0.006322706898529939,0.9942092883796094
2017-06-29,1,0.0011442961931378741,0.0012483728144786037,-0.0027716585907792885,0.00470803078661915,0.993883681424798
2017-07-03,1,0.0013319253768073178,0.0014431212385251635,-0.0027716585907792885,0.003860528872681673,0.9941624760917904
2017-07-06,1,0.0012398550838941347,0.0013761252624028982,-0.0018744359939142977,0.003860528872681673,0.9947241032548708
2017-07-10,1,0.0018812068957137025,0.002131433966075055,-0.0018744359939142977,0.003860528872681673,0.9950595212664376
2017-07-12,1,0.002277195384685055,0.0025778712333275325,-0.0023846471825924,0.0027062099797806652,0.995067286081651
2017-07-14,1,0.002131170534810171,0.002418401355846785,-0.0023846471825924,0.001997979829019869,0.9947864551642094
2017-07-18,1,0.0017564254156107423,0.0019715600543532236,-0.001337260892502201,0.00392720257201227,0.994569064825719
2017-07-20,1,0.0018738878387123312,0.0020972728634914705,-0.001337260892502201,0.00392720257201227,0.993728711470566
2017-07-24,1,0.0022117220793048827,0.0025151867170557832,-0.001337260892502201,0.00392720257201227,0.9937673022032194
2017-07-26,1,0.0015936717501260733,0.0017846541727195224,-0.00038472963854071157,0.00465709957454076,0.9940624167444692
2017-07-28,1,0.000406360072643773,0.000411546668057457,0.0005613603582381468,0.005104909573895616,0.9945731541417016
2017-08-01,1,0.00021639756868684047,0.00027805326314936157,0.00023753911943568708,0.005104909573895616,0.9940259399436626
2017-08-03,1,0.0002600604702448512,0.00031723783550766614,0.00032201682582427415,0.005585407834768737,0.9932501392857858
2017-08-07,1,0.0006882970980309666,0.000702464091310383,-0.001337260892502201,0.006669570149718856,0.9918814450053212
2017-08-09,1,0.0006702990676252633,0.0006922450258297833,-0.0024643865637695404,0.006669570149718856,0.9918344243643673
2017-08-11,-1,-0.0003664013051942611,-0.0002235056091737326,-0.0005863637742339759,0.00740229766307513,0.9917144667646282
2017-08-15,1,0.0004424737198548683,0.000480745859002678,-0.0024643865637695404,0.006730475468132402,0.9922247822855027
2017-08-17,-1,-0.0006201220518203148,-0.00045419664905968954,-0.0024643865637695404,0.006730475468132402,0.9933155246946961
2017-08-21,1,0.00020524587608089132,0.0002175807631037312,-0.0024643865637695404,0.00758501361831577,0.9926696697215475
2017-08-23,1,0.0007522197145213555,0.0008168942804318502,-0.0037852607109113146,0.006730475468132402,0.9928794467843804
2017-08-25,1,0.000759245589578588,0.0008088945748727949,-0.0037852607109113146,0.008183815828146016,0.9921146825912651
2017-08-29,1,0.0005688487871925899,0.0005896025146300335,-0.0037852607109113146,0.008183815828146016,0.9921704736254182
2017-08-31,1,0.0011465638637978561,0.0012446077040021808,-0.0037852607109113146,0.008183815828146016,0.9913955183151392
2017-09-05,1,0.0003042366771497672,0.0003542706744224787,-0.0028422076033125607,0.007326608990511779,0.9927629690585538
2017-09-07,0,-9.931952803556748e-05,1.0197576161959164e-05,-0.0037852607109113146,0.008183815828146016,0.9915310044335678
2017-09-11,1,0.00020963441867299164,0.00027813903037859455,-0.0065590200590868635,0.007326608990511779,0.9911938248669583
2017-09-13,1,0.000323821737675104,0.0003674439799933706,-0.0071105002050500426,0.006399973170450261,0.9910349366207623
2017-09-15,1,0.0005793294386588942,0.0006195643849820397,-0.0071105002050500426,0.006399973170450261,0.9912636011218385
2017-09-19,1,0.001196490591125621,0.0013166563538793878,-0.007564794232423275,0.005877544326240556,0.9914870363880198
2017-09-21,1,0.000500911221824443,0.0005057879085740136,-0.00752177960782088,0.008016518589821766,0.9911118916276357
2017-09-25,1,0.0007130749247092401,0.0007368281285984595,-0.00752177960782088,0.005877544326240556,0.9920385702179153
2017-09-27,1,0.0007389069458402486,0.0007391471654601125,-0.006639179428945563,0.006491080559930003,0.9917640650215518
2017-09-29,1,0.0015263906690981635,0.0015928587392454647,-0.006639179428945563,0.006133728048432103,0.9924368098233253
2017-10-03,1,0.0014218815898277056,0.0014658768017854437,-0.009025083454294829,0.005465406850726544,0.9913775362701769
2017-10-05,1,0.001303685237683726,0.00134449944538353,-0.00752177960782088,0.0035925110246323435,0.9927992181800965
2017-10-09,1,0.0003653320807454563,0.0004644199409233843,-0.00752177960782088,0.0035925110246323435,0.9929420674551398
2017-10-11,0,-6.792419869443289e-06,0.00011095345538412018,-0.002888332485649146,0.0035925110246323435,0.9935692907748488
2017-10-13,1,0.0003039064781025191,0.00036887009209718945,-0.006548528392190634,0.005465406850726544,0.9931220536819808
2017-10-17,-1,-0.0002787010411807887,-0.000144351374665188,-0.002950008971528776,0.007692297422422944,0.9927627871473722
2017-10-19,1,0.00023281478539539919,0.0003045499350323145,-0.006961723208808843,0.005067984220273127,0.9929851528714582
