JNU-Tangyin/eata/results/Batch4_SP500/Batch4_SP500-TRAUF.csv
Date,Action,Predicted_Q25,Predicted_Q75,Actual_Q25,Actual_Q75,RL_Reward
2010-12-13,0,0.0,0.0,0.0,0.0,0.9951887085338573
2010-12-15,-1,-0.0012762966764521893,-0.0011153322664321395,0.0,0.0,0.9968425825288534
2010-12-17,-1,-0.001247111393433062,-0.001090494208679319,0.0,0.0,0.9968663083407672
2010-12-21,-1,-0.0012200641603965635,-0.0010673366675430255,0.0,0.0,0.996491014798221
2010-12-23,-1,-0.0013165590359161625,-0.0011470860090684657,0.0,0.0,0.9964139293041355
2010-12-28,-1,-0.0012922557421157297,-0.0011265053565338256,0.0,0.0,0.9964336132682857
2010-12-30,-1,-0.0011334134249511507,-0.0009868793834870355,0.0,0.0,0.9985419803570734
2011-01-03,-1,-0.0011129995291227776,-0.000969465475860356,0.0,0.0,0.9985608395015079
2011-01-05,-1,-0.0010901190555418208,-0.0009500334731025048,0.0,0.0,0.9985819353347173
2011-01-07,-1,-0.0012254217476417358,-0.0010615830426030112,0.0,0.0,0.9984588741756122
2011-01-11,-1,-0.0012081697284623447,-0.0010468054234194428,0.0,0.0,0.99699348064031
2011-01-13,0,0.0,0.0,0.0,0.0,0.9969650743680551
2011-01-18,0,0.0,0.0,0.0,0.0,0.9932838547723609
2011-01-20,0,0.0,0.0,0.0,0.0,0.9932174766895457
2011-01-24,0,0.0,0.0,0.0,0.0,0.9932174766895457
2011-01-26,-1,-0.0003584535711125272,-0.00023303606620753235,0.0,0.0,0.9920953773877744
2011-01-28,1,0.00047380300458934016,0.0007354582035251114,0.0,0.0,0.9920345450788112
2011-02-01,1,0.0006127722268591554,0.0008983225861852114,0.0,0.0,0.99195335962238
2011-02-03,1,0.0007518415899035633,0.001061387154717234,0.0,0.0,0.9918721319673418
2011-02-07,1,0.000796524856540453,0.001100491442445228,0.0,0.0,0.9900601190399965
2011-02-09,1,0.0008444135392678664,0.0011599114776644367,0.0,0.0,0.9899845397288811
2011-02-11,1,0.001031187440840864,0.0013750023770107362,0.0,0.0,0.9909881813243729
2011-02-15,1,0.0010428682265846002,0.0013934988802487773,0.0,0.0,0.9944958533113616
2011-02-17,1,0.0011517050239132698,0.0015220367824517037,0.0,0.0,0.994702845619694
2011-02-22,1,0.0012865891205343933,0.0016799060000325067,0.0,0.0,0.994574789328587
2011-02-24,1,0.0013237597419309829,0.0017238485951709584,0.0,0.0,0.9923869033941358
2011-02-28,1,0.0014637906322588902,0.0018846600661658415,0.0,0.0,0.9922556416945403
2011-03-02,1,0.0015974147955360796,0.002041181176328748,0.0,0.0,0.992129361221731
2011-03-04,1,0.0017278794955486877,0.0021940656793539926,0.0,0.0,0.9920060754564003
2011-03-08,1,0.0019042335277316797,0.0023949794789271143,0.0,0.0,0.9936333244181119
2011-03-10,-1,-0.00010345828140420507,-8.940735937498735e-05,0.0,0.0,0.9965345922311944
2011-03-14,1,1.2216849576624037e-05,2.6417047371768876e-05,0.0,0.0,0.9966176900899558
2011-03-16,1,2.144699839728387e-05,3.717720838995091e-05,0.0,0.0,0.996610035963389
2011-03-18,1,3.078333449169349e-05,4.8137911415803916e-05,0.0,0.0,0.9966022778514534
2011-03-22,1,4.002247055376663e-05,5.894669507408163e-05,0.0,0.0,0.9965946085331501
2011-03-24,0,0.0,0.0,0.0,0.0,0.999725852909331
2011-03-28,-1,-0.00010444703757164286,-0.00010363047590484287,0.0,0.0,0.9978083745222243
2011-03-30,-1,-8.533917141811094e-05,-8.220271065339398e-05,0.0,0.0,0.9978285540044528
2011-04-01,-1,-7.160306767438649e-05,-6.610474291753594e-05,0.0,0.0,0.9978434065485288
2011-04-05,0,0.0,0.0,0.0,0.0,0.9979119685048723
2011-04-07,0,0.0,0.0,0.0,0.0,0.9980977254348098
2011-04-11,0,0.0,0.0,0.0,0.0,0.9980104976474039
2011-04-13,0,0.0,0.0,0.0,0.0,0.9975738397297124
2011-04-15,0,0.0,0.0,0.0,0.0,0.9975738397297124
2011-04-19,0,0.0,0.0,0.0,0.0,0.9975738397297124
2011-04-21,0,0.0,0.0,0.0,0.0,0.9975738397297124
2011-04-26,0,0.0,0.0,0.0,0.0,0.9993864940063437
2011-04-28,0,0.0,0.0,0.0,0.0,0.9990457187595261
2011-05-02,0,0.0,0.0,0.0,0.0,0.9993864940063437
2011-05-04,0,0.0,0.0,0.0,0.0,0.9993864940063437
2011-05-06,0,0.0,0.0,0.0,0.0,0.9994741159703472
2011-05-10,0,0.0,0.0,0.0,0.0,0.9995615998019506
2011-05-12,0,0.0,0.0,0.0,0.0,1.0
2011-05-16,-1,-0.00022968764382753437,-0.00020781075649477175,0.0,0.0,0.9997812986405864
2011-05-18,-1,-0.00021665577337551188,-0.00019666321066825226,0.0,0.0,0.9997933832072996
2011-05-20,-1,-0.0002044014396375804,-0.00018622065369336012,0.0,0.0,0.9998047270922905
2011-05-24,-1,-0.00010166143933926347,-9.683026482700624e-05,0.0,0.0,0.9999007639966785
2011-05-26,-1,-8.418899180771144e-05,-7.64234468119669e-05,0.0,0.0,0.9999197002292612
2011-05-31,-1,-6.394346045926083e-05,-5.372259588222049e-05,0.0,0.0,0.9986225381836117
2011-06-02,-1,-4.763314620942574e-05,-3.4584479288751184e-05,0.0,0.0,0.9983720790666012
2011-06-06,0,0.0,0.0,0.0,0.0,0.9984023957136176
2011-06-08,0,0.0,0.0,0.0,0.0,0.9984023957136176
2011-06-10,0,-5.886549935735409e-07,1.8767587339671092e-05,0.0,0.0,0.9983920851661365
2011-06-14,0,-2.772785552264967e-06,1.5025408364990761e-05,0.0,0.0,0.9983942067448313
2011-06-16,1,1.3699987573356431e-05,3.5228952994639565e-05,0.0,0.0,0.9983780099456089
2011-06-20,1,2.848741954549863e-05,5.255902032850759e-05,0.0,0.0,0.9983620035045987
2011-06-22,0,0.0,0.0,0.0,0.0,0.9976764870448367
2011-06-24,0,0.0,0.0,0.0,0.0,0.9976764870448367
2011-06-28,0,0.0,0.0,0.0,0.0,0.9989995119337807
2011-06-30,0,0.0,0.0,0.0,0.0,0.9987323064737476
2011-07-05,0,0.0,0.0,0.0,0.0,0.9987323064737476
2011-07-07,0,0.0,0.0,0.0,0.0,0.9987323064737476
2011-07-11,-1,-2.042850141077751e-05,-1.8740719692406202e-05,0.0,0.0,0.9987148936391581
2011-07-13,0,0.0,0.0,0.0,0.0,0.9987323064737476
2011-07-15,1,0.5447379825057892,0.5458572163239965,0.0,0.0,0.6472033735617354
2011-07-19,0,0.0,0.0,0.0,0.0,0.9976433666336699
2011-07-21,0,0.0,0.0,0.0,0.0,0.998369227088945
2011-07-25,0,0.0,0.0,0.0,0.0,0.998369227088945
2011-07-27,0,0.0,0.0,0.0,0.0,0.998369227088945
2011-07-29,0,0.0,0.0,0.0,0.0,0.9989082955279939
2011-08-02,0,0.0,0.0,0.0,0.0,0.9989082955279939
2011-08-04,0,0.0,0.0,0.0,0.0,0.9989082955279939
2011-08-08,0,0.0,0.0,0.0,0.0,0.9989082955279939
2011-08-10,0,0.0,0.0,0.0,0.0,0.9989082955279939
2011-08-12,0,0.0,0.0,0.0,0.0,0.9989082955279939
2011-08-16,-1,-5.032178856544178e-05,-4.350838093341383e-05,0.0,0.0,0.9999530871161724
2011-08-18,-1,-4.971830433759248e-05,-4.2993438793048215e-05,0.0,0.0,0.999953646277202
2011-08-22,0,0.0,0.0,0.0,0.0,1.0
2011-08-24,0,0.0,0.0,0.0,0.0,1.0
2011-08-26,0,0.0,0.0,0.0,0.0,1.0
2011-08-30,0,0.0,0.0,0.0,0.0,1.0
2011-09-01,0,-4.123278681824937e-05,0.0,0.0,0.0,0.9999757753445235
2011-09-06,-1,-4.226027627533098e-05,-3.6817606522004465e-05,0.0,0.0,0.9999604626218673
2011-09-08,-1,-4.145768165725477e-05,-3.613276709885836e-05,0.0,0.0,0.9999612062806329
2011-09-12,0,0.0,0.0,0.0,0.0,1.0
2011-09-14,0,0.0,0.0,0.0,0.0,1.0
2011-09-16,0,0.0,0.0,0.0,0.0,1.0
2011-09-20,0,0.0,0.0,0.0,0.0,1.0
2011-09-22,-1,-0.00048233848202672346,-0.00048052019317088745,0.0,0.0,0.9995188023250792
2011-09-26,-1,-0.00048327827677353325,-0.00048162158158456946,0.0,0.0,0.9995177827165151
2011-09-28,-1,-0.00048700093260468257,-0.0004855486100436744,0.0,0.0,0.9995139615768989
2011-09-30,1,9.999999999998901e-05,9.999999999998901e-05,0.0,0.0,0.9968473442703961
2011-10-04,1,9.999999999998901e-05,9.999999999998901e-05,0.0,0.0,0.9968473442703961
2011-10-06,1,9.999999999998901e-05,9.999999999998901e-05,0.0,0.0,0.9968473442703961
2011-10-10,1,9.999999999998901e-05,9.999999999998901e-05,0.0,0.0,0.9968473442703961
2011-10-12,1,9.999999999998901e-05,9.999999999998901e-05,0.0,0.0,0.9968473442703961
2011-10-14,1,0.00010000026295777488,0.00010000299733745295,0.0,0.0,0.9968473430842162
2011-10-18,1,9.999999172529213e-05,0.0001000000015190334,0.0,0.0,0.9968473442743903
2011-10-20,1,9.999998263699814e-05,9.999999376415705e-05,0.0,0.0,0.9968473442820547
2011-10-24,1,9.999997354870422e-05,9.999998600928079e-05,0.0,0.0,0.9968473442897188
2011-10-26,1,9.999996446041023e-05,9.999997825440445e-05,0.0,0.0,0.996847344297383
2011-10-28,1,9.999999999998901e-05,9.999999999998901e-05,0.0,0.0,0.9999000099990001
2011-11-01,0,0.0,0.0,0.0,0.0,0.9996492440066831
2011-11-03,0,0.0,0.0,0.0,0.0,0.9996492440066831
2011-11-07,0,0.0,0.0,0.0,0.0,0.9996492440066831
2011-11-09,0,0.0,0.0,0.0,0.0,0.9996492440066831
2011-11-11,0,0.0,0.0,0.0,0.0,0.9996492440066831
2011-11-15,0,0.0,0.0,0.0,0.0,0.9996492440066831
2011-11-17,0,0.0,0.0,0.0,0.0,0.9996492440066831
2011-11-21,0,0.0,0.0,0.0,0.0,0.9996492440066831
2011-11-23,-1,-7.809623364444612e-05,-6.118833291379841e-05,0.0,0.0,0.9995883032329065
2011-11-28,-1,-8.386905972785347e-05,-6.61141806529221e-05,0.0,0.0,0.9995835774434703
2011-11-30,-1,-0.00013682172797862993,-0.00011272599721203989,0.0,0.0,0.9998752417039791
2011-12-02,-1,-0.0001410816213698841,-0.00011636088693971239,0.0,0.0,0.999871295312874
2011-12-06,-1,-7.56183987805804e-05,-6.317975390375297e-05,0.0,0.0,0.9999306057395555
2011-12-08,-1,-0.00014581135581930276,-0.00012034580857152843,0.0,0.0,0.9998669391253572
2011-12-12,0,0.0,0.0,0.0,0.0,1.0
2011-12-14,0,0.0,0.0,0.0,0.0,1.0
2011-12-16,0,0.0,0.0,0.0,0.0,0.9993820064027799
2011-12-20,0,0.0,0.0,0.0,0.0,0.9978157251450753
2011-12-22,0,0.0,0.0,0.0,0.0,0.9978157251450753
2011-12-27,0,0.0,0.0,0.0,0.0,0.9978157251450753
2011-12-29,0,0.0,0.0,0.0,0.0,0.9978157251450753
2012-01-03,0,0.0,0.0,0.0,0.0,0.9978157251450753
2012-01-05,-1,-8.530315424507334e-05,-7.494367309104177e-05,0.0,0.0,0.9977449651952863
2012-01-09,-1,-2.871080078612318e-05,-2.7090032915452946e-05,0.0,0.0,0.9977908863338812
2012-01-11,0,0.0,0.0,0.0,0.0,0.9946861807177876
2012-01-13,-1,-1.3497345341005509e-05,-1.1755978742745912e-05,0.0,0.0,0.9925833753853189
2012-01-18,0,0.0,0.0,0.0,0.0,0.9928031927901093
2012-01-20,0,0.0,0.0,0.0,0.0,0.993382183350583
2012-01-24,0,0.0,0.0,0.0,0.0,0.993382183350583
2012-01-26,0,0.0,0.0,0.0,0.0,0.993382183350583
2012-01-30,0,0.0,0.0,0.0,0.0,0.993382183350583
2012-02-01,0,0.0,0.0,0.0,0.0,0.9920676357666572
2012-02-03,0,0.0,0.0,0.0,0.0,0.9920676357666572
2012-02-07,0,0.0,0.0,0.0,0.0,0.990537871044874
2012-02-09,0,0.0,0.0,0.0,0.0,0.9932266611277233
2012-02-13,0,0.0,0.0,0.0,0.0,0.9951560301390441
2012-02-15,0,0.0,0.0,0.0,0.0008333177017498705,0.9940792001652082
2012-02-17,-1,-9.541395708374954e-05,-9.076319166559375e-05,0.0,0.0008333177017498705,0.994191125529555
2012-02-22,-1,-0.0002864955672745957,-0.000262595302072828,0.0,0.0008333177017498705,0.9924820214816477
2012-02-24,-1,-0.00031835130385831847,-0.0002921792113759571,0.0,0.0008333177017498705,0.9924646197765057
2012-02-28,-1,-0.000280164304880624,-0.00025882379833825497,-0.002083314380876989,0.0008333177017498705,0.9916778128507022
2012-03-01,-1,-0.00024076185737093505,-0.00022464010374840143,-0.002083314380876989,0.0,0.9930074354482761
2012-03-05,0,0.0,0.0,-0.002083314380876989,0.0,0.9931159011353383
2012-03-07,0,0.0,0.0,0.0,0.0,0.9946536453054183
2012-03-09,0,0.0,0.0,0.0,0.0,0.9950695026283304
2012-03-13,0,0.0,0.0,0.0,0.0,0.9937850797283865
2012-03-15,-1,-0.0011323208162489005,-0.0010174701853693869,0.0,0.0,0.9946636087643176
2012-03-19,-1,-0.0013444813268940936,-0.0012085269003403124,0.0,0.0,0.9952136336429697
2012-03-21,-1,-0.0016365248476615684,-0.0014664491343280568,0.0,0.0,0.9964904188296382
2012-03-23,-1,-0.001630084062630416,-0.0014638621428580381,0.0,0.0,0.9964932795698398
2012-03-27,-1,-0.0016625758323190114,-0.0014923803109137621,0.0,0.0,0.9971399695527373
2012-03-29,-1,-0.0015836460531015765,-0.0014257711285145871,0.0,0.0,0.9939469188001662
2012-04-02,-1,-0.0015041331531448574,-0.001357802514824819,0.0,0.0,0.9940113481480748
2012-04-04,-1,-0.001409551765700408,-0.0012782322331488633,0.0,0.0,0.9940873031877568
2012-04-09,-1,-0.0013295896181972381,-0.0012100019837349616,0.0,0.0,0.9941520483618932
2012-04-11,-1,-0.0015423970394838052,-0.0014003175626947511,0.0,0.0,0.9952651967955471
2012-04-13,-1,-0.0013750384858773356,-0.0012520726870294476,0.0,0.0,0.9944089009039153
2012-04-17,-1,-0.0012167390594060535,-0.0011132705253925296,0.0,0.0,0.9933590742835837
2012-04-19,-1,-0.0011372410081401927,-0.0010454362808761002,0.0,0.0,0.99342334937829
2012-04-23,-1,-0.00017679712077608176,-0.00016941592448280028,0.0,0.0,0.9921078907294939
2012-04-25,-1,-0.00016995984434034573,-0.0001644244528383378,0.0,0.0,0.9921114780511296
2012-04-27,-1,-0.00041006420794397624,-0.0003769910579896198,0.0,0.0,0.9949029767706804
2012-05-01,-1,-0.0004058311502639912,-0.00037508748076487607,-0.0017421695150082823,0.0,0.9938168604073407
2012-05-03,-1,-0.0003608117735920657,-0.00033557407231083044,-0.0017421695150082823,0.0,0.9938355868107954
2012-05-07,-1,-0.00033323176445098826,-0.00031216898958147187,-0.0017421695150082823,0.0,0.9938465488004246
2012-05-09,-1,-0.0003042524740870741,-0.00028758989503623435,-0.0017421695150082823,0.0,0.9938580586434167
2012-05-11,-1,-0.0003083214036462477,-0.00029209878400933897,0.0,0.0,0.9949788240615091
2012-05-15,-1,-0.00030939884491672215,-0.00029374933766152455,0.0,0.0,0.9961617949392512
2012-05-17,-1,-0.00027706904314710293,-0.0002660943267938822,0.0,0.0,0.9961780901724728
2012-05-21,1,0.0015261601357276378,0.001751626336753269,0.0,0.0,0.9968820699077996
2012-05-23,1,0.0014952564666359275,0.0017147476909419473,0.0,0.0,0.9968294437895545
2012-05-25,1,0.0014640510580322772,0.0016790850611454386,0.0,0.0,0.9969368093791307
2012-05-30,1,0.001423059157379183,0.0016314276525375287,0.0,0.0,0.9981055448162698
2012-06-01,1,0.0013835151959440163,0.0015857438290460615,0.0,0.0,0.99813834902388
2012-06-05,1,0.0013658434746045892,0.0015648561120706376,0.0,0.0,0.9981531085636629
2012-06-07,1,0.0013707736222353752,0.001564739963126365,0.0,0.0,0.9955851221495079
2012-06-11,1,0.0013110768664757826,0.0014896632414027663,0.0,0.0,0.9956277871732482
2012-06-13,1,0.001256426331733375,0.0014255126184889123,0.0,0.0,0.9956664785061405
2012-06-15,1,0.0012217070641707246,0.0013841395610188524,0.0,0.0,0.9954986512604423
2012-06-19,1,0.0011749013983067096,0.0013300496540790232,0.0,0.001346495560317503,0.9951638417429423
2012-06-21,1,0.0011428207912839627,0.001292626356627968,0.0,0.0,0.9953164988763454
2012-06-25,1,0.0011084551661453086,0.001258866643632134,0.0,0.0,0.9926345972813301
2012-06-27,1,0.0010638864283443851,0.0012028130806459101,0.0,0.0,0.9926605298170076
2012-06-29,1,0.0010353611121486314,0.0011694189854623326,0.0,0.0,0.9926772182237112
2012-07-03,1,0.0008842780086023225,0.0009936877235758033,0.0,0.0,0.9927656583678596
2012-07-06,1,0.0007182842850726435,0.000786309130834344,0.0,0.0,0.995494870608739
2012-07-10,1,0.0006737047928019123,0.0007340709441133089,0.0,0.0,0.995526415886736
2012-07-12,1,0.0006232967723348955,0.0006745694480734235,0.0,0.0,0.9955621229952645
2012-07-16,1,0.0005621722388742457,0.000603658032184292,0.0,0.0,0.9958770011090367
2012-07-18,1,0.0006103501016181988,0.0006563154782298966,0.0,0.0,0.9962669905529489
2012-07-20,1,0.0005652295781505863,0.0006034350952997207,0.0,0.0,0.9963099939738138
2012-07-24,1,0.000417564885017858,0.0004336837863159717,0.0,0.0,0.9970631010639608
2012-07-26,1,0.00039809730871463093,0.00040723788271484595,0.0,0.0,0.9970829476044191
2012-07-30,1,0.0003565572935127567,0.0003572370758355156,0.0,0.0,0.9971230614619527
2012-08-01,1,0.00029742976986651097,0.0003065682550660845,0.0,0.0,0.9971730294504139
2012-08-03,1,0.00024256229731936006,0.00025997616818412015,0.0,0.0,0.9972192534851126
2012-08-07,1,0.00017062893121094587,0.00019923046847185682,0.0,0.0,0.9972797436965674
2012-08-09,1,0.0001270657413118994,0.00016547432256272673,0.0,0.0,0.9959604345192448
2012-08-13,1,0.00014382042976930653,0.00018201696675745297,0.0,0.0,0.9959471832976887
2012-08-15,1,8.019577571623506e-05,0.00012757291974728192,0.0,0.0,0.9959957565264379
2012-08-17,1,1.5836906948638046e-05,7.285208262762421e-05,0.0,0.0,0.9960428367621529
2012-08-21,1,0.00010189816229350538,0.00016572001426547916,0.0,0.0,0.995181284453519
2012-08-23,1,1.4157450022646637e-05,9.099793700225866e-05,0.0,0.0,0.9952456892372161
2012-08-27,0,-7.057701940476539e-05,1.833625503945056e-05,0.0,0.0,0.995248298300563
2012-08-29,-1,-0.00015379227258288382,-5.266981041369295e-05,0.0,0.0,0.9951933267179351
2012-08-31,-1,-0.000212106343644988,-0.00010310876579169349,0.0,0.0,0.9951456394359
2012-09-05,-1,-0.00029436024762895263,-0.00017315084503261518,0.0,0.0,0.9950789838182046
2012-09-07,-1,-0.00034823345981923416,-0.0002181147069862432,0.0,0.0,0.9964061357954812
2012-09-11,-1,-0.00043194471011135234,-0.00028954399777604285,0.0,0.0,0.9963380474858615
2012-09-13,-1,-0.0005238446334898719,-0.00036847939980005445,0.0,0.0,0.996263026214028
2012-09-17,-1,-0.0006059745087858525,-0.00043831030698077605,0.0,0.0,0.9961963791736604
2012-09-19,-1,-0.0003919200677790187,-0.000248506755835775,0.0,0.0,0.9996798890919986
2012-09-21,-1,-0.0004974429789199619,-0.0003388584970543448,0.0,0.0,0.9995820240389693
2012-09-25,-1,-0.0006018061748416106,-0.0004283075893887579,0.0,0.0,0.9994852082649107
2012-09-27,-1,-0.0006797573963201664,-0.0004946913935254088,0.0,0.0,0.999413120235192
2012-10-01,-1,-0.0007758226866498917,-0.0005766665296232532,0.0,0.0,0.9993242123895912
2012-10-03,-1,-0.0008418470739156557,-0.0006336328492785803,0.0,0.0,0.9992628038974273
2012-10-05,-1,-0.0009016489938288058,-0.0006849790942127692,0.0,0.0,0.9988800789120915
2012-10-09,-1,-0.000995460638387978,-0.0007653015077013657,0.0,0.0,0.9987932143448397
2012-10-11,0,0.0,0.0,0.0,0.0,0.9996722447853641
2012-10-15,0,0.0,0.0,0.0,0.0,0.9996722447853641
2012-10-17,0,0.0,0.0,0.0,0.0,0.9992655069025695
2012-10-19,0,0.0,0.0,0.0,0.0,0.9977353791851685
2012-10-23,1,2.7063286000090657e-05,4.9833805826554514e-05,0.0,0.0,0.9977146718298339
2012-10-25,1,4.0905366679446696e-05,6.600592624920172e-05,0.0,0.0,0.9973999135297164
2012-10-31,0,0.0,0.0,0.0,0.0,0.9974234098853525
2012-11-02,0,0.0,0.0,0.0,0.0,0.9972684752727239
2012-11-06,0,0.0,0.0,0.0,0.0,0.9975946559126605
2012-11-08,1,0.00012429278773472404,0.00013537542903250158,0.0,0.0,0.9975071769172034
2012-11-12,1,0.0001161967487140635,0.00012584125699672343,0.0,0.0,0.9958183095369694
2012-11-14,0,0.0,0.0,0.0,0.0,0.9958870981196402
2012-11-16,0,0.0,0.0,0.0,0.0,0.995916383181656
2012-11-20,0,0.0,0.0,0.0,0.0,0.996837415062213
2012-11-23,0,0.0,0.0,0.0,0.0,0.9952709051568227
2012-11-27,-1,-0.00014890182637709677,-0.00012100283894373313,0.0,0.0,0.9954953256281855
2012-11-29,0,0.0,0.0,0.0,0.0,0.9955815291997233
2012-12-03,-1,-0.00021813512705415677,-0.0002001052558666178,0.0,0.0,0.9955734812021467
2012-12-05,-1,-0.00020345422463911207,-0.0001875866937908457,0.0,0.0,0.9955838589026735
2012-12-07,0,0.0,0.0,0.0,0.0,0.9957359400506615
2012-12-11,-1,-0.00046401311503246434,-0.000414130703054701,0.0,0.0,0.996640107504269
2012-12-13,-1,-0.00044132069692633563,-0.0003946300343143188,0.0,0.0,0.9965034709604129
2012-12-17,-1,-0.00023448352814234289,-0.0002183609969385396,0.0,0.0,0.9961112353221231
2012-12-19,-1,-0.00021114505330104412,-0.00019832371258059385,0.0,0.0,0.9964976989610709
2012-12-21,-1,-5.673882548011444e-05,-5.0256659693456696e-05,0.0,0.0,0.9978001645400374
2012-12-26,-1,-4.3953057780601766e-05,-3.535899482477716e-05,0.0,0.0,0.9978115877685811
2012-12-28,0,0.0,0.0,0.0,0.0,0.9972956238470815
2013-01-02,0,0.0,0.0,0.0,0.0,0.9972956238470815
2013-01-04,0,-1.9611233651087572e-05,1.0913646750416821e-05,0.0,0.0,0.9962960062358497
2013-01-08,1,8.836253710410423e-07,9.210447625200403e-06,0.0,0.0,0.9962940317668941
2013-01-10,0,-7.0539163150176525e-06,2.261475826899009e-05,0.0,0.0,0.9967563087708897
2013-01-14,-1,-3.644642431898744e-05,-2.4517595736052336e-06,0.0,0.0,0.9965940514962571
2013-01-16,1,0.00019597018211827408,0.0002030879169422635,0.0,0.0,0.9973527678322848
2013-01-18,1,0.0001613065218203198,0.00017357968162615015,0.0,0.0,0.9958722837124725
2013-01-23,1,0.00019886394873636402,0.00022392275004622634,0.0,0.0,0.9948532581017525
2013-01-25,1,0.00011888002538490284,0.00014703186825155867,0.0,0.0,0.99468106924225
2013-01-29,1,9.428684213366745e-05,0.00012678357533677496,0.0,0.0,0.9952288924643685
2013-01-31,1,4.526046742967694e-05,8.500190101419507e-05,-0.0011867057467305833,0.0,0.9950339198590618
2013-02-04,1,0.00017759033008854524,0.00019778530282458197,0.0,0.0,0.9959213382791747
2013-02-06,1,0.0001285741059169838,0.0001559520870440668,0.0,0.0,0.9952665750706285
2013-02-08,1,7.933104513648497e-05,0.00011378298610848358,-0.0007873868402411803,0.0,0.9951481462830271
2013-02-12,1,3.883722484942042e-05,7.944580260036427e-05,0.0,0.0,0.9945630136495842
2013-02-14,1,0.00017625231228132906,0.0001889041507972641,0.0,0.0,0.9941058583537363
2013-02-19,1,0.0002824809899773821,0.00030859422124707354,0.0,0.0,0.9957460890843608
2013-02-21,1,0.0003401273557468532,0.000373142412694968,0.0,0.0,0.9970801663787212
2013-02-25,1,0.0003236570752916801,0.00035367220643498355,0.0,0.0,0.9966754349186145
2013-02-27,1,0.0003013905991321922,0.000327787541890776,0.0,0.0,0.9966885738767497
2013-03-01,0,0.0,0.0,0.0,0.0,0.9971043162165618
2013-03-05,0,0.0,0.0,0.0,0.0,0.9965765655677331
2013-03-07,-1,-0.0011152611564071054,-0.0010199317990088968,0.0,0.0,0.9964602131647666
2013-03-11,-1,-0.0010720923391624858,-0.0009840148936268904,0.0,0.0,0.9965367261475362
2013-03-13,-1,-0.0010118772791038082,-0.0009330008465696987,0.0,0.0,0.9925772017505063
2013-03-15,-1,-0.0009727318108312859,-0.0009002505978311857,0.0,0.0,0.9893736890070655
2013-03-19,-1,-0.0008975318792893026,-0.0008360349498128608,0.0,0.0,0.9894185688898809
2013-03-21,-1,-0.0008234094236943638,-0.0007728106391864223,0.0,0.0,0.9890303927653477
2013-03-25,-1,-0.0006949477039903018,-0.0006615850851134672,0.0,0.0,0.9897857042265814
2013-03-27,-1,-0.0006096554756290304,-0.0005870636280573912,0.0,0.0,0.9884094054374329
2013-04-01,-1,-0.0005399095449066135,-0.0005276902979618307,0.0,0.0,0.9873271037957687
2013-04-03,0,0.0,0.0,0.0,0.0,0.9881537222162844
2013-04-05,0,0.0,0.0,0.0,0.0,0.9881537222162844
2013-04-09,1,5.702505166239976e-05,8.800684024150043e-05,0.0,0.0,0.9878994545904201
2013-04-11,0,0.0,0.0,0.0,0.0,0.9928452423387196
2013-04-15,0,0.0,0.0,0.0,0.0,0.9966856508868325
2013-04-17,0,0.0,0.0,0.0,0.0,0.9952375675339744
2013-04-19,0,0.0,0.0,0.0,0.0,0.9956753867493711
2013-04-23,0,0.0,0.0,0.0,0.0,0.993780630517385
2013-04-25,0,0.0,0.0,0.0,0.0,0.9952244741742535
2013-04-29,0,0.0,0.0,0.0,0.0,0.9964200925561812
2013-05-01,0,0.0,0.0,0.0,0.0,0.9942981062073357
2013-05-03,0,0.0,0.0,0.0,0.0,0.9936151898260294
2013-05-07,0,0.0,0.0,0.0,0.0,0.9938304839504922
2013-05-09,-1,-0.0007034499515637028,-0.0006334139873230656,0.0,0.0,0.9915961210076039
2013-05-13,-1,-0.001143482459130025,-0.0010438099207732347,0.0,0.0,0.9913113565967597
2013-05-15,-1,-0.001015473764085914,-0.000929510037996284,0.0,0.0,0.9928279911611383
2013-05-17,-1,-0.0010017105315355411,-0.0009157423597302337,0.0,0.0,0.9928374905263704
2013-05-21,-1,-0.0009176719042930253,-0.0008415786271069638,0.0,0.0,0.9946878343523563
2013-05-23,-1,-0.0008583239503790973,-0.0007910572210056302,0.0,0.0,0.9947296635024739
2013-05-28,-1,-0.0008378193012108103,-0.0007769136880122485,0.0,0.0,0.9947421846385441
2013-05-30,-1,-0.0007718730392229394,-0.0007206290765429193,0.0,0.0,0.9968341227381149
2013-06-03,-1,-0.0010112033095447054,-0.0009342055727716579,0.0,0.0,0.9973212763963472
2013-06-05,1,0.0001889803262670479,0.00024592502848385213,0.0,0.0,0.9979684985086024
2013-06-07,1,0.0006052494771778035,0.0007153085304035084,0.0,0.0,0.9973811872741134
2013-06-11,1,0.00043372264654958345,0.0005293784673151377,0.0,0.0,0.9971280350411963
2013-06-13,1,0.0006691917270566985,0.0007968556640805605,0.0,0.0,0.9969062391481951
2013-06-17,1,0.0012278679527369571,0.0013796694505087935,0.0,0.0,0.9963983997507002
2013-06-19,1,0.0005892160160584595,0.0007025607501561736,0.0,0.0,0.9969827592426248
2013-06-21,-1,-0.00017335416421651646,-0.00010197794045139347,0.0,0.0,0.9974334354001513
2013-06-25,-1,-9.474361271549338e-05,-9.814650143383436e-06,0.0,0.0,0.9975068350912083
2013-06-27,1,6.129837992972022e-05,0.0001561180935807129,0.0,0.0,0.9974616969573948
2013-07-01,1,0.0001263790578023948,0.00023242177664866597,0.0,0.0,0.9973995170604611
2013-07-03,1,0.0004293780868612218,0.0005082632657383194,0.0,0.0,0.9957698814269196
2013-07-08,1,0.0007966797822930946,0.0009274799558470013,0.0,0.0,0.9973754858444766
2013-07-10,1,0.0007095350573396095,0.0008287001698428862,0.0,0.0,0.9978578496244216
2013-07-12,1,0.0007104422481901459,0.0008314230790295756,0.0,0.0,0.9978560423455674
2013-07-16,1,0.0006093117992264413,0.0007091384096154006,0.0,0.0,0.9979672838255453
2013-07-18,1,0.0006290454585989522,0.0007337296700362669,0.0,0.0,0.9967799894499626
2013-07-22,1,0.000604006076010521,0.0007045090195904303,0.0,0.0,0.9956673452170187
2013-07-24,1,0.0006005748699746047,0.0007019911176626757,0.0,0.0,0.9956698758417976
2013-07-26,1,0.0005695087305529214,0.0006656748313692512,0.0,0.0,0.9941244302804382
2013-07-30,1,0.0005187492616296202,0.0006021406056028983,0.0,0.0,0.9941672218255858
2013-08-01,1,0.0007147877940052408,0.0008250631744375863,0.0,0.0,0.9949637932600951
2013-08-05,1,1.219971477252064e-05,0.00012225810465621645,0.0,0.0,0.995517824644181
2013-08-07,1,9.145204014577511e-05,0.0002147981213049749,0.0,0.0,0.995454969991105
2013-08-09,1,0.00017445505176407746,0.00031207314397076793,0.0,0.0,0.9953861971799548
2013-08-13,1,0.00025745806338238074,0.00040934816663656243,0.0,0.0,0.9953174338707366
2013-08-15,1,0.000255309219456978,0.0004089514363671336,0.0,0.0,0.9965120039362008
2013-08-19,1,0.00026951607206557966,0.0004280489294546498,0.0,0.0,0.9964775952807131
2013-08-21,1,0.00035604979267570295,0.0005294638094006954,0.0,0.0,0.996395097670406
2013-08-23,1,0.0003195123069937524,0.000490788412704449,0.0,0.0,0.9980069660616024
2013-08-27,1,0.00040940706047039137,0.0005961883641959517,0.0,0.0,0.9979209851549594
2013-08-29,1,0.0004912869944815796,0.0006924511922889965,0.0,0.0,0.9982508330595357
2013-09-03,0,-1.5885762669046774e-06,3.3339649623634224e-05,0.0,0.0,0.9987451985915752
2013-09-05,1,9.092505293382916e-05,9.995768736789243e-05,0.0,0.0,0.9986770923110422
2013-09-09,1,6.722580109107428e-05,7.973554583411315e-05,0.0,0.0,0.9986971518736685
2013-09-11,1,4.6369763010796793e-05,6.173537950457335e-05,0.0,0.0,0.9987148767920564
2013-09-13,1,2.295335644150385e-05,4.1819153610030546e-05,0.0,0.0,0.9987346759013894
2013-09-17,1,7.430353826328733e-05,8.633010563984143e-05,0.0,0.0,0.9999196896283222
2013-09-19,1,7.538726459145248e-05,8.673399636471678e-05,0.0,0.0,0.999918945939815
2013-09-23,1,5.165894106595711e-05,6.649025469833413e-05,0.0,0.0,0.9999409288917198
2013-09-25,1,2.7932613235834227e-05,4.625527003979219e-05,0.0,0.0,0.9999629074342716
2013-09-27,1,4.980696697746894e-06,2.661124986813147e-05,0.0,0.0,0.9999831370072162
2013-10-01,0,-1.8701735052200065e-05,6.3981412208887584e-06,0.0,0.0,0.9999860877914206
2013-10-03,-1,-4.241183870177494e-05,-1.381803874115313e-05,0.0,0.0,0.999971837968277
2013-10-07,-1,-3.194557936998437e-05,-5.415185586951705e-06,0.0,0.0,0.9999798028239733
2013-10-09,-1,-4.1088111375816214e-05,-1.8766324734690462e-05,0.0,0.0,0.9977172267187897
2013-10-11,0,-1.230999733968063e-05,5.475702989732132e-06,0.0,0.0,0.9977388224382823
2013-10-15,-1,-2.9233748856162305e-05,-8.966728678509027e-06,0.0,0.0,0.997344104338048
2013-10-17,-1,-4.575560919990551e-05,-2.3204100900464718e-05,0.0,0.0,0.9972583281750662
2013-10-21,1,2.5051230302721854e-06,1.5753902829329488e-05,0.0,0.0,0.9972817775503979
2013-10-23,0,-4.141895126567981e-06,9.79062055992075e-06,0.0,0.0,0.9972836770448601
2013-10-25,-1,-1.823438327397874e-05,-2.250466356888037e-06,0.0,0.0,0.9972790643242854
2013-10-29,1,2.6110791529553336e-05,3.495320017837033e-05,0.0,0.0,0.9972643217366517
2013-10-31,1,1.255620746097433e-05,2.3257473161150358e-05,0.0,0.0,0.9963579798457616
2013-11-04,0,-7.262844953867276e-07,1.1845323003500146e-05,0.0,0.0,0.9963676258953496
2013-11-06,1,0.00013812044443238747,0.0001416516127033946,0.0,0.0,0.9984917678447812
2013-11-08,1,0.0001223855993653454,0.00012323460359263362,0.0,0.0,0.9985068226751259
2013-11-12,1,0.00010971655450124236,0.00011101006803210206,0.0,0.0,0.9988916992845241
2013-11-14,1,8.862669163961087e-05,9.247854564325633e-05,0.0,0.0,0.9978197332497317
2013-11-18,1,5.9274778536917147e-05,6.469481566805717e-05,0.0,0.0,0.9960194375138292
2013-11-20,-1,-0.0003096498447196899,-0.0002681337875338758,-0.0007668937775625024,0.0,0.9934374122537136
2013-11-22,-1,-0.0002930119632951946,-0.0002537769105405024,-0.0007668937775625024,0.0,0.9934441710027047
2013-11-26,-1,-0.0001311964846362371,-0.00011824444731152318,-0.0007668937775625024,0.0,0.9935073012248323
2013-11-29,-1,-8.751235310279449e-05,-7.837783678367189e-05,0.0,0.0,0.994266345446068
2013-12-03,-1,-8.384960937364852e-05,-7.526409883399221e-05,0.0,0.0,0.9942681723346456
2013-12-05,-1,-7.961500972584304e-05,-7.163695391061775e-05,0.0,0.0,0.9942703016253649
2013-12-09,-1,-7.569259174329815e-05,-6.82900258251258e-05,0.0,0.0,0.994272265879767
2013-12-11,-1,-7.652932664867733e-05,-6.924954051406231e-05,-0.0008237474824632493,0.0,0.9932153097638206
2013-12-13,1,1.5013875868599335e-06,3.6490144913115746e-06,0.0,0.0,0.99440424537414
2013-12-17,1,0.00010770144771640717,0.00012382190865021283,0.0,0.0,0.995819687725182
2013-12-19,1,8.141407979297842e-05,9.405083022850576e-05,0.0,0.0,0.9983571531399443
2013-12-23,1,0.00013656504946893937,0.0001620510742148171,0.0,0.0,0.9983104831647346
2013-12-26,1,0.0001376702851740221,0.00016333995730153657,0.0,0.0,0.9983095634301222
2013-12-30,1,0.00014922448931793783,0.00017646137268307173,0.0,0.0,0.9984642393979475
2014-01-02,1,0.0001504418114576959,0.00017788800813192844,0.0,0.0,0.9984632245994806
2014-01-06,1,0.00015204758194968225,0.00017977392661884092,0.0,0.0,0.9969873988381386
2014-01-08,1,0.00010678646464611622,0.00012362254725970618,0.0,0.0,0.9970197751352734
2014-01-10,1,0.00010033555612585143,0.00011177466106687505,0.0,0.0,0.9962351409379127
2014-01-14,1,9.598260297960081e-05,0.0001066653247075513,0.0,0.0,0.9962387551834999
2014-01-16,1,0.00013697090391360026,0.00015886729434710245,0.0,0.0,0.9952867904143314
2014-01-21,1,0.00034563217899951883,0.0004008460239252549,0.0,0.0,0.9926959387971688
2014-01-23,1,0.0002643930241207874,0.00030873503793411557,0.0,0.0,0.9918962152368529
2014-01-27,1,0.00026263749940544183,0.00030668144877854693,0.0,0.001610334109276447,0.9916109699517439
2014-01-29,1,0.00024891043856771695,0.0002906489106943389,0.0,0.009339173475882374,0.990467231379297
2014-01-31,1,0.00024660869030159317,0.00028795773050709756,0.0,0.009339173475882374,0.9900849691021009
2014-02-04,1,8.877245562029763e-05,0.00010928730825336517,0.0,0.001610334109276447,0.991603982484091
2014-02-06,1,9.285285848646773e-05,0.00011407105663461778,0.0,0.001610334109276447,0.9916020764993909
2014-02-10,1,0.00022730793186990817,0.0002581832864332983,0.0,0.001610334109276447,0.9933702095636169
2014-02-12,1,0.00022137259653994703,0.00025121268222990864,0.0,0.001610334109276447,0.9933729901581793
2014-02-14,1,7.549286933926961e-05,8.585203205859419e-05,0.0,0.0,0.9946792003542964
2014-02-19,1,6.794206664293097e-05,7.714043479950354e-05,0.0,0.0,0.9971455271679214
2014-02-21,-1,-3.603894421039167e-05,-3.2044735836645454e-05,0.0,0.0,0.9980608293511701
2014-02-25,-1,-6.578509570403803e-05,-5.835800088850563e-05,0.0,0.0,0.9964769382346653
2014-02-27,-1,-0.00019306011210708623,-0.00017094621008198303,0.0,0.0,0.9970357138188787
2014-03-03,-1,-0.00014395142413089557,-0.00012773349802444305,0.0,0.0,0.9974498025543915
2014-03-05,-1,-0.00013866132315052554,-0.00012321611920382313,0.0,0.0,0.9974546813390367
2014-03-07,-1,-0.0001334426377728334,-0.0001187620323013163,0.0,0.0,0.997459493159435
2014-03-11,-1,-0.00012830583831459656,-0.00011438085721288081,0.0,0.0,0.9960470407906455
2014-03-13,-1,-0.00011572119692238538,-0.00010334833354620098,0.0,0.0,0.9960587563378015
2014-03-17,-1,-0.00011069886722579633,-9.905689670079807e-05,0.0,0.0,0.9951343522264209
2014-03-19,-1,-0.00010314536319410294,-9.249509439634908e-05,0.0,0.0,0.9951405442836146
2014-03-21,-1,-9.839658331610088e-05,-8.844304670121991e-05,0.0,0.0,0.9951443972762375
2014-03-25,-1,-0.0002805547083658257,-0.000249625663487009,0.0,0.0,0.9968679030780115
2014-03-27,-1,-0.0003222444120684743,-0.00028681484215271934,0.0,0.0,0.9973611114096345
2014-03-31,-1,-0.00030984319419213825,-0.00027623892433969934,0.0,0.0,0.9973712151564366
2014-04-02,-1,-0.0005128639184728208,-0.0004434504805031828,0.0,0.0,0.9964856180967397
2014-04-04,-1,-0.0007185268753977939,-0.0006213777287698712,0.0,0.0,0.9954272139576167
2014-04-08,-1,-0.0011334916335112777,-0.0009827315299661345,0.0,0.0,0.996544250230728
2014-04-10,-1,-0.0011062498587369935,-0.0009599069998550338,0.0,0.0,0.9965633077659631
2014-04-14,-1,-0.0009085100899966165,-0.0007856878143259431,0.0,0.0,0.9974257699099729
2014-04-16,-1,-0.0008974166348908598,-0.0007762219703940042,0.0,0.0,0.9974336446029629
2014-04-21,-1,-0.0008863231797851028,-0.0007667561264620646,0.0,0.0,0.9974415194202955
2014-04-23,-1,-0.0011813169385220135,-0.0010221314575197815,0.0,0.0,0.993604746005237
2014-04-25,-1,-0.0009774635828851141,-0.0008544906873315163,0.0,0.0,0.99372352911486
2014-04-29,-1,-0.000956850142763714,-0.0008369237084675726,0.0,0.0,0.9937359176939966
2014-05-01,-1,-0.0007416299689975267,-0.0006474179790155509,0.0,0.0,0.9945660479306446
2014-05-05,-1,-0.0005669694630197723,-0.0004947996198282907,0.0,0.0,0.9929335673361676
2014-05-07,-1,-0.0007941725866337584,-0.0006960101810451645,0.0,0.0,0.9927694978546455
2014-05-09,-1,-0.0006405896309647991,-0.0005731585219387236,0.0,0.0,0.9928727503368537
2014-05-13,-1,-0.0003429228929889022,-0.0003326781051345854,0.0,0.0,0.9932625810751964
2014-05-15,-1,-0.00033932201090561975,-0.00032349212764113246,0.0,0.0,0.9931284899342046
2014-05-19,-1,-0.00030283861542118563,-0.0002923037793726265,0.0,0.0,0.9931580037747553
2014-05-21,-1,-0.00035585224294343754,-0.0003404679075217649,0.0,0.0,0.9968210786772926
2014-05-23,-1,-0.0002955458978997965,-0.0002900783084450378,0.0,0.0,0.9968760783494202
2014-05-28,-1,-0.0002560003895301339,-0.0002555778090929758,0.0,0.0,0.9969128717586045
2014-05-30,-1,-0.0002217254274696338,-0.00021540941464198252,0.0,0.0,0.9965975419179229
2014-06-03,-1,-0.0007411773858947133,-0.0006876182917852066,0.0,0.0,0.9987902122591562
2014-06-05,-1,-0.0004950829413056595,-0.000473266199321299,0.0,0.0,0.996356238541339
2014-06-09,-1,-0.00044124938785646093,-0.00042733100506541915,0.0,0.0,0.9964057625054588
2014-06-11,-1,-0.0004263773129309933,-0.0004129609960808473,0.0,0.0,0.9945421758511601
2014-06-13,-1,-0.00036957252842316143,-0.0003614585584640842,0.0,0.0,0.9947305936557682
2014-06-17,-1,-0.000318318974226625,-0.0003173781622765973,0.0,0.0,0.994153376602289
2014-06-19,-1,-0.0002760152110812532,-0.0002698438413777827,0.0,0.0,0.994193851002709
2014-06-23,-1,-0.00023437880993739302,-0.0002211107441716942,0.0,0.0,0.9940989848858532
2014-06-25,-1,-0.00019306406510632997,-0.0001726921065642493,0.0,0.0,0.994139593436576
2014-06-27,-1,-0.000349311371745647,-0.0003398972093973129,0.0,0.0,0.9942097413290581
2014-07-01,-1,-0.0003049951859760378,-0.0003020830122734379,0.0,0.0,0.9942456318444913
2014-07-03,-1,-0.0005407806238053847,-0.0005300263644611683,0.0,0.0,0.9958641905051302
2014-07-08,-1,-0.00046812667796201245,-0.0004680320709036962,0.0,0.0,0.9959156048210948
2014-07-10,-1,-0.00017464410859084197,-0.0001539918380944271,0.0,0.0,0.9980697143683165
2014-07-14,-1,-0.00013681163846588154,-0.00010925097552965399,0.0,0.0,0.9981074186544645
2014-07-16,-1,-0.0002569625557161788,-0.00025062770895168697,0.0,0.0,0.9986118200155396
2014-07-18,-1,-0.0002443550839760962,-0.00023748700516734733,0.0,0.0,0.9986234278582523
2014-07-22,-1,-0.0002971041224188939,-0.0002861384514550583,0.0,0.0,0.9962245027793302
2014-07-24,-1,-0.00022979295855121525,-0.00022896505083896165,0.0,0.0,0.9946612369111885
2014-07-28,-1,-0.00017414388148023419,-0.00017095399683966472,0.0,0.0,0.9943679292193168
2014-07-30,-1,-0.00014858989230656335,-0.00014100610907504598,0.0,0.0,0.9943907043003828
2014-08-01,-1,-3.410749174128565e-05,-1.0513037720417338e-05,0.0,0.0,0.995163697448215
2014-08-05,0,-1.1375886138244263e-05,1.6098036908493915e-05,0.0,0.0,0.9927762020283946
2014-08-07,1,1.0050995730259165e-05,3.7905812660996396e-05,0.0,0.0,0.9927729915091328
2014-08-11,1,3.0173906020462712e-05,6.146520403099504e-05,0.0,0.0006443292634217981,0.992640618679702
2014-08-13,1,5.0414022073477264e-05,8.524162895710753e-05,0.0,0.0006443292634217981,0.9926311514469283
2014-08-15,-1,-0.00020162279510106988,-0.00020116378798037054,0.0,0.0006443292634217981,0.9881299298013873
2014-08-19,-1,-0.0003687717412516145,-0.00035035565697386366,0.0,0.0,0.990476486766744
2014-08-21,-1,-0.0004165962606998252,-0.00039372482152675843,0.0,0.0,0.9920315097994452
2014-08-25,-1,-0.0003834381815388745,-0.0003656762041705683,0.0,0.0,0.9925267376196631
2014-08-27,-1,-0.0003426714033408734,-0.0003308918400210187,0.0,0.0,0.9925553922695431
2014-08-29,-1,-0.0003444630754222695,-0.00033081794199718573,0.0,0.0,0.9927556140980464
2014-09-03,-1,-0.0004927872451648517,-0.0004630611574124966,0.0,0.0,0.9950506214625148
2014-09-05,-1,-0.000465549225610989,-0.0004390148904554475,0.0,0.0,0.9950703342282373
2014-09-09,-1,-0.00042178250148546534,-0.0004016816525426206,0.0,0.0,0.9952288718850114
2014-09-11,-1,-0.00037762721293064296,-0.00036401623942832156,0.0,0.0,0.9952600716322499
2014-09-15,-1,-0.002988815862329196,-0.002753145946749208,0.0,0.0,0.9941594670885212
2014-09-17,-1,-0.002775369427179488,-0.002571119950931,0.0,0.0,0.992841019755639
2014-09-19,-1,-0.002426412040080814,-0.002262739604324975,0.0,0.0,0.9930851388395532
2014-09-23,-1,-0.0022807784433463776,-0.00213811965377359,0.0,0.0,0.9931878343736289
2014-09-25,-1,-0.0020642808116000362,-0.0019445454109495428,0.0,0.0,0.9914570052344909
2014-09-29,-1,-0.0018702927601096486,-0.001779018926859289,0.0,0.0,0.9915930821816723
2014-10-01,-1,-0.0016746207744621844,-0.0016118715733186143,0.0,0.0,0.9917304848815356
2014-10-03,-1,-0.001483323552502697,-0.0014483998411725305,0.0,0.0,0.991864888004521
2014-10-07,-1,-0.0012897859946838738,-0.0012832577551572413,0.0,0.0,0.9920007606342627
2014-10-09,-1,-0.0011188199743370599,-0.001096938936573114,0.0,0.0,0.9921442806687106
2014-10-13,-1,-0.002305272843100149,-0.002148133002532347,0.0,0.0,0.9941122493079972
2014-10-15,-1,-0.0023303337266288703,-0.0021759714967936887,0.0,0.0,0.9955834644291724
2014-10-17,-1,-0.002139578626633073,-0.002013434431423009,0.0,0.0,0.9958106460776487
2014-10-21,-1,-0.0019413237840125138,-0.0018443297735365996,0.0,0.0,0.9959928233747386
2014-10-23,-1,-0.0027623215880483876,-0.0025513010764920893,0.0,0.0,0.9971383316423043
2014-10-27,-1,-0.002555317872804193,-0.0023745754193670826,0.0,0.0,0.9970296283030261
2014-10-29,-1,-0.002349725255481585,-0.0021991541347105036,0.0,0.0,0.9971970963825892
2014-10-31,-1,-0.0021440383508120934,-0.002023645231498312,0.0,0.0,0.9973647014932372
2014-11-04,-1,-0.0019382922248627108,-0.0018478871450643614,0.0,0.0,0.9975325199547472
2014-11-06,-1,-0.0004700550003057085,-0.0003958628573431806,0.0,0.0,0.9965177371527852
2014-11-10,-1,-0.0003997564527987768,-0.00033398548293573304,0.0,0.0,0.9967876279355272
2014-11-12,-1,-0.00040729793464597134,-0.00034042049254279867,0.0,0.0,0.9967814888326877
2014-11-14,-1,-0.000415356953472614,-0.0003472882126018548,0.0,0.0,0.9966152969488719
2014-11-18,-1,-0.0003580208594651188,-0.0003016857341511405,0.0,0.0,0.9957382089165834
2014-11-20,-1,-0.00036149223781471837,-0.0003046537138047862,0.0,0.0,0.9954264080854317
2014-11-24,-1,-5.353715469653896e-05,-2.775157054124813e-05,0.0,0.0,0.9960811620659551
2014-11-26,0,-2.6572495559354717e-05,3.878843395933732e-06,0.0,0.0,0.994631031717623
2014-12-01,-1,-0.0003813695911362477,-0.000335164334796429,0.0,0.0,0.9944322629270185
2014-12-03,-1,-0.00037074112718512545,-0.0003260873251003639,0.0,0.0,0.9944375921600203
2014-12-05,1,0.0005282258665055125,0.0006087611022308483,0.0,0.0,0.9964429374165695
2014-12-09,1,0.0005202889773610375,0.0005994594991158303,-0.0003521039499646032,0.0,0.9953635644681591
2014-12-11,1,0.0005219329980038694,0.000603378864782698,-0.0020809091553861073,0.0,0.995083867787669
2014-12-15,1,0.00043026986005640093,0.0004993542187126147,-0.0003521039499646032,0.0,0.9953728330483157
2014-12-17,1,0.00017379475660606899,0.00021129468000916134,0.0,0.0,0.9952605738198829
2014-12-19,1,7.50567080986105e-05,9.977113915028105e-05,0.0,0.0,0.9956880122542078
2014-12-23,-1,-9.993946345769343e-05,-8.699530498978652e-05,0.0,0.0,0.9957508189477348
2014-12-26,1,0.0003607327138328356,0.0004068594746775629,0.0,0.0,0.9969544668219579
2014-12-30,1,0.0003483709921912985,0.00039237672894550514,0.0,0.0,0.9969662626912964
2015-01-02,1,0.0003363986236959738,0.0003783322007309844,0.0,0.0,0.9969776935374394
2015-01-06,1,0.00032412901032676574,0.00036395288008562305,0.0,0.0,0.996989403620286
2015-01-08,-1,-4.761032939659297e-05,-3.907342371907994e-05,0.0,0.0,0.9983464444036247
2015-01-12,1,0.0003603947493152749,0.0004571462120207895,0.0,0.0,0.9983066255049194
2015-01-14,1,8.113685533400031e-05,0.00010752291791632156,0.0,0.0,0.9985817274722139
2015-01-16,1,0.0006354661835143681,0.0007454069241194863,0.0,0.0,0.9991160350986149
2015-01-21,1,0.0006277251931131537,0.0007363261344655622,0.0,0.0,0.9989192215276582
2015-01-23,1,0.0006658940146577776,0.000783817223093187,0.0,0.0,0.9984718146063282
2015-01-27,1,0.0012726535377830333,0.0015328930347656834,0.0,0.0,0.9978780934711057
2015-01-29,1,0.00045575938143524073,0.0007266642663880072,0.0,0.0,0.9963259825925153
2015-02-02,1,0.0006005429813656139,0.0008954850791263213,0.0,0.0,0.9962059963508832
2015-02-04,1,0.0007486889253101993,0.0010691839305562024,0.0,0.0,0.9956473169556346
2015-02-06,-1,-0.0003256742370386957,-0.00010536383458637779,0.0,0.0,0.9950491442042873
2015-02-10,0,-0.00011250419142891377,0.0001442960522327094,-0.0010231832634189004,0.0,0.993746199842593
2015-02-12,1,9.81019823025033e-05,0.0003845990977990951,-0.0010231832634189004,0.0,0.9936239906584364
2015-02-17,1,0.00028695770936454465,0.0006066945233721334,-0.0010231832634189004,0.0,0.9936926243021591
2015-02-19,1,0.0004852110616431587,0.0008395583714271059,0.0,0.0,0.9913324321791411
2015-02-23,1,0.0004310510237790921,0.000685427452423678,0.0,0.0,0.9906374296502641
2015-02-25,1,0.0002338861095484968,0.00025258477211591724,0.0,0.0,0.9907450144484581
2015-02-27,1,9.536404511837616e-05,9.547684519181178e-05,0.0,0.0,0.9931545996674619
2015-03-03,1,0.00010814960270767234,0.00010875724592947926,0.0,0.0,0.9931457321501077
2015-03-05,1,0.0003399514301053218,0.00036905700877123824,0.0,0.0,0.9928984194036565
2015-03-09,-1,-0.00038964022846356964,-0.000314071328830408,0.0,0.0,0.9933900235508554
2015-03-11,-1,-0.0003042998537484665,-0.0002568845300295055,0.0,0.0,0.9947971205021579
2015-03-13,1,0.0006681641095620628,0.0006877183427979499,0.0,0.0,0.9945779492231384
2015-03-17,1,0.0005937737238058368,0.0006006753976764852,0.0,0.0,0.994291773964931
2015-03-19,1,0.0018454066742268852,0.002032658034657814,0.0,0.0,0.9958541135274788
2015-03-23,1,0.001962607265719929,0.002161139619937351,0.0,0.0,0.9967803943398875
2015-03-25,1,0.0018535068453624786,0.0020334259278339227,0.0,0.0,0.9960203998987838
2015-03-27,1,0.0017146381983278705,0.001873208931561462,0.0,0.0,0.9961185732103022
2015-03-31,1,0.0016101859308507516,0.0017507429017635356,0.0,0.0,0.9961101328737797
2015-04-02,1,0.0015407747354221869,0.001668737138140521,0.0,0.0,0.9967507422042844
2015-04-07,1,0.001493971053082902,0.0016117592540446544,0.0,0.0,0.9972236521708021
2015-04-09,1,0.0013815648806815206,0.001480539897240808,0.0,0.0,0.9973034328196224
2015-04-13,1,0.0012775520807027563,0.0013583309121233116,0.0,0.0,0.9967326379112994
2015-04-15,1,0.0013931780821906344,0.0014694883872600985,0.0,0.0,0.9946257833250673
2015-04-17,1,0.0012757784145895094,0.0013308074705498493,0.0,0.0013037797084467194,0.9943328404591004
2015-04-21,1,0.0011682619807366677,0.0012082535605859117,0.0,0.0013037797084467194,0.9936510308304218
2015-04-23,1,0.0012329282502468026,0.0012761267741442253,0.0,0.0031625583813101816,0.9940556156198102
2015-04-27,1,0.0011027425105165356,0.0011235561560892968,0.0,0.0031625583813101816,0.9941017195374905
2015-04-29,1,0.0009838559629459919,0.0009839596681523784,0.0,0.0006195928909544874,0.9916229845184349
2015-05-01,1,0.0005859922148778387,0.0006062774897604407,0.0,0.0006195928909544874,0.9918215094615978
2015-05-05,1,0.0005244266247871477,0.0005340492065687174,0.0,0.0006195928909544874,0.9918502734919267
2015-05-07,1,0.00042555007288116087,0.00042652801285378685,0.0,0.0006195928909544874,0.9909340474796672
2015-05-11,1,0.00040091110346683135,0.000406860958954143,0.0,0.0054968974296519405,0.990033438167837
2015-05-13,1,0.0007727864262270416,0.0008086478482753681,0.0,0.0006195928909544874,0.992261700390779
2015-05-15,1,0.0007225154801819099,0.0007498669367467984,-0.00032258802844632056,0.0,0.9919397313112975
2015-05-19,1,0.0006969885403545357,0.0007180900288938579,0.0,0.0,0.9926848851870972
2015-05-21,1,0.0007541593547464871,0.0007934964062080739,0.0,0.0,0.9916976320149548
2015-05-26,1,0.000684486555928832,0.0007118436691321798,0.0,0.0,0.9917465600709844
2015-05-28,1,0.0012611261904815494,0.0013628574028793348,0.0,0.0,0.9927695786828913
2015-06-01,1,0.0012521634140049412,0.0013445156592101614,-0.00032258802844632056,0.0,0.992070260988664
2015-06-03,1,0.0012267386269533141,0.0013186359131520987,-0.00032258802844632056,0.0,0.9921529149244964
2015-06-05,1,0.0012310177115354248,0.0013201072018233656,0.0,0.0,0.993116192889466
2015-06-09,1,0.0013444833917446958,0.0014447193084636263,-0.00032258802844632056,0.0,0.9916493749584974
2015-06-11,1,0.0009483363929842267,0.0010236139011427308,0.0,0.0,0.9909797295263276
2015-06-15,1,0.0008405495488268291,0.0009034978905926075,0.0,0.0,0.9910111313612663
2015-06-17,1,0.0007791189704464761,0.0008313484320325675,0.0,0.0,0.9894342867509315
2015-06-19,1,0.0008405180856811811,0.0009005829695486851,0.0,0.0,0.9909174142684708
2015-06-23,1,0.0007750983852082088,0.0008239452351523951,0.0,0.0,0.9909632807142859
2015-06-25,1,0.0008041444141155662,0.00085412590707641,0.0,0.0,0.9921925320018701
2015-06-29,1,0.0007659758432219338,0.0008081731353227859,0.0,0.0,0.9929259282222214
2015-07-01,1,0.000738923116534361,0.0007711012969679211,0.0,0.0,0.9918760948189348
2015-07-06,1,0.0006670332389613883,0.0006866673252753938,0.0,0.0,0.9919352777332582
2015-07-08,1,0.0010742726324481288,0.0011447698013977712,0.0,0.0,0.9943395416142766
2015-07-10,1,0.0010825401029524397,0.0011505188376909157,0.0,0.0,0.9953256775938905
2015-07-14,1,0.0010358593881052082,0.0010940648438780296,0.0,0.0,0.9961834553895679
2015-07-16,1,0.0011398794082489523,0.001208705723089813,0.0,0.0,0.9976886522273453
2015-07-20,1,0.0010392090132747846,0.0010910416021147765,0.0,0.0,0.9977973272578641
2015-07-22,1,0.0009348699455340911,0.0009882129253136317,0.0,0.0,0.9976269650625498
2015-07-24,1,0.0008521767866986494,0.0008912831109015031,0.0,0.0,0.997716358812871
2015-07-28,1,0.0007777368610954412,0.0008049375618873958,0.0,0.0,0.9977963912124278
2015-07-30,1,0.0008040928797975119,0.0008351273362167279,0.0,0.0,0.9988384270277209
2015-08-03,1,0.0007997696950119744,0.0008323360772062439,0.0,0.0,0.9971910886014497
2015-08-05,1,0.000692175805772592,0.000710132949838587,0.0,0.0,0.9963826354880642
2015-08-07,1,0.0006088828411915954,0.000613430862334787,0.0,0.0,0.9956735236939521
2015-08-11,1,0.00036519995279562297,0.0003847507541694372,0.0,0.0,0.9959077210196238
2015-08-13,1,0.0001906740937602757,0.0002211539370229226,0.0,0.0,0.9960754297336527
2015-08-17,1,0.00018905699889669545,0.00021925661290903177,0.0,0.0,0.9960771731806738
2015-08-19,1,0.00019284669141784669,0.00022298661376212093,0.0,0.0,0.9939488930284427
2015-08-21,1,0.00019032270449228247,0.00022003173422989133,0.0,0.0,0.9926970172917136
2015-08-25,1,0.0002105379384772416,0.0002457695068659193,0.0,0.0,0.9926771839838486
2015-08-27,1,0.00018420649625195364,0.0002128828315361303,0.0,0.0,0.9927027979896685
2015-08-31,1,0.0003181667359365827,0.0003644051281363134,0.0,0.0,0.9942135810227407
2015-09-02,1,0.0004570190396272502,0.0005212821283267861,0.0,0.0,0.9950023024698285
2015-09-04,1,0.000429215700978772,0.0004873238241928268,0.0,0.0,0.9935789575026629
2015-09-09,1,0.0003833000669389886,0.00043478520809663577,0.0,0.0,0.9936165976918998
2015-09-11,1,0.0003721773517800045,0.0004217499898786408,0.0,0.0,0.9936257802185454
2015-09-15,1,0.0003225191195591313,0.00036000944210661857,0.0,0.0,0.9936675150405777
2015-09-17,1,0.0001232004127500803,0.00013400133466829234,0.0,0.0,0.995756836223584
2015-09-21,1,0.00018871140887233843,0.0002070310846662238,0.0,0.0,0.9964239504273564
2015-09-23,1,0.00017783266953209822,0.00019428037606143044,0.0,0.0,0.9964329826525377
2015-09-25,1,0.00016836694137490013,0.0001830658545104919,0.0,0.0,0.9951565879837848
2015-09-29,1,0.0001470154400601994,0.00015898122135799697,0.0,0.0,0.9951047904344044
2015-10-01,1,0.00014249433256981615,0.0001567563450442929,0.0,0.0,0.9951077388151155
2015-10-05,-1,-0.00019015084092224854,-0.00014796652022564224,0.0,0.0,0.9974752726676218
2015-10-07,-1,-0.0002427928340603177,-0.0001909659769846361,0.0,0.0,0.9969992872771779
2015-10-09,-1,-0.00021525693685118483,-0.00016957393803097197,-0.0003373735577123553,0.0,0.9968301940866856
2015-10-13,-1,-0.0002859181494886435,-0.00022708706583309836,-0.0003373735577123553,0.0,0.9968035112205998
2015-10-15,-1,-0.00025067474814140125,-0.0001953479340281697,0.0,0.0,0.9972746620218389
2015-10-19,-1,-0.0001660209790892608,-0.00013334593600065886,0.0,0.0,0.9978667998846574
2015-10-21,-1,-0.00017508249240221141,-0.0001410659854397694,-0.0003373735577123553,0.0,0.9968579395821968
2015-10-23,-1,-0.00028564528629216896,-0.00023821168819001135,0.0,0.0,0.9963651215442764
2015-10-27,-1,-0.00028746079430611927,-0.00024486752335005607,0.0,0.0,0.9963986497933663
2015-10-29,-1,-0.00035953364593591943,-0.0003035793866523013,0.0,0.0,0.9963567665966769
2015-11-02,-1,-0.000463535595464326,-0.0003876360274317962,0.0,0.0,0.9962967432335321
2015-11-04,-1,-0.00033169338019867163,-0.000276500083249414,0.0,0.0,0.9968108726640231
2015-11-06,-1,-0.0003070404527165733,-0.0002544949750336381,0.0,0.0,0.9969997183369267
2015-11-10,-1,-0.0004969896402469828,-0.0004080613787516361,0.0,0.0,0.9968497015641077
2015-11-12,-1,-0.0005137951111532917,-0.00042240599547867805,0.0,0.0,0.9968360169296612
2015-11-16,-1,-0.0004132404507911175,-0.0003426356514538169,0.0,0.0,0.9969145913960977
2015-11-18,-1,-0.00010194279434050195,-8.01681272614378e-05,0.0,0.0,0.9981777948716216
2015-11-20,-1,-0.00014579483070419123,-0.00012540001086026306,0.0,0.0,0.999474872693297
2015-11-24,-1,-0.00020200660240717288,-0.00017085232776880145,0.0,0.0,0.9994302486969321
2015-11-27,-1,-0.00010807095871112431,-9.748205186276129e-05,0.0,0.0,0.9995034017547146
2015-12-01,-1,-9.763628309400845e-05,-8.463280046488701e-05,0.0,0.0,0.9972056305911291
2015-12-03,-1,-7.190420212650231e-05,-6.398721028937905e-05,0.0,0.0,0.9972258786701766
2015-12-07,-1,-0.00013419105270429132,-0.00011440733129291987,0.0,0.0,0.9971766240702084
2015-12-09,-1,-0.00013429217032048305,-0.0001144936131198634,0.0,0.0,0.997176541691196
2015-12-11,-1,-0.0001344067272439492,-0.00011459135291710831,0.0,0.0,0.9971764483686182
2015-12-15,-1,-0.00013470959627076955,-0.00011484964236081814,0.0,0.0,0.9971762017041875
2015-12-17,-1,-0.00013447135328905816,-0.00011464659479694989,0.0,0.0,0.9971763956653573
2015-12-21,-1,-1.6605712091529725e-05,-1.4389393556282497e-05,0.0,0.0,0.9976738519904421
2015-12-23,1,2.785251961809696e-05,3.931154954657202e-05,0.0,0.0,0.9976603349047178
2015-12-28,1,1.1404055242400364e-05,2.5301724119421096e-05,0.0,0.0,0.9976742199915349
2015-12-30,1,0.00011257004831140331,0.00011516846525194449,0.0,0.0,0.9998861437079497
2016-01-04,1,9.274435191863206e-05,9.833890632796556e-05,0.0,0.0,0.9999044674982076
2016-01-06,1,7.239488788745441e-05,8.097259752039485e-05,0.0,0.0,0.9999233221372416
2016-01-08,1,5.206476681593775e-05,6.362798953275072e-05,0.0,0.0,0.9999421569678355
2016-01-12,1,3.266628802301037e-05,4.696333021791057e-05,0.0,0.0,0.9999601867760354
2016-01-14,1,1.2504727349178914e-05,2.9851648441103075e-05,0.0,0.0,0.9987434232170844
2016-01-19,-1,-0.00024821920438453343,-0.0002206532876616457,0.0,0.0,0.9961000908009789
2016-01-21,-1,-0.00023884089983002374,-0.00021265081192206912,0.0,0.0,0.9961077148124501
2016-01-25,-1,-0.00015013276361980064,-0.00014253485670777947,0.0,0.0,0.9961288598242548
2016-01-27,-1,-4.980347580306993e-05,-3.298790337984968e-05,0.0,0.0,0.9962139018794145
2016-01-29,-1,-3.0278559555827424e-05,-1.0064870811484252e-05,0.0,0.0,0.9948425999958217
2016-02-02,0,-1.005832009971938e-05,1.2167450713399268e-05,0.0,0.0,0.9948515391860857
2016-02-04,1,8.391304352839556e-06,3.371572765769019e-05,0.0,0.0,0.9948428602000775
2016-02-08,1,2.679279067665548e-05,5.526595166114921e-05,0.0,0.0,0.9940374057307748
2016-02-10,-1,-9.533182570912099e-05,-9.30764539962702e-05,0.0,0.0,0.9939841907199959
2016-02-12,1,0.00011904772861493985,0.0001566080105842817,0.0,0.0,0.9931635396333409
2016-02-17,-1,-8.638649659409389e-05,-8.005583250244447e-05,0.0,0.0,0.9934039049414747
2016-02-19,-1,-6.296657484337011e-05,-5.4750626280003304e-05,0.0,0.0,0.9934212341997901
2016-02-23,-1,-3.980461533588347e-05,-2.9535790868355093e-05,0.0,0.0,0.9912643157961066
2016-02-25,-1,-2.6606156299306718e-05,-1.4067913535896363e-05,0.0,0.0,0.9905307578291523
2016-02-29,-1,-0.0003670119957596788,-0.00033554371939608355,0.0,0.0,0.990865796681316
2016-03-02,-1,-0.0004276966069794984,-0.0003928260294569211,0.0,0.0,0.9908261573153866
2016-03-04,-1,-0.0003976072695905568,-0.0003671123877142283,0.0,0.004027265159758771,0.9894092398066455
2016-03-08,-1,-0.0005451789301251209,-0.0005000968233867573,0.0,0.0,0.9885455210330993
2016-03-10,-1,-0.00044801067908040014,-0.0004192145222194013,0.0,0.004117657156551585,0.98778816612342
2016-03-14,-1,-0.000826377063355178,-0.0007500999677642819,0.0,0.0,0.989622407089329
2016-03-16,-1,-0.00038818362771313923,-0.0003643438195103953,0.0,0.0,0.9919691802285214
2016-03-18,-1,-0.00045650311202413295,-0.0004201723559000332,0.0,0.004117657156551585,0.990898801265563
2016-03-22,-1,-0.0008394637151470294,-0.0007560429911792497,0.0,0.0,0.992855170617495
2016-03-24,-1,-0.0006612382379492753,-0.0005998160124443401,0.0,0.0017006922248508937,0.993331465681432
2016-03-29,-1,-0.0005232283365599958,-0.0004785427080298391,0.0,0.005923681252763587,0.9931055125675331
2016-03-31,-1,-0.0006397159881533638,-0.000585866409540337,0.0,0.005923681252763587,0.9930070949860049
2016-04-04,-1,-0.0008191466556327466,-0.0007473668148192849,0.0,0.0014076630093042312,0.9943319751428057
2016-04-06,-1,-0.00048720677551045453,-0.00045489559136069953,0.0,0.0014076630093042312,0.9955428572948619
2016-04-08,-1,-0.0005765311293630802,-0.0005350566176968995,0.0,0.0,0.9963032897813562
2016-04-12,-1,-0.0005307034830267639,-0.000495939817447291,0.0,0.0014076630093042312,0.9958321521325078
2016-04-14,-1,-0.00031880441293022686,-0.00031185830274092573,0.0,0.005923681252763587,0.9952833491844205
2016-04-18,-1,-0.000610110153481,-0.0005624018128056804,0.0,0.0014076630093042312,0.9961685717977693
2016-04-20,-1,-0.0005998797826866177,-0.0005546962781747304,0.0,0.0014076630093042312,0.9961730674700189
2016-04-22,-1,-0.0006059892500158314,-0.0005614847825432432,0.0,0.0,0.9965066523783488
2016-04-26,-1,-0.0007073998739026361,-0.0006513205903845239,-0.00027503379301338987,0.0,0.9963278987101236
2016-04-28,-1,-0.0006492567308867742,-0.0006011556869493403,-0.001920390572677731,0.0,0.9956304114501445
2016-05-02,-1,-0.0005903654283276232,-0.0005505892116933477,-0.00467476176799222,0.0,0.9951335410820027
2016-05-04,-1,-0.0004344682176596315,-0.00041412779332730486,-0.0010952891936375614,0.0,0.9951603921084486
2016-05-06,-1,-0.0004904683708499386,-0.00047330442320702695,-0.006159414419641202,0.0,0.9895319305130231
2016-05-10,-1,-0.00037101774006162685,-0.00035732893415622966,-0.006159414419641202,0.0,0.9900691449142238
2016-05-12,-1,-0.00036273545439057713,-0.00035133820454646676,-0.0028735468387285175,0.0,0.9907385542430922
2016-05-16,-1,-0.00028922522052655616,-0.0002878929227219166,-0.0028735468387285175,0.0,0.9907682629900452
2016-05-18,-1,-0.00025016538202647073,-0.00024205094184523126,-0.0028735468387285175,0.0,0.9890214830052643
2016-05-20,-1,-0.0001985362500040841,-0.00018450326496052764,-0.0028735468387285175,0.0,0.9890504672986504
2016-05-24,-1,-0.0001723813728920104,-0.00016655165460194142,0.0,0.0,0.9903881733930404
2016-05-26,-1,-5.2004624783057984e-05,-2.9270514322131646e-05,0.0,0.0,0.9912415079094933
2016-05-31,1,4.053942472398321e-05,7.61081204323925e-05,0.0,0.0,0.9905785307555409
2016-06-02,1,2.3631130459246658e-05,3.181915497197322e-05,0.0,0.0,0.9884624102852936
2016-06-06,1,1.4412362797941158e-05,2.151374413273493e-05,0.0,0.0,0.9905828089388757
2016-06-08,1,1.5033636484897709e-05,2.148466471879078e-05,0.0,0.0,0.9905824342603493
2016-06-10,1,1.782931429749312e-05,2.472112702425711e-05,0.0,0.0,0.9905804786914107
2016-06-14,1,2.1020158731187227e-05,2.8504800641517152e-05,0.0,0.0,0.9905782395303351
2016-06-16,-1,-0.001137108920458515,-0.0010726307836331967,0.0,0.0,0.9915114726113801
2016-06-20,-1,-0.0010293316084544783,-0.0009807307082412306,0.0,0.0,0.991587041644108
2016-06-22,-1,-0.000916433562547556,-0.0008839068109731847,0.0,0.0,0.9905215830676152
2016-06-24,-1,-0.0008084735556738005,-0.0007917881462054855,0.0,0.0,0.9905861216740154
2016-06-28,-1,-0.0007697687275843642,-0.000760729170245346,0.0,0.0,0.9908690316008317
2016-06-30,-1,-0.0011449981665611006,-0.001095837411393008,0.0,0.0,0.9933099046461901
2016-07-05,-1,-0.001602237407190474,-0.0014947316595394543,0.0,0.0,0.9937440826207347
2016-07-07,-1,-0.0017062121031277988,-0.0015965917129620003,0.0,0.0,0.9936528294821948
2016-07-11,-1,-0.0019095058103108388,-0.0017679003181099305,0.0,0.0,0.9934895764110702
2016-07-13,-1,-0.0017626594448815459,-0.0016425927464419508,0.0,0.0,0.9928591567224974
2016-07-15,-1,-0.0016159156004056205,-0.0015173585030597396,0.0,0.0,0.9929623930099114
2016-07-19,-1,-0.0014641531464287042,-0.001387388687312055,0.0,0.0,0.992649522776071
2016-07-21,-1,-0.0015053616043373052,-0.0014228032884689445,0.0,0.0,0.9937097724734208
2016-07-25,-1,-0.0013588370544241608,-0.0012977744826395163,0.0,0.0,0.9931831098470711
2016-07-27,-1,-0.0012633425411730207,-0.0012178238324991257,0.0,0.0,0.9941360097490571
2016-07-29,-1,-0.0011375408720072887,-0.0011087523536721699,0.0,0.0,0.9942257356383245
2016-08-02,-1,-0.001479078993974993,-0.0014155427855277545,0.0,0.0,0.9926615919799353
2016-08-04,-1,-0.0013886965374629722,-0.001320204452531917,0.0,0.0,0.9927269588436753
2016-08-08,-1,-0.001382857904397108,-0.0013096250294898197,0.0,0.0,0.9927338760138903
2016-08-10,-1,-0.001298115201927676,-0.0012389077622155218,0.0,0.0,0.9935817099359442
2016-08-12,-1,-0.0013915780260309611,-0.0013126848945319144,0.0,0.0,0.9935193560214228
2016-08-16,-1,-0.0009777211741872666,-0.0009285033584794871,0.0,0.0,0.9903650466410914
2016-08-18,-1,-0.0008818686892939585,-0.0008440147581965664,0.0,0.0,0.987865636772595
2016-08-22,-1,-0.0007806078184750848,-0.0007546937927201874,0.0,0.0,0.9886241498636689
2016-08-24,-1,-0.0007032388780733685,-0.0006810462388036043,0.0,0.0,0.9886825042162942
2016-08-26,-1,-0.0006811535672419465,-0.0006579089518933644,0.0,0.0,0.9887003812859999
2016-08-30,-1,-0.0013786702537416612,-0.0012758359038258945,0.0,0.0,0.9922174574889436
2016-09-01,-1,-0.0012733337999285025,-0.0011859542192980642,0.0,0.0,0.9923024293690417
2016-09-06,-1,-0.0011680242417642767,-0.001096097774195818,0.0,0.0,0.9923873928622541
2016-09-08,-1,-0.0010446777781606903,-0.0009853675384962693,0.0,0.0,0.9902532442965094
2016-09-12,-1,-0.0009454627213774081,-0.0009007407432378488,0.0,0.0,0.9903226489256473
2016-09-14,-1,-0.0014978951853465137,-0.0013919677376798474,0.0,0.0,0.9937520731677486
2016-09-16,-1,-0.001678149038121466,-0.001553300615284489,0.0,0.0,0.9961903331746427
2016-09-20,-1,-0.0015495879854762404,-0.001443601802023505,0.0,0.0,0.9939488620755718
2016-09-22,-1,-0.0017310456524642095,-0.0016249028623160845,0.0,0.0,0.9916160266236975
2016-09-26,-1,-0.001580267205133107,-0.0014956185031746079,0.0,0.0,0.9917221879918576
2016-09-28,-1,-0.0014239148095043916,-0.0013621623337563135,0.0,0.0,0.9916042353961787
2016-09-30,-1,-0.0012791504332190515,-0.0012386777773837402,0.0,0.0,0.9904054328715507
2016-10-04,-1,-0.0011273463795944709,-0.0011080728723241132,0.0,0.0,0.9904815390530833
2016-10-06,-1,-0.0011555960587581052,-0.0011378099936365542,0.0,0.0,0.9923756767197246
2016-10-10,-1,-0.0010010535562215838,-0.0009952512203110443,0.0,0.0,0.9902128132770164
2016-10-12,-1,-0.0009957791462533784,-0.0009618888017537827,0.0,0.0,0.9878799260652578
2016-10-14,-1,-0.0008950261456274195,-0.0008466873633734384,0.0,0.0,0.9879479057453138
2016-10-18,-1,-0.0010388634755611366,-0.001005194714741159,0.0,0.0,0.9901718589672622
2016-10-20,-1,-0.0011661507090200455,-0.0011433157459420228,0.0,0.0,0.9923144753777305
2016-10-24,-1,-0.0010247753021126594,-0.0009747635760185508,0.0,0.0,0.9901903497898569
2016-10-26,-1,-0.0011055494947995723,-0.0010756866703938467,0.0,0.0,0.9875034817343783
2016-10-28,-1,-0.001060568323637161,-0.0010400398685906753,0.0,0.0,0.9860138039029248
2016-11-01,-1,-0.000746650175680242,-0.0007462724469113283,0.0,0.0006337129678375446,0.9838342315825054
2016-11-03,-1,-0.0008185816310862187,-0.0007971926055627484,0.0,0.0,0.9841169226899741
2016-11-07,-1,-0.0010060039363128845,-0.0010008176108327372,0.0,0.0,0.9862318076562718
2016-11-09,-1,-0.001153282058266876,-0.0011356947619045204,0.0,0.0,0.9884837598303446
2016-11-11,-1,-0.000995780270229445,-0.0009898206172071198,0.0,0.0,0.9872235814784921
2016-11-15,-1,-0.0008581603528999784,-0.000828737559152317,0.0,0.00032300481839650134,0.9872686525214461
2016-11-17,-1,-0.0007426603709387907,-0.0006968894978643354,0.0,0.00032300481839650134,0.987357319124807
2016-11-21,1,0.000666114764801678,0.0007569028347679778,0.0,0.0016027274230270487,0.9854175536491538
2016-11-23,1,0.0003821732981812484,0.00041524918916754244,0.0,0.00032300481839650134,0.9884569599990677
2016-11-28,1,0.00017188785135338193,0.0001762435162649715,0.0,0.00032300481839650134,0.9912543056211665
2016-11-30,1,0.00028739430221890263,0.00030624072091330274,0.0,0.0,0.9933447836552711
2016-12-02,1,0.0002623238540839505,0.00027703247152756523,0.0,0.0,0.99335947616566
2016-12-06,1,0.00023966569338787638,0.000250378397167712,0.0,0.0,0.993372746015206
2016-12-08,1,0.00021637453673909368,0.0002230500443062571,0.0,0.0,0.9933863895087812
2016-12-12,1,0.00013543608816591625,0.00013741593373600277,0.0,0.0,0.9946078196665729
2016-12-14,1,0.00010823223024328505,0.00011027192531919013,0.0,0.0,0.9936702885920176
2016-12-16,1,3.259574635895117e-05,4.8482771439094484e-05,0.0,0.0,0.9937214532312715
2016-12-20,1,0.00020061705179698022,0.00020389003340213224,0.0,0.0,0.9981697888146872
2016-12-22,-1,-0.00025513117259980367,-0.0001883019869043891,0.0,0.0,0.9981662735283782
2016-12-27,-1,-0.0003002225400697435,-0.00022716483395959194,0.0,0.0,0.9982615715016724
2016-12-29,-1,-0.00029343115972547506,-0.0002206795137477743,0.0,0.0,0.9975146823359702
2017-01-03,-1,-0.00026554920892205036,-0.00019963282398782647,0.0,0.0,0.997532868289448
2017-01-05,-1,-0.0002941277757009102,-0.00022401609156151532,0.0,0.0,0.9964210398848055
2017-01-09,-1,-0.0003535958823380254,-0.0002731126759825249,0.0,0.0,0.9963798770810829
2017-01-11,-1,-0.0003637484977000366,-0.00028106670546525285,0.0,0.0,0.9965251793682632
2017-01-13,-1,-0.00043702734405719776,-0.0003505772724477353,0.0,0.0,0.9951661105931406
2017-01-18,-1,-0.00046068130103326494,-0.0003707607646937233,0.0,0.0,0.99514691806445
2017-01-20,-1,-0.00048486023245349557,-0.0003913680064313258,0.0,0.0,0.9951273135245899
2017-01-24,-1,-0.00035684348259812566,-0.0002912876225818657,0.0,0.0,0.994069231853731
2017-01-26,-1,-0.00035791188441712085,-0.0002926589194208126,0.0,0.0,0.9921152814352048
2017-01-30,-1,-0.00019708064961293265,-0.00015174304570074308,0.0,0.0,0.991217122640387
2017-02-01,-1,-0.00021380037786964575,-0.00016606143712235628,0.0,0.0,0.9912036358703041
2017-02-03,-1,-0.00019497498835782323,-0.00014890277806778706,0.0,0.0,0.9911403028746061
2017-02-07,-1,-5.8279186854481997e-05,-5.600268735390142e-05,0.0,0.0,0.9889897420112381
2017-02-09,-1,-0.0003107806924234844,-0.00025859940964520587,0.0,0.0,0.9888470685742773
2017-02-13,-1,-0.0006944852531999665,-0.000597599286831873,0.0,0.0,0.990902663194935
2017-02-15,-1,-0.0006830602730163027,-0.0005878060842085169,0.0,0.0,0.9898865125260309
2017-02-17,-1,-0.0006765940488248935,-0.0005822795844118726,0.0,0.0,0.9898903783565435
2017-02-22,-1,-0.0004788654738220985,-0.00040763950032574037,0.0,0.0,0.9911480976740736
2017-02-24,-1,-0.0007964348284623522,-0.0006883356670799997,0.0,0.0,0.992868146828906
2017-02-28,-1,-0.0010628613788099147,-0.0009248736246067976,0.0,0.0,0.9925372849107491
2017-03-02,-1,-0.0008912771111568274,-0.0007843427495470069,0.0,0.0,0.9923144348819088
2017-03-06,-1,-0.0006851594792221949,-0.0006029907923455947,0.0,0.0,0.9935749933007368
2017-03-08,-1,-0.0003157580401575106,-0.0002772254297371033,0.0,0.0,0.9960268421083726
2017-03-10,-1,-0.0003075011419684466,-0.0002701799683479793,0.0,0.0,0.9960335534223389
2017-03-14,-1,-0.0003402104390468892,-0.00028841694255742414,0.0,0.0,0.9960122453378405
2017-03-16,-1,-0.00031849395154884676,-0.00028067840119312904,0.0,0.0,0.9958086981975987
2017-03-20,-1,-0.0003030816318185458,-0.00026735515053760294,0.0,0.0,0.995821314036362
2017-03-22,-1,-0.0002927295901317351,-0.00025849514002663707,0.0,0.0,0.9955528107275192
2017-03-24,-1,-0.00020216569919598507,-0.0001862488086345145,0.0,0.0,0.9942693631895774
2017-03-28,-1,-0.00040253316785741054,-0.0003634566861336208,0.0,0.0,0.9942889117713788
2017-03-30,-1,-0.00043678269256138403,-0.00039279187687397873,0.0,0.0,0.9946060840867912
2017-04-03,-1,-0.00025066324552986004,-0.00021970766367327975,0.0,0.0,0.9942837474974039
2017-04-05,-1,-0.00017950956077673836,-0.0001629633311099659,0.0,0.0,0.994418961836747
2017-04-07,-1,-0.00016847217100966712,-0.0001535067791534615,0.0,0.0,0.9938438826821808
2017-04-11,-1,-0.00015782897916482563,-0.00014440586291092897,0.0,0.0,0.9938502994424793
2017-04-13,1,1.6484762520442174e-05,0.00011591470432835102,0.0,0.0,0.9949147012498996
2017-04-18,1,3.416884377638572e-05,7.368459596756553e-05,0.0,0.0,0.9941329202137805
2017-04-20,1,8.821617138958447e-05,0.00014089834783452508,0.0,0.0,0.9943625821585932
2017-04-24,1,0.00010454980605907646,0.00011200574245342141,0.0,0.0,0.9950144495451078
2017-04-26,-1,-0.00017703197784077807,-0.00016700961666366807,0.0,0.0,0.9969450835177743
2017-04-28,-1,-0.0001599862333975616,-0.00015244997921161024,0.0,0.0,0.9969554147730237
2017-05-02,-1,-0.00012005612147785317,-0.00011690650759885014,0.0,0.0,0.9955830863232796
2017-05-04,-1,-0.00010538269513399217,-0.00010447555035516916,0.0,0.0002676720749053438,0.9955403506591803
2017-05-08,-1,-0.00010225017425313318,-9.872695155583385e-05,0.0,0.0010811093597671384,0.9954997576270828
2017-05-10,-1,-6.445776219801573e-05,-6.297384160106626e-05,0.0,0.0010811093597671384,0.9947544925861198
2017-05-12,1,0.00041061681880337573,0.0004716400703199359,0.0,0.0002676720749053438,0.994886658846059
2017-05-16,1,0.00026672486280466477,0.0002756603132799637,0.0,0.0002676720749053438,0.9957209537694153
2017-05-18,1,0.00023834421213412456,0.00024238436711565767,0.0,0.0010811093597671384,0.9929999188936467
2017-05-22,1,0.00016281168518588818,0.00016337348068612897,0.0,0.0002676720749053438,0.9933855944948858
2017-05-24,1,0.00014063662959606623,0.00014349057972623612,0.0,0.0,0.9933365619245809
2017-05-26,1,0.0001126108266412053,0.00011893841260355892,0.0,0.0,0.9933532806127449
2017-05-31,1,0.00015385359009539935,0.00015626142092560921,0.0,0.0,0.9951804755989349
2017-06-02,1,0.00012670357257359144,0.00013295110799262685,0.0,0.0,0.9952386642970648
2017-06-06,1,0.00011125383546818171,0.00012066970056966147,0.0,0.0,0.9958739451011155
2017-06-08,1,0.00010799435526420585,0.00011763767591050317,0.0,0.0,0.9966628556372598
2017-06-12,1,8.09953811017698e-05,9.459994120047088e-05,0.0,0.0,0.9966856161295333
2017-06-14,1,5.4021329636002966e-05,7.159523689498904e-05,0.0,0.0,0.9967083525593281
2017-06-16,1,0.0002086594040370178,0.00022144781308367956,0.0,0.0,0.9954744075800388
2017-06-20,1,0.0001729395115234371,0.00018030527171907523,0.0,0.0,0.9958651224021149
2017-06-22,1,0.0001187846599453943,0.0001225463763984886,0.0,0.0,0.9960221540102318
2017-06-26,1,9.633896814612094e-05,0.00010339387490181131,0.0,0.0,0.9960427883922522
2017-06-28,1,7.119976039338969e-05,8.452629120807654e-05,0.0,0.0,0.9952475514094853
2017-06-30,1,8.75315569146949e-05,9.319505356419948e-05,0.0,0.0,0.9952356489416366
2017-07-05,1,6.710448848188161e-05,7.554049916325108e-05,0.0,0.0,0.9952528976848897
2017-07-07,1,0.00013357641757287284,0.0001383152559803812,0.0,0.0,0.9941815413445042
2017-07-11,1,0.00011951724615916518,0.00012183867047743874,0.0,0.0,0.994193161338032
2017-07-13,0,-3.379900067778059e-05,4.434572199332572e-06,0.0,0.0,0.9942799669041379
2017-07-17,-1,-0.0003214436887249069,-0.0003213245904427155,0.0,0.0,0.996034836487848
2017-07-19,-1,-0.0003436935558117,-0.00033772038796970406,0.0,0.0,0.9960181646308431
2017-07-21,-1,-0.0005059108112589624,-0.00048687956716108205,0.0,0.0,0.9958804733450135
2017-07-25,-1,-0.0004474438174161971,-0.00043699074229910863,0.0,0.0,0.9959279840563398
2017-07-27,-1,-0.00045424706515923013,-0.00044251753607017,0.0,0.0,0.9967498432517609
2017-07-31,-1,-0.0005668271150222944,-0.0005369302347808874,0.0,0.0,0.9966591142182458
2017-08-02,-1,-0.0005097993109840549,-0.00048820649118937003,0.0,0.0,0.9967055622702007
2017-08-04,-1,-0.0005009814593117485,-0.00048233078492522394,0.0,0.0,0.9950967415751281
2017-08-08,-1,-0.0004001027452361176,-0.00038673056871300616,0.0,0.0,0.9951837770968984
2017-08-10,-1,-0.0003519820236093793,-0.00034565671629432514,0.0,0.0,0.995222832580639
2017-08-14,-1,-0.00042418236162256176,-0.00041090285173854844,0.0,0.0,0.9969252763531494
2017-08-16,-1,-0.0003723444328534623,-0.00036667310289536647,0.0,0.0,0.9969730175506458
2017-08-18,-1,-0.00046415793407050777,-0.00044286951444188116,0.0,0.0,0.9968895273799738
2017-08-22,-1,-0.00041742123658231186,-0.00040284563663387787,0.0,0.0,0.9969326400853581
2017-08-24,-1,-0.0003678134814070459,-0.000360494218108188,0.0,0.0,0.9969783401277572
2017-08-28,-1,-0.0003188925364144236,-0.0003187609278361169,0.0,0.0,0.9970233957690521
2017-08-30,-1,-0.0002770507105522483,-0.0002699194505178672,0.0,0.0,0.9970160376502842
2017-09-01,-1,-0.0004981088000503657,-0.000480151194256964,0.0,0.0,0.9994584196453001
2017-09-06,-1,-0.00047957703253849405,-0.0004627309261418509,0.0,0.0,0.9994763765200884
2017-09-08,-1,-0.0004228776098638955,-0.0004143490170684219,0.0,0.0,0.9995288649336477
2017-09-12,-1,-0.0003657958941490283,-0.0003652238196833321,0.0,0.0,0.9995819211803264
2017-09-14,-1,-0.00036125019335459343,-0.00035978726513193163,0.0,0.0,0.9995869081603824
2017-09-18,-1,-0.00043382128057839204,-0.0004192904705466494,0.0,0.0,0.9985218319353367
2017-09-20,-1,-0.0003807209892354264,-0.00037384330775715104,0.0,0.0,0.9985709625176341
2017-09-22,-1,-0.0003337529909691084,-0.00033369802328779005,0.0,0.0,0.9978937822842571
2017-09-26,-1,-0.00029412088444389967,-0.0002864532788739233,0.0,0.0,0.9979370397959443
2017-09-28,-1,-0.00026707321962681494,-0.0002530721686790186,0.0,0.0,0.995676719078523
2017-10-02,-1,-0.00021110004999540526,-0.00019012203455503888,0.0,0.0,0.995725190883197
2017-10-04,-1,-0.00016788366539526706,-0.00013980819106935278,0.0,0.0,0.9957636185908617
2017-10-06,-1,-0.0001369034398861328,-0.00010429638177398801,0.0,0.0,0.9957908426343358
2017-10-10,-1,-9.359785501961784e-05,-5.354587940139784e-05,0.0,0.0,0.9958295492887014
2017-10-12,-1,-4.735252159351638e-05,-3.110143095061305e-05,0.0,0.0,0.9929331671709103
2017-10-16,1,4.874503706200614e-05,5.486615098770343e-05,0.0,0.0,0.9931180347532016
2017-10-18,1,3.853925517448136e-05,4.763250699256814e-05,0.0,0.0,0.9907532885731419
2017-10-20,1,9.571774680327115e-05,0.00010697253720773428,0.0,0.0,0.9901547110665192
2017-10-24,1,9.215954436103545e-05,0.00010294825913828284,0.0,0.0,0.99015719028869
2017-10-26,-1,-3.895859466686337e-06,-3.698092541370932e-06,0.0,0.0,0.992589516888697
2017-10-30,-1,-2.7242596129597543e-05,-2.2432520606763426e-05,0.0,0.0,0.9905598821694033
2017-11-01,-1,-2.601805658758397e-05,-2.144799075238998e-05,0.0,0.0,0.9905607045725059
2017-11-03,-1,-2.6815423798341682e-05,-2.2128369723731498e-05,0.0,0.0,0.9880445072126887
2017-11-07,1,3.9880396162948466e-05,5.045693916414323e-05,0.0,0.0,0.9880370231317829
2017-11-09,1,0.00011723240595405514,0.00013710518377574646,0.0,0.0,0.9908543400159695
2017-11-13,1,0.0001167769598659676,0.00013629793317635955,0.0,0.0,0.9914387894096129
2017-11-15,1,1.865815903525561e-05,2.526531346902066e-05,0.0,0.0,0.9937382480076958
2017-11-17,1,7.324311760786084e-05,8.710764600942684e-05,0.0,0.0,0.9949694198545144
2017-11-21,1,7.4377523781865e-05,8.84397228288571e-05,0.0,0.0,0.9931360449089017
2017-11-24,1,1.6081176755597084e-05,1.911798536325411e-05,0.0,0.0,0.9921654835247705
2017-11-28,1,3.418409768369404e-05,3.9615139553702395e-05,0.0,0.0,0.994169147378137
2017-11-30,0,0.0,0.0,0.0,0.0,0.9918898061995625
2017-12-04,0,0.0,0.0,0.0,0.0,0.9944278753140617
2017-12-06,1,5.1389475398450734e-05,6.628295283697821e-05,0.0,0.0,0.9941959614137302
2017-12-08,1,5.6191354058815474e-05,7.192456222046906e-05,0.0,0.0,0.9941931442211731
2017-12-12,1,0.00016614357797079606,0.00020732312930906262,0.0,0.0,0.9932340251213905
2017-12-14,1,0.00015642101001030062,0.00019694804634233146,0.0,0.0,0.9930184455012816
2017-12-18,1,0.00010008155713197568,0.0001259551376389217,0.0,0.0,0.9929680403093643
2017-12-20,-1,-0.00013608655881272732,-0.00013169985588515264,0.0,0.0,0.9947894527343139
2017-12-22,1,1.1801389541486738e-05,2.6810698546771916e-05,0.0,0.0,0.9958753102272065
2017-12-27,-1,-5.395446454720023e-05,-5.247649342487789e-05,0.0,0.0,0.994501430640633
2017-12-29,-1,-0.00023083027073876394,-0.0002090410340184235,0.0,0.0,0.9959794076264461
2018-01-03,-1,-0.00021818568923690466,-0.00019825990319737594,0.0,0.0,0.9953138403054738
2018-01-05,-1,-8.22618888367921e-05,-7.350517086832008e-05,0.0,0.0,0.9945532762955713
2018-01-09,-1,-6.450535140297019e-05,-5.27287599194042e-05,-0.0018210118971123317,0.0,0.9919543429992022
2018-01-11,1,5.9602023273862915e-05,8.603872798028072e-05,0.0,0.0,0.9930377053058959
2018-01-16,1,0.00010982821527565236,0.00014336182362728389,0.0,0.0,0.9933617182593572
2018-01-18,1,0.00011009299000715186,0.00014411515690146494,0.0,0.0,0.9934497483223956
2018-01-22,1,0.00011866226388810977,0.00015377719982035597,0.0,0.0,0.9922132440741154
2018-01-24,1,0.00013022553939919294,0.00016735329089883694,0.0,0.0,0.9922051137575507
2018-01-26,-1,-0.00018116193854349482,-0.00016349125310016809,0.0,0.0,0.9926439207748214
2018-01-30,-1,-0.0002583869861596456,-0.00023199005589987255,-0.002729242070447798,0.0,0.9923046547724031
2018-02-01,-1,-0.0001651851292946601,-0.0001502382819974629,-0.002729242070447798,0.0,0.992228212496849
2018-02-05,-1,-1.6321640635654384e-05,-1.3368833700564711e-05,0.0,0.0,0.9933461982847873
2018-02-07,1,0.0003136259054570762,0.0003604086918857797,0.0,0.0,0.9954644544249122
2018-02-09,1,0.00032616486166360233,0.00037468520010531094,0.0,0.0,0.9954570626322249
2018-02-13,1,0.00032054344859713937,0.000368092227469298,0.0,0.0,0.9954603694455704
2018-02-15,1,0.0003147071706679199,0.0003612524266382219,0.0,0.0,0.9954638028658995
2018-02-20,1,0.00014691739896827185,0.00017121393970631252,0.0,0.0,0.9967994274769991
2018-02-22,1,0.0001423184797343905,0.00016554973625636682,0.0,0.0,0.9968027125067866
2018-02-26,1,0.00026006820662184595,0.000298785378471316,0.0,0.0,0.9976254608663854
2018-02-28,1,0.00026073669560161967,0.0002993119921511772,0.0,0.0,0.9986327095435681
2018-03-02,1,0.0003601798749032014,0.00041159309383676673,0.0,0.0,0.9993686491732767
2018-03-06,1,0.0003522999683919024,0.0004023513331719891,0.0,0.0,0.9976145370769445
2018-03-08,1,0.00025795666392079117,0.0002947719953586068,0.0,0.0,0.997449275563047
2018-03-12,1,0.00019175900374613302,0.00021254017812406551,0.0,0.0,0.9965684174090156
2018-03-14,1,0.00017987191438252343,0.00019877526938946136,0.0,0.0,0.9965796953520955
2018-03-16,1,0.00012314091676118258,0.0001294359189441202,0.0,0.0,0.9966347904138667
2018-03-20,1,0.00011017108434231324,0.00011443514127457138,0.0,0.0,0.9958031609076795
2018-03-22,1,0.00028025140074353446,0.0003234713668477906,0.0,0.0,0.9944154377135631
2018-03-26,1,0.00027641978233517426,0.0003189809181248708,0.0,0.0,0.9944186060335987
2018-03-28,1,0.00027240056023519196,0.000314274027234434,0.0,0.0,0.9944219287907909
2018-04-02,1,0.000249520013698826,0.0002878114438375862,-0.002016147639326539,0.0,0.9928764745578178
2018-04-04,1,0.0004613367488061273,0.00052753373856523,0.0,0.0,0.9924949443057105
2018-04-06,1,0.00044520606829639216,0.0004915336687418436,0.0,0.0,0.9930151117916484
2018-04-10,1,0.00029935576872637765,0.00032372408894368906,0.0,0.0,0.9940550025738413
2018-04-12,1,0.00038654124414907445,0.00044306759470052863,0.0,0.0,0.9939793969327734
2018-04-16,1,0.00029840012459106266,0.00033288219116399365,0.0,0.0,0.9940536540591973
2018-04-18,1,0.00039146444277586925,0.0004376235689062079,0.0,0.0,0.9948184995189124
2018-04-20,1,0.00018305009059031601,0.00020212199830904165,0.0,0.0,0.9929690971373284
2018-04-24,1,4.402796417167439e-05,5.679717821637072e-05,0.0,0.0,0.9930946547309341
2018-04-26,1,2.2090208659625995e-05,3.680292408710801e-05,0.0,0.0,0.9910598094180086
2018-04-30,1,0.00037370556767696186,0.0004192743444262475,0.0,0.0,0.9913621086328788
2018-05-02,1,0.0001213236627595943,0.00013327244897877745,0.0,0.0,0.993527273988384
2018-05-04,1,0.00011445004720660835,0.00012521694477867173,0.0,0.0,0.9935329475659767
2018-05-08,1,0.00012117726426979834,0.00013408425328860144,0.0,0.0,0.9935271904720232
2018-05-10,1,0.00010503257907430755,0.00011440506988795156,0.0,0.0,0.9935406742451155
2018-05-14,1,9.833240734286835e-05,0.00010655283242893456,0.0,0.0,0.9935462048081609
2018-05-16,-1,-4.0240928780248526e-05,-2.2161273000981007e-05,0.0,0.0,0.9935996348479214
2018-05-18,1,0.0003312965038992159,0.0003652997184028215,0.0,0.0,0.9957058717848848
2018-05-22,1,0.00031330570416606465,0.0003442360900160032,0.0,0.0,0.9955347116103702
2018-05-24,1,1.1786208526401054e-05,2.700549272141223e-05,0.0,0.0,0.997787743057973
2018-05-29,-1,-0.00011703677680860606,-8.621107586495504e-05,0.0,0.0,0.9985055105353491
2018-05-31,-1,-0.00014407530888178578,-0.00010871890571118452,0.0,0.0,0.9968248132786868
2018-06-04,-1,-0.00011325087596261264,-8.651645508670661e-05,0.0,0.0,0.9957775231414094
2018-06-06,1,2.170029562788763e-05,2.9003640374953704e-05,0.0,0.0,0.9958390940614898
2018-06-08,1,2.9890822556733457e-05,4.006746263363847e-05,0.0,0.0,0.9947373237238429
2018-06-12,1,3.5255495773851775e-05,4.6399211207289994e-05,0.0,0.0,0.9947341739748552
2018-06-14,1,3.9008401916456744e-05,5.0775835150642145e-05,0.0,0.0,0.994731968625908
2018-06-18,-1,-0.00021128890099444275,-0.0002086618483022521,0.0,0.0,0.9955556603771832
2018-06-20,-1,-0.00021124357667381648,-0.00020809657125227477,0.0,0.0,0.9957746099665059
2018-06-22,-1,-0.00018541345503748468,-0.00018526373635739145,0.0,0.0,0.9957907008811331
2018-06-26,-1,-0.00015161337634801226,-0.0001491697775535974,0.0,0.0,0.9955991836312852
2018-06-28,-1,-0.00019287018294920856,-0.00019029090955139147,0.0,0.0,0.9972198971518802
2018-07-02,-1,-0.0003435722939087715,-0.0003211982600206376,0.0,0.0,0.9981812256434766
2018-07-05,-1,-0.00031407169352786076,-0.0002960433958009843,0.0,0.0,0.9982021884069009
2018-07-09,-1,-0.0003148951935429052,-0.00029766979097277797,0.0,0.0,0.9992735956396939
2018-07-11,-1,-0.0002864468817844237,-0.00027362422601354217,0.0,0.0,0.9991255877830001
2018-07-13,-1,-0.0002838420935901089,-0.0002705368288183849,0.0,0.0,0.9991281929721291
2018-07-17,-1,-0.00015269810671491934,-0.00014734340307507855,0.0,0.0,0.9972519584005172
2018-07-19,-1,-0.00013050065523244393,-0.00012663696643184429,0.0,0.0,0.9972687450890757
2018-07-23,-1,-0.00011914391458978525,-0.00011673497613718341,0.0,0.0,0.9965907021815894
2018-07-25,-1,-0.00011182013831421502,-0.00011027605003779117,0.0,0.0,0.9970349636464362
2018-07-27,-1,-9.678935099375228e-05,-9.602408354877102e-05,0.0,0.0,0.9966628489431345
2018-07-31,-1,-8.461916677424576e-05,-8.160747282598887e-05,0.0,0.0,0.996673835723942
2018-08-02,-1,-7.10747717026818e-05,-6.573417724438222e-05,0.0,0.0,0.9966859631342921
2018-08-06,-1,-5.743987675679651e-05,-4.9782446516193695e-05,0.0,0.0,0.9966981556974011
2018-08-08,-1,-8.461386284890394e-05,-6.562817869648716e-05,0.0,0.0,0.9941696623311257
2018-08-10,-1,-5.766981743048393e-05,-3.466791420484549e-05,-0.001986397422373242,0.0,0.9932388110370937
2018-08-14,-1,-2.6508813006079293e-05,-2.554664688505365e-05,-0.001986397422373242,0.0,0.993882054249555
2018-08-16,-1,-1.932182329656142e-05,-1.785063177536791e-05,-0.005750509364595653,0.0,0.9918379685871707
2018-08-20,1,3.0472764132263712e-05,3.8378046202001085e-05,-0.005750509364595653,0.0,0.9924986917647358
2018-08-22,1,3.252862669302438e-05,4.0787405492666314e-05,-0.005750509364595653,0.0,0.9924969983516327
2018-08-24,-1,-5.111460560693492e-05,-4.2991203856645386e-05,-0.001254703980740804,0.0,0.992356427024141
2018-08-28,-1,-7.094363352943184e-05,-5.898673246076637e-05,-0.00797591507860575,0.0,0.991527213712102
2018-08-30,-1,-3.7830815831464974e-05,-3.248956911196164e-05,-0.00797591507860575,0.0,0.9915360591551277
2018-09-04,-1,-3.7609192855131345e-05,-3.230046224798584e-05,-0.00797591507860575,0.0,0.9915361257832012
2018-09-06,-1,-0.00019772723210508453,-0.00017382123727790192,-0.001254703980740804,0.0,0.991859230397498
2018-09-10,-1,-0.00025432428894077593,-0.00022182098522407616,0.0,0.0,0.9927640667921397
2018-09-12,-1,-0.0002571276492247446,-0.00022783373279629837,0.0,0.0,0.9933813588269641
2018-09-14,-1,-0.00012887586860798765,-0.00011460622134992748,0.0,0.0,0.9917353227732629
2018-09-18,-1,-0.00012531392240771057,-0.00011161746292062216,0.0,0.0,0.9883075903988345
2018-09-20,-1,-0.0001865080083287974,-0.0001620791363082018,0.0,0.0,0.9882722345049006
2018-09-24,-1,-0.00010046519079136323,-9.13564858835306e-05,0.0,0.0,0.9888568330713227
2018-09-26,-1,-0.00014046927095257597,-0.00012688285970089498,0.0,0.0,0.9896423539603069
2018-09-28,-1,-0.00013217297611642327,-0.00011975853946311982,0.0,0.0,0.9896481776431589
2018-10-02,-1,-0.00012179852254574908,-0.00011073937893928327,0.0,0.0,0.9885602060528939
2018-10-04,-1,-0.00023809807667903124,-0.00021372093411671842,0.0,0.0,0.9905768207139775
2018-10-08,-1,-0.00014726730203224342,-0.00013251142652090036,0.0,0.0,0.9870959292279606
2018-10-10,-1,-0.00020254521372984268,-0.0001757484277939797,0.0,0.0,0.9856041220745304
2018-10-12,-1,-0.00031854662568588164,-0.0002919196755942566,0.0,0.0,0.9892395853752599
2018-10-16,-1,-0.0005569925435163469,-0.0005004186911432462,0.0,0.0,0.9913546265972142
2018-10-18,-1,-0.0005399135111352849,-0.0004852655628060521,0.0,0.0,0.9894324215481105
2018-10-22,-1,-0.00010895509374947218,-9.988292613494489e-05,0.0,0.0,0.9897002302603173
2018-10-24,-1,-0.00010163174104158766,-9.363404216412453e-05,0.0,0.0,0.9897046007132388
2018-10-26,-1,-9.430838833370323e-05,-8.73851581933042e-05,0.0,0.0,0.9897089712047599
2018-10-30,-1,-0.00013278476530439212,-0.00012153168480405992,0.0,0.0,0.989459512179379
2018-11-01,-1,-0.0001329379077025473,-0.00012195111169749004,0.0,0.0,0.9896349539930551
2018-11-05,1,2.260863847356182e-05,3.125596783305137e-05,0.0,0.0009270621880518402,0.992143312268767
2018-11-07,-1,-4.0938706906303025e-05,-3.8028056751757464e-05,0.0,0.0009270621880518402,0.9943173000990166
2018-11-09,-1,-2.8097889226704015e-05,-2.2663378880139562e-05,0.0,0.0009270621880518402,0.994330098417296
2018-11-13,1,1.2526609932000226e-05,2.3647621804588903e-05,0.0,0.0,0.9955247502069519
2018-11-15,1,4.4298717983074146e-05,6.0451174749507156e-05,0.0,0.0,0.9974524169437312
2018-11-19,1,7.14540883503156e-05,8.592907644225386e-05,0.0,0.0,0.997431155002803
2018-11-21,1,9.416233299810324e-05,0.00011404062462832815,0.0,0.0,0.9974119502905407
2018-11-26,1,9.700630743229e-05,0.00011737360824124385,0.0,0.0,0.997409584460807
2018-11-28,-1,-0.00012606368872894813,-9.747047871210243e-05,0.0,0.0,0.997965875051103
2018-11-30,-1,-0.00011528597443966433,-8.985951637658293e-05,0.0,0.0,0.9979750321066143
2018-12-04,-1,-0.00021326002751972955,-0.00017712012488559173,0.0,0.0,0.9941192040741108
2018-12-07,-1,-0.00019103694621361257,-0.00015876528994361605,0.0,0.0,0.9935934740236123
2018-12-11,-1,-0.00019477464700215323,-0.00016197102698489507,0.0,0.0,0.9935904419095328
2018-12-13,-1,-0.00019976804213831808,-0.00016622085058390373,0.0,0.0,0.9932880709404228
2018-12-17,-1,-0.00018683698593828727,-0.00015616197520529362,0.0,0.0,0.993297994723285
2018-12-19,-1,-0.00019029302805895188,-0.00015911095323103448,0.0,0.0,0.9932952010054634
2018-12-21,-1,-0.00019373392919052132,-0.00016204705946115352,0.0,0.0,0.9932924195166832
2018-12-26,-1,-0.00019695294106529434,-0.00016479777340126848,0.0,0.0,0.9932898152678761
2018-12-28,-1,-0.00027681018369088493,-0.00023517641298204982,0.0,0.0,0.993987999230671
2019-01-02,-1,-0.0002848663526073663,-0.0002416616375329499,0.0,0.0,0.9938334178384961
2019-01-04,-1,-3.572015994265167e-05,-2.2039103945109183e-05,0.0,0.0,0.9962427316360913
2019-01-08,-1,-0.00012373414285369016,-0.00010301719718584176,0.0,0.0,0.9967141738912326
2019-01-10,-1,-0.00012611554309985125,-0.00010505596129686164,0.0,0.0,0.9965417591202563
2019-01-14,-1,-0.00016912077789897625,-0.00014108662067797447,0.0,0.0,0.9968074076159144
2019-01-16,-1,-0.0001728226279048887,-0.00014423993072668233,0.0,0.0,0.9968043969730007
2019-01-18,-1,-0.00016207507897127385,-0.00013574715315814968,0.0,0.0,0.9963203082057138
2019-01-23,-1,-0.00016504394423155945,-0.00013827628604904752,0.0,0.0,0.9963182078715277
2019-01-25,-1,-0.00016815201570545384,-0.00014092219866874652,0.0,0.0,0.9963160101228387
2019-01-29,-1,-0.00016998795417940695,-0.0001425018703904514,0.0,0.0,0.9963147021271005
2019-01-31,-1,-9.413159317972834e-05,-8.265231644952015e-05,0.0,0.0,0.9953349278449709
2019-02-04,-1,-0.00030375410120239737,-0.00027226022243352155,0.0,0.0,0.9974120681095638
2019-02-06,-1,-0.00023251015401344697,-0.00021330995993315956,0.0,0.0,0.9965739145266421
2019-02-08,-1,-0.0003106863911400919,-0.00027608500989834996,0.0,0.0,0.9967075432205935
2019-02-12,-1,-0.0002981210853638425,-0.00026532902470643885,0.0,0.0,0.9967138882047623
2019-02-14,-1,-0.00028683262137747724,-0.0002557085621555965,0.0,0.0,0.9967195615907524
2019-02-19,-1,-0.00026134016729105475,-0.0002312051311620791,0.0,0.0,0.9972176183577093
2019-02-21,-1,-0.0002095221755038756,-0.00018927937581518698,0.0,0.0,0.9948935357455685
2019-02-25,-1,-0.00018764588935942674,-0.0001700436401206457,0.0,0.0,0.9942512626418964
2019-02-27,-1,-0.00017604611922169603,-0.00016008509986370985,0.0,0.0,0.9942582861062578
2019-03-01,-1,-0.00015768348419558083,-0.00015447579229669375,0.0,0.0,0.9949375240899989
2019-03-05,-1,-9.787837692374317e-05,-9.27820850270745e-05,0.0,0.0,0.9951873468116318
2019-03-07,-1,-4.142599407442759e-05,-3.195943169734948e-05,0.0,0.0013601793530435028,0.9953266364275674
2019-03-11,1,0.00010898061518879932,0.00015606419430804123,0.0,0.0013601793530435028,0.9953111833307979
2019-03-13,-1,-4.107833156642646e-05,-2.9082370024360223e-05,0.0,0.00535372849301516,0.9950646396028532
2019-03-15,-1,-2.6390355270333114e-05,-1.1860593235461878e-05,0.0,0.005716292296949266,0.9927768163609944
2019-03-19,0,-1.3259945458779642e-05,6.096701549580714e-06,0.0,0.005716292296949266,0.9919457468380719
2019-03-21,-1,-0.0002714079952433529,-0.0002590468300523544,0.0,0.00535372849301516,0.9921243191138662
2019-03-25,-1,-0.00021578649199617984,-0.00020857939571191934,0.0,0.0013311830466572192,0.9928125640545411
2019-03-27,-1,-0.00019065204188475164,-0.00018715008798307313,0.0,0.004550064202461269,0.992616168075841
2019-03-29,-1,-0.00015140348820119983,-0.00014252129023350796,0.0,0.0010729603852680165,0.9931674851058573
2019-04-02,-1,-0.0004412309916744971,-0.00039898716139614965,0.0,0.0010729603852680165,0.992489292862907
2019-04-04,-1,-0.0003668539529112423,-0.0003490089412308025,0.0,0.0,0.9933339996047167
2019-04-08,-1,-0.000329468773553743,-0.0003171883872685937,0.0,0.0,0.9933602744224171
2019-04-10,-1,-0.00038793040929531095,-0.0003643759607207543,0.0,0.0,0.9935834449239273
2019-04-12,-1,-0.0007472691295866983,-0.000681257609130486,0.0,0.0,0.9941942997820996
2019-04-16,-1,-0.0008583329136908724,-0.00076962656241792,0.0,0.0,0.9938788881532853
2019-04-18,-1,-0.000493170834599389,-0.00044814859125386585,0.0,0.0,0.9960801405921594
2019-04-23,-1,-0.00046402904086746845,-0.00042327144395620765,0.0,0.0,0.9957821355612779
2019-04-25,-1,-0.0003425620067989923,-0.00032824976146031545,0.0,0.0,0.9960759058691077
2019-04-29,-1,-0.00030461209865594323,-0.0002958830085586083,0.0,0.0,0.9961027633724341
2019-05-01,-1,-0.0005223701331124855,-0.00048076210497975886,0.0,0.0,0.9966915377021303
2019-05-03,-1,-0.0004855048068511545,-0.0004493232480479808,0.0,0.0,0.9952822636790222
2019-05-07,-1,-0.00043477464640321044,-0.0004049728524879623,0.0,0.0,0.9953187418139429
2019-05-09,-1,-0.0003981289464470521,-0.0003736488966773015,0.0,0.0,0.9939534400377119
2019-05-13,-1,-9.127370542002727e-05,-8.35050162495611e-05,0.0,0.0013368779417280605,0.9941333744390715
2019-05-15,-1,-0.000188325156882743,-0.0001843947061152375,0.0,0.0,0.994302498930281
2019-05-17,-1,-0.00016321994700220366,-0.000162972886101341,0.0,0.0,0.9940735987506362
2019-05-21,-1,-0.00010066685881445297,-9.180799178249968e-05,0.0,0.0,0.9944858825527987
2019-05-23,0,0.0,0.0,0.0,0.0012474858976131175,0.9928056789166577
2019-05-28,0,0.0,0.0,0.0,0.0012474858976131175,0.9928056789166577
2019-05-30,-1,-1.945999938909485e-05,-1.2845020235736253e-05,0.0,0.0012474858976131175,0.9927920022793237
2019-06-03,0,0.0,0.0,0.0,0.0,0.9942339337389401
2019-06-05,0,0.0,0.0,0.0,0.0,0.9942339337389401
2019-06-07,0,0.0,0.0,0.0,0.0,0.9956259570653885
2019-06-11,1,3.288014354844691e-05,3.475724124707334e-05,0.0,0.0,0.9956865800745535
2019-06-13,0,0.0,0.0,0.0,0.0,0.996396839111363
2019-06-17,0,0.0,0.0,0.0,0.0,0.99664460316679
2019-06-19,0,0.0,0.0,0.0,0.0,0.9964130095539122
2019-06-21,0,0.0,0.0,0.0,0.0,0.9981908663035952
2019-06-25,-1,-2.879384757814364e-05,-2.829813921683729e-05,0.0,0.0,0.9981682061623429
2019-06-27,-1,-5.902059899316074e-05,-5.596527965104719e-05,0.0,0.0,0.99814561708264
2019-07-01,-1,-5.299898880804059e-05,-5.08181407976896e-05,0.0,0.0,0.998149902971739
2019-07-03,-1,-4.781243543238365e-05,-4.6463720344578426e-05,0.0,0.0,0.9975469794356565
2019-07-08,-1,-4.181030628177714e-05,-4.1342212459311874e-05,0.0,0.0,0.9975512410692782
2019-07-10,-1,-4.7935562747414844e-05,-4.693591249851033e-05,0.0,0.0,0.9990276845710502
2019-07-12,-1,-4.2463836145148565e-05,-4.222465542545438e-05,0.0,0.0,0.9991202936607401
2019-07-16,-1,-1.536439181967108e-05,-1.5075583281855284e-05,0.0,0.0,0.9956001114330428
2019-07-18,-1,-1.2314707323732765e-05,-1.1696903711127874e-05,0.0,0.0,0.9949929927718659
2019-07-22,-1,-1.0908934514802667e-05,-9.860775374518573e-06,0.0,0.0,0.994509413403254
2019-07-24,-1,-1.1089587466665888e-05,-9.981470459172702e-06,0.0,0.0,0.9945092852118126
2019-07-26,-1,-3.037964999054282e-05,-2.969616674912775e-05,0.0,0.0,0.9935835452511544
2019-07-30,-1,-5.3407972213430894e-05,-5.009348553289738e-05,0.0,0.0,0.9930355037134706
2019-08-01,-1,-5.873603144652949e-05,-5.6112133163931726e-05,0.0,0.0,0.9936324927488268
2019-08-05,-1,-4.8923171085098934e-05,-4.461199364533212e-05,0.0,0.0,0.9936403048170819
2019-08-07,-1,-3.911031072366839e-05,-3.311185412673252e-05,0.0,0.0,0.993648117008177
2019-08-09,-1,-2.9297450362237823e-05,-2.16117146081329e-05,0.0,0.0,0.9936559293221149
2019-08-13,1,4.5788712379514945e-05,6.045965622732236e-05,0.0,0.0,0.9971146259342576
2019-08-15,1,2.5952800094973962e-05,3.8360593485618043e-05,0.0,0.0,0.9977207096535089
2019-08-19,1,5.554194433233648e-06,1.4175786804432251e-05,0.0,0.0,0.9982266860640462
2019-08-21,1,8.978894826354393e-06,1.767471824281671e-05,0.0,0.0,0.9982232365269377
2019-08-23,1,3.6668106001640776e-05,4.869462235900764e-05,0.0,0.0,0.9991138381137389
2019-08-27,1,4.4801171134222557e-05,5.709673254613934e-05,0.0,0.0,0.9996489219921931
2019-08-29,1,4.7705255678904194e-05,6.043957647169823e-05,0.0,0.0,0.9986916568970465
2019-09-03,1,4.657808786778014e-05,5.879037280583385e-05,0.0,0.0,0.9986930414546344
2019-09-05,0,0.0,0.0,0.0,0.0,0.9987455908276581
2019-09-09,0,0.0,0.0,0.0,0.0,0.9987455908276581
2019-09-11,1,0.0001651728084064446,0.0001729611172391921,0.0,0.0,0.9969086306902909
2019-09-13,1,0.00014931171452673447,0.0001544646558576154,0.0,0.0,0.9971725104316105
2019-09-17,1,0.00013537700144170082,0.00013793669819147232,0.0,0.0,0.9971858835427337
2019-09-19,1,0.00011862292472750982,0.00011880975646601764,0.0,0.0,0.996463092201656
2019-09-23,1,0.00010640783292584628,0.00010811007610249355,0.0,0.0,0.9964734816148207
2019-09-25,1,8.806725045409095e-05,9.246038990072548e-05,0.0,0.0,0.9964889369801532
2019-09-27,1,8.628789908418823e-05,9.145162595682534e-05,0.0,0.0,0.9974401994232722
2019-10-01,1,6.740758791944086e-05,7.534139905563167e-05,0.0,0.0,0.9974561405034925
2019-10-03,-1,-0.00010979369772577409,-9.132450335607966e-05,0.0,0.0,0.9974310566377971
2019-10-07,-1,-0.0005260075796851937,-0.0004401249841909829,0.0,0.0,0.9933774713583441
2019-10-09,-1,-0.000238893949293206,-0.00019172879465677317,0.0,0.0,0.995335875285719
2019-10-11,-1,-0.0002488452052219335,-0.00020031623749369425,0.0,0.0,0.9932939272805626
2019-10-15,-1,-0.0002639094140711518,-0.00021306305842482215,0.0,0.0,0.992707742775943
2019-10-17,1,0.00013180242694610687,0.0001540902297728905,0.0,0.0,0.9928334054233421
2019-10-21,1,9.38421785074779e-05,0.00012461003438598,0.0,0.0009615375798129577,0.991876618978419
2019-10-23,1,0.00010629261578681354,0.00013328909781786918,0.0,0.0009615375798129577,0.991304874390926
2019-10-25,1,6.0910375278781884e-05,9.438012920808419e-05,0.0,0.0009615375798129577,0.9913280938648039
2019-10-29,1,5.2411992171350215e-05,7.394987877420861e-05,-0.0009718163751534197,0.0009615375798129577,0.9908071055826237
2019-10-31,1,7.553739473737494e-05,9.189652470053304e-05,-0.0009718163751534197,0.003165239797670841,0.9906597949906455
2019-11-04,1,0.0002949211708762705,0.00030564105476036844,-0.0009718163751534197,0.0007345674059526277,0.9929856978911623
2019-11-06,1,0.00040812539043010823,0.0004168663815654263,-0.005580169569502905,0.003165239797670841,0.987789499153109
2019-11-08,1,0.0004579205585753155,0.00047786718875755373,0.0,0.003165239797670841,0.9898359733398664
2019-11-12,1,0.000512601543752641,0.0005449659781105939,0.0,0.003165239797670841,0.9895948892505428
2019-11-14,1,0.00048759669159206863,0.0005150170463798029,0.0,0.003165239797670841,0.9902229202634474
2019-11-18,1,0.00047556107852313076,0.0004995017163430821,0.0,0.00047035521811011666,0.9911318736444767
2019-11-20,1,0.00044468673684489686,0.00046277658729661946,0.0,0.00047035521811011666,0.9917111087545702
2019-11-22,1,0.00039967536824367573,0.0004100245129645227,0.0,0.00047035521811011666,0.9917321414677575
2019-11-26,1,0.0003653318532218936,0.0003694633978857114,0.0,0.00047035521811011666,0.9922726076405263
2019-11-29,1,0.0003820384730014932,0.0003911470161037367,0.0,0.0,0.9923711703919561
2019-12-03,1,0.0004082593046303115,0.00041888773313925417,0.0,0.0,0.9932879635002099
2019-12-05,1,0.000964577331939898,0.001046200292448342,0.0,0.0,0.9980266775024399
2019-12-09,1,0.0008832192256888811,0.0009525995368494714,0.0,0.0,0.9965443493448566
2019-12-11,1,0.0008466814815983901,0.0009087498798253542,0.0,0.0,0.9963656207417806
2019-12-13,1,0.0007810834692090373,0.000832024280975458,0.0,0.0,0.9964288415815854
2019-12-17,1,0.000716760611167859,0.0007566447536345972,0.0,0.0,0.9964901654371882
2019-12-19,1,0.0006517703810365987,0.0006805690282523627,0.0,0.0,0.9965521033608707
2019-12-23,1,0.0005976728623682873,0.0006176248301658297,0.0,0.0,0.9966035336426857
2019-12-26,1,0.0005343727134538475,0.0005433518736821033,0.0,0.0,0.9966639355390419
2019-12-30,1,0.0004546999242974706,0.00045665599045507786,0.0,0.0,0.9950778269721091
2020-01-02,1,0.00038401944572147095,0.0003961647227194645,0.0,0.0,0.9942227662353027
2020-01-06,1,0.0012169669795127726,0.0013112534598623726,0.0,0.0,0.9935474507406105
2020-01-08,1,0.0013526509679541313,0.0014646212979728312,0.0,0.0,0.9949767089625021
2020-01-10,1,0.0013562036767733516,0.0014659882086784455,0.0,0.0,0.995838813497926
2020-01-14,1,0.0012617418833369388,0.001355213908798975,0.0,0.0,0.9959287931424341
2020-01-16,1,0.001318462155946062,0.0014129066797531548,0.0,0.0,0.9948030332919197
2020-01-21,1,0.001043641518045968,0.001111847220193219,0.0,0.0,0.9927913723374979
2020-01-23,1,0.000956748957297042,0.0010101410958611103,0.0,0.0,0.9928629668038953
2020-01-27,1,0.0008722087133331491,0.0009109167178062101,0.0,0.0,0.9923609215020234
2020-01-29,1,0.0010013515173999856,0.0010535565790898563,0.0,0.0,0.9928320930864751
2020-01-31,1,0.00044436356712799526,0.0004663112778630677,0.0,0.0,0.9920095016158836
2020-02-04,1,6.202428698305532e-05,6.264467874087445e-05,0.0,0.0,0.9923555962432614
2020-02-06,1,3.171801089982323e-05,3.4383310500853266e-05,0.0,0.0,0.9886158021372021
2020-02-10,1,2.393172371078284e-05,2.7729176703909255e-05,-0.002901351155421611,0.0,0.9846252077075147
2020-02-12,1,4.0927989165191254e-05,5.3399512987229553e-05,-0.023664433299882087,0.0,0.9782046369886145
2020-02-14,1,6.350531280720043e-05,6.611715812706407e-05,-0.03607158346166993,0.0,0.9732265518342665
2020-02-19,-1,-0.0002269004860814227,-0.00017746642243944298,-0.03749768415933771,0.0,0.9711397831943255
2020-02-21,-1,-0.00043939178312668397,-0.0003484747845373437,-0.03749768415933771,0.0,0.9672790328218736
2020-02-25,-1,-0.0005891983756939347,-0.0004817561303873245,-0.03749768415933771,0.0,0.9647966191035582
2020-02-27,-1,-0.001243920793935723,-0.001042134403550294,-0.03749768415933771,0.007214555367885261,0.9603966908040522
2020-03-02,-1,-0.0022814190704590212,-0.0019551259500493415,-0.03316922027384011,0.007214555367885261,0.9604359609391433
2020-03-04,-1,-0.001803524277748369,-0.001566156148404987,-0.03316922027384011,0.02873095221442832,0.9590715611092668
2020-03-06,-1,-0.0004068320856095653,-0.00033229376396463396,-0.04229774347102874,0.007172132282181019,0.9581637225117428
2020-03-10,-1,-0.0016314992912066927,-0.001417890139198436,-0.03316922027384011,0.02453830389387685,0.9602340823848117
2020-03-12,-1,-0.0038425993850657513,-0.003360903928414447,-0.024427511626996818,0.02873095221442832,0.9614554807165744
2020-03-16,-1,-0.004620315149804655,-0.00405214589979838,-0.020623987345727936,0.02453830389387685,0.9663286411883492
2020-03-18,-1,-0.004862919571433002,-0.004274615941000881,-0.0164850250538634,0.03299597751206175,0.9647798959374514
2020-03-20,-1,-0.003003901301869923,-0.00264210344097387,-0.0038216524527683675,0.03299597751206175,0.966126288172033
2020-03-24,-1,-0.0023850087660031516,-0.002097825684704283,-0.0038216524527683675,0.02453830389387685,0.9693631363490739
2020-03-26,-1,-0.0016308654393210743,-0.0014330988731950049,0.0,0.01680192931911255,0.9749572081709715
2020-03-30,-1,-0.0015525722668590768,-0.0013944543741086423,0.0,0.02453830389387685,0.9754120383543573
2020-04-01,-1,-0.0013580802547763543,-0.0012267146801743791,0.0,0.024130864030411363,0.9751706758053266
2020-04-03,-1,-0.0021972920436285365,-0.001952313709044934,0.0,0.024130864030411363,0.9784452520349302
2020-04-07,-1,-0.0015923686693135966,-0.001423143743226682,0.0,0.029850194171683858,0.9776496303676391
2020-04-09,-1,-0.0009154525330361007,-0.0008226733123948718,0.0,0.01645465215000115,0.9822099854843286
2020-04-14,-1,-0.0006836841977731612,-0.0006266670737124703,0.0,0.01389057629471069,0.982945939198785
2020-04-16,-1,-0.0008517279827918295,-0.0007721780414535383,0.0,0.002375294625331719,0.9882658359928742
2020-04-20,-1,-0.00036359122437715945,-0.0003421621660587855,0.0,0.0,0.9915114681678769
2020-04-22,-1,-0.0003790589075500024,-0.0003529521282968427,0.0,0.002375294625331719,0.9882003268936862
2020-04-24,-1,-0.0003251029743231315,-0.00030675352885426664,0.0,0.004784266719637242,0.9875350133243527
2020-04-28,1,5.727485716847004e-05,9.84619118585387e-05,0.0,0.004784266719637242,0.9888823838992957
