JNU-Tangyin/eata/results/Batch4_SP500/Batch4_SP500-DE.csv
Date,Action,Predicted_Q25,Predicted_Q75,Actual_Q25,Actual_Q75,RL_Reward
2010-12-14,0,0.0,0.0,-0.0033527321140046315,0.009747809612207545,0.9929070705737834
2010-12-16,0,0.0,0.0,-0.0028152093074239257,0.012572966155637199,0.9925341446477436
2010-12-20,-1,-0.0002842917684760592,-0.00014586078484703734,-0.0028152093074239257,0.01224052242497391,0.992365972793144
2010-12-22,0,0.0,0.0,-0.0018627945754713078,0.007892610580647566,0.9936786154177625
2010-12-27,0,0.0,0.0,-0.0018627945754713078,0.010411918873959678,0.9930158007852791
2010-12-29,0,0.0,0.0,-0.0005595814608767134,0.01224052242497391,0.992281874443126
2010-12-31,0,0.0,0.0,-0.0005595814608767134,0.013250565480620653,0.9902178160640536
2011-01-04,0,0.0,0.0,-0.00013840946156055115,0.015496221317836891,0.9891650146962252
2011-01-06,0,0.0,0.0,-0.0018965824932726518,0.014051517344902151,0.9894313492915852
2011-01-10,0,0.0,0.0,-0.0037870429881922294,0.014051517344902151,0.9887969792876549
2011-01-12,0,0.0,0.0,-0.0037870429881922294,0.012087207176237142,0.9899068661298561
2011-01-14,0,0.0,0.0,-0.006588466661890438,0.010499196217959075,0.9902607029173977
2011-01-19,1,0.0012700397710917947,0.0014179340373708582,-0.006588466661890438,0.010522039324111805,0.9898151776536038
2011-01-21,1,0.0008548611096357971,0.0010509675606676944,-0.006588466661890438,0.010522039324111805,0.9894875205824247
2011-01-25,1,0.0019993765541026836,0.002026490392326114,-0.006907656678546985,0.010522039324111805,0.9865559756138679
2011-01-27,1,0.00255498992641364,0.0026659601679254845,-0.006907656678546985,0.010522039324111805,0.9864481953978276
2011-01-31,1,0.002217538861122672,0.0022384225195619546,-0.006907656678546985,0.009635726508295115,0.9876114076614431
2011-02-02,1,0.002898082766904104,0.002999361957439853,-0.006907656678546985,0.007903918968406186,0.9873343907473366
2011-02-04,1,0.0027971166104869983,0.0029328322519707704,-0.008195157081206014,0.007903918968406186,0.9866249771310157
2011-02-08,1,0.0025198372340737565,0.0025887852117203423,-0.012045540222571741,0.007903918968406186,0.9859306756373806
2011-02-10,1,0.0037551145817336287,0.0040934629214681795,-0.01368524079878261,0.007903918968406186,0.9845979051122932
2011-02-14,1,0.00255827746633544,0.002671771608881843,-0.01368524079878261,0.005967633413671318,0.9853452158645115
2011-02-16,1,0.0031397193757366154,0.0033403174917840447,-0.01368524079878261,0.005967633413671318,0.9850876988939872
2011-02-18,1,0.0023304862075306607,0.002393879016782642,-0.01368524079878261,0.009195330143239843,0.9850282160715681
2011-02-23,-1,-0.0008998759980302347,-0.0005282861765504706,-0.006780106309940708,0.009195330143239843,0.9883038484356518
2011-02-25,-1,-0.0009599909090160297,-0.0005548740671689966,-0.006780106309940708,0.011278722220794386,0.9880537396491204
2011-03-01,-1,-0.0007418261117914641,-0.000428649866286309,-0.006780106309940708,0.011278722220794386,0.9879084947387963
2011-03-03,1,0.0012261892501428948,0.0012287357111810668,-0.006780106309940708,0.011278722220794386,0.9884719092379451
2011-03-07,-1,-0.0002563592611194783,-5.67674143302589e-05,-0.002895140322379499,0.013650894117342,0.988335761036179
2011-03-09,-1,-0.0003609828423120863,-0.00015150496806067763,-0.006780106309940708,0.012314817677066804,0.9887482440395412
2011-03-11,-1,-0.0006423223805094836,-0.0004052361614233328,-0.005726414165882395,0.012314817677066804,0.9895643296909338
2011-03-15,-1,-0.00047858830801917425,-0.0002716081706171758,-0.009036131255401862,0.012314817677066804,0.9884633341312427
2011-03-17,-1,-0.0003260016586161305,-0.00014430915005964095,-0.007034341575534356,0.008749971329814778,0.9898399669071046
2011-03-21,0,-0.0001754093686047631,1.5543363704494605e-05,-0.009842747359700301,0.007014938599049527,0.989690386731098
2011-03-23,-1,-0.0003176361692985211,-9.37933490028455e-05,-0.009842747359700301,0.009673257972927283,0.9889350667284907
2011-03-25,1,0.0006121471620797391,0.0007145729052016219,-0.009842747359700301,0.007691361383562547,0.9894061050432384
2011-03-29,1,0.0008784064084203053,0.0009238204129032627,-0.006647912658098544,0.010586177689815731,0.9889069061366701
2011-03-31,1,0.0019270001628960889,0.002028274269560443,-0.009038163598684127,0.010586177689815731,0.9889660906919738
2011-04-04,1,0.0019633675220945518,0.002034796886528808,-0.009943844640881647,0.007691361383562547,0.9884671328131349
2011-04-06,1,0.0013955091931349604,0.0014015728759805483,-0.011353206804832842,0.007691361383562547,0.9879923552663954
2011-04-08,1,0.0001277620653248895,0.00032959136223521823,-0.011353206804832842,0.010433736877991213,0.9883173524301199
2011-04-12,-1,-0.001049366319115429,-0.0007105138070157729,-0.010592533351334164,0.014027719839449556,0.9871755826442664
2011-04-14,-1,-0.00024505040705978174,-3.43404199339587e-05,-0.01714490842189394,0.014027719839449556,0.985629413868227
2011-04-18,-1,-0.0020125036261949714,-0.0015498000814519197,-0.013960945622484974,0.014027719839449556,0.9863839601952994
2011-04-20,-1,-0.0015142621494833926,-0.0010985379894988517,-0.013960945622484974,0.006974257744332545,0.9873374246906567
2011-04-25,-1,-0.0017949677394787798,-0.0012994939282119594,-0.016997494986338693,0.0010865304314162363,0.9868365242308597
2011-04-27,1,0.0001285652111421789,0.00030878190366260216,-0.016997494986338693,0.004679286413599536,0.9863542438685297
2011-04-29,1,0.00015074442879985355,0.00032814732004806925,-0.016997494986338693,0.004679286413599536,0.9870185756600056
2011-05-03,-1,-0.0007295342027377569,-0.00047238932694209864,-0.016997494986338693,0.004679286413599536,0.986394371471247
2011-05-05,-1,-0.0016563178445850436,-0.0013257307532215897,-0.01623003567461417,0.005876134987047071,0.9861162889126822
2011-05-09,-1,-0.0011853161344383574,-0.0009084818428714028,-0.01623003567461417,0.004679286413599536,0.9863687454368477
2011-05-11,-1,-0.0020381065609538984,-0.0016587682976074063,-0.01509282604866147,0.004679286413599536,0.9871191555960455
2011-05-13,-1,-0.0034088969626837676,-0.0028731875556517886,-0.01509282604866147,0.004679286413599536,0.9882371103282623
2011-05-17,-1,-0.003246766109007766,-0.0027549328267713336,-0.01643413896136122,0.005876134987047071,0.9869174648145994
2011-05-19,-1,-0.003760145114883302,-0.0032066217152635227,-0.01643413896136122,0.005876134987047071,0.9864872005079073
2011-05-23,-1,-0.0048323607218358775,-0.004143797656909056,-0.012637498994032721,0.015764720372320337,0.9852751554392247
2011-05-25,-1,-0.0038754028541804174,-0.00330159356447413,-0.012637498994032721,0.011504323689256834,0.9861911973397894
2011-05-27,-1,-0.0037349516339302545,-0.00319499756087688,-0.01643413896136122,0.011098460177632687,0.9856255385525319
2011-06-01,-1,-0.004770695952458744,-0.004126330983285147,-0.012637498994032721,0.016151991563731614,0.9863686671824873
2011-06-03,-1,-0.004667349832198046,-0.004044969424029411,-0.00993118464090074,0.01658218322150018,0.9867220809399024
2011-06-07,-1,-0.00451914882228791,-0.003960806254784656,-0.00993118464090074,0.01658218322150018,0.9864112698277832
2011-06-09,-1,-0.003405700486102948,-0.0030146512886632783,-0.007447611031535974,0.01658218322150018,0.987375162363536
2011-06-13,-1,-0.004070393504148879,-0.0036052133684802046,-0.00993118464090074,0.01658218322150018,0.9858778284789355
2011-06-15,-1,-0.004302885671834233,-0.0038070901263442944,-0.007447611031535974,0.010561717947310048,0.9875673884568583
2011-06-17,-1,-0.004358309740458609,-0.003871277476275142,-0.005917567523672805,0.010561717947310048,0.9868702565883976
2011-06-21,-1,-0.002024662783003797,-0.0018367810929953519,-0.005917567523672805,0.006612255271031594,0.9888238363702668
2011-06-23,-1,-0.0014594903677950018,-0.0013546463495130662,-0.0074329029988364275,0.010041345965957786,0.9875284160363901
2011-06-27,-1,-0.00177098299314801,-0.001679970723756567,-0.0072353008146654315,0.009384193148998635,0.9879878498019041
2011-06-29,-1,-0.0015087569889240713,-0.0014282677878730177,-0.012286964391379353,0.004661672322631641,0.9883250081738655
2011-07-01,1,0.00018846728464815173,0.0003442693171816287,-0.012286964391379353,0.0032818549598352606,0.9888497373105166
2011-07-06,0,-1.1123227050701301e-05,0.00014465802526526485,-0.014233386084986041,0.0032083047105169998,0.9878681425176895
2011-07-08,1,0.0004217305828787181,0.0005935873221496186,-0.019230304679739078,0.0032083047105169998,0.9859284781096922
2011-07-12,-1,-0.00169050396556609,-0.001546177775357056,-0.014233386084986041,0.003303911048905021,0.9820534710705405
2011-07-14,-1,-0.0020701133648183146,-0.0018561014640230177,-0.01950473328710524,0.004589672152016026,0.976638976745302
2011-07-18,-1,-0.0034210868089053353,-0.0030027431023554813,-0.014233386084986041,0.015219720197599654,0.9757492240320461
2011-07-20,-1,-0.0026199157984158846,-0.002326552390619748,-0.017710776875994483,0.011070151938598363,0.9754703805759596
2011-07-22,-1,-0.002335530682713551,-0.002061543136208597,-0.01975472309898419,0.004589672152016026,0.9739531966603439
2011-07-26,-1,-0.0015598430680720944,-0.0014535324379747559,-0.01975472309898419,0.015828685836902306,0.972135849282433
2011-07-28,-1,-0.002739811038227056,-0.002443778635924935,-0.024893096995149126,0.020310234087412792,0.9702102982561764
2011-08-01,-1,-0.0028492114564103482,-0.002531626577037438,-0.024893096995149126,0.034655704323565906,0.9669287633563975
2011-08-03,-1,-0.0038068173151552414,-0.0033683292570884944,-0.019928167590725313,0.034655704323565906,0.966717165287432
2011-08-05,-1,-0.006008593024145531,-0.005320314449896463,-0.018957724145259466,0.034655704323565906,0.9683502693422593
2011-08-09,-1,-0.0034494653840863904,-0.00308388147048208,-0.01656723442000849,0.02988214553855079,0.9728937360097205
2011-08-11,-1,-0.0010815853736982329,-0.001041334217126154,-0.018957724145259466,0.022468409384907177,0.976366492845878
2011-08-15,-1,-0.00035940520118046376,-0.0003075063281973641,-0.018957724145259466,0.022354163314859857,0.9772390935775511
2011-08-17,-1,-0.001150159586099983,-0.0011382392036620463,-0.018008666566697695,0.022354163314859857,0.9771969382612794
2011-08-19,-1,-0.0024767468787596707,-0.002336380246290935,-0.011431160552626876,0.022354163314859857,0.9796806875634073
2011-08-23,1,0.0009264306229440709,0.0012930226686042319,-0.01757720011526069,0.018163952615683425,0.9796821952247549
2011-08-25,1,8.87302520067928e-06,0.00030224772258336354,-0.018067135598863117,0.015772035012719166,0.979062045278453
2011-08-29,1,0.0015961393909358131,0.0020557531336262546,-0.018067135598863117,0.014581534597827874,0.9811733722489905
2011-08-31,1,0.0021433037494779615,0.002652887460347775,-0.023933169414856757,0.010745481500342359,0.9801336465518086
2011-09-02,1,0.0008410359452076376,0.0011387027572256185,-0.027166442334629545,0.010745481500342359,0.9775500948966285
2011-09-07,1,0.001850494541279523,0.002317473364935042,-0.027166442334629545,0.014581534597827874,0.9760612417411876
2011-09-09,-1,-0.0005041783654743488,-0.0003991246061733292,-0.019658853712674253,0.014581534597827874,0.9779022004802834
2011-09-13,1,0.0006793617219052925,0.0009948248224304766,-0.019658853712674253,0.015763519569304413,0.9748201848908769
2011-09-15,1,0.0017345223908468844,0.002214528936774868,-0.020607155839062842,0.014581534597827874,0.9745471179226983
2011-09-19,1,0.0018429786247466837,0.0023925836257356215,-0.026532545193022613,0.017091682618617758,0.9733513714154661
2011-09-21,1,0.0003196057468121344,0.0006883393703015085,-0.019568373223213174,0.017091682618617758,0.9751101593018919
2011-09-23,-1,-0.0011240310341287896,-0.0009959273345313499,-0.015306588519133548,0.02421344972450398,0.9761825647717539
2011-09-27,-1,-0.0006727133021261131,-0.0005460578982165614,-0.017990372708489667,0.0294167908428027,0.9752932280664803
2011-09-29,-1,-0.0005583223049321774,-0.00037578385328829514,-0.015306588519133548,0.03237741142895179,0.9741582242414133
2011-10-03,-1,-0.00346388312979639,-0.0032661442536837844,-0.013437836025115524,0.03237741142895179,0.9755691231177764
2011-10-05,-1,-0.0014877606732457743,-0.0014527567831099189,-0.015306588519133548,0.02511439016672639,0.9779302072221033
2011-10-07,-1,-0.0021304373432054348,-0.0020145362113350787,-0.015306588519133548,0.02511439016672639,0.9774892256665579
2011-10-11,1,0.0006186945733301621,0.0008319223519587147,-0.015306588519133548,0.014575038804471224,0.981826404903646
2011-10-13,-1,-0.0008726717247986425,-0.0008361667330286516,-0.0157037177890633,0.014575038804471224,0.98042990979864
2011-10-17,-1,-0.0006030078879645643,-0.000556292862185203,-0.014422515110079717,0.014575038804471224,0.9806730736854691
2011-10-19,-1,-0.0006410984965287739,-0.0005881161536159135,-0.006962738996944126,0.0219683320780318,0.9805831334399038
2011-10-21,1,0.00045004341294888213,0.0005917082741447562,-0.015398497843057416,0.01442738878003965,0.981656949431568
2011-10-25,1,0.000434851531016139,0.0005741492227209936,-0.015398497843057416,0.011298974462230476,0.9825435591872258
2011-10-27,1,0.0011292022674961315,0.0013281879212323803,-0.015452564580280291,0.011234794092203616,0.9828997552810624
2011-10-31,1,0.0005666579592990533,0.0007188772513316672,-0.014399918988294548,0.013699225183390475,0.9829187245149575
2011-11-02,-1,-5.507864524382735e-05,-3.2170005058698874e-05,-0.011438093885411017,0.0219683320780318,0.9820744054581018
2011-11-04,1,0.0006502100664211113,0.0007649483723244086,-0.013502760523596044,0.013699225183390475,0.9824291497565143
2011-11-08,1,0.00028735058479874883,0.0003166355395561174,-0.013502760523596044,0.013699225183390475,0.9824419345009713
2011-11-10,1,0.00047778635912244956,0.0006249889878525506,-0.013502760523596044,0.019698138157442348,0.9826929745598898
2011-11-14,1,0.0007958902979518343,0.0009846513332899117,-0.015212442259512652,0.009819164179993362,0.9828296536337929
2011-11-16,1,0.0012389721508009465,0.0014452393596517264,-0.017727934182265974,0.006034661610027694,0.9826801005061251
2011-11-18,1,0.0006385918560249211,0.0008077065537304303,-0.015212442259512652,0.006034661610027694,0.9841129042829663
2011-11-22,1,0.000570612141708519,0.0007974922353058046,-0.013520782769337002,0.009819164179993362,0.9836316267017235
2011-11-25,1,0.0006502905723396026,0.000874901497716703,-0.009773052917646421,0.011180336525459147,0.9851759976433366
2011-11-29,1,0.0019098209920016707,0.0023458939094325847,-0.01427923930333223,0.007801630462196272,0.9862853689726034
2011-12-01,1,0.002008898336507705,0.0023480093266996576,-0.01427923930333223,0.007249089502800878,0.9881668371470681
2011-12-05,1,0.0017377334635140641,0.0020393546702068277,-0.006754720714551047,0.011180336525459147,0.9873392052973686
2011-12-07,1,0.0018820074797900508,0.0021642526154110817,-0.006754720714551047,0.012604799352581561,0.986706237242087
2011-12-09,1,0.0017456723384685813,0.0020235586009940175,-0.003114121959989933,0.01205221580271408,0.9882105951989054
2011-12-13,1,0.0006046449484528439,0.0007592698211888794,-0.0012199854897223545,0.01205221580271408,0.989588680196968
2011-12-15,-1,-0.00014632289770961322,-0.00010282655507207555,-0.0007699063694266284,0.01205221580271408,0.9900542363328745
2011-12-19,-1,-0.0004788968570928994,-0.00045349535673349956,0.002866094888749493,0.012881806343026238,0.9887611489234698
2011-12-21,1,0.0010341903754815002,0.0011944782199335721,0.0006851431489070648,0.01205221580271408,0.991732197237383
2011-12-23,1,0.0014136483722793174,0.0015916427304212138,-0.0009346349226928261,0.012881806343026238,0.9918533598746689
2011-12-28,-1,-0.00025714457383405027,-0.00014453595801286912,0.0006851431489070648,0.012881806343026238,0.992026059454449
2011-12-30,1,0.0006837547742730612,0.0007377683395132021,-0.0008173861770708179,0.012881806343026238,0.9919315987539419
2012-01-04,1,0.00249804921946042,0.002857769573939792,-0.0008173861770708179,0.008942200886820593,0.9939490663755365
2012-01-06,1,0.002795535690222192,0.0031853745054105887,-0.0012567026162573509,0.008942200886820593,0.9939767121975949
2012-01-10,1,0.002676549637506738,0.003009005201580702,-0.0012567026162573509,0.008497523518756007,0.9942752990074918
2012-01-12,1,0.001832561344516284,0.0019278634146089712,-0.00462209838091422,0.006863648853149064,0.99384030558489
2012-01-17,1,0.0024107154403525542,0.0026956743993598736,-0.00462209838091422,0.008497523518756007,0.993370155629844
2012-01-19,1,0.0025868795967402872,0.002852595343033619,-0.006470782531562651,0.005906299658920389,0.9906706484249067
2012-01-23,1,0.0036066290808074676,0.0041382876194973545,-0.006470782531562651,0.007010427643195435,0.9907066993314039
2012-01-25,1,0.004393520403098003,0.005046988992098964,-0.006470782531562651,0.005906299658920389,0.9910230928521386
2012-01-27,1,0.0034508415788230026,0.003926312128997301,-0.006568728030987515,0.005906299658920389,0.9907779068476132
2012-01-31,1,0.0034932656835145875,0.003999072678761597,-0.00521032628955848,0.005906299658920389,0.9915360795409737
2012-02-02,1,0.002936493280879314,0.0032854871344846397,-0.006470782531562651,0.0039046526254596053,0.9912937311561529
2012-02-06,1,0.003301201551824476,0.00373016582106655,-0.00723783326594682,0.0025573747481088143,0.9898374283186091
2012-02-08,1,0.00351183546308641,0.003994017026883524,-0.00723783326594682,0.0025573747481088143,0.9892423281617791
2012-02-10,1,0.0032231028841240295,0.0036484939609214614,-0.00904945442658428,0.0025573747481088143,0.9893622097339128
2012-02-14,1,0.0022927312813168744,0.002487089774797933,-0.00904945442658428,0.0018910857494507504,0.9889789004977838
2012-02-16,1,0.0005949320355832025,0.0006484516508996964,-0.004967430858088947,0.0025573747481088143,0.992086952335616
2012-02-21,1,0.0012289774684572262,0.0012829493916112428,-0.006315861943591671,0.001533039396920009,0.9918584235349329
2012-02-23,1,0.0008136265481715275,0.0008269912877060285,-0.008956954605953797,0.0008199252908600673,0.99101945082394
2012-02-27,-1,-0.0004687469875299229,-0.00021194909493483442,-0.006315861943591671,0.0026309673362214766,0.9906779390365307
2012-02-29,1,0.000788426687890738,0.000801755327226969,-0.008956954605953797,0.0026309673362214766,0.9890709049571941
2012-03-02,-1,-0.0002906094598372238,-0.0001255023506237812,-0.006315861943591671,0.005094772341891422,0.9896523538811587
2012-03-06,1,0.0001999832995232748,0.00020396532130001406,-0.00497960222914403,0.007515873119219646,0.9903231405691494
2012-03-08,1,0.00012128560474811771,0.00018082365224157825,-0.005666488099166568,0.005731803708017201,0.9903825550773409
2012-03-12,-1,-0.0007484771440819788,-0.0005637769844246772,-0.007268964396675902,0.005731803708017201,0.9878534320875814
2012-03-14,-1,-0.00027724200120306523,-0.00013022543109112296,-0.007268964396675902,0.009124172747342358,0.9873745181293875
2012-03-16,1,0.0012867475820658324,0.0014101493931375725,-0.007268964396675902,0.005731803708017201,0.9881856942767435
2012-03-20,1,0.0006096289192318658,0.0006169503293222306,-0.005666488099166568,0.009124172747342358,0.9878907298850113
2012-03-22,1,6.272250263092226e-05,0.0001516516295941906,-0.005666488099166568,0.009124172747342358,0.9883701988101028
2012-03-26,1,0.00011602818846931926,0.00022984441544611804,-0.006652935441034668,0.008820075273754197,0.9886484510345037
2012-03-28,-1,-0.0004004529090443914,-0.00025618024211467803,-0.005666488099166568,0.011014100462362786,0.9891332308949752
2012-03-30,0,0.0,0.0,-0.006446880061292314,0.011014100462362786,0.9888642258031911
2012-04-03,-1,-0.0006168258720001534,-0.0004691683118100304,-0.006446880061292314,0.010894678475301123,0.9891225362393719
2012-04-05,-1,-0.0010651516172014842,-0.0008295317978581777,-0.007913135699627418,0.010894678475301123,0.988182424013274
2012-04-10,-1,-0.0023568802886360426,-0.0019869339450684764,-0.005967082660109806,0.010894678475301123,0.9904137932773504
2012-04-12,-1,-0.001227761006798793,-0.0010155694952299111,-0.006494299716059781,0.006643601948764954,0.9918244001623076
2012-04-16,-1,-0.0015122994023770457,-0.0012401892566854087,-0.007913135699627418,0.006643601948764954,0.9909123601139302
2012-04-18,-1,-0.0017144774291919839,-0.0013776293756742816,-0.011292902163387835,0.005877432387874453,0.9900531217431263
2012-04-20,0,0.0,0.0,-0.012605962903708627,0.004411870570625842,0.9894709375853091
2012-04-24,0,0.0,0.0,-0.01252813516104051,0.004411870570625842,0.9889687394875541
2012-04-26,0,0.0,0.0,-0.01252813516104051,0.0032584723185310016,0.9889169564901914
2012-04-30,-1,-0.0006080036737254732,-0.0004669319113952203,-0.01252813516104051,0.0032584723185310016,0.9886641911201013
2012-05-02,0,0.0,0.0,-0.016858770779441215,0.0017985772172763462,0.987566817480329
2012-05-04,-1,-0.000944206515098301,-0.0007726805346915276,-0.016858770779441215,0.0017985772172763462,0.9874037686330949
2012-05-08,0,0.0,0.0,-0.016858770779441215,0.005664380826790315,0.9854797101153581
2012-05-10,0,0.0,0.0,-0.013830435910693498,0.011565272951236296,0.9859050650245541
2012-05-14,-1,-0.003922119152259469,-0.003292239003721012,-0.013830435910693498,0.013963586634625188,0.9855360478471168
2012-05-16,-1,-0.004307504215753754,-0.0037061330676863395,-0.01125111973202583,0.015088470367601341,0.9856601281522259
2012-05-18,-1,-0.0042763044310016795,-0.0037090768141440408,-0.007919820442207941,0.015088470367601341,0.9858704005054344
2012-05-22,-1,-0.0038692673108749157,-0.003314555210722222,-0.007919820442207941,0.015088470367601341,0.985916131405984
2012-05-24,-1,-0.003412922765162435,-0.002917246662592506,-0.01125111973202583,0.015088470367601341,0.9853263063284634
2012-05-29,-1,-0.0024279069540099696,-0.0021158573127508648,-0.013459640571866015,0.016175616948296737,0.9846464479938194
2012-05-31,-1,-0.002878278163057486,-0.0025464093381694516,-0.01125111973202583,0.019978505869560573,0.98419394650526
2012-06-04,-1,-0.003685921728060832,-0.0032876075141434844,-0.0054214019996387,0.021057443777061938,0.9839388172455213
2012-06-06,-1,-0.002035667123430241,-0.001850730369429945,-0.0054214019996387,0.019978505869560573,0.9854940978956711
2012-06-08,-1,-0.0016060855678693405,-0.0014694737565119462,-0.007245383887930994,0.019978505869560573,0.9855620086048995
2012-06-12,-1,-0.0010548160505171236,-0.0010291131818225311,-0.007245383887930994,0.016753035035625346,0.9863947235138928
2012-06-14,-1,-0.0007307811623607694,-0.000721910053281732,-0.007070314410391894,0.010371400755774515,0.9873148993044552
2012-06-18,-1,-0.0005136324600500241,-0.0004375065318257206,-0.010210146535657482,0.008642819434664922,0.9871369054861413
2012-06-20,1,0.00024166765246084386,0.00041508686472704274,-0.010210146535657482,0.003951634791324879,0.988410411230462
2012-06-22,-1,-0.00041703341085627633,-0.00035998820070724563,-0.009706988427222873,0.002678033328800304,0.9892792666523295
2012-06-26,1,0.00021097788146698138,0.0003765119540447417,-0.009706988427222873,0.0021643897294121883,0.9900821863942775
2012-06-28,1,0.0011030681479721298,0.0013985214864654242,-0.009706988427222873,0.002678033328800304,0.9884346046402898
2012-07-02,1,0.001973259831742994,0.0024019284446446707,-0.00997186627085254,0.0015870980531914078,0.9889847961107404
2012-07-05,1,0.0025044310019303193,0.002991947732732727,-0.010225460732616761,0.0006172227229861494,0.9881509020535955
2012-07-09,1,0.002282141831764123,0.0027692876611194912,-0.00997186627085254,0.004193221110945695,0.9884390839017954
2012-07-11,1,0.0004984777464134044,0.0006377166715689842,-0.009706988427222873,0.007474442330626297,0.9901171784903753
2012-07-13,1,0.0005568405698133366,0.0007257474222583651,-0.009181085543722503,0.008887891513421543,0.9899432015494704
2012-07-17,1,0.00016449719609836437,0.000285491763062021,-0.006258547735432348,0.008887891513421543,0.9904959524353631
2012-07-19,-1,-8.639914354741224e-05,-1.6847466381370247e-05,-0.0072550735001436365,0.008887891513421543,0.9872798880776005
2012-07-23,-1,-0.00025830599337458047,-0.00022399826116565008,-0.006258547735432348,0.011988870073812573,0.9862687157176478
2012-07-25,-1,-0.0008113522870850893,-0.0007681593110620464,-0.006258547735432348,0.011988870073812573,0.9864951922903508
2012-07-27,1,0.000588361566283425,0.0006730313209835019,-0.0068461194661956085,0.008887891513421543,0.9887978792465185
2012-07-31,-1,-4.024255886740052e-05,-7.280874262145966e-06,-0.008941817893022803,0.008887891513421543,0.9876092535898832
2012-08-02,-1,-0.0003214324785607485,-0.0002948739743967719,-0.006638034998142965,0.00761146260774365,0.9882007077132136
2012-08-06,1,0.0007883530648996582,0.0009487376217770728,-0.008941817893022803,0.00698858979098819,0.9887865922351072
2012-08-08,1,0.0013813052163539328,0.0016599942842077482,-0.008941817893022803,0.008029027158696102,0.9875223978072043
2012-08-10,1,0.0014911453484007023,0.0017615234034981575,-0.01215213883568196,0.008197620173890315,0.9868798166228863
2012-08-14,1,0.0010868748543401497,0.0012697255713734357,-0.01215213883568196,0.010169888215797146,0.9862103342361522
2012-08-16,1,0.00025389003930638844,0.0003703964583063108,-0.008941817893022803,0.014128418106978593,0.9873947335247165
2012-08-20,1,0.0006514936980805009,0.0007739361933843319,-0.011847960969434052,0.010516156502118606,0.9882169972357093
2012-08-22,1,0.0003258695426830232,0.0004163706981556261,-0.011847960969434052,0.010516156502118606,0.9881547597743153
2012-08-24,1,0.0005552355035863094,0.0006950613403027505,-0.0008686101341144996,0.010516156502118606,0.9888690500950961
2012-08-28,0,0.0,0.0,0.0013843676873536875,0.010516156502118606,0.9894409490179874
2012-08-30,0,0.0,0.0,0.0015323937477900724,0.010516156502118606,0.9892820341277732
2012-09-04,0,0.0,0.0,0.00044738580357091035,0.010516156502118606,0.9900061018743068
2012-09-06,0,0.0,0.0,-0.003147097479068233,0.009164619095471492,0.9911891945389687
2012-09-10,0,0.0,0.0,-0.0011875994303268819,0.008298993607894562,0.9925547311852908
2012-09-12,0,0.0,0.0,-0.003977869590718458,0.005796783450419425,0.9926267173079849
2012-09-14,0,0.0,0.0,-0.003977869590718458,0.004625632294811803,0.9938574552693862
2012-09-18,0,0.0,0.0,-0.003147097479068233,0.008298993607894562,0.9933622529502146
2012-09-20,0,0.0,0.0,-0.003147097479068233,0.009995007481810845,0.9926228627277576
2012-09-24,0,0.0,0.0,-0.003977869590718458,0.010750078743307506,0.9914363495662089
2012-09-26,1,0.0027942078723591146,0.0031617065898782845,-0.00510212130583349,0.010750078743307506,0.9915767834032008
2012-09-28,1,0.003083571476589799,0.003497467573532957,-0.00510212130583349,0.010750078743307506,0.9915336901170072
2012-10-02,1,0.0024221234832198036,0.002694774656896227,-0.004479539801664538,0.011482955726581336,0.9910951137298235
2012-10-04,1,0.0024105342246946576,0.002649469768115622,-0.00707225249110708,0.011001217502324804,0.9909301101823106
2012-10-08,1,0.0015377379695267505,0.0015949896461527314,-0.008853914175353677,0.011001217502324804,0.9897832236551745
2012-10-10,1,0.0008200101311233014,0.0008735375086712579,-0.006930890222798243,0.011001217502324804,0.9900058288065583
2012-10-12,1,0.0012977862714749246,0.0013401024977497899,-0.006930890222798243,0.011001217502324804,0.9899626914303699
2012-10-16,1,0.0021986893173413617,0.002374611266010472,-0.008853914175353677,0.009554908989060655,0.9903307600865494
2012-10-18,1,0.0029488795931131473,0.003219237588862181,-0.008853914175353677,0.008583208313283859,0.9907615822693233
2012-10-22,1,0.0020425185351483862,0.0021274599216290074,-0.008853914175353677,0.007846470489307283,0.9901499980229561
2012-10-24,1,0.0005974745190586472,0.0007496835632955483,-0.003865550369699498,0.008583208313283859,0.9904000649136588
2012-10-26,1,0.0016465209025877058,0.001700711173362346,-0.003865550369699498,0.007846470489307283,0.9906821871880355
2012-11-01,1,0.0021358965932907776,0.0022551790391616804,-0.007200262766203684,0.007168649462815328,0.9906908195663033
2012-11-05,1,0.0015578882570467406,0.0015883595229793694,-0.007200262766203684,0.007168649462815328,0.990940524907306
2012-11-07,1,0.0008876005970751156,0.0009313105144553696,-0.003865550369699498,0.007846470489307283,0.9916251874819133
2012-11-09,1,0.0007427124824606631,0.0008246479142751569,-0.0019832762124058667,0.007818279921839543,0.9918413496130584
2012-11-13,1,0.0013075827949192245,0.0013194658246717705,-0.0032809350025876215,0.007818279921839543,0.9919901602804873
2012-11-15,1,0.000857106625396016,0.0009229679212323079,-0.0032809350025876215,0.007316389589222406,0.9922812710546012
2012-11-19,1,0.0011759943063024347,0.001184290439232198,-0.0032809350025876215,0.006126882085629986,0.9925232518715873
2012-11-21,1,0.0007915430112370658,0.0008051095023344448,-0.0021753035006307556,0.00716762413814327,0.9936745505076539
2012-11-26,1,0.0017035353480082864,0.0018229072981345998,-0.004673966401632387,0.006112922800860062,0.994264839953708
2012-11-28,1,0.001804776025278962,0.0019677383058992986,-0.00651737384618939,0.006112922800860062,0.9940222306295197
2012-11-30,1,0.001303789478029879,0.0013665889803464166,-0.00651737384618939,0.00627919425372705,0.9927905809060457
2012-12-04,1,0.0006539931384624572,0.0007111796593415348,-0.004673966401632387,0.007815203947823372,0.9922933386029171
2012-12-06,1,0.0009238741534955214,0.0009531561307432364,-0.004673966401632387,0.007815203947823372,0.9924168998304692
2012-12-10,1,0.0009440852950263687,0.000983693391272059,-0.00651737384618939,0.008149453395252165,0.9916527405567486
2012-12-12,1,0.0005081470948854483,0.0006279389937825872,-0.00651737384618939,0.008135877959737848,0.9917389443976353
2012-12-14,1,0.00019724967490105738,0.00036390142717392435,-0.004032919108192014,0.008135877959737848,0.9921781135657197
2012-12-18,1,7.492107525236547e-05,0.0002849241931010604,-0.004032919108192014,0.008135877959737848,0.9923230395396522
2012-12-20,1,0.0012277142291840688,0.0012739626841576476,-0.0026815879731322476,0.009722240474194097,0.9916811813185115
2012-12-24,0,-2.4098643484316788e-06,0.0001684330067676045,-0.0020460523810395407,0.009722240474194097,0.9918197573494458
2012-12-27,0,-3.9573812430656165e-05,0.00014635857769248572,-0.0015586575017107072,0.009722240474194097,0.9919965860357313
2012-12-31,1,0.0007848597566859943,0.0008461720153142223,-0.0012296350884451854,0.009722240474194097,0.9934371189393859
2013-01-03,1,0.0007131966178249543,0.0007756760843307313,-0.0012296350884451854,0.00954438650936368,0.9936696116952792
2013-01-07,1,0.001088899062298997,0.001089516625004029,-0.0015586575017107072,0.0070905248149001985,0.9933781863723513
2013-01-09,1,0.0011142378712783894,0.0011331223975312294,-0.0022273422970705507,0.006090274450022852,0.9939292041653434
2013-01-11,1,0.0011384275888568162,0.0012144133374241612,-0.0015586575017107072,0.006090274450022852,0.9941466561183523
2013-01-15,1,0.0015884642080277005,0.0016071446390978834,-0.002823513897523397,0.006440396858139058,0.9922893004949094
2013-01-17,1,0.0009837341462508081,0.0010452566671343127,-0.006081462233023404,0.006440396858139058,0.9919636334492835
2013-01-22,1,0.001979731973517429,0.002042818966828421,-0.007885004228540054,0.005740593337931983,0.9917670967030755
2013-01-24,1,0.0009528817085373141,0.001082368306441072,-0.009107591218840966,0.005740593337931983,0.9912791009289672
2013-01-28,1,0.0011976725398886762,0.0012793543538619292,-0.010267012615216196,0.006431502876974137,0.9900694292526503
2013-01-30,1,0.0009618400750090577,0.0010901245574629957,-0.010267012615216196,0.006431502876974137,0.9900013065174053
2013-02-01,1,0.0015232493026978986,0.0015349490201495748,-0.010105540634321298,0.005121104910714601,0.9905347752159674
2013-02-05,1,0.0008952481763679606,0.0010099184761515733,-0.00912082137272863,0.006917002578179355,0.9900062773332172
2013-02-07,1,0.0008910403505099193,0.0009770660143657477,-0.00912082137272863,0.0071920973962014785,0.9899467432798901
2013-02-11,1,0.0017755002826222775,0.0018839841128902475,-0.00912082137272863,0.0071654154527067155,0.9896334229721554
2013-02-13,1,0.0008319811571105406,0.0008794063903383442,-0.007102713062308781,0.007534925997880492,0.991254052008727
2013-02-15,1,0.0007509939402973294,0.0007810358174048692,-0.00502807994603415,0.007534925997880492,0.9915432700545262
2013-02-20,1,0.00019594187412271517,0.00029617146233646216,-0.007169767209828079,0.00697536637763507,0.9907400136365537
2013-02-22,-1,-0.0005208447719829754,-0.00032917413325847045,-0.007169767209828079,0.009449615814258662,0.9903419505052822
2013-02-26,-1,-0.00044956621134635967,-0.0002775099301133561,-0.007169767209828079,0.00697536637763507,0.9911011341442866
2013-02-28,-1,-0.0003950895908906172,-0.00021308499777384976,-0.009385479982975786,0.00574124676392633,0.9909804803221388
2013-03-04,1,2.799922335523222e-07,0.00011613101973981601,-0.009882664391235302,0.00574124676392633,0.9899748408004404
2013-03-06,1,6.008330047310316e-05,0.0001766993282484151,-0.009882664391235302,0.0068823563347472135,0.9906781535894872
2013-03-08,1,0.00034783384263148426,0.0004481907269390963,-0.009882664391235302,0.0068823563347472135,0.9910766050908526
2013-03-12,1,0.00020379593257371562,0.00031973099822335885,-0.009882664391235302,0.006305946273874619,0.9913778329769146
2013-03-14,1,0.0011824375432283444,0.0012319527533356058,-0.010906625916637581,0.0050117768532914365,0.9908912464432105
2013-03-18,1,0.0014019720955632435,0.0015303492375918662,-0.012571247868137177,0.0050117768532914365,0.9893013941665888
2013-03-20,1,1.3527902927507821e-05,8.412798762898072e-05,-0.009882664391235302,0.0050117768532914365,0.9911039123681974
2013-03-22,-1,-0.0008984703421387622,-0.0006747455263065807,-0.009798868347377452,0.0050117768532914365,0.9911516201818468
2013-03-26,-1,-0.00026589292269240506,-0.00014915996347839554,-0.008207202853612943,0.006394043738081088,0.9911729823890812
2013-03-28,-1,-0.00039939050652910464,-0.00030175406662606935,-0.006571105123750259,0.009116779458052676,0.9912076641756633
2013-04-02,-1,-0.0016575418746033578,-0.001390268395054919,6.168126760184163e-05,0.009626646669977977,0.9894318709860245
2013-04-04,-1,-0.001394338667542309,-0.0011207272668379916,-0.0016567662157887684,0.009675513439216944,0.9888599873060965
2013-04-08,-1,-0.0010939314705142229,-0.0008635762519168398,-0.0014783602901696966,0.010712738351431899,0.9885658447128406
2013-04-10,-1,-0.0006118229105498397,-0.00045489130644756027,-0.0014783602901696966,0.010712738351431899,0.9884529521147561
2013-04-12,-1,-0.0011058577749092123,-0.000885168419516373,-0.00034226164845269644,0.010712738351431899,0.9891818320376493
2013-04-16,-1,-0.0018513355933739198,-0.0015509306594210439,0.000925183405114322,0.010876092601034375,0.9898375045995043
2013-04-18,0,0.0,0.0,0.00046177184718676,0.010876092601034375,0.988833282978931
2013-04-22,0,0.0,0.0,-0.0019966056243802123,0.011239420387756077,0.9876475080816673
2013-04-24,0,0.0,0.0,-0.005402746458280426,0.010810105108481247,0.9877292299114985
2013-04-26,0,0.0,0.0,-0.006002705545032613,0.00786123300899413,0.9878623223643305
2013-04-30,0,0.0,0.0,-0.006002705545032613,0.00786123300899413,0.9894302330196723
2013-05-02,0,0.0,0.0,-0.0038519435150032658,0.0066277793028187365,0.9910570494000404
2013-05-06,1,0.0004617695298311114,0.0004626783362274276,-0.006002705545032613,0.0066277793028187365,0.990738875069922
2013-05-08,1,0.0008838592348995812,0.0009465839573401216,-0.009059734537353002,0.003282891417434374,0.9903778944483261
2013-05-10,1,0.0007365510803847633,0.0007702795963657953,-0.009059734537353002,0.005113974243977922,0.9897843319463682
2013-05-14,1,0.0013044861808942248,0.0014301061600084845,-0.010878995450989182,0.0026665721906516966,0.9891382946916634
2013-05-16,-1,-0.00022497732077369535,-0.00015284656624636416,-0.010354825754087214,0.005113974243977922,0.9906898073223935
2013-05-20,-1,-0.00091077269358119,-0.0007454621138804259,-0.009059734537353002,0.002687959839412456,0.9925856891980434
2013-05-22,-1,-0.0014408325350719852,-0.0012101083975511729,-0.010354825754087214,0.002687959839412456,0.9918537268338196
2013-05-24,-1,-0.0014867331675394821,-0.001262030834348668,-0.010878995450989182,0.002218943053701301,0.9915567078373123
2013-05-29,-1,-0.0007608103217082338,-0.0006460190778016046,-0.010878995450989182,0.002218943053701301,0.9910995720454276
2013-05-31,-1,-0.0006659135077199858,-0.0005766356628496008,-0.011748237705206319,0.0037710868331267363,0.9897899750616923
2013-06-04,-1,-0.000542624304767672,-0.00047578082090351343,-0.010878995450989182,0.002218943053701301,0.9908374514201016
2013-06-06,-1,-0.0007806952893999253,-0.0006964704076875888,-0.009006680446098632,0.003069322571562721,0.9913054195189542
2013-06-10,-1,-0.0006863034030300206,-0.0006158232873379893,-0.009006680446098632,0.003069322571562721,0.9904462035309212
2013-06-12,-1,-0.0012613777018284198,-0.0011313714459795093,-0.005903007956555769,0.006601780565079521,0.9900164473311831
2013-06-14,-1,-0.00046154678011759164,-0.00045358577537746737,-0.0050485197120600026,0.005596803433941004,0.9906975943086902
2013-06-18,-1,-0.000260237325421002,-0.00021251889043229184,-0.005162434370798679,0.005596803433941004,0.9904137602186881
2013-06-20,-1,-0.0007461949873181798,-0.0007458841530637431,-0.0050485197120600026,0.005596803433941004,0.991412138045337
2013-06-24,-1,-0.0011369592219570976,-0.0011103194894052542,-0.004476417934144737,0.006460053203761034,0.9915010131788657
2013-06-26,-1,-0.0006722250397733419,-0.0006377311162480174,-0.005144019928703491,0.005596803433941004,0.9916601408301345
2013-06-28,-1,-0.0011245241267471607,-0.001086527993041187,-0.004476417934144737,0.004885363445415862,0.9929241203668078
2013-07-02,-1,-0.0013831059638994968,-0.0012982389773990505,-0.003831563030984152,0.004885363445415862,0.9929966979294553
2013-07-05,-1,-0.0008201970234832856,-0.0008176406714442098,-0.003831563030984152,0.004326162275890822,0.9932451728714136
2013-07-09,-1,-0.00025857300172473787,-0.00022700099209075678,-0.005885257809742229,0.003868735572633665,0.9936732638209869
2013-07-11,-1,-0.0002347873106063607,-0.00021466242013404416,-0.004578056298153288,0.003868735572633665,0.9941614795044743
2013-07-15,-1,-0.00038627886793225747,-0.0003615874747247371,-0.0058481256861155646,0.003868735572633665,0.993291039464901
2013-07-17,-1,-0.0008985860696907122,-0.0007973172168248767,-0.007082829805901492,0.004326162275890822,0.9924533436526596
2013-07-19,-1,-0.0008989626220649545,-0.0007874212532617023,-0.007082829805901492,0.004749862008329605,0.9914559861979323
2013-07-23,-1,-0.0006202200425113163,-0.0005662778209568082,-0.007082829805901492,0.004379363095717648,0.9914099924870745
2013-07-25,-1,-0.0009313472113131075,-0.0008452270472334039,-0.007082829805901492,0.005245020726185512,0.9914716845196678
2013-07-29,-1,-0.0005123832786854881,-0.0005001398670957949,-0.007082829805901492,0.007009534033692226,0.9907048792470464
2013-07-31,-1,-0.00014056252549251073,-7.271062004342364e-05,-0.007617885439701822,0.00799202043177563,0.9897171483862691
2013-08-02,1,3.982645082918108e-05,0.0001336908084671411,-0.007617885439701822,0.00799202043177563,0.9896599470932699
2013-08-06,-1,-0.0004005492316573725,-0.00033626874486720755,-0.004614488653592829,0.00799202043177563,0.9904258819285862
2013-08-08,1,2.6009721960685965e-05,0.00014303497383442667,-0.00750648906882183,0.006684012930049184,0.9902734211103659
2013-08-12,-1,-0.00021136417778301177,-0.00019965342038610434,-0.005075280040139831,0.006684012930049184,0.9905709913225164
2013-08-14,-1,-0.0005552416428472705,-0.0005264429950313395,-0.005075280040139831,0.005682749043028414,0.9910161767258686
2013-08-16,1,2.576767915335996e-05,6.16457534612889e-05,-0.008533111561654462,0.005682749043028414,0.9914466432828356
2013-08-20,-1,-0.0004922474325335015,-0.00044231443318121986,-0.004956696151203706,0.00799202043177563,0.9917143761748183
2013-08-22,-1,-0.0008838646784262443,-0.0007554188588940938,-0.004956696151203706,0.007152658937258483,0.9914426542190043
2013-08-26,1,2.8107834959975374e-05,3.586101438426852e-05,-0.004956696151203706,0.005511468912737046,0.9922751107307249
2013-08-28,-1,-3.126204978849763e-05,-1.5396818909208625e-05,-0.004956696151203706,0.005002749920245484,0.992259805172101
2013-08-30,-1,-6.222928966823576e-05,-3.689237006326616e-05,-0.009383870394787682,0.005002749920245484,0.9915319098477003
2013-09-04,1,7.67043741570327e-05,0.00010242097290682697,-0.009383870394787682,0.0051277080157456825,0.9915164512676504
2013-09-06,-1,-0.0012398976646558714,-0.0010572440212268698,-0.008447387897125777,0.005948110578113796,0.9919832293898829
2013-09-10,-1,-0.0007947531187093459,-0.0006523309579373809,-0.008447387897125777,0.004783285272794577,0.9929685727568348
2013-09-12,-1,-0.0009043191664301277,-0.0007714243517599177,-0.004377461679054594,0.004958877748764324,0.9931739392085326
2013-09-16,-1,-0.0004605509462184251,-0.0004034050916489775,-0.0041129536870137835,0.004958877748764324,0.9934229243510404
2013-09-18,1,3.752180849035794e-09,4.212962540696512e-06,-0.007653863921003347,0.004958877748764324,0.9932492063361071
2013-09-20,1,0.000445508994977544,0.0005816423403936122,-0.0041129536870137835,0.005816635887361447,0.993779913047052
2013-09-24,1,0.0006444514365254844,0.0008106129396635273,-0.0041129536870137835,0.005816635887361447,0.9937979763888067
2013-09-26,1,0.0005752797670890423,0.0007609782474254869,-0.003634129853999828,0.005816635887361447,0.9945494292524563
2013-09-30,1,0.00031598517471510693,0.0004911688367318241,-0.0026717346213037747,0.005816635887361447,0.995053436788183
2013-10-02,1,0.0006801993330146637,0.0009063707798846545,-0.005353062645601713,0.004958877748764324,0.9947644474880877
2013-10-04,1,0.0011354955526521285,0.0014611987696867628,-0.005353062645601713,0.004482908941278347,0.9946921411759295
2013-10-08,1,0.0004771149612461038,0.0006560875749601159,-0.005353062645601713,0.004482908941278347,0.9949415830893865
2013-10-10,1,0.0005535558564726945,0.0007166280532090064,-0.005353062645601713,0.002882962522151675,0.9950754171942687
2013-10-14,1,0.0004344140086291222,0.0005562123114924345,-0.004706447709199437,0.002882962522151675,0.9956820150578202
2013-10-16,1,0.0003303132181619373,0.00042883017072583787,-0.0033257149001123844,0.0034811099211419184,0.9959621642629121
2013-10-18,1,0.0010189044272877995,0.001232891374385398,-0.0033257149001123844,0.0019726776622428005,0.9963560339355598
2013-10-22,1,0.0011257950251624552,0.0013494638617670635,-0.004706447709199437,0.0019726776622428005,0.9955448675280953
2013-10-24,1,0.0009716992546900559,0.0011701135669311006,-0.004706447709199437,0.0021720601285728815,0.9945722302660218
2013-10-28,1,0.0005407613797177291,0.0006622254125916262,-0.0033257149001123844,0.0034864317125956504,0.9946688259958157
2013-10-30,1,0.00016812677151887206,0.0002430237814187209,-0.002566329783356173,0.0034864317125956504,0.9949993964774284
2013-11-01,-1,-0.00034181321309625126,-0.0003170593096391261,-0.001529752990813406,0.004625522691898402,0.9948383873883196
2013-11-05,-1,-0.0001339987471066977,-0.00012181938416541327,-0.0032985779991081383,0.006129795607095697,0.992693401889474
2013-11-07,-1,-0.000170878309659627,-0.0001591857261474468,-0.004816711200436421,0.006257406247066902,0.9922707229565515
2013-11-11,-1,-0.0004933511171381409,-0.0004286732478400241,-0.004816711200436421,0.009729941479694167,0.9909262147041281
2013-11-13,-1,-0.0005738303277805299,-0.0004617119308051999,-0.0065495592583804906,0.009729941479694167,0.9909531890538652
2013-11-15,-1,-0.000308341708135583,-0.00024985159134181887,-0.0065495592583804906,0.01025839741832419,0.9897814772022243
2013-11-19,-1,-0.000562971836026927,-0.0004555164739169815,-0.006171249963649682,0.011371661069988123,0.9898616109707562
2013-11-21,-1,-0.000243297290758029,-0.0001646153868171719,-0.0053035509991325525,0.009967793048609688,0.9908640025717679
2013-11-25,1,0.00019763414926249974,0.00021537830595565644,-0.0053035509991325525,0.008028429463455002,0.991039563301042
2013-11-27,1,0.000371066316003041,0.0004313744308238986,-0.004717346079577524,0.008028429463455002,0.9912626722661518
2013-12-02,1,0.00047417780996691027,0.0005564897758598975,-0.004717346079577524,0.008028429463455002,0.9914774292025516
2013-12-04,1,0.0011008766147319001,0.001269912326844953,-0.004717346079577524,0.006535888822175547,0.9931916466038442
2013-12-06,1,0.0008983577408633577,0.001020790767690335,-0.004717346079577524,0.006535888822175547,0.9930431245588516
2013-12-10,1,0.001948492470812671,0.0022184668768251365,-0.005384420782480817,0.0047405006372859765,0.9938057564058298
2013-12-12,1,0.0014287602158364133,0.0016251395851769402,-0.00417444620100282,0.005765812310431496,0.9940221520018456
2013-12-16,1,0.0018642667076063252,0.0020934172342724124,-0.00417444620100282,0.0047405006372859765,0.9949916382323286
2013-12-18,1,0.0020180385028843507,0.0022674135916327222,-0.00417444620100282,0.004435950360827044,0.9954748707205665
2013-12-20,1,0.0021859621225937768,0.0024555646753973894,-0.004792893361514169,0.0032540912257811435,0.995201571891651
2013-12-24,1,0.002463316039375541,0.0027734938710158013,-0.008109733152088423,0.0023073495674651914,0.9932710008124512
2013-12-27,1,0.0017518983973486692,0.0019173938493875868,-0.008109733152088423,0.004435950360827044,0.9935383439615272
2013-12-31,1,0.0021088405727823344,0.00234149406905773,-0.008109733152088423,0.004435950360827044,0.9928985945456374
2014-01-03,1,0.0019073969652225564,0.002134947581887163,-0.008109733152088423,0.002704163703819596,0.9925333725812834
2014-01-07,1,0.001456031503738445,0.0016019772473408421,-0.007730416815135915,0.0025650696641242483,0.9928901243730346
2014-01-09,1,0.001208843732698322,0.0013566026844267418,-0.00727629949243288,0.005718554814860502,0.9929013737885107
2014-01-13,1,0.001157606328482937,0.0012813842913925405,-0.00727629949243288,0.005718554814860502,0.993072166460324
2014-01-15,1,0.001184403141210064,0.0013091066996847754,-0.007730416815135915,0.005718554814860502,0.9920802153817441
2014-01-17,1,0.0012719653488898774,0.0014336375282907863,-0.008196732742850436,0.005718554814860502,0.9918829213631489
2014-01-22,1,0.0009309312553467703,0.0010336718098774133,-0.008664930322434577,0.006948579323552621,0.9914767353607634
2014-01-24,-1,-0.00012848674122978047,-8.650019934935972e-05,-0.00727629949243288,0.006948579323552621,0.9929680844826319
2014-01-28,1,0.0003421412319356055,0.00037138948605238494,-0.00787172761310527,0.004810415397501439,0.9929116898293378
2014-01-30,0,-5.0434867950654354e-05,1.2734721260802416e-06,-0.0075259453336506245,0.007667442542155286,0.9927880261284651
2014-02-03,-1,-0.00036668114207994785,-0.0003030933430884895,-0.005389496164882223,0.008774565436239593,0.9929900589006754
2014-02-05,-1,-0.0006173086787924937,-0.0005072069933921968,-0.005389496164882223,0.009393379408256726,0.9924317334641614
2014-02-07,1,7.943561374462203e-05,0.00010414564449686291,-0.005389496164882223,0.007823313961443751,0.9931590990979019
2014-02-11,1,0.0005084411644408742,0.0005554646831087398,-0.005389496164882223,0.006836493794137017,0.993195868847006
2014-02-13,-1,-0.0001702652722936735,-0.00012044539815110887,-0.005943937647860498,0.006836493794137017,0.9931912480624981
2014-02-18,-1,-0.00035792370346459637,-0.00029318523015219717,-0.004109075764623795,0.006836493794137017,0.9933019670372613
2014-02-20,-1,-0.0005780946582314108,-0.0004693416804481809,-0.003929753155456274,0.006511589310552412,0.9938683893696543
2014-02-24,-1,-0.0010224003688725106,-0.0008355241860989843,-0.003929753155456274,0.006836493794137017,0.9921325938059689
2014-02-26,-1,-0.0009913861774462985,-0.0008231342269681696,-0.003929753155456274,0.006836993619404013,0.9919851824396347
2014-02-28,-1,-0.0004831203312651733,-0.0003761051286648894,-0.004581045840482073,0.006665372094863909,0.9922500831987756
2014-03-04,-1,-0.00038985696569699237,-0.0002841200955828593,-0.004581045840482073,0.006665372094863909,0.9915441408076997
2014-03-06,1,0.00023358719391847576,0.00025625346788804126,-0.004581045840482073,0.006539618976740289,0.9921632134944836
2014-03-10,1,0.0002956842213822956,0.0003093553681691306,-0.005841974576060167,0.006539618976740289,0.9921262546289195
2014-03-12,1,0.00031814273754803793,0.00033552801664482194,-0.005841974576060167,0.0072686829804598126,0.9914428257680753
2014-03-14,0,-2.619704602258713e-05,1.2471101609012961e-05,-0.005704154329070855,0.0072686829804598126,0.9915755976741271
2014-03-18,1,0.0001676049603403524,0.00017877720439208174,-0.005704154329070855,0.0072686829804598126,0.9915621931919685
2014-03-20,1,4.190062443641359e-05,7.340003762417618e-05,-0.005704154329070855,0.008848268807355257,0.9913740630577307
2014-03-24,1,0.00014230867764345888,0.00017750323154227653,-0.0035786264696444246,0.0071924005290960515,0.9931370423588786
2014-03-26,-1,-0.00025251185461422576,-0.00014763726573456402,-0.0026232046018792097,0.007066314194127768,0.9935432094886291
2014-03-28,-1,-0.0003026583324308168,-0.00018072723577889217,-0.0032415201676032593,0.0058098162093410295,0.9937382713586282
2014-04-01,1,0.0004975689002520613,0.0005253349824727832,-0.004019648605011798,0.004900181873907743,0.9945355421996553
2014-04-03,1,0.0005485833426145774,0.0005778639193804698,-0.004019648605011798,0.0037332742858333626,0.9945693764091065
2014-04-07,1,0.00021238992626617832,0.00027956045945859686,-0.003406805664061643,0.0037332742858333626,0.9949698270127342
2014-04-09,1,0.0009739630647428747,0.0010138019009384043,-0.003406805664061643,0.0028678564872259057,0.9949775692577171
2014-04-11,1,0.00047450073615313843,0.0005011206463165407,-0.003052940719260341,0.0028678564872259057,0.9954184017126237
2014-04-15,1,0.000504148371376751,0.0005354533005687172,-0.003406805664061643,0.0025190701306760164,0.9946229184723077
2014-04-17,1,0.001005319497500044,0.0010482444611441156,-0.004019648605011798,0.001237890602092775,0.9946502915419229
2014-04-22,1,0.001046863122373099,0.001109440579244491,-0.0056510875327878156,0.0007091042472255704,0.9940698065725558
2014-04-24,1,0.0009565462729988947,0.0009847343778884388,-0.0056510875327878156,0.0004092864898191528,0.9942388886779069
2014-04-28,1,0.000494441698100205,0.0005252109786586709,-0.004456593877669724,0.0006417312010969997,0.9946693403373194
2014-04-30,1,0.0008470292195681666,0.000890676185042088,-0.0037495417448767687,0.0006417312010969997,0.995090033138339
2014-05-02,1,0.0006404681915412924,0.000651687829963397,-0.0033193694111450763,0.0006854426480657379,0.995469608024098
2014-05-06,1,0.0010085529888671486,0.0011200826481283668,-0.0041325706420960884,0.0006417312010969997,0.9951342497040985
2014-05-08,1,0.0011894076209083004,0.001299047684871637,-0.0041325706420960884,0.0006854426480657379,0.9954170148515249
2014-05-12,1,0.001285924871058942,0.0014452680171264548,-0.0041325706420960884,0.0010987677758466801,0.9951680608036517
2014-05-14,1,0.0007577319762563047,0.000855981132875952,-0.0054861190765690855,0.0010987677758466801,0.995386153129695
2014-05-16,1,0.000717612959608872,0.0008225170254415043,-0.004275201386314272,0.0010987677758466801,0.9955843921896164
2014-05-20,1,0.0004384288627481808,0.0005209307918101346,-0.000359627290467959,0.003174764441791237,0.9960657590733573
2014-05-22,1,0.00043623994148107154,0.0005160045850318791,-0.000359627290467959,0.005033171164528335,0.9956779945115701
2014-05-27,1,0.000825785165436048,0.0009687256906481946,-0.004275201386314272,0.004463313613976408,0.9953674017134191
2014-05-29,1,0.0007734419082011145,0.0008970442038553446,-0.004275201386314272,0.004463313613976408,0.9952387214133935
2014-06-02,1,0.0007281752380367775,0.0008387468897226007,-0.004275201386314272,0.0046568695564943976,0.9949065922357743
2014-06-04,1,0.000389005004133734,0.00042864272943222184,-0.005371389670455506,0.0046568695564943976,0.9947271175684201
2014-06-06,1,0.0009024580730605978,0.001019456262957884,-0.00604963727274712,0.004341296574988014,0.9945807107696325
2014-06-10,1,0.0009681264489825136,0.0010981050645730416,-0.007141534331082134,0.003317168262772508,0.9942518897622362
2014-06-12,1,0.0002733845926523267,0.00030206249983537954,-0.006607927222698146,0.004341296574988014,0.9946354900501652
2014-06-16,1,0.000100046802616087,0.00010730312578685181,-0.006607927222698146,0.004341296574988014,0.9946685123388057
2014-06-18,-1,-0.0003324682867064167,-0.00021632120430661829,-0.007141534331082134,0.004341296574988014,0.9935825404291367
2014-06-20,1,0.00014842582317066733,0.00019139134663874468,-0.007141534331082134,0.0024649566496567766,0.9938396025776312
2014-06-24,-1,-0.0004458548332866237,-0.00032972819697300426,-0.0066872981529403994,0.0033816869102785046,0.9936847119732741
2014-06-26,-1,-0.0010321482039366068,-0.0008099352107368251,-0.007862871570164116,0.0033816869102785046,0.9932932580997911
2014-06-30,-1,-0.0010907835443963875,-0.0008561155025934784,-0.007862871570164116,0.0024649566496567766,0.9935701593940782
2014-07-02,-1,-0.0007726041829550442,-0.0006104051319408437,-0.007862871570164116,0.0009955194926410083,0.9935600094842306
2014-07-07,-1,-0.0004287556062235491,-0.0003230303266858717,-0.007862871570164116,0.0009955194926410083,0.9940840881382983
2014-07-09,-1,-0.0014887513984876983,-0.0012272165301043072,-0.004838901283426336,0.001627124848436429,0.9949035659954835
2014-07-11,-1,-0.0019267272910564888,-0.0015997871053031586,-0.003974413090405331,0.001627124848436429,0.9946536493598273
2014-07-15,-1,-0.0020374726474734713,-0.0016925303709552707,-0.004838901283426336,0.002123960861683318,0.9943547730820427
2014-07-17,-1,-0.0025974958404233113,-0.0021802220952809254,-0.004838901283426336,0.002123960861683318,0.9944887828473888
2014-07-21,-1,-0.0026748510509118765,-0.0022379297576456793,-0.004838901283426336,0.002464270309152768,0.9938856923920609
2014-07-23,-1,-0.0024023595283279788,-0.002027588095224129,-0.004649027396560619,0.0019174632334068192,0.994565752515945
2014-07-25,-1,-0.0026667344812575503,-0.0022776665885483743,-0.003970624609692782,0.002464270309152768,0.9939365835856514
2014-07-29,-1,-0.0023272973502753,-0.002010292457625574,-0.004649027396560619,0.0037264181107163332,0.9932660176282796
2014-07-31,-1,-0.002548277178249479,-0.0022111451312171806,-0.003390798473336927,0.0037264181107163332,0.9931635128835432
2014-08-04,-1,-0.0023909242751194303,-0.002079027322181608,-0.004015392040415528,0.0025419412219609347,0.9932762859313974
2014-08-06,-1,-0.0026738350687296047,-0.0022997044428805,-0.005274541870916629,0.0025419412219609347,0.9932494684343747
2014-08-08,-1,-0.0019293627244657574,-0.0016511707896686126,-0.005274541870916629,0.0019174632334068192,0.9941546741395382
2014-08-12,-1,-0.0021245414593160975,-0.0018223532325948345,-0.005274541870916629,0.0017349642592261298,0.9942659383470941
2014-08-14,-1,-0.0026822963586536045,-0.0023314547880465,-0.004049046094689724,0.0014961243696439547,0.9954323790281372
2014-08-18,-1,-0.002131259455928761,-0.0018429909396471106,-0.004049046094689724,0.0017349642592261298,0.9955732898930588
2014-08-20,-1,-0.002109536174166659,-0.0018328630388336968,-0.0038166611000294117,0.0032576370943356277,0.994965859345381
2014-08-22,-1,-0.00187548530964938,-0.0016793576552773274,-0.0038166611000294117,0.0020241900320712995,0.9956337243208977
2014-08-26,-1,-0.0019062449271495,-0.0017218217730064537,-0.0038166611000294117,0.0020241900320712995,0.9958972410419407
2014-08-28,-1,-0.0021076083177057102,-0.0018858708863552381,-0.004141611991651941,0.0020241900320712995,0.9957417913710194
2014-09-02,-1,-0.0015114316183587955,-0.0014032295730549166,-0.005240576178545113,0.0020241900320712995,0.9956240764489982
2014-09-04,-1,-0.0019989388333682854,-0.001812595430232409,-0.005103238121447793,0.002227379802751083,0.9956339749797424
2014-09-08,-1,-0.0018871480696872013,-0.0017238192517401844,-0.005103238121447793,0.005427455132097791,0.9950339703761161
2014-09-10,-1,-0.0017843545647875428,-0.0016511443717338245,-0.005103238121447793,0.0058655813296852825,0.992932307485531
2014-09-12,-1,-0.0017272397920480593,-0.0016061171828073307,-0.005103238121447793,0.0058655813296852825,0.9930493082793175
2014-09-16,-1,-0.0010550764164219133,-0.0010257582233273973,-0.005103238121447793,0.007134569783871094,0.9915477670032372
2014-09-18,-1,-0.0006672788900333196,-0.0006659847535609718,-0.005503783031797674,0.0058196917239241265,0.9915183615066552
2014-09-22,-1,-0.0006202188397045219,-0.0005993431395266272,-0.006346837801133253,0.0058196917239241265,0.9908113134582948
2014-09-24,-1,-0.0005662407762075952,-0.0005454179193653468,-0.006346837801133253,0.007135971032773619,0.9901580051510124
2014-09-26,-1,-0.0007874297308846237,-0.0007755391395481804,-0.005503783031797674,0.008274329664650342,0.9894187971836268
2014-09-30,-1,-0.0006888607002732986,-0.000660080757809218,-0.006409143031870715,0.008897082446910941,0.9888456417787389
2014-10-02,-1,-0.0007650924288641584,-0.0007523390709511606,-0.005607040999313706,0.008897082446910941,0.9889471645415281
2014-10-06,-1,-0.0005849996388670407,-0.0005800404532970847,-0.007118944352409864,0.008894968033274931,0.989204962406428
2014-10-08,-1,-0.0010906149774412915,-0.0010324534849074972,-0.005548772991874106,0.007135971032773619,0.9912007015186286
2014-10-10,-1,-0.0014475613515823546,-0.0013328673405481933,-0.005548772991874106,0.010294913906964081,0.9890417771269725
2014-10-14,-1,-8.134858819614725e-05,-2.686563877663038e-05,-0.005548772991874106,0.007602619657336669,0.9912019251148847
2014-10-16,1,4.90847935911203e-05,0.00014029010388332534,-0.005548772991874106,0.006260644612970575,0.9914608839870102
2014-10-20,-1,-0.0004970178306344755,-0.0004706781480719864,-0.004546252134474691,0.006260644612970575,0.9921332897538916
2014-10-22,1,1.455715421557586e-05,0.00011230377327480092,-0.005548772991874106,0.005107928704475034,0.992514513694098
2014-10-24,1,0.0006906954699467229,0.0008734816508233515,-0.00676274037522048,0.005107928704475034,0.9921235580079671
2014-10-28,1,0.001014420836144397,0.0012699224599211436,-0.005548772991874106,0.005017644872208089,0.9927947655241782
2014-10-30,1,0.0009916924697005525,0.0012459388064031854,-0.00676274037522048,0.005017644872208089,0.9922899911243499
2014-11-03,1,0.0006338708986789615,0.0008037731836125928,-0.008362488437692472,0.005258504227574207,0.990439772008617
2014-11-05,1,0.0006625662594600254,0.0008369429994667466,-0.008362488437692472,0.006682071632870582,0.9895695982015003
2014-11-07,1,0.001959195782688236,0.002320720310646382,-0.009128608227742186,0.0036058486558761117,0.9906614130805138
2014-11-11,1,0.0020980220285502236,0.0024965432219189237,-0.009361953151788888,0.004331231921130618,0.9898494948189155
2014-11-13,1,0.0015904667065906584,0.0018970718573756485,-0.010188495193185355,0.00521871910912493,0.989554378767248
2014-11-17,1,0.0013832523915978199,0.0016596192770200716,-0.010188495193185355,0.005410000369027212,0.9894375502676003
2014-11-19,1,0.0013133452773402858,0.001586109772830858,-0.009314198069253606,0.0094378738951318,0.9894100563999876
2014-11-21,1,0.0015406896423021065,0.0018401291744604886,-0.00735136448508152,0.006944404281717151,0.9907611288043137
2014-11-25,1,0.001889861203377382,0.0022461735532221874,-0.00735136448508152,0.007323602747512164,0.9903948864940799
2014-11-28,1,0.0012586416065470448,0.0015008604351177575,-0.006561699788727321,0.007323602747512164,0.9908645548075228
2014-12-02,1,0.0016828103104328772,0.0019689168754149903,-0.0069591480583510515,0.006380560230924615,0.9922303108804652
2014-12-04,1,0.0020806500608312466,0.0024199227956309263,-0.008137548789062199,0.005591201623515021,0.9922388318431755
2014-12-08,1,0.0017120232646274298,0.0019825150507041278,-0.007739978058457338,0.005591201623515021,0.9920618947732923
2014-12-10,1,0.0013089944769097642,0.0015293155270261717,-0.007739978058457338,0.006380560230924615,0.9921082495495313
2014-12-12,1,0.0009271709206517419,0.0010933906765761853,-0.006756591822602043,0.006380560230924615,0.9929010456259441
2014-12-16,1,0.0011456206902453853,0.001315621966356422,-0.006756591822602043,0.006787143424326433,0.9929229168340415
2014-12-18,1,0.001590180891330707,0.0018109244400713836,-0.006756591822602043,0.005425469300155705,0.993468684362293
2014-12-22,1,0.0016483238969638445,0.001860639983071065,-0.006756591822602043,0.005993853502035438,0.992515552546648
2014-12-24,1,0.0015985942088804117,0.0018052997726134487,-0.007739978058457338,0.005296567057192646,0.9924123865753747
2014-12-29,1,0.0013788338652830417,0.0015575693885546203,-0.010050641164238778,0.005296567057192646,0.9903953463392072
2014-12-31,1,0.0011469336748849996,0.0013215353638872268,-0.00871367399584598,0.006021238229642243,0.9903432078129348
2015-01-05,1,0.0004915340542112505,0.0005703835248192559,-0.008341549202028387,0.009553667078970842,0.9896760674751764
2015-01-07,-1,-0.0001052040402405491,-8.013410791668283e-05,-0.003846572924898169,0.009553667078970842,0.9899170239577579
2015-01-09,1,0.0001877186195351922,0.00021953440759430674,-0.0020443153752824194,0.007233360703510793,0.991020377765164
2015-01-13,1,0.0002181279927664355,0.0002496417204412037,-0.0020226358515660916,0.007233360703510793,0.9912446079552979
2015-01-15,1,0.00041399948005248167,0.0004513611570661745,-0.0020226358515660916,0.006518475605423596,0.9913605588327293
2015-01-20,1,0.0002635443624611827,0.00026830492143075724,-0.0017402865307949893,0.009553871373000854,0.9898538948280775
2015-01-22,1,0.0008594764846136646,0.0009397077694445168,-0.0037815343537491854,0.007585388524422693,0.9902825550786426
2015-01-26,1,0.0005022375797195046,0.0005290471688973894,-0.0037815343537491854,0.007585388524422693,0.9898925740785544
2015-01-28,-1,-0.0008745320496130276,-0.0007259966225574403,-0.0017402865307949893,0.007585388524422693,0.991554647127385
2015-01-30,-1,-0.0007365978388894685,-0.0006002880550376213,-0.0017402865307949893,0.006518475605423596,0.9922272186436588
2015-02-03,1,0.00014242957941104908,0.0001930231551965829,-0.0028869328131862345,0.00515014175289643,0.993768490166824
2015-02-05,1,0.00021494513970936232,0.00026002442662353644,-0.0028869328131862345,0.004988481427486429,0.9938948009513681
2015-02-09,1,0.00028110122731729234,0.0003037257929531443,-0.0051921195753838936,0.00583471192970114,0.9924871248539485
2015-02-11,1,0.00040152611186231805,0.0004124572858035129,-0.006858924622085278,0.00583471192970114,0.9921519458179727
2015-02-13,1,0.0006106344374440242,0.0006402436983245775,-0.00782666974938792,0.0031638876022089613,0.9921203423070195
2015-02-18,1,0.0012708343718461758,0.0013855184874508233,-0.00782666974938792,0.0031638876022089613,0.9928975314028443
2015-02-20,1,0.0009593326765973077,0.0010137685317411055,-0.00782666974938792,0.0031638876022089613,0.992615807780717
2015-02-24,1,0.0004927524454341329,0.0005155296454025643,-0.00782666974938792,0.0024252008541469318,0.993175148702022
2015-02-26,1,0.00024045321345171776,0.000300081739609811,-0.00782666974938792,0.0024252008541469318,0.9932777416295308
2015-03-02,1,0.00033102636081591203,0.000366610905968969,-0.00782666974938792,0.0024252008541469318,0.9928274632766404
2015-03-04,-1,-0.00023901661783197866,-0.00011161847096037347,-0.00782666974938792,0.0006716309045257013,0.9930737344654289
2015-03-06,-1,-0.00046170537095835575,-0.00029972449289100185,-0.00782666974938792,0.0046742439143166205,0.9927586115649001
2015-03-10,1,0.00033193008698358855,0.0003501606156630344,-0.006916273382378939,0.0028505721859181394,0.9936052465522535
2015-03-12,0,-1.7736475793845804e-05,4.86048544229812e-05,-0.006354801827983843,0.005969783763723847,0.9935185269557066
2015-03-16,-1,-0.0007854114879570696,-0.0005973010390778001,-0.006354801827983843,0.005969783763723847,0.9936310092104044
2015-03-18,-1,-0.000555792682293085,-0.00041107519341099317,-0.006354801827983843,0.005969783763723847,0.993236752284443
2015-03-20,-1,-0.0002446504216828024,-0.00016637872457286084,-0.006354801827983843,0.005969783763723847,0.9928739928715488
2015-03-24,-1,-0.0005126486685358977,-0.0004022301561337738,-0.006354801827983843,0.005969783763723847,0.9929187653781182
2015-03-26,-1,-0.0007485133115382994,-0.0006055970705937377,-0.006354801827983843,0.005969783763723847,0.9927634829983933
2015-03-30,-1,-0.0006295504660365685,-0.0004956946775820377,-0.0050257158059167,0.0057896568808890455,0.993380050136635
2015-04-01,-1,-0.0010257079615337218,-0.0008426512635306048,-0.0028124700167870185,0.006874765045120677,0.9928299729793395
2015-04-06,1,7.774424417995225e-06,9.735867866521032e-06,-0.004725671795374912,0.007065381251355744,0.9926916136563528
2015-04-08,-1,-0.00023532285659273093,-0.00020171817644228963,-0.004725671795374912,0.007065381251355744,0.992559520790269
2015-04-10,-1,-3.9855624306996444e-05,-1.3924635487494019e-05,-0.004725671795374912,0.006390124404628222,0.9929108500573119
2015-04-14,-1,-0.000536552846938676,-0.00044237396985479947,-0.004725671795374912,0.007827242546374888,0.9924962053566407
2015-04-16,-1,-0.0003181666882377073,-0.00024240984177847878,-0.004202075660769418,0.007827242546374888,0.9925006291156782
2015-04-20,-1,-0.00019798514020033715,-0.00014834243228146888,-0.004202075660769418,0.006390124404628222,0.9923992382383784
2015-04-22,-1,-0.00031857629640814943,-0.00026449273816664463,-0.0026379379719185204,0.006390124404628222,0.9929344005835894
2015-04-24,-1,-0.0004768828346799173,-0.000385579137459114,-0.0025427978726321587,0.007827242546374888,0.990875551388446
2015-04-28,0,-7.57489203795172e-06,2.440743367840984e-06,-0.0025427978726321587,0.007827242546374888,0.9907012170281235
2015-04-30,1,0.0005684237702941488,0.0006525141896040411,-0.004202075660769418,0.00553834759398906,0.9911496939954365
2015-05-04,1,0.0005435969601174749,0.0006128798114136329,-0.004836713288658558,0.0049640682659496775,0.9912792533661424
2015-05-06,1,0.0001277475762897707,0.0001327554475990476,-0.004836713288658558,0.0049640682659496775,0.9912355372480233
2015-05-08,-1,-9.917171575575857e-05,-5.205583957505706e-05,-0.0062355237726516985,0.0049640682659496775,0.9911487274492186
2015-05-12,1,0.00023141670978883884,0.0002421074635326376,-0.0030090680339632057,0.0049640682659496775,0.9915489030155828
2015-05-14,1,0.0008546514197380994,0.0009727119516042138,-0.005976500894013629,0.0033839521196385816,0.9921045225261858
2015-05-18,1,0.00024530399747785725,0.00029293240706781216,-0.004168960241857475,0.0033839521196385816,0.9934519496192249
2015-05-20,1,0.00020646776963329687,0.00024950423132824774,-0.004168960241857475,0.004050670267741374,0.9933474998270566
2015-05-22,1,0.0012241120172775371,0.0013997346485791775,-0.004168960241857475,0.00312730325158386,0.995355933414889
2015-05-27,1,0.0011831810806624673,0.0013280243834883263,-0.004168960241857475,0.0028487855524744346,0.995636452655407
2015-05-29,1,0.0007084664824531695,0.0007610736093702594,-0.001729579446198998,0.003032768049457283,0.994804463244075
2015-06-02,1,0.0003039684711159709,0.00032047776176016444,-0.001729579446198998,0.003510415793306922,0.9935053887136693
2015-06-04,1,8.042681683242527e-05,0.00012296732864394266,-0.001729579446198998,0.003510415793306922,0.9934562498565849
2015-06-08,0,-5.506004019422827e-06,4.621924469945475e-05,-0.001729579446198998,0.004702791049084435,0.9930969834003065
2015-06-10,1,0.0004681455194646348,0.0004914141919335327,-0.005060551037898683,0.003510415793306922,0.9928995228865662
2015-06-12,1,0.00033094072948096576,0.00033335779445496037,-0.0038636436231524935,0.006855137655209093,0.9925103176797826
2015-06-16,1,0.0004962959885620496,0.0005534727943910398,-0.0014297054205414405,0.006855137655209093,0.99276502147336
2015-06-18,1,0.0004412877129221061,0.0004749309234716988,-0.0038797961740303735,0.00766984928349496,0.9923507444603432
2015-06-22,1,5.675046557728137e-05,0.00012834434318640422,-0.007467772952360732,0.006855137655209093,0.9920934590795618
2015-06-24,1,0.0002124651717755499,0.00026102975541249414,-0.007824631216820338,0.006855137655209093,0.9911214966406565
2015-06-26,1,0.001253582889697141,0.0013895261350554493,-0.008897843071105752,0.0029134541821446893,0.9911253340474724
2015-06-30,1,0.0013789517047283254,0.001537355838421743,-0.008286958915152326,0.006855137655209093,0.9917927880662537
2015-07-02,1,0.0011513098930716278,0.0012745824779114082,-0.007824631216820338,0.00766984928349496,0.991734138972544
2015-07-07,1,0.0010684843960624686,0.0011764802774666362,-0.008052542880291341,0.007095886941426272,0.9916254007873906
2015-07-09,1,0.0007899990033099205,0.0008777447932305953,-0.007467772952360732,0.009127987770464419,0.9914156234917227
2015-07-13,1,0.0015932868612427561,0.001827836956418986,-0.007467772952360732,0.009127987770464419,0.9914193359289346
2015-07-15,1,0.0014948932808007478,0.0017092874798736173,-0.009071588029088891,0.009127987770464419,0.9895348388508567
2015-07-17,1,0.0014770306794939718,0.0016738445109409064,-0.009071588029088891,0.011637886239891846,0.9891920789388545
2015-07-21,1,0.0010588870069162377,0.001194010078504349,-0.009071588029088891,0.011637886239891846,0.989811539716624
2015-07-23,1,0.00047645046282981983,0.0005308575835703618,-0.009988825788597201,0.011637886239891846,0.9893703585552832
2015-07-27,-1,-0.00023005207890572775,-0.00018066433078171065,-0.012735161663850438,0.011637886239891846,0.9851308266977333
2015-07-29,1,0.0005211124975600183,0.0005635096369337347,-0.015982661992468384,0.004795212016288665,0.9838654166028061
2015-07-31,1,0.000898260298249543,0.0010037942637532529,-0.015982661992468384,0.00529104437443384,0.9837277693202582
2015-08-04,1,0.0002980448604706129,0.00030725572842660634,-0.0206136474358427,0.00529104437443384,0.9831130068484307
2015-08-06,1,0.0007908075837676043,0.0008449904849838481,-0.0206136474358427,0.004398793287736855,0.9837302550998194
2015-08-10,1,0.0011424543342529142,0.0012456962940438701,-0.02104127948370392,0.00438722774923608,0.9827218163919554
2015-08-12,1,6.945355643411232e-05,0.00010802773454809683,-0.0206136474358427,0.007150327672524577,0.9841780321291935
2015-08-14,1,0.00010354231106865261,0.00015115443123442414,-0.0206136474358427,0.00564034734808765,0.9843405794262958
2015-08-18,-1,-0.0001949616932654333,-0.00010173863821031937,-0.0206136474358427,0.007150327672524577,0.9835375226161899
2015-08-20,-1,-0.0012044861700428395,-0.001001088203140208,-0.013681803384766704,0.007150327672524577,0.9842627745160943
2015-08-24,-1,-0.004818863298348913,-0.0041778428506759075,-0.010447155284918741,0.007150327672524577,0.989436662696745
2015-08-26,-1,-0.004485564928070398,-0.003898933480236851,-0.011126420304009906,0.00564034734808765,0.9902656068234951
2015-08-28,-1,-0.003892566022145779,-0.003369394634960973,-0.012128458640799691,0.0033061994036045796,0.98992744650064
2015-09-01,-1,-0.004426522285233079,-0.003863833092011398,-0.011126420304009906,0.005227670358428383,0.9905509280668534
2015-09-03,-1,-0.0042229227809360975,-0.003667601070179648,-0.012128458640799691,0.005227670358428383,0.9903566665077725
2015-09-08,-1,-0.004477762148983893,-0.003909843365467471,-0.011126420304009906,0.005227670358428383,0.9883447626778024
2015-09-10,-1,-0.004449887317079052,-0.00388715318910399,-0.011126420304009906,0.0055036109840706105,0.9870297599605132
2015-09-14,-1,-0.004760837370185392,-0.004149983848243954,-0.01328695606335672,0.005305409983814056,0.9866999090463744
2015-09-16,-1,-0.003986376606361995,-0.003472803071207553,-0.014689822742187527,0.0034960333638091173,0.9870879533031102
2015-09-18,-1,-0.004519011629829529,-0.003954983173019113,-0.014689822742187527,0.0034960333638091173,0.9876450066653627
2015-09-22,-1,-0.004309693014447729,-0.0038024551407969485,-0.014689822742187527,0.0052533209938021895,0.9870161904388285
2015-09-24,-1,-0.0053742548616935665,-0.004753986102419369,-0.009550394250491553,0.005580562890192031,0.9858908199619145
2015-09-28,-1,-0.006404837541183863,-0.005653674757509997,-0.009550394250491553,0.006634904981498855,0.9846970018433637
2015-09-30,-1,-0.006212152450020739,-0.005488023011412802,-0.013390351231958907,0.009863904090454147,0.9828378821879691
2015-10-02,-1,-0.006062614771142176,-0.005372046262921993,-0.009958216460975439,0.0071696787266404705,0.983750539101912
2015-10-06,-1,-0.003296893615419762,-0.002967153021935087,-0.009958216460975439,0.0071696787266404705,0.9860942487067161
2015-10-08,-1,-0.0028074729883071125,-0.00248439201785646,-0.013726353183018026,0.003934829611723962,0.9871607014772907
2015-10-12,-1,-0.0038338033823556612,-0.0033904785507249246,-0.010830770750712952,0.003934829611723962,0.9877504258674166
2015-10-14,-1,-0.003778947252862252,-0.003432870978001055,-0.010743697001865246,0.003934829611723962,0.9878925732112731
2015-10-16,-1,-0.0034775267495358742,-0.0031932776653391653,-0.016082794805687448,0.007013411756604871,0.9859626720499777
2015-10-20,-1,-0.0032026300084917496,-0.0029442817955314614,-0.016082794805687448,0.00541976746814867,0.9858619289911097
2015-10-22,-1,-0.0017899148570563374,-0.0016847463535275037,-0.016082794805687448,0.006666114267127258,0.9866568275023305
2015-10-26,-1,-0.0026773303980710986,-0.0024571851317644598,-0.013134213799208393,0.006028555835835373,0.9881915552109796
2015-10-28,-1,-0.0019653287057500115,-0.0018352529476279994,-0.011689795504205054,0.00784333502503509,0.9870524394551131
2015-10-30,-1,-0.0017906203883206204,-0.0017047594897182424,-0.011689795504205054,0.00784333502503509,0.9865832603650083
2015-11-03,-1,-0.0009850588770684697,-0.0009785762465564054,-0.011689795504205054,0.006353252649756017,0.9882549835741664
2015-11-05,-1,-0.0016557073484768522,-0.0015802884568445008,-0.011689795504205054,0.00784333502503509,0.9876877319744667
2015-11-09,-1,-0.0021522603064174604,-0.0020337038368880723,-0.011412851329788358,0.00784333502503509,0.9881159278890793
2015-11-11,-1,-0.0022953081718374074,-0.0021851552297681032,-0.008901302524059388,0.00784333502503509,0.9884809671516549
2015-11-13,-1,-0.0021096535166816614,-0.002037075393152745,-0.008901302524059388,0.00784333502503509,0.9885691051349911
2015-11-17,-1,-0.0017631520324272094,-0.0017343022049412147,-0.008901302524059388,0.010359086837585163,0.987613435733639
2015-11-19,-1,-0.0009056240243635106,-0.0007369399148334088,-0.011890631773841587,0.008446411543709507,0.9867310387447324
2015-11-23,-1,-0.0009285363256187882,-0.0007709773611345547,-0.011777215113578075,0.013244989644679727,0.9858695369253855
2015-11-25,1,0.0016345096437489358,0.002139141922354058,-0.011777215113578075,0.010445018791484094,0.9878216192404795
2015-11-30,1,0.0013110327515571266,0.001744474706814451,-0.011051486866744543,0.010445018791484094,0.9878452384967068
2015-12-02,1,0.001710770264809518,0.002241775514421574,-0.013705545108209968,0.010445018791484094,0.98701824220697
2015-12-04,1,0.0020680988348295275,0.0026597393786329917,-0.011773308849743773,0.006805134748727265,0.9879260274566348
2015-12-08,1,0.0021999556331492257,0.002826112937359545,-0.012396853182672325,0.006805134748727265,0.9871106774172181
2015-12-10,1,0.0018315150695248927,0.00238435776916606,-0.01599584922310835,0.006805134748727265,0.9868052599952134
2015-12-14,1,0.0017489585190994393,0.0022498919370155593,-0.01599584922310835,0.00541138706513842,0.9877365194235632
2015-12-16,1,0.0012078382155268005,0.0015993669099094712,-0.012396853182672325,0.005214203489753297,0.9889278484731222
2015-12-18,1,0.0004531888997735803,0.000806370287816708,-0.009371582991122986,0.005214203489753297,0.9904213055130501
2015-12-22,1,0.0020214541587852916,0.0026130165170961043,-0.009371582991122986,0.005214203489753297,0.9899761781450139
2015-12-24,1,0.0023775018132072617,0.0029837281769210674,-0.010615256224898662,0.005214203489753297,0.9880945376947178
2015-12-29,1,0.0025653327927805574,0.003260275097819313,-0.009579431102099169,0.00541138706513842,0.988342456242546
2015-12-31,1,0.0024453813031431572,0.003161796671061183,-0.008898188465641232,0.007913872834702972,0.9879531834348817
2016-01-05,1,0.002091573557855623,0.0026911636566227036,-0.009579431102099169,0.011923144612895257,0.9863864797423917
2016-01-07,1,0.0017846361215400034,0.0023707814864158865,-0.007147837899473661,0.014735674218538409,0.9852985872573082
2016-01-11,1,0.0015687929677466953,0.002127838692765555,-0.007147837899473661,0.014735674218538409,0.9848660035874905
2016-01-13,1,0.0007312755024226098,0.0011146664633405413,-0.008692266215581338,0.014735674218538409,0.9847302421902165
2016-01-15,-1,-0.0012436740882688846,-0.0011578513970119325,-0.008692266215581338,0.020165363628712272,0.982910882748815
2016-01-20,-1,-0.001581916970198498,-0.0014711209964782868,-0.009665245980042795,0.02063242495403959,0.9818535748179261
2016-01-22,1,8.994163841511392e-05,0.0002169199833170125,-0.01306579929323238,0.01983118195419015,0.9810310356532292
2016-01-26,-1,-0.0008027170055105825,-0.000762771470479374,-0.01306579929323238,0.01983118195419015,0.9819898282880035
2016-01-28,1,7.922589776608683e-05,0.00017976920197979436,-0.01306579929323238,0.01983118195419015,0.9824635837002488
2016-02-01,1,0.0008236788698918533,0.001003433144417061,-0.01306579929323238,0.018555252210257445,0.9831876566030122
2016-02-03,1,0.0002580453328767621,0.00036390024295707276,-0.009665245980042795,0.01983118195419015,0.9835038944199351
2016-02-05,1,0.0015412542014784348,0.0018072527519710166,-0.009665245980042795,0.018555252210257445,0.9851306012610613
2016-02-09,1,0.001782015113850811,0.002122825241782881,-0.01047461554748172,0.018555252210257445,0.9850316938645645
2016-02-11,1,0.0006863032067768041,0.0008375562056122316,-0.008376035267139278,0.018555252210257445,0.9850995575049663
2016-02-16,1,0.0019987656296228565,0.0023052224948375824,-0.013322866058818675,0.011753356448847322,0.9859529578228834
2016-02-18,1,0.001469259625994958,0.0016223472027689383,-0.010560304469343817,0.011753356448847322,0.98616434842575
2016-02-22,1,7.631990196231287e-05,0.00015488902254342344,-0.008376035267139278,0.010022894978952625,0.9884499896913643
2016-02-24,1,0.0003753146768116192,0.0004158640064925079,-0.008376035267139278,0.009505576836836917,0.9892967035135211
2016-02-26,1,0.0003542578318856627,0.0004103479752212633,-0.008376035267139278,0.009505576836836917,0.9893118882594584
2016-03-01,1,0.00222466242497149,0.00254293943165984,-0.008376035267139278,0.009423872414178209,0.989616231736956
2016-03-03,1,0.003911983809156056,0.004518008291190862,-0.010560304469343817,0.004816994837323813,0.9878498566738491
2016-03-07,1,0.004044228921955426,0.004598821070554971,-0.010560304469343817,0.001376871883662211,0.9877583701980096
2016-03-09,1,0.002375727045089215,0.002647618712172454,-0.007869343204462132,0.0025671533485483898,0.9902866690995507
2016-03-11,1,0.0021664729079214225,0.0023990038262117854,-0.007527316635160568,0.0018397776923956043,0.9905995540636656
2016-03-15,1,0.001208661662027201,0.0013218055918916855,-0.0066079405074640305,0.0036910577095650224,0.9909153908405467
2016-03-17,1,0.0028307061506360003,0.0032359811742575725,-0.007359354427634109,0.0018397776923956043,0.9906602686085985
2016-03-21,1,0.0021941166156491075,0.002465832075150578,-0.007359354427634109,0.0036910577095650224,0.9886316156879259
2016-03-23,1,0.0017642177591088686,0.0020162967383249852,-0.007359354427634109,0.00589248241423764,0.9881026687350076
2016-03-28,1,0.0012138330054034883,0.0013657713225741258,-0.0066079405074640305,0.00589248241423764,0.988307199678871
2016-03-30,1,0.001545993338188655,0.0017836952608970065,-0.0066079405074640305,0.011586632153265506,0.9875564268848964
2016-04-01,-1,-0.0004963652658392224,-0.00042945206075904914,-0.005367217034119324,0.011586632153265506,0.9890411010534249
2016-04-05,-1,-0.001218615937848378,-0.0010266385345120447,-0.005367217034119324,0.011586632153265506,0.9888459382552953
2016-04-07,-1,-0.0015322767061524667,-0.001274420233777052,-0.009454958596137613,0.011586632153265506,0.9879433937019819
2016-04-11,-1,-0.0019329653919718753,-0.0016168943065197187,-0.01028685954803774,0.011586632153265506,0.9877066768168391
2016-04-13,-1,-0.0008533910799212825,-0.0006405726471311566,-0.01028685954803774,0.011586632153265506,0.9874786790791358
2016-04-15,-1,-0.0010796694591739611,-0.0008671301826402465,-0.01058941836387971,0.011586632153265506,0.9868752254286725
2016-04-19,1,0.0011541133183687155,0.001197589630568476,-0.01058941836387971,0.005373045136925016,0.9891073560404432
2016-04-21,1,0.0026081447554045156,0.0029899164465280285,-0.009545598010372146,0.003004507759087739,0.9901062242213358
2016-04-25,1,0.002276515927435009,0.0026007089614028837,-0.01058941836387971,0.003004507759087739,0.9878592020083312
2016-04-27,1,0.00311412372286852,0.0035398177780569477,-0.01058941836387971,0.003004507759087739,0.987183944869666
2016-04-29,1,0.0028548622283347275,0.003250440868337044,-0.01058941836387971,0.003004507759087739,0.9876853168875359
2016-05-03,1,0.002364825026783972,0.002683405984362529,-0.008078975310447269,0.0075898793428843675,0.9873932950836819
2016-05-05,1,0.0012540755570726906,0.0014064226589199941,-0.004463377151012756,0.014261664473444388,0.9873312642557123
2016-05-09,1,0.001016492728848249,0.0011452423824899174,-0.003109272956453406,0.015628076533384244,0.9867567465130618
2016-05-11,1,0.0021612747299605134,0.0024188175734718223,-0.003109272956453406,0.014261664473444388,0.9884941975489298
2016-05-13,1,0.000693565908894524,0.0007173771761480463,-0.004123387251943451,0.014261664473444388,0.9884001833955527
2016-05-17,1,0.0015302439625239223,0.0016821072376479258,-0.0038399093574036773,0.011717167220985822,0.9889659767218735
2016-05-19,1,0.00137675652751136,0.0015376719742731504,-0.0026620122108771647,0.011717167220985822,0.989157368841178
2016-05-23,-1,-0.0008684512911477428,-0.0007206568105623669,-0.0029894731052034643,0.011717167220985822,0.990691245506061
2016-05-25,0,-3.8579572792504194e-05,4.60806591758102e-05,-0.0029894731052034643,0.0075062052711283534,0.9919766880163026
2016-05-27,0,-4.0253381021826987e-05,3.8870615318746624e-05,-0.004255940927536886,0.0075062052711283534,0.9900657824888582
2016-06-01,1,0.00048192003861075234,0.0005398967376234596,-0.004255940927536886,0.005788736506812889,0.9908021218377243
2016-06-03,1,0.0012783174981981387,0.0012905728618753552,-0.005017157953822758,0.0020527812647462675,0.991618079865313
2016-06-07,1,0.0015464177441015222,0.0015626128698011587,-0.007812150300481456,0.0020527812647462675,0.9914688744083686
2016-06-09,1,0.0011736316663724094,0.0012140111484893155,-0.007812150300481456,0.0035112976634742417,0.9908905585932338
2016-06-13,0,-9.501599888288553e-05,0.00012556160675287337,-0.005017157953822758,0.003944263011492466,0.991379143686297
2016-06-15,1,0.00028775800797015496,0.0004074622595839798,-0.005017157953822758,0.00696304557058018,0.9909119224221543
2016-06-17,1,0.00031469627066746245,0.0004617531644595562,-0.005017157953822758,0.0053245272525556915,0.9911863263543077
2016-06-21,-1,-0.0003417962783111567,-0.00014329394945208657,-0.005495152891568412,0.0053245272525556915,0.99172926357227
2016-06-23,1,0.00021614628399713257,0.00030699722514531617,-0.006791890311238394,0.0053245272525556915,0.9903562416557791
2016-06-27,-1,-0.002055722361816445,-0.0016602367141415294,-0.005994872353542051,0.00696304557058018,0.9906220965050087
2016-06-29,-1,-0.0007321062602003856,-0.000565541306248072,-0.006719795509557128,0.0053245272525556915,0.9907625557424576
2016-07-01,-1,-0.0011556777066597927,-0.00093211876897862,-0.006719795509557128,0.0053245272525556915,0.9908609953334877
2016-07-06,-1,-0.0023599670086969634,-0.0019549344454947047,-0.006083687656778521,0.0068765433040212515,0.9916077072323408
2016-07-08,-1,-0.0006963538354245571,-0.0005641350774555437,-0.006719795509557128,0.006843368064948492,0.9918727465435302
2016-07-12,1,0.00010104376720888823,0.00012762862853962867,-0.006719795509557128,0.006764776536113637,0.9922676374852538
2016-07-14,1,6.005978935647163e-05,0.00014201354130215078,-0.0069084149704532515,0.00132534198348676,0.9924352269452954
2016-07-18,1,0.00022814935028729507,0.0002765878012495771,-0.007163214585877126,0.0019473967239043459,0.9912827278915707
2016-07-20,-1,-0.00017834957372911842,-9.148285485497681e-05,-0.007762336978646257,0.0019473967239043459,0.9915256682275414
2016-07-22,-1,-0.0010381967296426368,-0.0008866155900032031,-0.00694693018083333,0.0074822404714907104,0.9880609804821143
2016-07-26,-1,-0.000851720247841399,-0.000785265215525899,-0.006455281726019971,0.007347929458681424,0.989506925488507
2016-07-28,-1,-0.0006223831870154089,-0.0006100013257493427,-0.006565891738081315,0.007347929458681424,0.9895433201847414
2016-08-01,-1,-0.0015571535535385595,-0.0013995890666555874,-0.006565891738081315,0.007347929458681424,0.9894779220244235
2016-08-03,-1,-0.001189963812244646,-0.0010753930356318297,-0.008007644697584226,0.0034752008977680096,0.9887168414193902
2016-08-05,-1,-0.0018221930510696847,-0.0015785157564984823,-0.009254831089983036,0.0031389718824861206,0.9887342903201402
2016-08-09,-1,-0.0007388906212806373,-0.0006828891102446233,-0.009254831089983036,0.0028921127267473204,0.9883746887452955
2016-08-11,-1,-0.0012652114825475462,-0.0011413584611185,-0.009866630618867576,0.0028921127267473204,0.9880642773238028
2016-08-15,-1,-0.0016035483764559625,-0.001395901264199524,-0.009866630618867576,0.0028921127267473204,0.9879359093111119
2016-08-17,-1,-0.002237727524620035,-0.0019402248570151762,-0.008661208052918853,0.0052438627690126575,0.9874880252009689
2016-08-19,1,0.0015333967651578525,0.001693877399478749,-0.008661208052918853,0.004373834306220981,0.9918012843250731
2016-08-23,1,0.0007793331788647714,0.0008180555842826956,-0.008661208052918853,0.004537528284352037,0.9917065256170161
2016-08-25,1,0.00010852331053533634,0.00024057627841628812,-0.01026440462942753,0.0052438627690126575,0.9911446804574002
2016-08-29,-1,-0.00017284717590505805,-6.292346214156817e-06,-0.01026440462942753,0.0052438627690126575,0.9911266779242389
2016-08-31,-1,-0.0015716165211873809,-0.001226401337289848,-0.006359058120451981,0.006246550810340297,0.9916848079890666
2016-09-02,-1,-0.0010348464611293622,-0.0008198662939144858,-0.005580845751828928,0.007889257989280925,0.9915720988704438
2016-09-07,-1,-0.00144035647366589,-0.0011504565250913764,-0.006359058120451981,0.007889257989280925,0.9914263494023876
2016-09-09,-1,-0.000838533130840684,-0.0007394195546487187,-0.0036366393153512864,0.010804282246899277,0.9916409930110691
2016-09-13,-1,-0.0011957668648151776,-0.0010670589066401751,-0.003308607264767914,0.0120121057976113,0.9922920411960873
2016-09-15,-1,-0.0009992874184863213,-0.0008860706578382933,-0.003308607264767914,0.008235155877078543,0.9930062873450534
2016-09-19,-1,-0.00010837932941054742,-5.742606308792696e-05,-0.003308607264767914,0.008235155877078543,0.9934588806227423
2016-09-21,1,0.00020157474297574572,0.0002798341055588842,-0.003308607264767914,0.006679553719067159,0.9939786468161462
2016-09-23,1,0.00019526162399700146,0.0002556657570113359,-0.003308607264767914,0.00402681663992244,0.9946696100967233
2016-09-27,-1,-0.0005035398621307254,-0.0004247970529489252,-0.0022408746241938267,0.00402681663992244,0.994762603874123
2016-09-29,-1,-0.00031107001798496745,-0.00023953471016656508,-0.0014667684544900086,0.00402681663992244,0.9952314001430954
2016-10-03,1,0.0011694648867569529,0.0013732942592447712,-0.0014667684544900086,0.00402681663992244,0.9956468189384516
2016-10-05,1,0.0007553087391288201,0.000867690049780591,-0.0014667684544900086,0.0032719506953236494,0.9960630178877223
2016-10-07,1,0.0014056915109582338,0.0016229889742418262,-0.0021516790948871824,0.0022464705704858356,0.9963668747952545
2016-10-11,1,0.001447097375003814,0.0016435681906359534,-0.0014667684544900086,0.0022464705704858356,0.9967481715482994
2016-10-13,0,-1.7698556988949394e-05,8.401640001722373e-05,-0.0004890109464273232,0.004289685227700083,0.9962426969411016
2016-10-17,1,0.0007018888992668681,0.0007510181426450863,-0.0004890109464273232,0.005783600293172175,0.9959967666687087
2016-10-19,1,0.0006807329632558484,0.0007252396062076007,-0.0008637090429858781,0.005783600293172175,0.9958276729700479
2016-10-21,1,0.0011688565603156298,0.001339215335504494,-0.0001991799991540437,0.005783600293172175,0.9961357445471853
2016-10-25,1,0.0018254657135129337,0.002154440405200502,-0.0001991799991540437,0.005783600293172175,0.9962434204703037
2016-10-27,1,0.0018228534834337157,0.002163588502630055,-2.8095888287833566e-05,0.0075792762561558156,0.9909806779114417
2016-10-31,1,0.002224691639004417,0.002614416783365443,-0.002463266151462226,0.005917923201398417,0.9896188525800799
2016-11-02,1,0.0018955523518769354,0.0022098957235169234,-0.0018006048822366233,0.0075792762561558156,0.9885992734342623
2016-11-04,1,0.0017443180335521764,0.0020278499344752515,-0.0023372019502499054,0.0075792762561558156,0.9879508623647479
2016-11-08,1,0.0022156587229107847,0.002583654133397577,-0.0023372019502499054,0.007946461350696255,0.9880179878155299
2016-11-10,1,0.0023777807188151623,0.0027292303610323794,-0.0029505785990165878,0.006857356500319252,0.9880671139187958
2016-11-14,1,0.002664542644592748,0.0030563013075618085,-0.005689441332075993,0.006850256386927472,0.98693167544928
2016-11-16,1,0.001891691764951612,0.002103353227265178,-0.00843381135489546,0.008916429090413586,0.9866131419433404
2016-11-18,1,0.002190140524441031,0.0024577216928867575,-0.00843381135489546,0.008916429090413586,0.986612757914877
2016-11-22,1,0.0020018452856310383,0.0022281738178604018,-0.00843381135489546,0.01076476124745876,0.9860049500903217
2016-11-25,1,0.004821161666461062,0.005383128306854816,-0.00843381135489546,0.0057247954304716474,0.9904884521582107
2016-11-29,1,0.003967548018228297,0.004441418052629846,-0.00486375459222644,0.007786365869678581,0.9923866991127949
2016-12-01,1,0.004704816097669607,0.005300487152624796,-0.00486375459222644,0.005502420624813031,0.9927737909992543
2016-12-05,1,0.004380092247578013,0.004952015033694179,-0.0033441071511047513,0.008790627534615288,0.993254322656127
2016-12-07,1,0.004699110839973427,0.005310909783015986,-0.0045101501218645,0.008790627534615288,0.9928555446069219
2016-12-09,1,0.004566578301337323,0.005133782746281032,-0.00486375459222644,0.007786365869678581,0.9922898355726851
2016-12-13,1,0.003178973322327731,0.0035038962308126783,-0.0045101501218645,0.007976655770222366,0.9934262012963452
2016-12-15,1,0.0028668485960510965,0.0031186139711190763,-0.0045101501218645,0.007627421030867893,0.99325275714957
2016-12-19,1,0.0027299169734265605,0.00293947679674681,-0.0045101501218645,0.008019698661149828,0.992847946495959
2016-12-21,1,0.002666893870012018,0.002848662117120311,-0.0032493873024278196,0.008019698661149828,0.9930728874793976
2016-12-23,1,0.0025805752254230456,0.0027557699355397966,-0.0032493873024278196,0.008019698661149828,0.9931584850774398
2016-12-28,1,0.002448922421392683,0.002599076178576633,-0.0031338267273184673,0.008019698661149828,0.9933758617339433
2016-12-30,1,0.002257611616747782,0.002385649355918387,-0.004094834264641402,0.008019698661149828,0.9930917817351165
2017-01-04,1,0.0026012074332282505,0.002747249884374362,-0.004094834264641402,0.005324600230949364,0.9941064780454173
2017-01-06,1,0.0025837272978975244,0.002725587612525392,-0.0031338267273184673,0.0051539578343866126,0.9946351590157553
2017-01-10,1,0.001780610660937377,0.0017902294202099649,-0.002372373855841972,0.005383316295873503,0.9950131874306524
2017-01-12,1,0.002020067356806555,0.0022331084634378963,-0.0005926335806287587,0.006040913905703721,0.9951667214328787
2017-01-17,1,0.0018417966039726294,0.00203764984855205,-0.0005926335806287587,0.005528986716015465,0.995549826755607
2017-01-19,1,0.001765030849622496,0.0019369603178381906,-0.0008745358936273268,0.0051539578343866126,0.9954744692992962
2017-01-23,1,0.0019194834899905248,0.0021047575340693413,-0.00340837901851127,0.0051539578343866126,0.9954909806951182
2017-01-25,1,0.0016514202856855122,0.0017694132500111525,-0.004480773515101807,0.004772885542906222,0.9946993877856536
2017-01-27,1,0.0015186213919472725,0.001602996893774886,-0.003909878844081028,0.006495744539869724,0.9944162927687518
2017-01-31,1,0.0012255961124053015,0.001266019886594034,-0.0009415232491436658,0.006960326243524639,0.994188406195911
2017-02-02,1,0.0009046224970307838,0.0009289434564951749,-0.003909878844081028,0.008210619818948616,0.9929360775324831
2017-02-06,1,0.0006745844327101962,0.0007394239291972878,-0.005556214228272276,0.008210619818948616,0.9928496753900967
2017-02-08,1,0.0006343797002642025,0.0007035507419196757,-0.006069083295195107,0.008210619818948616,0.9928336254286441
2017-02-10,1,0.0008490728141797232,0.0008924640107966556,-0.006069083295195107,0.005518141315785624,0.9933720682186558
2017-02-14,1,0.0007624036434026296,0.0008095140606396106,-0.006013340859831882,0.008210619818948616,0.9929163085366347
2017-02-16,1,0.000500200005227021,0.0005818550225032957,-0.005556214228272276,0.008210619818948616,0.9932245453612681
2017-02-21,1,0.0003723800810832709,0.00047731696206347997,-0.005584282096293079,0.004968299646462791,0.9932943108255258
2017-02-23,0,-7.777309304473246e-06,0.00013676404483852096,-0.003249847022356634,0.004968299646462791,0.9940585211220823
2017-02-27,1,0.00036738428900927496,0.00045877568442821026,-0.005584282096293079,0.002340471274571862,0.9936530098563561
2017-03-01,1,0.00047597751432939216,0.0005599058443179078,-0.005584282096293079,0.002340471274571862,0.9938001297113586
2017-03-03,1,0.0003995099869503361,0.0004795837814599913,-0.005119358838776294,0.002340471274571862,0.9945574447234957
2017-03-07,1,0.00026039557624243784,0.00035529200301985195,-0.003385042619279054,0.003300333679098367,0.9945360337694295
2017-03-09,0,-8.709847416637741e-05,6.18671862996637e-05,-0.0026064447710465065,0.004574594163194951,0.99447646934278
2017-03-13,-1,-0.00016446802012823103,-2.0105133924194947e-06,-0.003385042619279054,0.004574594163194951,0.9940271052268363
2017-03-15,0,-0.0001370951997662547,2.697348136266437e-05,-0.003385042619279054,0.004574594163194951,0.9935446424942331
2017-03-17,-1,-0.00037250302532656414,-0.00017304129133645125,-0.006301379632271381,0.006816015209423765,0.9927586752780432
2017-03-21,-1,-0.0006570975740446535,-0.0004220653817378693,-0.0035301821277132638,0.006816015209423765,0.993346339449896
2017-03-23,-1,-0.0007461963971321249,-0.0005027334853870724,-0.006301379632271381,0.006816015209423765,0.9927118001434898
2017-03-27,-1,-0.0011836417164937103,-0.0008923291070178425,-0.002887965471330234,0.00958666361738953,0.9911222843314921
2017-03-29,-1,-0.0011450550783534508,-0.0008519402313493532,-0.006512330938554245,0.007843425382485083,0.9909726715637245
2017-03-31,-1,-0.0011888781997760902,-0.0008821575027916532,-0.006512330938554245,0.006816015209423765,0.9911169400233742
2017-04-04,-1,-0.0010957218545836716,-0.0008026162656510429,-0.009501477157825018,0.005871461285208434,0.9910757434165762
2017-04-06,-1,-0.000797647938740072,-0.0005558961971899002,-0.009501477157825018,0.007965649592249626,0.9905816774204851
2017-04-10,-1,-0.0009547289527340669,-0.0007004999544312593,-0.006299064053027132,0.00866896697456726,0.9906115013482661
2017-04-12,-1,-0.0011820976495508914,-0.0008934645743731615,-0.004442113900741602,0.007641874791863269,0.9920592743820547
2017-04-17,-1,-0.0012973389804020624,-0.001000431093162668,-0.0034183020411514414,0.006661506497812675,0.9925685641326628
2017-04-19,-1,-0.0015575250293777413,-0.0012232022528915537,-0.004442113900741602,0.008455730627083718,0.9915579320782897
2017-04-21,-1,-0.0003506391753531577,-0.0002630155112886177,-0.00435287626671688,0.009000582333275707,0.9886393748973918
2017-04-25,1,0.00039593126661251015,0.00042300916298560067,-0.00435287626671688,0.007111096730708817,0.990637834353456
2017-04-27,1,0.00023361545874451935,0.00025688745330155896,-0.0029311235781113057,0.007111096730708817,0.9911164919135659
2017-05-01,1,0.00014050637977984983,0.00019240072961914146,-0.0034183020411514414,0.007111096730708817,0.9910992820706912
2017-05-03,1,4.254330297842005e-05,8.95234116882384e-05,-0.0029311235781113057,0.008455730627083718,0.9906483950065381
2017-05-05,1,0.0005279973870021644,0.0005468592617380979,-0.0029311235781113057,0.006250141349988646,0.9915023240180272
2017-05-09,1,0.0002714526232122417,0.000309712041515514,-0.0023882228333251725,0.005516727188617322,0.9918738586129614
2017-05-11,1,0.000175147745462363,0.00022649698097269394,-0.0023882228333251725,0.005775203649201328,0.9916305636910789
2017-05-15,1,0.0002676663322755266,0.0003010390290502996,-0.0008561602624054553,0.0054083690920100095,0.99194610208294
2017-05-17,1,0.00019388008499519616,0.0002291346058016,-0.0004162751121735362,0.003918660604092668,0.9929854963271584
2017-05-19,1,0.0014970652861409613,0.0016258700310787574,-0.0004162751121735362,0.003918660604092668,0.9962254183411954
2017-05-23,1,0.0016441527556407445,0.0017909906351865233,-0.0023882228333251725,0.0033405906472420296,0.995549945806476
2017-05-25,1,0.0015744361004960314,0.0017020376607228688,-0.0027546447561139463,0.0030386752617573808,0.9953247876736372
2017-05-30,1,0.0017051139010705828,0.0018796436375304103,-0.0034543096710705295,0.0022727410832105712,0.9948359099597109
2017-06-01,1,0.0021357808445478647,0.0023696848433907825,-0.0071794620262578615,0.0022727410832105712,0.9942387653877297
2017-06-05,1,0.0019826444637229003,0.002172416219000749,-0.0071794620262578615,0.003916700489013544,0.9933810850935555
2017-06-07,1,0.0019098352263028492,0.0020882640865411504,-0.0071794620262578615,0.005318281266626417,0.9931694297680995
2017-06-09,1,0.0018367974904741377,0.001989868058526822,-0.0071794620262578615,0.011214248589030442,0.992479765523648
2017-06-13,1,0.0018807741656502958,0.0020425408426235176,-0.007399941402935062,0.011214248589030442,0.9906330358012762
2017-06-15,1,0.0022002694612579315,0.0024183242489982,-0.007399941402935062,0.011214248589030442,0.9902513323544744
2017-06-19,1,0.0022952729508485263,0.0025336978283794134,-0.007399941402935062,0.009080419710828467,0.9911162252579369
2017-06-21,1,0.0017644678856658165,0.0019271089306650202,-0.004450665915521156,0.009080419710828467,0.9918018162432997
2017-06-23,1,0.001321649865568301,0.001409061886384184,-0.002532121962908506,0.009080419710828467,0.9920881418646197
2017-06-27,1,0.0009609961940431086,0.001001487412016153,-0.0006246243271436289,0.010751813918433599,0.9921446677218028
2017-06-29,1,0.0009234578985746618,0.0009635601826429177,0.0007396268979691561,0.008996313746293304,0.9930174539820834
2017-07-03,1,0.001459559151470653,0.001570679739351214,-0.0006246243271436289,0.006674521624546934,0.993852426321037
2017-07-06,1,0.0015896095641467832,0.0017383579076835963,-0.00038865461536750825,0.006674521624546934,0.9941536303935429
2017-07-10,1,0.002038547649892723,0.0022399516763371525,-0.00038865461536750825,0.005080112960324457,0.9951897549865795
2017-07-12,1,0.0009747820145757885,0.0010188026725502018,0.0015124815606382797,0.005916968820568427,0.9959759276178372
2017-07-14,1,0.0014056811810108506,0.0015029339141621276,-0.00038894749693794235,0.004294514316279789,0.9946098996304398
2017-07-18,1,0.001114810067959238,0.0011488147685459974,-0.001690919302654202,0.005080112960324457,0.9933470427321794
2017-07-20,1,0.0010977867826216401,0.0011509935354836352,-0.004465244564945162,0.005080112960324457,0.9923629005053188
2017-07-24,1,0.0012649873022324805,0.0013644560080638144,-0.007163736605008454,0.004294514316279789,0.9895658750795278
2017-07-26,1,0.001332650123432789,0.0014331501616639528,-0.008530907018693488,0.004294514316279789,0.9892867515810078
2017-07-28,1,0.0013506328991257002,0.0014424297231693537,-0.008696778552964846,0.003626001610810333,0.9889676752169775
2017-08-01,1,0.0011892298812018046,0.0012478645405294463,-0.008696778552964846,0.0030818074888798418,0.9893905182402141
2017-08-03,1,0.001187947302038087,0.001245861742263642,-0.008696778552964846,0.0030818074888798418,0.9892513932872443
2017-08-07,1,0.0012326985275011525,0.0013038437427224997,-0.008696778552964846,0.0030818074888798418,0.9889462690943034
2017-08-09,1,0.001479028608000838,0.0015741290896831865,-0.008696778552964846,0.0022248101559979652,0.9894029919163289
2017-08-11,1,0.00029954314936706244,0.00036574068970503774,-0.00721902711643224,0.004200111266506329,0.9912572898006874
2017-08-15,1,0.0002627853892270013,0.0003382003243277068,-0.005944566057522664,0.003551181609226215,0.9921940063131561
2017-08-17,-1,-0.0007882046871593592,-0.0005599901945886923,-0.005359545470060824,0.005379807847168466,0.9926805511234512
2017-08-21,-1,-0.0022232037248208153,-0.0018356165803688632,-0.0013156308715525666,0.006327950257690546,0.993230501027004
2017-08-23,-1,-0.002290627638211044,-0.0018960897649100458,0.0005526551674008549,0.006789330945678348,0.993132527474868
