JNU-Tangyin/eata/results/Batch4_SP500/Batch4_SP500-MMM.csv
Date,Action,Predicted_Q25,Predicted_Q75,Actual_Q25,Actual_Q75,RL_Reward
2010-12-14,0,0.0,3.4741964845851027e-05,-0.002595123398278834,0.006376186893842252,0.9955956187408881
2010-12-16,1,0.00033601492258090673,0.00039888193228378383,-0.0028006548091654327,0.005819619946611997,0.995507450800536
2010-12-20,1,0.0004891768975598756,0.0005627654054909798,-0.0028006548091654327,0.0030663096110604797,0.9959391950367026
2010-12-22,1,0.0005708944879242817,0.0006714865943618418,-0.002595123398278834,0.005819619946611997,0.9958166319156044
2010-12-27,1,0.000686734325938469,0.0008106994742190111,-0.002595123398278834,0.005950855899039738,0.9946902362659135
2010-12-29,1,0.0006711604171182405,0.0007742526929884215,-0.002595123398278834,0.00769881900253799,0.9940925351019336
2010-12-31,1,0.0005172980376350271,0.0005978767365149908,-0.002592272107962111,0.00769881900253799,0.9931625793865355
2011-01-04,1,0.0001584865043273105,0.00016791762958998487,-0.002592272107962111,0.00769881900253799,0.9932951659808161
2011-01-06,-1,-0.00020930376853170706,-0.00014358349462205707,-0.0016194915514256762,0.00769881900253799,0.9932515720685996
2011-01-10,-1,-0.00020395960971611235,-0.00013908723664051757,-0.0016194915514256762,0.006992051928768688,0.99317332993593
2011-01-12,0,-3.889522005410035e-05,4.0725552699344246e-05,-0.002412907342305035,0.0061619974540690434,0.9931883585281872
2011-01-14,-1,-0.00037245988140044477,-0.00023922472165143437,-0.0016194915514256762,0.008627750723544068,0.992715344391219
2011-01-19,-1,-0.0003782037887770781,-0.000245016734671527,-0.0007113788168153191,0.008627750723544068,0.9925707320690124
2011-01-21,-1,-0.0006041724722495318,-0.0003376979295200398,-0.0007113788168153191,0.0061619974540690434,0.9929608236846273
2011-01-25,-1,-0.0007178236568559809,-0.00047300066241511745,-0.001990189835161994,0.005532860976363319,0.9930817693135333
2011-01-27,1,0.000399107168351219,0.0004471423031870715,-0.0017459970961397973,0.004621584474590459,0.9938727048381545
2011-01-31,0,0.0,0.0,-0.0017459970961397973,0.004665015966311336,0.9929342741128345
2011-02-02,-1,-0.0002710248339599063,-0.00018350384108468772,0.00017903418569878947,0.00812063540816699,0.9916802602583734
2011-02-04,1,2.7763258504284613e-05,6.956324986966989e-05,-0.0027924239764473987,0.00812063540816699,0.9916570264493629
2011-02-08,1,0.00044721326669358206,0.00045998155729867063,-0.004190423194614621,0.010782821649498574,0.9913920559584387
2011-02-10,1,0.001170772736587961,0.0013258947398491444,-0.006310080194975373,0.010782821649498574,0.9900227979441243
2011-02-14,1,0.0014726806062919226,0.0016496185913146986,-0.007591949796690441,0.005625969915323101,0.989451371939941
2011-02-16,1,0.0015925968485383868,0.0017900974984649996,-0.011920157018817396,0.010385509274946242,0.9878828632188915
2011-02-18,1,0.0017652484581245247,0.001984509485534333,-0.011920157018817396,0.013418435731618265,0.9869874010772546
2011-02-23,0,0.0,0.0,-0.006500356699421858,0.014926915501041894,0.9873921639085572
2011-02-25,0,0.0,0.0,-0.006500356699421858,0.014926915501041894,0.987239511148916
2011-03-01,0,0.0,0.0,-0.006250111699398677,0.013418435731618265,0.9887861956211974
2011-03-03,1,0.0029058390420231084,0.0033254773737739296,-0.006250111699398677,0.011609331604648125,0.9894415266245967
2011-03-07,1,0.0023869700035769404,0.0027054628680253925,-0.004535645578309103,0.011609331604648125,0.9894503219810296
2011-03-09,1,0.0020243338578573907,0.0023110801466625546,-0.003964261146186114,0.008646550472756427,0.9900963399300982
2011-03-11,1,0.0016178328759954932,0.0018618943323702405,-0.003964261146186114,0.006061134984413104,0.992126975801875
2011-03-15,1,0.0008703025011478321,0.0010109911738236973,-0.0035006956778367414,0.0066203509037339155,0.9923283189112004
2011-03-17,1,0.0007837003971349476,0.0009326002472931205,-0.002898700202042961,0.005662644448192907,0.9938288092004203
2011-03-21,1,0.0015431343537858832,0.0017932783985062594,-0.0035006956778367414,0.005347606790956531,0.9940100157949132
2011-03-23,1,0.0010018881936772167,0.0010691023308734093,-0.0035006956778367414,0.005347606790956531,0.9938239395489885
2011-03-25,1,0.0007404506939993284,0.0007456298885156183,-0.002991661593011294,0.005347606790956531,0.9940944146674318
2011-03-29,1,0.00108495609024221,0.0011624989724531225,-0.002991661593011294,0.005488247643290437,0.9934928853134191
2011-03-31,1,0.001419167978139435,0.0015611685692748871,-0.001635838639027048,0.005488247643290437,0.993909821538382
2011-04-04,1,0.001190456746205978,0.0012766370071399884,-0.001635838639027048,0.005359615292494332,0.9940070712966956
2011-04-06,1,0.0014022641097538049,0.0015386110552500424,-0.0038640058097272356,0.005359615292494332,0.9932683169114624
2011-04-08,1,0.0010530769288787472,0.001134899002521763,-0.0017141992328751825,0.0056986699528063095,0.9932540249543981
2011-04-12,1,0.00020334016313340307,0.00027548815753264427,-0.002218131248033107,0.005359615292494332,0.9938972743218419
2011-04-14,1,0.0005738980708102255,0.000586710967005343,-0.00293352880524504,0.005934187578725277,0.9932367843058489
2011-04-18,-1,-0.0004288855525212032,-0.0002648593251603373,-0.003669581617669794,0.005934187578725277,0.9929829992046322
2011-04-20,1,0.0005677981845376062,0.0006043142352980932,-0.003669581617669794,0.005934187578725277,0.9937267800107307
2011-04-25,1,0.00047970269392010967,0.0005418274060497543,-0.006535180008078804,0.005934187578725277,0.9926642618234517
2011-04-27,1,0.0017877341257782108,0.0019442842032595092,-0.006535180008078804,0.00485060140927151,0.9927128720217008
2011-04-29,1,0.0020034010500090756,0.0021922169163677823,-0.006535180008078804,0.004810323087121593,0.9927579319765718
2011-05-03,1,0.0011932820283468105,0.001228057978514464,-0.00782549578952419,0.0070430959047398396,0.9913231575127216
2011-05-05,1,0.0003104922298949073,0.0003980671018708092,-0.0070437854480139015,0.0070430959047398396,0.9920465522060601
2011-05-09,1,0.000934523577456658,0.0009491158452391373,-0.0070437854480139015,0.0036542222771981116,0.9922342139921698
2011-05-11,1,0.000781528217503304,0.0007841715801209555,-0.0070437854480139015,0.007209276422635194,0.9920511786126752
2011-05-13,1,0.0009991130863379162,0.0010490958443821084,-0.009091377341709086,0.006462483909601217,0.9919746992241275
2011-05-17,1,1.436687153251573e-05,9.768483807864081e-05,-0.009091377341709086,0.007209276422635194,0.9916159713949456
2011-05-19,1,0.00029141660005410066,0.00033934081212619825,-0.009091377341709086,0.006462483909601217,0.9916811040765394
2011-05-23,-1,-0.0006473218336315642,-0.00048210719396898585,-0.002067021891365769,0.007996132302608656,0.9917330577447584
2011-05-25,-1,-0.0007590476064303597,-0.0005692375183880922,-0.005403473237961936,0.007376755782472842,0.9918629547635447
2011-05-27,-1,-0.00046854946416757955,-0.00031712200949732586,-0.007134656806992223,0.008723762406107246,0.9908735053671067
2011-06-01,-1,-0.001428820739809797,-0.0011512531353828495,-0.005403473237961936,0.008384777905013378,0.9921274607511219
2011-06-03,-1,-0.0015245080708969458,-0.0012537716624139573,-0.001900715759229113,0.009936962279146878,0.9904944458102163
2011-06-07,-1,-0.0011667390690728717,-0.000964368237157786,-0.005088365813035829,0.011468682269448058,0.9899919385347417
2011-06-09,-1,-0.0009154854693775513,-0.0007308523860235006,-0.005088365813035829,0.009909911808164574,0.9902220766566765
2011-06-13,-1,-0.0012175772476704385,-0.0009949936945486161,-0.005797664467811708,0.009909911808164574,0.9903569934355092
2011-06-15,-1,-0.0010593450906265743,-0.0008780576189205261,-0.005797664467811708,0.008723762406107246,0.9911077874348133
2011-06-17,-1,-0.0009801380466006233,-0.0007933213816578906,-0.006817804271857653,0.008723762406107246,0.990919726712744
2011-06-21,-1,-0.0002604409034953594,-0.0001690214134413423,-0.006817804271857653,0.007717136797882899,0.9916766877508132
2011-06-23,-1,-0.0009993622474870909,-0.0007973553334622522,-0.0058724819970793285,0.009120543259099416,0.9911548049662372
2011-06-27,-1,-0.001130369653574478,-0.0009071114832458965,-0.0058724819970793285,0.007717136797882899,0.9899475512429902
2011-06-29,-1,-0.0007078718829350902,-0.0005469080088652222,-0.007559902384605972,0.005746026965957753,0.9892003162188943
2011-07-01,1,0.0006681572538069905,0.0006888510773101434,-0.007559902384605972,0.0006492248676767942,0.9900590863534288
2011-07-06,1,0.0009417612480446251,0.0010154094611998091,-0.009549250091750793,0.0006492248676767942,0.9893921223850725
2011-07-08,1,0.0011603647147967913,0.0012894193511410368,-0.01128867770581358,0.0006492248676767942,0.9872869000684639
2011-07-12,1,0.0006264309266332199,0.0006928531377336702,-0.013756215632191579,0.0037146863251076435,0.9834999873547973
2011-07-14,1,0.000430079812820432,0.00047983316649044343,-0.018108195747111953,0.005450139886309932,0.9798930372613097
2011-07-18,-1,-8.357109420886611e-05,-3.0134251979296525e-05,-0.018108195747111953,0.009664583744916785,0.9795447842898469
2011-07-20,-1,-0.00022086590198050878,-0.0001505224802565385,-0.018108195747111953,0.009664583744916785,0.9783880541783382
2011-07-22,1,9.53110889233726e-05,0.0001293825602663155,-0.026271364091994022,0.007074956164098642,0.9768974725468564
2011-07-26,-1,-0.0010572612444605684,-0.000921753096875199,-0.018108195747111953,0.009664583744916785,0.9781804440161682
2011-07-28,-1,-0.0018461261742841759,-0.0016134573618977097,-0.01950410312848509,0.009664583744916785,0.9778447722721868
2011-08-01,-1,-0.002031039041393317,-0.0017891082709544114,-0.01950410312848509,0.01800827028275331,0.9755826701065525
2011-08-03,0,0.0,0.0,-0.017497001475328414,0.01800827028275331,0.9764306908391881
2011-08-05,0,0.0,0.0,-0.018921318166895452,0.01800827028275331,0.9768100694906101
2011-08-09,0,0.0,0.0,-0.01613125793052329,0.01800827028275331,0.9794193038849577
2011-08-11,1,1.0,1.0,-0.01632185117865682,0.012379142803426446,0.499337894218342
2011-08-15,-1,-0.001009493397670564,-0.0009049116774222522,-0.01632185117865682,0.01343678245447003,0.9816575615192175
2011-08-17,0,0.0,0.0,-0.01632185117865682,0.020599163837670395,0.981133208253394
2011-08-19,-1,-0.0036274335735343244,-0.0032049069933345114,-0.016292193315240466,0.020599163837670395,0.9824180424351973
2011-08-23,-1,-0.002998375476453794,-0.002661472131744001,-0.016421061251386752,0.01635552224534666,0.9827753452169142
2011-08-25,-1,-0.0027192370319461985,-0.002420576102758083,-0.016421061251386752,0.01635552224534666,0.9815235313230528
2011-08-29,0,0.0,0.0,-0.016421061251386752,0.014958902170234172,0.9823671978709317
2011-08-31,0,0.0,0.0,-0.019305703803473465,0.014958902170234172,0.9806179857712123
2011-09-02,0,0.0,0.0,-0.020525953941451985,0.014958902170234172,0.980399732247653
2011-09-07,1,0.002424585964893598,0.004300692361463147,-0.020525953941451985,0.014958902170234172,0.9822425870440746
2011-09-09,-1,-0.005255780303122078,-0.004776378017321271,-0.0130823953453639,0.015041421229256459,0.9814364685872721
2011-09-13,-1,-0.004671913096656666,-0.004250575219447238,-0.0130823953453639,0.015041421229256459,0.9806106423267109
2011-09-15,-1,-0.0015417224246368324,-0.00141561205533296,-0.0130823953453639,0.015020530153771122,0.9814124726308089
2011-09-19,-1,-0.0029385329381565258,-0.0027725199615945078,-0.017767975109487015,0.015020530153771122,0.9795210218259205
2011-09-21,-1,-0.004183249449944644,-0.003899030885592697,-0.01133378132843875,0.015474346442283602,0.9792158251894154
2011-09-23,-1,-0.005375137354780408,-0.0049544840704191595,-0.009096677857658083,0.017883231945078158,0.9797365863368966
2011-09-27,-1,-0.004093739242738157,-0.003786958140686105,-0.01133378132843875,0.021561795500559273,0.9778848458601569
2011-09-29,-1,-0.0045111880375850386,-0.0041926641893919835,-0.009096677857658083,0.02350465210787793,0.9769596732916398
2011-10-03,-1,-0.0066268846945823695,-0.00606227236413268,-0.0074655319029614245,0.02350465210787793,0.9772762259893923
2011-10-05,-1,-0.004957459853499923,-0.004612489307638859,-0.009096677857658083,0.02350465210787793,0.9768457834086972
2011-10-07,-1,-0.004359483749387549,-0.004042679173840201,-0.0074655319029614245,0.021561795500559273,0.9776985689310934
2011-10-11,-1,-0.0020683532355931377,-0.002049074993196719,-0.0074655319029614245,0.021561795500559273,0.9781382767172614
2011-10-13,-1,-0.0016019975677127546,-0.0015897869261367024,-0.01242815494223702,0.020461453761159244,0.977326648232488
2011-10-17,0,0.0,0.0,-0.00593358672126087,0.021561795500559273,0.9786788712733112
2011-10-19,-1,-0.00020329794536979104,-0.000126475425232715,-0.005053180451307103,0.020461453761159244,0.9806570424171566
2011-10-21,0,0.0,0.0,-0.008225131302571891,0.020054324346455404,0.9814470735300455
2011-10-25,0,0.0,0.0,-0.00975502534151383,0.017529678748761504,0.9838528782532407
2011-10-27,0,0.0,0.0,-0.019302788686170084,0.010035001463404535,0.9848229832532548
2011-10-31,0,0.0,0.0,-0.00975502534151383,0.017529678748761504,0.9849403196198424
2011-11-02,0,0.0,0.0,-0.007640619618094369,0.017591858789698184,0.9846093581221654
2011-11-04,0,0.0,0.0,-0.007640619618094369,0.01517895197747152,0.9847604347479373
2011-11-08,0,0.0,0.0,-0.007640619618094369,0.014708635515969865,0.9854289874036855
2011-11-10,1,0.0010338947568821113,0.0013256306946385953,-0.007640619618094369,0.014708635515969865,0.9857652205425712
2011-11-14,1,0.0013270104437567414,0.0016410249502259752,-0.015378666095636893,0.009525033157058677,0.9853553655092634
2011-11-16,1,0.0013477817452966134,0.0016666089189272754,-0.015378666095636893,0.009525033157058677,0.984739097838289
2011-11-18,1,0.0010822201263697823,0.001383844565455406,-0.013645294992120164,0.009525033157058677,0.9849310311743804
2011-11-22,1,0.0008200304359353604,0.0011536482998612673,-0.011828474166423832,0.014708635515969865,0.9849974271375118
2011-11-25,1,0.0005432675078896424,0.0008574786756361412,-0.009681851014723077,0.014918382892037835,0.9855664130423527
2011-11-29,1,0.0010765286013953205,0.0014727397456502345,-0.011828474166423832,0.014708635515969865,0.9861774408815158
2011-12-01,1,0.0015551112387572265,0.001990090870937827,-0.011828474166423832,0.012761007361873212,0.9881888138485597
2011-12-05,1,0.001539145742691943,0.001971310540512375,-0.011828474166423832,0.012800659206717416,0.9879523771228745
2011-12-07,1,0.002053331698927851,0.0025510663525040982,-0.011828474166423832,0.011903703596782396,0.9879338226836194
2011-12-09,1,0.0020328878982109728,0.002526266807315505,-0.006681852249316643,0.009155852458153813,0.9898254320791495
2011-12-13,1,0.0013695188099244254,0.0018015880480002008,-0.004753745578336458,0.009155852458153813,0.9910918525931315
2011-12-15,1,0.0007882483845514208,0.0010791488160760733,-0.004753745578336458,0.009155852458153813,0.9910226862645309
2011-12-19,1,0.00015338254716078692,0.0003212690699044559,-0.004542553959772037,0.010436970715400326,0.9906675608363761
2011-12-21,1,0.0007376101646344508,0.0009705094455527477,-0.004542553959772037,0.008929068440753153,0.9924559522440923
2011-12-23,1,0.001376181509671869,0.0016850604726668876,-0.004542553959772037,0.007718080849714065,0.993423846880657
2011-12-28,1,0.0004798967148049818,0.0006291169960507303,-0.0024397280352993875,0.008343671182742566,0.9932322424433333
2011-12-30,1,0.0007097585294368419,0.0009561320691675366,-0.0024397280352993875,0.007718080849714065,0.9936457631545003
2012-01-04,1,0.0011933892850418456,0.0014767365248656338,-0.0024397280352993875,0.006645675054724021,0.9947371202505202
2012-01-06,1,0.0012012961163570864,0.0015199658213150675,-0.0014661327789240676,0.006645675054724021,0.99510018838858
2012-01-10,1,0.0011158363173326947,0.0013677000233727984,-0.0014661327789240676,0.006645675054724021,0.9953416038464754
2012-01-12,1,0.000495382091627265,0.000560510473805134,-0.0014661327789240676,0.006645675054724021,0.9952561987663269
2012-01-17,1,0.0010635935910684137,0.0012741425692400304,-0.0013706771823571455,0.006645675054724021,0.9955936808472483
2012-01-19,1,0.0012684627653201702,0.0014621398703773252,-0.0014661327789240676,0.004426797450127451,0.9954301761657346
2012-01-23,1,0.0016186620828170573,0.0018979407174447081,-0.0013706771823571455,0.004426797450127451,0.9954766658460984
2012-01-25,1,0.0020469744629879405,0.002397041372942209,-0.0013706771823571455,0.003515729840749729,0.9956298214578321
2012-01-27,1,0.001571875938164782,0.0017670939212149433,-0.0013975383646491974,0.0034175257034232535,0.9962291046639982
2012-01-31,1,0.0014360710899902164,0.0016297006913847246,-0.00158963378362796,0.0034175257034232535,0.9964288066165959
2012-02-02,1,0.0009390353382132285,0.0009860579048290691,-0.00158963378362796,0.0022231236777996693,0.9966473963131992
2012-02-06,1,0.0011419352475957089,0.0012420794420838458,-0.0023042487591254366,0.0016530710681263074,0.9952860136120196
2012-02-08,1,0.001589205199991945,0.0017988100240312554,-0.0023042487591254366,0.0022231236777996693,0.9944136539701153
2012-02-10,1,0.001078685244893907,0.001197233808170734,-0.00158963378362796,0.004090012436327466,0.9947646433413259
2012-02-14,1,0.0006826659539200554,0.00070564538742277,-0.00158963378362796,0.004090012436327466,0.9946168870579656
2012-02-16,-1,-0.00020612322698125598,-0.00016039577436998035,-0.00158963378362796,0.004090012436327466,0.9945563814800275
2012-02-21,1,4.798971460626203e-05,7.565019042544518e-05,-0.0023042487591254366,0.004090012436327466,0.9943549207389876
2012-02-23,-1,-7.757069872650839e-05,-5.030998842112816e-05,-0.003954572537377986,0.004090012436327466,0.9940798006311948
2012-02-27,-1,-0.0007667389017623464,-0.00045048370996764143,-0.003954572537377986,0.006456233929270673,0.9940415517030344
2012-02-29,-1,-0.00101049056987317,-0.0007779448921951806,-0.004481640071425543,0.006456233929270673,0.9937789875437245
2012-03-02,-1,-0.000835109366777425,-0.0006829942313052056,-0.004481640071425543,0.006456233929270673,0.9933293457843368
2012-03-06,-1,-0.0012986363237035147,-0.0011367927202302632,-0.003954572537377986,0.006456233929270673,0.9943174772567596
2012-03-08,-1,-0.0006878691848586003,-0.00047238490643318324,-0.004897786115036465,0.003952559201080651,0.9948295163622562
2012-03-12,-1,-0.0011589782625262466,-0.000962096542510883,-0.005320595084154762,0.00241183692656623,0.9939202636257619
2012-03-14,-1,-0.0006065656966139164,-0.0005081993555424704,-0.005320595084154762,0.003952559201080651,0.9932462867443066
2012-03-16,-1,-0.00016365782246213084,-0.00015186901546503366,-0.006801965914430248,0.003952559201080651,0.9929576611744253
2012-03-20,1,0.0005545343298713362,0.0005700889116232781,-0.006801965914430248,0.005582753085850007,0.9923554904764673
2012-03-22,0,0.0,0.0,-0.006801965914430248,0.007554306753794076,0.9923286409681968
2012-03-26,0,0.0,0.0,-0.006801965914430248,0.007946995972848862,0.9917919239231894
2012-03-28,1,9.46275466466552e-05,0.0001271808602937651,-0.005320595084154762,0.007946995972848862,0.9917509560470013
2012-03-30,0,0.0,0.0,-0.005320595084154762,0.007946995972848862,0.9921231620315449
2012-04-03,0,0.0,0.0,-0.004623005042356006,0.007946995972848862,0.9922007671867026
2012-04-05,0,0.0,0.0,-0.0038407792431797844,0.007946995972848862,0.9925790314015334
2012-04-10,0,0.0,0.0,-0.0038407792431797844,0.007946995972848862,0.9934904888463337
2012-04-12,0,0.0,0.0,-0.0038407792431797844,0.004091414024404577,0.9945714383286524
2012-04-16,0,0.0,0.0,-0.004148430925140206,0.0028901259930460455,0.9949072658879204
2012-04-18,0,0.0,0.0,-0.004696285307017346,0.001007314093880339,0.9954131605052965
2012-04-20,0,0.0,0.0,-0.0056956515698310395,0.00011195957138382543,0.9949153492530963
2012-04-24,0,0.0,0.0,-0.0056956515698310395,0.00011195957138382543,0.9951295413640338
2012-04-26,0,0.0,0.0,-0.0056956515698310395,0.00011195957138382543,0.9950935220026418
2012-04-30,0,0.0,0.0,-0.0056956515698310395,9.37244291259944e-05,0.9944448005326129
2012-05-02,0,0.0,0.0,-0.0075961149440876416,-0.0005553302201187997,0.993860414039194
2012-05-04,-1,-0.00039538001099901835,-0.000358724850630721,-0.008042726196498129,-0.0005553302201187997,0.9935158552397322
2012-05-08,-1,-0.0009103845232113395,-0.0007745739711826041,-0.006219883087438399,0.00017548108408145112,0.9929844884692098
2012-05-10,-1,-0.0011224208425748062,-0.0009392907275168787,-0.006219883087438399,0.006376948569161254,0.9923145730423328
2012-05-14,-1,-0.0014271015680014714,-0.0012016198528033838,-0.006143340391324205,0.008542969802075846,0.9916080465101159
2012-05-16,-1,-0.0013793324881939363,-0.0011829626759960218,-0.007572288706982028,0.008926718415311957,0.9910542795196536
2012-05-18,-1,-0.0013119415096247374,-0.001154562594615797,-0.0030588365819071736,0.008926718415311957,0.9915759477542135
2012-05-22,-1,-0.0013191939621756779,-0.0011403497936353054,-0.0028791188771484133,0.008091850831934247,0.991894815442529
2012-05-24,-1,-0.0009948567555941304,-0.0008581491355070929,-0.004120767310672948,0.007126974581927282,0.9919792145649587
2012-05-29,-1,-0.0006110139275840676,-0.0005275649357047696,-0.007501789905956227,0.006055323152492266,0.9918743319460441
2012-05-31,-1,-0.0011582097871401422,-0.000990226218772846,-0.004120767310672948,0.007126974581927282,0.9919633372349567
2012-06-04,-1,-0.0012767020517009415,-0.0011003222171344174,-0.0032841007292776286,0.008926718415311957,0.9913299365497203
2012-06-06,-1,-0.0006165869279138305,-0.0005212174669016083,-0.0032841007292776286,0.007126974581927282,0.9924382982579728
2012-06-08,-1,-0.000641257882830755,-0.0005359105852387326,-0.004297419631522281,0.0060503181860202294,0.992991265584452
2012-06-12,-1,-5.9435364424894296e-05,-4.717515452965889e-05,-0.0050182971073913125,0.004988530454784362,0.9937243037765451
2012-06-14,-1,-0.000414455528623946,-0.0003518418328643617,-0.0050182971073913125,0.004988530454784362,0.9930555016951634
2012-06-18,-1,-0.00014701453116887264,-0.00014553601620574086,-0.0050182971073913125,0.005827275321188644,0.9926136612081906
2012-06-20,0,-4.935700103231721e-06,6.685473493551524e-06,-0.0050182971073913125,0.006864131553934755,0.9919959035916611
2012-06-22,-1,-0.00023795183650105053,-0.00021291601113801212,-0.006606739012815929,0.006864131553934755,0.9917376289536682
2012-06-26,-1,-0.0002496977168639792,-0.00022771850265135187,-0.006606739012815929,0.006864131553934755,0.9915808656777302
2012-06-28,0,0.0,0.0,-0.006606739012815929,0.010582385228267802,0.9904793630534141
2012-07-02,0,0.0,0.0,-0.006606739012815929,0.006864131553934755,0.9917725736613194
2012-07-05,0,0.0,0.0,-0.00724583685671928,0.006864131553934755,0.9914551634497232
2012-07-09,0,0.0,0.0,-0.00724583685671928,0.010582385228267802,0.9907511660536791
2012-07-11,0,0.0,0.0,-0.00526670887170053,0.010582385228267802,0.9911723430942782
2012-07-13,0,0.0,0.0,-0.003543983941820404,0.008229280748137216,0.9922526075100259
2012-07-17,1,0.00041096547468825225,0.0004947300539859287,-0.003543983941820404,0.006245488585414499,0.9928719036966821
2012-07-19,1,0.0008727568336838616,0.0010212961230045595,-0.003543983941820404,0.006245488585414499,0.993203843200069
2012-07-23,1,0.000450146113089883,0.0005345740232819856,-0.0016022792274723629,0.006245488585414499,0.9936200969508349
2012-07-25,1,0.00027008557751533383,0.0003309165973693069,-0.0033002863922806823,0.005911128314499544,0.993843713656395
2012-07-27,1,0.00046465047888277387,0.0005044911509886103,-0.003957603343839789,0.0037128099834180975,0.9945718652837271
2012-07-31,1,0.0006120346356077995,0.0007058358554016201,-0.0033002863922806823,0.0037128099834180975,0.994540548712063
2012-08-02,1,0.000333602623101715,0.0004056932393686223,-0.0033002863922806823,0.0037128099834180975,0.9948201622813805
2012-08-06,0,0.0,0.0,-0.00420694738161881,0.0037128099834180975,0.994921363448861
2012-08-08,0,0.0,0.0,-0.00420694738161881,0.005911128314499544,0.9942534797626104
2012-08-10,1,0.0013325730343366877,0.00152779697131549,-0.0060751843920466685,0.003283620691861244,0.9931178213451273
2012-08-14,1,0.0010574896119300299,0.001208759771327738,-0.0060751843920466685,0.005379052617005568,0.9928378811722997
2012-08-16,1,0.0016530106620372964,0.0018848542148820254,-0.0060751843920466685,0.006424446311763518,0.99177317883484
2012-08-20,0,0.0,0.0,-0.0060751843920466685,0.006424446311763518,0.9921291986119289
2012-08-22,0,0.0,0.0,-0.00419435047781628,0.006424446311763518,0.9926341173694514
2012-08-24,0,0.0,0.0,-0.003949971964686738,0.005530589053376462,0.9929919798663585
2012-08-28,0,0.0,0.0,-0.00419824407566719,0.005530589053376462,0.9926730981847651
2012-08-30,1,0.000199648008655029,0.0002310445359339843,-0.004042757303755279,0.005530589053376462,0.9927598250753504
2012-09-04,1,0.0006935753523600972,0.000776418801268411,-0.003949971964686738,0.005530589053376462,0.9931528105184674
2012-09-06,1,0.0009426489086896894,0.0010317560393317952,-0.003949971964686738,0.005530589053376462,0.9935479197243116
2012-09-10,1,0.0001423140740994733,0.00014970664900142508,-0.0028721033805924993,0.005587287377674472,0.994431453737731
2012-09-12,1,0.0002928227311731676,0.0003098396878619017,-0.003787558510571294,0.005587287377674472,0.9938169589020116
2012-09-14,0,0.0,0.0,-0.004042757303755279,0.003089273206797417,0.9952093058646392
2012-09-18,0,0.0,0.0,-0.004042757303755279,0.004632946127428089,0.9947098821783473
2012-09-20,0,0.0,0.0,-0.004042757303755279,0.005587287377674472,0.9945012103361198
2012-09-24,0,0.0,0.0,-0.004514653798864562,0.004641387055488528,0.9938153891886151
2012-09-26,0,0.0,0.0,-0.004514653798864562,0.004641387055488528,0.9922025737978184
2012-09-28,1,0.00029543833407307603,0.0003097513053798445,-0.005258576702323024,0.004641387055488528,0.992098080243164
2012-10-02,1,0.0014263862011464738,0.0015418214090688206,-0.005303988705064858,0.004641387055488528,0.9913267772589658
2012-10-04,1,0.0013766680448789898,0.0014414884693143015,-0.005303988705064858,0.004641387055488528,0.9911408288216794
2012-10-08,1,0.0009699769059792501,0.0010111781046472517,-0.006677836747799032,0.0034178401669249705,0.9901521933450532
2012-10-10,-1,-0.00017630287534301133,-4.371766122762905e-05,-0.005303988705064858,0.003740871712006773,0.9910488652586051
2012-10-12,-1,-0.0003133903404096663,-0.00017411069213449002,-0.005303988705064858,0.004663444039424964,0.9910762449896908
2012-10-16,1,0.0002632139459460388,0.0003255217449027101,-0.007242919064499752,0.004663444039424964,0.990362758729379
2012-10-18,0,0.0,0.0,-0.007242919064499752,0.005860260205889039,0.9898675707705794
2012-10-22,0,0.0,0.0,-0.006245824432848521,0.005860260205889039,0.9906703024385076
2012-10-24,0,0.0,0.0,-0.005198647175328306,0.007343739035845647,0.9920328605831824
2012-10-26,0,0.0,0.0,-0.0035741064016445723,0.007343739035845647,0.9920210503746155
2012-11-01,-1,-0.0010046511152394574,-0.0008390130016202456,-0.0030937690520886655,0.00691920630319432,0.9928639333187016
2012-11-05,0,0.0,0.0,-0.0038445794717129464,0.005806326445524265,0.9929277402623485
2012-11-07,0,0.0,0.0,-0.002348262570253659,0.005806326445524265,0.9939717446886313
2012-11-09,-1,-0.0012517517665712242,-0.0010498448466447615,-0.0020211667582111428,0.00633428300744044,0.9939099853381093
2012-11-13,-1,-0.0012226122836394996,-0.0010213719373068403,-0.002348262570253659,0.006924363223542526,0.9929222338797571
2012-11-15,-1,-0.0015022707712751384,-0.0012606045124671427,-0.0025536132633550072,0.00633428300744044,0.9939429878362183
2012-11-19,-1,-0.0012539079982981948,-0.001034927781435963,-0.0025536132633550072,0.006924363223542526,0.9940082330938699
2012-11-21,0,0.0,0.0,-0.0025536132633550072,0.00735808603400641,0.9933580187187645
2012-11-26,0,0.0,0.0,-0.003803901414512732,0.006924363223542526,0.9936176952686564
2012-11-28,-1,-0.0002921820396458378,-0.00024219350928314628,-0.004959578909464332,0.00639337368815342,0.9938115146776682
2012-11-30,-1,-0.00013642667216425314,-9.5020062717969e-05,-0.006147854230752164,0.00735808603400641,0.9930889123648753
2012-12-04,-1,-0.0011726122649443,-0.0009701538031612319,-0.004959578909464332,0.008299168202757737,0.9924347104474127
2012-12-06,-1,-0.0009614078148112002,-0.000778329950230277,-0.004959578909464332,0.008299168202757737,0.9924713369343849
2012-12-10,0,0.0,0.0,-0.004959578909464332,0.008992976885118744,0.9924855991184128
2012-12-12,0,0.0,0.0,-0.005039087665683275,0.008299168202757737,0.9931955727183398
2012-12-14,0,0.0,0.0,-0.002120836352341425,0.00843543714716726,0.9931247619794051
2012-12-18,0,0.0,0.0,-0.002120836352341425,0.007622898319694235,0.9935607684698472
2012-12-20,0,0.0,0.0,-0.0011923719548773085,0.006895408642558258,0.993959364829398
2012-12-24,0,0.0,0.0,-0.00021158817806390083,0.006895408642558258,0.9943788825621402
2012-12-27,0,0.0,0.0,0.0010927876492728042,0.007622898319694235,0.9941851634848022
2012-12-31,0,0.0,0.0,0.0010927876492728042,0.007622898319694235,0.9941602627563879
2013-01-03,1,0.0008622441935294031,0.0009112875998824545,0.0010927876492728042,0.007622898319694235,0.9951535299905101
2013-01-07,1,0.0011590401158319621,0.0012686998175343695,0.0004735856159088671,0.007436029549605952,0.9949136525623526
2013-01-09,1,0.0012065975737854335,0.0013085922846808496,-0.00017264039316792817,0.007436029549605952,0.9945824268325487
2013-01-11,1,0.00145287518363422,0.001625138509284644,0.00034998812190410603,0.007436029549605952,0.9950501896521832
2013-01-15,1,0.0015726333096398887,0.001755857462360131,-0.0009122731098548942,0.007405122727418414,0.9947721533358869
2013-01-17,1,0.0014581704819152232,0.0016045085038589014,-0.0012033701414556643,0.007405122727418414,0.9947138916432197
2013-01-22,1,0.0018618820041914502,0.0020686651845078746,-0.0030043424052896483,0.00843980755115013,0.9942725537622134
2013-01-24,1,0.0016423566701178594,0.0017990455613970356,-0.004270740370953436,0.00843980755115013,0.9936725265631114
2013-01-28,1,0.0016944930086870476,0.0018444085312063067,-0.004882502252955088,0.008033522977376861,0.9929705445732496
2013-01-30,1,0.0016405641851540513,0.0017753375481965393,-0.004270740370953436,0.008033522977376861,0.9933759738480509
2013-02-01,1,0.0021844971390454233,0.0024289399604546557,-0.004613160459798753,0.007354462727840549,0.9935409948141551
2013-02-05,1,0.0019907022786481337,0.0021779234426087387,-0.004270740370953436,0.008033522977376861,0.993788010412518
2013-02-07,1,0.0017373155635193754,0.0018630805257781116,-0.002700850373798582,0.008033522977376861,0.9939352537729831
2013-02-11,1,0.002223531789083461,0.002474087845196767,-0.004307007174806585,0.008033522977376861,0.9937494183693789
2013-02-13,1,0.0023562322527177085,0.0026212146473912163,-0.002700850373798582,0.008199537416962914,0.9939778533591634
2013-02-15,1,0.002473557502418029,0.0027564335766426915,-0.004307007174806585,0.008199537416962914,0.9935927481163183
2013-02-20,1,0.0017690890364813433,0.001945529341181267,-0.002700850373798582,0.006123461876590517,0.9942082709696168
2013-02-22,1,0.0015957243091362812,0.0017193013905482848,-0.00283916827264912,0.0063401363157544344,0.9937477440723299
2013-02-26,1,0.00106023374046155,0.0011123527992949005,-0.00283916827264912,0.008630581266253467,0.993833468697247
2013-02-28,1,0.0015894190884855712,0.0017261404232799668,-0.005148124847039564,0.008630581266253467,0.99368468313
2013-03-04,1,0.0014417089352411119,0.001572884684050996,-0.006262820461075584,0.008630581266253467,0.9934755048077739
2013-03-06,1,0.0017464832927474591,0.001927434362336995,-0.0065235429225756845,0.008315415280899833,0.9934694777914806
2013-03-08,1,0.0015771479808468578,0.001689242313442152,-0.0065235429225756845,0.00548140061435849,0.9938876756853777
2013-03-12,1,0.001186716345659488,0.0012392354587112196,-0.006359746609567609,0.008315415280899833,0.9935813156306621
2013-03-14,1,0.001650917981450872,0.001794613914673361,-0.006359746609567609,0.005958739232905064,0.9935276625502518
2013-03-18,1,0.0013739815850165394,0.0014843513135421784,-0.006359746609567609,0.005958739232905064,0.9931137719760514
2013-03-20,1,0.0007617506317320944,0.0007675039837107004,-0.006437434505797172,0.005958739232905064,0.9927826396920151
2013-03-22,1,0.0009201164388056227,0.0009265976402375493,-0.006234117655482746,0.005638482618661183,0.9934979965317341
2013-03-26,1,0.0005148847671468386,0.0005609763157139228,-0.005501244994048607,0.005638482618661183,0.9936183295428208
2013-03-28,1,0.0009377819012095732,0.000996410930905052,-0.006234117655482746,0.0046523130605518395,0.992521352444766
2013-04-02,1,0.0009129670486259596,0.0009655994279301311,-0.005527140959458461,0.0046523130605518395,0.9928340268586434
2013-04-04,1,0.0004967691073487768,0.000523019031602512,-0.0048715727474451815,0.005638482618661183,0.992505623909073
2013-04-08,1,0.00032420014362941855,0.0003815043027019494,-0.0048715727474451815,0.007334089877199466,0.9917583840392972
2013-04-10,1,0.0009646485251636538,0.000980987628619081,-0.0048715727474451815,0.005638482618661183,0.992527837172305
2013-04-12,1,0.00026537486020545285,0.0003420350785154565,-0.0023310526824223505,0.007334089877199466,0.9920052854497128
2013-04-16,1,0.00021134239842593523,0.0002871425536245157,-0.0003124822612226471,0.007334089877199466,0.9930174398064311
2013-04-18,0,-0.0001054893992961176,2.198764166482642e-05,0.00015892029383247352,0.008290310579360465,0.9928476544267151
2013-04-22,1,0.00015953709003257424,0.0002397795336682449,0.00015892029383247352,0.008290310579360465,0.9930655084927029
2013-04-24,1,0.0007555977727262503,0.0007589356196206005,-0.0003124822612226471,0.005878152531659453,0.993439207985727
2013-04-26,1,0.0003362929186392277,0.0003999825371668339,-0.0002475004351473721,0.005878152531659453,0.9950405359917621
2013-04-30,1,0.0005211125976261417,0.0005704369361533763,-0.0013330464434032111,0.005878152531659453,0.994675843320619
2013-05-02,1,0.0008282402705325825,0.000829066239443404,-0.0018085203699320764,0.0034956007010966306,0.9948471301681715
2013-05-06,1,0.0009146549642586818,0.0009312686168659669,-0.00353654196559712,0.0029927795547678515,0.9952790048526607
2013-05-08,1,0.0010334970844829924,0.0010762447748315772,-0.0039229350108442185,0.0029927795547678515,0.9946548991408871
2013-05-10,1,0.001391151739797427,0.0014723518173868078,-0.0039229350108442185,0.002901442545780136,0.994288760719552
2013-05-14,1,0.0013600497379604739,0.0014647835960373073,-0.00532682031221251,0.002901442545780136,0.993458957257644
2013-05-16,1,0.0014018023188420968,0.001501723331680493,-0.00532682031221251,0.002901442545780136,0.9929877880507397
2013-05-20,1,0.0013684795179833276,0.0014462703185160663,-0.00532682031221251,0.004293990193797252,0.9924162159301817
2013-05-22,1,0.0009625266970894346,0.0009661692009676577,-0.006580899482765222,0.004293990193797252,0.991195494099204
2013-05-24,1,0.000999164191262922,0.0010328500927455327,-0.010440143141640225,0.007566107001032283,0.9902242094900208
2013-05-29,1,0.001342860554611318,0.00142308649674939,-0.010440143141640225,0.007566107001032283,0.9901114138129375
2013-05-31,1,0.0009813729198496573,0.0010143771129641293,-0.008754119605235658,0.007566107001032283,0.9901128819826202
2013-06-04,1,0.0010541861400334247,0.001097783353570776,-0.008754119605235658,0.007566107001032283,0.9901390641529457
2013-06-06,1,0.0006490413943306407,0.0006569396724813902,-0.006011619516370725,0.008312341149750534,0.9896731180732364
2013-06-10,1,0.0012700108888442224,0.0013413542395189705,-0.006011619516370725,0.008312341149750534,0.9902736560028507
2013-06-12,1,0.0009436386583762581,0.0009745474699161094,-0.002473059791201369,0.009528305546554105,0.9906622936960208
2013-06-14,1,0.0020874759958576135,0.002283457997100964,-0.003215500039188085,0.008312341149750534,0.9916525616078261
2013-06-18,1,0.0023432562238725712,0.002565241103769376,-0.004656934366995326,0.007024325636734356,0.9919886369506179
2013-06-20,1,0.001387554744737524,0.0014793844966639606,-0.0009040249268374829,0.007357039888510358,0.9932785447727815
2013-06-24,1,0.0008842791649335152,0.0009008396903966895,0.0004378944755460195,0.00699460580891309,0.9942307075847139
2013-06-26,1,0.0013434397677256776,0.0014247341347156106,-0.0009040249268374829,0.006266644087324749,0.9949994982019679
2013-06-28,1,0.0010076450193651641,0.0010335459037258757,-0.0009040249268374829,0.006266644087324749,0.9952723437586902
2013-07-02,1,0.0009796997211801316,0.001014028224572502,0.000757370034320569,0.006266644087324749,0.9954003449527772
2013-07-05,1,0.0016914764845034746,0.0018156477561568434,0.00021264660731310262,0.005531651278822015,0.9963691958248844
2013-07-09,1,0.0019068993330160497,0.0020522065395463603,-0.002530536286571096,0.005118786188948317,0.9965332463569965
2013-07-11,1,0.0019817287980337358,0.0021386082400676708,-0.002530536286571096,0.005118786188948317,0.9966854947109918
2013-07-15,1,0.0017279674411554127,0.0018372832787289946,-0.0026433405279005775,0.0042939023152879525,0.9967175236097422
2013-07-17,1,0.0017150106021806355,0.001831169521459436,-0.0026433405279005775,0.0042939023152879525,0.9965098791688372
2013-07-19,1,0.0017186641878941427,0.0018049590312439808,-0.0029357035682105338,0.0028785967274932165,0.9960869112849423
2013-07-23,1,0.0018362163852427584,0.001961019240688696,-0.0029357035682105338,0.0025394409969952845,0.9958554006342645
2013-07-25,1,0.001774636744129965,0.0018768752056475273,-0.0029357035682105338,0.0028785967274932165,0.9947302477624276
2013-07-29,1,0.0014192113410319478,0.0014775935861189489,-0.0029357035682105338,0.0025394409969952845,0.9947711734357867
2013-07-31,1,0.0015372451130500151,0.0016249878138646368,-0.003228668100238697,0.0024087416013371787,0.9941229559543843
2013-08-02,1,0.0014862477480503925,0.0015455171462898805,-0.003228668100238697,0.0024087416013371787,0.9945100929059053
2013-08-06,1,0.0013238154408888054,0.0013722272361526677,-0.003130632133330832,0.0025394409969952845,0.9942700502928471
2013-08-08,1,0.0014242710882125765,0.0014638134915794109,-0.003130632133330832,0.0024087416013371787,0.9945308611924225
2013-08-12,1,0.0012290828108916395,0.001237844746964717,-0.002669018031308236,0.002803116826857917,0.9938358295906025
2013-08-14,1,0.0010477737930936564,0.0010514869517914264,-0.002669018031308236,0.003944172938097125,0.9937086181763796
2013-08-16,1,0.0003782977087171995,0.00047019026785262766,-0.0023914563334300216,0.005804291851279343,0.9941288226324467
2013-08-20,1,0.00023393571293386977,0.00034032086123874955,-0.0010475524467007335,0.007842004248453702,0.9935138348134713
2013-08-22,1,0.00011233863696835487,0.0002406290974576263,-0.0010475524467007335,0.006223516052195199,0.9941319736865001
2013-08-26,-1,-0.000498854962123486,-0.00028460321267278035,0.0004700293121929226,0.007752315965789819,0.993463782630031
2013-08-28,-1,-0.0008679650299581405,-0.0006062447785372848,0.0004700293121929226,0.007752315965789819,0.9936867241628929
2013-08-30,-1,-0.0004351326179192959,-0.00025631913403051517,-0.003288840681082779,0.007752315965789819,0.9936711889712316
2013-09-04,-1,-0.0002419232690055238,-7.80888992290992e-05,-0.003545032809082772,0.006223516052195199,0.99419565034964
2013-09-06,-1,-0.0005846357174969637,-0.00035301760200656207,-0.003809023326354288,0.007197749223917533,0.9937760661254798
2013-09-10,-1,-0.0002918683282544011,-8.017027873805018e-05,-0.005088445630609298,0.005451755657623923,0.9940222647586338
2013-09-12,-1,-0.0003231702029377532,-0.00010904730799240992,-0.005088445630609298,0.005451755657623923,0.9937672734073424
2013-09-16,1,0.00011731195564749705,0.00026685379335190983,-0.005088445630609298,0.0061957242491138915,0.993354786638858
2013-09-18,1,0.0005529919404314255,0.0006735657851074705,-0.005576324531444176,0.006017143295937914,0.9930674956474993
2013-09-20,1,0.00015533864284120142,0.000305113154328169,-0.005088445630609298,0.007668940556545897,0.9930777207382494
2013-09-24,1,0.000371999388273843,0.0004741119108283207,-0.005088445630609298,0.006017143295937914,0.9933059884738772
2013-09-26,1,0.0005226912776039696,0.0005940940498559741,-0.004998174145843892,0.006017143295937914,0.9933960037724235
2013-09-30,1,0.000168695324869716,0.00028221380347461856,-0.003845019160280978,0.007260212257998438,0.9933312172433757
2013-10-02,1,0.0005538736692873937,0.0005863118478456796,-0.0041450603180813875,0.007260212257998438,0.9933567203140105
2013-10-04,1,0.000555801753898897,0.0005950525071493225,-0.000679813484076852,0.007771795264061941,0.9935851534744109
2013-10-08,-1,-0.000276041451482084,-0.00013955466360455522,0.0014449120441768627,0.007771795264061941,0.9939109745639398
2013-10-10,1,0.00056650687125017,0.0005944685718366622,-9.782213175223826e-05,0.007650283173452063,0.9945110913060463
2013-10-14,1,0.0008666723943033874,0.0008789986752967682,-0.0006302127812756384,0.007650283173452063,0.9947509429141137
2013-10-16,1,0.0005060209359382971,0.0005666414298501987,0.00021985907522107333,0.005229618746678358,0.9955847056031149
2013-10-18,1,0.0010698595937067637,0.001088249374998135,0.00021985907522107333,0.005229618746678358,0.9960130605349701
2013-10-22,1,0.0009849781106870603,0.001000797494016831,-0.00038809465408571887,0.004896729126616335,0.9961375785785832
2013-10-24,1,0.0007932306344588173,0.0008333982241081835,-0.00038809465408571887,0.007650283173452063,0.9956903153379515
2013-10-28,1,0.0008449506676395636,0.0008960653613266038,-0.00038809465408571887,0.0058570456341592156,0.9959454818165221
2013-10-30,1,0.000687661320892381,0.0007330238060032456,0.00021985907522107333,0.008129714475962908,0.9954628950608321
2013-11-01,1,0.0006525892862617021,0.0007347506880778908,-0.00038809465408571887,0.007259984370424221,0.9936534052616331
2013-11-05,1,0.0013304964456504734,0.001422287343264014,-0.0007375480135520713,0.007259984370424221,0.9934292846146098
2013-11-07,1,0.0014522352967839842,0.0015667991870148995,-0.00038809465408571887,0.007522242285603882,0.9934390401918987
2013-11-11,1,0.001103293971992388,0.0011139438973813047,-0.0007375480135520713,0.005607639629182946,0.9934242134387042
2013-11-13,1,0.0009826478910092565,0.0010204382835001724,-0.002652877076441359,0.005607639629182946,0.9931008492109442
2013-11-15,1,0.0014077768502028603,0.0014561211653356522,-0.002652877076441359,0.005607639629182946,0.992963039283861
2013-11-19,1,0.0011380742127779508,0.001145387223772209,-0.002652877076441359,0.009225108074229108,0.9901327896008666
2013-11-21,1,0.0010092270790398538,0.0010264975071252373,-0.0012634591330553152,0.00769011631376132,0.9906782365590979
2013-11-25,1,0.0014559430732102334,0.0015409134488340664,-0.0012634591330553152,0.00769011631376132,0.9908936963922284
2013-11-27,1,0.002094274254915666,0.0022820460895337843,-0.0012634591330553152,0.008121272141787119,0.9908820773494066
2013-12-02,1,0.00016128593758132014,0.00021189017758484937,-0.0011256386224009422,0.008121272141787119,0.9927122963251674
2013-12-04,-1,-0.00031687214182258167,-0.0002165764107047325,-0.0005294825427161858,0.008121272141787119,0.9921840808240813
2013-12-06,1,0.000102029660925082,0.00015758045713861545,-0.0012634591330553152,0.0063812222211492,0.9928468930067137
2013-12-10,0,-4.8399544522914926e-05,5.45321776388943e-06,-0.0013627975968672672,0.0063812222211492,0.9927775498009892
2013-12-12,-1,-0.00013584388525539866,-7.487541490497961e-05,-0.0014828080271141872,0.0063812222211492,0.9924910802573352
2013-12-16,1,0.0001581403364284004,0.00018304258035879478,-0.0014828080271141872,0.00753814095953007,0.9917404731872431
2013-12-18,1,0.0020173118493161694,0.002224912457497133,-0.002997560639980083,0.004857240195093907,0.9942999401196696
2013-12-20,1,0.002078205442611919,0.0022991046096777434,-0.0042728926152766945,0.003225762532281672,0.993882003678227
2013-12-24,1,0.002367296254795946,0.0026333875141342404,-0.006466753060464735,0.003225762532281672,0.9913701028684346
2013-12-27,1,0.0025498033351778948,0.00282316481958844,-0.007976486632915272,0.0009558566452443996,0.9910455987587281
2013-12-31,1,0.0027304095496872966,0.003041879830593254,-0.01001062654679988,0.0006880781672933942,0.9902130058892344
2014-01-03,1,0.002338322233648995,0.0025841283697288046,-0.01001062654679988,0.00038225752537213663,0.9894822359266268
2014-01-07,1,0.0018428448140017013,0.0020094478634905388,-0.01001062654679988,0.0038048162277573745,0.9890863257633392
2014-01-09,1,0.001289277198579455,0.00135329685020215,-0.01001062654679988,0.006817291387898156,0.9888339786838755
2014-01-13,1,0.000772105087484747,0.0007823596730773938,-0.007033221103485062,0.008089084548690303,0.988875550881627
2014-01-15,1,0.0015191159984871607,0.0015948566873300906,-0.007033221103485062,0.005435655071669149,0.9895999923603291
2014-01-17,1,0.0010262349800205129,0.0010362967312548502,-0.006044413152943194,0.007410569577179301,0.9893557453857492
2014-01-22,1,0.000134082644153653,0.000295522004059967,-0.009475149460898497,0.008211715180670067,0.9889958105770197
2014-01-24,-1,-0.0013499990618634215,-0.0010463802060493015,-0.004300516936942623,0.008211715180670067,0.9908582854028646
2014-01-28,-1,-0.0012864879891448832,-0.0010025743545446697,-0.002847164379776138,0.008211715180670067,0.9912928565159908
2014-01-30,-1,-0.0017558589731903572,-0.0014201982305921345,-0.0023304436681062593,0.010175172662230227,0.991324739083081
2014-02-03,-1,-0.0025880869091318166,-0.002188281857403905,-0.0023304436681062593,0.010175172662230227,0.9915958364807963
2014-02-05,-1,-0.0016627925481834324,-0.0013721130350699147,-0.0023304436681062593,0.009080962966058441,0.992788281055299
2014-02-07,-1,-0.0009653199475032885,-0.0007612139042318478,-0.0028417688934854113,0.006056256669092135,0.9940320071616707
2014-02-11,-1,-0.0005567197189201079,-0.0004268757711638966,-0.0028417688934854113,0.004971660924908392,0.9944226882045138
2014-02-13,-1,-0.0010414533380287108,-0.0008297917374859256,-0.004948787686946239,0.004971660924908392,0.9936211942095168
2014-02-18,-1,-0.0007200171144400297,-0.0005539928745241442,-0.004948787686946239,0.004971660924908392,0.9933866397016438
2014-02-20,-1,-0.0006021827498176649,-0.0004490521307229272,-0.004948787686946239,0.004971660924908392,0.9932546566991567
2014-02-24,-1,-0.0007903578793685903,-0.0005994548022349448,-0.005816730410189289,0.00528821494577472,0.9930034337641686
2014-02-26,-1,-0.0007998138600062609,-0.000604819298006087,-0.0072996189143911495,0.006112316607445302,0.9923568523789759
2014-02-28,1,0.0003066309311113517,0.00039836303375930725,-0.0072996189143911495,0.006112316607445302,0.9925626212740242
2014-03-04,-1,-0.000673034836754554,-0.00042432259562209167,-0.0057526868976189955,0.008899790085710617,0.992753386844456
2014-03-06,0,-0.00013519666203326943,2.1750473108187297e-05,-0.0057526868976189955,0.007095848438492542,0.9930900108855949
2014-03-10,1,5.548561560488383e-05,0.0001609974557627649,-0.0072996189143911495,0.007095848438492542,0.9926518413998963
2014-03-12,-1,-0.0008471526759431897,-0.0006532585170270952,-0.0057526868976189955,0.00784820478049129,0.9925057365837668
2014-03-14,-1,-0.0013243541911643103,-0.0010940831106876483,-0.0057526868976189955,0.00784820478049129,0.9922432376557986
2014-03-18,-1,-0.0005361571827754086,-0.00040886740525148204,-0.0057526868976189955,0.007148843611375024,0.9927331492518751
2014-03-20,-1,-0.0005365115949782777,-0.00040578656097612384,-0.00422603903613188,0.007148843611375024,0.9923671250566303
2014-03-24,-1,-0.00045156348115649435,-0.0003485259113134757,-0.0025130034820555172,0.007148843611375024,0.9924266742157178
2014-03-26,-1,-0.0006114612172489774,-0.00047596174071141593,-0.004531417414726375,0.007029196766475293,0.9926255310461296
2014-03-28,1,0.0004376324522799008,0.00046067857714485975,-0.004531417414726375,0.006601190620196651,0.99308817827614
2014-04-01,1,0.0009350881480720583,0.0009777112114196262,-0.004531417414726375,0.006601190620196651,0.9933837099665616
2014-04-03,1,0.0001482633552556266,0.00018270312149716437,-0.005295154244543892,0.007029196766475293,0.9926145256039401
2014-04-07,-1,-7.272900604931059e-05,-3.287791632184081e-05,-0.005295154244543892,0.007029196766475293,0.9925639484603388
2014-04-09,1,0.0009268003114871334,0.0009969223015006696,-0.005295154244543892,0.007029196766475293,0.9925493231463521
2014-04-11,-1,-0.00025733317951129157,-0.00021568379665477035,-0.00104303846319275,0.007912614864867898,0.9928147642030278
2014-04-15,1,0.0003240971045868361,0.00034855024684813844,-0.0032731687022317657,0.00788208587471235,0.9931775463864126
2014-04-17,1,0.0010166849799614483,0.0011375063039201438,-0.004509012515556949,0.005295169743390879,0.9943315206647401
2014-04-22,1,0.001272321339002112,0.001432040349165605,-0.00513201068890842,0.004096222575924837,0.9939414997438211
2014-04-24,1,0.0011004939954283534,0.0012714728189318755,-0.0031427603480567623,0.004096222575924837,0.9946075949934068
2014-04-28,1,0.00031603213567018987,0.0003863298765550662,-0.0031427603480567623,0.0043485303379782346,0.9943954978426734
2014-04-30,1,0.0004993569322108996,0.000570218650306246,-0.0031427603480567623,0.0043485303379782346,0.9947101459532288
2014-05-02,1,0.0007561978743810244,0.0007765153669134675,-0.00254893778764339,0.003672564269923925,0.9954263100963211
2014-05-06,1,0.00020258705628319534,0.0003089217524613345,-0.00254893778764339,0.003870909595408827,0.9956416697410331
2014-05-08,1,0.0003394126142479935,0.000442068739625768,-0.00254893778764339,0.004482623806763962,0.9956314974052566
2014-05-12,1,0.0009218697464835578,0.0009428844416027042,-0.00254893778764339,0.004179097875855762,0.9959520894414736
2014-05-14,1,0.001494404336006039,0.0016754514535073399,-0.0028319475116549394,0.004179097875855762,0.9957748037415537
2014-05-16,1,0.0015886015367731448,0.001804522725578178,-0.002428468019207674,0.004179097875855762,0.9960011637785705
2014-05-20,1,0.0013322603112758946,0.0015191066164245853,-0.0018122091443235234,0.004515867075940468,0.9964716379754432
2014-05-22,1,0.0015869762715952967,0.0018390395776646147,-0.0006125880058140821,0.004653085266305526,0.9966345415621809
2014-05-27,1,0.002003181644586973,0.0023331789326676844,-0.0027721026174319934,0.004499768061095848,0.9959592110160462
2014-05-29,1,0.0020685424069922095,0.002367156260405408,-0.0027721026174319934,0.004117259464222789,0.9961073354718598
2014-06-02,1,0.0018502673333919187,0.002106968220585154,-0.003314503316158764,0.004117259464222789,0.9959881622614006
2014-06-04,1,0.0015676154430153328,0.0017666912343238055,-0.0025893199540422823,0.004635302423376079,0.9958860823974344
2014-06-06,1,0.002016318953893502,0.0022580162749136707,-0.0032084287321454625,0.004048710043247511,0.9961795128734338
2014-06-10,1,0.0024337844865945095,0.00277581799192296,-0.0032084287321454625,0.00291460193386476,0.9960727396377084
2014-06-12,1,0.0017720703164119762,0.0020060132122710745,-0.0025944308947001295,0.0031675637086930127,0.9967529016954785
2014-06-16,1,0.0016798739504280645,0.0018871352514553013,-0.0025944308947001295,0.004048710043247511,0.9966580703309047
2014-06-18,1,0.0009937292655176199,0.001009129506280671,-0.0032084287321454625,0.004093888164007587,0.9956603751181795
2014-06-20,1,0.0009686852938649919,0.0009760021402252824,-0.0034937783136278133,0.004093888164007587,0.9952207100883366
2014-06-24,1,7.366705360911468e-06,0.0001288820975765105,-0.0030569230115809636,0.004671403468229594,0.9955829126387631
2014-06-26,-1,-0.00023856317993853696,-5.0682828344584575e-05,-0.0030569230115809636,0.004671403468229594,0.9956448034024133
2014-06-30,0,-0.00014510623966403226,7.054906388270364e-06,-0.003133631090957373,0.004671403468229594,0.9951460371481127
2014-07-02,1,0.0008151875293790501,0.000821786632272567,-0.0034937783136278133,0.0029667619855576113,0.9946588587916012
2014-07-07,1,0.0007114916084033482,0.0007192482128802122,-0.004109660784937588,0.0034747565023908918,0.9944013124574117
2014-07-09,1,0.00042969518915473263,0.00048533776325479305,-0.005479266406798605,0.0034747565023908918,0.9941438105331951
2014-07-11,1,0.0004136037343974464,0.0004563719966014433,-0.004128647083047375,0.004621223991598116,0.9937963872126123
2014-07-15,1,0.0005243259239859824,0.0005546807408597541,-0.004128647083047375,0.0034747565023908918,0.9937851831614659
2014-07-17,1,2.0052516610228287e-05,0.00010755349317154809,-0.003188856434310495,0.0039980586245523,0.9946719482722911
2014-07-21,1,0.00025982087375197324,0.0003152010708645911,-0.0030152431899054003,0.0039980586245523,0.9943461592216138
2014-07-23,1,0.0005369754457175643,0.0005373585679370801,-0.0029654167004144207,0.003284830984406381,0.9946125944206433
2014-07-25,1,0.0002541938500877484,0.00031954565888867877,-0.0029654167004144207,0.003070988327141475,0.9946141032968432
2014-07-29,1,6.14053602591521e-05,0.00013782942374551232,-0.002658057051314624,0.0038447767988420813,0.9950617092218027
2014-07-31,-1,-0.0011178408061691774,-0.0008997061369076717,-0.002658057051314624,0.0038447767988420813,0.995917276945146
2014-08-04,-1,-0.0011601252166893667,-0.0009233465967213566,-0.002077852328799967,0.002771822376376566,0.996229103296657
2014-08-06,-1,-0.0019548614145880284,-0.001584438749675862,-0.002077852328799967,0.002771822376376566,0.9962423986516044
2014-08-08,-1,-0.0012654971239218118,-0.0010090529137631347,-0.001574394644096859,0.0038447767988420813,0.9966229652219745
2014-08-12,-1,-0.0015094720782029742,-0.0012319246400454898,-0.0017352838152062124,0.0038447767988420813,0.9965272541140402
2014-08-14,-1,-0.001307468439472314,-0.0010376255197375437,-0.0026137644015980267,0.0017524360577403156,0.9971296785881286
2014-08-18,-1,-0.0007653917850523476,-0.0005666991857402177,-0.0021438285606246105,0.002460034093709995,0.997727103419293
2014-08-20,-1,-0.0005426309286490253,-0.00038259751003390756,-0.0021438285606246105,0.0036302625685565044,0.9972145413401301
2014-08-22,-1,-0.00041289908040899467,-0.0002933524224435007,-0.0021970731200946095,0.0036302625685565044,0.9969832384091308
2014-08-26,-1,-0.0004156930224423471,-0.00028572045379994326,-0.002790209539869703,0.003546954379322761,0.9965873029488035
2014-08-28,-1,-0.0009865150734098388,-0.0007521335924626722,-0.002790209539869703,0.003546954379322761,0.9960288793135961
2014-09-02,-1,-0.000685367851573893,-0.0005085421634030887,-0.0028721874681861973,0.003546954379322761,0.9959692473781074
2014-09-04,-1,-0.0015823482306140037,-0.0012530977163640858,-0.003606184133930224,0.003546954379322761,0.9952454561368165
2014-09-08,-1,-0.0009550018966187536,-0.0007285877702920041,-0.003606184133930224,0.002803899390865494,0.9950175824902013
2014-09-10,-1,-0.00022060242163548214,-0.00013866181645550232,-0.004418391757542302,0.003546954379322761,0.9927865018646165
2014-09-12,-1,-0.00024137028356363023,-0.00017303532208515758,-0.01103869508090586,0.003546954379322761,0.9903547979105468
2014-09-16,-1,-0.00042411760051434485,-0.00030646838147456044,-0.01103869508090586,0.003546954379322761,0.989939670213984
2014-09-18,1,5.9828124383416e-05,0.00011411666588759888,-0.01103869508090586,0.0017927643830744277,0.990130773837343
2014-09-22,0,-3.2451283409916674e-05,1.4137672617073912e-05,-0.01103869508090586,0.004195465927432746,0.9896090687110649
2014-09-24,-1,-9.21138616647909e-05,-4.4544065000010486e-05,-0.014678497935375807,0.007045741348799595,0.9883672603687315
2014-09-26,-1,-0.0007137946570615198,-0.0005903109730614788,-0.008724254943368958,0.012463009462841434,0.985835408980193
2014-09-30,-1,-0.0007357933444533326,-0.0006253558947570468,-0.008724254943368958,0.012463009462841434,0.9851379035227034
2014-10-02,-1,-0.0012047494242359276,-0.001062001961246547,-0.0019855543213170438,0.012463009462841434,0.9854894128355256
2014-10-06,-1,-0.0009539647695991589,-0.0008284921082151516,-0.004029684056037295,0.012584928250005135,0.9855952906017499
2014-10-08,-1,-0.0005899254655628388,-0.0005062378624393121,-0.001012391092777045,0.011088585866357067,0.9871375079115571
2014-10-10,-1,-0.003081525766940809,-0.002697437390624111,0.001166312417339765,0.011088585866357067,0.9878651312198635
2014-10-14,-1,-0.002989091547420936,-0.002617276039846161,0.001166312417339765,0.011088585866357067,0.9882232028086487
2014-10-16,-1,-0.002626751239123942,-0.0023112410535433563,0.0020981415869693533,0.011088585866357067,0.9883727231588001
2014-10-20,-1,-0.0018041293264513861,-0.0015977523135707467,0.00165146471249069,0.01026696639418789,0.989687063576486
2014-10-22,-1,-0.0015600396219132787,-0.001381024996678163,0.00165146471249069,0.009407560219705843,0.9908582566627536
2014-10-24,1,0.0007143163862085465,0.0008093802175362791,0.00165146471249069,0.0071223281852826215,0.9950618171075271
2014-10-28,1,0.001435008735888429,0.0016544618828494466,-0.0011925079336258884,0.005537672143745112,0.9953801121724021
2014-10-30,1,0.0015977160259081154,0.0018390398942030196,-0.0011925079336258884,0.005537672143745112,0.9953374328247697
2014-11-03,1,0.0013965735762200297,0.0015929185457825028,-0.0011925079336258884,0.005537672143745112,0.9945683475642701
2014-11-05,1,0.0018251651786606305,0.0020804730181787027,-0.0011925079336258884,0.005537672143745112,0.9948190441268552
2014-11-07,1,0.0019643704446357328,0.0022487824507656825,-0.0021833177835491836,0.005537672143745112,0.9943206389150764
2014-11-11,1,0.0020295485314272485,0.002325067306907861,-0.003371738974551163,0.004441922974035173,0.9938060462289462
2014-11-13,1,0.0019143435127767245,0.0021715823113265904,-0.008246146008117381,0.005202745803294065,0.9930695016433218
2014-11-17,1,0.0019730794742336836,0.0022474040724417567,-0.008246146008117381,0.006613082066238724,0.9924940935466884
2014-11-19,1,0.0019687128750922574,0.002228891721393628,-0.0033756613439783903,0.009893078195861271,0.9916385550037918
2014-11-21,1,0.0023427260648180327,0.0026720284415769923,-0.0033756613439783903,0.010456392146222874,0.9913148078774596
2014-11-25,1,0.0019107176323607303,0.0021749042561842783,-0.0018866209289816094,0.010456392146222874,0.9919284000113543
2014-11-28,1,0.002181151500067733,0.0024795866667117147,-0.0028417219901503855,0.009893078195861271,0.9920247630408963
2014-12-02,1,0.002248648982849399,0.002550365985598365,-0.004449196744550521,0.006749359166003962,0.9924135317980178
2014-12-04,1,0.002506109240626002,0.0028431592860821233,-0.005978507165814131,0.003467679432786526,0.9913822470551927
2014-12-08,1,0.0020285117425375473,0.0022807970398261435,-0.006205377546923832,0.006125193282512557,0.9913058236289262
2014-12-10,1,0.0016921366619603224,0.0019051825685123271,-0.006205377546923832,0.007872884443315575,0.9906156460350553
2014-12-12,1,0.0014495629599807348,0.0016306112928422235,-0.005275230548961314,0.007872884443315575,0.9910991819620454
2014-12-16,1,0.0018181562280534533,0.0020516414774573275,-0.005275230548961314,0.003842187858557063,0.9912884935277017
2014-12-18,1,0.0028119301353843862,0.0031621823308123774,-0.005275230548961314,0.0014933330743411616,0.9917469707967184
2014-12-22,1,0.002509973071107197,0.002770224048928405,-0.005275230548961314,0.002956263059407963,0.9914790974354225
2014-12-24,1,0.002362827295591834,0.0026016551394906205,-0.006374953646950314,0.002956263059407963,0.9911404421405745
2014-12-29,1,0.0021015646965437,0.002286377274769695,-0.006374953646950314,0.0023471321983051688,0.9912556528742781
2014-12-31,1,0.0017292801838854819,0.0018759535840063644,-0.006749492220712338,0.004590944162376869,0.9905316330071948
2015-01-05,1,0.0009360344040817692,0.000971623437507082,-0.00500333279321756,0.010199032675033887,0.9909699573839413
2015-01-07,1,0.0008724643940061586,0.0009124032419318227,-0.00500333279321756,0.011183783988246241,0.9909989617534078
2015-01-09,1,0.0011869072703434814,0.001289761352622508,-0.00500333279321756,0.009572893968867395,0.9921856294171663
2015-01-13,1,0.001041030552193269,0.0011282773739455347,-0.005344561024587594,0.009572893968867395,0.9919144078002038
2015-01-15,1,0.0007046105019862946,0.0007368718814611953,-0.00448799030802353,0.009572893968867395,0.9918321731875797
2015-01-20,1,0.00106488353246253,0.0011449194931004974,-0.00448799030802353,0.008831746843304636,0.9923093085516751
2015-01-22,1,0.0015917548466858628,0.0017380216424986426,-0.00448799030802353,0.006796780202992745,0.9930628176329331
2015-01-26,1,0.0011914505148508884,0.001283660070650454,-0.00309001391812916,0.006796780202992745,0.9934738755430831
2015-01-28,1,0.0009860439917793013,0.0010387220130091287,-0.00210937592799281,0.006796780202992745,0.9934090012047474
2015-01-30,1,0.0008147128494181137,0.0008543824637622791,-0.00210937592799281,0.006796780202992745,0.9943444601495808
2015-02-03,1,0.0015601023778782919,0.0016922297100495848,-0.0058941985781314704,0.005915598854642254,0.9943584456345272
2015-02-05,1,0.0015091523665733799,0.0016228642980004853,-0.0058941985781314704,0.004673783626281387,0.9941392164085678
2015-02-09,1,0.0012150429451035873,0.0012994536619435678,-0.0058941985781314704,0.005915598854642254,0.9929325965070143
2015-02-11,1,0.001235232168286591,0.001339640442323469,-0.0038647872098182315,0.005970376273840715,0.9926411919237297
2015-02-13,1,0.0011766267508292261,0.001259484576399071,-0.0058941985781314704,0.005970376273840715,0.9914753818552194
2015-02-18,1,0.0013014875208009111,0.0013969868395415277,-0.007577060940066058,0.007365626542767513,0.9905391925807352
2015-02-20,1,0.001306448544133228,0.0013864865563979966,-0.007577060940066058,0.006500079686810403,0.9904399781063806
2015-02-24,1,0.001144466990853781,0.001183803565370817,-0.007577060940066058,0.006500079686810403,0.9904311718681141
2015-02-26,1,0.0007170630129767246,0.0007679704194488491,-0.01086713373497307,0.006500079686810403,0.9895832590280904
2015-03-02,1,0.0008901268747492558,0.0009196327979125031,-0.01086713373497307,0.007254996969162654,0.9894065152334821
2015-03-04,1,0.0003996963683173428,0.00047517688085147873,-0.01086713373497307,0.007254996969162654,0.9893934687064919
2015-03-06,-1,-0.001633649965209165,-0.0012150784883810395,-0.00759806288422856,0.012581775031952696,0.9897057357788935
2015-03-10,-1,-0.0021217812921194594,-0.0016371617683040433,-0.005305431986451002,0.007607552608490537,0.9910802811637522
2015-03-12,-1,-0.0016643904755434585,-0.0012369871929123193,-0.005305431986451002,0.005156935400530401,0.9917394392594597
2015-03-16,-1,-0.00116867224772958,-0.0008192446309825384,-0.005305431986451002,0.004561175034910596,0.9929983842152413
2015-03-18,-1,-0.0008709108154311809,-0.0005603607002314072,-0.003694816017661618,0.003448401804204133,0.9940266205218162
2015-03-20,1,7.521990939545804e-05,0.0001789908340820253,-0.004134521130476878,0.003448401804204133,0.9924919072143753
2015-03-24,1,0.00010943516382453148,0.00019219909631580006,-0.004134521130476878,0.004166884951096368,0.9922950919739582
2015-03-26,-1,-0.00037173543328885287,-0.0002570266371354025,-0.0048034411978984505,0.004166884951096368,0.9916202091310445
2015-03-30,1,0.00030562519898081513,0.00035150599765428894,-0.0064206333281522365,0.002815085449057882,0.9923020489718988
2015-04-01,-1,-0.00021827430392947552,-0.00013265139221258244,-0.0047354698656502684,0.002815085449057882,0.9927196083561163
2015-04-06,1,0.0005535607976747604,0.00056053316424481,-0.0047354698656502684,0.0033668715417986945,0.9928029806534056
2015-04-08,1,0.0008214666061105963,0.0008622161219131921,-0.006509560923617583,0.002815085449057882,0.9925087484364383
2015-04-10,1,0.000909057072571123,0.0009710525268808722,-0.006509560923617583,0.004602333106816951,0.9918216820380914
2015-04-14,1,0.0007394948330791953,0.0007793347821673444,-0.004857213664111449,0.004602333106816951,0.9919724984776128
2015-04-16,1,0.0006657855447593598,0.0006952369965874441,-0.004857213664111449,0.007872053708128934,0.9913960091378825
2015-04-20,1,0.0008075942293191647,0.0008659427009811598,-0.004236987088386067,0.0065515886446039775,0.9933293213339737
2015-04-22,1,0.0006195992218932257,0.0006296250983502712,-0.004857213664111449,0.0065515886446039775,0.9932140210544149
2015-04-24,1,0.00037680701873093954,0.000378813062298124,-0.004857213664111449,0.0065515886446039775,0.9945791700221932
2015-04-28,1,0.0003483988323321524,0.0003544408247815032,-0.004935100626144832,0.007872053708128934,0.9941323731607644
2015-04-30,0,-2.297255243381287e-05,4.8474184008125615e-06,-0.004935100626144832,0.007872053708128934,0.9941191328189749
2015-05-04,1,0.0002732487224707046,0.00028295818555234816,-0.004935100626144832,0.0026895420281093725,0.9948767059374602
2015-05-06,-1,-0.0002906236768973465,-0.00019045675467529945,-0.004935100626144832,0.00631221336956292,0.9944344932078263
2015-05-08,1,5.63263498401738e-05,0.00012920807271033424,-0.006867948422174954,0.0011811780165931994,0.9948089974313009
2015-05-12,1,0.00024767918946456003,0.0002775330633043876,-0.006867948422174954,0.0035651945916540867,0.9942921275801478
2015-05-14,1,0.0012860437075364619,0.001410534565229636,-0.0076144318852162775,0.0017738691021397615,0.9941777540340019
2015-05-18,1,0.0012457340861159402,0.0013829578149137844,-0.008173828661601443,0.002862367591786303,0.993541603389023
2015-05-20,1,0.0009617323450366493,0.0010565473133780955,-0.008173828661601443,0.004272300767402864,0.9931743368518118
2015-05-22,1,0.0007607104450285466,0.0008259014759474271,-0.008173828661601443,0.004733454773717482,0.993127831929537
2015-05-27,1,0.0005635518096699092,0.000575317940986365,-0.008796915192592028,0.004131458397300376,0.993225322489305
2015-05-29,-1,-0.0002847550197516863,-0.00016403928245330813,-0.008585944340376763,0.004733454773717482,0.9929766397558778
2015-06-02,-1,-0.00033095434798831167,-0.00019983679339108536,-0.010537599935958476,0.004733454773717482,0.9919435005759353
2015-06-04,-1,-0.0004421908462123623,-0.0003077212692834034,-0.008585944340376763,0.004733454773717482,0.9923087954136165
2015-06-08,-1,-0.0008097003841241163,-0.0006234606053197657,-0.005718861271483931,0.004733454773717482,0.9925706095998537
2015-06-10,-1,-0.0005058998345368769,-0.00035101502422760233,-0.010558556014796345,0.004733454773717482,0.9922281120134328
2015-06-12,-1,-0.0005296187476576507,-0.0003918162433555182,-0.005718861271483931,0.006983646435793047,0.9921158406077594
2015-06-16,-1,-0.00033170955068531697,-0.00025146028083471454,-0.00439187239212426,0.006983646435793047,0.9926499626627552
2015-06-18,0,-1.1359722204192131e-05,5.2501351592247007e-05,-0.00439187239212426,0.006982684383457021,0.9931655343551383
2015-06-22,-1,-0.0002638912795975552,-0.00016621715595548553,-0.005895289631634533,0.006982684383457021,0.9930309689165191
2015-06-24,-1,-0.0008268354924524589,-0.0006496373412069078,-0.005895289631634533,0.006982684383457021,0.99186839916198
2015-06-26,-1,-0.00047630983381185795,-0.0004293865427413146,-0.004357663388513041,0.0037607314469453677,0.9924603815471237
2015-06-30,-1,-0.0008768738876566307,-0.0007902935499762905,-0.003328454505956474,0.006982684383457021,0.9926273625852478
2015-07-02,-1,-0.0008752133757477366,-0.0007888072018746315,-0.003328454505956474,0.0037607314469453677,0.9930301210282455
2015-07-07,-1,-0.0007576523802301218,-0.0006838062041983169,-0.004357663388513041,0.0037607314469453677,0.9927407285338697
2015-07-09,-1,-0.0009727062402112811,-0.0008852065187808614,-0.004357663388513041,0.0030721328293186793,0.9931750082178817
2015-07-13,-1,-0.0002821994381336484,-0.00027322377108931817,-0.004357663388513041,0.0023735505612078383,0.9931296381557891
2015-07-15,-1,-0.00024958820500268705,-0.00022443129296137847,-0.005129216017239563,0.0023735505612078383,0.9925640609189536
2015-07-17,-1,-6.26754498459332e-05,-7.964510729912606e-06,-0.007671187952709749,0.0023735505612078383,0.9924137082276433
2015-07-21,-1,-0.00010620132980095068,-5.182418367671488e-05,-0.006559005070178695,0.002701458046972486,0.9923535369584463
2015-07-23,-1,-0.0008774984707110058,-0.0008476575223007334,-0.007671187952709749,0.002701458046972486,0.9927406645662582
2015-07-27,-1,-0.001316211888807318,-0.0012130737497439022,-0.009489466760831712,0.002701458046972486,0.9914298910251419
2015-07-29,-1,-0.00078946136084307,-0.0007167110740957885,-0.009489466760831712,0.002412838663800104,0.9901949583903246
2015-07-31,-1,-0.0009915718228171062,-0.0008831572381591496,-0.009489466760831712,0.004534437121763408,0.9897610237792707
2015-08-04,-1,-0.0008052051268078018,-0.0007456730730021043,-0.014878598552890454,0.004534437121763408,0.9883261240042983
2015-08-06,-1,-0.0006345086528253777,-0.0006090541569582355,-0.014878598552890454,0.006096207785373994,0.9878441415086788
2015-08-10,0,-2.660711918695864e-05,3.911455322419072e-05,-0.014878598552890454,0.006096207785373994,0.9867888720449964
2015-08-12,-1,-0.00032361835785823964,-0.00031773363515839805,-0.014878598552890454,0.006096207785373994,0.9868230714552161
2015-08-14,-1,-0.0005810553365633187,-0.0005550588746702492,-0.014878598552890454,0.004273625936849364,0.987218062014698
2015-08-18,-1,-0.0007603904354506043,-0.0006980744858224777,-0.014878598552890454,0.005200628243199168,0.9866322194241743
2015-08-20,-1,-0.0011126496908494153,-0.0010328414348620358,-0.01364219663381894,0.005200628243199168,0.9867270597309782
2015-08-24,-1,-0.001098837941836342,-0.0009953244533477935,-0.01364219663381894,0.005200628243199168,0.9874190317078411
2015-08-26,-1,-0.00015029421629483806,-9.545955193724582e-05,-0.01364219663381894,0.003699607383768802,0.9894315318425627
2015-08-28,-1,-0.0004893008590794523,-0.00047731069981656873,-0.01364219663381894,0.003699607383768802,0.988884233422674
2015-09-01,-1,-0.0011738599586311276,-0.0010866978952316485,-0.008508448339182708,0.006731555646648007,0.9894764093809676
2015-09-03,-1,-0.0007529311232232692,-0.0007222042979434883,-0.008508448339182708,0.006731555646648007,0.9895704774419539
2015-09-08,-1,-0.0003526520035216195,-0.0003361494636945412,-0.0072453305090225744,0.006731555646648007,0.9902262488402838
2015-09-10,-1,-0.000795693163646741,-0.0007613770886163562,-0.004427239397223022,0.013459644131879783,0.9897787159645721
2015-09-14,-1,-0.0006683554289528119,-0.0006569540818022342,-0.004427239397223022,0.013459644131879783,0.9898580092699976
2015-09-16,-1,-0.0006516128915242943,-0.0006098409552013633,-0.006458604719953507,0.0122899239188088,0.9906132383746896
2015-09-18,-1,-0.0012330634231766781,-0.0011295279432238126,-0.004041234517611449,0.0122899239188088,0.9915935842310688
2015-09-22,-1,-0.0016482234108294665,-0.0014725588641968574,-0.0038935813284537678,0.0122899239188088,0.9918117963782802
2015-09-24,-1,-0.001109202236197595,-0.0010213789023125175,-0.0038935813284537678,0.013459644131879783,0.9896000922907119
2015-09-28,-1,-0.001476191275131485,-0.0013401609134440825,-0.0033689028250203515,0.0122899239188088,0.9903285767452582
2015-09-30,-1,-0.0005189411059074538,-0.0005096872501297951,-0.0033689028250203515,0.009461075620648839,0.9912615498370281
2015-10-02,1,0.0003434661106871707,0.00045906666545295776,-0.0030509991704580986,0.007778397689304811,0.9924493085101864
2015-10-06,1,0.00014686938483579072,0.0002504701671708611,-0.0030509991704580986,0.007778397689304811,0.9924455779058543
2015-10-08,1,0.0009338106513753849,0.0011348620017803926,-0.0030509991704580986,0.005077045495028592,0.9937740118317471
2015-10-12,1,0.0005905699807672226,0.0007376584050455841,-0.0036401904714384015,0.005077045495028592,0.9931993571874062
2015-10-14,1,0.0003367518188833382,0.0004478848098343721,-0.0026466999281887648,0.006274247967822198,0.9933209758018747
2015-10-16,1,0.0006617271498174668,0.0008266061699832329,-0.003269571298867931,0.005485630880420207,0.9927537674171178
2015-10-20,1,0.0006677727440921213,0.0008126757336555696,-0.003269571298867931,0.005764024445727975,0.9921669996120037
2015-10-22,1,0.00203990695759583,0.0023735790554787516,-0.003269571298867931,0.005183165425066256,0.9938276481248941
2015-10-26,1,0.0013323564384501193,0.0015606196353906694,-0.003269571298867931,0.00427170236370403,0.9940211227129614
2015-10-28,1,0.001522671422467654,0.001763894349318654,-0.004537252425588005,0.002619141863161135,0.993864466503062
2015-10-30,1,0.0014303539934066864,0.0016911567512470447,-0.006083656585789095,0.002619141863161135,0.9937811103233616
2015-11-03,1,0.0013596486929289089,0.0015859700968839812,-0.006119242694493715,0.0022860146330498303,0.9945157230772981
2015-11-05,1,0.0014501534045116933,0.0016865088342872929,-0.007505909461754249,0.002619141863161135,0.9929390818810907
2015-11-09,1,0.0015384904327036728,0.0018156385900040457,-0.006428838542263967,0.002619141863161135,0.9929709975219989
2015-11-11,1,0.0016534815712754896,0.0019281729059139542,-0.006428838542263967,0.002619141863161135,0.992669523679732
2015-11-13,1,0.0009070458313921014,0.0010655736054302422,-0.006428838542263967,0.00427170236370403,0.9921945056975741
2015-11-17,1,0.001074922282008499,0.0012590877677728686,-0.006476256856208383,0.00427170236370403,0.989801058268936
2015-11-19,1,0.0011591914279223269,0.0013311893663286853,-0.00785557110503785,0.0026125970289111056,0.9889627527824815
2015-11-23,1,0.0010896665533019956,0.0012605869831616634,-0.00785557110503785,0.005213702512208448,0.9886900448501069
2015-11-25,1,0.0010730752694574318,0.0012575620174174037,-0.00785557110503785,0.009590824574553883,0.988421117944271
2015-11-30,1,0.0007323072935512822,0.0008427173595560735,-0.007413829365885519,0.010338201912697098,0.9884380709323138
2015-12-02,1,0.000872721258086352,0.00102512578066857,-0.0075918485668858525,0.010338201912697098,0.9881006574105873
2015-12-04,1,0.001593440725633731,0.001833882305138291,-0.0075918485668858525,0.009590824574553883,0.9881721625153546
2015-12-08,1,0.001174680051104514,0.0013666311075676216,-0.013993897397245606,0.009590824574553883,0.9865069212287424
2015-12-10,1,0.0013018184570417822,0.001505089611481197,-0.013993897397245606,0.005795081667918534,0.986856934540924
2015-12-14,1,0.0011198307579387717,0.0012585871894165409,-0.013522690803628532,0.003948454876663331,0.9877239161321867
2015-12-16,1,0.00021129796747451304,0.0002295184374869917,-0.013522690803628532,0.003948454876663331,0.9897691857893497
2015-12-18,-1,-0.00027625499229341744,-0.0002481343732663057,-0.011547894058776903,0.003948454876663331,0.990204480352508
2015-12-22,1,0.00014214442715812986,0.00016216054094278845,-0.011547894058776903,0.004729564097588835,0.9899338838127721
2015-12-24,1,0.00013510313428404745,0.00014785080407332866,-0.014280447695280349,0.004729564097588835,0.9874008879076508
2015-12-29,1,0.00026436859357399113,0.0002886204936809389,-0.014280447695280349,0.005449090795486795,0.9870762771865572
2015-12-31,1,0.00011801964187109811,0.00014118805856200883,-0.015072951959877498,0.007420973708903369,0.9858890594824067
2016-01-05,1,5.2585028728181415e-06,7.4660876961330145e-06,-0.014240636612627602,0.012314577306024973,0.9855255109940212
2016-01-07,-1,-0.0010485049681503058,-0.000915895792743659,-0.006919986663188243,0.012314577306024973,0.9872819151134816
2016-01-11,-1,-0.0010155719252322936,-0.0008842470275825304,-0.006919986663188243,0.012314577306024973,0.9869447119220582
2016-01-13,-1,-0.0017007521729862133,-0.0014609532444004943,-0.01066878564617358,0.012314577306024973,0.9865604209578818
2016-01-15,-1,-0.001861614210129832,-0.0015925539185232182,-0.006919986663188243,0.012314577306024973,0.9865337641017617
2016-01-20,-1,-0.0017395833272789883,-0.0015082218217256499,-0.0012989424284270599,0.012314577306024973,0.9864286162870022
2016-01-22,-1,-0.0015493884129464805,-0.0013350210440575996,-0.003024227588420284,0.010688251075638613,0.987075753501882
2016-01-26,-1,-0.0011120045811771747,-0.000901852623131599,-0.003024227588420284,0.008541680410438459,0.9896843325122174
2016-01-28,-1,-0.0007587445090881316,-0.0006098693197283308,-0.004842019250138305,0.008541680410438459,0.9899395506145852
2016-02-01,-1,-0.0004864118045966654,-0.00038621694312253346,-0.004842019250138305,0.008541680410438459,0.9906676950955007
2016-02-03,0,-3.773715252062591e-05,3.414209478620102e-05,-0.002710802563244643,0.007253646358151467,0.9925502067891792
2016-02-05,-1,-0.00010671962408072337,-2.5519325696259375e-05,-0.002710802563244643,0.007253646358151467,0.9924818156402924
2016-02-09,1,0.00037013891795430594,0.00037188780850095526,-0.002860415164724313,0.007253646358151467,0.9927148918486923
2016-02-11,-1,-0.0007413235635335393,-0.0005725719867793462,-0.0014631766794093407,0.008541680410438459,0.9933156944123404
2016-02-16,-1,-0.0002860517200414309,-0.00015597338458506448,-0.0014631766794093407,0.006794664199139677,0.994785950881384
2016-02-18,-1,-0.0002226070727214628,-9.590217501421994e-05,-0.0014631766794093407,0.005640595754163366,0.9947779655304029
2016-02-22,-1,-0.00016357670715718076,-3.583625213490071e-05,-0.0015130475465692306,0.005640595754163366,0.9946539306621301
2016-02-24,1,0.00016170187068612613,0.0002220004173784245,-0.0015130475465692306,0.004566878430186271,0.9952186628972117
2016-02-26,1,0.00029647085307109213,0.0003264550018154814,-0.0011582028219715354,0.004566878430186271,0.9954100705978965
2016-03-01,1,0.0006017439675444375,0.0006238948586150183,-0.0011582028219715354,0.004566878430186271,0.9954402726168001
2016-03-03,1,0.0007946103945855592,0.0008758597400681417,-0.0008520277322820153,0.005310018117012748,0.9953153987875822
2016-03-07,1,0.0009272856090355231,0.0010238775427246097,-0.0024692172643494574,0.005310018117012748,0.9950034625650424
2016-03-09,1,0.0006229136145708683,0.0006624590957575861,-0.0016779093329404922,0.005558613461843059,0.9948799130762368
2016-03-11,1,0.0008620672971451445,0.0009371343131240745,-0.003015503869496455,0.005310018117012748,0.9953442085811017
2016-03-15,1,0.0009846646634434073,0.0010788689070155176,-0.003015503869496455,0.005558613461843059,0.9950678228329701
2016-03-17,1,0.001470115077029429,0.0016877744398952632,-0.003015503869496455,0.005558613461843059,0.9950864402612472
2016-03-21,1,0.0014795139612541529,0.001690275802895279,-0.002705544207736608,0.004771920813885911,0.995510249466546
2016-03-23,1,0.0015137959785707531,0.001741052373490197,-0.002705544207736608,0.004771920813885911,0.9953963231403689
2016-03-28,1,0.0016466350418072445,0.001879712611113368,-0.002705544207736608,0.0039057460739550074,0.9956162779014629
2016-03-30,1,0.0017577213341298653,0.0020155236254750636,-0.002705544207736608,0.0039057460739550074,0.9957602779847832
2016-04-01,1,0.0018576178238279605,0.0021300665137086268,-0.0032643685054740577,0.0034212766917118827,0.9957123970189827
2016-04-05,1,0.00148726262804748,0.0016990755914666822,-0.002286058616582993,0.0039057460739550074,0.9960397113113202
2016-04-07,1,0.001741513013615234,0.00199833985980755,-0.002705544207736608,0.003658635377737589,0.9958290535161396
2016-04-11,1,0.0013362057592230061,0.001511324203783095,-0.002286058616582993,0.0039057460739550074,0.995750022263927
2016-04-13,1,0.0016510086443994139,0.0018777026805722867,-0.002632365831891479,0.0039057460739550074,0.995503675438161
2016-04-15,1,0.001720014902292851,0.001965321187991969,-0.003204679759743709,0.003877445773258139,0.9951628238056213
2016-04-19,1,0.0017811636726945195,0.00203314789060163,-0.004271339734364186,0.00417075171961965,0.9944805447958998
2016-04-21,1,0.0016302141753554785,0.0018535600620556048,-0.005091574123770438,0.00417075171961965,0.9939894573575755
2016-04-25,1,0.001501700823280511,0.001698843019194206,-0.005091574123770438,0.005968125749829738,0.9938883249736473
2016-04-27,1,0.0013546948491901445,0.0015243825011631309,-0.004603255350046188,0.006668669118320115,0.9940004613283829
2016-04-29,1,0.0014275708125367778,0.001627942222425177,-0.005091574123770438,0.006668669118320115,0.9938809406364104
2016-05-03,1,0.0013646487690604314,0.0015419257473936144,-0.005091574123770438,0.006668669118320115,0.9939929933907837
2016-05-05,1,0.001345200076129751,0.0015243742361895898,-0.00436482485767142,0.006668669118320115,0.9941240013829518
2016-05-09,1,0.001474351803523101,0.0016737257172294213,-0.00436482485767142,0.0068265958472635046,0.993975352669562
2016-05-11,1,0.0010406470946173446,0.001118813897525826,-0.0060129347073632905,0.005326625333356672,0.9940453971826144
2016-05-13,1,0.0005338412620330559,0.0005539357153834802,-0.0066463283960893176,0.005326625333356672,0.9937283274096254
2016-05-17,1,0.0005888006687734778,0.0005904359228590778,-0.0060129347073632905,0.003458012646399089,0.9944427989327078
2016-05-19,1,0.00035964916560090145,0.00037278008750195606,-0.004346424853980041,0.005326625333356672,0.99436777759977
2016-05-23,1,0.0005524349786517307,0.0005753184501726806,-0.004346424853980041,0.00567629980607595,0.9940967709528993
2016-05-25,1,0.0007384795996842185,0.0007657258326640305,-0.004346424853980041,0.003458012646399089,0.9943389769959482
2016-05-27,1,0.00024573454083487954,0.00029287955213439247,-0.006250737625263771,0.003458012646399089,0.992643343146655
2016-06-01,-1,-0.00039425483781378614,-0.00022702263797326814,-0.006250737625263771,0.010417253157585567,0.9916223608144475
2016-06-03,-1,-0.0006147071275519516,-0.00041151225129318163,-0.006250737625263771,0.011708731492744574,0.9906846713318302
2016-06-07,-1,-0.0006088848376485114,-0.0003900438939687012,-0.006250737625263771,0.011708731492744574,0.991329576577718
2016-06-09,-1,-0.000890049087365747,-0.0006200405118458943,-0.003463533230738074,0.012736891001532854,0.9911067119934386
2016-06-13,-1,-0.0016407656282699614,-0.0012617366833441535,-0.0010266261606106622,0.012736891001532854,0.9909407486682468
2016-06-15,-1,-0.00145667834594773,-0.0011131645790382425,-0.0010266261606106622,0.012736891001532854,0.9907301240672359
2016-06-17,-1,-0.0009272303061197109,-0.0006745724431489355,-0.0010123666884642166,0.011752001604613658,0.9916280611139017
2016-06-21,-1,-0.0004871751261197743,-0.0003046650426139592,-0.0010123666884642166,0.009917762846827279,0.992390164306518
2016-06-23,0,-3.355521528848897e-05,9.765361853802544e-05,-0.0016128994715408043,0.007202823500145777,0.9930412724736681
2016-06-27,-1,-0.0006820483670827808,-0.0005087475310741791,-0.0016128994715408043,0.007202823500145777,0.9940268345257379
2016-06-29,0,-9.693799090510489e-05,4.9210827388410225e-06,-0.0016340148524774294,0.0038313557080444736,0.9952439442506585
2016-07-01,1,0.0005130686254677355,0.0005326263217251567,-0.0016340148524774294,0.0029313505795324772,0.9963321906800217
2016-07-06,0,-5.470505197634326e-05,6.766599983689048e-05,-0.001605678459706567,0.0029313505795324772,0.9964367060404272
2016-07-08,1,0.0005243403189093383,0.0005362668799039204,-0.001605678459706567,0.0029313505795324772,0.9968109130864701
2016-07-12,1,0.00074721130004355,0.0007685131303152758,-0.001605678459706567,0.0012827259756215213,0.9971808894838577
2016-07-14,1,0.0009162705212744124,0.0009653318699660287,-0.001605678459706567,0.00220394750745746,0.9969634346147865
2016-07-18,1,0.0008293361295418253,0.0008659450315252364,-0.0020189619975581404,0.0017402702974189817,0.9969121312153156
2016-07-20,1,0.0007471876045152212,0.0007728899089963214,-0.0034048812428558173,0.00220394750745746,0.9964056063483555
2016-07-22,1,0.0007803969188633095,0.0008166412288209029,-0.0033556292337497446,0.0024025227178695696,0.9964606738977729
2016-07-26,1,0.00034976448536890665,0.0003742964706636413,-0.001971714561343433,0.0026662521461361757,0.9969991941025266
2016-07-28,1,0.00043203269104849225,0.00043675642233332673,-0.0022535408104253176,0.0024025227178695696,0.9970895448932097
2016-08-01,1,0.0003026476185295633,0.00033259590704083744,-0.0022535408104253176,0.0026725774038361527,0.9968835421262351
2016-08-03,1,0.00036917889577391366,0.0003808126395619891,-0.003053724159658863,0.0026725774038361527,0.9965033751621087
2016-08-05,1,0.0004714260239932277,0.000477793113125647,-0.0022535408104253176,0.003571388986788356,0.9964748466674129
2016-08-09,1,0.00036528124366036637,0.0003686453947085259,-0.0032138869251056223,0.003571388986788356,0.9962319416189712
2016-08-11,1,0.000743143381611527,0.0007932787603868891,-0.003860694885143667,0.002664606618473697,0.9955793620689767
2016-08-15,1,0.0005524642144908664,0.0005686010048666792,-0.003860694885143667,0.003571388986788356,0.9946039485499345
2016-08-17,1,0.0006647967554647685,0.0007105813927976309,-0.0032138869251056223,0.003963923504145119,0.9947369941720469
2016-08-19,1,0.0006164576282319174,0.0006567248424434775,-0.0032384642801592655,0.004249274543681133,0.9941502723986706
2016-08-23,1,0.0006377097470722028,0.0006861377667021289,-0.002900509908097075,0.005115566296259345,0.9937597526329218
2016-08-25,1,0.00041402088698669294,0.00041527988915177907,-0.004213640687542378,0.005115566296259345,0.9931344139411238
2016-08-29,1,0.0006289192190959875,0.0006647059196787873,-0.005817891559118091,0.004703639444422879,0.9930002233159
2016-08-31,1,0.00030375087573908063,0.00031963733211080446,-0.008254323037566845,0.005115566296259345,0.992388503668084
2016-09-02,1,0.0006132052105323057,0.0006541229637859532,-0.008254323037566845,0.005115566296259345,0.9922272837714948
2016-09-07,1,0.0004480685193166676,0.0004644494077665209,-0.009347618829485973,0.005115566296259345,0.991400555469089
2016-09-09,-1,-0.00011201143797310285,-6.651264580581477e-05,-0.008254323037566845,0.005115566296259345,0.9923819565559976
2016-09-13,-1,-0.00018222344119570738,-0.00011968138115692835,-0.008221057026493155,0.00492285488324779,0.9931822135465521
2016-09-15,-1,-8.837982686563833e-05,-3.697976405603876e-05,-0.008221057026493155,0.004327710563402332,0.9934616011650181
2016-09-19,-1,-0.00019283156023715422,-0.00012245840727010483,-0.007093845119027445,0.002525837251252487,0.99424283328432
2016-09-21,1,0.00018972148222896147,0.00022170807872656936,-0.007093845119027445,0.0017815515399692105,0.9948947563366533
2016-09-23,-1,-0.00021142865463174014,-0.00013593914090392258,-0.00495108862680924,0.0017815515399692105,0.9956365348819116
2016-09-27,-1,-0.0003929183367835282,-0.00029829871723974704,-0.00495108862680924,0.0017815515399692105,0.9942115357290566
2016-09-29,-1,-0.0005326590957144165,-0.0004225730880014876,-0.004389008830826143,0.0017052132018307263,0.9949066244738707
2016-10-03,-1,-0.0005168508362823123,-0.0004143107156437733,-0.0032140958161725425,0.0005979426371183337,0.9953353164164372
2016-10-05,-1,-0.0009905092867817477,-0.000823177220618639,-0.0032140958161725425,0.0005979426371183337,0.9957882266277096
2016-10-07,-1,-0.0011479476441919848,-0.0009603300676375914,-0.002298362258729904,0.0017052132018307263,0.995565508744585
2016-10-11,-1,-0.0016105195981861709,-0.0013537820505719672,-0.002103334439429469,0.0030268100326816443,0.9943814729118842
2016-10-13,-1,-0.0011779906576244704,-0.0009886718010936534,-0.002298362258729904,0.0068779586776501755,0.9933711196087159
2016-10-17,-1,-0.0011656143685602042,-0.00099430173602719,-0.003061953221456086,0.0068779586776501755,0.9926897037419604
2016-10-19,-1,-0.0013434762179546178,-0.0011409298136200344,-0.0039325810466767745,0.007622832417012975,0.9917447306317729
2016-10-21,-1,-0.0012071477652785454,-0.0010240449487528688,-0.0039325810466767745,0.007622832417012975,0.9914531194702177
2016-10-25,-1,-0.0017504016051698348,-0.001499197253349612,-0.0039325810466767745,0.0068779586776501755,0.9928273453385691
2016-10-27,-1,-0.0016548307905622714,-0.0014308340455284358,-0.003061953221456086,0.007299107792575884,0.9925248938145389
2016-10-31,-1,-0.001791406654845051,-0.0015473973498365604,-0.0042331255778574285,0.007299107792575884,0.9922814489853595
2016-11-02,-1,-0.0018143105082685075,-0.0015461799220096023,-0.0042331255778574285,0.006777721672674074,0.9924973649171425
2016-11-04,-1,-0.0018200904142833775,-0.001556831197052922,-0.004949761415977687,0.005686404088457661,0.9927486380237813
2016-11-08,-1,-0.0009939278349158534,-0.0008352310284434005,-0.004949761415977687,0.004738311115032286,0.9929769441477189
2016-11-10,-1,-9.78785629132409e-05,-5.663335008182792e-05,-0.004949761415977687,0.004738311115032286,0.9936147616909573
2016-11-14,-1,-0.0004121183581931075,-0.00035666049248500196,-0.004556139463186574,0.005497412288095965,0.9938590643229981
2016-11-16,-1,-0.0013451688353324784,-0.0011256432429938667,-0.004556139463186574,0.004609365644396434,0.9940888793630008
2016-11-18,-1,-0.0007711053502918897,-0.0006500986368291855,-0.004556139463186574,0.005497412288095965,0.9938070166792394
2016-11-22,-1,-0.0005729598215318708,-0.0005040943764775098,-0.0035904524643433976,0.005497412288095965,0.9941240780624742
2016-11-25,-1,-0.00023656840145257126,-0.0002069556138878076,-0.0035904524643433976,0.004532143580113666,0.9942733884987146
2016-11-29,-1,-0.00021437659157146795,-0.00020359812385673502,-0.0035904524643433976,0.004532143580113666,0.9943439555705434
2016-12-01,0,-5.843931931246181e-07,3.242587867564242e-05,-0.0027044249117413504,0.0040797342197905935,0.9947720760346221
2016-12-05,-1,-5.664291183884605e-05,-1.6079480209523045e-05,-0.0026113695710434574,0.0040797342197905935,0.9948372079262294
2016-12-07,1,0.0009373761645968758,0.0011087056887578682,-0.003005102443416533,0.0031948314825464862,0.9959573595248412
2016-12-09,1,0.0012039094038109118,0.0014121716647947135,-0.003538710157276778,0.002794224841544748,0.9961389005918291
2016-12-13,1,0.0011104647623652593,0.0013033544702865988,-0.0033184062971148404,0.002794224841544748,0.99620105832156
2016-12-15,1,0.00045789057426182166,0.0005444186951012608,-0.002625238783041603,0.002794224841544748,0.9969376296974559
2016-12-19,1,0.0007415200265174816,0.0008651991849990832,-0.002625238783041603,0.0020774029716073444,0.9971619416806559
2016-12-21,1,0.000745748476131409,0.0008741789639325964,-0.002625238783041603,0.0016006164530483204,0.9972338878928019
2016-12-23,1,0.0007523084301549725,0.0008771368908181179,-0.0030392402750211607,0.0016006164530483204,0.9966490710983441
2016-12-28,1,0.0006849034333891377,0.000806367187538201,-0.002625238783041603,0.0021213459075438367,0.99677452886112
2016-12-30,1,0.0007375452091587484,0.000860757329928864,-0.0034204377506386824,0.0018688523669851166,0.9959968574861843
2017-01-04,1,0.0009996737960702275,0.0011878379748605145,-0.003538710157276778,0.0022330185178617806,0.9957703350261242
2017-01-06,1,0.0010207992746659026,0.0011968892403753308,-0.003538328115986736,0.002434641029036325,0.9958459387900722
2017-01-10,1,0.0006186772238553275,0.0007441495277538692,-0.0014298703456578762,0.003906627942654495,0.9960039258954358
2017-01-12,1,0.0008627304722360724,0.0010188786976971296,-0.0008154774884069301,0.0043896973310361635,0.9960424447558697
2017-01-17,1,0.0007474963895563202,0.0008844907866321276,-0.00018182829247370073,0.0046859529960900925,0.9955233674341168
2017-01-19,1,0.0009131801868428287,0.0010704472575554143,-0.00018182829247370073,0.0046859529960900925,0.9954300706399226
2017-01-23,1,0.0010442813888560853,0.0012307771127431485,-0.0003698806377845636,0.0046859529960900925,0.9953785328235353
2017-01-25,1,0.0005877453971702101,0.0007011649470626256,0.000467700781115207,0.006203292915488147,0.9951964600428524
2017-01-27,1,0.000878405974344177,0.0010447123404295398,-0.0003698806377845636,0.006203292915488147,0.9952850715576735
2017-01-31,1,0.00045440250326865686,0.0005535334338200128,0.0004986707779632692,0.0065648228859766155,0.9948174514048969
2017-02-02,1,3.2054721276990827e-05,4.034757084252833e-05,0.0002966402080454244,0.0065648228859766155,0.9947394504816623
2017-02-06,1,0.00025465354000435165,0.00029679731426230163,-0.0004229412572107186,0.0065648228859766155,0.9949627744854949
2017-02-08,1,0.0006511323697418383,0.000756676499661842,-0.0004229412572107186,0.006203292915488147,0.9954927170788298
2017-02-10,1,0.0008000597727550562,0.0009225977235638556,-0.0004229412572107186,0.006360745659046955,0.995664111574574
2017-02-14,1,0.0014244809837055726,0.0016612349560266152,-0.002251354089709148,0.00497361585923054,0.9958731908400245
2017-02-16,1,0.0014245615823233145,0.0016303072740438758,-0.002548045792704425,0.00497361585923054,0.9955315175609745
2017-02-21,1,0.001301548679210133,0.0014846878661300567,-0.0027499807360052793,0.00497361585923054,0.995364422748891
2017-02-23,1,0.0017033909094586485,0.001929460860053234,-0.0027499807360052793,0.0025106284506596927,0.996027483096111
2017-02-27,1,0.0015412048788932798,0.0017420758077151119,-0.0031105283233013844,0.0025106284506596927,0.9956993007144737
2017-03-01,1,0.0017632745201601476,0.0019723748999572795,-0.0031105283233013844,0.0024010612991585785,0.9964925368975512
2017-03-03,1,0.0014663234304820273,0.0016259452311201893,-0.0024440555750081723,0.002992251715879337,0.9967181878083878
2017-03-07,1,0.0012498219434904576,0.001361675393601325,-0.003210880157108741,0.002992251715879337,0.996478614499302
2017-03-09,1,0.0013127511679915434,0.0014359689960578095,-0.003210880157108741,0.002992251715879337,0.9963337707972638
2017-03-13,1,0.0014094056657649105,0.0015359258570386408,-0.003210880157108741,0.0011301847503021431,0.9963789707785772
2017-03-15,1,0.0012931412357948147,0.0013980979347298157,-0.002881255404387958,0.0008693987093458548,0.9967782409050988
2017-03-17,1,0.0014659157900004352,0.0015931988904918613,-0.002881255404387958,0.0008693987093458548,0.9967367162286757
2017-03-21,1,0.000985869161634695,0.0010115170780346542,-0.0022324249146702603,0.00048297352438770723,0.9971159650750115
2017-03-23,1,0.0008222207939348001,0.0008288502994821489,-0.0022324249146702603,0.0018083557811434318,0.9969384640215616
2017-03-27,1,0.0003987366903097138,0.000462594072794631,-0.0018665364564807209,0.002992251715879337,0.9967062069366106
2017-03-29,1,0.0003707872805539035,0.00043213412941704645,-0.0018665364564807209,0.003518431163422395,0.9966186770391045
2017-03-31,1,0.0003090078023897325,0.0003802598182493552,-0.0019725929054359966,0.002581659523778737,0.9964078536969415
2017-04-04,1,0.000628770079509723,0.0006347561971820757,-0.0015652698216662548,0.0056209334159593345,0.9960134380283038
2017-04-06,1,0.0009096892095434879,0.0009675150533411863,-0.0014392617522949245,0.006020802702979553,0.9956823404196744
2017-04-10,1,0.00057847772686987,0.0005804119560966586,-0.0019725929054359966,0.006020802702979553,0.9953416246385565
2017-04-12,1,0.0003891244608475598,0.00042805077194945317,-0.0024060361167744485,0.006020802702979553,0.9951933521160162
2017-04-17,1,0.0005605619512146629,0.0005742348404436303,-0.0015833865186486704,0.0056209334159593345,0.995590117617906
2017-04-19,1,0.0002232875416701321,0.0002910182897598163,-0.0019391682607743672,0.0056209334159593345,0.9949438004547438
2017-04-21,1,0.0006195149621229973,0.0006273876872863914,-0.0019391682607743672,0.005443636558580092,0.9951341550724518
2017-04-25,1,0.0010692680737225543,0.00110577345829904,-0.003545356999034987,0.005443636558580092,0.9950966351464099
2017-04-27,1,0.001038280507804118,0.001065659682642264,-0.003545356999034987,0.005443636558580092,0.9948363066964868
2017-05-01,1,0.0005427060086190743,0.0005897508051185784,-0.0017786405852209918,0.006452405428462271,0.994618273986618
2017-05-03,1,0.001432101955359967,0.0015448268371936822,-0.0017786405852209918,0.006452405428462271,0.994777649624624
2017-05-05,1,0.0017189186786523887,0.0018869792332580388,-0.0026099844309468473,0.006452405428462271,0.9945891548171976
2017-05-09,1,0.0014022754697449308,0.0015281228040933154,-0.002041073413913441,0.006452405428462271,0.994668053208297
2017-05-11,1,0.0009018942775840217,0.0009284988188780645,-0.0013971375990532585,0.006452405428462271,0.9946423339510433
2017-05-15,1,0.0011162520112805402,0.0011883846513735341,-0.0013971375990532585,0.008425287554269105,0.9946159182471603
2017-05-17,1,0.0006078497996261067,0.0006095311017008781,-0.0007435762079386858,0.008425287554269105,0.9948043872749168
2017-05-19,1,0.000756487336211806,0.0007759804179145845,-0.0007435762079386858,0.00892262459193093,0.9946141486579615
2017-05-23,1,0.0008551262353972611,0.0008769182126224525,-0.0007435762079386858,0.008425287554269105,0.9953232883846839
2017-05-25,1,0.0011337932191087786,0.0011933934608824638,-0.0009269868077478012,0.006644596434681644,0.995667933863312
2017-05-30,1,0.0014515772881674397,0.0015476310914167752,-0.002041073413913441,0.005129118998146638,0.995448153955435
2017-06-01,1,0.0015356421586134746,0.0016430551223380273,-0.00232750336044963,0.004604096660691543,0.9951300876501129
2017-06-05,1,0.0014150064079124845,0.0014830679336155612,-0.0020463913141511208,0.004604096660691543,0.9954661800991625
2017-06-07,1,0.001267357985468257,0.0013220244694070525,-0.001607447031072047,0.004604096660691543,0.9953075603960972
2017-06-09,1,0.0013766138154426449,0.001437344353961572,-0.001607447031072047,0.004751679793367076,0.9951981018651687
2017-06-13,1,0.001642926536477629,0.0017486222482092967,-0.002509259839719298,0.004751679793367076,0.9950142062687516
2017-06-15,1,0.0017698945056008482,0.0018882660213282308,-0.002509259839719298,0.004076668517337961,0.9951307253488603
2017-06-19,1,0.0017888487313219193,0.0018747616265920954,-0.002509259839719298,0.003417103669434301,0.99525183630323
2017-06-21,1,0.0016440844150140028,0.001711520849505768,-0.002062590832075465,0.0038050120633259135,0.9954694571026571
2017-06-23,1,0.0012006035546277764,0.0012173914564184375,-0.004330762075738095,0.0038050120633259135,0.9950663143180791
2017-06-27,1,0.00026619457576850463,0.0003661366319905103,-0.004330762075738095,0.0038050120633259135,0.9933363431313296
2017-06-29,1,4.344818980670217e-05,0.00016483498157917698,-0.0023399295954333018,0.003877503143450905,0.9938807578035992
2017-07-03,1,0.00036939815574854975,0.00044359761266494905,-0.0023399295954333018,0.004501825580100622,0.9934445924961047
2017-07-06,1,3.6819626017605e-05,0.00014350175307641225,-0.0017623012538151577,0.007331939908502622,0.9928639317851108
2017-07-10,1,0.0005882308906066389,0.0006186217987056198,-0.0017623012538151577,0.005658695011789267,0.9932974919902893
2017-07-12,1,0.0007204064941673586,0.0007212148510703922,-0.0017623012538151577,0.004085186965838592,0.9935518018714232
2017-07-14,1,0.0006359064351069528,0.0006525227121171126,-0.0017623012538151577,0.004085186965838592,0.9935992480612803
2017-07-18,1,0.0007401467926346932,0.0007631161863226856,-0.0016885750137768825,0.005530714075475914,0.9933742171120384
2017-07-20,1,0.0006510704643413116,0.0006515427306317729,-0.00257136358859713,0.005530714075475914,0.9927986370234695
2017-07-24,1,0.0005680590673996881,0.0005798717979765328,-0.0016885750137768825,0.005530714075475914,0.9927699442528979
2017-07-26,-1,-0.0009053498084401521,-0.0007334509536678044,-0.0013215782734754052,0.005530714075475914,0.9945401045643741
2017-07-28,-1,-0.0007889125582317778,-0.0006302092198479192,-0.0015876256500868618,0.005445731713473983,0.9947425835376998
2017-08-01,-1,-0.00031452693134637164,-0.00021418636280345752,-0.0015876256500868618,0.0037910519490159614,0.9954173565748042
2017-08-03,1,0.0004259272372969558,0.00043012181653459325,-0.0015876256500868618,0.003212669452584139,0.9960882571957516
2017-08-07,1,0.00014856708007798412,0.00018679435111571306,-0.004007008520466902,0.003212669452584139,0.995380382362452
2017-08-09,1,0.00011377527240079967,0.00014647628307263536,-0.0029652654542345097,0.003958166925317908,0.994793227756399
2017-08-11,-1,-0.00018663821383992419,-0.00010699074855678579,-0.0029652654542345097,0.00508966276915827,0.9936580163541842
2017-08-15,0,-3.897707964582416e-05,2.4988599263618965e-05,-0.0029652654542345097,0.0045894977056374145,0.9940163552178514
2017-08-17,-1,-0.0005097676503618222,-0.00038010823402616557,-0.001215058955309663,0.005496918418764053,0.9937499879180144
2017-08-21,-1,-0.0005295637839357681,-0.000391493434669042,-0.0007705160184674558,0.005496918418764053,0.994291794248034
2017-08-23,-1,-0.0009297230744157492,-0.0007468059636849286,-0.0007705160184674558,0.005496918418764053,0.994342098008966
2017-08-25,-1,-0.0011673599759510506,-0.0009486213906180519,-0.00042823686412610875,0.005496918418764053,0.9941727776749333
2017-08-29,-1,-0.0009465394638789774,-0.0007498065236899954,-0.0007705160184674558,0.005496918418764053,0.9941688699243583
2017-08-31,-1,-0.0009103947291185346,-0.0007126964337544054,-0.0007705160184674558,0.005496918418764053,0.9944313514008782
2017-09-05,-1,-0.0012834372770747717,-0.0010014950100094683,-0.00018987418095745738,0.008650744885913011,0.993713741601773
2017-09-07,-1,-0.0007247042664741053,-0.000550392608780524,-0.0004225707951871067,0.008650744885913011,0.9945145563744834
2017-09-11,1,0.00011830889529791325,0.0002508440054966433,-0.0004225707951871067,0.003568077507735888,0.9960003104626379
2017-09-13,0,-5.3060550111258206e-05,8.488048223483102e-05,-0.0004225707951871067,0.003568077507735888,0.9959361631454733
2017-09-15,1,0.0006488086642000351,0.0006706595773192409,-0.0004225707951871067,0.001733069151456376,0.9966348755876091
2017-09-19,1,0.00034143799184591084,0.00036406552175957744,-0.0004225707951871067,0.00240091535634467,0.9963045043340263
