JNU-Tangyin/eata/results/Batch4_SP500/Batch4_SP500-URI.csv
Date,Action,Predicted_Q25,Predicted_Q75,Actual_Q25,Actual_Q75,RL_Reward
2010-12-14,0,0.0,0.0,-0.0016820999110645032,0.010220299617881349,0.9897801094692603
2010-12-16,0,0.0,0.0,-0.0009424370093452025,0.019543746852249785,0.9887037326161755
2010-12-20,0,0.0,0.0,-0.0014609026091846533,0.019543746852249785,0.9877414576694237
2010-12-22,0,0.0,0.0,-0.0014609026091846533,0.016735065917079163,0.9874983104950485
2010-12-27,0,0.0,0.0,-0.0010846281176282574,0.021216549949835857,0.9861062163930583
2010-12-29,0,0.0,0.0,-0.0010846281176282574,0.032326033439620275,0.9833234888597483
2010-12-31,0,0.0,0.0,-0.0021086732359136677,0.032326033439620275,0.9809723908118119
2011-01-04,0,0.0,0.0,-0.0021086732359136677,0.032563518236214416,0.9793204813603329
2011-01-06,0,0.0,0.0,-0.0021086732359136677,0.032563518236214416,0.9779968801994368
2011-01-10,1,0.0037059948092680586,0.003893501931873448,-0.002110599940754138,0.032563518236214416,0.9793042873971353
2011-01-12,1,0.0039716647192236144,0.004183023613295004,0.000963790533741038,0.032563518236214416,0.9792216754247648
2011-01-14,1,0.003072815329026951,0.003079872411589618,-0.0033423874243710436,0.032563518236214416,0.9779222964632399
2011-01-19,0,0.0,0.0,-0.000491120956596188,0.032563518236214416,0.9771285410129531
2011-01-21,0,0.0,0.0,-0.000491120956596188,0.032563518236214416,0.9771589376507996
2011-01-25,1,0.0028961389471995175,0.0033498931768622215,-0.01183059723110813,0.026646155446018997,0.9765840601747506
2011-01-27,1,0.005473200026878139,0.005478494418623063,-0.013608729808540675,0.026646155446018997,0.975269710815442
2011-01-31,0,0.0,0.0,-0.01795167361453165,0.026646155446018997,0.9736855241962173
2011-02-02,1,0.004708642804505623,0.00478274660059111,-0.01795167361453165,0.02525275774131082,0.9749420348148122
2011-02-04,0,0.0,0.0,-0.021788402701282027,0.02120426719442319,0.9759603950299044
2011-02-08,1,0.004307817284780577,0.004388081268613912,-0.021788402701282027,0.01606389286022141,0.9758561817032715
2011-02-10,1,0.0045407960158964904,0.0046942623119222955,-0.023980922086731048,0.014871707145117477,0.9741882088099053
2011-02-14,1,0.005568814960767998,0.005834185918864421,-0.023980922086731048,0.012123026609711884,0.9765549330394218
2011-02-16,0,0.0,0.0,-0.021788402701282027,0.014109650143969168,0.9786481582416663
2011-02-18,1,0.004230745837832857,0.004291598048861239,-0.021788402701282027,0.014109650143969168,0.9766846651179572
2011-02-23,1,0.002947076878410593,0.0030086493650562044,-0.014887639504124134,0.014109650143969168,0.9792867305155247
2011-02-25,1,0.005583774671752341,0.005981506340450816,-0.013535397290766435,0.01745997084665451,0.9818451141057578
2011-03-01,0,0.0,0.0,-0.009404054576945752,0.01745997084665451,0.9849380263205337
2011-03-03,1,0.0019940718251039782,0.00223512124401584,-0.009404054576945752,0.013683839653034597,0.9865449194937734
2011-03-07,0,0.0,0.0,-0.0028992690223723404,0.015546739052415113,0.9871718815091276
2011-03-09,1,0.0021497586020800723,0.002487005768896668,-0.0028992690223723404,0.015546739052415113,0.9876669546158889
2011-03-11,1,0.0008949697614087423,0.001373914181210012,-0.004824290464749059,0.015546739052415113,0.9877240774588202
2011-03-15,1,0.0012734120516150005,0.001726949652714078,-0.011361017925030545,0.015546739052415113,0.9864397417782391
2011-03-17,1,0.002560834545538233,0.002786917605889953,-0.011361017925030545,0.011760766984934811,0.98655961817569
2011-03-21,1,0.003006395853841842,0.003191172044620551,-0.012822521122568101,0.011727819029212536,0.986300936730039
2011-03-23,1,0.0021364963197203473,0.002424555553719172,-0.012822521122568101,0.014925195145450102,0.9816707931566289
2011-03-25,1,0.0030181461935592825,0.003175473587339016,-0.015381296563700029,0.011727819029212536,0.9797183474695333
2011-03-29,0,0.0,0.0,-0.015381296563700029,0.011727819029212536,0.9797799404153498
2011-03-31,0,0.0,0.0,-0.018269342281382897,0.011727819029212536,0.979467661856443
2011-04-04,0,0.0,0.0,-0.01983880036161795,0.009588368669651072,0.9784580649980068
2011-04-06,0,0.0,0.0,-0.022353026280731755,0.007709818487510395,0.9776875855811957
2011-04-08,-1,-0.0007924905405635737,-0.0007436416622107449,-0.018269342281382897,0.009755823053859768,0.9788653179485044
2011-04-12,0,0.0,0.0,-0.022332966216379507,0.012230182181838625,0.9769922354727666
2011-04-14,0,0.0,0.0,-0.024821622124924277,0.012230182181838625,0.9757919020010033
2011-04-18,0,0.0,0.0,-0.024821622124924277,0.008238819862626768,0.9767009803994865
2011-04-20,0,0.0,0.0,-0.020008546181943657,0.008238819862626768,0.9816293467004835
2011-04-25,0,0.0,0.0,-0.02432224600297399,0.005377316301452763,0.9826950001560166
2011-04-27,0,0.0,0.0,-0.02432224600297399,0.0020133195695761427,0.9810276764422508
2011-04-29,-1,-0.003317157744631362,-0.0029545345723650533,-0.02432224600297399,0.009851426122379303,0.982803386279129
2011-05-03,-1,-0.006200676427041044,-0.004916872541348779,-0.02432224600297399,0.010279136569505663,0.9786859663396664
2011-05-05,0,0.0,0.0,-0.02432224600297399,0.010279136569505663,0.9771587578578758
2011-05-09,-1,-0.006268137958359256,-0.005093600843792505,-0.02879083077915061,0.009851426122379303,0.9787825525597164
2011-05-11,-1,-0.006799028597814467,-0.005557915425306553,-0.02879083077915061,0.009851426122379303,0.9774026376377192
2011-05-13,-1,-0.0086761722173847,-0.007190737668432886,-0.02879083077915061,0.009851426122379303,0.9773125249247373
2011-05-17,-1,-0.009667545275348237,-0.008105939993302998,-0.02879083077915061,0.01293027291247616,0.9740943076028725
2011-05-19,-1,-0.00908459258001075,-0.007591414223976206,-0.02879083077915061,0.009851426122379303,0.974961673000273
2011-05-23,-1,-0.010784835300355983,-0.009088961064451274,-0.02386810705290368,0.014769845572571915,0.9731076504470397
2011-05-25,-1,-0.009746050883451353,-0.008172841760367183,-0.02386810705290368,0.009851426122379303,0.9752324525343375
2011-05-27,-1,-0.008409299081192822,-0.007051462349322695,-0.029167029214013658,0.008988298006006971,0.9748747653731642
2011-06-01,-1,-0.007858713340506127,-0.0066133047878018355,-0.02386810705290368,0.008988298006006971,0.9779214613370372
2011-06-03,0,0.0,0.0,-0.016156903104134843,0.0321041996893433,0.9753952085866492
2011-06-07,0,0.0,0.0,-0.02352411146894002,0.0321041996893433,0.9744024162148363
2011-06-09,0,0.0,0.0,-0.02323437324060533,0.04051414178384097,0.9747956761872995
2011-06-13,0,0.0,0.0,-0.02621011810453186,0.04051414178384097,0.9738219350648976
2011-06-15,-1,-0.00809175357605957,-0.007036556040776166,-0.02621011810453186,0.018944654011653895,0.9758767699363134
2011-06-17,0,0.0,0.0,-0.02758894406878622,0.018944654011653895,0.9739183956345734
2011-06-21,-1,-0.006613638808622542,-0.005745003666651385,-0.02758894406878622,0.032632572890730245,0.971823109458946
2011-06-23,0,0.0,0.0,-0.02758894406878622,0.03500279118671208,0.9683841617089437
2011-06-27,-1,-0.0031619897432056854,-0.0029280559777154565,-0.02758894406878622,0.03500279118671208,0.9686794647704978
2011-06-29,-1,-0.00025918359812500153,-5.275640019025349e-05,-0.029706450100751257,0.03181957598151766,0.9671131844966898
2011-07-01,1,0.0013488512998934472,0.0017924295513432943,-0.029706450100751257,0.0002572226840354113,0.9688782531889947
2011-07-06,1,8.658931132839263e-05,0.00040056021751879887,-0.029765854757250392,0.0002572226840354113,0.9682177566286508
2011-07-08,0,0.0,0.0,-0.032007597955236514,-0.004230232095889962,0.9669204568499477
2011-07-12,0,0.0,0.0,-0.032007597955236514,0.016528686319027715,0.9615188453046956
2011-07-14,0,0.0,0.0,-0.037957806217972664,0.030337201511266017,0.9562254195854146
2011-07-18,-1,-0.006805623639408176,-0.006401021632970353,-0.037957806217972664,0.03181957598151766,0.9553415169762725
2011-07-20,1,0.0003577496114851805,0.0007438627024555827,-0.037957806217972664,0.03047706028019493,0.9579693479955148
2011-07-22,0,0.0,0.0,-0.07062241768940145,-0.005369587595472054,0.9528586806586496
2011-07-26,0,0.0,0.0,-0.07062241768940145,0.020702305705937972,0.9509995096281668
2011-07-28,-1,-0.003011058109191177,-0.002814188588254204,-0.07062241768940145,0.025900995355414572,0.9528790527107142
2011-08-01,-1,-0.0034672913703647874,-0.0032743750955634685,-0.07062241768940145,0.050762795943234684,0.9475440256728939
2011-08-03,-1,-0.006618467494069793,-0.006027592597220372,-0.031067869086167925,0.050762795943234684,0.9499656991504375
2011-08-05,-1,-0.009315817648580775,-0.008423715396286672,-0.028311263318806915,0.050762795943234684,0.9525478265479155
2011-08-09,-1,-0.009809306256224986,-0.008909755539179665,-0.017886526970687704,0.050762795943234684,0.9544541539091228
2011-08-11,0,0.0,0.0,-0.020842844312772356,0.03456743842183986,0.9589254989015938
2011-08-15,-1,-0.004690556415507619,-0.004371135957545015,-0.020842844312772356,0.032103410380464714,0.9598839328290637
2011-08-17,-1,-0.004060094926928688,-0.003976240424790626,-0.01919329918374615,0.056088869750853844,0.9559420198815801
2011-08-19,-1,-0.009891676513207572,-0.009139390644122707,-0.014851851119713324,0.056088869750853844,0.9610408401002479
2011-08-23,-1,-0.005107051520565672,-0.004978963679314876,-0.019663309973833046,0.0459264319893865,0.9623864299547898
2011-08-25,-1,-0.002612570232787636,-0.0023815188374627216,-0.02646663210511061,0.0459264319893865,0.9612826368306789
2011-08-29,1,0.0029818464509137866,0.003984774285915302,-0.02646663210511061,0.04466495137580367,0.9628457211538962
2011-08-31,1,0.0014108375417730334,0.0021142222123594007,-0.031671992192999335,0.04466495137580367,0.9624050161872768
2011-09-02,-1,-0.001344698665084446,-0.0010489633098042443,-0.031671992192999335,0.04466495137580367,0.9620151320565085
2011-09-07,1,0.0023901024436301164,0.0032127428772552613,-0.031671992192999335,0.051202747276827776,0.9593700725852413
2011-09-09,-1,-0.0005887238358495877,-0.00018522347341442917,-0.022125316775966693,0.055362052498259776,0.9593490283121702
2011-09-13,1,0.0003315339389299214,0.0007532558530229411,-0.022125316775966693,0.05157761065751128,0.9605440537849169
2011-09-15,1,0.004910217104482398,0.006000013528935321,-0.022125316775966693,0.04039049675033147,0.9648513383538856
2011-09-19,1,0.005422304151446986,0.006614333325163953,-0.029153117051733138,0.04039049675033147,0.9628334901295583
2011-09-21,1,0.0021268391463029647,0.002901193996145808,-0.01965419503564658,0.05157761065751128,0.9608462409997959
2011-09-23,1,0.0007330345180392138,0.001241157405846212,-0.00822530799125305,0.05157761065751128,0.9618414405794848
2011-09-27,1,0.0035378075710980326,0.004347700618070695,-0.01965419503564658,0.03919827243008371,0.9631741665134234
2011-09-29,1,0.0022136814052600815,0.0028501127704154685,-0.00822530799125305,0.042234717883192406,0.962804930194119
2011-10-03,0,-0.0001596738717297789,0.00015923719238715168,-0.007359804643759892,0.042234717883192406,0.9628636954822145
2011-10-05,1,0.005508553316154529,0.006500825367790831,-0.017057684993167108,0.03759511928018262,0.968913648645185
2011-10-07,1,0.006353115321169799,0.0073836976960946306,-0.007359804643759892,0.03759511928018262,0.9703394565629155
2011-10-11,0,0.0,0.0,-0.00973208689347357,0.03919827243008371,0.9685308792887101
2011-10-13,0,0.0,0.0,-0.01961397223975086,0.04052464942591699,0.9630494136733183
2011-10-17,0,0.0,0.0,-0.009896299297851217,0.04052464942591699,0.96557754598652
2011-10-19,0,0.0,0.0,-0.009896299297851217,0.0364756354603203,0.9710447301391792
2011-10-21,0,0.0,0.0,-0.01961397223975086,0.03423050601570631,0.9704315913396754
2011-10-25,0,0.0,0.0,-0.015952022403405597,0.026937885131895666,0.9734342971457337
2011-10-27,1,0.008844955051945647,0.010251009293359082,-0.020197386159247516,0.018298197477856694,0.9724322166036993
2011-10-31,1,0.006336731124709246,0.007352950032417774,-0.010090770604350104,0.026937885131895666,0.9735881611340146
2011-11-02,1,0.006151440151619773,0.007099183616639885,-0.008000262156398,0.028148604606970395,0.972458749174244
2011-11-04,1,0.007875762429954655,0.009088738286386526,-0.008000262156398,0.018298197477856694,0.974214561962528
2011-11-08,1,0.008806050674438458,0.010142017743648452,-0.010263910979045943,0.013148561947454007,0.9743999725798955
2011-11-10,1,0.010067587652278599,0.01164790951125767,-0.008862302682209347,0.013148561947454007,0.9788158250024409
2011-11-14,1,0.009848728033881987,0.011365172866077194,-0.016955150714335936,0.009269186522610332,0.9766810799956401
2011-11-16,1,0.009600451865005143,0.011029571466395464,-0.018609335268994758,0.009067996621294547,0.9764459370874395
2011-11-18,1,0.008939921773894018,0.010367683517998851,-0.016955150714335936,0.012814989325212587,0.9765020935987156
2011-11-22,1,0.010089404164286551,0.011849075579281623,-0.012750325823826146,0.017187571070386168,0.9756298810392596
2011-11-25,1,0.007664216271184737,0.008973611272743454,-0.01256967968369652,0.017482022619544405,0.9766979986394915
2011-11-29,1,0.010226998095173728,0.011927537834113041,-0.017672355468248115,0.015157314571076866,0.976938721326818
2011-12-01,1,0.01083321466285565,0.012506874270992556,-0.017672355468248115,0.014816330306586852,0.9801892205218793
2011-12-05,1,0.009910772065722077,0.011348722557032348,-0.018609335268994758,0.015157314571076866,0.9790638174177249
2011-12-07,1,0.008495306752913668,0.009660989031280404,-0.018067396848605876,0.015157314571076866,0.9799339080155196
2011-12-09,1,0.010116129908947315,0.011678346573313205,-0.018067396848605876,0.015157314571076866,0.9780128462473954
2011-12-13,1,0.009271467471311067,0.010857212957373333,-0.0065558021377850155,0.015157314571076866,0.9806008800231639
2011-12-15,1,0.007933722717439813,0.009235136060032633,-0.005189978213893936,0.01761970265642789,0.9808345758930382
2011-12-19,1,0.008787170833694426,0.009989961956801102,-0.005189978213893936,0.01761970265642789,0.9793052485976301
2011-12-21,1,0.010153638510016898,0.011464091345377292,-0.007046050213709917,0.009223756654801522,0.978752102263366
2011-12-23,1,0.008003077908216881,0.008827160141238813,-0.005563343529321545,0.011448040029299809,0.9805229680386448
2011-12-28,1,0.004770080682209692,0.005031996002305824,-0.005189978213893936,0.02369350409611872,0.9788575731767607
2011-12-30,1,0.0038323667896355044,0.00394672648221355,-0.005189978213893936,0.02369350409611872,0.9785800493307558
2012-01-04,1,0.004485958044560539,0.004730909582413236,-0.004622868653426438,0.016978142533174655,0.9805666684710189
2012-01-06,1,0.004662207464005572,0.005033073680260997,-0.0034561894688129825,0.02369350409611872,0.9784189995561626
2012-01-10,1,0.005144956251096588,0.005494232232091493,-0.0034561894688129825,0.02243438235976932,0.9805960080433451
2012-01-12,0,-0.0005098032973177746,0.0002455971796015864,-0.005353394239202236,0.02243438235976932,0.9794466964683036
2012-01-17,1,0.0014783140392544917,0.0018425285929196146,-0.003855297412081406,0.02243438235976932,0.9791717760815638
2012-01-19,1,0.0030267987711526346,0.0031907290374240567,-0.0069655982371793716,0.02110581678623567,0.9816946528173344
2012-01-23,1,0.004394950700386985,0.004664281107202052,-0.010730757204728875,0.02110581678623567,0.9810387813530644
2012-01-25,1,0.004582830287742342,0.004792375589885927,-0.010730757204728875,0.02110581678623567,0.9794968129263814
2012-01-27,1,0.004569756567659901,0.004612545945719587,-0.010730757204728875,0.020887818750871836,0.9829921725586356
2012-01-31,1,0.004706919657081061,0.004926988962269369,-0.014350368658141273,0.020887818750871836,0.9815550440252901
2012-02-02,1,0.002311531367748952,0.0025869072970579996,-0.014350368658141273,0.020887818750871836,0.9802922232922363
2012-02-06,1,0.005098618753606298,0.00522192361180491,-0.017752495823398745,0.020099209486029078,0.9806903715648712
2012-02-08,1,0.006130913644951045,0.006563824154324958,-0.017752495823398745,0.02068880812591357,0.9803912038332255
2012-02-10,1,0.004896235909799721,0.005136397491891116,-0.015403471636447945,0.02068880812591357,0.9807886158464733
2012-02-14,1,0.0030899640523784416,0.0032599385905628902,-0.015403471636447945,0.020600485214225223,0.9809129207872241
2012-02-16,1,0.0017811588900459232,0.0021782197323406693,-0.014599027212791738,0.020080671810557053,0.9817117662029946
2012-02-21,1,0.0007125558796927994,0.0011150674446274516,-0.014599027212791738,0.020080671810557053,0.982055708740987
2012-02-23,1,0.001625850761990005,0.0019910354868323864,-0.016042436675184214,0.019109328577095196,0.9825831002420287
2012-02-27,0,-6.758633979737656e-05,0.0006467675999130467,-0.016042436675184214,0.01864822486891128,0.9832349984146274
2012-02-29,1,0.0017402590008069856,0.0019427774975921152,-0.014599027212791738,0.01864822486891128,0.9844420689689728
2012-03-02,1,0.002929190352014592,0.002965721305005245,-0.014599027212791738,0.012014746421047785,0.9854073870775629
2012-03-06,1,0.0017010570074529321,0.001834961135437029,-0.009582400724733466,0.017394548454683384,0.985988911377126
2012-03-08,1,0.003067791562677977,0.0031100416254870047,-0.012890403907596609,0.011402483097079582,0.9853204321280415
2012-03-12,1,0.0010280150862774459,0.0013163369035086594,-0.016042436675184214,0.011402483097079582,0.9819683015344741
2012-03-14,1,0.0032223482543046406,0.003256924757781109,-0.016042436675184214,0.012745598458341969,0.9806276730064014
2012-03-16,1,0.0031068759852247016,0.003158408854342665,-0.013587279240898677,0.012745598458341969,0.9811578996712786
2012-03-20,1,0.001350568415408068,0.0015634546108827608,-0.009568927852545948,0.015580447978610513,0.9780142690279111
2012-03-22,1,0.002374681874628589,0.002403437167053592,-0.009568927852545948,0.014631570246815799,0.9793657070604036
2012-03-26,0,0.0,0.0,-0.01261264405698904,0.012745598458341969,0.9791557286213134
2012-03-28,0,0.0,0.0,-0.014209384880645526,0.014631570246815799,0.9769898572179371
2012-03-30,0,0.0,0.0,-0.014209384880645526,0.01873989723301091,0.9754376726582917
2012-04-03,1,0.002920933802068092,0.0029731205923563715,-0.018773440647972175,0.012913905662255224,0.9748429297351843
2012-04-05,1,0.0010406627900585174,0.0011881637126006162,-0.024658491818666035,0.012913905662255224,0.9742807051248007
2012-04-10,-1,-0.003563649082073621,-0.002881196924646205,-0.015946874371812685,0.013734396337726051,0.9778512672283077
2012-04-12,-1,-0.0020308961702327293,-0.0015348025779361282,-0.015946874371812685,0.013734396337726051,0.979315294840603
2012-04-16,-1,-0.003543010359136006,-0.0027815383017565963,-0.018773440647972175,0.013734396337726051,0.9766014647262661
2012-04-18,-1,-0.001392621349276859,-0.0008527142100434283,-0.03081360654687814,0.007651109727291499,0.9789467947778069
2012-04-20,-1,-0.002658665696820063,-0.0018741692678193238,-0.03195640597552369,0.007651109727291499,0.9740679760254264
2012-04-24,-1,-0.002251520334140472,-0.0015691018854980855,-0.03195640597552369,0.009194186161505509,0.970638010832109
2012-04-26,0,0.0,0.0,-0.03195640597552369,0.009194186161505509,0.9708203159185056
2012-04-30,0,0.0,0.0,-0.03195640597552369,0.00950486076183466,0.9702836354989312
2012-05-02,1,0.0011046938640320607,0.001115860333789472,-0.03691090072969988,0.00950486076183466,0.9674873762496407
2012-05-04,0,0.0,0.0,-0.04279274068872675,0.00950486076183466,0.9646975852686887
2012-05-08,0,0.0,0.0,-0.04279274068872675,0.01706934081783339,0.962332646656427
2012-05-10,0,0.0,0.0,-0.04279274068872675,0.02265917374462738,0.9609919840561459
2012-05-14,0,0.0,0.0,-0.04279274068872675,0.026057268892894413,0.9573912412129998
2012-05-16,0,0.0,0.0,-0.03416270719192447,0.031168872730396653,0.9578279226583735
2012-05-18,0,0.0,0.0,-0.0275953187352361,0.04485160630566451,0.9611087414117294
2012-05-22,0,0.0,0.0,-0.033733913653114525,0.04485160630566451,0.9606248410291607
2012-05-24,0,0.0,0.0,-0.03630540825114029,0.04485160630566451,0.9596698560176736
2012-05-29,0,0.0,0.0,-0.04375396171913222,0.030297697208617545,0.9594379772564975
2012-05-31,-1,-0.015198046745774813,-0.01309748911369359,-0.03139399367672053,0.030297697208617545,0.963367155002203
2012-06-04,0,0.0,0.0,-0.022036081686976478,0.04615113252999952,0.9657435237054409
2012-06-06,0,0.0,0.0,-0.022036081686976478,0.04615113252999952,0.9666030037884806
2012-06-08,0,0.0,0.0,-0.023873749911477015,0.04615113252999952,0.9651682638621042
2012-06-12,0,0.0,0.0,-0.02776288601447175,0.03785262255379056,0.9677618723363819
2012-06-14,0,0.0,0.0,-0.02776288601447175,0.04039147922246997,0.9669430260957215
2012-06-18,0,0.0,0.0,-0.02776288601447175,0.03696385024209743,0.9680164511160604
2012-06-20,-1,-0.0021399502336013816,-0.0017224317657259863,-0.02776288601447175,0.026146516689971887,0.9684069063800758
2012-06-22,-1,-0.004533510510035426,-0.003825407311763342,-0.022760861516500766,0.026146516689971887,0.9686386652417789
2012-06-26,0,0.0,0.0,-0.027870815315112655,0.026146516689971887,0.965901617319608
2012-06-28,0,0.0,0.0,-0.027870815315112655,0.03696385024209743,0.9633635574910802
2012-07-02,-1,-0.006225651466026091,-0.005663018749926564,-0.027870815315112655,0.023809025220520263,0.9652132887834751
2012-07-05,-1,-0.004752252212011805,-0.004311585868792719,-0.03556960219455087,0.018523238280955884,0.9659700216009668
2012-07-09,-1,-0.004271080117021971,-0.003934949357107857,-0.027870815315112655,0.022043844121752858,0.9644825132809307
2012-07-11,-1,-0.007293195923669648,-0.006620544625163347,-0.01708925612226239,0.02769324784365635,0.9656420835480644
2012-07-13,-1,-0.005033316808429946,-0.004554675629047156,-0.01708925612226239,0.018523238280955884,0.9691885443022066
2012-07-17,-1,-0.003900877362744421,-0.0036740401732772983,-0.01146851822255152,0.018523238280955884,0.9702918151600598
2012-07-19,0,0.0,0.0,-0.009214064276206323,0.021681797919373053,0.9735852820654964
2012-07-23,-1,-0.0034218477438296025,-0.0031410859011416973,-0.01146851822255152,0.02769324784365635,0.9710363650770583
2012-07-25,0,0.0,0.0,-0.009214064276206323,0.02769324784365635,0.9765625026617583
2012-07-27,0,0.0,0.0,-0.010937538307053445,0.02015055092245118,0.9789775948005782
2012-07-31,0,0.0,0.0,-0.010937538307053445,0.02015055092245118,0.9788328844504822
2012-08-02,0,0.0,0.0,-0.009738398023071953,0.02015055092245118,0.9810118805200905
2012-08-06,0,0.0,0.0,-0.009738398023071953,0.019746332839838517,0.9817202626816327
2012-08-08,0,0.0,0.0,-0.009738398023071953,0.019746332839838517,0.9796507148965208
2012-08-10,0,0.0,0.0,-0.009738398023071953,0.025331026773207685,0.979252844467042
2012-08-14,0,0.0,0.0,-0.014512129695282337,0.025331026773207685,0.9774157181206081
2012-08-16,0,0.0,0.0,-0.014512129695282337,0.025331026773207685,0.9773466978542151
2012-08-20,0,0.0,0.0,-0.015758498789488207,0.012869489181588223,0.9783931840394987
2012-08-22,0,0.0,0.0,-0.018444372527567747,0.025331026773207685,0.9753711892580162
2012-08-24,0,0.0,0.0,-0.017922516674604455,0.025331026773207685,0.9761143702910924
2012-08-28,0,0.0,0.0,-0.020915479832094568,0.025331026773207685,0.9728539475518072
2012-08-30,0,0.0,0.0,-0.020915479832094568,0.025331026773207685,0.9714655575879099
2012-09-04,0,0.0,0.0,-0.020915479832094568,0.00837707787554617,0.9748596368633009
2012-09-06,1,0.006990924904592247,0.008337749140363122,-0.020915479832094568,0.00837707787554617,0.9739094574893776
2012-09-10,1,0.009674750395203878,0.011498307238168463,-0.020915479832094568,0.007029226107407973,0.9721839730607013
2012-09-12,1,0.007574295850991211,0.009092783339358017,-0.020104162896580485,0.007029226107407973,0.974059390649618
2012-09-14,1,0.00873806902578264,0.01038166299042025,-0.020104162896580485,0.007029226107407973,0.9748152088921354
2012-09-18,1,0.006803635320535581,0.00821300008897531,-0.018966207464712934,0.012842444658584595,0.9772485623975592
2012-09-20,1,0.009928688770179092,0.011801130003926342,-0.018264644936914404,0.015078222865039223,0.9757550545355969
2012-09-24,1,0.008873841157692589,0.010553099279967053,-0.018966207464712934,0.015078222865039223,0.9752443872832574
2012-09-26,1,0.003372945646932249,0.0041802462934059665,-0.012750905754376917,0.015078222865039223,0.9805063207378769
2012-09-28,1,0.003207408685531355,0.003975911489459926,-0.010082137911606052,0.012999788224292168,0.9813270716611107
2012-10-02,1,0.0035692738984990403,0.00443436011750243,-0.009218023661094461,0.0243669135975703,0.9778765283880511
2012-10-04,1,0.0044434366590751576,0.005341443053392395,-0.010063731730069697,0.016252168649415245,0.9781909146538177
2012-10-08,1,0.0022542689852939344,0.002679364814002487,-0.010063731730069697,0.016252168649415245,0.977528523418632
2012-10-10,-1,-0.005840000423556403,-0.004957793532444808,-0.010063731730069697,0.01891378698370205,0.9742559181682541
2012-10-12,-1,-0.0022092720248140787,-0.002046030942716079,-0.00210965572309181,0.022368259967267504,0.9743808377175746
2012-10-16,1,0.0014325024073762503,0.0018159874373631021,-0.030954854218947832,0.01891378698370205,0.9745944559292806
2012-10-18,1,0.006243369105584699,0.007353604976396687,-0.030954854218947832,0.022368259967267504,0.9773924072634713
2012-10-22,1,0.0027478509873239535,0.0029994486606561843,-0.014510257677805314,0.024914205738170554,0.9775277879057712
2012-10-24,-1,-0.0008072342708207525,-0.00047414547221277066,-0.014510257677805314,0.024914205738170554,0.9764754813407754
2012-10-26,1,0.001096797709278529,0.0011874278804758496,-0.028454988848986316,0.02788392810905322,0.9748075781234831
2012-11-01,1,0.003975205736844453,0.004435947821834931,-0.028454988848986316,0.021430054791583764,0.9793422781009847
2012-11-05,1,0.0029651519519203386,0.0032134937781345906,-0.011789894322586923,0.021430054791583764,0.9807985706190293
2012-11-07,1,0.0012994243687345372,0.001393950235878804,-0.006158347389470436,0.021430054791583764,0.9818510862331096
2012-11-09,1,0.0025193927641112834,0.0028401812896686257,-0.0013389334689539807,0.015713239508079506,0.9843381368122148
2012-11-13,1,0.004893606412832121,0.005536289239964488,-0.003598466268024923,0.0125712596416516,0.9856725196164102
2012-11-15,-1,-0.0009829365791301976,-0.0007474227483453117,-0.002849649748057097,0.0125712596416516,0.9876493934062738
2012-11-19,1,0.0013650666258299554,0.0014052787183729222,-0.002849649748057097,0.011892705643514263,0.9887307952283938
2012-11-21,1,0.0031211809586696444,0.0034641522238934757,-0.000518220204760268,0.009323999885871254,0.9904273108789172
2012-11-26,1,0.002552552379235341,0.0027637961919838956,-0.000518220204760268,0.009323999885871254,0.9903218358260161
2012-11-28,1,0.0036272208574865913,0.00414673830508386,-0.002849649748057097,0.007994230278144923,0.9912212085038127
2012-11-30,1,0.004186231706072376,0.0047342904015355135,-0.004127067378883454,0.007994230278144923,0.9875762767783635
2012-12-04,1,0.003451978619714041,0.0036732702027856383,-0.004127067378883454,0.007994230278144923,0.9857007907630457
2012-12-06,1,0.004705663931842477,0.005290887067667089,-0.00926047648961796,0.008789430870959758,0.9842112345472632
2012-12-10,1,0.005762797014310302,0.006390996966337853,-0.00926047648961796,0.006566157923691968,0.9837162256415718
2012-12-12,1,0.002268345063574099,0.002347014095303325,-0.013579210338819776,0.006566157923691968,0.9839591298749755
2012-12-14,1,0.0015814453255450344,0.0016792622765628448,-0.008751827523063483,0.010752782048697881,0.9840906924193077
2012-12-18,1,0.0013561108024869291,0.0017345522456570196,-0.009272558177884527,0.010752782048697881,0.9854621879856504
2012-12-20,1,0.0038080719690155376,0.003883095914136001,-0.013579210338819776,0.016457342833513088,0.9834363304151654
2012-12-24,1,0.0027540444129172605,0.002857034582107749,-0.013579210338819776,0.016457342833513088,0.9835033030986683
2012-12-27,0,-9.337811414983615e-05,0.00043483688834607495,-0.006098348606060261,0.019639137493246264,0.9833768671755637
2012-12-31,1,0.004263183865251929,0.00441566387106818,-0.007691184952353339,0.016457342833513088,0.9855189080861414
2013-01-03,1,0.00571507914113697,0.006107434323736478,-0.007691184952353339,0.016457342833513088,0.985976768174334
2013-01-07,1,0.005875340389684126,0.0063002723306331086,-0.007691184952353339,0.016533473951491105,0.9850905690747312
2013-01-09,1,0.0051318689214402795,0.005427212470074434,-0.007691184952353339,0.016533473951491105,0.9850109060715124
2013-01-11,1,0.005260793442328716,0.0056844171385800266,-0.005993224552481062,0.016533473951491105,0.9859086155804471
2013-01-15,1,0.0058003646503758536,0.006282313659488052,-0.005993224552481062,0.018751572525823577,0.9856892302915715
2013-01-17,1,0.005452718177266076,0.005815195740846042,-0.005993224552481062,0.016161487844372192,0.9856798712069597
2013-01-22,1,0.004387176996143465,0.004550640122463511,-0.005993224552481062,0.016026880843993712,0.9842764841490232
2013-01-24,1,0.003993833366503937,0.004062146000946015,-0.010295997220943716,0.019263522494168094,0.9812374313811313
2013-01-28,1,0.005047973166235262,0.0052582311213062,-0.019503399314267856,0.016026880843993712,0.9806073299029644
2013-01-30,1,0.005086846255425689,0.005457230414709035,-0.00603364196893124,0.019263522494168094,0.9810049245253878
2013-02-01,1,0.007667961928458599,0.008526438787780399,-0.015559439491891187,0.017013990391192235,0.9815176767250301
2013-02-05,1,0.007474907802881439,0.008384818972652107,-0.012933854402314844,0.017013990391192235,0.9808043351811379
2013-02-07,1,0.0063812974623722075,0.0070075980998993105,-0.012933854402314844,0.018526231655399475,0.9799009175937641
2013-02-11,1,0.007518348250313375,0.008405881509270723,-0.014422528493242059,0.018526231655399475,0.9785945176741858
2013-02-13,1,0.007048875940390362,0.007731397030845055,-0.014422528493242059,0.017160635627887045,0.9784149905735372
2013-02-15,1,0.007168320723148672,0.007951321290931422,-0.014422528493242059,0.017160635627887045,0.9778644107940268
2013-02-20,1,0.005856538223171573,0.006415975167372438,-0.012873369257827498,0.019408637459775707,0.9794807272740521
2013-02-22,1,0.0029290007931805674,0.002987079848050286,-0.012873369257827498,0.017160635627887045,0.9813800005145877
2013-02-26,1,0.0014553389632484316,0.0017201431240997248,-0.012873369257827498,0.017160635627887045,0.9833493172298102
2013-02-28,1,0.0021510612730538947,0.0023712075173778326,-0.012873369257827498,0.01224435588265395,0.9835575318404535
2013-03-04,1,0.0012728863221080134,0.0015456543123982397,-0.012873369257827498,0.01224435588265395,0.9829039392212473
2013-03-06,1,0.0010779630942328135,0.0014070180614051612,-0.014533381600078063,0.008586942121021436,0.9845115912259491
2013-03-08,1,0.0006445026677407112,0.0011276635342564328,-0.014533381600078063,0.012268917547782882,0.9838167493897273
2013-03-12,-1,-0.0011075255525585526,-0.00037725951528274834,-0.011380372184975576,0.0194823224551625,0.9840742412901543
2013-03-14,1,0.00022735618746174227,0.0006773243193808245,-0.011380372184975576,0.015234399799672105,0.9842981167246525
2013-03-18,1,0.0008795095361072596,0.0010542950593594655,-0.011380372184975576,0.020124291067339296,0.9809209588715952
2013-03-20,1,0.0012502694569962642,0.0014196169683492422,-0.01498416454900748,0.015234399799672105,0.9812286656460867
2013-03-22,1,5.801197367593779e-07,0.0003233394437750608,-0.01451457013205381,0.019230249891624168,0.9818084427987147
2013-03-26,-1,-0.0016200655846133265,-0.0010492201978497544,-0.01451457013205381,0.019230249891624168,0.9820897061299403
2013-03-28,1,0.0016002630301353898,0.0016333526007463075,-0.01451457013205381,0.019230249891624168,0.9813794361906718
2013-04-02,-1,-0.0010236714084617038,-0.000704564253977626,-0.008860595708164234,0.019230249891624168,0.9836962057549103
2013-04-04,-1,-0.0037643073374420354,-0.00307506540954571,-0.006715693916637134,0.019230249891624168,0.9827381265550312
2013-04-08,-1,-0.001956691889875665,-0.0013699749395443426,-0.006715693916637134,0.020621798664212904,0.9805969189143788
2013-04-10,0,-0.0002838291459098909,7.408201092416202e-05,-0.006715693916637134,0.019232811229814684,0.9805626331322824
2013-04-12,-1,-0.0022708524094221315,-0.00155544222008938,-0.007974921965140167,0.019232811229814684,0.9805923899720885
2013-04-16,-1,-0.0027805320018929667,-0.002102846393993117,-0.007772456124462118,0.019232811229814684,0.9829022339335491
2013-04-18,-1,-0.0038600027512666634,-0.0030746742663008224,-0.007772456124462118,0.019232811229814684,0.9823092414363968
2013-04-22,-1,-0.0034441746530190494,-0.0026991849851209404,-0.01369462721008097,0.019475678745696928,0.9816285823969229
2013-04-24,-1,-0.003634881618368499,-0.0029070477970290017,-0.01369462721008097,0.019475678745696928,0.9810211153832652
2013-04-26,-1,-0.0025132615492139175,-0.0019272343423308805,-0.01369462721008097,0.011406691675507787,0.9825830846484932
2013-04-30,-1,-0.0017771009893578498,-0.0013359733988649372,-0.01369462721008097,0.016627290560848215,0.9821841257551195
2013-05-02,-1,-0.002611747343926934,-0.0020781807008283804,-0.010835234199086958,0.016627290560848215,0.983311480519094
2013-05-06,1,0.0008088444614234163,0.0009620755304387079,-0.015569350262544466,0.0077850826700289946,0.9848869102178651
2013-05-08,1,0.0013503389304335952,0.0014463179450508756,-0.020023877612446783,0.004741485231312865,0.9838196781291679
2013-05-10,1,0.000438636541289587,0.0007146874695132512,-0.020023877612446783,0.004741485231312865,0.9828745312824374
2013-05-14,1,0.0026637228792704185,0.002745357915224444,-0.0207476247220801,0.0035316767265980006,0.9822328879341032
2013-05-16,1,0.0013418663702600008,0.0014165679106259794,-0.0207476247220801,0.0072992919979666055,0.9832573086658394
2013-05-20,1,0.0006825710620052914,0.0008257723966378458,-0.021617309662550665,0.0072992919979666055,0.9818914713558123
2013-05-22,-1,-0.002267945712381479,-0.0016821880064396763,-0.0207476247220801,0.0072992919979666055,0.9831772548612583
2013-05-24,-1,-0.0015188948368535298,-0.001198428771285003,-0.02316524710336644,0.0072992919979666055,0.979170636234819
2013-05-29,1,3.4932208324199305e-05,0.0001256599357087156,-0.02316524710336644,0.010025817425319345,0.9766848962259379
2013-05-31,0,-8.850079146166252e-05,1.4477804902336992e-05,-0.02316524710336644,0.018364548106317387,0.9753415648410872
2013-06-04,-1,-0.0035932931308879385,-0.0031520622510655613,-0.0207476247220801,0.018364548106317387,0.9791175219785441
2013-06-06,-1,-0.005885452602121668,-0.005072662507864523,-0.018279342958446118,0.018364548106317387,0.9794555178428684
2013-06-10,-1,-0.004956816084345994,-0.00430690224022503,-0.01490478457024248,0.018364548106317387,0.9788255171082637
2013-06-12,-1,-0.0057562280436980655,-0.005100926350638049,-0.010378025912975737,0.018364548106317387,0.9785862802665288
2013-06-14,-1,-0.005398203665360414,-0.004706693263886248,-0.011641900116896559,0.015348105125689007,0.9800202161449635
2013-06-18,0,0.0,0.0,-0.011641900116896559,0.015348105125689007,0.9780649831117931
2013-06-20,0,0.0,0.0,-0.011641900116896559,0.015348105125689007,0.9785539039905133
2013-06-24,0,0.0,0.0,-0.00397806311257776,0.015348105125689007,0.9823229116323668
2013-06-26,0,0.0,0.0,-0.00935771972080762,0.01186403437271477,0.9846258323920257
2013-06-28,0,0.0,0.0,-0.00935771972080762,0.0073777695560752286,0.9858538558208222
2013-07-02,0,0.0,0.0,-0.00935771972080762,0.013378827419983037,0.9833367786070436
2013-07-05,0,0.0,0.0,-0.00935771972080762,0.013893722040189842,0.9824054761643829
2013-07-09,0,0.0,0.0,-0.011482073490743153,0.007267538734421268,0.9826436112399196
2013-07-11,0,0.0,0.0,-0.011482073490743153,0.004114609879654661,0.9828300963685055
2013-07-15,0,0.0,0.0,-0.010666666829893014,0.0055139473823801735,0.9827421181073801
2013-07-17,0,0.0,0.0,-0.010666666829893014,0.0040011888911685375,0.9880182406445452
2013-07-19,0,0.0,0.0,-0.01253879376723677,0.003300013515489101,0.9874938052377891
2013-07-23,0,0.0,0.0,-0.01253879376723677,0.0040011888911685375,0.9864743993498577
2013-07-25,0,0.0,0.0,-0.01253879376723677,0.008137513500636906,0.9860150741463695
2013-07-29,0,0.0,0.0,-0.010490807459809551,0.008137513500636906,0.98631642310582
2013-07-31,1,0.0032934783326686486,0.0037437757980443086,-0.01253879376723677,0.005708987806213935,0.9860844563556849
2013-08-02,1,0.004119580542684121,0.004615989633916456,-0.013779746390268117,0.005708987806213935,0.985761545965084
2013-08-06,1,0.001957601362338307,0.002147060294904299,-0.010617694534210395,0.009630730816978024,0.98726401553045
2013-08-08,1,0.000878713433040185,0.0008836669077681601,-0.00915306530420576,0.01313743785702468,0.9877442332057231
2013-08-12,1,0.003305367556697793,0.003752172563704929,-0.009877109031470474,0.01463251280969283,0.986948142643399
2013-08-14,1,0.0009752039137556725,0.0010851450436260845,-0.009877109031470474,0.01463251280969283,0.9851781073469739
2013-08-16,1,5.1225823784232464e-05,9.082903316564168e-05,-0.009877109031470474,0.01463251280969283,0.9848304080327142
2013-08-20,1,0.0017327261353909818,0.0019817086956031415,-0.009877109031470474,0.01503885823843399,0.9843734690933875
2013-08-22,1,0.0015616628370712525,0.0016993093293159126,-0.012194075946756817,0.01503885823843399,0.9835654077962478
2013-08-26,1,0.0006446653500725881,0.0006918144304193497,-0.012194075946756817,0.01503885823843399,0.984092695344571
2013-08-28,1,0.0006120003336981795,0.0006466995271298386,-0.00636256843602833,0.014769277541821745,0.9860485051546859
2013-08-30,1,0.0007363530117885488,0.0008258364161817575,-0.003134811231346381,0.014698552539797755,0.987306702800992
2013-09-04,1,0.0016621274819579406,0.0018916784766261064,-0.003134811231346381,0.01564310957997938,0.9869676377351575
2013-09-06,1,0.0011561504817664573,0.001217776828446968,-0.005901107107664295,0.01564310957997938,0.986621322698629
2013-09-10,1,0.0009856033180923487,0.0010082003557293933,-0.010809691961664713,0.01350489930606958,0.9847710245353658
2013-09-12,1,8.490463959459225e-05,0.00018617178725179636,-0.008428163167846055,0.01564310957997938,0.9847969781024584
2013-09-16,-1,-0.001010908236159918,-0.0007471542229541073,-0.0068040511024185,0.01564310957997938,0.9852329674009221
2013-09-18,1,0.0015390399983452997,0.0016421245092692804,-0.008243091345461886,0.01350489930606958,0.9856920179535759
2013-09-20,1,0.0006224331207823634,0.0006357054664304839,-0.0068040511024185,0.017846415687183703,0.9830677576697155
2013-09-24,0,-7.092695377542812e-06,0.0001272605427802548,-0.007922432508594625,0.017846415687183703,0.9823997198011039
2013-09-26,1,0.0024201143618723282,0.0027894892699837654,-0.007922432508594625,0.017846415687183703,0.9836103029569917
2013-09-30,1,0.003235758492093685,0.0037654958614692703,-0.007922432508594625,0.017846415687183703,0.984064485553143
2013-10-02,1,0.004397768669003847,0.0050831798450202866,-0.008243091345461886,0.008304110389290475,0.9837111527717908
2013-10-04,1,0.0048063327724160824,0.005584538926768004,-0.008054256188033036,0.005417496232276213,0.984179893912449
2013-10-08,1,0.001958659109718294,0.002292853114007537,-0.003449904836079836,0.011025241134531396,0.9871376549606374
2013-10-10,1,0.0028974008323631993,0.0033575412568851966,-0.003449904836079836,0.005417496232276213,0.9863969987666388
2013-10-14,1,0.002268256414175985,0.0025879861471728065,0.0002927379738536677,0.020202660829385106,0.9849012596239402
2013-10-16,1,0.0034051693138927933,0.003887285670650404,0.0017819177892776116,0.015121958267255986,0.9870172374174282
2013-10-18,1,0.006311223447468409,0.007199156842012043,0.0017819177892776116,0.014728752635463561,0.9890715756505494
2013-10-22,1,0.0060356401425880985,0.006876047856502708,0.0002927379738536677,0.014728752635463561,0.9882783455404448
2013-10-24,1,0.0047354499830300455,0.005256678791394326,-0.0035210325410469706,0.015937270070216884,0.9870925779838428
2013-10-28,1,0.004092661464691144,0.004436733889106946,-0.0035210325410469706,0.018351043770636767,0.9859030456061902
2013-10-30,1,0.003135205212925732,0.00335395502937155,-0.0022487822964293537,0.018351043770636767,0.986972267033794
2013-11-01,1,0.002227731973351349,0.0022332668713174555,-0.0022101281092271286,0.018413850273499854,0.9860598605104357
2013-11-05,1,0.003240856320351558,0.003427765260516127,-0.004607339030876909,0.017978773639798704,0.9860617879697828
2013-11-07,1,0.0015301867294337276,0.001538206471408518,-0.0027232419671485834,0.017978773639798704,0.988166095720103
2013-11-11,1,0.00232741319725742,0.0023978402654867455,-0.0027232419671485834,0.015514632508650107,0.9891842797561363
2013-11-13,1,0.0009047408301701842,0.0011790280340454279,-0.004607339030876909,0.015514632508650107,0.9883318293031603
2013-11-15,1,0.0030537371353301455,0.003120978188755238,-0.004607339030876909,0.015514632508650107,0.988393201789042
2013-11-19,1,0.00245451875177785,0.0024649351764506975,-0.0022101281092271286,0.016710860955098376,0.9881971350173082
2013-11-21,1,0.002130804439830323,0.0021658294564590916,-0.0022101281092271286,0.01814988864401936,0.987439064379941
2013-11-25,1,0.0030286093052792782,0.003130830667035357,-0.003364386801142732,0.016710860955098376,0.9883664493996002
2013-11-27,1,0.003580851028161686,0.0038311702654641525,-0.0038023983895366193,0.016710860955098376,0.9877980291230198
2013-12-02,1,0.0036905465513264674,0.0039197060297532366,-0.0038023983895366193,0.015000042910025654,0.9880342596956074
2013-12-04,1,0.00247134097487343,0.0025102337419560315,-0.0033678389841015834,0.015000042910025654,0.9876061106210744
2013-12-06,1,0.004694353504546618,0.005155923349725545,-0.0033678389841015834,0.013994672781074947,0.9889588436497659
2013-12-10,1,0.0054548447400003565,0.006015637649131468,-0.004471175024087454,0.01309267039256302,0.9888385587135701
2013-12-12,1,0.0043724117178332396,0.004751090581621694,-0.004471175024087454,0.01309267039256302,0.9884486078661467
2013-12-16,1,0.0052399539003827504,0.005700200611380166,-0.004471175024087454,0.01309267039256302,0.9875613733327573
2013-12-18,1,0.0056477319793846225,0.006100460472472754,-0.006973080544602322,0.012566049149897358,0.9876372794025327
2013-12-20,1,0.007052312063403806,0.007805675444782884,-0.004471175024087454,0.011646540427243855,0.98920407280079
2013-12-24,1,0.007398857908481946,0.008272005026877274,-0.006973080544602322,0.012566049149897358,0.9869966465943694
2013-12-27,1,0.006489525515634626,0.007142592008058788,-0.007755016802438224,0.012566049149897358,0.98530464732291
2013-12-31,1,0.005912493863192498,0.006428008836748991,-0.01240736103996942,0.014674462818700895,0.9842147383223445
2014-01-03,1,0.005009272820269708,0.005387870030979092,-0.01240736103996942,0.014674462818700895,0.9808959702674223
2014-01-07,1,0.004692422985058768,0.004976423006260941,-0.01240736103996942,0.02039654832192895,0.9794227531774906
2014-01-09,1,0.004174382228807245,0.004330918293179987,-0.01240736103996942,0.021546195947462224,0.9784150889077549
2014-01-13,1,0.0038254406472637125,0.0039917841410067306,-0.01240736103996942,0.025022045866333515,0.9777096644660029
2014-01-15,1,0.005956470899719323,0.006429910530221355,-0.01240736103996942,0.02039654832192895,0.9796222390763251
2014-01-17,1,0.005183989708684151,0.00552566653753532,-0.01005984025543297,0.021304237463810705,0.9797135512433015
2014-01-22,1,0.00450727972931021,0.004679705283358149,-0.01005984025543297,0.02267696897877521,0.9782389151559148
2014-01-24,1,0.0029923252749131978,0.0030470004748243736,-0.00660438957529523,0.02267696897877521,0.9806749435270323
2014-01-28,1,0.0041284127839360495,0.004252886965697143,-0.00660438957529523,0.02049716482013636,0.9824577855137057
2014-01-30,1,0.003963838273148286,0.004078669673718229,-0.0031695521752980694,0.02162737802024265,0.9834335530373158
2014-02-03,1,0.00027769221225909014,0.0005827396063168075,-0.0011328227097451998,0.022740842164204342,0.9850408781495775
2014-02-05,1,0.0003912416733066477,0.0007502665173227433,-0.006905195812883365,0.02162737802024265,0.9855959154611453
2014-02-07,1,0.0015170351834505194,0.0017844611071228564,-0.006905195812883365,0.02162737802024265,0.9861918296495231
2014-02-11,1,0.0029767634608811088,0.0029788089425638433,-0.006905195812883365,0.02162737802024265,0.9866621004354977
2014-02-13,1,0.002287512906962146,0.0024389339166042763,-0.009345727648459035,0.02162737802024265,0.9852560953418665
2014-02-18,1,0.002964552708457155,0.0030506351944752227,-0.009345727648459035,0.013425179583684938,0.9857219616142426
2014-02-20,1,0.003633476947404226,0.0036458117171218477,-0.009345727648459035,0.013425179583684938,0.9860790848673536
2014-02-24,1,0.003655366871743648,0.003675343344871534,-0.01041805874530059,0.013425179583684938,0.9852477072444196
2014-02-26,1,0.003393866286876217,0.0034412163168670382,-0.01041805874530059,0.013425179583684938,0.9854697474690393
2014-02-28,1,0.003954762903510498,0.0040669936741308775,-0.01041805874530059,0.012406193826928764,0.9851074345235736
2014-03-04,1,0.002843339471767796,0.0030283618865977464,-0.010255111130997186,0.012406193826928764,0.9857363244663965
2014-03-06,1,0.0020481832192331476,0.002301722469401424,-0.009298741201917992,0.012406193826928764,0.9860912920896115
2014-03-10,1,0.002945724012186722,0.003125367405586642,-0.016768691983714386,0.010567181533772585,0.9830135174338176
2014-03-12,1,0.003280560506407674,0.003383046242134219,-0.010928059412782243,0.012406193826928764,0.9823818546182994
2014-03-14,1,0.003847690643472376,0.0039861572717333465,-0.010928059412782243,0.012406193826928764,0.9819645499190296
2014-03-18,1,0.004106649564086996,0.004256060367852985,-0.010928059412782243,0.0156735926503747,0.9816681797376726
2014-03-20,1,0.005059810524460788,0.0053261880999548915,-0.010928059412782243,0.018621917802379043,0.9804087558382091
2014-03-24,1,0.003941364775005942,0.004069828462230021,-0.009298741201917992,0.022768777224437098,0.9803525030912145
2014-03-26,1,0.002503447362191528,0.00261802360480645,-0.009298741201917992,0.022768777224437098,0.9802168354116485
2014-03-28,1,0.002395546114496923,0.0025284589248706782,-0.018159194809731372,0.022768777224437098,0.9789023774762247
2014-04-01,1,0.003996435559400349,0.004100516396066376,-0.018159194809731372,0.022768777224437098,0.9787208431692408
2014-04-03,1,0.0014611175998586543,0.0018004108603905575,-0.018159194809731372,0.022768777224437098,0.9791505277897633
2014-04-07,-1,-0.0020440878227283043,-0.0013648166717988813,-0.009164569735467285,0.022768777224437098,0.9830323189960338
2014-04-09,1,0.0006038705548872562,0.0009428511616119115,-0.009164569735467285,0.011346230430888699,0.9856348778247377
2014-04-11,-1,-0.0005096574884642169,-0.00010405473960556008,-0.005374297913578586,0.016680202274106652,0.985147183845046
2014-04-15,-1,-0.000869058371703832,-0.0003685011324848753,-0.007630873428289741,0.01300007856404478,0.9855747210931274
2014-04-17,1,0.0010133900599995195,0.0013104209619832045,-0.009765870441097026,0.009116753879686253,0.9864746028836945
2014-04-22,1,0.0023216146268220878,0.002431168702787005,-0.009765870441097026,0.009116753879686253,0.9871097396897067
2014-04-24,1,0.0014428378757050306,0.0016647601472253738,-0.007630873428289741,0.010417002339590361,0.98731399608637
2014-04-28,-1,-0.000669935543491878,-0.00021728662038850697,-0.002990818423055714,0.011759136679970639,0.9884966051614231
2014-04-30,0,-1.1896812603327898e-05,0.00041728615470931546,-0.003723257019304526,0.011255184578901272,0.9900475424786429
2014-05-02,1,0.00015645659957438788,0.0005367181223387293,-0.0036508851261083104,0.011255184578901272,0.9903777673161835
2014-05-06,1,0.00011080067097712725,0.0004569517669248959,-0.0036508851261083104,0.01150218541764248,0.9902797203794637
2014-05-08,-1,-0.0009129380861881613,-0.00040675041071152186,-0.002624886862040352,0.012337367605626435,0.9885389739397427
2014-05-12,1,0.0017644315280891084,0.0018927128940454722,-0.0036508851261083104,0.012337367605626435,0.9902495982691502
2014-05-14,1,0.0017796275881166257,0.0018545121206124935,-0.0036508851261083104,0.012337367605626435,0.9897042211582956
2014-05-16,1,0.0013770446155553942,0.0014609293306975404,-0.002624886862040352,0.012337367605626435,0.9910240324565047
2014-05-20,1,0.0013148822512668045,0.0014266891255773338,-0.0036508851261083104,0.012420314161104288,0.9897051564725606
2014-05-22,1,0.0021248718370340683,0.002140654441244228,-0.0046548359942937285,0.011447928220786536,0.9900024684482922
2014-05-27,1,0.0029212882718126303,0.0030149452281788788,-0.0050570095070371825,0.006756435747974738,0.9899704308979499
2014-05-29,1,0.0024988735137485346,0.0025002892434994673,-0.0050570095070371825,0.010359617255368332,0.9894401877148143
2014-06-02,1,0.002311312237443811,0.0023277205592216266,-0.0050570095070371825,0.010359617255368332,0.989439164606802
2014-06-04,1,0.0023646013212129235,0.0023710212419876427,-0.0040668219709582756,0.011515215308538811,0.9891980856406867
2014-06-06,1,0.003060832030228308,0.003098767441510092,-0.005188190315344632,0.010734859877619707,0.9889857975851265
2014-06-10,1,0.004244901319274913,0.004553907601726236,-0.0040668219709582756,0.010734859877619707,0.9887244268659134
2014-06-12,1,0.0030443962949239893,0.0031682238875893297,-0.0040668219709582756,0.010734859877619707,0.9896575697063507
2014-06-16,1,0.0028992257692530637,0.0030058955158159305,-0.005388395954211459,0.014693808813577847,0.9881958636274367
2014-06-18,1,0.0019571024372229172,0.002030282543114957,-0.0040668219709582756,0.01441313553423397,0.9895860948840731
2014-06-20,1,0.0023636578112064474,0.0023810464836975455,-0.0030572074595028044,0.01717884074767925,0.989257681654517
2014-06-24,1,0.0014907225058741905,0.001592563335314062,-0.0030572074595028044,0.01717884074767925,0.9893282196209419
2014-06-26,0,-0.0004019900801128535,9.636726090449851e-05,-0.0030154520771480163,0.014627008645947764,0.9904684384605831
2014-06-30,0,-0.00029320953846165374,0.00014512805202936845,-0.0052288591332689364,0.014627008645947764,0.9897196164860772
2014-07-02,1,0.0015170433712794916,0.0016608556555679625,-0.006187499484302365,0.013652677869541711,0.9884201259346082
2014-07-07,1,0.0010973822981127773,0.0012678894906173297,-0.0052288591332689364,0.01133005926383781,0.9898568538891384
2014-07-09,1,0.0017318226624852546,0.0018216372026784722,-0.006187499484302365,0.006591972352510735,0.9897511119356514
2014-07-11,1,0.0017098636800823202,0.0017568006723162307,-0.005325024588872675,0.01133005926383781,0.9893182551822592
2014-07-15,1,0.0019487263132220657,0.0019591070035362974,-0.003575283816370315,0.01133005926383781,0.9901246232329473
2014-07-17,1,0.0026210033758557695,0.0027252594586150937,-0.003575283816370315,0.01064550956757089,0.9901904838557312
2014-07-21,1,0.002613428968545898,0.002677275847407114,-0.003575283816370315,0.01064550956757089,0.9901134831820413
2014-07-23,1,0.0030832156788536385,0.0032518501680144263,-0.0022737146161565377,0.01064550956757089,0.9902176669937865
2014-07-25,1,0.003375275620377455,0.003617249492078907,-0.0032611080001754313,0.01064550956757089,0.9899854563419384
2014-07-29,1,0.0019680987288862827,0.001973465345632634,-0.0007103672640191121,0.01064550956757089,0.9909164051841853
2014-07-31,1,0.0009144299051796541,0.0009812929856994877,-0.0022737146161565377,0.01064550956757089,0.9922166586594785
2014-08-04,1,0.0011341407229322415,0.001176039157325824,-0.0022737146161565377,0.010368115226551676,0.9921792399777303
2014-08-06,0,-0.0001774801344671935,5.971128034331697e-05,9.628625108219443e-06,0.010368115226551676,0.9921895401826208
2014-08-08,1,0.0007866651506414697,0.000879601381584913,6.454129680695097e-05,0.009878418076063565,0.9934313424009721
2014-08-12,1,0.00207019629868994,0.0021971638962562934,-0.003257618667926382,0.00864244061702921,0.9932411071471685
2014-08-14,1,0.0020912124805599515,0.002164737508529082,-0.003257618667926382,0.007923560589423506,0.9934760320234866
2014-08-18,1,0.0025233729384928974,0.0026221534426940155,-0.003257618667926382,0.007923560589423506,0.9938244449598891
2014-08-20,1,0.003155226413925672,0.0033452606133491476,-0.003257618667926382,0.006751388056810292,0.9940805539610582
2014-08-22,1,0.0038378139368512127,0.004188748577686174,-0.004746976840462115,0.005122069720218813,0.9925808649921191
2014-08-26,1,0.003658480324958394,0.003943222611233357,-0.005370585948907356,0.0049988068720618565,0.9918991367721267
2014-08-28,1,0.0008042494022453196,0.001071765590475894,-0.006916705485503415,0.0063815995123394234,0.9912344482586402
2014-09-02,1,0.002352952003270594,0.0023800073904661464,-0.012166727339638356,0.004706131252400974,0.9905626087278461
2014-09-04,1,0.000959158053801346,0.0011898909177104435,-0.013428122299940271,0.0063815995123394234,0.9880137549969998
2014-09-08,1,0.0008596223506363385,0.0010916128771479216,-0.0161017506827881,0.008112015070825321,0.985556755614623
2014-09-10,1,0.0007831326746635497,0.000922540971713531,-0.0161017506827881,0.009199708962220594,0.9814957487521525
2014-09-12,1,0.001637184998477808,0.001640313250414563,-0.021349719524915926,0.009199708962220594,0.9771538205170756
2014-09-16,1,0.001521375170643349,0.001565559306717102,-0.029938246408988425,0.009199708962220594,0.975025747925908
2014-09-18,1,0.00037177750829648086,0.0006542279451535727,-0.029938246408988425,0.01137430357237473,0.972284965693696
2014-09-22,-1,-0.0003623255173319155,-4.4252597964467054e-05,-0.029938246408988425,0.016224461959451236,0.971852915937576
2014-09-24,-1,-0.0008496120983450047,-0.00046920394328169544,-0.03506017000229336,0.026652745474734438,0.9689587426349165
2014-09-26,-1,-0.0018064809664330224,-0.0012994530763371678,-0.03506017000229336,0.026741331462781834,0.9693626131531605
2014-09-30,-1,-0.0027051585485804003,-0.002075681462009385,-0.03506017000229336,0.027022816541858567,0.9679415595595628
2014-10-02,-1,-0.003688521419198886,-0.003040707943487016,-0.023057027389350903,0.027022816541858567,0.9702325840809221
2014-10-06,-1,-0.003344553037957199,-0.0027183693499685645,-0.02113322355097167,0.0273349438285814,0.9700242407630213
2014-10-08,-1,-0.005106531620151291,-0.004247023700343935,-0.017446016188674338,0.024021398423752248,0.9734819020663742
2014-10-10,-1,-0.008589868606062607,-0.0073437867760112845,-0.010911346218557934,0.024021398423752248,0.974923234086533
2014-10-14,-1,-0.008453049984108306,-0.007271972698745967,-0.004865644568579292,0.024021398423752248,0.9767671145597232
2014-10-16,-1,-0.004752227518846401,-0.004052009480029706,-0.008193980753688034,0.023455158752035268,0.9818357622896897
2014-10-20,-1,-0.003002511541588911,-0.0025098378149988054,-0.010911346218557934,0.017749735808589243,0.9831412927523194
2014-10-22,-1,-0.0026840211757961164,-0.0022261411476370493,-0.008193980753688034,0.014718715776562186,0.986216054139065
2014-10-24,-1,-0.0014596016768717514,-0.0011553278942889752,-0.008193980753688034,0.014281303295056287,0.98772000369342
2014-10-28,-1,-0.0003522903256076951,-0.0002449626704525287,-0.0043619307996950645,0.014281303295056287,0.9880687694916084
2014-10-30,-1,-0.0010742464616835625,-0.0009034451326162786,-0.0028295873055193986,0.014281303295056287,0.986663824622657
2014-11-03,1,0.0005002995029373955,0.0005283270925100974,-0.0043619307996950645,0.011265107146107635,0.9856550638516508
2014-11-05,1,0.0002255464736308483,0.0002854587259581244,-0.0028295873055193986,0.011265107146107635,0.9852265218749294
2014-11-07,1,0.0008220308131764455,0.0008234391457336303,-0.003939032700555646,0.010323026739535241,0.9846332697426792
2014-11-11,1,0.0009887184842782945,0.001014007605906375,-0.010998249725930205,0.010323026739535241,0.9836161728255018
2014-11-13,1,0.0003777017142736616,0.00045983301426316133,-0.01633274020348144,0.010323026739535241,0.9802052293206754
2014-11-17,1,0.0004150646568862528,0.0004652042085743787,-0.014234095391560182,0.009300501474447768,0.98155269943004
2014-11-19,1,0.0006147622091192939,0.0006553688069763721,-0.014234095391560182,0.009358985157727687,0.9810415978959085
2014-11-21,1,0.0011775358858273966,0.0012590787867172216,-0.014234095391560182,0.010322247716866604,0.9804690009834962
2014-11-25,1,0.0022055730292319348,0.0023960510555484796,-0.014234095391560182,0.010322247716866604,0.9810849583507626
2014-11-28,1,0.0007382823293901328,0.0007699784062735793,-0.010998249725930205,0.010711521645573749,0.9827692992708168
2014-12-02,-1,-0.0010556355235760405,-0.0008559098274699228,-0.014066442993759996,0.010322247716866604,0.9851254155422493
2014-12-04,1,0.0006406372924304676,0.0006425971289848102,-0.015022413099452991,0.010322247716866604,0.9814167987555764
2014-12-08,1,0.00021175492509475387,0.00022097246260884327,-0.015022413099452991,0.0068086287898672035,0.981572282347911
2014-12-10,-1,-0.00040370243438206735,-0.0003535364193929969,-0.015022413099452991,0.010535291573065358,0.9811648722973807
2014-12-12,-1,-0.0034139381468654617,-0.0030318435583976053,-0.01349594083243334,0.010535291573065358,0.9831270611496798
2014-12-16,-1,-0.0032506405025597928,-0.0028897572123041857,-0.0162073415469173,0.010535291573065358,0.9822162928853105
2014-12-18,-1,-0.0031936372391152155,-0.0028040006256185614,-0.0162073415469173,0.010535291573065358,0.9815092573936804
2014-12-22,-1,-0.003592239197521094,-0.003074486588542492,-0.018171560153477956,0.01238514501447242,0.9800799424087725
2014-12-24,-1,-0.0023437634219817746,-0.001991585583093082,-0.018171560153477956,0.016950624688876943,0.9784973163229688
2014-12-29,-1,-0.0023438679051159287,-0.0019637499257073774,-0.020472084271946085,0.016950624688876943,0.9771553217902518
2014-12-31,-1,-0.003380643718130169,-0.0029134346755530054,-0.022751731603773615,0.016950624688876943,0.976915262945377
2015-01-05,-1,-0.006287798119663996,-0.005527033876591661,-0.019699519397341405,0.023777572430258565,0.9784516108983613
2015-01-07,-1,-0.007195951833874188,-0.006370121632201693,-0.01791403852860973,0.023777572430258565,0.9792619888656753
2015-01-09,-1,-0.006013882513805703,-0.005380775737537358,-0.01791403852860973,0.023777572430258565,0.9792076927769097
2015-01-13,-1,-0.006809239182218821,-0.006134121596054266,-0.013442658666963921,0.023777572430258565,0.9804730539214552
2015-01-15,-1,-0.0076129192107564,-0.006863661470713356,-0.011342538139743865,0.023777572430258565,0.9789938295349937
2015-01-20,-1,-0.0063230311366130575,-0.005754815952248713,-0.011342538139743865,0.01831396729434044,0.9791413760669566
2015-01-22,-1,-0.005424559719974378,-0.004950403416701837,-0.007332839249401811,0.01574022818652623,0.9811402388037177
2015-01-26,-1,-0.0026789607915244863,-0.0025631277727538606,-0.011342538139743865,0.013971431230329298,0.9838745549272978
2015-01-28,-1,-0.00438021197020475,-0.004066498463144656,-0.006358422318458903,0.013971431230329298,0.9848923172015381
2015-01-30,-1,-0.0056051203801962156,-0.005158643425840421,-0.006358422318458903,0.014416292526107018,0.985031846313118
2015-02-03,-1,-0.0024184369559222306,-0.002302088819234392,-0.008167142746371765,0.012738457273853369,0.9895170580535803
2015-02-05,-1,-0.002341881456872482,-0.0022657939084441674,-0.008167142746371765,0.012738457273853369,0.9893492528469239
2015-02-09,-1,-0.0010588538067627313,-0.0009473982452365274,-0.011500493410396575,0.011834723041167493,0.9884673256877942
2015-02-11,-1,-0.0010170359628337957,-0.0008739676122276707,-0.008577242617567852,0.011834723041167493,0.9883427133752235
2015-02-13,-1,-0.0002915308891217512,-0.0001162055069992131,-0.008577242617567852,0.006508379423063791,0.9898095904175314
2015-02-18,1,0.0006448129350547304,0.0009370350196034388,-0.008577242617567852,0.004260195213247336,0.9898107922814123
2015-02-20,1,0.0007268240655765609,0.0010055301655062673,-0.008577242617567852,0.0036973513329230188,0.9902446758389608
2015-02-24,-1,-0.00015582042087199067,-1.555599861615797e-05,-0.005021098961881637,0.0036973513329230188,0.9912358591839654
2015-02-26,-1,-0.0009174613138607079,-0.0008595848974220842,-0.005021098961881637,0.004744524521710799,0.9902055014001351
2015-03-02,-1,-0.0003073577705315117,-0.0002558992832862346,-0.005021098961881637,0.004744524521710799,0.9901240959916968
2015-03-04,-1,-0.001954745775416061,-0.0017470098492974122,-0.005021098961881637,0.004744524521710799,0.9906739362571012
2015-03-06,-1,-0.004813922315022956,-0.004100903262719108,-0.005021098961881637,0.006508379423063791,0.9888640845669128
2015-03-10,-1,-0.006699696887584844,-0.005739528176586829,-0.005021098961881637,0.006508379423063791,0.9896845140584419
2015-03-12,-1,-0.004060221084793215,-0.0035563165978682986,-0.005021098961881637,0.014298067326586053,0.9898872952237021
2015-03-16,-1,-0.003232793317194917,-0.0029073412593263203,-0.005021098961881637,0.016533531260934955,0.9891019894913842
2015-03-18,-1,-0.002344570030970976,-0.002146953201331864,-0.005553501817904536,0.016426972186641423,0.9887573535408789
2015-03-20,-1,-0.0015500763296361665,-0.0015039266037753984,-0.007432097879553441,0.017837453430597918,0.9876626915167248
2015-03-24,-1,-0.0011957419465977318,-0.0011776233860792361,-0.009232454001813495,0.017837453430597918,0.9865345731412678
2015-03-26,-1,-0.0006494098823150811,-0.0006048401616571137,-0.009924312982307195,0.017837453430597918,0.9855294349025412
2015-03-30,1,0.0007667447094018354,0.0011173436736316587,-0.009232454001813495,0.016426972186641423,0.9869239514643199
2015-04-01,1,0.0006953299855996094,0.0010338176803164347,-0.009924312982307195,0.016426972186641423,0.9861110733543631
2015-04-06,1,0.0020716882504503943,0.0026419215448913198,-0.009924312982307195,0.016426972186641423,0.9866465017580307
2015-04-08,1,0.002177639288567855,0.002780513025955317,-0.009924312982307195,0.016426972186641423,0.986059168517405
2015-04-10,1,0.003292919156674044,0.004041346422963163,-0.009924312982307195,0.017837453430597918,0.9857937391877699
2015-04-14,1,0.003924123299902117,0.004751474800491703,-0.009924312982307195,0.016278143681036528,0.9861295677729841
2015-04-16,1,0.0042558025741138115,0.005157356958630387,-0.007500788012591082,0.015385573349509298,0.9873975960125264
2015-04-20,1,0.004953536038958203,0.005960301284649392,-0.005822200755167293,0.013625464136680152,0.9886532422381786
2015-04-22,1,0.004724347978406467,0.005786923607323004,-0.004493600528662171,0.013625464136680152,0.9894878504404495
2015-04-24,1,0.00423330724198254,0.005128621702788555,-0.0032145542582200336,0.013625464136680152,0.9909164854280517
2015-04-28,1,0.003498602903424251,0.004221378057052693,-0.004379771612140804,0.013625464136680152,0.9909907594500992
2015-04-30,1,0.004599564901023831,0.005567391264416473,-0.005166729883066518,0.01238776985414311,0.9841240813111753
2015-05-04,1,0.0049980565377743535,0.005964627869104089,-0.005166729883066518,0.013625464136680152,0.9843047438559062
2015-05-06,1,0.004955949543810129,0.005872470440807235,-0.004864623461655111,0.01238776985414311,0.9843512752031371
2015-05-08,1,0.004098184623407094,0.004737238490662601,-0.004864623461655111,0.008549369886523744,0.9847378915649686
2015-05-12,1,0.004568319628559147,0.0052676697267257724,-0.007650303233584956,0.007760691108313599,0.9838896731588335
2015-05-14,1,0.0047532403695607515,0.005497374025285954,-0.007650303233584956,0.009789613482076234,0.9834112958943884
2015-05-18,1,0.005148998968531447,0.005976000549858566,-0.015622172385604845,0.009789613482076234,0.9816421255136897
2015-05-20,1,0.005410118648254686,0.006319602104584302,-0.007829965584485435,0.016952176847077963,0.9814589099761454
2015-05-22,1,0.0060610269547251416,0.007071990998241816,-0.009387046575841489,0.01088407615657208,0.9814685638409619
2015-05-27,1,0.005273790636380406,0.006106834556033831,-0.009387046575841489,0.01088407615657208,0.9819185987705276
2015-05-29,-1,-0.0016752561505395678,-0.0014471150428304563,-0.005383650458773795,0.01088407615657208,0.9882928823579529
2015-06-02,-1,-0.0012663018539636624,-0.001015866833630885,-0.009387046575841489,0.005418734273744716,0.9884786609267906
2015-06-04,-1,-0.0015069203201021368,-0.0012397731466130136,-0.01625761098511299,0.007543951205036198,0.9861810069377487
2015-06-08,-1,-0.002789575783732119,-0.0023010020805074825,-0.013206154781995369,0.005615408902318145,0.9867121127457366
2015-06-10,-1,-0.0038462301537957647,-0.003175227654284913,-0.015694275250914713,0.005615408902318145,0.985101820818633
2015-06-12,-1,-0.0028745112302938666,-0.0023427242690835727,-0.015694275250914713,0.005486334441680542,0.9858181144079446
2015-06-16,-1,-0.003326573064386759,-0.002787115690017002,-0.015816746997020965,0.005486334441680542,0.9853768126665454
2015-06-18,-1,-0.0009197327398022771,-0.0007410117339734325,-0.015816746997020965,0.004460863836059393,0.9865243663067523
2015-06-22,-1,-0.002134890066569261,-0.0017331680873038577,-0.02566397400636275,0.004460863836059393,0.9856813182742533
2015-06-24,-1,-0.0031000103131765605,-0.002507945946960484,-0.027372484484278106,0.004354196641497372,0.9808739189435857
2015-06-26,-1,-0.0022674277960629866,-0.0019187680896155896,-0.02753851740279175,0.004966530696591092,0.9803707369786478
2015-06-30,-1,-0.00350696701672294,-0.002991659995112797,-0.02566397400636275,0.00700333502327564,0.980653739381065
2015-07-02,-1,-0.004342582179974081,-0.003770316382712689,-0.017192078149405748,0.006771741163404614,0.9827144749890445
2015-07-07,-1,-0.004860085083160117,-0.004212980889142108,-0.025394638203601418,0.006771741163404614,0.9819826759398842
2015-07-09,-1,-0.0048690438714666315,-0.004280162262548038,-0.017192078149405748,0.004525698582770235,0.9840773481097903
2015-07-13,-1,-0.0038639958826447505,-0.003441162820060176,-0.025394638203601418,0.004525698582770235,0.9812626991990016
2015-07-15,-1,-0.004325433872095527,-0.0038634772859096863,-0.017192078149405748,0.0065889427662114974,0.9818033052973847
2015-07-17,-1,-0.004195914934062068,-0.003716257713992729,-0.025394638203601418,0.0065889427662114974,0.9809220773716344
2015-07-21,-1,-0.005045037080071301,-0.004478719920656983,-0.017235927110659723,0.0065889427662114974,0.9813864182071563
2015-07-23,-1,-0.008946691453143108,-0.007939762650220108,-0.013632586268180986,0.0065889427662114974,0.9844370810760352
2015-07-27,-1,-0.010870536872220489,-0.009606652759718051,-0.013632586268180986,0.004502791610205371,0.9841021080468154
2015-07-29,-1,-0.009742498855101547,-0.008583181377010536,-0.013632586268180986,0.004502791610205371,0.9835837620543793
2015-07-31,-1,-0.010181663631582467,-0.008910822464782517,-0.016093058310601753,0.004502791610205371,0.9800475652341839
2015-08-04,-1,-0.010341030039931113,-0.009084028784634964,-0.016093058310601753,0.00886342737530277,0.977016528692155
2015-08-06,-1,-0.009407880939847981,-0.008263083844556193,-0.016093058310601753,0.019624376383830515,0.975440504469296
2015-08-10,-1,-0.008073572960285881,-0.007114401510809678,-0.016093058310601753,0.01912163079901394,0.9764886885667179
2015-08-12,-1,-0.008053286270165386,-0.0071025991964578095,-0.016093058310601753,0.020794283625471262,0.975977434034222
2015-08-14,-1,-0.00824867688265659,-0.007284300681627191,-0.016093058310601753,0.020794283625471262,0.976521498670119
2015-08-18,-1,-0.00743066226485181,-0.0066097340451613616,-0.016093058310601753,0.03131896272589796,0.9735860233816206
2015-08-20,-1,-0.007654303255512784,-0.00683172040442959,-0.02590131975016205,0.03131896272589796,0.9715618087546277
2015-08-24,-1,-0.009199801942065586,-0.008199217287435872,-0.020066406181186925,0.03131896272589796,0.9722329374405166
2015-08-26,-1,-0.007026641972224535,-0.006332004679583541,-0.02590131975016205,0.029407043099790763,0.972448472070724
2015-08-28,-1,-0.004642164183609715,-0.004221547576986822,-0.02852655622980401,0.020794283625471262,0.9736951601326929
2015-09-01,-1,-0.004584500663651989,-0.0042275670227290485,-0.02590131975016205,0.01653532954501066,0.9771343754180045
2015-09-03,-1,-0.0026499589497017482,-0.0025549569569881577,-0.02590131975016205,0.009804455208292318,0.9792633370932465
2015-09-08,-1,-0.002239591458249455,-0.0022035347676195548,-0.024205478409278912,0.01653532954501066,0.9768048207538489
2015-09-10,-1,-0.001297424217119123,-0.0011736220684815198,-0.024205478409278912,0.02350278252518062,0.9743422104446473
2015-09-14,-1,-0.002212048860579374,-0.0021754167108819127,-0.019027744260348898,0.02350278252518062,0.9747890516284887
2015-09-16,1,0.0003171975129401814,0.0006362595424884555,-0.019027744260348898,0.009804455208292318,0.9779414311554763
2015-09-18,-1,-0.0017479757688819225,-0.0017005423713059061,-0.014475726579615258,0.009804455208292318,0.9787898824123501
2015-09-22,-1,-0.0016239180574650072,-0.0015387875420234435,-0.01874929569796165,0.013409302111992105,0.9781352006451999
2015-09-24,-1,-0.0032657426923001203,-0.0032070588398486408,-0.005934769962911821,0.017136019692755765,0.9754213646062002
2015-09-28,-1,-0.003870604882932907,-0.0037633136524865543,-0.0032556006893238957,0.016337720598876684,0.9781330943740939
2015-09-30,-1,-0.00279018113451554,-0.0027236845473056956,-0.005934769962911821,0.023623733433003224,0.9763391323121748
2015-10-02,-1,-0.002297224612416905,-0.002122253187889976,-0.007629817067391054,0.023623733433003224,0.9759869989471082
2015-10-06,1,0.0011647596998917062,0.0018133903592335754,-0.007629817067391054,0.015154984309249756,0.9807534000464413
2015-10-08,1,0.0037725552316946963,0.004789503234529693,-0.007629817067391054,0.013143202414032412,0.9829052712151483
2015-10-12,1,0.0035579077895341346,0.0045512518530127985,-0.007629817067391054,0.015154984309249756,0.9816619160205817
2015-10-14,1,0.0044278513239129295,0.005578987125028653,-0.010356518111987387,0.015154984309249756,0.9811472798402369
2015-10-16,1,0.003218990249064284,0.004215898536722747,-0.006666033714382735,0.015154984309249756,0.9812341902318068
2015-10-20,1,0.0006300211233607239,0.0010018097925712937,-0.005434381973548093,0.015154984309249756,0.981485802818962
2015-10-22,1,0.004847229316394499,0.005846955178030475,-0.006666033714382735,0.013113496960751952,0.9857364652352422
2015-10-26,1,0.004784971524599509,0.005763003661500539,-0.006666033714382735,0.013113496960751952,0.9859185669740546
2015-10-28,1,0.005149225033891023,0.006164278637093152,-0.005434381973548093,0.013113496960751952,0.9884701275641745
2015-10-30,1,0.00519318359148761,0.0062042916733960635,-0.006306326215144432,0.015992034974751514,0.987745199451824
2015-11-03,1,0.006478520078026757,0.007701184381422612,-0.009281866439171754,0.013300435679850293,0.9864942019539624
2015-11-05,1,0.00666910215224471,0.007867575953763382,-0.013463589806512376,0.009677061859659336,0.9857821088800857
2015-11-09,1,0.00725785262896221,0.008624408185739115,-0.015215245899965396,0.008381954700782956,0.9830143306765218
2015-11-11,1,0.006800095878742068,0.008085641218041244,-0.015215245899965396,0.009677061859659336,0.982036047059479
2015-11-13,1,0.005861323713313426,0.007032399111406967,-0.019221977907183076,0.009214254759199188,0.9807941854645488
2015-11-17,1,0.006110284065117198,0.0072681342775453165,-0.019221977907183076,0.016904533411594435,0.979472257258439
2015-11-19,1,0.005788291079569137,0.006861904125491706,-0.022889207631330614,0.009726965460498319,0.9792141731146368
2015-11-23,1,0.005413570999989324,0.006367851588733007,-0.022889207631330614,0.02015888447544086,0.9768594524164302
2015-11-25,1,0.005994856394666064,0.007007589596189269,-0.022889207631330614,0.022548816259752105,0.9752455844172802
2015-11-30,1,0.00590518378771805,0.006862251134248895,-0.028181337730839424,0.022548816259752105,0.9747087519146379
2015-12-02,1,0.00503704860082356,0.005892758077294433,-0.023012842583361948,0.022548816259752105,0.9759096514418524
2015-12-04,1,0.003815710165623023,0.004466959923537845,-0.02554168716484244,0.022548816259752105,0.9758505787581638
2015-12-08,1,0.0015157687399867264,0.0018951547718115724,-0.02554168716484244,0.022548816259752105,0.9748946242684646
2015-12-10,1,0.00242766485714947,0.002868533171966884,-0.02554168716484244,0.014278372171653892,0.9756268570447988
2015-12-14,-1,-0.0018387773372402054,-0.0015436661986443527,-0.02554168716484244,0.014278372171653892,0.9769874476602444
2015-12-16,-1,-0.0008918518486311711,-0.0006593491818111254,-0.029828170522006668,0.0044513344224802395,0.9767613917146725
2015-12-18,-1,-0.0014171600965848794,-0.0011658848409529065,-0.02554168716484244,0.005835151620243142,0.9776279045987191
2015-12-22,1,0.0009603590827744237,0.0009886959704259902,-0.02554168716484244,0.005835151620243142,0.9771840397883502
2015-12-24,1,0.00149027903546349,0.0015453630017181958,-0.031214662722911332,0.005835151620243142,0.9744420781406021
2015-12-29,1,0.000880566179647304,0.0009062275172181225,-0.041357209505775476,-0.00013234801729716653,0.970882432519667
2015-12-31,1,0.0007398534563884,0.0007650540678818809,-0.041357209505775476,0.00982971859976329,0.968287378906122
2016-01-05,-1,-0.0007702013487713643,-0.0005557226135993138,-0.049289548609672454,0.017206507108969406,0.9646652955519692
2016-01-07,-1,-0.005097953763551046,-0.004354733422741093,-0.023642973949246637,0.017206507108969406,0.9698223827776435
2016-01-11,-1,-0.005844894511086886,-0.005019069997478011,-0.03921694227889466,0.017206507108969406,0.9675981041527444
2016-01-13,-1,-0.00782449288702917,-0.006747216906224852,-0.03921694227889466,0.017206507108969406,0.9678694056697504
2016-01-15,-1,-0.010274453886766191,-0.008827921129955995,-0.03455616581385813,0.04186751651980288,0.9643533076061809
2016-01-20,-1,-0.00960747188798082,-0.008310146255306131,-0.03455616581385813,0.04186751651980288,0.9623661301478148
2016-01-22,-1,-0.0062337400389650445,-0.005426906293833066,-0.03455616581385813,0.042490131912658075,0.9616326819784169
2016-01-26,-1,-0.007150363266462472,-0.006200707713146606,-0.033169273022649395,0.03791373874744115,0.9646363805270504
2016-01-28,-1,-0.010364395242937002,-0.009105822408718274,-0.03035432953641553,0.03791373874744115,0.9664057156175924
2016-02-01,-1,-0.00772765358723862,-0.006788073239536589,-0.03035432953641553,0.026193707463974782,0.9694307595511478
2016-02-03,-1,-0.007374950760233056,-0.006508372470184334,-0.014764374052982211,0.035069936507379364,0.9709084310162209
2016-02-05,-1,-0.007774504561599045,-0.006835512203686879,-0.010226555693931083,0.0365702151096219,0.9680775509999587
2016-02-09,-1,-0.00849982669214596,-0.007597135551782383,-0.0003702711009614722,0.0365702151096219,0.9667889257736056
2016-02-11,-1,-0.010731088810263707,-0.009457692276264383,-0.0003702711009614722,0.0365702151096219,0.9665642819956052
2016-02-16,-1,-0.007283735994622766,-0.006410281448388925,-0.004231050123307417,0.031168547524920945,0.9731224151778166
2016-02-18,-1,-0.0070110578360228545,-0.006050585884420789,-0.004231050123307417,0.031168547524920945,0.9726084313135048
2016-02-22,-1,-0.0064852588006307395,-0.005525383372323023,-0.004231050123307417,0.0270187084388265,0.9766372575805263
2016-02-24,-1,-0.007563417533150464,-0.006494719512212236,-0.0007914429251236429,0.0270187084388265,0.9756662858266624
2016-02-26,-1,-0.006446735504334982,-0.005496148651413308,-0.005124262848746323,0.0270187084388265,0.9779835250600609
2016-03-01,-1,-0.0036271198731154843,-0.0031763276613074017,-0.005124262848746323,0.0270187084388265,0.9790041360538356
2016-03-03,1,0.0004419585607624056,0.000607200319621784,-0.007402202009588949,0.018489682685129655,0.9824545339852525
2016-03-07,1,0.002017014539534806,0.002365125663010713,-0.011328542735223292,0.011077543045766013,0.9833581583321286
2016-03-09,1,0.0014176829244780087,0.001705798113060572,-0.011328542735223292,0.009172533360001452,0.985665140612386
2016-03-11,1,0.0013753036718078162,0.0015692104030868006,-0.011328542735223292,0.009172533360001452,0.9861010246851399
2016-03-15,1,0.0011095388542495298,0.001248233102892416,-0.011328542735223292,0.011077543045766013,0.9849527168165076
2016-03-17,1,0.004844790974594855,0.005687134305603018,-0.011328542735223292,0.007006433859898487,0.986713844569318
2016-03-21,1,0.0049418467052529495,0.005796768925521349,-0.011328542735223292,0.006996568175690935,0.9867909542095326
2016-03-23,1,0.004313524855093649,0.005113173278382125,-0.011295972677309052,0.008862339709245975,0.9842896926472243
2016-03-28,1,0.004671166781700023,0.005536720680041726,-0.01654936664054445,0.010235753251367547,0.9830721486954942
2016-03-30,1,0.005765927374133697,0.006832369049112523,-0.01654936664054445,0.017509970752332134,0.9816736936643646
2016-04-01,1,0.005123033869932705,0.006143134618655696,-0.01654936664054445,0.017509970752332134,0.9824481377622055
2016-04-05,1,0.003822865384005941,0.0046560702841404265,-0.016720496199934674,0.017509970752332134,0.9818464471546168
2016-04-07,1,0.0035393156700196508,0.0043260723334485815,-0.016720496199934674,0.017509970752332134,0.9808724569188342
2016-04-11,1,0.003957592989860129,0.004734564868251448,-0.016720496199934674,0.011011545885967084,0.981272343174963
2016-04-13,1,0.005646944488222717,0.006690067739783739,-0.017505598284398575,0.011011545885967084,0.9798877466698164
2016-04-15,1,0.005245594718897019,0.006238055683178265,-0.017505598284398575,0.011011545885967084,0.979183884910334
2016-04-19,1,0.00553160051759799,0.006580014132438514,-0.017505598284398575,0.01781832682161349,0.9769427836559088
2016-04-21,1,0.007995797196985238,0.00941604424777033,-0.017505598284398575,0.017509970752332134,0.980010508221065
2016-04-25,1,0.008162579383952775,0.009625336937279905,-0.01714705745048554,0.01767974659609181,0.9805616491054473
2016-04-27,1,0.009243050036786934,0.010786704413551798,-0.01714705745048554,0.013684183730303492,0.9802528619597156
2016-04-29,1,0.00818788543115943,0.00953631180087956,-0.01507934543217206,0.013684183730303492,0.9816365008270646
2016-05-03,1,0.004943966732174004,0.005690862362875966,-0.012141982141977157,0.018327654352892526,0.9842101500784438
2016-05-05,1,0.00452639824207016,0.005311753821420068,-0.005513316332277885,0.018556184100387348,0.9856151381031693
2016-05-09,1,0.0032487810884197508,0.003721576413524992,-0.003555687166598034,0.019828927257462853,0.9843684953748089
2016-05-11,1,0.004448243321544882,0.005171920086391465,-0.003555687166598034,0.018556184100387348,0.9862498868876959
2016-05-13,1,0.0028085484335544546,0.003253217123859475,-0.003555687166598034,0.018556184100387348,0.984946569668821
2016-05-17,1,0.006416679035480622,0.007479472884492499,-0.004494124540417152,0.013684183730303492,0.9874135722867019
2016-05-19,1,0.006839603002131757,0.008024961381642458,-0.004494124540417152,0.013684183730303492,0.9859735798234467
2016-05-23,1,0.007006279860353316,0.008181029397993058,-0.0034705737107767745,0.01366846341759853,0.9862486437862673
2016-05-25,1,0.008320424470649375,0.009645465162737243,-0.0034705737107767745,0.0127937414053949,0.9851981991321119
2016-05-27,1,0.007346806630905406,0.008462077441839605,-0.01230385831414901,0.0127937414053949,0.9783443084470738
2016-06-01,1,0.0057277745577075665,0.006410039287426013,-0.01230385831414901,0.012978490485261396,0.9778576899586389
2016-06-03,1,0.005905161099728931,0.0065581397477477345,-0.01230385831414901,0.012978490485261396,0.9772748327263814
2016-06-07,1,0.006063328569148596,0.006627548445691542,-0.021356440959312942,0.00963769091787362,0.9760112962545265
2016-06-09,1,0.004795862142904272,0.005079237613714411,-0.021356440959312942,0.01597532285772762,0.9748256318403776
2016-06-13,1,0.0025921176888600516,0.0026246165849948357,-0.00524415270573948,0.019788344560844343,0.9760826111783707
2016-06-15,1,0.0031137978694377256,0.0032410944700966998,-0.009546722364818787,0.019788344560844343,0.9758356693065381
2016-06-17,1,0.0015261312442728541,0.0016353732863446857,-0.009163589354097454,0.019788344560844343,0.9768971378227763
2016-06-21,-1,-0.0006389271067858188,-9.30924562204203e-05,-0.013788757719600427,0.02554083818151384,0.9751994053112476
2016-06-23,1,0.0018054288486418913,0.0019484796711338125,-0.013788757719600427,0.026479962322623094,0.9723395511939507
2016-06-27,-1,-0.0032829922061845523,-0.002520556876701942,-0.0007868403589744817,0.026479962322623094,0.9763267786952485
2016-06-29,-1,-0.0020285474752969445,-0.001394136759866948,-0.008015804179259794,0.02489695744188255,0.9787631274654137
2016-07-01,-1,-0.003301508373437446,-0.0023902923393829007,-0.009962269184366115,0.022734275601636433,0.9787015184532788
2016-07-06,-1,-0.006053843750530538,-0.004730045175080559,-0.009962269184366115,0.022734275601636433,0.9782106489157442
2016-07-08,-1,-0.0024900244697121958,-0.0017316464472651874,-0.009962269184366115,0.022734275601636433,0.98026749422216
2016-07-12,-1,-0.0005102271708328327,-4.3576454577760665e-05,-0.009962269184366115,0.01817069165867605,0.9823498773123355
2016-07-14,-1,-0.0005316155403962924,-9.712581721161282e-05,-0.009718409218015693,0.01817069165867605,0.9820536649752056
2016-07-18,-1,-0.0019262515963321515,-0.001256719823482445,-0.008149306856810926,0.01817069165867605,0.9820885519134067
2016-07-20,-1,-0.0011654768603404217,-0.0006367334569100443,-0.008149306856810926,0.014170177944823718,0.9835089425562944
2016-07-22,1,0.002906293871205906,0.002942777762980961,-0.008149306856810926,0.011537409814660421,0.9863009128499421
2016-07-26,1,0.004456572151943753,0.004758282002527646,-0.008149306856810926,0.011537409814660421,0.9857795916025072
2016-07-28,1,0.00502944346722322,0.005499169574907835,-0.009053232065298164,0.011537409814660421,0.9853396758469734
2016-08-01,1,0.003342462987634344,0.003525898110938071,-0.007364838786691414,0.013004324071729918,0.9870440790444315
2016-08-03,1,0.0032151038749029773,0.0034141702535299915,-0.006737874968584103,0.011462565654211193,0.988504985157998
2016-08-05,1,0.004075443831827072,0.004373125343763572,-0.007364838786691414,0.01013616026036624,0.9886021867141819
2016-08-09,1,0.004530396138083674,0.005002120141943602,-0.006737874968584103,0.011462565654211193,0.9882093468821356
2016-08-11,1,0.004363521397032726,0.004809170104181164,-0.006737874968584103,0.01013616026036624,0.9855281301663315
2016-08-15,1,0.003787557988952055,0.004088692165989433,-0.008875817789922375,0.010625131679389407,0.9835277034482615
2016-08-17,1,0.002906269318306083,0.003084583127291023,-0.006412783512729376,0.01515094793687943,0.9838726021995031
2016-08-19,1,0.003928992659645164,0.004268431426486416,-0.008111343300142671,0.014655897052322437,0.9842125811072736
2016-08-23,1,0.003878062225919261,0.004138933637508301,-0.014010051332557954,0.010625131679389407,0.9829041126282348
2016-08-25,1,0.002576283101408664,0.002580238471867639,-0.008111343300142671,0.010625131679389407,0.9835187534301018
2016-08-29,1,0.0027423602126052356,0.0027510161807317367,-0.01574277057674622,0.008373471380048106,0.9824517422500249
2016-08-31,1,0.0026576349251371157,0.0026752801441002707,-0.01574277057674622,0.016936398490863442,0.9813054174057378
2016-09-02,1,0.0028610923925614542,0.0029668637466405898,-0.012667755802527377,0.020330199360004672,0.9811042473534848
2016-09-07,1,0.003043204148039091,0.0031329466759179828,-0.012667755802527377,0.01841253367570746,0.9815074656558295
2016-09-09,1,0.0002988608732838482,0.000545284453978138,-0.012667755802527377,0.020330199360004672,0.9818496303110532
2016-09-13,1,0.0008237987375859063,0.0008987505222867517,-0.012667755802527377,0.01841253367570746,0.9834912332251112
2016-09-15,1,0.0015314422939251783,0.0015338659569803697,-0.021086970069988636,0.016462193557616703,0.9833182766459647
2016-09-19,1,0.0020860588214707326,0.0022394389112598027,-0.021358478698749732,0.010407634342639954,0.9833355116710486
2016-09-21,1,0.0003453892574262859,0.00044338351869239323,-0.013732523231998557,0.011324163837968752,0.9843071683344337
2016-09-23,-1,-0.0007918408018372622,-0.0004935598334026623,-0.013732523231998557,0.016462193557616703,0.9821090089609421
2016-09-27,-1,-0.0025729367860976033,-0.002006930480777519,-0.013912894202288077,0.016462193557616703,0.9814735838163493
2016-09-29,-1,-0.00154902631572153,-0.0010969224031828918,-0.013912894202288077,0.008858972789962193,0.9837390719281757
2016-10-03,-1,-0.0005844471561554769,-0.0002553836833593066,-0.014128339217633424,0.006967457765100608,0.9848414454714961
2016-10-05,-1,-0.0008082157316165444,-0.00039616844510003747,-0.02565036117587512,0.005894276101847154,0.98291066298711
2016-10-07,1,0.0002682120949730602,0.0004592962870699324,-0.022567127023517777,0.005894276101847154,0.9846882096245699
2016-10-11,-1,-0.0004653383415816093,-0.0001828148268599954,-0.014795874631532908,0.006422944499542262,0.9833700554966337
2016-10-13,-1,-0.0009369008037510517,-0.0006059787008566333,-0.01132247673829312,0.007845625953264693,0.9797960364077758
2016-10-17,-1,-0.0012037234450266235,-0.0009050168389063667,-0.0057541816191517044,0.019075179511923734,0.9790022412313153
2016-10-19,-1,-0.0013031211757509134,-0.0009948676066797234,-0.007240825122988154,0.019075179511923734,0.9788045369014378
2016-10-21,1,0.00022869132774282783,0.00033960597389741463,-0.012123045462747199,0.01015034520943413,0.9802491664977744
2016-10-25,-1,-0.00042796453863793474,-0.0002740012967215763,-0.007240825122988154,0.019075179511923734,0.9802585926985098
2016-10-27,1,0.00019318890839925806,0.0002142559615832571,-0.007240825122988154,0.022487095917787164,0.9784463111796229
2016-10-31,-1,-0.00016965239896936997,-9.782303447792998e-05,-0.007825948832096885,0.022487095917787164,0.9781337913191366
2016-11-02,-1,-0.002991776540992119,-0.00251637964320682,-0.0021370314053796454,0.03274115360497002,0.9763132521469936
2016-11-04,-1,-0.0026548070975904127,-0.0022072835917712236,6.935659728919013e-05,0.03274115360497002,0.9768269448599138
2016-11-08,-1,-0.0018429947548040393,-0.0014384330743396432,0.0011814700203433923,0.031587084249332445,0.9780617678731982
2016-11-10,1,0.001525422656757819,0.0015359983209807695,-0.0035296982972424056,0.022108508955772162,0.9840669454005182
2016-11-14,1,0.0037276816143126472,0.004092443021477179,-0.006994023271181698,0.017795468296011273,0.9857875282994003
2016-11-16,1,0.0002142251334226455,0.0005400136802746332,-0.006994023271181698,0.018620388274183955,0.9855969414530658
2016-11-18,1,0.0004386063153836694,0.0006686007676178793,-0.006994023271181698,0.018620388274183955,0.9854303403665079
2016-11-22,1,0.0015720607276879471,0.0016524107545012236,-0.006994023271181698,0.017795468296011273,0.9862787870023524
2016-11-25,1,0.0017129071640861406,0.001852033117919134,-0.007881368024137143,0.01301695871465079,0.9869834579222879
2016-11-29,1,0.0018371974142222462,0.0018787206212838908,-0.007881368024137143,0.01301695871465079,0.9867265207732311
2016-12-01,1,0.004523484086219674,0.004891157902997254,-0.00936028816652176,0.009723773479463746,0.990187977606151
2016-12-05,1,0.0042496691763594385,0.0045551337093536395,-0.00936028816652176,0.011289353924804409,0.9886644601022739
2016-12-07,1,0.004810965841662605,0.005167775578930101,-0.00936028816652176,0.006278573115088484,0.9892395602524239
2016-12-09,1,0.004085557454992515,0.00436441348805116,-0.010812298689088657,0.009723773479463746,0.987561111612067
2016-12-13,1,0.005656316465589673,0.006311623844139065,-0.012156135240437228,0.009723773479463746,0.9870197738458221
2016-12-15,1,0.006000529406317531,0.0067339894544944205,-0.011209262112838625,0.006278573115088484,0.9881081002178045
2016-12-19,1,0.005540832631636761,0.006199978924653595,-0.007867048254617138,0.009723773479463746,0.9873431270521749
2016-12-21,1,0.005381821306219213,0.0059547424662297795,-0.00990900854148352,0.005517297623755782,0.9870143527356792
2016-12-23,1,0.004864715664218157,0.005341162082595839,-0.007671159664037492,0.005965984088908174,0.987219199299242
2016-12-28,1,0.004264647562825873,0.004727625253586892,-0.005598282152758515,0.013535769108002095,0.9837690938432567
2016-12-30,1,0.0038000484163271233,0.00418021884716506,-0.005598282152758515,0.013535769108002095,0.983368014094184
2017-01-04,1,0.004613935481464798,0.005094719078500289,-0.007671159664037492,0.013535769108002095,0.9825565629907931
2017-01-06,1,0.0042740441743632195,0.004708642560580936,-0.011672511900053395,0.015658579531230465,0.9817625759555841
2017-01-10,1,0.003651210967658322,0.003961894772074756,-0.010433597022740037,0.010151936634330968,0.9833478990913751
2017-01-12,1,0.0033447716415708315,0.0036608229915407902,-0.006278935581713975,0.01255427512192907,0.9841120612988941
2017-01-17,1,0.003649738263593197,0.0040361310693594185,-0.006278935581713975,0.01255427512192907,0.9840909144239482
2017-01-19,1,0.00406546518317111,0.004480711781214855,-0.009839399763979706,0.010151936634330968,0.9854173280304249
2017-01-23,1,0.004060157821743454,0.004499485856690969,-0.010812436461967535,0.01255427512192907,0.98441596193074
2017-01-25,1,0.004698593717752936,0.005202794706643959,-0.013024407074038742,0.010151936634330968,0.9823399239215608
2017-01-27,1,0.0077187524760269095,0.00859320684735763,-0.013024407074038742,0.01255427512192907,0.984073164690166
2017-01-31,1,0.007323411699531579,0.008173538676537789,-0.010812436461967535,0.015797231022367676,0.9835750643798927
2017-02-02,1,0.005858687819683276,0.006387280148718204,-0.010812436461967535,0.01255427512192907,0.9837744377138625
2017-02-06,1,0.005197504888332658,0.005606004911003865,-0.010803617948684166,0.009524396940366369,0.9843235076252042
2017-02-08,1,0.004970866413063517,0.005381871511221012,-0.012997951534188633,0.009524396940366369,0.9826486619079416
2017-02-10,1,0.005157426588033229,0.00557564461297508,-0.012997951534188633,0.008717865785918336,0.9826932759793503
2017-02-14,1,0.004369180404847679,0.004600576334969174,-0.014921191608698663,0.013377637559023579,0.980427500334149
2017-02-16,1,0.003779856593373927,0.003912299687207193,-0.014921191608698663,0.013377637559023579,0.9804062774158804
2017-02-21,1,0.003122004515617907,0.003140103874909351,-0.017226481369422487,0.008717865785918336,0.9799890610207855
2017-02-23,1,0.0015258860171646232,0.0016865857037883204,-0.01360659956147791,0.008717865785918336,0.9835068360303553
2017-02-27,1,0.003457123539074088,0.003572761432318398,-0.01360659956147791,0.004729352064471107,0.9849478851005826
2017-03-01,1,0.004504146522400676,0.004777172226644569,-0.01360659956147791,0.004729352064471107,0.9852223718161162
2017-03-03,1,0.003229977355270466,0.0033274996376863363,-0.010162091541269446,0.0073033407555513396,0.9875723124170519
2017-03-07,1,0.0024970398708207935,0.002532136093676719,-0.00946117976614192,0.004986745955712971,0.9878338844072531
2017-03-09,1,0.00029936261605893527,0.0006260044002664223,-0.008692120758068807,0.0073033407555513396,0.9883527147580105
2017-03-13,0,-0.00014943569397621792,0.00028981402310428303,-0.008692120758068807,0.004986745955712971,0.9880449449085283
2017-03-15,0,-5.833646883570418e-05,0.0003925210956146779,-0.008692120758068807,0.0038129916232725342,0.988654546716533
2017-03-17,1,0.00011623673241576739,0.000514061838187618,-0.00946117976614192,0.004986745955712971,0.987663870904833
2017-03-21,-1,-0.0023668899472492956,-0.0016178461643573264,-0.009099686445854398,0.004986745955712971,0.9890651755394201
2017-03-23,-1,-0.0025616529902152884,-0.0017854672482418613,-0.011114645696950597,0.004986745955712971,0.9865088641798632
2017-03-27,-1,-0.0034439689112731714,-0.0025445905534425208,-0.011114645696950597,0.00879423170432423,0.9858742165970589
2017-03-29,-1,-0.003967559400665062,-0.0029058032016873315,-0.015322400347055197,0.004986745955712971,0.9861939040897336
2017-03-31,-1,-0.003741934800789289,-0.0027245223465708988,-0.015322400347055197,0.0009815416464665776,0.9866326707841516
2017-04-04,-1,-0.0037024626566690352,-0.0027325467951440606,-0.015322400347055197,0.0009815416464665776,0.9867623052544628
2017-04-06,-1,-0.0019111433247334696,-0.0013129653138795087,-0.010556534164354389,0.0009815416464665776,0.9876211666459561
2017-04-10,-1,-0.0006631574108025959,-0.00028791637133229503,-0.010556534164354389,0.0009815416464665776,0.9871614958324554
2017-04-12,-1,-0.0026975563458058807,-0.0020305630683457314,-0.00860545075461463,0.0047920286643777414,0.9881057419514743
2017-04-17,-1,-0.0032409861048735174,-0.0024848235183606675,-0.00860545075461463,0.005035476790406503,0.9878280764374112
2017-04-19,-1,-0.0032498942464676646,-0.002537459242231894,-0.01642321734329627,0.005035476790406503,0.9846243810695963
2017-04-21,-1,-0.0049867064554387115,-0.004117528675625317,-0.007452201507269545,0.014892848970238093,0.9844561481239468
2017-04-25,-1,-0.004988048142113075,-0.00408358982280007,-0.007452201507269545,0.013712852996049657,0.9847529536137822
2017-04-27,-1,-0.004644816653277401,-0.003904198280959116,-0.005080161869048311,0.013712852996049657,0.9859941840063662
2017-05-01,-1,-0.004699422262956892,-0.003966344476757399,-0.004471296416486682,0.013712852996049657,0.9862361029927386
2017-05-03,-1,-0.004324992326480348,-0.003693247591699777,-0.004471296416486682,0.013712852996049657,0.9852515147261046
2017-05-05,-1,-0.004137275713880416,-0.0035114863511066423,-0.014431683204565764,0.011883447587340244,0.9847883724397396
2017-05-09,-1,-0.003698483043699256,-0.003096513001681308,-0.014431683204565764,0.0075979606032643586,0.9856687373064376
2017-05-11,-1,-0.002820351221157943,-0.002331253329186123,-0.014431683204565764,0.011593370400471028,0.9846092736990528
2017-05-15,-1,-0.003248036058581729,-0.002692350706955251,-0.010841970999314473,0.011593370400471028,0.9853578035194334
2017-05-17,-1,-0.00568336230626265,-0.0048691164831679125,-0.010625963308576899,0.011593370400471028,0.9850309891496899
2017-05-19,-1,-0.004148636746007728,-0.003506863045252606,-0.010625963308576899,0.011593370400471028,0.9860989561135214
2017-05-23,-1,-0.004135706536899462,-0.0034672954863733435,-0.014431683204565764,0.011593370400471028,0.9849465307383997
2017-05-25,-1,-0.004317825766385548,-0.003615162039176322,-0.014431683204565764,0.012749366649678637,0.9835181818821025
2017-05-30,-1,-0.003810376215250007,-0.0032309294043525545,-0.014431683204565764,0.012749366649678637,0.9828458298522407
2017-06-01,-1,-0.004122723804074023,-0.003499021336498715,-0.012810223181357204,0.015018137543636158,0.9820408768016916
2017-06-05,-1,-0.005634744947356122,-0.004826400608050728,-0.004824967897615046,0.01655124067968212,0.9809762840587202
2017-06-07,-1,-0.006208065308221327,-0.005297425235244825,-0.005481051958295957,0.01655124067968212,0.9802490981251256
2017-06-09,-1,-0.004447037471603188,-0.0037521320897920883,-0.005481051958295957,0.015018137543636158,0.9827032603334434
2017-06-13,-1,-0.0033811682903567143,-0.0028608025386233867,-0.005481051958295957,0.01314372271889432,0.9834357556408644
2017-06-15,-1,-0.006032808392931752,-0.005198565790722297,0.0016654274957270327,0.01655124067968212,0.9834925310942116
2017-06-19,-1,-0.003960348726546383,-0.003434052889053129,0.00033290490064877016,0.01136911706961687,0.986210631743801
2017-06-21,-1,-0.0038148914508339448,-0.003511504254503418,0.0035957288266310365,0.014394626321040353,0.9857892919401665
2017-06-23,-1,-0.0024871533093672356,-0.002313692805362937,0.00033290490064877016,0.01136911706961687,0.9871864021556438
2017-06-27,-1,-0.0018714242071453681,-0.0017893196195800235,0.00033290490064877016,0.013746555459639175,0.9866120302491884
2017-06-29,-1,-0.0004715554593771163,-0.0003846886814997856,-0.0039015836486436294,0.009618504604884767,0.9884731118808239
2017-07-03,1,0.0004995019915682628,0.000690477990430433,-0.007866923893237739,0.008937830799689052,0.9890712179478385
2017-07-06,1,0.0006991642487599767,0.0009629316554450569,-0.007866923893237739,0.009193226428635895,0.9892469163126676
2017-07-10,1,0.001431146697507644,0.0018243323536040563,-0.007866923893237739,0.010570398982351936,0.9888250877309452
2017-07-12,1,0.0016296450877675416,0.0020380811100471127,-0.008403883420438903,0.010570398982351936,0.9876731816620519
2017-07-14,1,0.0028101838859288493,0.0033987897520324183,-0.009740085247459914,0.006340858422132736,0.9866710537266645
2017-07-18,1,0.00167906570405794,0.001980664861448142,-0.009740085247459914,0.007034015982785876,0.98689939274659
2017-07-20,1,0.00419282018857633,0.004949058872154549,-0.009740085247459914,0.001114310464914857,0.9873640188455455
2017-07-24,1,0.003916804036948178,0.004727969746759401,-0.009740085247459914,0.001516522978280141,0.987678365474114
2017-07-26,1,0.0038030938120245206,0.004525156072792783,-0.014253464853372743,0.001516522978280141,0.9858361256308302
2017-07-28,1,0.0036405837413132484,0.004333461765836145,-0.014253464853372743,-4.4486564192389904e-05,0.9855048069196217
2017-08-01,1,0.0018555816859807763,0.0022110423024675656,-0.010733969164954758,0.007219723473412514,0.9848393037003977
2017-08-03,1,0.002246758111464316,0.002698570779032186,-0.009594659756854359,0.008865676553300606,0.9836349115297235
2017-08-07,1,0.003166559849219259,0.003780501389457603,-0.01050067730271968,0.009731761565932865,0.9826707484753646
2017-08-09,1,0.002215798852855145,0.0026857463764813527,-0.009594659756854359,0.018330324039291055,0.9830439159886755
2017-08-11,1,0.0003982331953600182,0.0005419084372602367,-0.009594659756854359,0.02319349111163634,0.9828496556769004
2017-08-15,1,0.0006993738883105319,0.0008969418011965398,-0.009594659756854359,0.023267928385645623,0.9818454126347337
2017-08-17,1,0.0005244737683075679,0.0006806112163071482,-0.010285823821173327,0.023267928385645623,0.9811290281911523
2017-08-21,1,0.00019837681952949385,0.0003832881612252509,-0.009594659756854359,0.023267928385645623,0.9819634251581469
2017-08-23,1,0.0006306079201983589,0.000899571413841352,-0.005926912223515848,0.02120048624898301,0.9850095071179902
2017-08-25,1,0.00013879179296027284,0.00032773530130427125,-0.001752377607954301,0.02120048624898301,0.9846202283640133
2017-08-29,1,0.0025884709911174787,0.0031085508109282194,-0.001752377607954301,0.016968446491850107,0.9879310319332055
2017-08-31,1,0.0038292434393479525,0.004547664473499952,0.00247663965096943,0.016809907487819725,0.9900659703480971
2017-09-05,1,0.003452784234119665,0.004043885594034087,0.003494445686640412,0.016809907487819725,0.9903920262819267
2017-09-07,1,0.004513103493344137,0.005240880439373637,0.0022976865177784947,0.014014657033964349,0.9909823576836346
2017-09-11,1,0.004749235373979131,0.005480153260329625,0.0018128826887278213,0.013070466174456006,0.992829602395235
2017-09-13,1,0.004722220309745387,0.005304922391198271,0.0011292616524589704,0.011053194133533614,0.9931316072843961
2017-09-15,1,0.004738410328968118,0.005352747744436521,0.0016654138655452736,0.013026468754665864,0.9934203092537311
2017-09-19,1,0.004504423766711069,0.005006467032520639,0.0008527250500244576,0.013026468754665864,0.9923302668441873
2017-09-21,1,0.004231347331524791,0.004676017574784046,0.001180215611215967,0.013026468754665864,0.9925469375043267
2017-09-25,1,0.004372328322256489,0.004801904327957391,0.00041567299164868923,0.011470473350661902,0.9919555323267097
2017-09-27,1,0.00521112775130869,0.005769147836669281,-0.001649242762944778,0.009293188987126937,0.9900935103087081
2017-09-29,1,0.006244298929625384,0.006983618172999638,-0.001649242762944778,0.011470473350661902,0.9886146427270307
2017-10-03,1,0.007488913304041816,0.008436223271906783,-0.013974299738008341,0.009293188987126937,0.9870746434105442
2017-10-05,1,0.006949883314129617,0.007804535931354509,-0.008621383599379764,0.013083676073941824,0.9877057796159543
2017-10-09,1,0.00508785663029559,0.005523398622026431,-0.008621383599379764,0.013840594934234613,0.9867928170134329
2017-10-11,1,0.005482466060152939,0.00605925884312924,-0.008155701812013713,0.013840594934234613,0.9868239153781007
2017-10-13,1,0.0058020638390466235,0.006434071645114649,-0.015046603289801903,0.013840594934234613,0.9858149815230685
2017-10-17,1,0.005332503793944047,0.005892947086907809,-0.01238801340265758,0.013840594934234613,0.986101858468001
2017-10-19,1,0.005147043038763013,0.005658821439461392,-0.01238801340265758,0.015802793844730777,0.9842179120798914
2017-10-23,1,0.004072272781971256,0.004418370481917037,-0.01061854811703044,0.015802793844730777,0.9850291927866487
2017-10-25,1,0.0024871122172771343,0.0025345535189470183,-0.007053300530243747,0.014711405594918812,0.9864168663529168
2017-10-27,1,0.0037389888612052056,0.003931236829901139,-0.007053300530243747,0.012069192325372529,0.9883401497654059
2017-10-31,1,0.0031809899986247037,0.003385097105254979,-0.0034814966924075165,0.013584650998762996,0.9891277034858591
2017-11-02,1,0.004088700865822454,0.004427212031563005,-0.00578979150968254,0.010707897794048703,0.9890429507623387
2017-11-06,1,0.0028798359619152222,0.002923827618931229,-0.004061021855617188,0.010707897794048703,0.9894312840206712
2017-11-08,1,0.003155269554391575,0.003284124128715522,-0.00405821211717345,0.012359462545600596,0.9886030857584936
2017-11-10,1,0.0013492169734212645,0.0015457767001901793,-0.002925936862416307,0.012359462545600596,0.9896727247583892
2017-11-14,1,0.0012639288050676494,0.0014287080011420347,-0.0015063276888077678,0.012359462545600596,0.9901699544607891
2017-11-16,1,0.0019147962830750494,0.0019973718459577565,-0.0015063276888077678,0.012359462545600596,0.990595544865853
