JNU-Tangyin/eata/results/Batch4_SP500/Batch4_SP500-RSG.csv
Date,Action,Predicted_Q25,Predicted_Q75,Actual_Q25,Actual_Q75,RL_Reward
2010-12-14,0,0.0,0.0,-0.00483690837340513,0.0034106503564914053,0.9947283848029495
2010-12-16,0,0.0,0.0,-0.00483690837340513,0.005088398254336445,0.9936313608712837
2010-12-20,0,0.0,0.0,-0.00483690837340513,0.005088398254336445,0.9936625329852141
2010-12-22,1,0.000938988985219535,0.0012590514040197263,-0.004620926635045923,0.005088398254336445,0.9940294626034009
2010-12-27,1,0.001059413300458545,0.0013888252040192498,-0.004620926635045923,0.006376970224995324,0.9937483951226349
2010-12-29,1,0.0007835438180467549,0.0010464760934562824,-0.004620926635045923,0.007188295257896439,0.9931382689750974
2010-12-31,1,0.0004043944351148367,0.0005913436417029835,-0.004620926635045923,0.007188295257896439,0.992371066991691
2011-01-04,-1,-0.0001627126654843,-0.00011097961975652324,-0.004798953371083927,0.007188295257896439,0.9920963043387848
2011-01-06,-1,-8.124164124831668e-05,-5.428522794948875e-05,-0.005031262355140608,0.007188295257896439,0.9922832539840164
2011-01-10,-1,-0.0007155443062038477,-0.0006178337643902184,-0.004465041901105818,0.009283178587608881,0.9922068056921005
2011-01-12,0,0.0,0.0,-0.004465041901105818,0.009283178587608881,0.9923534555225147
2011-01-14,0,0.0,0.0,-0.004685711295624416,0.0069838561542638206,0.9927978326583874
2011-01-19,0,0.0,0.0,-0.004731824744355326,0.006428411344012298,0.9930936429872139
2011-01-21,1,0.000546585332688099,0.0006043088475076663,-0.004731824744355326,0.006428411344012298,0.9931953473496545
2011-01-25,1,0.0009647632183062253,0.0011104707230597248,-0.009137481951041797,0.0026987895781552303,0.9918748887210737
2011-01-27,1,0.0018332687039252175,0.0021351077940501085,-0.009137481951041797,0.0026987895781552303,0.991838772911542
2011-01-31,1,0.0009280081809908487,0.0010513713291263635,-0.009137481951041797,0.0031114501566874564,0.9916889749541159
2011-02-02,1,0.000895325927622767,0.0010456144897842408,-0.005747823256364984,0.006956851045938775,0.9910791068618824
2011-02-04,1,0.000603345733480684,0.0007256557480146863,-0.005013403464104844,0.006956851045938775,0.9914087924516698
2011-02-08,1,0.0010212269427125461,0.001207491985380073,-0.005013403464104844,0.006956851045938775,0.9916843159867071
2011-02-10,1,0.0013169668938639606,0.0015825654750551438,-0.0072070456037039085,0.006956851045938775,0.991272629093304
2011-02-14,1,0.0007495384314816472,0.0009117515585778113,-0.0072070456037039085,0.006956851045938775,0.9911928094287589
2011-02-16,1,0.0005279487434304065,0.0006254105068781004,-0.011439187393490117,0.00790017543759566,0.9900723906928663
2011-02-18,0,0.0,0.0,-0.011439187393490117,0.010867669927473466,0.989175004700419
2011-02-23,0,0.0,0.0,-0.0072070456037039085,0.010867669927473466,0.9898058767352
2011-02-25,0,0.0,0.0,-0.0072070456037039085,0.011042091407668705,0.9892802242347328
2011-03-01,-1,-8.690915363389971e-05,-3.525804923871329e-05,-0.004037196445554104,0.011042091407668705,0.9903316722687597
2011-03-03,1,0.0009605566291768864,0.0011499808930917036,-0.004037196445554104,0.010645972923330232,0.9914633020874307
2011-03-07,1,0.0006928292275887996,0.0008518047660354645,-0.0033303871574555,0.010645972923330232,0.991843356916445
2011-03-09,1,0.0009305090826892634,0.001106515794198992,-0.004185578812219675,0.010706655271566763,0.9914888160613868
2011-03-11,1,0.0003401370402541774,0.0004071650330293074,-0.005868777921496108,0.010706655271566763,0.9913910487834746
2011-03-15,-1,-6.01523377314898e-05,-4.2830162325248236e-05,-0.003891453527214311,0.010706655271566763,0.9917459864647934
2011-03-17,-1,-0.00010019468835630884,-6.73727154086067e-05,-0.003737513631501606,0.010513151189092303,0.9931501108221514
2011-03-21,1,0.00044705628998827486,0.0005501099744797595,-0.005150595999742878,0.005980467377549056,0.9936409173393804
2011-03-23,1,0.00020210357132866626,0.0002714483383372716,-0.005016095099337767,0.008149418727283454,0.9938599681184823
2011-03-25,1,0.00026441985553450576,0.0002838902879413545,-0.005208912985665661,0.0017636395383510755,0.9945326870347887
2011-03-29,1,0.00086426690766626,0.0009863833782324165,-0.005208912985665661,0.003340529573104347,0.9935598345866
2011-03-31,0,0.0,0.0,-0.005208912985665661,0.011053541847134689,0.992344629838026
2011-04-04,0,0.0,0.0,-0.005208912985665661,0.011053541847134689,0.9920098487652034
2011-04-06,-1,-0.00022814578870500237,-0.000115487032322282,-0.005208912985665661,0.00933477435074496,0.9924779676296748
2011-04-08,-1,-0.0007373958937135816,-0.0005681382277116581,-0.00406784954322816,0.009815926231795535,0.9925469918168995
2011-04-12,-1,-0.0005991367671319447,-0.0004452790662149346,-0.00406784954322816,0.009815926231795535,0.9926055507291597
2011-04-14,-1,-0.0008564103473137186,-0.000678917126929479,-0.003710473174726148,0.010627479549742597,0.9921138719339866
2011-04-18,-1,-0.0015188834841144668,-0.0012461109398694396,-0.0023142746001253637,0.010627479549742597,0.992236572598858
2011-04-20,-1,-0.0010247429345789788,-0.0008240393047106345,-0.00023129807863840948,0.010627479549742597,0.9923794719680824
2011-04-25,-1,-0.0011753913777042238,-0.0009590202128873975,-0.0023142746001253637,0.010627479549742597,0.9913296132114211
2011-04-27,1,0.000672026378265589,0.0007537557887642488,-0.004547696182483563,0.00901550008512468,0.992543819570061
2011-04-29,1,0.0014014796085872847,0.0015408024082844251,-0.004547696182483563,0.0036402113379211043,0.993756036390346
2011-05-03,1,0.001323021536540726,0.0014446401679472755,-0.007004348262169524,0.00322528961161178,0.9934750580086895
2011-05-05,1,0.0019248118067651107,0.002184026844043849,-0.007395975980193589,0.00322528961161178,0.9928782067077587
2011-05-09,1,0.0021504223970091538,0.002433951186924975,-0.007869700916124833,0.0014670964673002217,0.9922661284056077
2011-05-11,1,0.0022686208684830197,0.002558224512335416,-0.007869700916124833,0.0006432971882014572,0.9921007350481564
2011-05-13,1,0.002038268095508121,0.002299516022779544,-0.008168103114425387,0.0006432971882014572,0.992063577083418
2011-05-17,1,0.0018096652551939213,0.002016117153994532,-0.008783120130210998,0.000725078995183704,0.9914303641299884
2011-05-19,1,0.0022721691674261364,0.002540498641180196,-0.008783120130210998,0.00137215908553687,0.9913626225675848
2011-05-23,1,0.0010920349907410283,0.0011942243331054011,-0.008168103114425387,0.005749476382313908,0.9927989888325813
2011-05-25,1,0.000436029448950523,0.00043831770901447357,-0.0069556229508769135,0.005749476382313908,0.9935477238640331
2011-05-27,1,0.000418498752556937,0.00042065410624766514,-0.008783120130210998,0.005749476382313908,0.992500589522522
2011-06-01,1,1.0180467231008428e-05,6.793759858441929e-05,-0.0069556229508769135,0.006252495576449991,0.9927540800928026
2011-06-03,-1,-0.0006062188202133942,-0.0004470152916749335,-0.002115475479065532,0.006805875307395602,0.9930821249909839
2011-06-07,-1,-0.0011016033867399053,-0.0008982851282450206,0.0002410855517271834,0.006971326960735673,0.9930263195875376
2011-06-09,-1,-0.0005703318107306138,-0.00046047135146572675,-0.0001606720535371663,0.007655890015481991,0.9923575021404354
2011-06-13,-1,-0.00025982309801905756,-0.00021184591975519136,-0.0034045985961902985,0.006971326960735673,0.9915711636978239
2011-06-15,-1,-0.0005623379661748202,-0.00046641514123206405,-0.003918243138188322,0.00658259072485627,0.9918577516577751
2011-06-17,1,0.00034824855372948235,0.00039426025523205506,-0.011522923674084378,0.006252495576449991,0.9922983586838453
2011-06-21,1,0.0012353445200652033,0.0014346435482990357,-0.011522923674084378,0.005321585026781704,0.9918296732026127
2011-06-23,1,0.001272093420002775,0.0014472575486351997,-0.01210868475241613,0.00658259072485627,0.9903342441116674
2011-06-27,1,0.0004836495933870868,0.0005404145638880135,-0.011522923674084378,0.00658259072485627,0.9908458903737437
2011-06-29,1,0.0005386731733556323,0.0005901426675633509,-0.01210868475241613,0.0041895227006764225,0.9893198572143935
2011-07-01,1,0.0009802741890190384,0.0011057205738300817,-0.01210868475241613,0.0041895227006764225,0.988645632018251
2011-07-06,1,0.0012028350723735288,0.0013518210327328971,-0.013512344359007488,0.00032859795906370955,0.9871242299653213
2011-07-08,1,0.0008464102570357626,0.0009403467450382339,-0.01470453496465132,-0.00041235658902998864,0.986549062017867
2011-07-12,-1,-0.0004137837435263761,-0.00034142613160628965,-0.013512344359007488,0.0011138191638886883,0.9823422074798621
2011-07-14,0,0.0,0.0,-0.016194587251598162,0.004937300685653492,0.979448017462963
2011-07-18,0,0.0,0.0,-0.016194587251598162,0.020721540376246572,0.9769127136776462
2011-07-20,1,0.0001068280467721003,0.00012633537374549128,-0.016194587251598162,0.012375870698192402,0.9774173380387101
2011-07-22,-1,-0.0013952113305228694,-0.0011428512282992509,-0.025082592840180218,0.009421537871087255,0.9780255183708252
2011-07-26,0,0.0,0.0,-0.025082592840180218,0.021325205234842517,0.9759549017660553
2011-07-28,0,0.0,0.0,-0.01400795957444897,0.023004478964736945,0.9759275072385489
2011-08-01,-1,-0.002612604041369129,-0.00226720776190769,-0.01400795957444897,0.026357212862251435,0.9747024729960387
2011-08-03,-1,-0.003910507252887584,-0.0034012725444882066,-0.006887084241708331,0.026357212862251435,0.9756231338546117
2011-08-05,-1,-0.004538766775554157,-0.0039442272458289525,-0.010800616503715565,0.026357212862251435,0.9754219084529212
2011-08-09,0,0.0,0.0,-0.006887084241708331,0.023004478964736945,0.9814543753742304
2011-08-11,-1,-0.00428080460646794,-0.003741495781568741,-0.01003018087109556,0.021325205234842517,0.9830430549976937
2011-08-15,-1,-0.0024594138872406257,-0.0021162512982685843,-0.01003018087109556,0.012247163245985272,0.985898346635134
2011-08-17,-1,-0.0021025129725142713,-0.0018370026435342852,-0.01003018087109556,0.01301701832760098,0.9855583175405921
2011-08-19,-1,-0.0025018557120344486,-0.0022095931065814773,-0.01003018087109556,0.01301701832760098,0.9856663152188111
2011-08-23,-1,-0.0007759136243703116,-0.0006755192512589673,-0.010800616503715565,0.009918410962624639,0.9856523901807277
2011-08-25,-1,-0.0005454854689588709,-0.00047623558763628066,-0.010382551161624457,0.009918410962624639,0.9854048871855171
2011-08-29,1,0.000844309675735971,0.0009610555934191729,-0.010382551161624457,0.010175029323163207,0.9855506030359492
2011-08-31,0,0.0,0.0,-0.014116123599600091,0.010175029323163207,0.9847538594405946
2011-09-02,-1,-0.0010054215427501,-0.0008804406088327491,-0.01264094738592229,0.010175029323163207,0.9850908426993659
2011-09-07,-1,-0.0007578800877614306,-0.0006485162924066714,-0.01264094738592229,0.012234898552333161,0.9846966135698287
2011-09-09,0,0.0,0.0,-0.007040784272162672,0.013480812917236795,0.9857058085792242
2011-09-13,-1,-0.001712302312669009,-0.0014960155773931193,-0.011499192462869413,0.01444708558727514,0.9839602270934619
2011-09-15,0,0.0,0.0,-0.014510192755729345,0.01444708558727514,0.9835557325928593
2011-09-19,0,0.0,0.0,-0.013883058533273845,0.014572453917179495,0.9831701329835179
2011-09-21,0,0.0,0.0,-0.0105589159477227,0.014572453917179495,0.9852564534527783
2011-09-23,-1,-0.0008983551666083439,-0.000878789869360095,-0.00968617926775998,0.014572453917179495,0.9860795035408325
2011-09-27,1,0.00020679300011945114,0.0003219361095194383,-0.00968617926775998,0.014537029608778175,0.9869089617747766
2011-09-29,-1,-0.0004603221107494488,-0.00041773898031273243,-0.006428744325574972,0.014537029608778175,0.987183732748126
2011-10-03,-1,-0.001544998453570345,-0.0014777000868947056,-0.00968617926775998,0.014537029608778175,0.9872787059396357
2011-10-05,1,0.0004138313686059868,0.0006108500971745128,-0.013883058533273845,0.013926263402883598,0.9870939216766289
2011-10-07,-1,-0.00037124437420892146,-0.0002399842765092455,-0.013883058533273845,0.014717031997066183,0.9865764870350153
2011-10-11,1,0.0014297768131887741,0.0017982710862544285,-0.013883058533273845,0.01021054549645626,0.9874060671679595
2011-10-13,1,8.668498792004125e-05,0.00021738906620823422,-0.015463916629586764,0.008663008718986707,0.9874057029013864
2011-10-17,1,0.00012839005479248433,0.00023444688665135116,-0.01679291555449544,0.008663008718986707,0.9874153718559665
2011-10-19,0,-5.775259436986173e-05,2.3134921462399777e-05,-0.01679291555449544,0.008663008718986707,0.9873106873571824
2011-10-21,1,0.000622276965665835,0.0007744908604812365,-0.01679291555449544,0.007298349993901398,0.9873824511231952
2011-10-25,1,0.0009345225345318306,0.0010936963049331166,-0.01752701404498759,0.005382333769799531,0.9869550931208916
2011-10-27,1,0.0008047152233262829,0.0009209406266459587,-0.01752701404498759,0.0038017045187187576,0.9868071872050973
2011-10-31,-1,-0.0004935985681135326,-0.0004512850075417875,-0.014438272675829282,0.007042039984381311,0.9871148074513018
2011-11-02,-1,-0.001085388049846999,-0.0009792510508802286,-0.012335308563000195,0.007894078690426446,0.9877227956407544
2011-11-04,-1,-0.00010018585601843917,-7.651861833349954e-05,-0.014438272675829282,0.007894078690426446,0.9872669868503293
2011-11-08,0,0.0,0.0,-0.012335308563000195,0.007403865096801245,0.9879506334339574
2011-11-10,0,0.0,0.0,-0.012335308563000195,0.007970777352623512,0.9872225252408441
2011-11-14,0,0.0,0.0,-0.011503702547974158,0.007403865096801245,0.988216125497933
2011-11-16,0,0.0,0.0,-0.011503702547974158,0.007403865096801245,0.9884815142786562
2011-11-18,0,0.0,0.0,-0.011430272185598899,0.007403865096801245,0.9886605406487206
2011-11-22,0,0.0,0.0,-0.007224633814171822,0.007970777352623512,0.9889641374470769
2011-11-25,0,0.0,0.0,-0.004251080173765969,0.01629493284564877,0.9880937321835475
2011-11-29,0,0.0,0.0,-0.007224633814171822,0.010919134660567719,0.9888746437851702
2011-12-01,-1,-0.0011052390622274862,-0.0009977044919400192,-0.007224633814171822,0.00906149510990546,0.9900260240836473
2011-12-05,-1,-0.0014693270447984532,-0.0014613615353347958,-0.005543326944445319,0.0077674376825618945,0.9912292367404782
2011-12-07,-1,-0.001083230642657254,-0.00103685552380498,-0.005543326944445319,0.008764287471486774,0.9910033398288127
2011-12-09,-1,-0.0015357370917300469,-0.0014762289773534575,-0.005415201844643973,0.007648384454567428,0.992933935657363
2011-12-13,-1,-0.001842009236841405,-0.0018232342129067057,-0.004142575445755386,0.008764287471486774,0.9911598289885696
2011-12-15,-1,-0.0024878984572316667,-0.002379703811885308,-0.006066879611756715,0.008764287471486774,0.9902223014101874
2011-12-19,-1,-0.002985241286347933,-0.002788054045738903,-0.005415201844643973,0.009439153817888249,0.989584421154439
2011-12-21,-1,-0.0022689165194539505,-0.002139356885825108,-0.005415201844643973,0.009218756261100304,0.9900009122021428
2011-12-23,-1,-0.001759126024152889,-0.0016579057696997927,-0.005415201844643973,0.007729442200728576,0.9914757745632516
2011-12-28,-1,-0.002760730374459084,-0.0024427522283073126,-0.0040453236938260435,0.007729442200728576,0.9914731218345733
2011-12-30,-1,-0.004691723533990617,-0.004115270617038078,-0.0016907715295502931,0.007729442200728576,0.989924954312176
2012-01-04,-1,-0.0037762387135750726,-0.003361002085296769,-0.0016907715295502931,0.00878733254220353,0.9888212598654758
2012-01-06,-1,-0.0022121899790150277,-0.002076912494499423,-0.0023960288303998705,0.009287891473250574,0.9896679201060918
2012-01-10,-1,-0.00184720336760562,-0.0017483887182863384,-0.0034814422140293645,0.009287891473250574,0.9892352090503828
2012-01-12,-1,-0.0011109374067904193,-0.0010957158410791845,-0.0012921252378440742,0.0083221216763451,0.9914620526610851
2012-01-17,-1,-0.00046737611109819914,-0.00025072958683869373,0.0012312402728080038,0.009284370874394467,0.9920028888812966
2012-01-19,1,0.00020183292801545516,0.0005064725418619867,-0.002420844838744366,0.0083221216763451,0.9923766869164761
2012-01-23,1,0.0014489729075887997,0.0020052539332584512,-0.0031963045068608676,0.007574371912109098,0.9931175792230397
2012-01-25,1,0.0018920363504545878,0.0025023212691980407,-0.0031963045068608676,0.007436822953616402,0.9935947196912616
2012-01-27,1,0.0017924035780747067,0.002256892897514206,-0.0031963045068608676,0.0050998917127787775,0.9937087947363769
2012-01-31,1,0.0022841471993093987,0.002884223674688311,-0.004278477515879318,0.005066340881206641,0.9933333842714928
2012-02-02,1,0.0019344359140377103,0.002396228145988626,-0.003679254875000473,0.004352331827508329,0.9948631462108319
2012-02-06,1,0.002554473615696316,0.003126382850166351,-0.004278477515879318,0.0035990456517360895,0.9947878153835757
2012-02-08,1,0.002922384477642347,0.003581749108200149,-0.003679254875000473,0.0035990456517360895,0.9945157771152056
2012-02-10,1,0.00281375799020131,0.0034167145521752534,-0.003679254875000473,0.0036122228701706846,0.9938209830276324
2012-02-14,1,0.0015413800383018747,0.0017846489015049011,-0.0031923122188955216,0.0036122228701706846,0.9948071575624325
2012-02-16,1,0.0010429853643397582,0.0013259181854220242,-0.002508799957516737,0.0036122228701706846,0.9955230717009284
2012-02-21,1,0.0016006704455305573,0.0019668815191777604,-0.002508799957516737,0.003051204172748824,0.9952097291068713
2012-02-23,0,0.0,0.0,-0.002508799957516737,0.003051204172748824,0.995320430944437
2012-02-27,0,0.0,0.0,-0.0031224945817520666,0.0036595555878486444,0.9947327521528092
2012-02-29,0,0.0,0.0,-0.0031224945817520666,0.003051204172748824,0.9950425987200425
2012-03-02,1,0.0012109682903044135,0.0013443131141647607,-0.003183757641630206,0.003358417094640594,0.9945704439657352
2012-03-06,1,0.0010657760324977881,0.0011835990802832861,-0.003183757641630206,0.005664341970608675,0.9942809758755982
2012-03-08,1,0.0014276957486790216,0.001588376200632634,-0.003928385303218746,0.005664341970608675,0.9943298015809916
2012-03-12,1,0.0020564313435024227,0.002304002118428777,-0.00442168850457914,0.003358417094640594,0.9938714195448902
2012-03-14,1,0.0018808297913023323,0.0020867142993321666,-0.00442168850457914,0.009000159125365293,0.9931627386870643
2012-03-16,1,0.001907583974814572,0.0021455070481435027,-0.00442168850457914,0.009000159125365293,0.9931240369624054
2012-03-20,1,0.0018464332744106467,0.002094328293832323,-0.003928385303218746,0.009000159125365293,0.9933514468567819
2012-03-22,1,0.0017960896843573961,0.002037603581528262,-0.004255601921908159,0.009000159125365293,0.9929602733373015
2012-03-26,1,0.0012636601581885814,0.0013805936057593986,-0.0053307040706078316,0.007841842210895416,0.9930925315924751
2012-03-28,1,0.0013306462606751464,0.0014609446855141633,-0.0053307040706078316,0.00880954273813282,0.9929715321341346
2012-03-30,1,0.00157063467647406,0.0017530107963244705,-0.0053307040706078316,0.009044144394275661,0.9881711548914149
2012-04-03,1,0.0016051437795888623,0.001775911925878784,-0.005599485380643586,0.007807094849652077,0.9883536566317941
2012-04-05,1,0.0011312221083103122,0.0011870924271059006,-0.0063912274449464635,0.006494766069111547,0.9883045904648242
2012-04-10,1,0.0006504827917352836,0.0006517718142912314,-0.005428531509371143,0.006494766069111547,0.9892951107971025
2012-04-12,1,0.000963833193857806,0.0009823963439664215,-0.0063912274449464635,0.005651540564688645,0.9888305703730389
2012-04-16,1,0.0007416036543634427,0.0007721738537510934,-0.008381899511972607,0.005651540564688645,0.986785279487901
2012-04-18,1,0.00034137017916152683,0.00045541068583781786,-0.008381899511972607,0.005651540564688645,0.9865486717067089
2012-04-20,0,-9.350228915704377e-05,9.731459170786384e-05,-0.008381899511972607,0.003976291799438219,0.9869148054280606
2012-04-24,1,0.00013144581756146005,0.00024871518646018214,-0.007755392716556117,0.008441312852900121,0.9860663527979534
2012-04-26,1,0.0008007000057539519,0.0008036962444417284,-0.009544995973140354,0.008876234882406756,0.9855448240123862
2012-04-30,-1,-0.0008801266894745268,-0.000660252085311781,-0.007500623477625205,0.006302332246763348,0.9910011307677081
2012-05-02,-1,-0.0005866024340181516,-0.00041204970891737716,-0.009544995973140354,0.006302332246763348,0.9904373051730426
2012-05-04,-1,-0.001424044684692934,-0.0011412993150688759,-0.009834867289059105,0.006302332246763348,0.990389151123217
2012-05-08,-1,-0.001877927452656223,-0.001518769814822206,-0.009834867289059105,0.008876234882406756,0.9896623368941571
2012-05-10,-1,-0.0017413939209187709,-0.0013957453228906382,-0.00865651022859247,0.008454074621671508,0.9906377654281873
2012-05-14,-1,-0.002733825172120014,-0.002248519458432462,-0.00865651022859247,0.008454074621671508,0.9918723028138707
2012-05-16,-1,-0.00221555839231189,-0.0018097654329106135,-0.00865651022859247,0.006302332246763348,0.991955981652288
2012-05-18,-1,-0.00213442092222593,-0.0017915516372535153,-0.00865651022859247,0.006302332246763348,0.991927197881852
2012-05-22,-1,-0.001560286798344435,-0.0012773744909845923,-0.00865651022859247,0.004622990244667569,0.9925284121293445
2012-05-24,-1,-0.0016657972544191603,-0.0013587176032348815,-0.00903353591440104,0.003928196427469565,0.992590942698255
2012-05-29,-1,-0.0017154317893906903,-0.0013904912263471441,-0.00903353591440104,0.0038407091080141123,0.9923986306675506
2012-05-31,-1,-0.0019356693068066097,-0.001611815324209232,-0.007682091928418006,0.003926984977807763,0.9930473387401785
2012-06-04,-1,-0.002555479427496246,-0.002157415326185177,-0.007097616761771,0.004026060926136727,0.9913540716523496
2012-06-06,-1,-0.0019815001641047656,-0.0016688649266105489,-0.007097616761771,0.003926984977807763,0.9921609163509746
2012-06-08,-1,-0.0021889630759459886,-0.0018264894095589672,-0.007097616761771,0.003926984977807763,0.9922769581809688
2012-06-12,-1,-0.0026906216126289023,-0.0022895046907122863,-0.006560884714240213,0.004026060926136727,0.9920696206043627
2012-06-14,-1,-0.0021973846169001335,-0.0018748477798761723,-0.006560884714240213,0.0041144614440238375,0.9917598644413393
2012-06-18,-1,-0.002069892601910675,-0.0017712658507776603,-0.006560884714240213,0.00544127155668125,0.9915319655631649
2012-06-20,-1,-0.0015627374863383166,-0.0013392328911357053,-0.006560884714240213,0.007237470452354194,0.9912053698136323
2012-06-22,-1,-0.0019565808540686846,-0.0017061024030704164,-0.004388644650964416,0.007237470452354194,0.9915083426424959
2012-06-26,-1,-0.001728929964325505,-0.0015247718661221136,-0.003217276679431185,0.007237470452354194,0.9919191715065068
2012-06-28,-1,-0.001493025708942294,-0.0013301008508599514,-0.0029992541601267173,0.008892231366087909,0.9904364167917367
2012-07-02,-1,-0.0008002393419653467,-0.0007226292855993311,-0.0018919617738292669,0.012073796531773559,0.9917974168744564
2012-07-05,-1,-0.0007579838812610974,-0.0006971955428605094,-0.003151399707879743,0.012073796531773559,0.9909532227246878
2012-07-09,-1,-0.0007799039227626973,-0.0007115300956439854,-0.001297433779812626,0.012341411895881855,0.9903342528356961
2012-07-11,-1,-0.00041064456350420943,-0.00036239450573065645,-0.0030107120584939055,0.012073796531773559,0.9912558209071366
2012-07-13,1,8.213199289032686e-05,9.52346438522471e-05,-0.0030107120584939055,0.008913236509221104,0.9919518717996832
2012-07-17,1,0.0002810557792971854,0.0003274773737827355,-0.0032516503745327495,0.008311995603004874,0.9922234882679271
2012-07-19,1,0.0008267861329197722,0.0009417812465386642,-0.0032516503745327495,0.0061782196583184635,0.9927984016026469
2012-07-23,1,0.00039998710727417216,0.00046141395897317684,-0.0031117700869039916,0.0061782196583184635,0.9923926672829926
2012-07-25,1,0.0003837306069012581,0.0004449304973376193,-0.003375873312544188,0.0061782196583184635,0.9921627747940305
2012-07-27,1,0.0013133956025543148,0.0014875173434657856,-0.004536615403442801,0.003048861585280569,0.9932858262307064
2012-07-31,1,0.0021528261836666336,0.002448324798545054,-0.0049181117810793255,0.0007011769370422996,0.9935770703167439
2012-08-02,1,0.0017022896893903895,0.0019710321270800376,-0.004017458702645254,0.00124935610412467,0.994823498064339
2012-08-06,0,0.0,0.0,-0.004288082192863232,0.00044797191075849686,0.9962516934994489
2012-08-08,0,0.0,0.0,-0.004288082192863232,0.0008146286768377553,0.9955533767829753
2012-08-10,0,0.0,0.0,-0.0049181117810793255,0.0008146286768377553,0.9947238070345968
2012-08-14,0,0.0,0.0,-0.0049181117810793255,0.0008146286768377553,0.994963249021173
2012-08-16,1,0.002241050945421733,0.002569837352045723,-0.0056944368111463495,0.0007125169643265395,0.9926947539193551
2012-08-20,1,0.001583583035775244,0.001823962646588767,-0.0049181117810793255,0.0008146286768377553,0.9939168759663793
2012-08-22,0,0.0,0.0,-0.005110280006430008,0.0008146286768377553,0.9940282315768486
2012-08-24,0,0.0,0.0,-0.005110280006430008,0.0008146286768377553,0.9940824378799978
2012-08-28,0,0.0,0.0,-0.006352977213851018,0.0008146286768377553,0.993213355964794
2012-08-30,0,0.0,0.0,-0.006352977213851018,0.002122959491284413,0.9930658451446804
2012-09-04,1,0.0004268049838152038,0.0006592493672791845,-0.007574878615659197,0.0046031085170302605,0.9928138232662937
2012-09-06,0,0.0,0.0,-0.007574878615659197,0.004296715019908671,0.993349018555068
2012-09-10,0,0.0,0.0,-0.007574878615659197,0.004296715019908671,0.9937613542939008
2012-09-12,0,0.0,0.0,-0.007980530804549768,0.004296715019908671,0.9931935793068938
2012-09-14,1,0.0017554857241079108,0.00224742443173749,-0.007580390660866373,0.004288409271652659,0.9942346792404945
2012-09-18,1,0.0022699764037586237,0.002680315874028538,-0.007580390660866373,0.004288409271652659,0.9940696518107249
2012-09-20,0,0.0,0.0,-0.004268512807741423,0.005403277294660152,0.9937408897282008
2012-09-24,0,0.0,0.0,-0.0044074049008430635,0.005403277294660152,0.9936256801871612
2012-09-26,0,0.0,0.0,-0.0029734777040055357,0.005403277294660152,0.9942197685407794
2012-09-28,0,0.0,0.0,-0.004264582532158199,0.005403277294660152,0.9934102779959729
2012-10-02,0,0.0,0.0,-0.0029734777040055357,0.005403277294660152,0.9937069257350856
2012-10-04,-1,-0.0003855837407153664,-0.00025528714899565347,-0.004264582532158199,0.006815201818125127,0.9902685545159149
2012-10-08,-1,-0.0002002983161447265,-0.00010560043910414618,-0.005739616303955961,0.006515935872531097,0.9901954997876307
2012-10-10,-1,-0.0007773661954680849,-0.0006142084337974788,-0.0038092980250453434,0.006515935872531097,0.9905733902831632
2012-10-12,1,0.00010857783601595252,0.00012423425018794082,-0.0038092980250453434,0.006515935872531097,0.9908637914593149
2012-10-16,1,0.00034405267492115864,0.0003572307325998192,-0.005660188678739035,0.005037306061596656,0.9908834239197073
2012-10-18,1,0.0011546107395342827,0.0012820062716554946,-0.005660188678739035,0.005224117398415233,0.9906227189029314
2012-10-22,1,0.0004831344660014719,0.0004931438574712081,-0.0038092980250453434,0.006408832621560613,0.9907332487766188
2012-10-24,-1,-0.0005199804845456164,-0.0003723325800987764,-0.002511150046898584,0.007838929225156019,0.9904689263474429
2012-10-26,-1,-0.00014257972896556341,-6.082906836382969e-05,-0.0016158411266526842,0.006578505735782417,0.9913364897036107
2012-11-01,1,0.00017737983673974989,0.00021811887864311074,-0.0013583459221300925,0.007343392356472091,0.9912342927155177
2012-11-05,-1,-0.0016672120782755917,-0.0013627558068616563,-0.0013275957726780804,0.006578505735782417,0.9942373453285889
2012-11-07,-1,-0.0017500480884822295,-0.0014505581461682006,-0.0008276705179600017,0.006845528209267681,0.9937242281238886
2012-11-09,-1,-0.0019361321492973663,-0.001596298784029312,-0.0007018159175913089,0.006845528209267681,0.9936158676416342
2012-11-13,-1,-0.001680758553112306,-0.0014099508729468278,-0.0007818057714888107,0.006845528209267681,0.993509579903053
2012-11-15,-1,-0.002469196364388761,-0.0020406020374199316,-0.00043712471936453013,0.007743464853839084,0.992943692189983
2012-11-19,-1,-0.001698816575362128,-0.001355360581410838,-0.00043712471936453013,0.006711863234904748,0.9937546841642411
2012-11-21,-1,-0.0012168191580823136,-0.0009353374127676343,-0.0007818057714888107,0.007450516085730528,0.9943391186136075
2012-11-26,-1,-0.00037054267693232266,-0.00021499612386543425,-0.0014209238004451719,0.00665876863698954,0.99522680831566
2012-11-28,-1,-0.0003393722431552979,-0.000188916646528653,-0.001795452603091135,0.00660121139472439,0.9952364724600783
2012-11-30,-1,-0.00020048092211666287,-4.906418012087517e-05,-0.0021819690795944337,0.00660121139472439,0.9942595973905728
2012-12-04,1,0.0004436489796817229,0.00048312839800220643,-0.0018699588309307683,0.006963592419167531,0.993889459504482
2012-12-06,1,0.0012461910703818286,0.0013350205170077588,-0.00289033875377812,0.006784296586748097,0.9943526028416599
2012-12-10,1,0.0009215634581029965,0.0009731952953825939,-0.0023548098215955553,0.006961108339036306,0.9942256147094134
2012-12-12,1,0.001099099808602939,0.0012160157477901033,-0.0016817027517151927,0.006961108339036306,0.9943420631062319
2012-12-14,1,0.0007034985431656599,0.000723208694351318,-0.0016817027517151927,0.006784296586748097,0.994498202484084
2012-12-18,1,0.001798745177221075,0.001961318338575501,-0.0017634686700894555,0.006443196986221606,0.9953011059959127
2012-12-20,1,0.002340298100002757,0.0026601697560450156,-0.0017634686700894555,0.006784296586748097,0.9952163048446373
2012-12-24,1,0.002423361166155603,0.002797474187404141,-0.0017634686700894555,0.006784296586748097,0.9954194196153774
2012-12-27,1,0.0017483965012864535,0.001970627386379182,0.0,0.007029521737008618,0.9945325514366152
2012-12-31,1,0.002320437191439535,0.0026643421404635315,0.0,0.006841787195609039,0.9954946278494575
2013-01-03,1,0.002613468804124777,0.002986589255251693,-0.0004948817799370203,0.007029521737008618,0.9952453477282219
2013-01-07,1,0.0024889787259793437,0.0028450890227383306,-0.0004948817799370203,0.007029521737008618,0.9947599557031447
2013-01-09,1,0.0026351513265879525,0.0029934335656884537,-0.0004948817799370203,0.007388536510527163,0.9945746622761648
2013-01-11,1,0.0023090798468871497,0.002637691344656718,-0.002033404325103989,0.007388536510527163,0.993550576582665
2013-01-15,1,0.002292046942632061,0.002575289913862845,-0.002213183339663887,0.007388536510527163,0.9932564525433399
2013-01-17,1,0.0021856011886676467,0.0024450255087559774,-0.002213183339663887,0.007388536510527163,0.993471230284899
2013-01-22,1,0.002502271739890968,0.0027788786072249997,-0.0023403091940074534,0.004889319254456266,0.9934849130317833
2013-01-24,1,0.0020503575703400044,0.00224884570128141,-0.0030366189944241806,0.006120817043430413,0.9930029045640745
2013-01-28,1,0.002900222155720152,0.0032016957886870233,-0.0051169420541652515,0.003126852937094792,0.9930586094515554
2013-01-30,1,0.0023254661452883343,0.0025376766068224347,-0.0030366189944241806,0.004889319254456266,0.9933321364493302
2013-02-01,1,0.0028268626284795096,0.003141922167128977,-0.0051169420541652515,0.004559673504302116,0.9931565277763957
2013-02-05,1,0.0023933710755818533,0.002649251143645888,-0.0051169420541652515,0.004559673504302116,0.9936801026778969
2013-02-07,1,0.0027795357472994685,0.003081702890051089,-0.005871000269834005,0.003771822322252132,0.9930282513517089
2013-02-11,1,0.00244626938845032,0.002731338010842473,-0.005526255522225088,0.003771822322252132,0.9935671189554177
2013-02-13,1,0.0023023752455372066,0.0025699268993951,-0.005526255522225088,0.005970389129309886,0.9934648340123923
2013-02-15,1,0.001970515111101376,0.0021558784135465125,-0.005526255522225088,0.005970389129309886,0.9935120132417063
2013-02-20,1,0.0016319335814649674,0.001752843594613296,-0.005526255522225088,0.01083394436719776,0.9932651916028029
2013-02-22,1,0.0014011111902524562,0.0014585170777840417,-0.002580860971177772,0.006541263852193205,0.9938557257108189
2013-02-26,1,0.0008926140105574362,0.0008948688274092706,-0.0008445088751585459,0.006541263852193205,0.9943693385829453
2013-02-28,1,0.0011624875658585963,0.0011856938253625596,-0.0010733275812733723,0.006541263852193205,0.9944483242537431
2013-03-04,1,0.001028676210739451,0.0010475760132233035,-0.0010733275812733723,0.006541263852193205,0.9942097035356036
2013-03-06,1,0.0007959056037554106,0.000795931938001242,-0.0010733275812733723,0.006541263852193205,0.9940390014307395
2013-03-08,1,0.0007136006029071947,0.0007517611128698289,-0.0010733275812733723,0.00501908440653147,0.9946544378141243
2013-03-12,1,0.0009202794934137744,0.0009276254431817784,-0.0006916716024589485,0.005541413152341697,0.9943945025352048
2013-03-14,1,0.0011999844127687544,0.0012396219276471832,-0.0010733275812733723,0.005541413152341697,0.9940288823692355
2013-03-18,1,0.001649020486460799,0.0017874670588007152,-0.002071948256335013,0.006829347690285948,0.992771658755115
2013-03-20,1,0.0016842562690166677,0.0018044118161259196,-0.005561712293837571,0.005541413152341697,0.9919608523111885
2013-03-22,1,0.0014557451810937598,0.0015183787100000964,-0.005561712293837571,0.006829347690285948,0.991378441510545
2013-03-26,1,0.0013417560352019867,0.0013769819934220345,-0.005561712293837571,0.009303369288458326,0.9907128522429195
2013-03-28,1,0.001832487686421053,0.0019464350211266601,-0.005561712293837571,0.009303369288458326,0.9900085907879737
2013-04-02,1,0.00045625182510461513,0.0005561266388080806,-0.005561712293837571,0.011587469725700097,0.9892388249663996
2013-04-04,1,0.00010287777692584156,0.00025862922992578806,-0.004753037681394812,0.011587469725700097,0.9897916473955055
2013-04-08,0,-0.000101739877122431,9.1674440748317e-05,-0.004753037681394812,0.011587469725700097,0.989307992113579
2013-04-10,1,0.000511005221583003,0.0006400343502096029,-0.004753037681394812,0.01076099080115954,0.9901129939172453
2013-04-12,1,0.00022337822710457146,0.00039624722225310103,-0.00586957838398411,0.009343869690635222,0.9896625456095582
2013-04-16,1,0.0002786259276006639,0.0004140293932173827,-0.0048451365045599085,0.009343869690635222,0.9907021221823304
2013-04-18,-1,-0.000350793041976331,-0.00015475464451835937,-0.004363576949317222,0.010957541427256245,0.9908215750071009
2013-04-22,1,7.07709837596046e-05,0.00020057298542820035,-0.0006321320366126265,0.01023760453335092,0.991221305673337
2013-04-24,1,0.0006478407102816486,0.0007067537220392533,-0.004394276557038921,0.009239399634526111,0.9914650731987708
2013-04-26,1,0.001734920501771184,0.001820515000771877,-0.004394276557038921,0.006368172814920621,0.9927940656275972
2013-04-30,1,0.0013267822687050691,0.0013581655817682973,-0.004394276557038921,0.004850824241264821,0.9933144015079504
2013-05-02,1,0.0014043476194197677,0.0014717613174368733,-0.005472593949820313,0.006368172814920621,0.9917814832220867
2013-05-06,1,0.001627200459779731,0.0017109492758336062,-0.006738629508048204,0.00545269955669231,0.9917345462769653
2013-05-08,1,0.0014575559088701874,0.001505867826576313,-0.008229788927888827,0.003991243256895371,0.991512996472267
2013-05-10,1,0.0007320844835991254,0.0007678162429905202,-0.006022316515778715,0.0054042869742254515,0.9922203982163942
2013-05-14,1,0.0008945698229927104,0.0009278346124820626,-0.006022316515778715,0.0054042869742254515,0.9923433853337711
2013-05-16,1,0.0013353047267224626,0.0014158950905740638,-0.006022316515778715,0.0054042869742254515,0.9925611419450437
2013-05-20,1,0.0012431519630104193,0.0013003408864493934,-0.006022316515778715,0.0054042869742254515,0.9921622936091377
2013-05-22,1,0.0008448343738449229,0.0008627413519493709,-0.007216467716171708,0.0054042869742254515,0.9910941421728867
2013-05-24,1,0.0007314257328244262,0.0007688054243501846,-0.011215753476152506,0.004353188470157405,0.9903535940870578
2013-05-29,1,0.00037542276160979453,0.00044700265559779643,-0.007216467716171708,0.0088410717983819,0.9894246899510761
2013-05-31,1,0.00017352732406257157,0.0002753560590319107,-0.006022316515778715,0.007772664594107692,0.990915387407079
2013-06-04,1,0.000343277859500396,0.0004133914744508403,-0.006837928461141258,0.006350643977393435,0.9907944222662989
2013-06-06,0,-0.00010368920549536765,1.924223816311975e-05,-0.004365516918094982,0.008695834050981321,0.9908040756142543
2013-06-10,0,-0.0001017544933521364,1.812440191480808e-05,-0.0027395414456306767,0.011971079989969557,0.9905622582673729
2013-06-12,-1,-0.00030654741570153136,-0.00016237602660853763,-0.0023550111299341257,0.013509877504161221,0.989779672591877
2013-06-14,1,0.0004322330439496039,0.0004672188792533595,-0.0023550111299341257,0.013509877504161221,0.9903340031340965
2013-06-18,1,0.0007672715383312446,0.0007752342558543545,-0.0029793529030107324,0.007682725837700694,0.9909415089500697
2013-06-20,1,9.124602283309575e-05,0.00013489521687235333,-0.0023550111299341257,0.009881367518392192,0.9923511849504886
2013-06-24,-1,-0.0006800861026481015,-0.000529736951460607,-0.002700856655043303,0.009881367518392192,0.9931032833446402
2013-06-26,1,0.0005095450882407775,0.0005108630778882192,-0.002700856655043303,0.004108602000540584,0.9946936226796348
2013-06-28,1,8.290664799848416e-05,0.00015321096145998463,-0.004166380181631796,0.004108602000540584,0.9929984762058828
2013-07-02,1,0.00014130054215923373,0.00018739408767382888,-0.004166380181631796,0.0048414825607710835,0.9928337229506059
2013-07-05,1,6.0805899928644935e-05,0.00015166687734222297,-0.004166380181631796,0.0050395761515151976,0.9927204799821372
2013-07-09,1,0.0003761949567623264,0.00043760702336412575,-0.004166380181631796,0.0033016565804794514,0.9933737240896778
2013-07-11,1,0.0007633480945912495,0.0007788121127746152,-0.004166380181631796,0.0033016565804794514,0.9935432774202324
2013-07-15,1,0.0007079000989406915,0.0007334590465921982,-0.004166380181631796,0.0033016565804794514,0.9933854378234164
2013-07-17,1,0.00033882471066318406,0.0004042242867868713,-0.0037630087381613545,0.003912932732882443,0.9935138557403229
2013-07-19,1,0.0001962270404934756,0.0002907665550778337,-0.0055377726844706735,0.0033016565804794514,0.9922297985953212
2013-07-23,1,6.132661063540569e-05,0.00015064190864748697,-0.004837254078083011,0.003912932732882443,0.9920518035489757
2013-07-25,1,7.306602434220696e-05,0.0001750818693222122,-0.007752582896252427,0.004737099048558962,0.99152352444506
2013-07-29,-1,-0.0014914747700249832,-0.0011932062309582304,-0.003575344138186742,0.006135256337920976,0.9929734706911354
2013-07-31,-1,-0.0012281609806715599,-0.000974846297518001,-0.003575344138186742,0.004737099048558962,0.9931379139851872
2013-08-02,-1,-0.0005963639960110766,-0.0004248871014069314,-0.007932279129162605,0.002633598147755889,0.9930172851381348
2013-08-06,-1,-0.0006242450653836555,-0.00046071282295144126,-0.00864472982741954,0.004737099048558962,0.9922150445964679
2013-08-08,0,-2.0702176842753433e-05,6.341927541349721e-05,-0.00864472982741954,0.002633598147755889,0.9923291844395945
2013-08-12,-1,-0.000101403906113074,-2.419823437307535e-05,-0.00864472982741954,0.006135256337920976,0.9917667948948206
2013-08-14,0,-3.908274869807542e-05,2.738009263320227e-05,-0.00864472982741954,0.006763214705546621,0.9912536959530759
2013-08-16,-1,-0.0013412396579431192,-0.0011175030679847404,-0.007793636395007882,0.007713384818070335,0.9921820788713007
2013-08-20,-1,-0.0008249258169285023,-0.0006861148094741477,-0.007793636395007882,0.007872200238471957,0.9917247370084284
2013-08-22,-1,-0.0012680418700566475,-0.0010533039292843997,-0.006743879889934259,0.007872200238471957,0.9920058103979126
2013-08-26,-1,-0.0011137121666826792,-0.0009101072742329631,-0.006743879889934259,0.007872200238471957,0.9922805158419233
2013-08-28,-1,-0.0016886786534163346,-0.0014199509368009154,-0.005575706121827757,0.007872200238471957,0.9926150244607577
2013-08-30,-1,-0.0018683575224340354,-0.001621644131997535,-0.005575706121827757,0.007872200238471957,0.9926262874510374
2013-09-04,-1,-0.001729925444673486,-0.001502859182401684,-0.005575706121827757,0.005893474912181253,0.9929712147261495
2013-09-06,-1,-0.0023259898577615446,-0.0020120046463090336,-0.005834011822676738,0.006415627339033041,0.9922175072076748
2013-09-10,-1,-0.0022132684882071843,-0.0018749494121898702,-0.007577098110590028,0.004212382839893592,0.9929349517731251
2013-09-12,-1,-0.0015701412009385051,-0.0013198708644829057,-0.007882019349396203,0.004212382839893592,0.9930086420624321
2013-09-16,-1,-0.0009562349499337679,-0.0008105415398306452,-0.007882019349396203,0.004525913886894584,0.9930426259718357
2013-09-18,1,0.00016990860414934129,0.0002078120775736046,-0.007882019349396203,0.004389478176187045,0.9934849234608619
2013-09-20,1,0.00017210439735804975,0.00019410212669560212,-0.007882019349396203,0.004389478176187045,0.9937584232592649
2013-09-24,1,7.990689114147434e-05,8.763753954416011e-05,-0.007882019349396203,0.004986385370350762,0.9931779308709657
2013-09-26,1,0.0002923367015260194,0.000357249109825587,-0.007882019349396203,0.004986385370350762,0.993409200729243
2013-09-30,-1,-0.0002642256889901494,-0.0002602471621913343,-0.003955181558264314,0.004986385370350762,0.9942126531423795
2013-10-02,-1,-0.0007407974978041336,-0.000643710125206221,-0.003955181558264314,0.004786039499952877,0.9939651181709732
2013-10-04,-1,-0.0009198338823169206,-0.0008029963782441446,-0.003086870679348934,0.004786039499952877,0.9933787930670591
2013-10-08,-1,-0.000541744227910207,-0.0005039219355151887,-0.0014950338974748308,0.004786039499952877,0.9936649971676393
2013-10-10,-1,-0.0003900776938267056,-0.0003812543668661142,-0.0014950338974748308,0.004487353962878302,0.9940207610496906
2013-10-14,1,1.701874859539961e-05,4.5457052971776944e-05,-0.003761447687005654,0.004487353962878302,0.9942940205738028
2013-10-16,1,7.266974249076522e-06,4.124477679917804e-05,-0.0014950338974748308,0.004487353962878302,0.9940986963369106
2013-10-18,-1,-0.00018849481248013784,-0.00017872858565714378,-0.0014831640936923914,0.005186464332458201,0.9933828723169239
2013-10-22,1,0.0002936551321644693,0.0003397829406261989,-0.0035155937645093274,0.004487353962878302,0.9940622708643958
2013-10-24,1,0.00017585667316618518,0.00021005999044538891,-0.004513322467795502,0.004487353962878302,0.9938403464054898
2013-10-28,1,8.909100046354109e-05,9.052614339486935e-05,-0.0051676675784436635,0.004909082181947075,0.9934264722249998
2013-10-30,-1,-0.0003385748355957871,-0.0002784798578806015,-0.004485583582181896,0.004909082181947075,0.9940088886993709
2013-11-01,1,0.0003011116992239301,0.00032450642726139744,-0.004485583582181896,0.003670863768678702,0.9953456253982462
2013-11-05,1,0.00043867135276040787,0.0004939442385837559,-0.004485583582181896,0.003670863768678702,0.9950543640522428
2013-11-07,1,0.000697617334853786,0.0008221486542598654,-0.0036426886145997425,0.004185052704584517,0.9948930573711414
2013-11-11,-1,-0.0003893477752236502,-0.00031850046256318794,-0.0036426886145997425,0.003010045343616491,0.9949410300780533
2013-11-13,1,0.00023978112092017193,0.00026651003209737307,-0.005181990945940332,0.0026560994357272584,0.9944629429502624
2013-11-15,1,0.0011380083866486595,0.0012925292335090265,-0.005181990945940332,0.0015006584189909786,0.9944739369141345
2013-11-19,1,0.0008993216370873399,0.0010131348487517212,-0.006686855274193168,0.0012906697005536662,0.9934205984094998
2013-11-21,1,0.0006592495934851532,0.0007371510187789259,-0.006160280495193268,0.0026560994357272584,0.993570887699022
2013-11-25,1,0.0009116199176951831,0.0010514153613105353,-0.006160280495193268,0.0026560994357272584,0.9936747758085744
2013-11-27,1,0.0011930349185182059,0.001396167632740957,-0.006160280495193268,0.001997883701479466,0.9936267621908037
2013-12-02,1,0.0016153937180808306,0.0019054736785794413,-0.008656236995441872,0.0009053989347582679,0.9928069984582506
2013-12-04,1,0.0012452421692997564,0.0014808673507823637,-0.007580754465968432,0.0009056749310828691,0.9932758075753596
2013-12-06,1,0.0014674465307887184,0.0017268399658280542,-0.007580754465968432,0.0006065340254964864,0.9932350279887742
2013-12-10,1,0.0012737641144931037,0.0015185641734246232,-0.006854597323402868,0.0006065340254964864,0.9933731915586796
2013-12-12,1,0.00037162023066744025,0.0004796635180352883,-0.006854597323402868,0.0009056749310828691,0.9944028772963354
2013-12-16,1,0.0006954128023786672,0.0008604461677213673,-0.006854597323402868,0.0009056749310828691,0.9943797691292794
2013-12-18,-1,-0.000614967337244255,-0.0005342368302780111,-0.004183629115764506,0.0018152186027892807,0.9956013633974218
2013-12-20,-1,-0.00027516108368463214,-0.00023370959914568009,-0.004183629115764506,0.0018152186027892807,0.995861403863281
2013-12-24,1,0.0002649587895827306,0.0003408750798827775,-0.0053210173468253505,0.000610149824611334,0.9953851823624393
2013-12-27,1,0.0004353702469350342,0.000530808817705703,-0.0053210173468253505,0.0018579951105490533,0.9949471388350234
2013-12-31,1,4.423661316767805e-05,0.00010861259039755079,-0.004960509232591938,0.0020220934124152044,0.9949642560906806
2014-01-03,-1,-0.00015149840148869913,-0.00012873063821485555,-0.005362915527526227,0.0020220934124152044,0.9943341033249821
2014-01-07,-1,-0.0003163828681836893,-0.00030784914616192627,-0.005362915527526227,0.0020220934124152044,0.9946860395013096
2014-01-09,-1,-0.0013126789698612962,-0.001134580856444562,-0.004114348420451576,0.004752506114504524,0.9920960928010442
2014-01-13,-1,-0.0015595973947915565,-0.0013739500545467123,-0.004114348420451576,0.0062455284660994145,0.9917189201108602
2014-01-15,-1,-0.0014028358758850644,-0.0012288650835543774,-0.004114348420451576,0.007929656032354534,0.9912586411262791
2014-01-17,-1,-0.0011803897236748523,-0.0010466760738658718,-0.005362915527526227,0.010022461522289212,0.9903927180606608
2014-01-22,-1,-0.0014362498545844905,-0.0012474201582795383,-0.005362915527526227,0.010022461522289212,0.9904804077857208
2014-01-24,-1,-0.0025773554644435443,-0.002218542853780617,-0.003538961633745625,0.010022461522289212,0.9907634326192484
2014-01-28,-1,-0.0019599345116416153,-0.0016779952224148997,-0.003549412182155088,0.007889582615736688,0.9916892306876968
2014-01-30,-1,-0.0020893909121040832,-0.0017742080099214133,-0.003270061381106796,0.010022461522289212,0.9910922914545494
2014-02-03,-1,-0.0024527078618647767,-0.002125171172414772,-0.0027384170092623517,0.010022461522289212,0.9912800071698114
2014-02-05,-1,-0.0020495939660138186,-0.001798493404841007,-0.0029595072644580432,0.010022461522289212,0.991310076684511
2014-02-07,1,5.0216104374519934e-05,5.426463199235285e-05,-0.0029595072644580432,0.0037394450213167015,0.9942879887931817
2014-02-11,1,0.0003769890285500138,0.00045607666548626367,-0.003270061381106796,0.0017042114945798707,0.9947326616725527
2014-02-13,1,0.0014609209501795003,0.0016843300316773673,-0.004546520642502776,0.000587544551237039,0.994052011198395
2014-02-18,1,0.0007840293289197767,0.0009245581945038625,-0.004230379171574846,0.0010299950248384756,0.9947055010077278
2014-02-20,1,0.0006668468051231997,0.0007895087458276724,-0.004230379171574846,0.0024893921904849815,0.9947529453750112
2014-02-24,1,0.0003095485671311935,0.0003436472776700882,-0.004546520642502776,0.0024893921904849815,0.9943841021230526
2014-02-26,1,9.425022107621673e-05,9.561128122117458e-05,-0.004965045586831216,0.0024893921904849815,0.9944677377942241
2014-02-28,1,0.0005259412818310355,0.0005717355425680379,-0.005001836836052756,0.0024893921904849815,0.994966441434059
2014-03-04,1,0.0007792050806888031,0.0008262809563509511,-0.005001836836052756,0.0024893921904849815,0.9945927812368193
2014-03-06,1,0.00020905207772463222,0.0002308838732453386,-0.005001836836052756,0.0036086671948583698,0.9946535157981843
2014-03-10,1,0.0005714713448231605,0.0006285199406433038,-0.005069143203898823,0.0036086671948583698,0.9944778843963434
2014-03-12,1,0.00028084491705459885,0.0002829378865037607,-0.005001836836052756,0.006334480398963763,0.9943552511766822
2014-03-14,-1,-0.00032706612525164433,-0.0002501320819275033,-0.005001836836052756,0.006334480398963763,0.993999932892991
2014-03-18,1,0.0006688171873410743,0.0007646103762440435,-0.005001836836052756,0.005763083918374006,0.9948397820420423
2014-03-20,1,0.0006585670256915361,0.0007266818337601692,-0.005069143203898823,0.006334480398963763,0.9937971015364289
2014-03-24,1,0.0003388805294260985,0.0003894293510981198,-0.005069143203898823,0.006334480398963763,0.9939453853851581
2014-03-26,1,8.218581705742684e-05,9.855512703279358e-05,-0.003670216697732358,0.006334480398963763,0.9937065223857371
2014-03-28,1,0.0005521665078452346,0.0006654372278592851,-0.003670216697732358,0.007023887438926956,0.9935387140495421
2014-04-01,1,0.0010228046723894833,0.001185355718440021,-0.003670216697732358,0.006334480398963763,0.9941201325946925
2014-04-03,1,0.0013276278343813505,0.0015154193146626228,-0.003670216697732358,0.006049939118954668,0.9940494300382264
2014-04-07,1,0.0011595184052829288,0.0013255093679815622,-0.0031440114572302744,0.006049939118954668,0.9942669921427949
2014-04-09,1,0.0017685679466809218,0.0020561775764642376,-0.0031440114572302744,0.005113894352576589,0.9944046681893373
2014-04-11,1,0.0012909022033815217,0.001542081178443316,-0.0019225608450123082,0.005113894352576589,0.9954081016419758
2014-04-15,1,0.001553018310391588,0.0018330512602473524,-0.0027053903428184184,0.004649805449820859,0.9952934765522444
2014-04-17,1,0.0015329065744446079,0.0017865113437323026,-0.0027053903428184184,0.004649805449820859,0.9956619932744254
2014-04-22,1,0.001815454483397641,0.0021258182723972938,-0.0031440114572302744,0.004649805449820859,0.9952745442618662
2014-04-24,1,0.0019118054628150315,0.002224731762248808,-0.0027053903428184184,0.004863094718150256,0.9954590663495795
2014-04-28,1,0.0019430455894162806,0.0022761017431356966,-0.0019225608450123082,0.0048569140170119625,0.9962617373089871
2014-04-30,1,0.0020307875880326725,0.002349227330927538,-0.0019225608450123082,0.004845921668842258,0.9962887209767992
2014-05-02,1,0.001997145389025983,0.002350463375443813,-0.0006423699364715424,0.004845921668842258,0.9966634798646408
2014-05-06,1,0.0018165439560343828,0.002093286508568067,-0.0007098621258403274,0.004845921668842258,0.9966465216242737
2014-05-08,1,0.0014966166956877393,0.001683193407635346,-0.00014261592256317181,0.005696062308502492,0.9964202259678092
2014-05-12,1,0.0016810119619668994,0.0019146346520292137,0.000423978034762479,0.005854303047975084,0.9960372554002979
2014-05-14,1,0.0009344089101620695,0.001008367594727431,0.0004921682224493389,0.005854303047975084,0.9960871664607707
2014-05-16,1,0.0008696270402486061,0.000951238795210225,0.0004921682224493389,0.005742289503607966,0.9968343727510235
2014-05-20,1,0.0008396915705316295,0.0009384143768231232,0.0007547143508858841,0.0064435706352178905,0.9967580618408074
2014-05-22,1,0.0009965223315199431,0.0011075663148071534,0.0007547143508858841,0.0064435706352178905,0.9966555475943047
2014-05-27,1,0.000980208382113554,0.0010653056267028254,0.0002045705630605795,0.0064435706352178905,0.996499458244184
2014-05-29,1,0.0010462197144307647,0.0011240187486887933,0.0002045705630605795,0.007174691929378049,0.9963985475246635
2014-06-02,1,0.0008553568765044372,0.0008891919476063161,-0.0002673857880705242,0.007511432996559104,0.9956562826170572
2014-06-04,1,0.000516895096578883,0.0005487112189343459,-6.281522500994468e-05,0.007511432996559104,0.9950290555483267
2014-06-06,1,0.0007964350141101956,0.0008162032119618955,-6.955871699764051e-05,0.0064435706352178905,0.9957430074672017
2014-06-10,1,0.0013122540164749869,0.0013649485533254594,-0.0018662764610662046,0.005508784793344851,0.9956526280715591
2014-06-12,1,0.001281668882155584,0.0013248148282170185,-0.004333523150495089,0.005508784793344851,0.9951469477861908
2014-06-16,1,0.0011799214682275028,0.0012103328765427108,-0.004333523150495089,0.005508784793344851,0.9952046841230028
2014-06-18,1,0.001134625915926698,0.0011524749838614328,-0.004756641405076393,0.004703415836327179,0.9948173676675216
2014-06-20,1,0.0015881549325502346,0.001648285804630598,-0.004756641405076393,0.004359905355655092,0.9948197594362603
2014-06-24,1,0.0013111248083723967,0.0013264772090736292,-0.004333523150495089,0.004359905355655092,0.9949469156634421
2014-06-26,1,0.0010717973911169613,0.0011345087216723113,-0.004333523150495089,0.004359905355655092,0.9949776999651853
2014-06-30,1,0.0009926905004887933,0.0010621126969510616,-0.0038094258359547845,0.004359905355655092,0.9950324315003106
2014-07-02,1,0.0018819367130966979,0.002044842854262165,-0.002680607435066516,0.004598180872739622,0.9951077970302225
2014-07-07,1,0.0018351198142601004,0.0020087719474828156,-0.0036117012178720066,0.004598180872739622,0.994876936480241
2014-07-09,1,0.0014909374697936227,0.001650732292782947,-0.002220248207086275,0.004598180872739622,0.9958294794332753
2014-07-11,1,0.000967106821962293,0.0010413899716153995,-0.0005297137811337063,0.00559709157886547,0.9956895141992959
2014-07-15,1,0.0008449021349813657,0.0008943566954069792,-0.0010054317498642627,0.00559709157886547,0.9951953245957215
2014-07-17,1,0.0004070734447750215,0.00043447978253221685,-0.0005297137811337063,0.005431042556559602,0.9956593956752042
2014-07-21,1,0.0006615085650145088,0.0006639648333838726,-0.0006593001937981995,0.005101415920654646,0.9959593562285131
2014-07-23,1,0.0006476317370510015,0.0006733230053034382,7.069449147062683e-05,0.005944055673866322,0.9957047098443222
2014-07-25,1,0.0008528252188875403,0.0009082648572161947,-0.0006512226734474011,0.005548237252667943,0.9958938656215426
2014-07-29,1,0.001123208429742778,0.001201079451168049,-0.0005859038509107681,0.005101415920654646,0.9965993748553723
2014-07-31,1,0.00140546839891429,0.0015346265759758003,-0.000827870403129385,0.0045611408594155205,0.9967324627363872
2014-08-04,1,0.001106380830035511,0.0011705714541314313,-0.000827870403129385,0.0045611408594155205,0.9967162743187595
2014-08-06,1,0.0005950430546605335,0.0006359748813939204,-0.0008303525697248124,0.0045611408594155205,0.9965410149347026
2014-08-08,1,0.0015780260843353921,0.0017079246585657596,-0.0008303525697248124,0.0026322003943834936,0.9972460232822498
2014-08-12,1,0.001366835823854533,0.001462862637495532,-0.0007633789694578945,0.0023669724035620633,0.9977013172775924
2014-08-14,1,0.0012795894123682487,0.0013436598041309522,-0.0008303525697248124,0.0016542660667807569,0.9976997787830213
2014-08-18,1,0.0011130572276671614,0.0011441016741700863,-0.000765714500384165,0.0016542660667807569,0.9975801865869416
2014-08-20,1,0.0014265624165619322,0.0014875434422757894,-0.0011473532720729317,0.001268062670648143,0.9974995884216031
2014-08-22,1,0.0014852715224436283,0.0015846266760283754,-0.0011473532720729317,0.0010807290537402374,0.9974819638843437
2014-08-26,1,0.0013491381580423868,0.0014299632645799038,-0.0011473532720729317,0.00108631048320302,0.9974297577369783
2014-08-28,1,0.0009781985191136397,0.0009951966505892485,-0.0021079119622892757,0.00108631048320302,0.9973266846691939
2014-09-02,1,0.0011007528384869268,0.001173811646827961,-0.0021079119622892757,0.00108631048320302,0.9970307279560424
2014-09-04,1,0.0007079713558920226,0.0007573524548106637,-0.002674758781459521,0.0015312845697620912,0.9955427202448043
2014-09-08,1,0.0009535100739427113,0.0009564826052692309,-0.002674758781459521,0.003579495356507414,0.9951195444822548
2014-09-10,1,0.0007217903471975695,0.0007554562150373542,-0.004135091497361935,0.005786354098837237,0.9937555692469211
2014-09-12,1,0.0006250259457661229,0.0006668871955794419,-0.005148098757467025,0.005786354098837237,0.993316366317551
2014-09-16,1,0.0008157635863938994,0.0008369740490897516,-0.005148098757467025,0.005786354098837237,0.9930290528612672
2014-09-18,1,0.0004823918418095784,0.0005359361830838338,-0.007184845192163758,0.005786354098837237,0.992568649677924
2014-09-22,1,0.00035655312927284786,0.00040789644678028837,-0.007184845192163758,0.006242971946471203,0.9919976181178614
2014-09-24,1,0.0004112919015179022,0.00047123042251545215,-0.007184845192163758,0.006706613676470723,0.9915489347556262
2014-09-26,0,-4.039061189354317e-05,8.957238123490275e-05,-0.006077428349024945,0.006706613676470723,0.9916722258924152
2014-09-30,0,-2.086047926522412e-05,9.46636388107397e-05,-0.005764509185582279,0.006706613676470723,0.9919739084759461
2014-10-02,-1,-0.001081923611218595,-0.0008435099508109495,-0.0029533939555218556,0.006884892538796277,0.9928252896022762
2014-10-06,-1,-0.0009029080069330765,-0.0006637488711116741,-0.008268507763984384,0.006485422398091948,0.9914162692923092
2014-10-08,-1,-0.0008450513301905877,-0.0006019115027383113,-0.005764509185582279,0.006485422398091948,0.9922210301485294
2014-10-10,-1,-0.0016868806399589396,-0.0013286510492721848,-0.0029533939555218556,0.006952350714745117,0.9916646604807938
2014-10-14,-1,-0.0015566562312723823,-0.0012248845658744392,-0.002470807932068223,0.008560096671013179,0.9916143591088091
2014-10-16,-1,-0.0021185896390393077,-0.001730953490571317,0.0008938781671706765,0.008560096671013179,0.9915600182295098
2014-10-20,-1,-0.0014520717701147405,-0.0011544235966925735,0.00031412032474778664,0.006870922521714297,0.9925451750769304
2014-10-22,-1,-0.0009234214410879956,-0.00068807331105813,-0.002470807932068223,0.005852922752084799,0.9933000167568921
2014-10-24,-1,-0.000629271567591244,-0.0004219250579795161,-0.0031563457784808263,0.004767233111108556,0.993392624395467
2014-10-28,-1,-0.00016192085838606668,-3.484251988328496e-05,-0.0031563457784808263,0.00640426573626301,0.9930440422307376
2014-10-30,1,0.00030711643807221605,0.0003518495893598293,-0.0031563457784808263,0.004767233111108556,0.993483685866328
2014-11-03,-1,-0.0014985797556074155,-0.0012449346231062385,-0.0031563457784808263,0.004767233111108556,0.9947464974786724
2014-11-05,-1,-0.0011475378133109912,-0.000932921187204983,-0.0031563457784808263,0.004141479444074777,0.9952400887724611
2014-11-07,-1,-0.00010100897422971682,-3.2270700706373744e-05,-0.0036582093943026616,0.003662409979072714,0.9952471962058668
2014-11-11,0,-1.9686747603654643e-05,1.9308382961539053e-05,-0.00458286505202693,0.0033831859827363,0.9955737591715417
2014-11-13,1,2.7676188995618794e-05,7.62901629831255e-05,-0.006276691156660398,0.0033831859827363,0.9948586867256342
2014-11-17,1,0.0005203710185474259,0.0005371618741893447,-0.006276691156660398,0.004381102766382142,0.9944158659751395
2014-11-19,1,1.5417340501507732e-06,2.5146410154622918e-05,-0.00458286505202693,0.005512103081814837,0.9933627335567964
2014-11-21,-1,-0.00041332002517685876,-0.00033243537353046823,-0.004293894103434073,0.005995475691671621,0.9932025600168998
2014-11-25,1,0.00016725608721908608,0.00017338330777035203,-0.004293894103434073,0.005995475691671621,0.9935570184228033
2014-11-28,-1,-0.00020693292841259187,-0.00012195939845906028,-0.004293894103434073,0.005995475691671621,0.9936531125758737
2014-12-02,-1,-0.0010314187794198053,-0.0008397030727483835,-0.004991306448924966,0.005995475691671621,0.9932823741715098
2014-12-04,-1,-0.0008908610212677951,-0.0007140483310677358,-0.005269081386504385,0.006173677550392876,0.9929566715193069
2014-12-08,-1,-0.0010046102886058822,-0.0008031366672014277,-0.004991306448924966,0.005995475691671621,0.9934599217787232
2014-12-10,-1,-0.000998702556301374,-0.0008188869235868718,-0.004991306448924966,0.006173677550392876,0.9929578427204447
2014-12-12,-1,-0.0015140478659993232,-0.001261288422088501,-0.004991306448924966,0.006173677550392876,0.9935838477952725
2014-12-16,-1,-0.0008221654568154594,-0.0006666196744348901,-0.004991306448924966,0.004155273604292302,0.9942971812951301
2014-12-18,1,0.0006101597121248264,0.0006475439899014494,-0.004991306448924966,0.004155273604292302,0.9952930865743949
2014-12-22,1,0.0005625061920260257,0.0005979233801949638,-0.0038777891622253195,0.004330848683093294,0.9954212975094973
2014-12-24,1,0.0007486128546204448,0.0008043026080621978,-0.0038777891622253195,0.005136853482480989,0.9952465918395822
2014-12-29,1,0.0012489109222102663,0.0013577963254383975,-0.005269081386504385,0.005136853482480989,0.9946002327548108
2014-12-31,1,0.000488650792972623,0.0005448350529250973,-0.005921846524541805,0.005136853482480989,0.9938253029738111
2015-01-05,1,0.0008200858493206148,0.0009061615828935097,-0.004263806915233596,0.006638940359652629,0.9934377417032574
2015-01-07,1,0.0006361345460529973,0.000723055443602925,-0.003164374838665036,0.007078641984115208,0.9933177303244831
2015-01-09,1,0.0010449043899536893,0.0011760615144826723,-0.003084050640357598,0.006638940359652629,0.9937573093053134
2015-01-13,1,0.000523371664146971,0.0006250644689375468,-0.001352452298303051,0.006638940359652629,0.99402131761285
2015-01-15,1,0.00038054118674691104,0.00045339867509771773,-0.00342963173136851,0.007078641984115208,0.9916366405614276
2015-01-20,1,0.0012050472231106104,0.001378666234727138,-0.00342963173136851,0.008022098813270533,0.9905251493104129
2015-01-22,1,0.0013179707986619353,0.00149678473329868,-0.0064820208515941205,0.0071995137646889825,0.9905422680613151
2015-01-26,1,0.0016862432188635885,0.0019075298216208925,-0.0064820208515941205,0.0071995137646889825,0.9905486778798185
2015-01-28,1,0.0013840452718735289,0.001560292018241136,-0.004712360669577805,0.0071995137646889825,0.9908602432601137
2015-01-30,1,0.0002973134723249833,0.0003344261102338269,-0.001352452298303051,0.00844051837223602,0.9917691090345088
2015-02-03,1,0.0010962217316447887,0.0012420353296332064,-0.002880924650296723,0.006892015771450597,0.9925095372920637
2015-02-05,1,0.001196930129470624,0.0013470943125666068,-0.004324644972497452,0.004919651127120632,0.9922395604663551
2015-02-09,1,0.0011062544249087094,0.0012600077713425628,-0.004324644972497452,0.004919651127120632,0.9916593575737623
2015-02-11,1,0.0009193578822517341,0.0010316435585385783,-0.004324644972497452,0.006727550726871289,0.9913164939063793
2015-02-13,-1,-0.00063787598134417,-0.0005464427233257436,-0.003834584694130191,0.007959365510203377,0.9922466525412547
2015-02-18,1,0.0011216545946330537,0.0012682314473739635,-0.003834584694130191,0.006727550726871289,0.9938922948017705
2015-02-20,1,0.0006691499190515532,0.0007344000170178991,-0.003834584694130191,0.006727550726871289,0.9937893957122016
2015-02-24,1,0.0006101909346987893,0.0006666030581623922,-0.004861689751880067,0.006727550726871289,0.9935415056597652
2015-02-26,1,0.0004783717341154002,0.0005012440232919752,-0.00631659127932409,0.005191014190686967,0.9926175496874459
2015-03-02,1,0.0010177459209527325,0.0010798511304974114,-0.00631659127932409,0.00407380603381762,0.9927737655518095
2015-03-04,1,0.0009611988644158885,0.001022236800808668,-0.006794694948314038,0.004413107230237718,0.9923107904496136
2015-03-06,1,5.955338780955341e-05,0.00014136690861204376,-0.00631659127932409,0.006208917779947263,0.9924361888295364
2015-03-10,-1,-0.0006361285139238966,-0.00047357312328205045,-0.005318858714721062,0.006208917779947263,0.9932170145317052
2015-03-12,-1,-0.0009512807483079895,-0.0007156714483119282,-0.005318858714721062,0.006119046304855089,0.9930624902274667
2015-03-16,1,0.0005681012091407723,0.0005952254162385495,-0.006794694948314038,0.0044074733123591805,0.9934333337861204
2015-03-18,1,0.001159590111511994,0.001241577442575565,-0.006794694948314038,0.0036968299407722305,0.9935237004443498
2015-03-20,1,0.0011160190732860844,0.0012063499547997755,-0.0073220893654671665,0.0044074733123591805,0.9924862671788773
2015-03-24,1,0.0006545948556138583,0.0006921779526131552,-0.006903530263290903,0.004451166393342388,0.9927726871633107
2015-03-26,-1,-9.839378364534358e-05,-6.351928746542026e-05,-0.0038614741318338574,0.005786648804437705,0.992116729789534
2015-03-30,-1,-0.0015458416523485789,-0.001267653485090121,-0.005681954526348615,0.006129702862184479,0.991253095518314
2015-04-01,-1,-0.0015669969244587621,-0.001309506492018059,-0.005681954526348615,0.006645949937698023,0.9909004125368932
2015-04-06,-1,-0.000620100164542131,-0.0004987684250349117,-0.008074626756767372,0.006129702862184479,0.9909836357243087
2015-04-08,-1,-0.0006281757323041669,-0.0005191690324568025,-0.01000089914101128,0.006129702862184479,0.989922436287327
2015-04-10,1,5.8995192440806326e-05,7.92063079421122e-05,-0.01000089914101128,0.0068330179639393305,0.9894775284187609
2015-04-14,-1,-0.0007402418194766341,-0.0006345691721134168,-0.009123816151104934,0.0068330179639393305,0.9899623919401586
2015-04-16,-1,-0.0010504420664410544,-0.0008860884657049814,-0.009123816151104934,0.008635212451768563,0.9892422704282786
2015-04-20,-1,-0.001445357060204616,-0.0012018929059535069,-0.006545455847375235,0.0068330179639393305,0.9904209340334056
2015-04-22,-1,-0.00113835407077255,-0.000957207439120635,-0.006545455847375235,0.0068330179639393305,0.9906583476503096
2015-04-24,1,0.0005182515551081606,0.0005343723746712525,-0.006545455847375235,0.006073450271426997,0.9923370872435365
2015-04-28,-1,-0.00036899841459099315,-0.0002498843741618038,-0.006545455847375235,0.005251991754047446,0.9923655086769817
2015-04-30,-1,-0.0005077623029057657,-0.0003805074486343661,-0.005285369906954819,0.004199271202729962,0.9933299322142537
2015-05-04,-1,-0.0006967857592006199,-0.0005510580313487861,-0.005159588499622781,0.003604201186336772,0.9937838037895489
2015-05-06,-1,-0.001968706830932448,-0.0016618622134120208,-0.002928373090258582,0.003604201186336772,0.9947249830476645
2015-05-08,-1,-0.0013525740027811703,-0.001095641516092011,-0.0034884678055805804,0.0028171181715989898,0.9957003204142988
2015-05-12,-1,-0.0011616871473522261,-0.0009526590261184177,-0.002928373090258582,0.0028171181715989898,0.9953964882909262
2015-05-14,1,0.0002265571999165177,0.0002495740359120457,-0.002932535555244043,0.0028171181715989898,0.9959771832281898
2015-05-18,1,0.0003530857320207655,0.0003933307941506178,-0.003911553344758409,0.0028171181715989898,0.9956899927934046
2015-05-20,1,0.0002017415234981028,0.00023684786772615904,-0.002932535555244043,0.0032298927336501,0.9958491746482031
2015-05-22,1,0.0002013038695264951,0.00023900725979373853,-0.00392425141702114,0.0032298927336501,0.9956178834287581
2015-05-27,-1,-0.0006540048599828164,-0.0005560314275051999,-0.0051976827164109726,0.0028171181715989898,0.9959352378033148
2015-05-29,-1,-0.0003665685379646802,-0.00030726512859532035,-0.0051976827164109726,0.0030596384369375737,0.9957011218446847
2015-06-02,-1,-0.0005430806581555249,-0.00046438986446431795,-0.005431986552587149,0.0034867490836729092,0.9947328224694892
2015-06-04,-1,-0.0006133650028045745,-0.0005299372857266704,-0.005431986552587149,0.004149086050670591,0.9944531821853012
2015-06-08,-1,-0.0008225985637489594,-0.0006991196598919496,-0.005431986552587149,0.004778170301673806,0.9942166054351256
2015-06-10,-1,-0.00031913260560415354,-0.00025112249661284,-0.005682061343618762,0.004149086050670591,0.9946349033205074
2015-06-12,-1,-0.00010188966891100856,-8.472481219530587e-05,-0.005277498330150874,0.004937518823115532,0.9945420728756923
2015-06-16,1,5.265287627866357e-05,6.88312802202846e-05,-0.004771303842074176,0.0056933936256275824,0.9945369145820746
2015-06-18,1,0.00043137677562403085,0.0005239056973624668,-0.004771303842074176,0.006175817649748492,0.9944690927980822
2015-06-22,1,0.00011129545590940329,0.00014487783089721173,-0.004771303842074176,0.006175817649748492,0.9942021536212987
2015-06-24,-1,-0.0012252844214832104,-0.0010348564103984281,-0.0028852829104925037,0.006598697317249947,0.9938221275232446
2015-06-26,-1,-0.0004492790375245886,-0.0003991476456453387,-0.000441467993187451,0.007019926058495405,0.9934300099344198
2015-06-30,-1,-0.0010673750786133083,-0.0009573313311775754,0.0004315195554480287,0.009041235603066395,0.9928462467247513
2015-07-02,-1,-0.0008921039798345486,-0.0007921111105119968,-0.0009823677052371977,0.009041235603066395,0.9931414657947014
2015-07-07,-1,-0.00048185729758499823,-0.000429495485222518,-0.0009823677052371977,0.009041235603066395,0.993554211462802
2015-07-09,-1,-0.0014857180654405245,-0.0012615463564192848,0.0002357932531647544,0.009211467776420462,0.9923724583914301
2015-07-13,-1,-4.479836788336392e-05,-2.1289022862574917e-05,-0.0013410643551930224,0.009211467776420462,0.9931062287624873
2015-07-15,1,0.00015670409868637314,0.0001889134554575232,-0.0020385852287951806,0.009041235603066395,0.9935788623817267
2015-07-17,1,0.0003829797217763108,0.0004404512274715145,-0.0023898886725880635,0.009041235603066395,0.993588486800274
2015-07-21,1,0.00025803463738740005,0.0003141551881545977,-0.0015147571662045426,0.009041235603066395,0.9936772911838613
2015-07-23,1,0.0007399897969820392,0.0008870630106505857,-0.0015147571662045426,0.007856102654009404,0.9938056533517744
2015-07-27,1,0.0016804094337241416,0.0019557691701987097,-0.004966447410750379,0.005877611018504469,0.9913606967625004
2015-07-29,1,0.001642902065034906,0.001867367478907714,-0.006231805785695441,0.004211984917065299,0.9904905875224111
2015-07-31,1,0.0008312245214244808,0.0009258469528206636,-0.006052025811577565,0.005877611018504469,0.9903555959272234
2015-08-04,1,0.001142779028268532,0.0012885516887969283,-0.010044397319711091,0.005877611018504469,0.9890895127414537
2015-08-06,1,0.0013880344422281632,0.0016133718687581509,-0.006607882143111656,0.006898747619154049,0.9893441932052766
2015-08-10,1,0.001311862596975332,0.0015267294968458792,-0.012001611946701117,0.007245290653193732,0.9881240709272874
2015-08-12,1,0.0014524029021682617,0.0016803150885626077,-0.013579288256508327,0.007245290653193732,0.9873398161693892
2015-08-14,1,0.0012000078969648805,0.0013662807671294306,-0.013579288256508327,0.005967227046009007,0.9875424341862953
2015-08-18,1,0.000998167475345669,0.0011152109884510746,-0.013579288256508327,0.00748070014174323,0.9873158629786716
2015-08-20,1,0.0009507221222532272,0.0010706014239838337,-0.012710351359345071,0.00748070014174323,0.987609238559059
2015-08-24,-1,-0.0001958163748537644,-0.000149080080242774,-0.005976380888190336,0.008526859583462103,0.9900698695077518
2015-08-26,1,0.0008049645932533863,0.0009215493348587367,-0.004671950916066271,0.00748070014174323,0.991807264744016
2015-08-28,1,5.8446137329001e-05,6.592987367903362e-05,-0.005976380888190336,0.00748070014174323,0.9912490181093614
2015-09-01,-1,-0.00025497837237421246,-0.00022882879698490693,-0.005976380888190336,0.008526859583462103,0.9904246560289691
2015-09-03,-1,-0.00010314410257448593,-7.436594718516271e-05,-0.005976380888190336,0.007564829446395911,0.9909781558176544
2015-09-08,1,0.00017502352888009275,0.0001809569292154797,-0.005919197949962793,0.007564829446395911,0.9917020748467743
2015-09-10,-1,-0.00032755638972356126,-0.0002691765979066027,-0.002703617191639057,0.009616094061067157,0.9907517823764762
2015-09-14,-1,-0.00035372077557609463,-0.00029724934614439274,-0.0025087297245031037,0.009616094061067157,0.9905119297073689
2015-09-16,1,0.000666621573582936,0.0008057289668759113,-0.008620275509964692,0.009616094061067157,0.9905350803672329
2015-09-18,1,0.00020934252465547277,0.0002479605915765923,-0.008620275509964692,0.009616094061067157,0.9904336479688727
2015-09-22,1,0.0002165577032510611,0.00025448380787383744,-0.00421650814375789,0.010510252676264997,0.9907733869772596
2015-09-24,1,0.00024561360843927004,0.0002652322173316194,-0.005582884809223372,0.011501259458820464,0.9904816439204835
2015-09-28,-1,-0.00025851132744226276,-0.00019748371037652885,-0.003561081518065668,0.010369945029054212,0.9911140000167299
2015-09-30,1,0.00034588915184757493,0.00038111174300683656,-0.0028978218971415204,0.008752687509322394,0.9931522183459893
2015-10-02,1,0.0005550665625485199,0.0006136980703598142,-0.003561081518065668,0.008752687509322394,0.993002944967558
2015-10-06,1,0.00026598964107151115,0.0003064252845349938,-0.0028978218971415204,0.006715864288498996,0.9936981107490933
2015-10-08,1,0.0013983455702256916,0.0015805698672551516,-0.0034319674905338208,0.004585321346713775,0.9952887294323668
2015-10-12,1,0.0009557910580425507,0.001064518316119843,-0.00422841500228213,0.004582712743229212,0.9947608730223853
2015-10-14,1,0.00036164546455795245,0.0003915044437532855,-0.0028978218971415204,0.005212385005896986,0.9954455050199148
2015-10-16,1,0.000316657745044788,0.00033352505066730297,-0.00422841500228213,0.005212385005896986,0.9945852720756602
2015-10-20,1,0.0005885567270302553,0.0006442978375571902,-0.00422841500228213,0.005212385005896986,0.9941817803322888
2015-10-22,1,0.0006312488533210673,0.0006808828011110822,-0.0034319674905338208,0.005212385005896986,0.994253479527014
2015-10-26,1,0.0005546610397373041,0.0005925079749628833,-0.004325598402739279,0.005707766105562972,0.9936939561653071
2015-10-28,1,0.0006794000185997694,0.0007345572517957589,-0.00465558403185073,0.005707766105562972,0.9935700392908688
2015-10-30,1,0.0006734081445833606,0.0007461645449289649,-0.004364624929400944,0.005212385005896986,0.9937277795695689
2015-11-03,1,0.0005436929691204754,0.000582536579271605,-0.004364624929400944,0.005212385005896986,0.9934879664399308
2015-11-05,1,0.0005528861891347018,0.000598197184954931,-0.00554215974654168,0.00644140548983799,0.9922990839006359
2015-11-09,1,0.0003465669976491607,0.000360173599335331,-0.005492041675648194,0.00796590837854195,0.9923188711935926
2015-11-11,1,0.00034993035006885696,0.00035558342066919184,-0.007507629496468618,0.00796590837854195,0.9920274108497062
2015-11-13,-1,-0.00030322601964868874,-0.00021769919277882347,-0.005211144420505693,0.00796590837854195,0.9920836714915522
2015-11-17,1,0.0001425893844574054,0.00016406272550373714,-0.005211144420505693,0.008872881084486276,0.9915935019424087
2015-11-19,1,2.4513917857050144e-05,8.746204105037169e-05,-0.007507629496468618,0.00796590837854195,0.9915180593582852
2015-11-23,1,9.974398580905988e-06,6.896269457164542e-05,-0.006254647030933648,0.00796590837854195,0.9916246003613014
2015-11-25,1,0.00011631500985352843,0.0001528253441456976,-0.006254647030933648,0.00796590837854195,0.99161544808871
2015-11-30,-1,-0.0002797423788545366,-0.0001731464802362795,-0.006254647030933648,0.009140530118491044,0.9911054622375397
2015-12-02,0,-2.5154670741014458e-05,3.846181437698644e-05,-0.00885867261907904,0.009140530118491044,0.9903206498770608
2015-12-04,1,0.0006160784441487947,0.0006363893227673258,-0.00885867261907904,0.009140530118491044,0.9900431787395905
2015-12-08,1,0.00050553380381389,0.0005173957928689465,-0.008015980853651534,0.009140530118491044,0.9905316569010989
2015-12-10,1,0.00017661586869094733,0.0002092791653725694,-0.007043895643259066,0.009140530118491044,0.9906329125022963
2015-12-14,-1,-0.00017912678192368297,-0.00011879390358655935,-0.007043895643259066,0.009140530118491044,0.9906916331458057
2015-12-16,1,0.0007050292727982659,0.0007729352952429851,-0.01087490337986587,0.00851788397280397,0.9904893782998514
2015-12-18,1,0.00039307529661146087,0.00046069034505096386,-0.013183971961224625,0.009140530118491044,0.9895343517297452
2015-12-22,1,0.0006803424155708826,0.0007549134631801263,-0.013183971961224625,0.009165900845100654,0.9889345612523566
2015-12-24,1,0.000642632706311888,0.0007253161094030341,-0.013183971961224625,0.009165900845100654,0.9885017057695706
2015-12-29,1,0.0007658003681932089,0.0008599179649498667,-0.013183971961224625,0.009061502344279885,0.988426612284651
2015-12-31,1,0.00024265769228890173,0.0002682109648588999,-0.011115373120685697,0.011115380821007357,0.9884987496884325
2016-01-05,1,0.0006955937018631111,0.000788893837434078,-0.008512379744218878,0.009821181379990277,0.9896612617874532
2016-01-07,1,0.000780344344855039,0.0008846225251986738,-0.011115373120685697,0.009821181379990277,0.989239887634138
2016-01-11,1,0.0007488341655523653,0.000855521229905603,-0.011115373120685697,0.010028037252621292,0.9890176641237071
2016-01-13,1,0.00032460722367073556,0.00036650483871514077,-0.010654656061983634,0.010471743286783665,0.9890146976783822
2016-01-15,-1,-0.0005996325612295312,-0.0004600593336394767,-0.008469627294509733,0.010471743286783665,0.9888345831476685
2016-01-20,-1,-0.00045081849813228165,-0.0003542484248749496,-0.005701667383143419,0.00982090987307296,0.9899631256500463
2016-01-22,-1,-0.0006061739436179186,-0.00048088223071536616,-0.0045560567312546854,0.009466151989054487,0.9908086156166442
2016-01-26,-1,-0.0013709451178667788,-0.0011190984678497455,-0.00385421809756398,0.009466151989054487,0.9912796834577473
2016-01-28,-1,-0.0009576783089267398,-0.0007748269434893665,-0.0023836737502288463,0.008853197841544019,0.9919828476616571
2016-02-01,-1,-0.00019212978789387973,-0.00010485786689936463,-0.00385421809756398,0.008853197841544019,0.992035800573713
2016-02-03,-1,-0.00037821823714513083,-0.00024769964662946686,-0.0023836737502288463,0.008922149799087689,0.9920467930892566
2016-02-05,-1,-0.0008377227196810054,-0.0006518473485326112,-0.002824232031436756,0.008922149799087689,0.9923887595594333
2016-02-09,-1,-0.00034212181180323827,-0.0002334060513621351,-0.0028619773571178283,0.008634902605989371,0.9924484133409789
2016-02-11,-1,-0.0006625732213206421,-0.000506077033968902,-0.0021012535004456346,0.00823049662779723,0.9929615408075856
2016-02-16,1,0.00042947796856543656,0.00046225054231741666,-0.0028619773571178283,0.007976037481244876,0.9941156761139264
2016-02-18,1,0.0004704571592915425,0.0004870604104151822,-0.0021012535004456346,0.007976037481244876,0.9942400940774139
2016-02-22,1,0.00048149551913412216,0.0005040112115221467,-0.0021012535004456346,0.007896740606728252,0.994436346198143
2016-02-24,1,0.0005792171392103231,0.0005868500718986597,-0.0028619773571178283,0.007896740606728252,0.9937225579494781
2016-02-26,1,0.0006053490219469155,0.0006080231632039415,-0.0028619773571178283,0.007896740606728252,0.9936080119263934
2016-03-01,1,0.0008086771853693178,0.0008327362455727334,-0.0028619773571178283,0.007896740606728252,0.9943738351720541
2016-03-03,1,0.001644066023355111,0.001838851615452107,-0.0043590682049675315,0.007896740606728252,0.9938008011258498
2016-03-07,1,0.0013584940386165887,0.001520562504119606,-0.006009412346691721,0.007896740606728252,0.9919281553542595
2016-03-09,1,0.001035622770227315,0.0011209582351259845,-0.005563298885616199,0.0062243302514917755,0.9921019102894904
2016-03-11,1,0.0011391221254348919,0.0012382250888941476,-0.006496941574496755,0.005470073429000972,0.9919017107316443
2016-03-15,1,0.0013903612908574645,0.0015378797532881179,-0.00592914278136031,0.005110132172545692,0.9926627326849454
2016-03-17,1,0.0015890509445389144,0.0017700608455406344,-0.00592914278136031,0.004681553933141257,0.9927959803973452
2016-03-21,1,0.0015851134458116957,0.0017624921744503605,-0.00592914278136031,0.005110132172545692,0.9926357561594817
2016-03-23,1,0.001468560011064773,0.0016311992360650458,-0.00625815200750318,0.004681553933141257,0.9924429306481453
2016-03-28,1,0.0015778869688868736,0.0017514779838596023,-0.00625815200750318,0.0035757320262296078,0.9926038981580341
2016-03-30,1,0.0015629657014565403,0.0017370198955189357,-0.005483702363285007,0.004779199505527844,0.9927817638820057
2016-04-01,1,0.0015550916684594828,0.001721415740274541,-0.004200655856512223,0.004779199505527844,0.9931093666512181
2016-04-05,1,0.0005806981495125764,0.0006073287493144294,-0.004200655856512223,0.0052160704491174305,0.9944681251538257
2016-04-07,1,0.0003661679024738609,0.00037127154603003803,-0.003159242575861264,0.0072750774223068505,0.9941773408488568
2016-04-11,-1,-0.0003070867968302933,-0.0001999749485367561,-0.00187667136205719,0.008370223938710971,0.9937854158917373
2016-04-13,1,2.4508039880377663e-05,7.297908208242889e-05,-0.002275321440017213,0.008370223938710971,0.9935238356501813
2016-04-15,1,0.00022813411723309572,0.00023825965800706306,-0.003159242575861264,0.008370223938710971,0.9932243891409751
2016-04-19,1,0.0003454958597945233,0.0003487173848809438,-0.004310325598559846,0.008370223938710971,0.9924206363511097
2016-04-21,-1,-0.00022215796917110473,-0.00015336296897697482,-0.002275321440017213,0.008370223938710971,0.9930559536601727
2016-04-25,-1,-0.0001646306359949651,-9.99192965007761e-05,-0.002275321440017213,0.008370223938710971,0.9932264510306574
2016-04-27,1,0.0003665251133496805,0.0003699808971281223,-0.003159242575861264,0.008901492190632309,0.9930331508569509
2016-04-29,1,0.000718176841566027,0.0007792378970664928,-0.002275321440017213,0.007831977794328678,0.993652668891836
2016-05-03,1,0.0006820887872276115,0.0007329900526653057,-0.0014441611980924127,0.006996600437937876,0.994389373078361
2016-05-05,1,0.0006938983882880505,0.0007359976453901457,-0.0006248476849765013,0.005732534518951391,0.9946651235883939
2016-05-09,1,0.0008555634309928888,0.0008774272179190927,-0.0006248476849765013,0.004563296682266602,0.9953168209362281
2016-05-11,1,0.0012211377094220306,0.001336590119157642,-0.00026211247588317434,0.00489107700112941,0.9953556884474314
2016-05-13,1,0.0007733550332072696,0.0007950723842008677,-0.000407455493820468,0.00472284643903409,0.9954581076493568
2016-05-17,1,0.0005024497933240335,0.0005156961553254322,-0.00046589466012712983,0.00472284643903409,0.9963410671486367
2016-05-19,1,0.0005714620530709609,0.0005930644312711225,-0.0007643774397591025,0.005604087933328572,0.995169779022257
2016-05-23,1,0.0006975692363238959,0.0007604096098487714,-0.0007643774397591025,0.005604087933328572,0.9949571684515378
2016-05-25,1,0.0002778553743358043,0.00031148091888259446,-0.00045396541208133506,0.00472284643903409,0.9956680042875709
2016-05-27,1,0.0005173533939745768,0.000518189414825441,-0.001783475902023535,0.004463469304050045,0.9956643689746925
2016-06-01,1,0.000631162232201449,0.0006528337584919468,-0.0013066168274754207,0.005604087933328572,0.9951068831674099
2016-06-03,1,0.0007836855799082023,0.0008269455534838537,-0.0013066168274754207,0.006448940945235751,0.9942531188008142
2016-06-07,1,0.0006119579673683605,0.0006174026869913508,-0.0013066168274754207,0.0071297645254976266,0.9938328827876771
2016-06-09,1,0.0008810075871347352,0.0008830263132183453,-0.0034663708291290418,0.00817795939372215,0.993803973541224
2016-06-13,1,0.00033648256221055695,0.0004308727212273463,-0.0034663708291290418,0.00817795939372215,0.9937205979480759
2016-06-15,1,8.897152723316801e-05,0.00021463117857587372,-0.0009955178701777883,0.00817795939372215,0.9937036932453387
2016-06-17,-1,-0.0003096065905559812,-0.00011693457175676169,-0.0024251840329432943,0.005628339088933784,0.9945600952348513
2016-06-21,0,-5.765761658268928e-05,0.00010037963405474479,-0.0024251840329432943,0.005628339088933784,0.9948254956569298
2016-06-23,1,0.00044147859480788467,0.0005065028722348189,-0.0035614652789753083,0.007018255449602771,0.9944148100923536
2016-06-27,1,0.00012498693400400613,0.00022400695935207208,-0.0020972291807885525,0.007018255449602771,0.9947124983642812
2016-06-29,1,0.0003358107118072478,0.00043201824529941164,-0.002577600722511083,0.004265139284409402,0.994798301400143
2016-07-01,1,0.0011311664225009364,0.0011468035562717013,-0.004062067654558394,0.0034293957555405785,0.9952440900887842
2016-07-06,1,0.00150970567329827,0.0015513401884196247,-0.0042746507508874656,0.0016757010767259176,0.9951163894121623
2016-07-08,1,0.002172341200704285,0.002370507209435828,-0.0042746507508874656,0.001997031682343743,0.9952811698668697
2016-07-12,1,0.0017500194974546038,0.0018888529936772762,-0.0042746507508874656,0.0031746764524059508,0.9955435427977339
2016-07-14,1,0.0018334733247990637,0.001990363560906748,-0.0042746507508874656,0.003461466553157497,0.9951446429570294
2016-07-18,1,0.0015870528948003096,0.0017091241564024004,-0.004591328730334285,0.003461466553157497,0.9950589850907737
2016-07-20,1,0.0016309474927422804,0.0017542666587881412,-0.005196440374232249,0.0043253331347872445,0.9928627875655056
2016-07-22,1,0.0017934945401481377,0.001954337022635944,-0.004591328730334285,0.0033751001231129797,0.9932478232658651
2016-07-26,1,0.0018730333423269334,0.002067348306134044,-0.004591328730334285,0.0033751001231129797,0.9933791481521541
2016-07-28,1,0.0013874162699977393,0.0014950246275436793,-0.004212258758796087,0.0022542159194700773,0.9939604432553245
2016-08-01,1,0.0008882225555559693,0.000927761891346051,-0.004212258758796087,0.003150554196321894,0.9940724803158553
2016-08-03,1,0.000704141905338267,0.0007257353733953216,-0.0024571459636514355,0.003150554196321894,0.9943127978417505
2016-08-05,1,0.0009373875104806109,0.0009981209604562318,-0.0024571459636514355,0.00336312620676481,0.9940921000929457
2016-08-09,1,0.0009340846250882199,0.0010119658677008691,-0.0024571459636514355,0.00336312620676481,0.9939472697968814
2016-08-11,1,0.0014509494409473958,0.0016006548890736948,-0.0038851279087213694,0.0021039873955108223,0.9931699935036272
2016-08-15,1,0.0009524369255783072,0.0010233794074897273,-0.0035896540996030258,0.002699868624444129,0.9927798972046439
2016-08-17,1,0.0010988786202383483,0.0012036378928416656,-0.0028486120923561934,0.002699868624444129,0.994473389425913
2016-08-19,1,0.0009707754903368689,0.0010570757590015975,-0.0028486120923561934,0.00336312620676481,0.9942670696688098
2016-08-23,1,0.0009403926397476503,0.0010223022003400125,-0.0028486120923561934,0.004743583354793951,0.9938583751509803
2016-08-25,1,2.831459504415353e-05,0.00013881756259473296,-0.003943601061372929,0.004743583354793951,0.9934560958828853
2016-08-29,-1,-0.0006282131157775231,-0.00042079733078059117,-0.0025751282842414033,0.004743583354793951,0.9941073590357978
2016-08-31,-1,-0.0010621475833195114,-0.0007844464103596907,-0.004200736875458623,0.004743583354793951,0.9935758629374745
2016-09-02,-1,-0.0006678484033388477,-0.0004417666718536168,-0.004200736875458623,0.003806079223383385,0.9938034395725294
2016-09-07,-1,-0.001001179118141935,-0.0007354533240878872,-0.004200736875458623,0.0027837195492372378,0.9938904401914701
2016-09-09,-1,-0.001960139881463315,-0.0015918289459180498,-0.0038155290416748496,0.002636836905558755,0.9949780355156113
2016-09-13,-1,-0.002120365350093333,-0.0016966352059306136,-0.0038155290416748496,0.002636836905558755,0.9953607815828972
2016-09-15,-1,-0.0018432057340159213,-0.0014564992240387207,-0.0038155290416748496,0.0011931176573965196,0.9957642029808033
2016-09-19,-1,-0.0011886330911014696,-0.0009070122591803172,-0.0038155290416748496,0.002317964917506089,0.9957312854433982
2016-09-21,-1,-0.0005099247794800693,-0.0003292090948142658,-0.0038155290416748496,0.001799594169984332,0.99610745917961
2016-09-23,-1,-0.0010638235228602826,-0.0008186957096254833,-0.003605829240834169,0.001799594169984332,0.9965385146932926
2016-09-27,-1,-0.001004844608306129,-0.0007781909400213886,-0.003605829240834169,0.004527197074523837,0.995501177116784
2016-09-29,-1,-0.0010920801538630205,-0.0008931457584956934,-0.0029026004761303404,0.006636214960114479,0.9954569971749745
2016-10-03,-1,-0.0007590497591971705,-0.0006064536851782226,-0.0029026004761303404,0.0069831558857461565,0.9941612264722017
2016-10-05,-1,-0.0012336728939188557,-0.0010200927351939188,-0.0029939478612871573,0.0069831558857461565,0.993326876802524
2016-10-07,-1,-0.001820114345446365,-0.0015096207059826028,-0.002441962253473075,0.0069831558857461565,0.9931110559524386
2016-10-11,-1,-0.0016905514915334652,-0.0014020305233537153,-0.0016315601034506727,0.0069831558857461565,0.992698763799974
2016-10-13,-1,-0.0016946712010974278,-0.0014014798285946358,-0.0016315601034506727,0.008423239232940586,0.992108757129175
2016-10-17,-1,-0.0013636569930814372,-0.0011128465745122533,-0.0016315601034506727,0.0105698359274583,0.9916451592081229
2016-10-19,-1,-0.001224046224945628,-0.0010037786927543008,-0.002441962253473075,0.012439231904285588,0.9907976573450125
2016-10-21,-1,-0.0013028341316453612,-0.0010780028801890328,-0.001409610746724699,0.012439231904285588,0.9907429881381924
2016-10-25,-1,-0.0005185174146905595,-0.00039600465607816124,-0.001409610746724699,0.012766277376288965,0.9912681059290362
2016-10-27,-1,-0.000492657922870918,-0.0003811363699813799,-0.001409610746724699,0.012766277376288965,0.9912834658276412
2016-10-31,1,0.0008173177123246095,0.0008916607600061575,-0.001409610746724699,0.008604855241637248,0.9931170323369352
2016-11-02,-1,-0.00032958889627075186,-0.0002465738117331236,-0.0005446875140381385,0.008604855241637248,0.9936920468017305
2016-11-04,-1,-0.00040387064936054176,-0.00030360649188647116,-0.0005446875140381385,0.008604855241637248,0.9932077067905523
2016-11-08,1,0.0002175063607582061,0.0002484682365551627,-0.0005446875140381385,0.008604855241637248,0.993485034633859
2016-11-10,1,0.0007452623933229567,0.0007936680139705534,-0.0005446875140381385,0.008047733626270447,0.9941220840005782
2016-11-14,1,0.0014423515579433874,0.001584296457656527,-0.0005446875140381385,0.007297706050557165,0.9950300386551049
2016-11-16,1,0.001469521310581133,0.0015921217902977738,-0.0005446875140381385,0.0063663565348964475,0.9954784900101331
2016-11-18,1,0.0016748289605000057,0.0018561872842024596,-0.0005351149685422174,0.007297706050557165,0.9949071368994113
2016-11-22,1,0.0024976357163310143,0.002833996922478177,-0.0017074089373568066,0.0063663565348964475,0.9952378117195371
2016-11-25,1,0.002819564280140666,0.0032264872618907514,-0.0005351149685422174,0.004633199124927357,0.9955386961767622
2016-11-29,1,0.002962983980724859,0.003393505750608173,-0.0011862878895150413,0.003530908748146727,0.9952872646648054
2016-12-01,1,0.0025045041623333168,0.0028574530306000098,-0.0016132106695803143,0.003530908748146727,0.9956509269934258
2016-12-05,1,0.002401282459975526,0.0027453464217309918,-0.0016132106695803143,0.002524303552810229,0.9961314922670519
2016-12-07,1,0.0028296949697197774,0.003215805627750515,-0.0020538094781411124,0.002332318157499514,0.9960891432652019
2016-12-09,1,0.002973012757485279,0.0033841885722766616,-0.0030109076741980456,0.002332318157499514,0.99536084246193
2016-12-13,1,0.003195036938005722,0.0036348424366085485,-0.0030109076741980456,0.0026927659726315345,0.9954404938731707
2016-12-15,1,0.0028639183120262694,0.003253002356140299,-0.0030109076741980456,0.00267356647027593,0.9958122651556244
2016-12-19,1,0.0030212004869436425,0.0034132839161160576,-0.0030109076741980456,0.00267356647027593,0.9960599885349031
2016-12-21,1,0.0025758396616297197,0.0028786713712884915,-0.0023104671924554475,0.00267356647027593,0.9963215568273909
2016-12-23,1,0.002401074465091706,0.002661401120226744,-0.0023104671924554475,0.003963758948031175,0.9963642075848731
2016-12-28,1,0.0023558283810387157,0.0026178001263941998,-0.002946539114555853,0.003963758948031175,0.9961463319939176
2016-12-30,1,0.0020777976848209705,0.0022940640458205346,-0.0025564091504525718,0.003963758948031175,0.9963152157522853
2017-01-04,1,0.002184929085277365,0.0024411505489384047,-0.0025564091504525718,0.004355915799233325,0.9958055144607274
2017-01-06,1,0.001953285223630488,0.0021570317000735644,-0.0025564091504525718,0.004204276864979565,0.9957805567681646
2017-01-10,1,0.0017359613576064304,0.0019105388534585693,-0.002176149435932017,0.004224430225970235,0.9963831502079691
2017-01-12,1,0.001797662989465758,0.0019712360100177006,-0.002176149435932017,0.004224430225970235,0.9965277595432046
2017-01-17,1,0.0015609375251580272,0.001701171766294434,-0.001436842015372753,0.004913570045495139,0.9964569346942914
2017-01-19,1,0.0016429804854763272,0.0017834492695785699,-0.001436842015372753,0.004913570045495139,0.9962559011741856
2017-01-23,1,0.001354005543384175,0.0014374130639163885,-0.0010870521720526354,0.005864968900282918,0.9947680471294725
2017-01-25,1,0.001596493076108531,0.0016936596232194974,-0.0013596861416521162,0.007569563337309602,0.9946952881968805
2017-01-27,1,0.0014989387296688752,0.0015988394982806248,-0.0010870521720526354,0.007569563337309602,0.9946129471207705
2017-01-31,1,0.001207839698002246,0.0012518593624156306,-0.001017769879365716,0.007569563337309602,0.9945145384302981
2017-02-02,1,0.0005490788787073347,0.0006359838746000587,-0.001017769879365716,0.006768461637267554,0.9948796580615881
2017-02-06,1,0.0005731800211937317,0.0006468221360135145,-0.001017769879365716,0.006768461637267554,0.9950824515148762
2017-02-08,1,0.0007899003642807894,0.0008327857412156782,-0.001017769879365716,0.006768461637267554,0.9952485553519526
2017-02-10,1,0.0009470398934153438,0.0009565114201633403,-0.001017769879365716,0.007521442169825256,0.9949010826487653
2017-02-14,1,0.0012942948555380012,0.001347752402195607,-0.0010838305581162089,0.007521442169825256,0.9947597411352644
2017-02-16,1,0.0013065484488325196,0.001333756877548345,-0.0014134139253306856,0.006768461637267554,0.9946398556529527
2017-02-21,1,0.0023209701759380596,0.002474082803200352,-0.0020205845305760655,0.004255612904770505,0.9956346886705785
2017-02-23,1,0.002063825383368326,0.0021470318799140724,-0.0020260038260031094,0.0036375369381664207,0.9958296436946179
2017-02-27,1,0.0020866508424163916,0.0021770593382243325,-0.0022682591597709455,0.0033053786717315977,0.9957017028191945
2017-03-01,1,0.0019053849416567474,0.0019426113307645996,-0.0022682591597709455,0.0031705195373532974,0.9955292817412967
2017-03-03,1,0.0014075698759229952,0.0014545383641543287,-0.0019930853537754507,0.003857637382547122,0.9955202577868152
2017-03-07,1,0.0012546391763921798,0.0013254664084532165,-0.0022682591597709455,0.003857637382547122,0.9953670723196051
2017-03-09,1,0.0011495884040351857,0.0012434213881311654,-0.0022682591597709455,0.003857637382547122,0.9954051142208872
2017-03-13,1,0.0015098633017322845,0.0015491645463213178,-0.002412000219945419,0.0027957871204265013,0.9954367428364275
2017-03-15,1,0.0016523571277151118,0.0016814939246902756,-0.0032237102360017627,0.0027957871204265013,0.9956504823377478
2017-03-17,1,0.0010831709790542305,0.0011977031407197358,-0.003190011909433849,0.0027957871204265013,0.9958549698656736
2017-03-21,1,0.0007973385726978476,0.0009170195702397981,-0.0023132448032624434,0.0030253429911261632,0.9964850245905212
2017-03-23,1,0.0006027395059892522,0.0007549693256648921,-0.0023132448032624434,0.003192899949399953,0.9964088134131084
2017-03-27,1,0.0008290709174800016,0.0009145388025554442,-0.001709162829134882,0.004041190538909113,0.9962787656657309
2017-03-29,1,4.6876124336134e-05,0.0002883287956814949,-0.0021596687655157827,0.003192899949399953,0.9960258323025026
2017-03-31,1,0.00012988520434686662,0.000357651455233615,-0.003190011909433849,0.003192899949399953,0.9959139834264279
2017-04-04,1,0.00023419277021686374,0.00042840321549268473,-0.003190011909433849,0.003192899949399953,0.9959871483028978
2017-04-06,1,0.0003078501567705355,0.000472554502204322,-0.003190011909433849,0.003192899949399953,0.995943798799896
2017-04-10,1,0.0006533993230831957,0.0007354680636582444,-0.003179428193166579,0.003184574994355313,0.9959777965723396
2017-04-12,1,0.0005923635101824395,0.0006698353148662052,-0.0029607898420867308,0.0034972703065892638,0.9957743630416868
2017-04-17,1,0.0006083594636729086,0.0006881775554067155,-0.0029607898420867308,0.0031045100962004643,0.9958090627405329
2017-04-19,1,0.001000525892552988,0.0010137964807073298,-0.005289549505438824,0.0023827632270240918,0.9944956663829908
2017-04-21,1,0.0011343069245104381,0.0011368379339809559,-0.005289549505438824,0.0023827632270240918,0.9942151044055655
2017-04-25,1,0.0013878391998583186,0.00142833215483371,-0.005289549505438824,0.0037430965768568076,0.994133456106905
2017-04-27,1,0.0007074300180453729,0.0007726776825300471,-0.004829508566343872,0.0054053111466105174,0.9945021917891506
2017-05-01,1,0.00041585889351816925,0.0005274798888919565,-0.004359067497839965,0.00445933960689456,0.994712222113084
2017-05-03,1,0.0004995716179650494,0.0005718725172801826,-0.00332053369968122,0.007065979394269842,0.9938201068255202
2017-05-05,1,0.0006027533627596927,0.0006575781416664379,-0.004359067497839965,0.007065979394269842,0.9933908640306811
2017-05-09,1,0.000539835455620187,0.0005859350180703906,-0.004359067497839965,0.007065979394269842,0.9933678484750982
2017-05-11,1,0.00043281891670230767,0.000509051447955508,-0.005125615160936889,0.00686531632018945,0.993542577481322
2017-05-15,1,0.0003229744099023743,0.00039024329235015767,-0.003512013469039084,0.00686531632018945,0.9938897014003318
2017-05-17,-1,-0.0008875573818369907,-0.0006718179369629302,-0.0030381823567475937,0.007065979394269842,0.9941116108975054
2017-05-19,-1,-0.0008886334280847856,-0.0006704741863458342,-0.001331329647163202,0.007065979394269842,0.9944061086587092
2017-05-23,-1,-0.0003530320287787376,-0.00019309454959850808,-0.0032295310189500116,0.0040673756547277866,0.9946571411923353
2017-05-25,-1,-0.00026618314964980234,-0.0001016446330448859,-0.0032295310189500116,0.0037957655026883003,0.9948155453073934
2017-05-30,-1,-0.00039998811991718934,-0.00021204259686186588,-0.0032295310189500116,0.0037957655026883003,0.9950685294787002
2017-06-01,1,0.0004842394091004841,0.0005700336249556512,-0.0042781678106696705,0.0036397432475086746,0.9952736122508309
2017-06-05,1,2.8877951483641132e-05,0.00017310689458230284,-0.0032295310189500116,0.0036397432475086746,0.9954565522828209
2017-06-07,0,-1.1328126279468501e-05,0.0001278421151639486,-0.0042035034152375006,0.0036397432475086746,0.9952473817558923
2017-06-09,-1,-0.0003306883949966495,-0.00014307887990330055,-0.003116929243636309,0.003902456263543561,0.995129638482235
2017-06-13,0,-4.427022299956706e-05,0.00010065776409258443,-0.003116929243636309,0.003902456263543561,0.9952770204935867
2017-06-15,1,7.285523359861276e-05,0.0002104248940286312,-0.002138167207110127,0.003193463854976086,0.995809790005593
2017-06-19,1,0.00030292521332272624,0.0003992568688292826,-0.002138167207110127,0.0029504690274589473,0.9958160428167153
2017-06-21,-1,-0.0005811348031326243,-0.00036687501396079044,-0.0015454089975188525,0.0029504690274589473,0.9963342137098845
2017-06-23,-1,-0.000795223256972987,-0.000547289901694236,-0.0015454089975188525,0.0029504690274589473,0.9961650019428948
2017-06-27,-1,-0.000976688563164024,-0.0007040079707395375,-0.0016312968520303293,0.003193463854976086,0.9957051511321048
2017-06-29,-1,-0.0015783238342762535,-0.0012295014408630115,-0.0016312968520303293,0.003193463854976086,0.9952451413883289
2017-07-03,-1,-0.001214324838805299,-0.0009153436675782826,-0.0016312968520303293,0.003193463854976086,0.995536096313322
2017-07-06,-1,-0.0013707886079519838,-0.0010580927011913592,-0.0015454089975188525,0.003647163377565348,0.9956570888238413
2017-07-10,-1,-0.0008526904211787655,-0.0006088363728242292,-0.0015454089975188525,0.0029504690274589473,0.9964241283280134
2017-07-12,-1,-0.000647630287846211,-0.0004469454946666863,-0.0016224863933350787,0.002941560610129284,0.996474662057448
2017-07-14,1,0.00014893062278070014,0.0001836716179216282,-0.0018629606541395503,0.002941560610129284,0.9962245767099174
2017-07-18,1,0.00041017781882914025,0.0004131436823795653,-0.0018629606541395503,0.0022800069105775892,0.9958996666265326
2017-07-20,1,0.0003568114378601175,0.0003570476018992848,-0.003082181348913234,0.0022800069105775892,0.9955615518665356
2017-07-24,1,0.000306704453885882,0.00031363592622475,-0.003013157017605579,0.0036893541640101463,0.9955811024644992
2017-07-26,1,0.00034369227161346435,0.00034652566022520717,-0.003811389434196225,0.0036893541640101463,0.9951597017115955
2017-07-28,1,9.997491026380848e-05,0.00012415192554633578,-0.0033823724879981543,0.0033454470513516466,0.9962078979654628
2017-08-01,1,0.00025013333939131766,0.00025256656440628855,-0.0033823724879981543,0.0033454470513516466,0.9961279849179138
2017-08-03,1,0.0005265121447281562,0.0005804212211053563,-0.0033823724879981543,0.003130276775845293,0.9960418764436315
2017-08-07,1,0.0006475645036799608,0.0007406178128308955,-0.003811389434196225,0.003130276775845293,0.9956385517000298
2017-08-09,1,0.0003569141402350648,0.0003969964072613591,-0.0033823724879981543,0.003130276775845293,0.9957278930696153
2017-08-11,-1,-0.0001400182256239144,-9.518564219761379e-05,-0.002672270662006001,0.004954606990351482,0.9947490482944588
2017-08-15,1,0.0001672692674866857,0.00017748134658407546,-0.0033823724879981543,0.004749507835106175,0.9946667268191104
2017-08-17,-1,-0.0002775790283051433,-0.00020104771287525588,-0.002672270662006001,0.006994546740106782,0.9946422484072723
2017-08-21,-1,-0.0001380053100474465,-8.333030005856293e-05,-0.001515237857979512,0.006994546740106782,0.9949605003257238
2017-08-23,1,1.534933450596521e-05,4.0082770967451366e-05,-0.002672270662006001,0.004152151552773722,0.9953649941387445
2017-08-25,-1,-3.907037355485784e-05,-1.1010357102617623e-06,-0.001515237857979512,0.00486668090771945,0.9953912082575321
2017-08-29,1,0.00030204772450431034,0.0003064059422452424,-0.0019714931302281264,0.0033684532274938688,0.9956179231474855
2017-08-31,1,0.00037498349333242863,0.00038499420855339243,-0.003712672869940915,0.0029760215769127395,0.9954400581561457
2017-09-05,-1,-4.432245936415881e-05,-1.4834387727760055e-06,-0.002757705145665612,0.00486668090771945,0.9955208854892084
