JNU-Tangyin/eata/results/Batch4_SP500/Batch4_SP500-SWKS.csv
Date,Action,Predicted_Q25,Predicted_Q75,Actual_Q25,Actual_Q75,RL_Reward
2010-12-14,0,0.0,0.008915826099842662,-0.0019515306097947671,0.014705189948931774,0.9911517806967569
2010-12-16,1,0.009492748710610104,0.010459897882185962,-0.002591836337213859,0.014705189948931774,0.9884583415455078
2010-12-20,1,0.00968784728292796,0.010603782486459837,-0.002591836337213859,0.012809027781647862,0.9881166110633495
2010-12-22,1,0.007707798760468093,0.008252081306618067,-0.0029860955570458554,0.012809027781647862,0.9843758764074592
2010-12-27,0,0.0,0.0,-0.0029860955570458554,0.014705189948931774,0.9839770187818196
2010-12-29,0,0.0,0.0,-0.0029860955570458554,0.023768212151916823,0.9803886025166315
2010-12-31,0,0.0,0.0,-0.002591836337213859,0.023768212151916823,0.9785417915456521
2011-01-04,0,0.0,0.0,-0.002591836337213859,0.023768212151916823,0.9784860968734744
2011-01-06,0,0.0,0.0,-0.002591836337213859,0.02854446278521159,0.9766239520951479
2011-01-10,1,0.0007927389707935316,0.0009437766784998044,-0.002591836337213859,0.027299452158271564,0.9783561938766928
2011-01-12,0,0.0,0.0,-0.003785612547074998,0.027299452158271564,0.977576998357895
2011-01-14,0,0.0,0.0,-0.0035918337775775145,0.027299452158271564,0.9771307309546209
2011-01-19,1,0.007009071373893702,0.0070348695528548826,-0.0035918337775775145,0.027299452158271564,0.9794442320680521
2011-01-21,0,0.0,0.0,-0.0005627590672045741,0.027299452158271564,0.9808209451605876
2011-01-25,0,0.0,0.0,-0.00794159198615505,0.024186003345528444,0.9778483830391124
2011-01-27,0,0.0,0.0,-0.00794159198615505,0.024186003345528444,0.9784940493613705
2011-01-31,1,0.002251501569425542,0.002260236948246835,-0.00794159198615505,0.024186003345528444,0.980029070361499
2011-02-02,1,0.0021934743386551507,0.002244309516732848,-0.00794159198615505,0.02379844871746386,0.9800316888206823
2011-02-04,1,0.00323407855189717,0.0033161014052659425,-0.013181357531582765,0.015734615366905826,0.981029871567656
2011-02-08,1,0.0037227844363579275,0.0038970798316811015,-0.016871097544916846,0.011973258619704052,0.9782256298073586
2011-02-10,0,0.0,0.0,-0.016871097544916846,0.009548498922591263,0.979100746733593
2011-02-14,0,0.0,0.0,-0.01733513730515278,0.008817475400524617,0.9793138882007744
2011-02-16,1,0.003404500978876544,0.0037859695033565354,-0.025284138387655242,0.006923065439286361,0.9783856826130773
2011-02-18,0,0.0,0.0,-0.025284138387655242,0.007698950792033564,0.9768425184473618
2011-02-23,1,0.0023532031814605787,0.0024061425717222607,-0.01911925994546107,0.010096289615388858,0.9790112374384344
2011-02-25,1,0.0028045280580051147,0.0028668318515153906,-0.01911925994546107,0.010096289615388858,0.9801285504882875
2011-03-01,1,0.00280110077386238,0.0028499892750364986,-0.01733513730515278,0.010096289615388858,0.981700594180073
2011-03-03,1,0.0015985738464039572,0.001823699975658654,-0.01733513730515278,0.008414641104749451,0.9830785761116217
2011-03-07,1,0.001328349833717385,0.0015480303098294955,-0.02143202432042523,0.008414641104749451,0.982072984813807
2011-03-09,0,-0.0002494884968210296,0.0001638754609062669,-0.02143202432042523,0.008414641104749451,0.9822325737407918
2011-03-11,-1,-0.001341164502305949,-0.0008394913038628339,-0.023320369874851202,0.008414641104749451,0.9811546798335667
2011-03-15,-1,-0.002042147358010939,-0.0014249860949954248,-0.02582172581422209,0.004203975400947987,0.9807084665143658
2011-03-17,-1,-0.002817908377704308,-0.002107494807637587,-0.02143202432042523,0.008414641104749451,0.9822178548010233
2011-03-21,0,0.0,0.0,-0.02143202432042523,0.004203975400947987,0.9831968351789013
2011-03-23,0,0.0,0.0,-0.01668018075267874,0.008785613868401342,0.981350748857694
2011-03-25,0,0.0,0.0,-0.01668018075267874,0.004203975400947987,0.9832402408828492
2011-03-29,0,0.0,0.0,-0.022543793051861702,0.0025911678030074497,0.9822243739828013
2011-03-31,-1,-0.0023876716538250133,-0.001878476802699331,-0.022543793051861702,0.0046098532777615765,0.9783533259462496
2011-04-04,0,0.0,0.0,-0.025444167799622434,0.0046098532777615765,0.9777402847510671
2011-04-06,-1,-0.0033385633481529354,-0.002631106905555152,-0.017646972335265652,0.009964739426898211,0.9808589243746679
2011-04-08,0,0.0,0.0,-0.011859535211818675,0.009964739426898211,0.9817500649285504
2011-04-12,-1,-0.005410117399624405,-0.004517422444228687,-0.010376542845462428,0.009964739426898211,0.98131949360249
2011-04-14,-1,-0.004995006186559575,-0.004184388907318007,-0.010376542845462428,0.009497886019307008,0.9820655332164422
2011-04-18,-1,-0.004645112357553555,-0.003906683442293302,-0.022733047566230197,0.009497886019307008,0.979895117107681
2011-04-20,-1,-0.0023132748916092076,-0.0019074232879993228,-0.022733047566230197,0.00422051205018926,0.9809003584727577
2011-04-25,-1,-0.002803469482123815,-0.0023069266475212414,-0.02486446839396109,0.001886586459391618,0.980429253011687
2011-04-27,-1,-0.003116449997560543,-0.002640917155693306,-0.022733047566230197,0.0036265313984495742,0.9811623319319243
2011-04-29,-1,-0.001179083517424611,-0.0009196998422764479,-0.02486446839396109,0.003036196292799613,0.982358244052151
2011-05-03,-1,-0.00040999452353647866,-0.0002520971284205161,-0.022744663416765693,0.003036196292799613,0.9828060247948821
2011-05-05,-1,-0.0007439202472753106,-0.0005287874991451261,-0.027606562655532033,0.003036196292799613,0.9796878650657644
2011-05-09,-1,-0.007521194046946032,-0.006282664143301746,-0.027606562655532033,0.009465355833504123,0.9773994596048249
2011-05-11,-1,-0.00810790094311235,-0.006876791844882345,-0.02525343282659834,0.010171875371915546,0.9774226954361228
2011-05-13,-1,-0.008512269125484393,-0.007261087300949117,-0.02796051407327141,0.010171875371915546,0.9754524264245176
2011-05-17,-1,-0.011460772454183128,-0.009864720052621848,-0.027665370450701363,0.012714266375463804,0.9729673750682577
2011-05-19,-1,-0.009121784517108555,-0.007854206955891395,-0.027665370450701363,0.010171875371915546,0.9745179189895362
2011-05-23,-1,-0.010162243831037867,-0.008811120675272188,-0.032009275016303615,0.012714266375463804,0.9706029680591203
2011-05-25,-1,-0.010181664647692176,-0.008788316888266364,-0.032009275016303615,0.016317014212893145,0.9694194883105944
2011-05-27,-1,-0.011436573929776048,-0.009982903500515266,-0.027665370450701363,0.016317014212893145,0.9715159432397864
2011-06-01,-1,-0.012457606879749285,-0.0109340738942578,-0.027665370450701363,0.022951326091372796,0.9699830132748728
2011-06-03,-1,-0.013552284110686227,-0.01203136076568088,-0.025546625877595073,0.022951326091372796,0.9712828270569902
2011-06-07,-1,-0.008690301626497126,-0.0077636465580374755,-0.025546625877595073,0.022366889110793736,0.9743372481474432
2011-06-09,-1,-0.00796664675452339,-0.007182608823636152,-0.024967332235454408,0.026169873504949894,0.9724758435512452
2011-06-13,-1,-0.01086667308863674,-0.009715099568615233,-0.021189058326474736,0.026169873504949894,0.9713702807303568
2011-06-15,-1,-0.01170297665308315,-0.010261044187890318,-0.019738704580425974,0.021409446630588483,0.9745040700908972
2011-06-17,-1,-0.012517655315323516,-0.01105635821617719,-0.019738704580425974,0.021409446630588483,0.9737168398038164
2011-06-21,-1,-0.01062211257112103,-0.009606361370680232,-0.019505277358436025,0.026169873504949894,0.9745850479078731
2011-06-23,-1,-0.009308001913484753,-0.008392841255620512,-0.019738704580425974,0.026169873504949894,0.9706203009611907
2011-06-27,-1,-0.008488321171254035,-0.007768894753604479,-0.019738704580425974,0.026169873504949894,0.9696565461063165
2011-06-29,-1,-0.006761614981460457,-0.006400930971721501,-0.019826824126483046,0.021702508059993148,0.9708790641389587
2011-07-01,-1,-0.003926239315501127,-0.0038965368320534113,-0.019826824126483046,0.021702508059993148,0.9721267957216754
2011-07-06,-1,-0.002800666541605998,-0.0025807397806799134,-0.020149187528689008,0.02284101274008686,0.969722430764754
2011-07-08,1,0.0005070360581984315,0.001274481331069419,-0.03484751461681193,0.015155707674434658,0.9659507895488557
2011-07-12,-1,-0.0027881880266147642,-0.002454369262720128,-0.03484751461681193,0.02284101274008686,0.9648188998170932
2011-07-14,-1,-0.0026687881107878546,-0.0022945465274781217,-0.03484751461681193,0.03035569409347767,0.9615501606766507
2011-07-18,-1,-0.004547604950242445,-0.004468563630309669,-0.03484751461681193,0.031215091677180222,0.9606257366213646
2011-07-20,1,0.00047207874452163696,0.0012678178109017022,-0.044042583268974214,0.023267932626325448,0.9595941512128598
2011-07-22,1,0.002833581406511753,0.0038718332133970607,-0.0590948112887002,0.0068050208970926885,0.9592452262076109
2011-07-26,1,0.0037655650443641805,0.004995051189854577,-0.0590948112887002,0.021140693906706094,0.9580782103193939
2011-07-28,1,0.001230851337087092,0.002069154651311418,-0.0590948112887002,0.021140693906706094,0.9600667967550373
2011-08-01,-1,-0.0008772527931726994,-0.0004857225716420376,-0.0590948112887002,0.035323258022097584,0.9581711727653626
2011-08-03,-1,-0.0016710764860588913,-0.0013800780876966883,-0.04031155154936257,0.028010375791815728,0.9616649686395576
2011-08-05,0,0.0,0.0,-0.03030875303359854,0.028010375791815728,0.9651775813135661
2011-08-09,-1,-0.004584374675391092,-0.004183189727091024,-0.019589087285371357,0.027841910230192703,0.9677554768163675
2011-08-11,-1,-0.0023394361052745415,-0.0022134868575175047,-0.03030875303359854,0.018703066496612145,0.970314261369836
2011-08-15,0,0.0,0.0,-0.03030875303359854,0.025510170160091057,0.968998464939807
2011-08-17,0,0.0,0.0,-0.019589087285371357,0.038031050351407816,0.970018479153023
2011-08-19,0,0.0,0.0,-0.01347348824380169,0.038031050351407816,0.9742476538338056
2011-08-23,0,0.0,0.0,-0.01347348824380169,0.025510170160091057,0.9765827036011748
2011-08-25,0,0.0,0.0,-0.01347348824380169,0.031094289084173193,0.9731109023602674
2011-08-29,0,0.0,0.0,-0.016272619721249677,0.0195552228093682,0.9755364685359736
2011-08-31,0,0.0,0.0,-0.025179547376389208,0.0195552228093682,0.9726518021207502
2011-09-02,0,0.0,0.0,-0.03582630540683407,0.0195552228093682,0.970825859253123
2011-09-07,0,0.0,0.0,-0.03582630540683407,0.031094289084173193,0.9673349375326874
2011-09-09,0,0.0,0.0,-0.025179547376389208,0.031094289084173193,0.9689264391063985
2011-09-13,-1,-0.0047256444114321,-0.004414380436410276,-0.025179547376389208,0.019039710523306823,0.9706777579236265
2011-09-15,0,0.0,0.0,-0.025179547376389208,0.024243879655643848,0.9698514148021866
2011-09-19,0,0.0,0.0,-0.036175273070342476,0.03072320235352466,0.966908152582374
2011-09-21,0,0.0,0.0,-0.04114694437546039,0.032577925037204,0.9638983140547017
2011-09-23,0,0.0,0.0,-0.036175273070342476,0.032577925037204,0.9678023899942081
2011-09-27,0,0.0,0.0,-0.038651405269400425,0.03587060553246006,0.9645880139057962
2011-09-29,-1,-0.00028948196438581227,-3.658243322765672e-05,-0.01769602018009337,0.03587060553246006,0.9672937428683587
2011-10-03,-1,-0.002209871825091465,-0.0021938872957908734,-0.013674249309730494,0.03587060553246006,0.9685507952055472
2011-10-05,-1,-0.000874176043165859,-0.000732137778446147,-0.026576691248287498,0.024862120550203627,0.9738213366858395
2011-10-07,0,0.0,0.0,-0.026576691248287498,0.03587060553246006,0.9676828268050878
2011-10-11,0,0.0,0.0,-0.026576691248287498,0.03587060553246006,0.9680620941151836
2011-10-13,1,0.0033400232043389313,0.004284309992296215,-0.036437756105980414,0.021205444413023036,0.9662911616709187
2011-10-17,0,0.0,0.0,-0.02947614400644687,0.021205444413023036,0.9691263166349577
2011-10-19,0,0.0,0.0,-0.027554689821908132,0.013467289092880414,0.9715762689547431
2011-10-21,0,0.0,0.0,-0.029571269675666343,0.005939844232109577,0.9674404580532725
2011-10-25,0,0.0,0.0,-0.029571269675666343,0.0001624562108499528,0.9683987010371824
2011-10-27,0,0.0,0.0,-0.036610355563536826,-0.007076357446898273,0.9639337688390015
2011-10-31,0,0.0,0.0,-0.029982455950431718,0.004326739860197975,0.9661651933434631
2011-11-02,0,0.0,0.0,-0.027786877582716064,0.012254793292985662,0.9628028306682044
2011-11-04,0,0.0,0.0,-0.027786877582716064,0.004326739860197975,0.9686648636621331
2011-11-08,0,0.0,0.0,-0.027786877582716064,0.004326739860197975,0.9686485517477199
2011-11-10,1,0.2368412992322628,0.24933670374158381,-0.027786877582716064,0.011301725866131304,0.797599271975939
2011-11-14,0,0.0,0.0,-0.033357431123042194,0.004326739860197975,0.968898450878193
2011-11-16,0,0.0,0.0,-0.033357431123042194,0.011301725866131304,0.9693236639702957
2011-11-18,0,0.0,0.0,-0.029218270413899516,0.012419916487340817,0.9729047017280652
2011-11-22,0,0.0,0.0,-0.019869973548742304,0.014697899085453166,0.9732690606226286
2011-11-25,0,0.0,0.0,-0.010779578998929736,0.016128863420508892,0.9756806976700073
2011-11-29,0,0.0,0.0,-0.013610260411572381,0.015257033896832804,0.9762767363324839
2011-12-01,0,0.0,0.0,-0.013610260411572381,0.012419916487340817,0.9807882870089948
2011-12-05,0,0.0,0.0,-0.013610260411572381,0.015257033896832804,0.97955003853061
2011-12-07,0,0.0,0.0,-0.007392169827820452,0.01979172052400109,0.9793246663103127
2011-12-09,0,0.0,0.0,-0.004734714243553221,0.02676040305190276,0.9794671666584981
2011-12-13,0,0.0,0.0,-0.002790141012934141,0.02676040305190276,0.9836791155884098
2011-12-15,0,0.0,0.0,-0.003045778337927901,0.0315600725431692,0.9819833357302165
2011-12-19,-1,-0.0014055749305677996,-0.0012741458328187493,-0.003045778337927901,0.036883968695065744,0.9808265407896156
2011-12-21,-1,-0.001072542729046201,-0.0009729671814999613,-0.0032486670664947704,0.036883968695065744,0.9786194526035071
2011-12-23,0,0.0,0.0,-0.002476851574973222,0.0315600725431692,0.9807118122611902
2011-12-28,0,0.0,0.0,-0.002476851574973222,0.0315600725431692,0.9802185761111017
2011-12-30,0,0.0,0.0,-0.005228807514888614,0.0315600725431692,0.98001596178396
2012-01-04,0,0.0,0.0,-0.005228807514888614,0.0315600725431692,0.979151191334064
2012-01-06,0,0.0,0.0,-0.005228807514888614,0.03694405262688095,0.9786698415846885
2012-01-10,0,0.0,0.0,-0.005228807514888614,0.027890811906690818,0.9792668447142273
2012-01-12,0,0.0,0.0,-0.007235666859653715,0.027890811906690818,0.9768769490225496
2012-01-17,0,0.0,0.0,-0.005228807514888614,0.019408466317139203,0.9784875760446655
2012-01-19,0,0.0,0.0,-0.005228807514888614,0.019408466317139203,0.9784771955033178
2012-01-23,0,0.0,0.0,-0.007235666859653715,0.01550284223394121,0.9826685837608458
2012-01-25,0,0.0,0.0,-0.007235666859653715,0.019408466317139203,0.9822354936378367
2012-01-27,0,0.0,0.0,-0.004481531517174073,0.02582161964476415,0.9814697480658067
2012-01-31,1,0.004574798729736584,0.0053072440450114165,0.0029375222692168143,0.02582161964476415,0.984509052191684
2012-02-02,1,0.005438384106383091,0.006196650882199391,0.0029375222692168143,0.01734977051270696,0.9865493997114625
2012-02-06,1,0.00800570484020869,0.009496868656630953,0.0013141303302386788,0.014816610299130461,0.9853657025931741
2012-02-08,1,0.008598319900305712,0.010174714016163214,0.0013141303302386788,0.0176394226024053,0.9845745684449586
2012-02-10,1,0.007055454037211665,0.00839370144319171,0.0013141303302386788,0.0176394226024053,0.9856683405527232
2012-02-14,1,0.008556726673315952,0.010122683772390884,0.0013141303302386788,0.026163974172469857,0.9847292231746998
2012-02-16,1,0.009655523983889677,0.011289669572163239,-0.004534418865062789,0.02253800692879311,0.9849618196876632
2012-02-21,1,0.008355942254795058,0.00974939124264591,-2.2707656395178945e-06,0.022826086554722114,0.9848436046772446
2012-02-23,1,0.007971812836493725,0.009120546234060712,-0.004490161943340896,0.021458823295394797,0.9853207926638731
2012-02-27,1,0.006116979097955455,0.006648017587512185,-0.008458927747906362,0.02048678778920535,0.985177696164902
2012-02-29,1,0.009065681252013867,0.010260752284793236,-0.009764665251341093,0.02048678778920535,0.9835724604815652
2012-03-02,1,0.009095361377937051,0.010256421354567863,-0.009764665251341093,0.02048678778920535,0.9828509646199957
2012-03-06,1,0.008608458078732641,0.009793350415983906,-0.006984518271667003,0.02048678778920535,0.9865276598947126
2012-03-08,1,0.011613022034554287,0.013646212515975158,-0.008458927747906362,0.014636780689868005,0.9841110374426295
2012-03-12,1,0.011284632878863336,0.013246194020448838,-0.009764665251341093,0.014636780689868005,0.9826734970614338
2012-03-14,1,0.01278533934715197,0.01490501490979006,-0.009764665251341093,0.014636780689868005,0.9819281237176994
2012-03-16,1,0.012549176169713423,0.014626519123532439,-0.01568097713624991,0.009032585727542355,0.9802528477971217
2012-03-20,1,0.012953400227475226,0.015096609322585035,-0.012321888646172457,0.012396769660939888,0.980742698721728
2012-03-22,1,0.013508561385627353,0.015747166659982725,-0.023832061228760526,0.012396769660939888,0.9750651577587391
2012-03-26,1,0.012363054015498445,0.014261219167499197,-0.027165943829074668,0.014027004617108733,0.9738682294171569
2012-03-28,1,0.010017319498984486,0.01160735188552785,-0.023832061228760526,0.019785853337492748,0.9747258327954864
2012-03-30,1,0.01040060001871064,0.012052617462645635,-0.02482329407498831,0.021746438360241555,0.9706039516842614
2012-04-03,1,0.009369857915851633,0.010807678954368542,-0.02482329407498831,0.021746438360241555,0.9711063005919929
2012-04-05,1,0.0071118854298814725,0.008064568282578705,-0.02482329407498831,0.020304035780127138,0.9703296499922077
2012-04-10,1,0.005603309849501862,0.0064199151876288395,-0.02482329407498831,0.020304035780127138,0.9709947076338508
2012-04-12,1,0.00678219969367473,0.007684540437895909,-0.02482329407498831,0.012411011299556097,0.9720202901917232
2012-04-16,1,0.0027596611181089446,0.0028576214379022686,-0.023250734612201774,0.012411011299556097,0.9732276952838288
2012-04-18,1,0.003201263891785277,0.003226466235941094,-0.023250734612201774,0.01153701526975931,0.9738050601600396
2012-04-20,-1,-0.0035026345726972496,-0.0025522421179147384,-0.023250734612201774,0.01153701526975931,0.9745620094593347
2012-04-24,-1,-0.0031008507149489304,-0.002267303387537323,-0.022377370791723326,0.014015031519638912,0.9730752749160507
2012-04-26,-1,-0.0014616383046673984,-0.0009022630250913877,-0.02297264934032203,0.014015031519638912,0.9746225818973351
2012-04-30,-1,-0.0012814866851566754,-0.0007561942143355673,-0.022377370791723326,0.014015031519638912,0.9772494692919954
2012-05-02,-1,-0.0019310632816460405,-0.0012704532777068516,-0.02297264934032203,0.0188322580788748,0.9736301413194445
2012-05-04,-1,-0.005247058714312226,-0.004159422711316413,-0.02297264934032203,0.023083172963618896,0.9720962009359646
2012-05-08,-1,-0.009658930985596129,-0.007812020249518755,-0.019923726208415843,0.027385490383308522,0.9670580157507362
2012-05-10,-1,-0.00981293127258898,-0.00789838130705427,-0.025421409017284208,0.027385490383308522,0.9666443374040499
2012-05-14,-1,-0.009830264930284289,-0.00797982221692299,-0.03403768854413839,0.032394884803454,0.964502587864808
2012-05-16,-1,-0.008214739452213866,-0.006601932613487075,-0.034592398057822986,0.032394884803454,0.9644494037164585
2012-05-18,-1,-0.01093390178383645,-0.009096870095626212,-0.025421409017284208,0.032394884803454,0.9649007016790679
2012-05-22,-1,-0.008104087546063546,-0.006553925477723944,-0.025421409017284208,0.026592141500262755,0.9700387765744308
2012-05-24,-1,-0.008049297246210164,-0.006541294947269213,-0.032931393229945906,0.026592141500262755,0.9692956744397758
2012-05-29,-1,-0.005625498300091873,-0.0043870571929709185,-0.034592398057822986,0.02433305015079027,0.9703255435287278
2012-05-31,-1,-0.005670854567931818,-0.004453696884543238,-0.032931393229945906,0.02433305015079027,0.9722897839471998
2012-06-04,-1,-0.0062497391389806835,-0.005069276144226884,-0.022315337708747662,0.026199572947563886,0.9729408833287142
2012-06-06,-1,-0.0033387736959331637,-0.0024892523170331055,-0.022315337708747662,0.018871746184120936,0.9775528308300175
2012-06-08,-1,-0.004011866649950388,-0.0031012169056465464,-0.02250024087997586,0.017608073552486777,0.977603340927477
2012-06-12,-1,-0.0033130218549998467,-0.0025858661511829507,-0.02229005613532515,0.009383285409938633,0.9793647131213262
2012-06-14,-1,-0.004960520253775906,-0.004085703481915651,-0.009752048709030677,0.016758510643001046,0.9793728179791154
2012-06-18,-1,-0.0031643248569165013,-0.0025341995946560887,-0.02229005613532515,0.009383285409938633,0.9796105686552694
2012-06-20,-1,-0.0032220315607193427,-0.0026006959294205476,-0.02229005613532515,0.018681115352785334,0.9732072874474726
2012-06-22,-1,-0.004655294298229707,-0.0038181192871110242,-0.023331039716833344,0.018681115352785334,0.9735775469939892
2012-06-26,-1,-0.006245186408678811,-0.005332143572798945,-0.023331039716833344,0.018681115352785334,0.9740691323563581
2012-06-28,-1,-0.004206887976834042,-0.003572439255361384,-0.023331039716833344,0.02041594340295183,0.9735814090014728
2012-07-02,-1,-0.001788884302785781,-0.0014977424877345557,-0.023331039716833344,0.02041594340295183,0.9744250720316456
2012-07-05,-1,-0.002288317226418984,-0.001868708514434649,-0.027604825008533774,0.02041594340295183,0.9737981916646499
2012-07-09,-1,-0.002835596725783696,-0.002401457560448054,-0.02165086013133538,0.02041594340295183,0.974682097161954
2012-07-11,-1,-0.002950765018130882,-0.0025958336116529,-0.01563811791751507,0.020905050924125704,0.9746858932253566
2012-07-13,-1,-0.0020268021966020856,-0.0017359714993685727,-0.01563811791751507,0.022461304616974202,0.9749114829266541
2012-07-17,-1,-0.003172543519729973,-0.0028204975513007814,-0.011777701875646005,0.022461304616974202,0.9765206662538337
2012-07-19,-1,-0.0009725606444742599,-0.0009466967196247968,-0.01563811791751507,0.020167855299103282,0.9804690556671508
2012-07-23,-1,-0.0025641938179865893,-0.002385088323418263,-0.011102868335730345,0.020167855299103282,0.9822079608646231
2012-07-25,-1,-0.0032084932764165543,-0.0029836793102799228,-0.011102868335730345,0.020167855299103282,0.9832196613494895
2012-07-27,-1,-0.0025815639340505425,-0.002339391279469569,-0.011102868335730345,0.016812236519283492,0.9848236108906772
2012-07-31,-1,-0.0006228070979109577,-0.0005181461347020621,-0.012014048110803081,0.016772968064942634,0.9851369358646747
2012-08-02,-1,-0.0018632885502417934,-0.00178608434118406,-0.011177272868795147,0.016772968064942634,0.9858041453569691
2012-08-06,1,2.4255822442443295e-05,0.0003023821277267126,-0.012014048110803081,0.018692083443900186,0.9847254146433853
2012-08-08,1,0.0004369157392682943,0.0007949501393053253,-0.012014048110803081,0.018692083443900186,0.9817996588862128
2012-08-10,1,0.0020473919546732007,0.002646947491865526,-0.01398227355163065,0.010766961961552681,0.9811294498351826
2012-08-14,1,0.0017599467223856351,0.002342313813072626,-0.014595137258550512,0.010766961961552681,0.9804527892739093
2012-08-16,1,0.002672672156720205,0.0033914550291790704,-0.01398227355163065,0.010766961961552681,0.9818222587039894
2012-08-20,1,0.0020487243586093675,0.0026298124928465856,-0.014595137258550512,0.010766961961552681,0.9813568419293931
2012-08-22,1,0.0018922203092414146,0.00245993971845203,-0.0164341628553813,0.011336721072636934,0.9771326769719368
2012-08-24,1,0.0027018854944683614,0.0035920132162179934,-0.02127070293025285,0.011336721072636934,0.9751945595944826
2012-08-28,1,0.002503572008408475,0.0033302974907942185,-0.020860785230960535,0.008328263989245216,0.9752072215709445
2012-08-30,1,0.0015487443240281243,0.002145325736764648,-0.020860785230960535,0.012549772924993163,0.9739701160764395
2012-09-04,1,0.0033381615155967325,0.004292566767612454,-0.022278110678021334,0.011349466753876297,0.9739331119394511
2012-09-06,1,0.004176104094934573,0.005169547295601936,-0.020860785230960535,0.00791414318942259,0.977869220912297
2012-09-10,1,0.0034175082026764326,0.004430105477177275,-0.017363275971564583,0.00791414318942259,0.9792501289629575
2012-09-12,1,0.0005178571150334732,0.0008844781632594929,-0.020860785230960535,0.00791414318942259,0.9798579636187689
2012-09-14,1,0.0004908880378115851,0.0008422942894985707,-0.020860785230960535,0.006706342613024795,0.9804644030373797
2012-09-18,1,0.00024115648469542872,0.0005443336871762476,-0.01762289275343347,0.010507528956030219,0.9789968969810909
2012-09-20,-1,-0.002780072168027031,-0.0026934658140714586,-0.018148750661303895,0.008643808439027834,0.983001744145938
2012-09-24,-1,-0.004075500218288905,-0.003863996000212152,-0.017284294774742224,0.008643808439027834,0.984450429224914
2012-09-26,-1,-0.006828947434970123,-0.006162367254521264,-0.016459264448345702,0.008643808439027834,0.9852019273546976
2012-09-28,-1,-0.007136378279981944,-0.00638098597859868,-0.015416505529577107,0.009562483233360952,0.985913461430537
2012-10-02,-1,-0.00629891016087872,-0.005693685347145944,-0.011755529222219313,0.010400652138445427,0.9855793650283853
2012-10-04,-1,-0.005999846727738635,-0.0054227097285272675,-0.015416505529577107,0.013672202253383553,0.9794585046431027
2012-10-08,-1,-0.0060807518171634815,-0.0055663664172565085,-0.017284294774742224,0.013672202253383553,0.9782915437878996
2012-10-10,-1,-0.009353730899334434,-0.008280886578245156,-0.012278401497765653,0.01658334446038221,0.9764366683347858
2012-10-12,-1,-0.007650181536651395,-0.00693851951535942,-0.006114712495661422,0.01658334446038221,0.9758522383134256
2012-10-16,-1,-0.00510403707207477,-0.0047044213183563225,-0.017284294774742224,0.01202999633988289,0.9794055000801637
2012-10-18,-1,-0.0051178742109842905,-0.004842915560063398,-0.008862029879446096,0.014919500190633301,0.9778479085811161
2012-10-22,-1,-0.00448304758555792,-0.004286059291626884,-0.0033072908638960463,0.015408134194583216,0.9778718027527861
2012-10-24,-1,-0.005134609593483094,-0.004792145514754964,-0.005924308774176777,0.01907580437634524,0.9770835210322808
2012-10-26,-1,-0.002920696261291003,-0.0028389192757515766,-0.005924308774176777,0.01907580437634524,0.9788335806113533
2012-11-01,-1,-0.0015848284957706246,-0.0013605835141431858,-0.005924308774176777,0.01907580437634524,0.978677849273634
2012-11-05,-1,-0.0040477035640744865,-0.003956335435605179,-0.004556647208109093,0.018565413289325827,0.9834728073467497
2012-11-07,-1,-0.006483369008255453,-0.006076107713266867,-0.004556647208109093,0.018565413289325827,0.9831204739783743
2012-11-09,-1,-0.003887840337212151,-0.0038701385135444613,-0.006073896990107777,0.015621001060221518,0.9840381831397307
2012-11-13,-1,-0.003031581586999134,-0.0029307887641256128,-0.008975284591382693,0.018565413289325827,0.983204956312962
2012-11-15,-1,-0.005170753937127237,-0.004940888961789061,-0.017764912396261674,0.018565413289325827,0.9784147190127856
2012-11-19,-1,-0.0045303800378712344,-0.004209404598412807,-0.008975284591382693,0.018565413289325827,0.9781041350803128
2012-11-21,-1,-0.0024124824977680647,-0.002410117275524415,-0.01803858085513128,0.01689862782514302,0.9788012692181596
2012-11-26,-1,-0.0019512477644208106,-0.001853861502990458,-0.01803858085513128,0.015100029730229699,0.9788949203559907
2012-11-28,-1,-0.0013901729434752147,-0.0011834792971414509,-0.022377048041412752,0.015100029730229699,0.9776727539196941
2012-11-30,-1,-0.0007694986299291753,-0.0005319973183907662,-0.022377048041412752,0.015100029730229699,0.9789218018701585
2012-12-04,1,0.0003172001758418422,0.0006126946985364955,-0.022377048041412752,0.015100029730229699,0.9763571428027182
2012-12-06,1,0.0011889403605485696,0.0016781147537178415,-0.022559985409762923,0.015192246629268255,0.9753470935789281
2012-12-10,-1,-0.0011891523542921973,-0.0011105031079427722,-0.022687075189429244,0.01756493369460576,0.9743748577565162
2012-12-12,-1,-0.0010819591083989382,-0.0008791405093609002,-0.022687075189429244,0.015192246629268255,0.9754752462651157
2012-12-14,-1,-0.007558510977242323,-0.00689868561000591,-0.018264660754757692,0.015192246629268255,0.979392474051219
2012-12-18,-1,-0.0051345364820406456,-0.004712429591364234,-0.018264660754757692,0.015203890579638278,0.9799231616526034
2012-12-20,-1,-0.00514660930217971,-0.0048250329512974695,-0.018431314199901776,0.015203890579638278,0.9794667937405498
2012-12-24,-1,-0.005370921471031857,-0.005051054601429929,-0.01953300942158715,0.017599865545715833,0.9772815761677408
2012-12-27,-1,-0.006055708777067843,-0.0056306285683513126,-0.018221519091587455,0.017599865545715833,0.9773167546646565
2012-12-31,-1,-0.00468374181511777,-0.004465715321934066,-0.018221519091587455,0.016923740923500043,0.9773886857313331
2013-01-03,-1,-0.004085992852838814,-0.003919698939567717,-0.018221519091587455,0.016923740923500043,0.974960387366774
2013-01-07,-1,-0.003084829502509673,-0.0030583213548869056,-0.018221519091587455,0.016923740923500043,0.9751933156966771
2013-01-09,-1,-0.003148317329118515,-0.003147820299084997,-0.01726470633186609,0.016923740923500043,0.9764782775907354
2013-01-11,-1,-0.0025294706109431127,-0.002398492206656672,-0.01726470633186609,0.016923740923500043,0.9764651460463762
2013-01-15,-1,-0.0035732570497831826,-0.003567219989442302,-0.009166281735766977,0.016923740923500043,0.9774792428034129
2013-01-17,1,0.0010473473248230703,0.0011002181700868541,-0.01726470633186609,0.016823592419957054,0.9788896461548076
2013-01-22,1,0.00047358366875703106,0.00047549046413087394,-0.01726470633186609,0.016823592419957054,0.9789785087277013
2013-01-24,1,0.002644922685863753,0.0032644545601250496,-0.01726470633186609,0.016823592419957054,0.9766216747730673
2013-01-28,1,0.0024698634255979294,0.0030642419217683826,-0.019969760082607237,0.016823592419957054,0.9746780947679792
2013-01-30,1,0.003644044669747747,0.004457094749589739,-0.019969760082607237,0.018470676723292237,0.9742510954819091
2013-02-01,0,0.0,0.0,-0.02460075583438047,0.008391456163722527,0.9769957964681701
2013-02-05,0,0.0,0.0,-0.019969760082607237,0.015930935743550437,0.97697185516205
2013-02-07,0,0.0,0.0,-0.019969760082607237,0.01409634282186751,0.9781166434978459
2013-02-11,0,0.0,0.0,-0.019969760082607237,0.01409634282186751,0.9788332373894905
2013-02-13,0,0.0,0.0,-0.019969760082607237,0.01653347692829813,0.9773813048456288
2013-02-15,-1,-0.0014436456815887665,-0.0014341544618540918,-0.023836541103810005,0.01409634282186751,0.9778918747800747
2013-02-20,-1,-0.0005788354049787766,-0.0005426262503653987,-0.01599779203090884,0.01409634282186751,0.9795648941989683
2013-02-22,0,0.0,0.0,-0.009246418783424587,0.007871680446134618,0.9856335712436047
2013-02-26,0,0.0,0.0,-0.007489972695054805,0.01409634282186751,0.9875688733279784
2013-02-28,0,0.0,0.0,-0.007489972695054805,0.01409634282186751,0.9886433393653953
2013-03-04,0,0.0,0.0,-0.007489972695054805,0.01409634282186751,0.9883096904462739
2013-03-06,0,0.0,0.0,-0.008424090063350959,0.008072527507717182,0.9878981623628688
2013-03-08,-1,-0.0032750793780483086,-0.003088575636141244,-0.008424090063350959,0.008276507923599116,0.98738171714258
2013-03-12,0,0.0,0.0,-0.008424090063350959,0.01558158400050515,0.9859956778272191
2013-03-14,0,0.0,0.0,-0.010390247028056073,0.01558158400050515,0.985809220723648
2013-03-18,0,0.0,0.0,-0.010390247028056073,0.01634199964107104,0.984629019516858
2013-03-20,0,0.0,0.0,-0.015615760009467405,0.01634199964107104,0.981493164965331
2013-03-22,0,0.0,0.0,-0.015615760009467405,0.018104909305642656,0.9808892579863947
2013-03-26,0,0.0,0.0,-0.015615760009467405,0.018846487090424916,0.980134212465163
2013-03-28,0,0.0,0.0,-0.02214388308814373,0.021090507204646957,0.9784834005242098
2013-04-02,0,0.0,0.0,-0.015615760009467405,0.024174490084395994,0.97935573737764
2013-04-04,0,0.0,0.0,-0.01603398436105273,0.02188460146915557,0.9795519389309187
2013-04-08,0,0.0,0.0,-0.01603398436105273,0.026680638301848587,0.9781841963551425
2013-04-10,0,0.0,0.0,-0.017382566490384933,0.02188460146915557,0.9787340736171961
2013-04-12,0,0.0,0.0,-0.017382566490384933,0.019090908666565043,0.9792627557160446
2013-04-16,0,0.0,0.0,-0.008021950806412003,0.019090908666565043,0.9815055245969518
2013-04-18,0,0.0,0.0,-0.000691610410390089,0.019090908666565043,0.9836282816905031
2013-04-22,-1,-0.0020787798000795983,-0.0018038526598986968,-0.005790033513233591,0.0185347159751644,0.9831077747928784
2013-04-24,0,0.0,0.0,-0.008676466064983044,0.01783450420954106,0.984726833710135
2013-04-26,-1,-0.1721473238887141,-0.17203947808453648,-0.008676466064983044,0.015316973367988315,0.8510683751718618
2013-04-30,1,0.0018399498174067994,0.0020885944133820717,-0.012839822530469924,0.012853635273840185,0.9866580982282654
2013-05-02,0,0.0,0.0,-0.00808514218585247,0.012853635273840185,0.9857537972320517
2013-05-06,0,0.0,0.0,-0.012177827977240596,0.010999142501761896,0.9874895619665596
2013-05-08,1,0.0015731275577632515,0.0017420912710462994,-0.012839822530469924,0.010004236816999584,0.9868835329378943
2013-05-10,1,0.00015901651542163565,0.00030952469857637056,-0.012839822530469924,0.006146638871474373,0.9873718713839538
2013-05-14,1,0.0015546053989383677,0.0017066623571236252,-0.01912480505697803,0.0032812032839773485,0.9840437554380068
2013-05-16,0,0.0,0.0,-0.01912480505697803,0.0032812032839773485,0.9825070343937635
2013-05-20,0,0.0,0.0,-0.01912480505697803,0.0043936244388934585,0.9822291645039141
2013-05-22,0,0.0,0.0,-0.019595568288507927,0.0043936244388934585,0.9817500778108422
2013-05-24,0,0.0,0.0,-0.020016454699235055,0.008570740607641906,0.981262227488143
2013-05-29,0,0.0,0.0,-0.020016454699235055,0.009815270408199784,0.9808657675483616
2013-05-31,1,0.001732449339954192,0.002174809373800487,-0.020016454699235055,0.009079698563081951,0.982336752207431
2013-06-04,1,0.0012693239665177354,0.0016317345277715501,-0.020016454699235055,0.009079698563081951,0.982288204777409
2013-06-06,1,0.00029617710377682785,0.000558224656947109,-0.012483218784239098,0.010829032699172342,0.9838824789457227
2013-06-10,-1,-0.0010150940930009976,-0.0009974914110309158,-0.018274350014970474,0.011863078148681002,0.9819812768571154
2013-06-12,-1,-0.0023801666286622325,-0.002323981688634102,-0.007903225233518597,0.01427502451025194,0.9832961389127568
2013-06-14,-1,-0.0015532671201750486,-0.0015302076460054607,-0.008331284544193355,0.011902504374692851,0.9858285270735844
2013-06-18,-1,-0.00047486441981911727,-0.00035531662199275737,-0.008331284544193355,0.011902504374692851,0.9854616510685195
2013-06-20,-1,-0.0015450106857250586,-0.0015173597758172809,-0.008331284544193355,0.01427502451025194,0.9825583302464674
2013-06-24,-1,-0.00180029767137515,-0.0017833851026194997,-0.0008103433612886702,0.01427502451025194,0.9833726958781698
2013-06-26,0,-0.00015550327791704157,0.00010089838389107353,-0.004898220686205607,0.013385712235205696,0.9849804102708625
2013-06-28,-1,-0.0002913512613649977,-9.978111395833361e-05,-0.012103200479204962,0.011889115196039999,0.984298514363699
2013-07-02,-1,-0.00044035888781467775,-0.000249942713907712,-0.005876571143580955,0.011889115196039999,0.984132871861408
2013-07-05,1,0.0004960354454181502,0.0008578189252946059,-0.006757544831018742,0.014317005683042637,0.9834903872817109
2013-07-09,1,0.0001559448180332595,0.00048637205129273926,-0.006757544831018742,0.011889115196039999,0.9852650398118041
2013-07-11,1,0.0012432973713517948,0.0017372309593343786,-0.012103200479204962,0.011367834198783995,0.9855078763232417
2013-07-15,1,0.0007303140973004416,0.001079275457267846,-0.007594409393904304,0.011862236818954944,0.9853123563796743
2013-07-17,1,0.0004192461904618512,0.0006162741076700622,-0.007594409393904304,0.011862236818954944,0.985958044847988
2013-07-19,-1,-0.0007760299872556733,-0.0006731321861873232,-0.006675973558837528,0.010880962877160751,0.988879884245565
2013-07-23,1,0.00038711881827187755,0.0005024946969217806,-0.006675973558837528,0.010880962877160751,0.9890685552209312
2013-07-25,-1,-0.00035665115040403096,-0.00029424454601022947,-0.006675973558837528,0.011748866277974208,0.9889023798372066
2013-07-29,-1,-0.0009051180243399022,-0.0008377185521258503,-0.0026237287546993816,0.011748866277974208,0.9900342956864429
2013-07-31,0,-7.2107176062508776e-06,5.945418621025402e-05,-0.0037281381991434766,0.01336410630969398,0.9879173994524959
2013-08-02,1,0.0007881942902014374,0.0009669270575484611,-0.0051494972887291485,0.01336410630969398,0.9876428221052382
2013-08-06,1,0.0005983311081952491,0.0008189559562585003,-0.0026237287546993816,0.0150587703865656,0.9876811671238231
2013-08-08,-1,-0.0008652774344433455,-0.0008288480603941722,-0.0026237287546993816,0.0150587703865656,0.9878775114130394
2013-08-12,1,4.7259150384966974e-05,0.00013939478778112342,-0.0026237287546993816,0.013486446078335546,0.9883269581552262
2013-08-14,1,0.00040903680822421644,0.0005336771988680826,-0.007110843729549967,0.012959620815510425,0.9877808644828596
2013-08-16,1,0.0002956373632817121,0.00041925740394897515,-0.005597747806848348,0.012959620815510425,0.9881449475598277
2013-08-20,1,0.001059014056347492,0.0013208837960789624,-0.005597747806848348,0.012959620815510425,0.9883380139797413
2013-08-22,1,0.0005113451702751442,0.0006044563642649603,-0.005833732766114399,0.011143754093506812,0.9884683957059401
2013-08-26,1,0.0006521172643520754,0.0007643611023799969,-0.005833732766114399,0.011183750877389443,0.9881011404187994
2013-08-28,1,0.0007461520518521393,0.000887946392431421,-0.005833732766114399,0.010511017524585962,0.9898233591958625
2013-08-30,1,0.0009580659976296787,0.0011683122161059998,-0.005833732766114399,0.005252930413905518,0.991392724896166
2013-09-04,1,0.0016761971313611142,0.001999703700201394,-0.007110843729549967,0.005252930413905518,0.9899948953387813
2013-09-06,1,0.001190075643363946,0.0014205952301599028,-0.007676607631630031,0.010511017524585962,0.9886205795325724
2013-09-10,1,0.0004623536800333549,0.000478324063945615,-0.011451539494788804,0.002995659814336172,0.9881741796016399
2013-09-12,-1,-0.0005972612315111095,-0.0004906109971002515,-0.009876753483966924,0.0052662626751997284,0.9891136614772343
2013-09-16,0,-2.089326669363978e-05,4.388928082903619e-06,-0.009876753483966924,0.007428168316194132,0.98892549006202
2013-09-18,1,0.0003840249421617338,0.00045367274469426157,-0.011451539494788804,0.007428168316194132,0.9883403682816861
2013-09-20,1,0.0007055642233966473,0.00087655052569808,-0.01380786429410374,0.011165290099867865,0.9869246869578403
2013-09-24,1,0.0009442839061258164,0.0011355688803754253,-0.01380786429410374,0.013176612726963589,0.9855587950883788
2013-09-26,1,0.00044637974621023326,0.0006496330866950557,-0.01380786429410374,0.013176612726963589,0.9841428665729791
2013-09-30,1,0.0002681878042988049,0.00044507317594526534,-0.01380786429410374,0.014107719097330985,0.983728390927755
2013-10-02,1,0.0010855337180173065,0.0014240157494633976,-0.012201717605427062,0.01407758915639502,0.984832947976371
2013-10-04,1,0.001297270226086556,0.001716428598617548,-0.012201717605427062,0.01407758915639502,0.9839847622393123
2013-10-08,1,0.00040778946779421817,0.0007125161225532158,-0.00632959884407011,0.01407758915639502,0.9850942603040063
2013-10-10,1,0.0008819935305382856,0.001270854392495476,-0.007550410558740609,0.013845464283551533,0.9837978927886475
2013-10-14,1,0.0008330254637956633,0.0011758854042156206,-0.008846880878659216,0.013845464283551533,0.9835680420039313
2013-10-16,1,0.0005116845832515408,0.0007686484084149151,-0.006593106008673702,0.015429596076016284,0.9832974055333674
2013-10-18,1,0.00022270680282645205,0.00044135740096104754,-0.0056300359859547955,0.015429596076016284,0.9846401777340038
2013-10-22,1,0.0010357204119922309,0.001432035794782308,-0.006593106008673702,0.014567686550077674,0.9850672151629641
2013-10-24,-1,-0.0015401403109317317,-0.0014994305051057363,-0.005567837748636821,0.01602019586340116,0.9847424855881648
2013-10-28,-1,-0.0015579252019014035,-0.0015185048881215558,-0.005567837748636821,0.015523591141176723,0.9854726076220954
2013-10-30,-1,-0.0015961669392754586,-0.0015128536984920947,-0.006593106008673702,0.014827216522646259,0.9858142547255649
2013-11-01,-1,-0.002852897457929455,-0.0024903928293998766,-0.006593106008673702,0.014827216522646259,0.9875865802677648
2013-11-05,-1,-0.002232573669740296,-0.0020227803481220976,-0.005999994521943023,0.015113062208404193,0.9869489352562991
2013-11-07,-1,-0.0024459227683517873,-0.0022496648224254894,-0.005999994521943023,0.016628051799070852,0.9872497187132594
2013-11-11,-1,-0.003289648849107434,-0.0029405709711128143,-0.005698375431160554,0.0179092830632084,0.9856228381720824
2013-11-13,-1,-0.002867955386197804,-0.0025274420494839425,-0.007084957081333005,0.015742551992164986,0.9870951821942061
2013-11-15,-1,-0.0023531930748997357,-0.002118276072758629,-0.008463403219964806,0.015742551992164986,0.9861636575623889
2013-11-19,-1,-0.003292918292815531,-0.00296273292223393,-0.0072578318723530875,0.01958882348427423,0.9852000267134451
2013-11-21,-1,-0.001926160581976877,-0.0017323004979061594,-0.010012007016330078,0.013287528428563114,0.9871704203620036
2013-11-25,-1,-0.0013246512369275605,-0.0012275718775027638,-0.010012007016330078,0.013287528428563114,0.986861524137235
2013-11-27,-1,-0.001784071458966618,-0.0016057814500421864,-0.00828781129565811,0.013287528428563114,0.9872647760500225
2013-12-02,-1,-0.000619848700107673,-0.0006175460082825037,-0.00828781129565811,0.013287528428563114,0.9870896064756941
2013-12-04,-1,-0.000125561843223517,-6.24532542393945e-05,-0.013522815385350467,0.011961901227519969,0.985441441394846
2013-12-06,1,0.0002452354251137462,0.00042784831253807375,-0.00828781129565811,0.009275631495787202,0.9871014560813706
2013-12-10,1,0.00046363222026389345,0.0006119418441317782,-0.00864799963799045,0.008125228151373499,0.9884820654379722
2013-12-12,1,0.0001301636019100397,0.0002647984614988259,-0.006064337981727156,0.009275631495787202,0.9881288463918246
2013-12-16,1,0.000199512564055464,0.0003489327731809077,-0.003859569193704967,0.009275631495787202,0.9883766823625805
2013-12-18,-1,-0.0002968812718505535,-0.0002961328753958315,-0.003859569193704967,0.009275631495787202,0.98612586913483
2013-12-20,-1,-0.00042570062807842623,-0.00039547479791039427,-0.0026920539978727825,0.013107577647194328,0.9856489910143681
2013-12-24,1,0.0002954610755192436,0.0004509044068515991,-0.005223166894155494,0.013107577647194328,0.9853602010587705
2013-12-27,-1,-0.0001403174038043092,-6.79730660421136e-05,-0.008088115133596294,0.013107577647194328,0.9844832073619773
2013-12-31,1,8.70953819216742e-05,0.0001314295943493975,-0.008088115133596294,0.012372296586335756,0.9849191199936858
2014-01-03,-1,-0.0005032254390878876,-0.000493277937451838,-0.010323573136535001,0.012372296586335756,0.9857877961273284
2014-01-07,-1,-0.00011265867758546703,-2.215750522436351e-05,-0.010323573136535001,0.012372296586335756,0.9858262805596544
2014-01-09,-1,-0.0002524433416439397,-0.0001934308676676997,-0.010323573136535001,0.013530618916901459,0.9853448823252526
2014-01-13,1,0.00023751573350801067,0.00038658520175816394,-0.010323573136535001,0.012876630708333925,0.9858192866963268
2014-01-15,1,0.0011629159101048218,0.001451316905744968,-0.010323573136535001,0.012876630708333925,0.9855690638377209
2014-01-17,-1,-0.0004337762093221158,-0.000343918615807492,-0.007223508321182723,0.012064444064378205,0.9887715641955861
2014-01-22,1,0.0005062280521542071,0.000708876561249715,-0.010323573136535001,0.008837232727286391,0.9867061000077889
2014-01-24,1,0.00024675911419879407,0.0003802508300638293,-0.010323573136535001,0.012876630708333925,0.9845977811974025
2014-01-28,-1,-0.00019120961780127142,-7.625306374377185e-05,-0.007223508321182723,0.013530618916901459,0.9829630626697105
2014-01-30,1,0.0003302419758486677,0.000512141195922466,-0.007223508321182723,0.013694932262379222,0.9830814449389464
2014-02-03,-1,-0.00028395835743601824,-0.00013432838052407234,-0.002355572545448321,0.016612169625707385,0.9827916827424199
2014-02-05,-1,-0.00052566534394831,-0.0004806661346575407,-0.002355572545448321,0.016612169625707385,0.9827822520943096
2014-02-07,1,5.7423782234497956e-05,0.00017679781467654554,-0.004632114138508934,0.016612169625707385,0.9833266486418084
2014-02-11,1,0.000971810821603151,0.0012480404189556902,-0.0065368360852541985,0.023172866405217887,0.9825632998360784
2014-02-13,1,0.0018263211896110665,0.0022047473485707794,-0.007912809166454555,0.016612169625707385,0.9831338988273434
2014-02-18,1,0.0017213356398090806,0.0021047013353616296,-0.007912809166454555,0.017622267715166447,0.9829385252810005
2014-02-20,1,0.0012415000856791417,0.0014893517682722365,-0.004918926381905222,0.017622267715166447,0.9845307106820989
2014-02-24,1,0.0017686352823385646,0.0020643872219032835,-0.0052447544035810496,0.015530048133013287,0.9854472230017196
2014-02-26,1,0.0024176331891372594,0.002815583379119481,-0.0052447544035810496,0.014742506943542705,0.9865130068568463
2014-02-28,1,0.002866369064886574,0.003341762547320145,-0.0052447544035810496,0.01062016991462704,0.9871748408867537
2014-03-04,1,0.0032762488417641226,0.0037366728749727626,-0.0052447544035810496,0.006363381834957095,0.987932646867419
2014-03-06,1,0.0035328083153809402,0.004035429089268414,-0.0052447544035810496,0.006363381834957095,0.9878267075893035
2014-03-10,1,0.0031731288562400345,0.003639301853395451,-0.005609770102017917,0.006363381834957095,0.9860099258939908
2014-03-12,1,0.003707143261073386,0.004241217781346517,-0.004648920165772666,0.008572920167546821,0.9865674326231845
2014-03-14,1,0.0028351090444434903,0.003228865798859819,-0.008054994452981745,0.008572920167546821,0.9847719153376471
2014-03-18,1,0.0035114390378379254,0.004006694285553758,-0.008054994452981745,0.00986454761172471,0.9846315364428847
2014-03-20,1,0.0029578679634391924,0.003198293786293852,-0.008054994452981745,0.008572920167546821,0.9862624318576801
2014-03-24,1,0.0013595836694073014,0.0014242520391109916,-0.001851704761253959,0.012208375946449974,0.9864254802612256
2014-03-26,1,0.0014842056427042535,0.0014871499998775246,0.00041015916324482825,0.0157517930434601,0.9829680351090408
2014-03-28,1,0.0022340666147502974,0.002372446736819524,-0.0027006261173539905,0.0157517930434601,0.9823379994002546
2014-04-01,1,0.0024894207110319495,0.00263928513830646,-0.005875013762487559,0.013216596528538946,0.9823737224022744
2014-04-03,1,0.0018846374349833232,0.0018943609586770899,-0.005875013762487559,0.013216596528538946,0.9822103822707542
2014-04-07,-1,-0.0007835906890678988,-0.0004664972736726661,-0.003561704015632016,0.01375144417877405,0.9829258886832122
2014-04-09,1,0.0009998422970633478,0.0010528748079072369,-0.007915861775247036,0.012499207661125403,0.9840444580818344
2014-04-11,-1,-0.0017734357385598616,-0.0013854073407459715,-0.0019900967577834443,0.01375144417877405,0.9842605613128698
2014-04-15,-1,-0.0017791627076062168,-0.00131132582129931,-0.005445015885998354,0.01375144417877405,0.9849124938121794
2014-04-17,-1,-0.00041207490695375343,-0.00019564978010192576,-0.007915861775247036,0.01375144417877405,0.9841710874526718
2014-04-22,1,0.0014036005707342807,0.0014037614042351361,-0.009870819030375773,0.009000926685000318,0.9852175805702289
2014-04-24,1,0.0014189257640708074,0.001432392121280761,-0.009870819030375773,0.005862687098435962,0.9894997984455125
2014-04-28,1,0.0008024910056773567,0.000858312999034853,-0.007915861775247036,0.009374419598037337,0.9896569670063251
2014-04-30,1,0.0006613332018403579,0.0007062437781573829,-0.005445015885998354,0.010383959568951124,0.9893437129341702
2014-05-02,1,0.0007326295185915059,0.0007858365039366392,-0.006089879616481446,0.010383959568951124,0.989005989947763
2014-05-06,1,0.0010117767304906973,0.0010532629797907083,-0.004896620242195891,0.013967835159454657,0.9863258250303112
2014-05-08,1,0.0004448870319078953,0.0005162992248352163,-0.004896620242195891,0.013967835159454657,0.9864890847328791
2014-05-12,1,0.001029720359342962,0.0010458449629295766,-0.004896620242195891,0.010333407867058341,0.9879123806675766
2014-05-14,1,9.264386744198077e-05,0.0002135918099422274,-0.003308081040084685,0.013967835159454657,0.9869339881469287
2014-05-16,-1,-0.001604604122522826,-0.0012600687799308999,-0.0010043905741269042,0.013967835159454657,0.9872228482043732
2014-05-20,-1,-0.0017123737506926078,-0.0013776448972177564,-0.0010043905741269042,0.013967835159454657,0.9872586915110769
2014-05-22,-1,-0.0013403469546098812,-0.0010289977440660959,-0.0014298667143936017,0.013967835159454657,0.9874480365148709
2014-05-27,1,3.254093677722714e-05,0.00014192836842199358,-0.005653112494840348,0.013148481041501845,0.987425967687043
2014-05-29,-1,-0.0002732584506874294,-6.0467458667842235e-05,-0.006680789875293948,0.01005242280625139,0.9878382038623328
2014-06-02,-1,-0.00021170741602740567,-5.4097869632400725e-06,-0.007043100751931875,0.013711282097044024,0.9872912765210201
2014-06-04,1,0.0022958491018006165,0.0023799116918046,-0.007043100751931875,0.008385919320584955,0.9902018897150576
2014-06-06,1,0.0024067736456186454,0.0025295587799347096,-0.008866875039205978,0.010463390154759356,0.9896533559776067
2014-06-10,1,0.002753210080405459,0.002967416669415293,-0.008866875039205978,0.011010987318804432,0.9892401747948213
2014-06-12,1,0.0026531107825820193,0.0027545535743869363,-0.008866875039205978,0.010052360847595856,0.9898413269456202
2014-06-16,1,0.003532905987144703,0.003824613089326115,-0.008866875039205978,0.010052360847595856,0.9898010928312344
2014-06-18,1,0.002758217017779181,0.0028713532758201012,-0.009219772297059892,0.00855071880899877,0.9891979382362022
2014-06-20,1,0.0027578578644853495,0.0027605211898612076,-0.009219772297059892,0.010052360847595856,0.9842266372629497
2014-06-24,1,0.0014491420123024172,0.001586713980592365,-0.00715081047393539,0.010052360847595856,0.9852174846917169
2014-06-26,0,-0.00011838612541080853,0.00028066931875076547,-0.014290071508716428,0.010052360847595856,0.9839776042833902
2014-06-30,1,0.00016273942238246024,0.0005213464541303516,-0.014290071508716428,0.010052360847595856,0.9844829152834673
2014-07-02,1,0.000684158025134545,0.0009574675013051406,-0.014658853589950765,0.00855071880899877,0.983983138389194
2014-07-07,1,0.0005663454399821175,0.0008325971227116689,-0.01439286852311354,0.008733251197013795,0.9839470252803345
2014-07-09,1,0.001150741055104818,0.001301425589619288,-0.01439286852311354,0.005785734327144962,0.9841433439511814
2014-07-11,1,0.00017840070275185595,0.0004724257211187686,-0.01439286852311354,0.004904992523920811,0.9843633051628514
2014-07-15,1,0.0008331698102356142,0.0009999895994499304,-0.01439286852311354,0.007769506694597773,0.98357978794048
2014-07-17,1,4.2517654926667965e-05,0.0002692899531375896,-0.01063235121511305,0.014934010344293931,0.98332697965968
2014-07-21,1,0.0026442943846649476,0.002761714349387519,-0.01063235121511305,0.007769506694597773,0.9881070774932994
2014-07-23,1,0.0020488191408751097,0.002102780331203283,-0.005670329726382223,0.014934010344293931,0.9879571809230122
2014-07-25,1,0.0010039885254131237,0.0010162254722232034,-0.0025961201668298676,0.014934010344293931,0.9892026023949986
2014-07-29,1,0.0015179047254372986,0.0015806588565175784,-0.0050775836613655085,0.010103527722093296,0.989418491050863
2014-07-31,0,-0.0001479523312089159,2.4086815855333906e-05,-0.0025961201668298676,0.013441111414386323,0.9900623898679093
2014-08-04,1,0.0011895623693988768,0.0012098084826609535,-0.004942203769855797,0.013441111414386323,0.9901208038807043
2014-08-06,1,0.0006217702266349005,0.0007096342465783159,-0.007664426818510361,0.013441111414386323,0.9893182728029093
2014-08-08,1,0.00029325420565317993,0.0003827755109126698,-0.006665541078964514,0.01659302525074727,0.989040701717221
2014-08-12,1,0.001779481317302148,0.0019619310220720864,-0.007664426818510361,0.013455270534220954,0.9890346921414802
2014-08-14,1,0.0012854152299569973,0.0012854310675711519,-0.007781698189562817,0.00905760948325119,0.9899040885094217
2014-08-18,1,0.001237304403094391,0.0012849250976509881,-0.00994188066422985,0.00905760948325119,0.9882699737569327
2014-08-20,1,0.002180848573886013,0.0022555768131680563,-0.00994188066422985,0.008221896165383765,0.987706678228815
2014-08-22,1,0.0018552249307813534,0.0019162877269567017,-0.010986838384293186,0.008221896165383765,0.9874804836298825
2014-08-26,1,0.001377447209809494,0.0013830341768507966,-0.010986838384293186,0.014337801585936984,0.9864463470875395
2014-08-28,1,0.0003480742159826133,0.0005902321783488955,-0.014330278594964264,0.016646057902542737,0.9853651833663911
2014-09-02,1,0.0012681074776690238,0.0013518452963707521,-0.014330278594964264,0.008991314937585683,0.9860596024470871
2014-09-04,-1,-0.001480232011920449,-0.0009563509551053478,-0.014950263044131116,0.008991314937585683,0.9831162495781498
2014-09-08,0,-7.584830443726858e-05,0.00024942337813752024,-0.015754144648840163,0.008991314937585683,0.9820466165836546
2014-09-10,-1,-0.0005439075870188326,-0.0001699006192817426,-0.016467202565402534,0.019204432532584147,0.9799560488883354
2014-09-12,-1,-0.00041814119827955577,-0.00014979933481678253,-0.021219308770317916,0.019204432532584147,0.9741923816152922
2014-09-16,1,0.0020431270620866306,0.002064725835842103,-0.024634890689704127,0.019204432532584147,0.9710005268432029
2014-09-18,1,0.0017582612624276559,0.0017902613613314361,-0.024634890689704127,0.019204432532584147,0.9702701847002679
2014-09-22,1,0.0009473028855398631,0.0010546707594350634,-0.024634890689704127,0.01935065112785815,0.9700747910922448
2014-09-24,1,0.0019956021348863334,0.0020211957875130274,-0.024634890689704127,0.01935065112785815,0.968210695860674
2014-09-26,1,0.0014909393781208685,0.0015358182556852217,-0.023420486145931195,0.030482346275650697,0.9683024114085512
2014-09-30,1,0.001017446189585975,0.0011246544012674493,-0.023420486145931195,0.030482346275650697,0.9678490206342313
2014-10-02,-1,-0.0012969224845818987,-0.0009604194658552435,-0.02119356879713226,0.030482346275650697,0.9697494173232404
2014-10-06,-1,-0.0015823053964291185,-0.0011790726132851084,-0.019430980706478706,0.03445133331570963,0.9686074846593141
2014-10-08,-1,-0.0023333614612152612,-0.001789407002201074,-0.011456735192565445,0.03159123641292809,0.9710331424469025
2014-10-10,-1,-0.00778555225807117,-0.006588989579750227,-0.006345977437523089,0.03159123641292809,0.9728277117901015
2014-10-14,-1,-0.006752185705925575,-0.005699545350819458,-0.0038080206978365477,0.027975041571794593,0.9771896353294791
2014-10-16,-1,-0.004653533123272484,-0.0038797871687751713,-0.004798474163877921,0.022286331177399917,0.9809037226946964
2014-10-20,-1,-0.0041575207107354606,-0.0034644326298992724,-0.004798474163877921,0.027975041571794593,0.9800879572442102
2014-10-22,-1,-0.003210973294176632,-0.002629845176224394,-0.003600505482775948,0.02733145988251081,0.9823057319851154
2014-10-24,-1,-0.000852603674523749,-0.000667993517355891,-0.003600505482775948,0.022286331177399917,0.9837943081873326
2014-10-28,-1,-0.0004328110131730998,-0.0002966247422949708,-0.004114445841172324,0.022728929976524266,0.9836614713607312
2014-10-30,-1,-0.0003826573280137789,-0.00025129931761855767,-0.004114445841172324,0.02300433746022896,0.9839604461884559
2014-11-03,1,0.001738862385100123,0.0018679306395578165,-0.004603144338301522,0.018826412302764554,0.9862761643063285
2014-11-05,1,0.002106617854389631,0.0022978233691663182,-0.004603144338301522,0.0208439570366393,0.9839082944244352
2014-11-07,1,0.0015577582623858472,0.0016754322965206062,-0.004603144338301522,0.018973945235806002,0.9854367429766439
2014-11-11,1,0.002309545128165185,0.0025553195844663797,-0.005062987071938289,0.01531226273097877,0.9856243633870172
2014-11-13,1,0.00149683553025869,0.0015661084754216544,-0.007277822612789614,0.02165670491103209,0.9842863882863846
2014-11-17,1,0.0018662786749011535,0.001957902000715379,-0.006884209427712994,0.01531226273097877,0.9855554284102581
2014-11-19,1,0.002734365454786473,0.0029522337802651774,-0.006884209427712994,0.02165670491103209,0.9836055518851821
2014-11-21,1,0.00299107531138155,0.003264121694627169,-0.007155808231233796,0.02299008656791116,0.9830067118752899
2014-11-25,1,0.0032653170449115157,0.003557587574583026,-0.008931910593456258,0.02299008656791116,0.9829407569585283
2014-11-28,1,0.004052178546978886,0.0044493889063367525,-0.011011049671991433,0.015608145292998171,0.9838499873731209
2014-12-02,1,0.0028580446611357483,0.0030703412489202753,-0.008931910593456258,0.015608145292998171,0.9849024403552648
2014-12-04,1,0.004437268538561464,0.0048614676495061775,-0.011011049671991433,0.009692655032538924,0.9859063991147169
2014-12-08,1,0.0035128012554099994,0.0037592223451031245,-0.011011049671991433,0.013517673038566248,0.9850306470302695
2014-12-10,1,0.004964954546721082,0.00556563539814039,-0.009830210116761572,0.018043228987854144,0.9834121072787186
2014-12-12,1,0.004759074524323844,0.005291798711439602,-0.009830210116761572,0.013517673038566248,0.9837059797768419
2014-12-16,1,0.003423229991814527,0.0036867790098891653,-0.014337025442066552,0.013517673038566248,0.9835414074425565
2014-12-18,1,0.005820883241431832,0.006407889735382837,-0.014337025442066552,0.013517673038566248,0.9839114824807247
2014-12-22,1,0.005598037188885331,0.006085077160935308,-0.014337025442066552,0.01810847360777755,0.9835719230711056
2014-12-24,1,0.005652014900883124,0.006185643362570922,-0.007235071090805505,0.0207830288298115,0.9835305001342995
2014-12-29,1,0.004774071774339999,0.0051793653647764695,-0.006087323375983452,0.0207830288298115,0.9838326795207384
2014-12-31,1,0.003939990689133111,0.004190122108357724,-0.012114647869387086,0.023059855984755857,0.982401500106998
2015-01-05,1,0.0037393170963349676,0.003993254606078062,-0.01183001065743817,0.023059855984755857,0.9827491520738978
2015-01-07,1,0.0032718057485175136,0.0034997395951850505,-0.011111531240583502,0.023059855984755857,0.9841953914043808
2015-01-09,1,0.004556417941075431,0.004972096696520966,-0.01183001065743817,0.0207830288298115,0.9846239511678726
2015-01-13,1,0.004256731615069087,0.0046658067042951844,-0.011111531240583502,0.023059855984755857,0.9846217124677409
2015-01-15,1,0.003143435614532613,0.0033720478454058343,-0.007920750088933061,0.023059855984755857,0.9853040949454281
2015-01-20,1,0.004539459593132979,0.004926102813170659,-0.007920750088933061,0.01947354700019579,0.9870356796915591
2015-01-22,1,0.005960247324876879,0.006553496249752217,-0.007920750088933061,0.011887414837183497,0.9881857470068041
2015-01-26,1,0.007058251775580296,0.00780830884862657,-0.007920750088933061,0.011887414837183497,0.9876124034143734
2015-01-28,1,0.006059686668610989,0.006610654995673863,-0.005556320930500929,0.011887414837183497,0.9881338432890074
2015-01-30,1,0.0066103816914531354,0.007274868655697202,-0.005556320930500929,0.011887414837183497,0.9878024553850209
2015-02-03,1,0.005830421107866481,0.006358077647595914,-0.005556320930500929,0.015197242375637238,0.9869003174171016
2015-02-05,1,0.004834560039222319,0.00518408672268893,-0.005556320930500929,0.015563238924444403,0.9866400371562509
2015-02-09,1,0.0037611715923357688,0.003983262896939665,-0.005556320930500929,0.015563238924444403,0.98700402956805
2015-02-11,1,0.005248285035156966,0.00572405000403617,-0.005556320930500929,0.015176593994590143,0.9885694490683314
2015-02-13,1,0.004405707704278747,0.00472279982220177,-0.0029074107667909272,0.015563238924444403,0.9870551882982105
2015-02-18,1,0.004933292228293796,0.005366411983109895,-0.0027401430445554414,0.015563238924444403,0.9875545269662912
2015-02-20,1,0.005172151481373783,0.005606880738188029,-0.0027401430445554414,0.021440298016398397,0.9862058750396305
2015-02-24,1,0.006090544098481853,0.006617554476378115,-0.003486898196098111,0.015563238924444403,0.9871659487947035
2015-02-26,1,0.004755594571423806,0.004961532765982426,-0.008896340882149445,0.015563238924444403,0.9830867947161211
2015-03-02,1,0.0049066845586127564,0.004973528439257665,-0.004395714192332574,0.015563238924444403,0.9821652911479685
2015-03-04,1,0.004014317408965433,0.004064247258369478,-0.009050579561906223,0.015176593994590143,0.9821194015134618
2015-03-06,1,0.001233288011805154,0.001741936320615982,-0.010184300775675684,0.013639502806133404,0.9826874491406538
2015-03-10,1,0.0020784803085816842,0.002710070574000506,-0.005249740928727608,0.013295781102955668,0.9831007006769854
2015-03-12,1,0.0029679166900508465,0.003369702445657825,-0.005249740928727608,0.016369952513978586,0.982280166872789
2015-03-16,1,0.004064188189994881,0.004364326180032163,-0.011770148506875642,0.013295781102955668,0.9817381947518954
2015-03-18,1,0.0047299206062109255,0.0049245036983589655,-0.011770148506875642,0.013295781102955668,0.9813540645652296
2015-03-20,1,0.006653366001092597,0.006705353616606785,-0.014662169729549816,0.006953179516173048,0.9816099421607279
2015-03-24,1,0.005889134634467653,0.005935461307878227,-0.014662169729549816,0.008635661675323609,0.9822670894939121
2015-03-26,1,0.0034904239946556325,0.0038238760893261553,-0.011740101701798407,0.008635661675323609,0.985061147804198
2015-03-30,1,0.008420008202110361,0.008823126072316197,-0.011740101701798407,0.006953179516173048,0.9858754412976732
2015-04-01,1,0.006950121468902995,0.007151214629495518,-0.010672728733319939,0.006953179516173048,0.9871477608234432
2015-04-06,1,0.004548799430242192,0.004642224272021293,-0.010482573500278331,0.009285309564351668,0.985877160285224
2015-04-08,1,0.004819538577373151,0.004884719805785586,-0.011558137682270412,0.007230794203543294,0.9837087264787393
2015-04-10,1,0.004829625316667775,0.004924618520860031,-0.011558137682270412,0.007230794203543294,0.9838672201494733
2015-04-14,1,0.0034451357828831903,0.0036721889675009533,-0.010222739899908403,0.007230794203543294,0.9855659722742725
2015-04-16,1,0.003344185782928587,0.0035523543248420393,-0.010222739899908403,0.009285309564351668,0.9851546725104967
2015-04-20,1,0.002640932486993311,0.0029312572069543474,-0.009544899874544618,0.013010005792238285,0.9831351146769922
2015-04-22,1,0.0031514709506475303,0.0033791627571028264,-0.009544899874544618,0.010093516611870808,0.9831352628621697
2015-04-24,1,0.002077246064946708,0.0023860069679500504,-0.004263348484829311,0.010093516611870808,0.9850261358320066
2015-04-28,1,0.001515295947874609,0.0019495372154690182,-0.006538006747310764,0.011721828681926744,0.9829986901677107
2015-04-30,1,0.0017545547245548358,0.002063062356609424,-0.004263348484829311,0.01664718178625922,0.9830833430328508
2015-05-04,1,0.004302839898814654,0.0043450297588229474,-0.006476993755177883,0.010959450056228323,0.9851353966943033
2015-05-06,1,0.001887411869698976,0.0022479199005706577,-0.006476993755177883,0.010959450056228323,0.9868315845447178
2015-05-08,1,0.002714189033694929,0.0029773511346017725,-0.009082422845001246,0.008104777788314383,0.9861564603990115
2015-05-12,1,0.0013924159132468784,0.0018598642799420833,-0.009082422845001246,0.010959450056228323,0.9857030786060653
2015-05-14,1,0.003264867019154826,0.0033802821400560875,-0.009082422845001246,0.008104777788314383,0.985478759915905
2015-05-18,1,0.005239173860119448,0.005386873932208909,-0.00708352856984207,0.008104777788314383,0.9874635647189868
2015-05-20,1,0.004881363230549867,0.004954203768452816,-0.00708352856984207,0.008538590751325952,0.9867075308531857
2015-05-22,1,0.004370074241025377,0.004407796085460951,-0.00708352856984207,0.0076634193168153225,0.9869822345126166
2015-05-27,1,0.005360857610680838,0.005411762382243206,-0.00708352856984207,0.0033262245826767784,0.9877184357283431
2015-05-29,1,0.004690383680862279,0.004762373110601251,-0.007866079804075735,0.0033262245826767784,0.987283472942768
2015-06-02,1,0.0036942196308147224,0.0039712732080802665,-0.009090048781243889,0.0076634193168153225,0.9855398779446679
2015-06-04,1,0.0034509698873488063,0.0036868472322766767,-0.005936831182315158,0.009547909244174322,0.9865731601001542
2015-06-08,1,0.001184892887835226,0.0017380923917429656,-0.008384200588942806,0.009547909244174322,0.986648357062576
2015-06-10,1,0.0018187655491652415,0.0023596497856237493,-0.014929946121572394,0.007161749884818839,0.9850885426161837
2015-06-12,1,0.002325359675305309,0.0027106888423011075,-0.014929946121572394,0.009547909244174322,0.9825834518113832
2015-06-16,1,0.0033908422699024422,0.0035738919370227194,-0.014929946121572394,0.010174904028900107,0.9813976182935092
2015-06-18,1,0.005103054676336373,0.005190846303081827,-0.014929946121572394,0.010174904028900107,0.9818474635266697
2015-06-22,1,0.00465259603990414,0.004664652930793944,-0.014929946121572394,0.010174904028900107,0.9818430702290231
2015-06-24,1,0.004274421183415448,0.0044211840882859435,-0.01742606276719024,0.013812895498578611,0.9798031926945071
2015-06-26,1,0.0034823897896534245,0.0037999865213578527,-0.031227084057823214,0.010426902848411808,0.9769674512270912
2015-06-30,1,0.0013687912587944774,0.0017991996019419588,-0.01760654763642402,0.010426902848411808,0.9790110598327798
2015-07-02,1,0.0004544058003824456,0.0010422300187081174,-0.01760654763642402,0.014757898314697947,0.9782817349887946
2015-07-07,0,-0.0005301425069951611,0.00011282318250387981,-0.03306766215545858,0.014757898314697947,0.9767656415282614
2015-07-09,-1,-0.0033311290198729648,-0.0023605112286678494,-0.03103053910525432,0.014757898314697947,0.9777768540189288
2015-07-13,-1,-0.0009828147040191687,-0.0002792129240564165,-0.03103053910525432,0.015617019416145643,0.9781043317321356
2015-07-15,-1,-0.000936305111802084,-0.0002877380017812497,-0.03103053910525432,0.01505000034339296,0.977759169983271
2015-07-17,1,0.000523460876770069,0.0009212454424535831,-0.03103053910525432,0.011963055094922185,0.9781462010120606
2015-07-21,1,0.0005090425688970362,0.0009167674264653181,-0.03553527680703361,0.01750467948692644,0.9748466873232549
2015-07-23,1,0.0016517673258159794,0.0018804425222096483,-0.035920875731714444,0.016833256854720258,0.9747414457382194
2015-07-27,-1,-0.003076947367898491,-0.0023410019386988223,-0.03103053910525432,0.017942723706349993,0.9773327930614147
2015-07-29,-1,-0.0022835522220648777,-0.0016217920498128428,-0.03103053910525432,0.017942723706349993,0.9750654318628319
2015-07-31,-1,-0.0024921018526999944,-0.001844699645028078,-0.03103053910525432,0.018793491926878243,0.9737730345914425
2015-08-04,-1,-0.00491229217542107,-0.004010385725738164,-0.025346945224482328,0.018793491926878243,0.9742558430608874
2015-08-06,-1,-0.0043101014952693344,-0.00353103355012514,-0.016405642871383266,0.022324261827722597,0.9742220781111082
2015-08-10,-1,-0.0018333929146313562,-0.0013383107854680418,-0.02274342177193115,0.018793491926878243,0.973500635085136
2015-08-12,-1,-0.001217401221807005,-0.0009032766805164657,-0.01697019261570341,0.01945430085006109,0.9733168621632649
2015-08-14,-1,-0.001812014767533639,-0.0014131695828678128,-0.01697019261570341,0.01945430085006109,0.9727597485380981
2015-08-18,-1,-0.004914731807103001,-0.004050632764070892,-0.014481233152640684,0.02035314527223609,0.9749044049391099
2015-08-20,-1,-0.004299792684798603,-0.003681032637742821,-0.014481233152640684,0.02035314527223609,0.9776159371451021
2015-08-24,-1,-0.005135585103187509,-0.004362406729696249,-0.014481233152640684,0.02035314527223609,0.9791572863982261
2015-08-26,-1,-0.0028571750886071247,-0.002323884156747029,-0.014973684873482879,0.01705699277851752,0.9811272267238157
2015-08-28,-1,-0.0010719941265612777,-0.0007847080634791386,-0.01634509520497133,0.016394957835392784,0.9799410859448701
2015-09-01,-1,-0.002763224177896899,-0.0023266899421838226,-0.014973684873482879,0.016422582127801642,0.9818402155011413
2015-09-03,-1,-0.0027329240219628173,-0.0022334632728199166,-0.014973684873482879,0.016387591584467353,0.9827900557660136
2015-09-08,-1,-0.0014026761698243354,-0.001053871663063931,-0.014973684873482879,0.015494292011393655,0.9847122659180313
2015-09-10,-1,-0.0016460654033220955,-0.0012563602716848395,-0.01634509520497133,0.015494292011393655,0.98224448035746
2015-09-14,-1,-0.0006836574498179909,-0.0004372572834616525,-0.01634509520497133,0.010301817797623788,0.9827721908321551
2015-09-16,-1,-0.000751687124272109,-0.0004288164122829577,-0.021577910028415553,0.005457467565772898,0.9825483483351418
2015-09-18,-1,-0.001548222631388686,-0.0011526417609396937,-0.021577910028415553,0.010301817797623788,0.9817846415142809
2015-09-22,-1,-0.003296041261000967,-0.00264487920238641,-0.020623755204553833,0.010301817797623788,0.9817103153364091
2015-09-24,-1,-0.001294187859209709,-0.0009980175005859582,-0.016185671132483457,0.010311025895093407,0.9805906119367039
2015-09-28,-1,-0.0038292105570713756,-0.0031535251115020367,-0.016185671132483457,0.0088391248045908,0.9809091732387205
2015-09-30,-1,-0.0023912579360236873,-0.0019486755264425573,-0.02096148019106581,0.0088391248045908,0.980263833958962
2015-10-02,-1,-0.00248953496475407,-0.0020034733850615577,-0.023190293982103705,0.01179428837497229,0.9777098608392604
2015-10-06,-1,-0.003672333610126946,-0.0030795573359808856,-0.02096148019106581,0.018363285969970757,0.9778865294471469
2015-10-08,-1,-0.002756545177400708,-0.00238496992466376,-0.011116196759982022,0.014331038470340628,0.9810622717029365
2015-10-12,-1,-0.0030290179878104803,-0.002720845521940904,-0.014728274250237216,0.018363285969970757,0.9773126874870115
2015-10-14,-1,-0.002900209282376226,-0.0025714813202890575,-0.016985625035473163,0.018363285969970757,0.9758060966995736
2015-10-16,-1,-0.001014086535202095,-0.0009998529869904825,-0.02096148019106581,0.014331038470340628,0.9750090114586346
2015-10-20,-1,-0.0013247292576793487,-0.0012901272442992432,-0.016985625035473163,0.01790589721628643,0.9747948875764062
2015-10-22,1,0.00026656802102943087,0.00042186056636197075,-0.02289530559411407,0.01790589721628643,0.9742592747331401
2015-10-26,-1,-0.0013015009420768464,-0.0012180584098330479,-0.016985625035473163,0.01790589721628643,0.9765356677930687
2015-10-28,-1,-0.0019553506358654157,-0.0017470181623178947,-0.0139385712599042,0.025063824387342448,0.9765636567589517
2015-10-30,-1,-0.000868344717668173,-0.0008491250977725678,-0.012923485473225207,0.021058906744876663,0.9783226310301327
2015-11-03,0,-2.6889288246152498e-05,5.4540610497470126e-05,-0.012923485473225207,0.015382041646537371,0.9790049468949495
2015-11-05,1,0.0008020325193048311,0.0010161416739287007,-0.01350336576145302,0.021058906744876663,0.9767263590109787
2015-11-09,1,0.003999533961910337,0.004709506665447489,-0.014007743638965522,0.015205948265943424,0.9807492257392566
2015-11-11,1,0.002468963529060111,0.002996687089354682,-0.013485564719796558,0.015205948265943424,0.9824554004937303
2015-11-13,1,0.00064304319274594,0.0009090260042751848,-0.014007743638965522,0.015205948265943424,0.9807159587939687
2015-11-17,1,0.0017012682579053708,0.002076097810249124,-0.014007743638965522,0.014081263975513961,0.9812161038832995
2015-11-19,1,0.0016805184204220869,0.0020615225568045665,-0.01424979242339979,0.011208859143350396,0.982929434903603
2015-11-23,1,0.0017705141545349841,0.0021754720550059845,-0.01424979242339979,0.014081263975513961,0.9825307501539616
2015-11-25,1,0.002284057439195198,0.002672071173494522,-0.01424979242339979,0.011208859143350396,0.9835559521678171
2015-11-30,1,0.0021589031335231632,0.0024628630716862585,-0.01424979242339979,0.009866118282353436,0.9842202258618258
2015-12-02,1,0.003866665025067871,0.004543114408233153,-0.01612583017734312,0.005970230189561869,0.9819412300220219
2015-12-04,1,0.00527163989984341,0.006162387362791989,-0.020635035276722415,0.005970230189561869,0.9810199897592821
2015-12-08,1,0.004938217941115396,0.0059311512216694146,-0.029033927812220656,0.004283077884380667,0.9775496053702629
2015-12-10,1,0.004451292434138197,0.0053860957442768975,-0.029033927812220656,0.003844149972034422,0.9781915716853489
2015-12-14,1,0.0011890398954525951,0.001789008106440451,-0.02088349819305253,0.00900899629690144,0.9798967955276872
2015-12-16,-1,-0.0008910664226777841,-0.0007275668285449013,-0.029033927812220656,0.00900899629690144,0.9767079861103921
2015-12-18,-1,-0.0005323312321149039,-0.0003676616963786603,-0.029033927812220656,0.010799886950151431,0.9770019962743426
2015-12-22,1,0.0007092041810962381,0.0010458511998928607,-0.029033927812220656,0.014170702636516284,0.9741540768951177
2015-12-24,-1,-0.0001050093927820757,-1.749035218485853e-05,-0.029033927812220656,0.014170702636516284,0.9735034535141637
2015-12-29,-1,-0.00010528508611747922,-7.357917524579765e-05,-0.03625710041953082,0.01587211926539558,0.9695170929961608
2015-12-31,-1,-0.0015946129557402188,-0.0015155009666609843,-0.035489278798825796,0.022177830098979615,0.9681781975315408
2016-01-05,-1,-0.0028988004385361987,-0.002797707692225265,-0.0328589833646908,0.022177830098979615,0.9696009125218275
2016-01-07,-1,-0.006181203151944292,-0.005695598628904122,-0.027387709093349935,0.022177830098979615,0.9704736980459494
2016-01-11,-1,-0.007245994514925345,-0.006596910256276728,-0.04532905521767492,0.022177830098979615,0.9679092326738058
2016-01-13,-1,-0.009608849467727443,-0.008625803550409645,-0.031511561562130155,0.022177830098979615,0.9705170877785053
2016-01-15,-1,-0.0097235665884522,-0.00864393936036894,-0.024446434942823343,0.028293999934336723,0.9696721462522004
2016-01-20,-1,-0.007100980238754193,-0.006409280002257425,-0.02605158067031669,0.03314000364634344,0.9684605421913655
2016-01-22,-1,-0.003582061143437246,-0.003339066058589013,-0.02605158067031669,0.022960668895980082,0.9708521702337672
2016-01-26,-1,-0.005838170470165142,-0.0052742555176093185,-0.02622741361169221,0.022960668895980082,0.9700155683415249
2016-01-28,-1,-0.005383004565666078,-0.00493212158763575,-0.025800243584690276,0.018052565326661343,0.9732643304211008
2016-02-01,-1,-0.002512014700293473,-0.0024506346211476083,-0.025800243584690276,0.020963592669437987,0.9729248400257464
2016-02-03,-1,-0.0038784962805663717,-0.003680207074865759,-0.024136486876738424,0.020963592669437987,0.9731633723330736
2016-02-05,-1,-0.00550901276754792,-0.005169766144187614,-0.021028180649456392,0.02587990189558649,0.9731330097173613
2016-02-09,-1,-0.007235752008609176,-0.00674251377978998,-0.011541740387681746,0.02587990189558649,0.972805043391905
2016-02-11,-1,-0.00841775531053964,-0.007769752279123155,-0.004620697605980353,0.03314000364634344,0.9705953996759509
2016-02-16,-1,-0.005746193140838093,-0.005377990294361455,-0.004620697605980353,0.020963592669437987,0.9757830874821679
2016-02-18,-1,-0.005236143468219113,-0.004940501657242257,-0.001108208848321468,0.01916010033871967,0.9776202681314126
2016-02-22,-1,-0.004299638544293735,-0.0040428937362436135,-0.001108208848321468,0.02013317800525514,0.978371232516962
2016-02-24,-1,-0.0038600446553801043,-0.0036974462257302184,-0.0019607058531199706,0.02013317800525514,0.9804521555553377
2016-02-26,-1,-0.0028309926877981284,-0.0027943569591358953,-0.0020191561878535155,0.02013317800525514,0.9813727327655617
2016-03-01,-1,-0.0008597235923229087,-0.0007058594922201677,-0.004570951337934509,0.0166889531696206,0.9852443954923493
2016-03-03,-1,-0.0009534956110005147,-0.000834191301814569,-0.0020191561878535155,0.016419655834131786,0.9866910586920821
2016-03-07,1,0.00026384108652205613,0.0005557437723367288,-0.005623841894440593,0.012418323425424194,0.9883728669782744
2016-03-09,-1,-0.0007636184297562928,-0.0006431652691153468,-0.005623841894440593,0.012146894494155448,0.9896974471869278
2016-03-11,1,0.0005504621687540081,0.0008890176201108758,-0.005623841894440593,0.009902946311480735,0.9917243200581626
2016-03-15,1,0.0008003074451813672,0.0011471440240524398,-0.006305958843588146,0.010784561447062923,0.9896976728734804
2016-03-17,1,0.0019508336604576644,0.0025385219520537277,-0.007929409104940166,0.005057960818288107,0.9890288544737482
2016-03-21,1,0.0022483660973734282,0.002781630917203184,-0.00940028529992752,0.001383673766613137,0.9880296371695556
2016-03-23,1,0.0018911350116171245,0.0023897897136476963,-0.012577611018988856,0.004807038691723008,0.9878251726035137
2016-03-28,1,0.001994183513487519,0.002527140550051747,-0.012577611018988856,0.001383673766613137,0.9874113927443424
2016-03-30,1,0.0027954799300082757,0.0034829450949850553,-0.012577611018988856,0.004807038691723008,0.9874482420737876
2016-04-01,1,0.003347520337017628,0.004144019132506663,-0.01600978318896734,0.0025963764658797454,0.9832853564702633
2016-04-05,1,0.004256454006332818,0.005192190030480182,-0.01600978318896734,0.005478576279032528,0.9836993304247587
2016-04-07,1,0.0028123494953182842,0.0034966636807444323,-0.01720609185980551,0.0016075196290496437,0.9832560448472475
2016-04-11,1,0.0013941407359228325,0.0017750686285046252,-0.016540578961007205,0.004991944603270406,0.9844884376125611
2016-04-13,1,0.0023268794304956834,0.002895456971882962,-0.014065085854646954,0.004385818974026796,0.9861518922963693
2016-04-15,1,0.0017373342215558437,0.0022600771555851625,-0.015015748751124134,0.004385818974026796,0.9847214835806283
2016-04-19,1,0.000644589888182875,0.0010182691412860385,-0.013807686919676807,0.004991944603270406,0.985621814469769
2016-04-21,1,0.0011693075034012212,0.0016841358662554398,-0.01245717907459482,0.004991944603270406,0.9851207676179282
2016-04-25,1,0.0015408454330886826,0.0021736133171082403,-0.01245717907459482,0.009949736007108998,0.9837969251513021
2016-04-27,1,0.0027928264282538855,0.003641954197819158,-0.01245717907459482,0.007343200553354977,0.983922771936827
2016-04-29,1,0.0010629696736776705,0.0017713460463637037,-0.00615031828374646,0.007343200553354977,0.9877571815071554
2016-05-03,1,0.0014148091517099753,0.0021638766825395946,-0.00615031828374646,0.00819865232324455,0.9876483025421051
2016-05-05,1,7.81933802466374e-05,0.00061360087841912,-0.0032313701545958772,0.00819865232324455,0.9887675021241078
2016-05-09,-1,-0.0006750745198027294,-0.00038604951699458675,-0.005686432527356379,0.012248165136772841,0.9866455732659263
2016-05-11,-1,-0.0005000962764995846,-0.0001676566117059788,-0.0070611595880686875,0.012248165136772841,0.9865152324646164
2016-05-13,-1,-0.002704827270093463,-0.002703597427180417,-0.0067470913136788305,0.012248165136772841,0.9868927473657518
2016-05-17,-1,-0.0011296050774118613,-0.0008576643367393523,-0.0067470913136788305,0.00819865232324455,0.988546302072808
2016-05-19,0,-0.0003777468656466479,2.7778447703971122e-05,-0.0067470913136788305,0.00596508422885776,0.9895104381616787
2016-05-23,1,0.001497954949233133,0.002189172654811692,-0.007822585020090322,0.00509214612122692,0.9895852883238295
2016-05-25,1,0.001209861277000647,0.0017673784984499807,-0.007822585020090322,0.00509214612122692,0.9887752182712005
2016-05-27,1,0.00079459126246256,0.0012007140924391619,-0.010792619566392566,0.004284114458984499,0.9821687272677149
2016-06-01,-1,-0.00044218423826523966,-0.0004212210300135787,-0.010792619566392566,0.01015385670244097,0.9799441263230338
2016-06-03,-1,-0.0008541882234800428,-0.000762440009326621,-0.011159219812936055,0.024573068001464082,0.9790820954943303
2016-06-07,-1,-0.001213928196126124,-0.0010010315667052599,-0.011185377671031838,0.010433840168876904,0.9784775756768296
2016-06-09,-1,-0.0020052148738335046,-0.0017303807817157333,-0.011185377671031838,0.02594753549108769,0.9757903063091158
2016-06-13,-1,-0.003312062789225365,-0.0028976415212510287,-0.008258853376661343,0.027740230801015727,0.9750918743330041
2016-06-15,-1,-0.0016515488015478492,-0.0015621167474813434,-0.008258853376661343,0.028657283737813517,0.9737377178491131
2016-06-17,-1,-0.0024536930609878856,-0.002243354943611587,-0.00698669103678221,0.028657283737813517,0.9730275959576279
2016-06-21,-1,-0.0019265076546905293,-0.0017233943039830107,-0.005748991940368913,0.027740230801015727,0.9739821517884494
2016-06-23,-1,-0.0003025836501776289,-0.0002472983266706237,-0.007815705346823375,0.02570690008718583,0.9707548540635784
2016-06-27,-1,-0.005576450636516319,-0.004756258578557597,-0.0013464160612199525,0.02570690008718583,0.9745792217801947
2016-06-29,-1,-0.0044939547119705325,-0.0037062880927242535,-0.0013464160612199525,0.02171121289192046,0.9776753471621146
2016-07-01,-1,-0.005173412025335344,-0.004177681859233914,-0.0013464160612199525,0.019723913781357624,0.978783277134499
2016-07-06,-1,-0.007633027224356256,-0.006313151542727574,-0.005731758223424073,0.019723913781357624,0.9800247474620665
2016-07-08,-1,-0.0031015448637661414,-0.0024649876283260866,-0.005731758223424073,0.018318963499825452,0.9831579859718899
2016-07-12,-1,-0.0014360312230801975,-0.0010344320266203189,-0.006787273876001701,0.016300481547635026,0.9847689026300666
2016-07-14,0,-1.8056118555282905e-05,0.00017176159037067323,-0.0072790089920188586,0.015312274844097577,0.9857341833886708
2016-07-18,1,0.00033629736047688423,0.0004988610004355631,-0.0072790089920188586,0.015312274844097577,0.9852324727932
2016-07-20,1,0.0008887693974548454,0.0009635555632409968,-0.0072790089920188586,0.014505179920369565,0.9859807787453833
2016-07-22,1,0.0010870343277471059,0.0011781715257833747,-0.0016925100397642153,0.014505179920369565,0.9899123933837508
2016-07-26,1,0.0013221375448258794,0.001436009229350894,-0.0016925100397642153,0.015286855716735989,0.9898125078456516
2016-07-28,1,0.0029228019723786794,0.003310156407425679,-0.006673513074563272,0.015286855716735989,0.9896450308753586
2016-08-01,1,0.0024199676839410235,0.002704628934928789,-0.0005812141206046691,0.015286855716735989,0.9896863890641685
2016-08-03,1,0.002085119868840569,0.0023661628032559086,0.001694765827653918,0.015286855716735989,0.9899979432057564
2016-08-05,1,0.003321483964756746,0.003783453223568026,-0.00048564743524681,0.014407154804013802,0.9914059820950297
2016-08-09,1,0.003749076579261175,0.0042985299127249535,-0.006354637323658498,0.010218750224091936,0.9906895666272288
2016-08-11,1,0.004544407402705064,0.005258039943866212,-0.007132296304476805,0.008581533617645621,0.9878939628286003
2016-08-15,1,0.005416730255192173,0.006233450664307191,-0.007132296304476805,0.010218750224091936,0.9878052399657545
2016-08-17,1,0.006225635062108553,0.007153393247031625,-0.007132296304476805,0.015187453780785684,0.9835450771674529
2016-08-19,1,0.007292262647170516,0.008387242362666443,-0.009537484683247782,0.0143740208253637,0.9828247995341889
2016-08-23,1,0.007913020419012772,0.009093193157698496,-0.009537484683247782,0.01365053158462845,0.9823336340530398
2016-08-25,1,0.007753775616531943,0.008880144143711317,-0.01253803232016326,0.010038855546789922,0.9812945717541941
2016-08-29,1,0.008194628650142522,0.009382532005043825,-0.01325172307364064,0.013834336793457653,0.9794413655563378
2016-08-31,1,0.007573351006569813,0.008642156624316747,-0.013261392396742105,0.013834336793457653,0.9794507073425806
2016-09-02,1,0.007624166714359974,0.008726739289177499,-0.013261392396742105,0.014970507161502437,0.9780213302503822
2016-09-07,1,0.005933982705997102,0.006755213862685117,-0.011062304293903586,0.015540804300026547,0.9798043360827405
2016-09-09,1,0.002920891510943176,0.003268109239294879,-0.006306515497360991,0.01765727628911145,0.982614698169081
2016-09-13,1,0.0038279505576218915,0.004274169959385488,-0.009396945203696553,0.015540804300026547,0.9833234912275652
2016-09-15,1,0.007620473021183766,0.0085339775391905,-0.011062304293903586,0.013879407503108784,0.9856074651627882
2016-09-19,1,0.007453761693245258,0.008374023598689901,-0.010973676677448883,0.013879407503108784,0.9858007330127797
2016-09-21,1,0.006168196383386637,0.006773232786803018,-0.010973676677448883,0.013065914328178442,0.9865269704143722
2016-09-23,1,0.005068785937393931,0.005516764441760552,-0.009396945203696553,0.013065914328178442,0.9877717168164027
2016-09-27,1,0.003862823742256101,0.004064678735560627,-0.008200413984519803,0.012581070367815065,0.9890895065025175
2016-09-29,1,0.0034595582785921807,0.0036155681498274556,-0.007744667925445941,0.012581070367815065,0.9891820134554202
2016-10-03,1,0.004043922198714011,0.004246482816312612,-0.007744667925445941,0.012581070367815065,0.9897060534654846
2016-10-05,1,0.0036151195120803347,0.0036530529464341315,-0.009309594811512157,0.004968132841919535,0.9894017996402105
2016-10-07,1,0.004350065439287995,0.004513742609992963,-0.009309594811512157,0.0038505201654664327,0.9895453019139082
2016-10-11,1,0.004089478809184732,0.004223518637319392,-0.008526837155409465,0.0038505201654664327,0.9892315454157149
2016-10-13,1,0.003882109397540384,0.004072977625385752,-0.008526837155409465,0.004539817742092689,0.989679010810587
2016-10-17,1,0.0034107016725537127,0.003533808597505199,-0.008526837155409465,0.004539817742092689,0.9890833814798999
2016-10-19,1,0.003577659944947767,0.003717999617919367,-0.008526837155409465,0.004539817742092689,0.9883385365617011
2016-10-21,1,0.0032591686028526413,0.003364306329573267,-0.0077592124584509444,0.007309279069238603,0.9880456889868318
2016-10-25,1,0.003126429768888343,0.0031856162664517583,-0.0077592124584509444,0.0063874016830956695,0.9885454356764093
2016-10-27,1,0.002985739892324592,0.003075311891123452,-0.01359487182213605,0.0063874016830956695,0.9876307793432384
2016-10-31,1,0.0023581643945637756,0.002379156149769102,-0.011024369524897203,0.0053796604675772275,0.9891737517117344
2016-11-02,1,0.0002232106088745215,0.0005744161056365759,-0.00803864203630445,0.0053796604675772275,0.9870315308954978
2016-11-04,0,-0.0001253600283173317,0.0002798465539036361,-0.00803864203630445,0.011949507308412424,0.9854843514891901
2016-11-08,1,0.00023754663814936207,0.0006415046262637073,-0.00803864203630445,0.01603108672611441,0.9853923143543907
2016-11-10,0,-0.00041799591565628213,5.422393375867406e-05,-0.00803864203630445,0.01857747031119917,0.9836596162541342
2016-11-14,-1,-0.0012134181993581918,-0.0006324390876433993,-0.005770953296631089,0.01857747031119917,0.9838382065290732
2016-11-16,-1,-0.002741759561015775,-0.0018096351605976675,-0.00983961553258168,0.01857747031119917,0.9826475753456376
2016-11-18,0,-0.0005464903312980681,2.9165365570241013e-05,-0.00983961553258168,0.01603108672611441,0.9837172051728498
2016-11-22,0,-6.273514590835264e-05,0.0004471151908415922,-0.011346220166908222,0.01603108672611441,0.983611576452608
2016-11-25,-1,-0.0027234041525486777,-0.0018067730952623798,-0.006062820010384155,0.01603108672611441,0.9840590847780561
2016-11-29,-1,-0.0013758809540726624,-0.0007498356909483792,-0.009211393879202627,0.01603108672611441,0.9834990559128038
2016-12-01,-1,-0.0032475569864995665,-0.00249088424670413,-0.009211393879202627,0.01603108672611441,0.9851795497971431
2016-12-05,-1,-0.0014210965892448358,-0.0009150208953501329,-0.009211393879202627,0.0096549052747806,0.9870907977330858
2016-12-07,1,0.00022053126750096348,0.000509847589151386,-0.009211393879202627,0.00695479705248216,0.9880431876489589
2016-12-09,1,5.5125847223997716e-05,0.00034452842782563785,-0.0067534492080189,0.008148042997072325,0.9895278830651393
2016-12-13,-1,-0.0016724573177770519,-0.0011949970982034655,-0.007255650752794414,0.008452826132612584,0.9887167927992773
2016-12-15,-1,-0.001152369295055776,-0.0007626782136067136,-0.007255650752794414,0.008452826132612584,0.9892198668137282
2016-12-19,-1,-0.0009738432253279907,-0.0006123742655486473,-0.01034315794390777,0.010407021108998672,0.9878475995218153
2016-12-21,-1,-0.0016632040413778956,-0.001277480689630468,-0.0071307038962539464,0.01490054719698644,0.9828513003324569
2016-12-23,-1,-0.002061124665019655,-0.001564791470988527,-0.0071307038962539464,0.017834078982300182,0.9822909496433623
2016-12-28,-1,-0.001994027405842447,-0.0015652601966715642,-0.006916416131053689,0.017834078982300182,0.9822646502061703
2016-12-30,-1,-0.003315366747836453,-0.0027424371461381167,-0.006540806887989879,0.017834078982300182,0.9821435433642136
2017-01-04,-1,-0.0030387032324191224,-0.0025069175563800236,-0.007490667786954553,0.017834078982300182,0.982362300620803
2017-01-06,-1,-0.0024055292352661408,-0.0020031330853732205,-0.007490667786954553,0.017834078982300182,0.9825598969875843
2017-01-10,-1,-0.0009562252749896653,-0.0007405371550738799,-0.007490667786954553,0.01490054719698644,0.9841122896554426
2017-01-12,-1,-0.0007173317010600571,-0.0005832340649839082,-0.004968079059182347,0.012470016864585438,0.9852577124706136
2017-01-17,-1,-0.00022116045690646094,-0.00018398081695339486,-0.004968079059182347,0.010735177953934373,0.986489190191541
2017-01-19,1,0.000669119507284402,0.0007597592006592516,-0.0031925687167007025,0.009042926355454513,0.9882787457033503
2017-01-23,1,0.0038677454291687983,0.004401992648607121,-0.0031925687167007025,0.005831016313435413,0.9920514780410706
2017-01-25,1,0.004326563313003753,0.004906774594744786,-0.0038256102660012476,0.004650863303268941,0.9921393695845534
2017-01-27,1,0.004200721325017978,0.004752615904241073,-0.0037088529494940974,0.004650863303268941,0.9924018498888556
2017-01-31,1,0.0031833211129968474,0.003511203821434092,-0.0037088529494940974,0.004650863303268941,0.9924344556503198
2017-02-02,1,0.0010316244078576705,0.001158798078519094,-0.0037088529494940974,0.004650863303268941,0.9917688218399098
2017-02-06,1,0.0018549781511851382,0.0018985259032244458,-0.004743002562121908,0.004812009688706167,0.9916749074645338
2017-02-08,1,0.003264592400020811,0.003697703214097989,-0.004743002562121908,0.0063144554697470885,0.9912577193527365
2017-02-10,1,0.0031189198286270593,0.0035027753241834974,-0.004743002562121908,0.009024693066019576,0.9911762904277981
2017-02-14,1,0.0029769689486068467,0.0033542572918967613,-0.002940827441411765,0.009024693066019576,0.9915429450338054
2017-02-16,1,0.002610600184601605,0.002878137150810218,-0.004743002562121908,0.009024693066019576,0.9906570690029064
2017-02-21,1,0.0034904536834306395,0.0038400124930260578,-0.006943808856451215,0.006377584392300367,0.9909577610710489
2017-02-23,1,0.002671235505963902,0.0028836498158844185,-0.004743002562121908,0.009024693066019576,0.9912817694524045
2017-02-27,1,0.0031010125985403317,0.003418392599532696,-0.002940827441411765,0.008407497213685639,0.9916153910912285
2017-03-01,1,0.0039035916250929085,0.004387307299637558,-0.002940827441411765,0.007782994177320434,0.9922208464219289
2017-03-03,1,0.0035223411177879027,0.003993630690967732,-0.002491699064228096,0.008407497213685639,0.9930523811229088
2017-03-07,1,0.003461907648195288,0.003921985265672166,-0.002491699064228096,0.008909373278566852,0.9925819910985532
2017-03-09,1,0.0035546648395850325,0.003964339955894808,-0.0025565805794289373,0.008407497213685639,0.9927598445378664
2017-03-13,1,0.0039061742992938416,0.004334379649469856,-0.002702261472363462,0.007782994177320434,0.9919107944484278
2017-03-15,1,0.004074663322721628,0.004552289066879614,-0.00525954776952816,0.007782994177320434,0.9899196895423878
2017-03-17,1,0.003401658108204797,0.0037721428034374928,-0.0032936509387315686,0.008557442832052885,0.9903197646704547
2017-03-21,1,0.0024938159961264967,0.002754258373467806,-0.002702261472363462,0.008557442832052885,0.9918911191016282
2017-03-23,1,0.002550258740181342,0.0027886675648583817,-0.002702261472363462,0.008557442832052885,0.9914266847153466
2017-03-27,1,0.002533837146001957,0.00275478041486328,-0.002702261472363462,0.010328120279464365,0.990808752269415
2017-03-29,1,0.0018519253955167868,0.0019192986315002087,-0.002702261472363462,0.012267601527597538,0.9904342307376179
2017-03-31,1,0.0018833085557361385,0.001950061951360093,-0.0032936509387315686,0.012267601527597538,0.9887225787851627
2017-04-04,1,0.0027450217928847503,0.0029807417006573193,-0.0032936509387315686,0.00944857935604134,0.9890621650668278
2017-04-06,1,0.0022452417795469446,0.0023713196620722497,-0.0033931591298121885,0.00944857935604134,0.9890577506958436
2017-04-10,1,0.002173428448159182,0.002223787731124226,-0.00450956119259591,0.00871432151204361,0.9896976179674479
2017-04-12,1,0.0010099653590002458,0.0010592985962135702,-0.0005287783680140856,0.00871432151204361,0.991501124793282
2017-04-17,1,0.001797559916853288,0.0018946791252097313,-0.00044066885723384095,0.00871432151204361,0.9916833051218639
2017-04-19,1,0.002061429570177215,0.002217632866806698,-0.0017420367420620496,0.009742411599186297,0.9886491535579536
2017-04-21,1,0.0020991809077919145,0.0021875825109565717,-0.0017420367420620496,0.009742411599186297,0.9884094814212575
2017-04-25,1,0.002655818324474645,0.002814877839376009,-0.0017420367420620496,0.009379578080106615,0.9891572860067359
2017-04-27,1,0.0008800276049236686,0.0010845414096257778,0.0003070797365138226,0.00871432151204361,0.9896458204399489
2017-05-01,0,-1.908816034293674e-05,0.00022144143421019553,0.0005855959765407769,0.00871432151204361,0.9910921229394652
2017-05-03,1,0.0009977200885035768,0.0010719501463107236,0.0002743179260163059,0.009379578080106615,0.9916377511020689
2017-05-05,1,0.0006218624370009461,0.0007442629314676068,0.0002743179260163059,0.009379578080106615,0.9915670565417646
2017-05-09,1,0.0005251283852618279,0.000668110334704311,0.0002743179260163059,0.01080659048135456,0.9913184638099001
2017-05-11,1,0.00055994722640509,0.0006990857576200633,-0.001011503344838277,0.01183242029908736,0.9891528224800359
2017-05-15,1,0.0007379700297898354,0.0008677262200762704,-0.0016835023203999567,0.010814934231334374,0.987843779006626
2017-05-17,-1,-0.0006720044370894259,-0.0003604505704362282,-0.002013239904758481,0.010496632304854038,0.9893902729520677
2017-05-19,1,0.0004885553162694334,0.0006524265803696742,-0.0025380807301285,0.010496632304854038,0.9899772591860935
2017-05-23,1,0.00037064934833670727,0.000576342465702799,-0.002939918158012646,0.010814934231334374,0.9887727643447797
2017-05-25,0,-0.00027894919469728923,6.190228921886963e-05,-0.002939918158012646,0.010999160618912828,0.9886516006517138
2017-05-30,-1,-0.000383536117848447,-2.3233393724083175e-05,-0.021891373204490444,0.010999160618912828,0.9858809187196984
2017-06-01,0,-0.00034341162579949714,2.233804624793192e-05,-0.022678655870045028,0.010566384850693339,0.9851427035004171
2017-06-05,1,7.814162972450518e-05,0.00035446610895468013,-0.022678655870045028,0.010566384850693339,0.985052622428008
2017-06-07,1,0.00011690683368387157,0.00041570909803682497,-0.022678655870045028,0.010566384850693339,0.9846971164489459
2017-06-09,-1,-0.0009515594131647965,-0.0005167447497012782,-0.021884569134931465,0.010566384850693339,0.9861807757842252
2017-06-13,-1,-0.0016728379304362861,-0.001173420665065622,-0.010173648707232738,0.010133299339950743,0.9872484818879431
2017-06-15,1,9.38046353023736e-05,0.00034285645166441615,-0.004375819514979638,0.011079984861233082,0.9873714226199624
2017-06-19,1,0.0010802374926856368,0.0011749821268129312,-0.0064269142214845735,0.010207533445133313,0.9881140960110557
2017-06-21,1,0.0005464697285508437,0.0007081957171235019,-0.0029937218035575434,0.011079984861233082,0.9881009130870703
2017-06-23,1,0.0006340432795006191,0.0007894571215346744,-0.0064269142214845735,0.010536907068094604,0.9877973027488532
2017-06-27,-1,-0.0017445194294694382,-0.001296548032004516,-0.0016526080502464128,0.010536907068094604,0.9895817181057289
2017-06-29,-1,-0.0025643750030398525,-0.002021000587562084,-0.002173012363077657,0.010536907068094604,0.9900664186842971
2017-07-03,-1,-0.002964988522802463,-0.0023760306066540598,-0.003712497701433238,0.010536907068094604,0.9897197500499645
2017-07-06,-1,-0.0019048984089755625,-0.0014471579812809121,-0.005878339040918917,0.009952273408904585,0.9901804844618287
2017-07-10,-1,-0.0013069622857536118,-0.0009080587796729391,-0.005878339040918917,0.009952273408904585,0.9901155129101794
2017-07-12,-1,-0.0006427042355060503,-0.0003264888321449207,-0.005878339040918917,0.009133206774181345,0.9909045109170941
2017-07-14,1,0.0013837906506794968,0.0014145365074193135,-0.0070802212120384955,0.007808639875290481,0.9897189159681474
2017-07-18,1,0.0008192220955687746,0.0008851936157519385,-0.0063233566162034655,0.01043087972035179,0.9891565391323552
2017-07-20,1,0.0022180647509216197,0.0023320913124219474,-0.00920864672390863,0.005621544013547848,0.9889028270479459
2017-07-24,1,0.001757213118940439,0.0018272822547523806,-0.00920864672390863,0.005621544013547848,0.9892214929165413
2017-07-26,1,0.0016354554067066337,0.001642833249999477,-0.00920864672390863,0.0042132451515264,0.9886262211165532
2017-07-28,1,0.0009004109928873732,0.0009836990448182509,-0.0063233566162034655,0.0042132451515264,0.9891620878134585
2017-08-01,1,0.0007882474928679816,0.0008506369919552276,-0.006739979596288418,0.007635528965866698,0.9889185000871591
2017-08-03,1,0.00034234112379870525,0.0004226053610189369,-0.003452560625293167,0.014134082326478111,0.9884377611958529
2017-08-07,1,0.0013059509531213743,0.0013382301537507746,-0.003452560625293167,0.013077267608487516,0.989063523994685
2017-08-09,1,0.0009430307419225225,0.000983453458459882,-0.005581721843799537,0.013077267608487516,0.9886772526631004
2017-08-11,-1,-0.0002954556860177202,-6.033713856339474e-05,-0.005581721843799537,0.013077267608487516,0.988856112413292
2017-08-15,1,0.0008200838065104974,0.0009152704595874869,-0.005581721843799537,0.009327860538333968,0.9897994009540084
2017-08-17,-1,-0.0004905669927371478,-0.0002479286282311763,-0.0035072971424693206,0.013077267608487516,0.990445992049756
2017-08-21,-1,-0.001075975045641013,-0.000759877678615875,-0.0035072971424693206,0.013077267608487516,0.9898521333647902
2017-08-23,-1,-0.0003539542056865295,-0.00013100376225674403,-0.008468490851830933,0.009327860538333968,0.9883817758372739
2017-08-25,-1,-0.0004506142846995438,-0.00024583099165156614,-0.012746680361525565,0.010197049798918873,0.9865802123520068
2017-08-29,-1,-0.0006977905503706779,-0.0004586474879067045,-0.00866362810140616,0.013077267608487516,0.9863629884537018
2017-08-31,1,0.0014025413916127366,0.0014682948937686042,-0.00866362810140616,0.007214877831715967,0.987668093050809
2017-09-05,1,0.0010759835605665584,0.0011301623327159335,-0.00866362810140616,0.0046998697979846165,0.9880485920840928
2017-09-07,1,0.0009637926904248794,0.0010161696902657317,-0.005990507887982917,0.006619247673228241,0.988027096219338
2017-09-11,1,0.001313967861855437,0.0013217430194866872,-0.0031248409339921044,0.006619247673228241,0.9894199883297236
2017-09-13,1,0.0015376762837791464,0.0016082313453840346,-0.0035883598785666523,0.007515024761834309,0.9891005502817152
2017-09-15,1,0.003089838842221965,0.0034143044799678198,-0.003811872945306679,0.007515024761834309,0.9895435567379198
2017-09-19,1,0.0024165199915847776,0.002650214996148789,-0.0035883598785666523,0.007515024761834309,0.9904778877143762
2017-09-21,-1,-0.0005578218941854459,-0.0003235564736345949,-0.0026932226481484454,0.007515024761834309,0.9906756825697123
2017-09-25,-1,-0.0009999078922676248,-0.0007330309773146399,-0.0026932226481484454,0.007872830003682668,0.9916379821629996
2017-09-27,-1,-0.00018479074133380294,-7.572954079520914e-06,-0.003560967688042735,0.006619247673228241,0.9925502439453905
2017-09-29,0,-9.590612373068394e-05,6.500440280575849e-05,-0.0024755190029903565,0.009496879855523738,0.991490843114572
2017-10-03,1,0.00018744891709604515,0.0002994569883302807,-0.0024755190029903565,0.011945068914074385,0.9892120399812985
2017-10-05,1,0.0008689631683748752,0.0008830553604087423,-0.0036413235010144397,0.011945068914074385,0.9885668385860361
2017-10-09,1,0.0004901926816972559,0.0006057565469267093,-0.0036413235010144397,0.015718828673655705,0.9872538731936992
2017-10-11,1,0.0013120164741679777,0.0013422203647612723,-0.0037296963737349273,0.016862230196299628,0.9851385913882503
2017-10-13,1,0.0017926315620720285,0.0019073960573633593,-0.0061596697632190075,0.016862230196299628,0.9849191721522206
2017-10-17,1,0.0020088073273271034,0.0021638383608367758,-0.0061596697632190075,0.016862230196299628,0.9846496015351477
2017-10-19,1,0.001078730154263793,0.0011119158299435035,-0.0061596697632190075,0.016862230196299628,0.9848855672508348
2017-10-23,1,0.0015920052500922454,0.0017139016526960104,-0.0061596697632190075,0.013748245634136142,0.9857948711385623
2017-10-25,1,0.0015018877561800998,0.0016166954082368458,-0.008669659277289016,0.013748245634136142,0.9853248243072824
2017-10-27,1,0.0027427418878275384,0.003041837152393287,-0.01611784071719816,0.011559786035642611,0.9851485288925432
2017-10-31,1,0.004094628068887654,0.004535688220253709,-0.01861597485928884,0.008873835734404301,0.986093766077225
2017-11-02,1,0.0034582771184187315,0.003811284493965333,-0.01861597485928884,0.008873835734404301,0.9857343343140801
2017-11-06,1,0.004322079395337356,0.004745556847064503,-0.020696537309394365,0.003355802915868385,0.9842905679684071
2017-11-08,1,0.00433193706922295,0.004773881451165424,-0.01861597485928884,0.002402075027430642,0.9863583045830845
2017-11-10,1,0.0032972935174603417,0.003576876454524673,-0.01679304004028364,0.003355802915868385,0.9880026845398393
