JNU-Tangyin/eata/results/Batch4_SP500/Batch4_SP500-SNPS.csv
Date,Action,Predicted_Q25,Predicted_Q75,Actual_Q25,Actual_Q75,RL_Reward
2010-12-14,0,0.0,0.0,-0.002888106758508581,0.0024298590694563863,0.9967961761898068
2010-12-16,0,0.0,0.0,-0.0038112540362519216,0.0024298590694563863,0.9960811382579443
2010-12-20,0,0.0,0.0,-0.004417743707204772,0.0024298590694563863,0.9954361840165642
2010-12-22,0,0.0,0.0,-0.005546817408198838,0.0019646394081782458,0.9947990398856879
2010-12-27,0,0.0,3.3758165930152835e-05,-0.005546817408198838,0.0024298590694563863,0.9943185604660737
2010-12-29,1,0.0010080209670389531,0.0010132295011014794,-0.005546817408198838,0.004039815041943782,0.9927076723909247
2010-12-31,0,0.0,0.0,-0.00613817256138986,0.005789571961715569,0.9914176599394744
2011-01-04,1,0.00029429850365282633,0.00038458586498290285,-0.0053855562879827805,0.00913539003235978,0.9903686363950326
2011-01-06,-1,-0.0011662262749182978,-0.0006892048448254452,-0.0053855562879827805,0.011049976880453529,0.989829619491692
2011-01-10,0,0.0,0.0,-0.0053855562879827805,0.011049976880453529,0.9901019167685098
2011-01-12,0,-9.47725599531409e-06,4.8737252807812774e-05,-0.0019327571338271757,0.011928976337023046,0.9899476678085547
2011-01-14,0,0.0,0.0,-0.0005252561627266646,0.011049976880453529,0.9905442609150908
2011-01-19,0,0.0,0.0,-0.0005252561627266646,0.011049976880453529,0.991090791289106
2011-01-21,-1,-0.00020421950502988044,-0.00010378230093912471,-8.68376915927997e-05,0.011049976880453529,0.9909906395388748
2011-01-25,1,1.6164171617256745e-06,7.277848022285477e-05,-0.0019944983857671525,0.0092161237725063,0.9898086798312951
2011-01-27,1,0.0003702044671168653,0.0004054833678145172,-0.0019944983857671525,0.0092161237725063,0.990488557706452
2011-01-31,0,0.0,0.0,-0.0019944983857671525,0.007841168504144482,0.9913450759944169
2011-02-02,0,0.0,0.0,-0.0019944983857671525,0.008147723758589676,0.9919810903333746
2011-02-04,0,0.0,0.0,-0.007380390753216974,0.005350598407143218,0.991584909149386
2011-02-08,0,0.0,0.0,-0.007380390753216974,0.008147723758589676,0.9907362383777026
2011-02-10,1,0.0022003695369268226,0.0024184662339769313,-0.014614484050349928,0.005350598407143218,0.9897686629718172
2011-02-14,1,0.0020435999347685994,0.002204889768957101,-0.014614484050349928,0.0034845796880548707,0.9892440102789045
2011-02-16,1,0.0019125141814350334,0.0020827108206208506,-0.014614484050349928,0.0033109538365878434,0.9892536209157725
2011-02-18,0,0.0,0.0,-0.01307298315870049,0.0048297208527421365,0.9895851761776918
2011-02-23,1,5.789918964522014e-06,9.748567489921146e-05,-0.005370635551773811,0.0048297208527421365,0.9916103533584794
2011-02-25,1,0.00018399250283051562,0.00027216144964719224,-0.005370635551773811,0.0055374572683824005,0.9914308750164155
2011-03-01,-1,-0.0002490064122380136,-0.00011481668312137767,-0.005370635551773811,0.0055374572683824005,0.9915212247772118
2011-03-03,1,0.0003824503442075368,0.00043291833913756343,-0.005370635551773811,0.0040195057940543375,0.9920516883260344
2011-03-07,0,0.0,0.0,-0.0038372845150163766,0.004708060188285516,0.9925401863463904
2011-03-09,1,0.0002581460333730538,0.0003124429936934136,-0.0038372845150163766,0.004013111786917976,0.9934281176263369
2011-03-11,0,0.0,0.0,-0.0038372845150163766,0.004013111786917976,0.9940642404754384
2011-03-15,0,0.0,0.0,-0.0038372845150163766,0.004013111786917976,0.9940020005527391
2011-03-17,-1,-0.0010619728855097814,-0.0008669149323300726,-0.0038372845150163766,0.004002361650817298,0.9939717419521295
2011-03-21,-1,-0.00031302212054232784,-0.0002036560219161206,-0.004907668403981288,0.0026578578236288583,0.9946217943337332
2011-03-23,-1,-0.000594722826828868,-0.00043964021265759275,-0.005631647668861792,0.003369198700412683,0.9938816507796127
2011-03-25,0,-6.288734263379386e-05,2.390067296772824e-05,-0.005631647668861792,0.002313803764997421,0.9945112224528573
2011-03-29,-1,-0.0002450572225054927,-0.00014197198326092192,-0.004690742200483447,0.0031020136505410154,0.9938893575488587
2011-03-31,1,0.00010122623532055552,0.00015245651569338237,-0.004690742200483447,0.0031020136505410154,0.9939247613232733
2011-04-04,-1,-0.00017305967455227546,-7.156355990823617e-05,-0.005631647668861792,0.002313803764997421,0.9939752271563034
2011-04-06,-1,-0.0004676453342649613,-0.0003159392018463132,-0.007014695069012283,0.002313803764997421,0.9935781872907297
2011-04-08,-1,-0.0011719926337325276,-0.0009176547775606565,-0.005631647668861792,0.003209582681908899,0.993118384180347
2011-04-12,-1,-0.0018900936396901366,-0.0015293719700449039,-0.005631647668861792,0.005857000045094827,0.9929659838955711
2011-04-14,-1,-0.001865687180702574,-0.0015233320854817847,-0.005940021085210662,0.009220821846824422,0.9921096982742944
2011-04-18,-1,-0.0022541675188153263,-0.0018659385570783682,-0.005940021085210662,0.009220821846824422,0.9919356981024114
2011-04-20,0,0.0,0.0,-0.00793981531805889,0.009220821846824422,0.9904355535955945
2011-04-25,0,0.0,0.0,-0.008568259608115688,0.009220821846824422,0.9898188079618089
2011-04-27,-1,-0.0007686258914545767,-0.0006038294363621872,-0.008991145093949942,0.00760299203548058,0.9902460531315455
2011-04-29,-1,-0.0005616884094808938,-0.0004426324517702367,-0.008991145093949942,0.00760299203548058,0.9900936606263915
2011-05-03,-1,-0.0007642074593463774,-0.0006285116216001433,-0.00966773242262356,0.008572265657888533,0.9893406317499381
2011-05-05,0,0.0,0.0,-0.00966773242262356,0.008572265657888533,0.9884751084875905
2011-05-09,0,0.0,0.0,-0.00966773242262356,0.00760299203548058,0.9891428500171863
2011-05-11,-1,-0.00023744506283204474,-0.00019550756528296067,-0.009816612460598138,0.006349283524597821,0.9891591611725732
2011-05-13,1,0.00018472664264522975,0.00019224922600665672,-0.011855569019905584,0.004541312588856813,0.9892213797733387
2011-05-17,-1,-9.396034753286645e-05,-7.562444418438992e-05,-0.010089412850971612,0.006074124230517371,0.9892842397680767
2011-05-19,-1,-0.0005189458411050785,-0.00044982428197206216,-0.00960081742215374,0.004541312588856813,0.9915816310776696
2011-05-23,-1,-0.0008018661267408521,-0.0006900386297808297,-0.008833296630022299,0.006074124230517371,0.9913780159734845
2011-05-25,-1,-0.0007706809806728026,-0.0006540667465752516,-0.007164064010010409,0.004541312588856813,0.9920587409207771
2011-05-27,0,0.0,0.0,-0.009121007236418874,0.003086512095876604,0.9918056823821073
2011-06-01,-1,-0.0007079764185681363,-0.0005862062074580022,-0.0070344384359180626,0.0033583477787582127,0.9924904225637063
2011-06-03,-1,-0.001191523816752703,-0.001022920375222922,-0.005155682390500601,0.003932656152710811,0.9934683215783284
2011-06-07,-1,-0.001577178129039228,-0.0013546634755199878,-0.005155682390500601,0.003932656152710811,0.9936687456239051
2011-06-09,-1,-0.001859947677894994,-0.0016207914296251617,-0.004992538862539147,0.006373961867527308,0.993464067610927
2011-06-13,-1,-0.0025856806617401626,-0.002250351504847258,-0.005892693443230879,0.006373961867527308,0.9930965788748948
2011-06-15,-1,-0.002961760141832668,-0.0025591050197622312,-0.006463122347119118,0.003947323569424895,0.992651021353246
2011-06-17,0,0.0,0.0,-0.0067922231187593374,0.003947323569424895,0.9924603536014939
2011-06-21,-1,-0.0013990135359030443,-0.0012541887873242716,-0.007535750830815453,0.002851941037128397,0.9919342104915877
2011-06-23,-1,-0.0014443801889989462,-0.0012780303880053849,-0.007535750830815453,0.00763093767698152,0.9910103120618744
2011-06-27,-1,-0.001120590184933862,-0.001031888235477553,-0.007497621352852443,0.00763093767698152,0.9909465246899393
2011-06-29,-1,-0.0005501132157832087,-0.0005459875033951082,-0.010173096515762259,0.004761221120930942,0.9898257729769578
2011-07-01,0,0.0,0.0,-0.014177947092527525,0.0021656658541817303,0.9893435648325856
2011-07-06,0,0.0,0.0,-0.014177947092527525,0.004761221120930942,0.988625427774612
2011-07-08,1,0.00040873124518498404,0.0006658431065826358,-0.014811754257690919,0.0021656658541817303,0.9871730633717151
2011-07-12,-1,-0.0005709681496386665,-0.0004373336640207401,-0.014811754257690919,0.004761221120930942,0.9845252444059768
2011-07-14,0,0.0,0.0,-0.014811754257690919,0.008103485984733946,0.9819126462460093
2011-07-18,0,0.0,0.0,-0.014177947092527525,0.009679469609266519,0.9817105227332243
2011-07-20,-1,-0.0019492892079148291,-0.0017794009423219995,-0.010211328192787335,0.009679469609266519,0.9814672910674999
2011-07-22,-1,-0.0014371436569335099,-0.0013019711016089837,-0.013980331588536564,0.009070895243707532,0.9814182552732558
2011-07-26,0,0.0,0.0,-0.013980331588536564,0.013534525471878353,0.9774775513039038
2011-07-28,-1,-0.0023096437522034732,-0.002081968269901774,-0.013980331588536564,0.013534525471878353,0.9776080390118855
2011-08-01,-1,-0.002389192367121124,-0.0021819587179882738,-0.010143304077221726,0.019531973104552073,0.9759543318371984
2011-08-03,0,0.0,0.0,-0.00744286217221456,0.019531973104552073,0.9764724701947368
2011-08-05,-1,-0.005220105901160836,-0.004645767245749957,-0.014491418490292896,0.019531973104552073,0.9757015041793378
2011-08-09,0,0.0,0.0,-0.00744286217221456,0.019531973104552073,0.9783893288383334
2011-08-11,1,0.001424918202735732,0.0014767986371823699,-0.00744286217221456,0.015796838986600663,0.9812350942924746
2011-08-15,1,0.0015472919032589103,0.0016038399837910093,-0.00744286217221456,0.013671392400495957,0.981843052152746
2011-08-17,-1,-0.001501344718845196,-0.0014246842897365514,-0.005913139541367251,0.013671392400495957,0.9821671507410754
2011-08-19,-1,-0.0015584353164518141,-0.0014688077953991456,-0.007294609285437379,0.013671392400495957,0.9825944512885612
2011-08-23,1,0.001293800563777358,0.0015842787012116527,-0.015600078094862985,0.008197140607781258,0.9850684189504977
2011-08-25,0,0.0,0.0,-0.015600078094862985,0.008197140607781258,0.9856213987932295
2011-08-29,0,0.0,0.0,-0.015600078094862985,0.008197140607781258,0.9860585914623795
2011-08-31,0,0.0,0.0,-0.015600078094862985,0.008197140607781258,0.986180514916228
2011-09-02,0,0.0,0.0,-0.015581658533537782,0.008197140607781258,0.9859736816829049
2011-09-07,1,0.00035699971800156883,0.00045709565342138446,-0.015581658533537782,0.008197140607781258,0.9858338087697192
2011-09-09,1,0.0005141180192817588,0.0006495855126062549,-0.01495648531391371,0.012795087162363437,0.9851919505693854
2011-09-13,0,0.0,0.0,-0.01495648531391371,0.01758189393523044,0.9845104743775547
2011-09-15,0,0.0,0.0,-0.01495648531391371,0.014573467931452394,0.9852591444476666
2011-09-19,1,0.0017022504665681775,0.00205039853211474,-0.015147623568387083,0.015299247921092406,0.9846762630682169
2011-09-21,1,0.0006472981734206356,0.0008640416081180709,-0.005830005834867332,0.016496071645604706,0.9854427445823989
2011-09-23,0,-7.695027136255894e-05,3.066298653886832e-05,-0.0041966107566034725,0.01758189393523044,0.9855062440728831
2011-09-27,1,0.0008536663689881365,0.00106477624039325,-0.005830005834867332,0.014969461252173105,0.9863928465726054
2011-09-29,1,0.0011158069655947387,0.0014032286183080125,-0.005830005834867332,0.016592533928472535,0.98570001869206
2011-10-03,0,0.0,0.0,-0.0026404094684014637,0.016592533928472535,0.9871792780138934
2011-10-05,0,0.0,0.0,-0.005830005834867332,0.016592533928472535,0.9872297042824236
2011-10-07,0,0.0,0.0,-0.007765187409323373,0.016592533928472535,0.9872494885911628
2011-10-11,1,0.0026859192885405623,0.0031732248449045444,-0.007765187409323373,0.014969461252173105,0.988214018103614
2011-10-13,0,0.0,0.0,-0.01025301420977694,0.014969461252173105,0.9878069016071281
2011-10-17,0,0.0,0.0,-0.007765187409323373,0.016200302263348898,0.9883943639344575
2011-10-19,0,0.0,0.0,-0.007007006626626675,0.011255270885654783,0.9888977309431505
2011-10-21,0,0.0,0.0,-0.008327131841536379,0.008435004044576276,0.989044521862187
2011-10-25,0,0.0,0.0,-0.008327131841536379,0.008435004044576276,0.9891665746864217
2011-10-27,0,0.0,0.0,-0.01199795005573257,0.008435004044576276,0.9889433159364693
2011-10-31,1,0.00487753147205112,0.00539228742755498,-0.008327131841536379,0.01069546387082068,0.9878356458708821
2011-11-02,1,0.004339011334439651,0.004741339443574099,-0.008327131841536379,0.01069546387082068,0.9876438643134043
2011-11-04,1,0.00439106639954151,0.00478584513641103,-0.008010855439899453,0.008435004044576276,0.9888460028063805
2011-11-08,1,0.004350081385185135,0.004720856311554733,-0.008010855439899453,0.008315330631542755,0.9885477118430989
2011-11-10,1,0.004098972263935143,0.004462928632171105,-0.006411122265189702,0.010166058538305857,0.9889718169695921
2011-11-14,1,0.0041897196586044485,0.004561079627587136,-0.012155706144096317,0.008315330631542755,0.9876962108627233
2011-11-16,1,0.0038804303380318367,0.0041905421680568655,-0.012155706144096317,0.007545435888807,0.9876272057983848
2011-11-18,1,0.0036796009706089473,0.003967459004055946,-0.014533377171495356,0.00719338735688076,0.9875933534570251
2011-11-22,1,0.0030278679822056836,0.0032353205612468084,-0.014533377171495356,0.010166058538305857,0.9862062289982153
2011-11-25,1,0.002719905561344269,0.0028726062193933817,-0.011691715332585357,0.010166058538305857,0.9868806957807916
2011-11-29,1,0.002885140123962617,0.0030657675280618348,-0.014536664359719903,0.00719338735688076,0.9872159188828368
2011-12-01,1,0.002604761864795865,0.0026985527314341154,-0.011691715332585357,0.005848688016851329,0.9895636415225494
2011-12-05,1,0.002020914781679762,0.002053536222414747,-0.014536664359719903,0.005561921830139732,0.9885366198673234
2011-12-07,1,0.0016782198258633945,0.001785667454175848,-0.014536664359719903,0.005561921830139732,0.9886677215830209
2011-12-09,1,0.0017853158579708229,0.001874981543962357,-0.014536664359719903,0.005790433854530413,0.9885545908712895
2011-12-13,1,0.0007649062404999922,0.0009521950960541295,-0.008478631279770365,0.006747266191759177,0.9899513778402228
2011-12-15,1,0.00017150436325869163,0.0004408517931907217,-0.0019301561206886034,0.007665652638033108,0.9900234773846056
2011-12-19,-1,-0.0010504165697795568,-0.0005762859949285392,0.000558671996634542,0.012084771031943994,0.989062238613051
2011-12-21,-1,-0.0009057368261089467,-0.00042911241609767167,0.000558671996634542,0.011983588047526254,0.9912159622934418
2011-12-23,-1,-0.00048480418264913424,-5.0830590564718194e-05,0.0,0.00890233833077951,0.9923945638088063
2011-12-28,-1,-0.0019850132164331057,-0.0012940421737909534,0.0,0.00890233833077951,0.9921729768869079
2011-12-30,-1,-0.0018508844255251127,-0.0011532272184157511,-8.564772780809054e-05,0.00890233833077951,0.9924757498199276
2012-01-04,-1,-0.0030442161771038643,-0.002208273955637381,0.000558671996634542,0.011123375509407951,0.9916912093100652
2012-01-06,-1,-0.0024193156547711522,-0.0016754218482833254,0.0012677291376650738,0.008749127167866647,0.9926346384785368
2012-01-10,-1,-0.0015575734995823612,-0.0009401296372561745,0.0005043827652387567,0.008274735070549964,0.9939220197008299
2012-01-12,-1,-0.001222650882269593,-0.000694014365802781,0.0,0.007931606266925906,0.9942085170154048
2012-01-17,1,0.0010090702409008031,0.0011213647494342522,0.0005043827652387567,0.00824230311688118,0.9950994284119193
2012-01-19,1,0.0011952942398287946,0.001346664431565533,-8.564772780809054e-05,0.007397843537288865,0.9958444385279446
2012-01-23,0,0.0,0.0,-0.0007706535577675286,0.0046158517972363445,0.995769565183823
2012-01-25,0,0.0,0.0,-0.0009961034249557597,0.007397843537288865,0.9953709064893015
2012-01-27,1,0.0011807142186193384,0.0012149282501845676,-0.002449807690361067,0.007397843537288865,0.9955064203017633
2012-01-31,1,0.001625015817752632,0.001778261512818501,-0.002449807690361067,0.007397843537288865,0.9952340708946106
2012-02-02,1,0.0014194237468108922,0.0015014977032385944,-0.004255373356546502,0.0067302268891644345,0.9946764796514982
2012-02-06,1,0.0016239242503402504,0.0017430418346549383,-0.006351706009749672,0.0067302268891644345,0.9935485891047179
2012-02-08,1,0.0022870448345964503,0.002539508608603629,-0.006351706009749672,0.007397843537288865,0.9931260636909298
2012-02-10,1,0.0018292639120497563,0.0019860592159866544,-0.005592259890755321,0.007684397771385907,0.9934882871845292
2012-02-14,1,0.001383019797217049,0.0014158353255032813,-0.0072909015724747245,0.007684397771385907,0.9923814431227849
2012-02-16,1,0.0009677862974084284,0.0010196135215689065,-0.009625304777695546,0.007931697871094566,0.9918118331676516
2012-02-21,1,0.001211920276964233,0.0012281419211296783,-0.009625304777695546,0.007931697871094566,0.9915829066200089
2012-02-23,1,0.0011654517960758295,0.0011761840994286832,-0.009625304777695546,0.006907433229454445,0.9916876212374809
2012-02-27,1,0.00032393782078726275,0.00047201346949919795,-0.009625304777695546,0.008416807144532811,0.9913127848485067
2012-02-29,1,0.00042368533323453896,0.0004941542640403145,-0.008080011056605593,0.008416807144532811,0.9918464747055326
2012-03-02,1,0.00021245585676495348,0.0002309575111718107,-0.008080011056605593,0.008484297473183583,0.991724235459987
2012-03-06,0,0.0,0.0,-0.001481541707225204,0.00899540780758066,0.9921160386376128
2012-03-08,0,0.0,0.0,-0.00784520412668441,0.008057306430555054,0.9917792068206347
2012-03-12,0,0.0,0.0,-0.008920883987931994,0.007786991353328724,0.9914412373530244
2012-03-14,0,0.0,0.0,-0.00784520412668441,0.007786991353328724,0.9920245013141525
2012-03-16,0,0.0,0.0,-0.00784520412668441,0.0068253874991287605,0.9926096956754703
2012-03-20,0,0.0,0.0,-0.009215246260223688,0.0068253874991287605,0.9922266618152825
2012-03-22,1,0.0005238719222787477,0.0005317828867165773,-0.009215246260223688,0.0068253874991287605,0.992507114623016
2012-03-26,1,0.0007375531410255291,0.0007612966299572353,-0.0113478679480424,0.004858991922719486,0.9924287890693438
2012-03-28,1,0.0008929068105535223,0.000915866110337061,-0.0113478679480424,0.006072960166579791,0.9907978472567618
2012-03-30,1,0.0008163108338818069,0.0008439589223158475,-0.010483695706955303,0.004858991922719486,0.9911606766649373
2012-04-03,1,0.0012905017148318954,0.0013966813027447653,-0.010483695706955303,0.004858991922719486,0.990613152385682
2012-04-05,1,0.00033345976207194177,0.0003860897525993166,-0.010483695706955303,0.004858991922719486,0.9909644111315499
2012-04-10,-1,-9.895261092691076e-05,-5.336502819789106e-06,-0.008239743120311446,0.004858991922719486,0.9912745485686527
2012-04-12,1,0.00042421648184708317,0.0004585707314348616,-0.008737425956716175,0.0018347720962281198,0.991208518323783
2012-04-16,0,-2.9193812018851848e-05,7.195209268448315e-05,-0.007744132807482287,0.0037487948117385208,0.9914779806325559
2012-04-18,-1,-0.000825921584045735,-0.0005941082950800053,-0.007744132807482287,0.0025949347538989816,0.9916419112253861
2012-04-20,-1,-0.0010254182986201524,-0.0007652233835187655,-0.011129859667018838,0.0025949347538989816,0.9899790793574988
2012-04-24,-1,-0.001574776953382538,-0.001260774729134722,-0.008737425956716175,0.004396091065021993,0.9898818110730018
2012-04-26,1,0.0002486544468947967,0.0003243618987583739,-0.008737425956716175,0.004004747506986123,0.9882443057351068
2012-04-30,0,0.0,0.0,-0.007744132807482287,0.006097472024084113,0.9883822463148457
2012-05-02,0,0.0,0.0,-0.009916427722300095,0.004004747506986123,0.9883840076322425
2012-05-04,0,0.0,0.0,-0.011018615802791705,0.004004747506986123,0.9875366638404648
2012-05-08,0,0.0,0.0,-0.011018615802791705,0.007795553189276926,0.9863939426471248
2012-05-10,0,0.0,0.0,-0.012368906408008504,0.01037974645134244,0.985911770605847
2012-05-14,-1,-0.003715609786397415,-0.0031665229194917915,-0.016476393953973385,0.01037974645134244,0.9851745101345774
2012-05-16,-1,-0.004530006435306329,-0.003907165363710255,-0.013043136769525456,0.01037974645134244,0.9852915372840402
2012-05-18,-1,-0.005281095585512852,-0.004532099084083759,-0.007528458492522067,0.01037974645134244,0.9857366628756398
2012-05-22,-1,-0.005045602297870183,-0.004420039112277328,-0.007528458492522067,0.007022932690167497,0.9864568799479064
2012-05-24,-1,-0.0028306974190131697,-0.002430302602912075,-0.009874196741309063,0.00542237284598555,0.9889285177962592
2012-05-29,0,0.0,0.0,-0.012539720381705012,0.004192291514192408,0.9891954173462706
2012-05-31,0,0.0,0.0,-0.009874196741309063,0.00542237284598555,0.9896250883982785
2012-06-04,0,0.0,0.0,-0.0025259650676452278,0.007356704256531509,0.9896100900515868
2012-06-06,0,0.0,0.0,-0.0025259650676452278,0.00542237284598555,0.990294943572842
2012-06-08,0,0.0,0.0,-0.005269079341750828,0.004192291514192408,0.9904734663357475
2012-06-12,0,0.0,0.0,-0.001983465504097192,0.004192291514192408,0.9914605343384314
2012-06-14,0,0.0,0.0,-0.0002672735198488314,0.00542237284598555,0.990840041617641
2012-06-18,0,0.0,0.0,-0.0002672735198488314,0.0055998807521194256,0.9909418343868225
2012-06-20,0,-0.0010680080072412196,0.0,-0.0012874102902676963,0.007889227974933136,0.990614949181125
2012-06-22,0,0.0,0.0,-0.0024298541705155105,0.007889227974933136,0.9907611216833792
2012-06-26,-1,-0.004039862930265324,-0.00362573505062333,-0.0024298541705155105,0.009775106640914414,0.9889496299496081
2012-06-28,-1,-0.0031654075549672174,-0.0028652920403816336,-0.0024298541705155105,0.011174883235422494,0.9878282931188718
2012-07-02,-1,-0.002112497018562777,-0.0019603743401828827,-0.006441624678257507,0.00953684173795102,0.9893894549357473
2012-07-05,-1,-0.0013126403530194315,-0.001253200469439784,-0.007601225870887405,0.007579999879241748,0.9903684009760128
2012-07-09,-1,-0.0017384282072155158,-0.0016553639120919141,-0.004487433610483044,0.00953684173795102,0.9901563207944775
2012-07-11,-1,-0.0014655444509786952,-0.0014193788366451898,-0.004487433610483044,0.00953684173795102,0.9901231882893392
2012-07-13,-1,-0.0006657762680230205,-0.0006108093504822582,-0.004487433610483044,0.007579999879241748,0.9913112835883735
2012-07-17,-1,-0.00019800834962511006,-6.554815572062402e-05,-0.007075358532022877,0.007015748667847988,0.9910632022660985
2012-07-19,1,0.0002763095412243267,0.0004936963082958699,-0.007075358532022877,0.009403049633691866,0.9904359255456183
2012-07-23,-1,-0.0007897943355423202,-0.0007335835404719657,-0.005714521999669986,0.009403049633691866,0.9912914311837767
2012-07-25,-1,-0.0012201278865087038,-0.0011904516911502706,-0.002599628361034334,0.009474012826419862,0.9917668740563199
2012-07-27,-1,-0.0016266445263516708,-0.0015557301945626069,-0.002599628361034334,0.006994805697337602,0.9911240056204409
2012-07-31,-1,-0.0021747140864959063,-0.002069756501537367,-0.0013671156882512777,0.006994805697337602,0.9914514178563778
2012-08-02,-1,-0.0018962913643322916,-0.00184578885601632,-0.0015888303203464708,0.006994805697337602,0.9912808277765824
2012-08-06,-1,-0.0011405953105101175,-0.0010821593849852226,-0.0015888303203464708,0.006994805697337602,0.9912830480006407
2012-08-08,-1,-0.0009701521993197208,-0.0008849109107900068,-0.0015888303203464708,0.009908314271467118,0.9910260689994338
2012-08-10,-1,-0.0009145550910939337,-0.000822583938094682,-0.0029385855896697775,0.009908314271467118,0.9905859625608228
2012-08-14,-1,-0.001378668291038614,-0.0013556439147667306,-0.00039433078237992184,0.011586099492565343,0.9902901420819538
2012-08-16,0,0.0,0.0,-0.0023638743038366253,0.006522476271601395,0.991768079168079
2012-08-20,0,0.0,0.0,-0.0023638743038366253,0.008673541403172357,0.9915790661336249
2012-08-22,0,0.0,0.0,-0.0023638743038366253,0.005584677707217506,0.9920621186356019
2012-08-24,0,0.0,0.0,-0.005256298220741903,0.0039179704138754805,0.9940164491562559
2012-08-28,1,0.0008816531959595776,0.0012168222150837902,-0.006190288206518639,0.0025447697318002126,0.9929651013813016
2012-08-30,0,0.0,0.0,-0.004648339348854692,0.005584677707217506,0.9932385071197135
2012-09-04,1,0.003197192669124804,0.0036252100022801568,-0.005465816198327362,0.0027952827304316193,0.9919662989276627
2012-09-06,1,0.0029424618126147337,0.0033228522415543185,-0.005465816198327362,0.004437532349810729,0.9925576495015743
2012-09-10,0,0.0,0.0,-0.005206181970802618,0.004437532349810729,0.9937322269001773
2012-09-12,0,0.0,0.0,-0.006039939456700784,0.0023975331808648538,0.9933664251306212
2012-09-14,1,0.002115558285181959,0.002312991811460127,-0.005206181970802618,0.0042990306862536205,0.9931427445275312
2012-09-18,0,0.0,0.0,-0.005206181970802618,0.0042990306862536205,0.9929127412026221
2012-09-20,0,0.0,0.0,-0.006039939456700784,0.0042990306862536205,0.9927118633132331
2012-09-24,0,0.0,0.0,-0.0060888087923801,0.0042990306862536205,0.9924475593870734
2012-09-26,0,0.0,0.0,-0.004933483885873225,0.004723409890424407,0.9930024038510381
2012-09-28,0,0.0,0.0,-0.004933483885873225,0.004434964986393921,0.99364534171513
2012-10-02,0,0.0,0.0,-0.003716205629167579,0.004434964986393921,0.9929781691526692
2012-10-04,1,0.001021873831445109,0.001318244071632549,-0.0060888087923801,0.002959200090548378,0.9917661858077496
2012-10-08,1,0.00042215112924397756,0.0005898951819175538,-0.007334475894844538,0.00434277238760497,0.9908392763991731
2012-10-10,-1,-0.0010196048182027943,-0.000907118482936209,-0.007334475894844538,0.004434964986393921,0.9903230265760087
2012-10-12,-1,-0.0003149242542836896,-0.00028365244525861005,-0.007334475894844538,0.004417744007841659,0.9904346392314711
2012-10-16,0,0.0,0.0,-0.008590871098679485,0.004417744007841659,0.990266897401488
2012-10-18,0,0.0,0.0,-0.010655636062814723,0.004979274156491931,0.9888190164955846
2012-10-22,0,0.0,0.0,-0.008590871098679485,0.00659934514946315,0.9889725514827538
2012-10-24,-1,-0.0003399888626719381,-0.00024171828667700015,-0.008590871098679485,0.008982682487809486,0.9888953857056809
2012-10-26,0,-8.084037333188656e-05,1.3023855677375229e-05,-0.008590871098679485,0.008982682487809486,0.988547082698406
2012-11-01,0,0.0,0.0,-0.008590871098679485,0.006970120819703427,0.9896547046441869
2012-11-05,0,0.0,0.0,-0.005019364590829722,0.008536972986369074,0.9906433095715744
2012-11-07,-1,-0.004549205143324194,-0.003587770136128693,-0.005019364590829722,0.008536972986369074,0.9903726805552352
2012-11-09,0,0.0,0.0,-0.0035709762259790493,0.006954108700531347,0.9926793981311605
2012-11-13,0,0.0,0.0,-0.005019364590829722,0.006954108700531347,0.9922114265509129
2012-11-15,0,0.0,0.0,-0.005019364590829722,0.006422976575880995,0.992552266245446
2012-11-19,-1,-0.0016019125161571628,-0.0012473396413511717,-0.0014451770119172226,0.006422976575880995,0.9930645404095809
2012-11-21,-1,-0.0012048925674910478,-0.0009130482413223011,-0.005019364590829722,0.005329397897762482,0.9934532016429402
2012-11-26,-1,-0.0004194833418837947,-0.00026545846835602876,-0.008144155258737467,0.0034985120770128536,0.9938061831594115
2012-11-28,1,6.955912269835434e-05,0.0001394287369880727,-0.008180553145977156,0.0034985120770128536,0.9936291700024312
2012-11-30,0,0.0,0.0,-0.008137139781637269,0.0034985120770128536,0.9938009454042969
2012-12-04,0,0.0,0.0,-0.00906407122247446,0.0034985120770128536,0.9930926061255569
2012-12-06,0,0.0,0.0,-0.008137139781637269,0.002895520770619252,0.9931028028049094
2012-12-10,0,0.0,0.0,-0.008137139781637269,0.002895520770619252,0.9930079952328474
2012-12-12,0,0.0,0.0,-0.007908994805135613,0.005309183230568558,0.993236581692794
2012-12-14,0,0.0,0.0,-0.007409473857366688,0.006414200926121974,0.9929748441165989
2012-12-18,0,0.0,0.0,-0.007409473857366688,0.006414200926121974,0.9931237332153813
2012-12-20,0,0.0,0.0,-0.007409473857366688,0.006414200926121974,0.9927659192729847
2012-12-24,0,0.0,0.0,-0.004651407555380524,0.007369246668816547,0.9921446603428191
2012-12-27,0,0.0,0.0,-0.0037365155218111405,0.009870305725092409,0.991530962427061
2012-12-31,0,0.0,0.0,-0.004952929148654323,0.009870305725092409,0.9914443193369277
2013-01-03,-1,-0.001115509709475609,-0.0011034854830070029,-0.0038370227195690734,0.009870305725092409,0.9916214272968666
2013-01-07,0,0.0,0.0,-0.002911546354292051,0.009870305725092409,0.9923602637959985
2013-01-09,0,0.0,0.0,-0.002911546354292051,0.011052794504139147,0.9918030906556505
2013-01-11,0,0.0,0.0,-0.0036954947536864194,0.01011915488425619,0.9919823960958615
2013-01-15,0,0.0,0.0,-0.0038370227195690734,0.008758669642189944,0.9924223077987832
2013-01-17,0,-6.639354851846653e-05,0.00013752639169475032,-0.0038370227195690734,0.006710769318754972,0.9927507262452142
2013-01-22,0,0.0,0.0,0.00020982971705596856,0.006710769318754972,0.9932240501996228
2013-01-24,1,0.0009163074679491188,0.0010829229776300867,-0.0030352912458231044,0.006710769318754972,0.9925929031696377
2013-01-28,1,0.0012869819081516509,0.0014668545681161581,-0.004587965224440141,0.005212153312702047,0.9934203823739509
2013-01-30,1,0.0014370150867577926,0.001700766934645831,-0.0034416736876284135,0.006710769318754972,0.9933044380735621
2013-02-01,1,0.00200490665877644,0.00234691725617549,-0.0059227412216429475,0.005212153312702047,0.9934645032093903
2013-02-05,1,0.0016825633652367894,0.0019583967608506367,-0.0059227412216429475,0.005405161155584239,0.9931809134946722
2013-02-07,1,0.002306040858301657,0.0026883084630522193,-0.0059227412216429475,0.005405161155584239,0.9932406660663349
2013-02-11,1,0.0018227501510366868,0.002109791434498489,-0.0059227412216429475,0.005772565779187865,0.9930060065358884
2013-02-13,1,0.0020492410306479107,0.002384485647966444,-0.005209184381989746,0.005772565779187865,0.9933808868946931
2013-02-15,1,0.0023287709508872058,0.002700643065985479,-0.007143024959074001,0.005290325831062986,0.9922275291520459
2013-02-20,1,0.0023099801888163025,0.0026560764968975477,-0.007143024959074001,0.005290325831062986,0.992260850859057
2013-02-22,1,0.002081941598543232,0.002354874330841643,-0.00690124443567188,0.004916143644086801,0.9938899975604891
2013-02-26,1,0.0018544437627871448,0.0021050899350736263,-0.00690124443567188,0.006375818934096798,0.9937632123624245
2013-02-28,1,0.0016263856313169195,0.0018250008498053487,-0.005351678380826312,0.006375818934096798,0.9939908194305848
2013-03-04,1,0.001750701252685016,0.001982818236759186,-0.005351678380826312,0.006375818934096798,0.9938002023137447
2013-03-06,1,0.0014696574126371043,0.0016477574393095678,-0.006958101349107914,0.006375818934096798,0.9933747595593676
2013-03-08,1,0.0016525550287357913,0.0018241502654879763,-0.007391979586158,0.005011008748081731,0.9930756231701581
2013-03-12,0,0.0,0.0,-0.0070364852358838085,0.005729097227511919,0.9928039321785961
2013-03-14,0,0.0,0.0,-0.007926449800260887,0.0039877833007097505,0.9926475110673831
2013-03-18,1,0.0005778537566406532,0.0006459431898470727,-0.0070364852358838085,0.0049035780483006434,0.9930199961892664
2013-03-20,1,0.0013631570628377708,0.001467100344466473,-0.009108333124364789,0.0049035780483006434,0.9916981470891607
2013-03-22,0,0.0,0.0,-0.009108333124364789,0.005255527528871711,0.9921543892523808
2013-03-26,0,0.0,0.0,-0.009108333124364789,0.0049035780483006434,0.9921428984170939
2013-03-28,0,0.0,0.0,-0.009108333124364789,0.0049035780483006434,0.9919412175327703
2013-04-02,0,0.0,0.0,-0.007926449800260887,0.005255527528871711,0.9920941566319245
2013-04-04,0,0.0,0.0,-0.009108333124364789,0.005255527528871711,0.9917042514460541
2013-04-08,0,0.0,0.0,-0.006734527374437813,0.005497582778550003,0.9920569124036177
2013-04-10,0,0.0,0.0,-0.006734527374437813,0.006463923582227813,0.9922447613476949
2013-04-12,0,0.0,0.0,-0.0026481720963356845,0.006463923582227813,0.9927392858226347
2013-04-16,1,8.454787574759584e-06,6.743357740006406e-05,-0.0026481720963356845,0.006463923582227813,0.9925847315412063
2013-04-18,-1,-0.0008106931416635697,-0.0006788415298300645,-0.0004344721189164281,0.006463923582227813,0.9934702020210067
2013-04-22,-1,-0.00024787611279961086,-0.00019208847872829432,-0.0009153861715910369,0.008052377088755704,0.9933517527939888
2013-04-24,1,0.0003286055164457885,0.00034119764173229784,-0.0014645159426743448,0.006463923582227813,0.9937225634526825
2013-04-26,1,0.0006193071610830503,0.0006824666625728872,-0.0026481720963356845,0.006463923582227813,0.9934178232523302
2013-04-30,1,0.0010910744688626451,0.0012329423756613212,-0.0038917944487555636,0.006463923582227813,0.9930220527901419
2013-05-02,1,0.0005476393718913922,0.0005825333258947409,-0.00360060636332379,0.008052377088755704,0.9929508481100825
2013-05-06,1,0.000600735147488549,0.0006567035095269696,-0.004361281301881427,0.008052377088755704,0.9927251940393421
2013-05-08,1,0.000711769159772669,0.0007458443618571393,-0.005478259771641623,0.008377948031943971,0.9922854457309841
2013-05-10,1,0.00025065802999223424,0.0002916101266947419,-0.005478259771641623,0.011368734207893399,0.9920086702438157
2013-05-14,1,0.00034173450272822456,0.00034902339167125636,-0.006546632201300215,0.011368734207893399,0.9919539602781776
2013-05-16,0,-4.283597689126815e-06,6.329393144597858e-05,-0.007155368767111848,0.011659656820215808,0.9911303275086637
2013-05-20,1,0.00014587677405525414,0.00020219221034593215,-0.007155368767111848,0.011659656820215808,0.9913042018276367
2013-05-22,-1,-0.00039967763663135145,-0.0002787789911542089,-0.007155368767111848,0.011659656820215808,0.9906711328848938
2013-05-24,1,7.22147721164125e-05,0.00014158468645909946,-0.007600557224580433,0.00869133708373578,0.9910315393055096
2013-05-29,-1,-0.00015081069955206284,-3.32967953236639e-05,-0.007600557224580433,0.007485482323891432,0.9917309900362289
2013-05-31,0,-5.290143716912913e-05,6.891601343823048e-05,-0.007600557224580433,0.007485482323891432,0.9923043894792517
2013-06-04,-1,-0.00032933443038810377,-0.00016698808067096342,-0.009697168018227412,0.006963392808706196,0.9917790215719213
2013-06-06,1,9.205577919319116e-05,0.00019215037844164194,-0.007600557224580433,0.006963392808706196,0.99189027693938
2013-06-10,1,0.0005052341243061173,0.0005327260862118969,-0.007600557224580433,0.006963392808706196,0.9917176669207893
2013-06-12,-1,-0.00044786362193537446,-0.0003112253965384144,-0.005279876754007463,0.009444454452236446,0.9913523237046162
2013-06-14,-1,-0.0006716794725789986,-0.0004802564970906387,-0.002507168459812994,0.009444454452236446,0.9917777016209339
2013-06-18,1,0.00017303274581205786,0.00023165847986292195,-0.004819606185655734,0.009444454452236446,0.9919398437660232
2013-06-20,-1,-0.00046379289716037,-0.0003677498547149102,-0.0023409746587170098,0.009444454452236446,0.9927618339928223
2013-06-24,-1,-0.0007076123885009854,-0.0005651290820849206,-0.001573996435557742,0.009444454452236446,0.9931594056750974
2013-06-26,-1,-0.0003159404842104956,-0.00024801540846248907,-0.0038644625705292956,0.009444454452236446,0.9929341000896497
2013-06-28,-1,-0.00012897608335743979,-7.113294590319641e-05,-0.004385752447268278,0.007478001122015502,0.9927859465816702
2013-07-02,-1,-0.0005152284302815409,-0.0004327000051474779,-0.0038644625705292956,0.009837368005450847,0.9929788989720403
2013-07-05,1,8.756298566837725e-05,0.00012351191907862755,-0.004385752447268278,0.009837368005450847,0.9923721947566022
2013-07-09,1,0.0005485035772359347,0.0005646676146127083,-0.004385752447268278,0.007539494360027619,0.9925983840715347
2013-07-11,1,0.0009328399054203634,0.0010297036098007376,-0.004385752447268278,0.0029334731686307186,0.9936193446356244
2013-07-15,1,0.0012233241076611947,0.001365265333838099,-0.004385752447268278,0.002286221606072241,0.9939725596468822
2013-07-17,1,0.0009244263166654481,0.0010157878094513386,-0.0038644625705292956,0.002286221606072241,0.993633429505262
2013-07-19,1,0.0007270965468599965,0.0007873409600141957,-0.004905082431387153,0.0015009018464274004,0.9929097128057773
2013-07-23,1,0.0006305494371450796,0.0006826984422722896,-0.006973687122446554,0.003763777643711271,0.9924635223943554
2013-07-25,1,0.00029519433729868424,0.0003059337033734649,-0.006973687122446554,0.00687438128484912,0.9923208094850552
2013-07-29,1,0.0002988674868496917,0.00030760492412691074,-0.0036070097646162527,0.007228645831546044,0.9925803800409077
2013-07-31,1,0.0007518052623231337,0.0008421243795363337,-0.006973687122446554,0.004247757813781798,0.9921844944122863
2013-08-02,1,0.0008176286363049631,0.0009057846936925599,-0.007057097942529939,0.003267592005363218,0.9934184322274722
2013-08-06,1,0.0007718487853011932,0.0008788684289053313,-0.007057097942529939,0.004247757813781798,0.9923260284388202
2013-08-08,1,0.0004958771525284832,0.0005282967972627283,-0.007057097942529939,0.007228645831546044,0.9919768694628992
2013-08-12,1,0.0006087535610854104,0.0006603539690362885,-0.007057097942529939,0.007934245294389339,0.9910301144912296
2013-08-14,1,0.000688857303552325,0.0007405139943116909,-0.007993223045424786,0.007659328368568679,0.9912170352598065
2013-08-16,1,0.00040371350288227336,0.0004526671554412943,-0.006805490556875697,0.007659328368568679,0.9917017599236152
2013-08-20,1,0.0006672359084635872,0.0007623954714503623,-0.005143099345269755,0.008158702795712913,0.9916366621525428
2013-08-22,1,0.000323409824514597,0.00035690096302004576,-0.003630324583106534,0.008158702795712913,0.9921128577431031
2013-08-26,1,0.00043321474892709044,0.0004525822613083084,-0.005143099345269755,0.008158702795712913,0.9919189085780168
2013-08-28,-1,-0.000349898926287218,-0.0002547566225158884,-0.003630324583106534,0.008842849105140767,0.9923803381124608
2013-08-30,-1,-0.0004273975590387434,-0.0003592837904433133,-0.003630324583106534,0.008842849105140767,0.9923425022302612
2013-09-04,-1,-0.00043770629727486526,-0.00033449009012577246,-0.003630324583106534,0.008158702795712913,0.9936593724396088
2013-09-06,-1,-0.0005530363410563122,-0.00043349204235513383,-0.004529053531099847,0.0077538895978256335,0.9934033177739816
2013-09-10,-1,-0.0008552876382924826,-0.0006595316835568625,-0.007084565431969311,0.006044883587168953,0.9931260094370861
2013-09-12,-1,-0.0006147644969611931,-0.00046020128944618017,-0.005680461474660409,0.006718813477391493,0.9925441468477083
2013-09-16,-1,-0.00036504405195796476,-0.000265422702168823,-0.005680461474660409,0.0077538895978256335,0.9919846764637236
2013-09-18,1,0.00034440715190215565,0.0003507868559516702,-0.007340965593199006,0.0074493884244295466,0.9916362009295953
2013-09-20,1,0.0002152880530875218,0.0002544078143268524,-0.007340965593199006,0.0074493884244295466,0.9915196175516271
2013-09-24,-1,-8.912912839192747e-05,-5.597542332111032e-05,-0.005680461474660409,0.007530886878149219,0.9916766327542558
2013-09-26,-1,-0.00019765856993051958,-0.00014364584812494638,-0.009309800034201884,0.0074493884244295466,0.9890044486586459
2013-09-30,1,0.00042259400306389645,0.0004639882126257018,-0.009309800034201884,0.007530886878149219,0.9886650176759367
2013-10-02,1,0.00012983399076433428,0.00013911652944468357,-0.009309800034201884,0.007530886878149219,0.9888977012096561
2013-10-04,1,0.00018640288488653504,0.00019321442809640767,-0.008294450751335194,0.007475617865141179,0.9892355276929703
2013-10-08,-1,-0.0007345484709551272,-0.000615439821915237,-0.003705209267975746,0.007475617865141179,0.9902226903043067
2013-10-10,1,0.00010970461724204439,0.00011927497436706896,-0.007687997968846428,0.007475617865141179,0.9902879443440493
2013-10-14,1,0.00013176719929916482,0.00016352150289973127,-0.007687997968846428,0.005602259292457146,0.9908795282476806
2013-10-16,1,0.00022627833454838433,0.0002265636178441645,-0.005969647312870541,0.005602259292457146,0.9914716877608094
2013-10-18,1,0.0008435767064580078,0.0009204825198178766,-0.005969647312870541,0.005602259292457146,0.9918212160022654
2013-10-22,1,0.0011049878877300555,0.001230224902871533,-0.007687997968846428,0.004069817100394661,0.9911223535365413
2013-10-24,-1,-0.0014359897889536597,-0.0012440382533614887,-0.004658865430218142,0.005602259292457146,0.9936898345140733
2013-10-28,1,0.00021488211736271694,0.00024186497384402566,-0.004658865430218142,0.005164064823383887,0.993957943075734
2013-10-30,1,8.278219544922269e-05,8.835792971827162e-05,-0.004658865430218142,0.005164064823383887,0.9936458359749892
2013-11-01,-1,-0.0005789710844988118,-0.0004777925613195144,-0.004583535685886013,0.005164064823383887,0.9936564341029164
2013-11-05,-1,-0.00047735660737139706,-0.0003983308967004341,-0.004445740885644467,0.005731922997005575,0.9936182991531554
2013-11-07,-1,-0.0004947041368208881,-0.00042427674255974364,-0.004360892263188245,0.006734331541839124,0.9928268884676479
2013-11-11,-1,-0.0006529753521139004,-0.0005204225641625858,-0.004445740885644467,0.00836928433603456,0.9926252917244723
2013-11-13,-1,-0.0004191292526380102,-0.0003180193460591356,-0.004360892263188245,0.0071014887421457455,0.9929586969270596
2013-11-15,-1,-0.000654589247088475,-0.0005228190458096228,-0.004360892263188245,0.008660289271571132,0.992523608883249
2013-11-19,-1,-0.0012090991385648267,-0.0010260102534929102,-0.003636287279495877,0.009487176955044047,0.9920607052451561
2013-11-21,-1,-0.0007930474096369241,-0.0006306719350655592,-0.0040404454252844,0.009566778530100076,0.9920357845826596
2013-11-25,-1,-4.3888993548450906e-05,-1.6257670971080756e-05,-0.0040404454252844,0.009386360606273817,0.9923308279859819
2013-11-27,1,7.233463589303434e-05,8.237406343796938e-05,-0.003636287279495877,0.009386360606273817,0.9924650846050604
2013-12-02,1,7.789804241108448e-05,9.499796272026959e-05,-0.0010534271961620664,0.009828458490780581,0.9923450557951959
2013-12-04,1,0.0003726766589371099,0.00044837442487677024,-0.0010534271961620664,0.009828458490780581,0.9926116475944605
2013-12-06,1,0.0009916639254528038,0.0011312841569364254,-0.002422125330580499,0.009159401341786715,0.9941662220094583
2013-12-10,1,0.0012415890277267779,0.0014116688602102683,-0.0010534271961620664,0.009159401341786715,0.9943700751091598
2013-12-12,1,0.0009076260911051724,0.0010192968167142343,-0.0010534271961620664,0.009159401341786715,0.9937207544346905
2013-12-16,1,0.0009438576354218711,0.001038347834741468,-0.0010534271961620664,0.009462889948718758,0.9935748367290079
2013-12-18,1,0.0014312838955341726,0.001596821201589074,-0.002422125330580499,0.006045132000747553,0.9944502388074081
2013-12-20,1,0.0016428644664829139,0.0018559253578438336,-0.002422125330580499,0.006045132000747553,0.9945949465041313
2013-12-24,1,0.0018820563588585145,0.002132441682167365,-0.005812688199915686,0.004801272575159372,0.9934253401046709
2013-12-27,1,0.0017900920867821824,0.002009961302695102,-0.006929422055781548,0.0060528138577747555,0.9925202798700568
2013-12-31,1,0.0017860672868362367,0.0020034039726288134,-0.006929422055781548,0.0060528138577747555,0.9924643360440221
2014-01-03,1,0.0018145531668557896,0.002040031164619015,-0.00980996192079303,0.005822513702246646,0.9901137380849162
2014-01-07,1,0.0017074910572775668,0.0019284346287740354,-0.009152708443780456,0.009485935519800365,0.9895878456324886
2014-01-09,1,0.0018188129293127278,0.002024380180601841,-0.009152708443780456,0.009485935519800365,0.9893266267457254
2014-01-13,1,0.0015088373528378898,0.0016815840394905622,-0.006929422055781548,0.01030233383167804,0.9892360753342092
2014-01-15,1,0.0017417380092925915,0.0019282040842830798,-0.006929422055781548,0.011777732595258657,0.989195332154834
2014-01-17,1,0.0019190720482967,0.0021483702338855,-0.006929422055781548,0.011777732595258657,0.9891693336592252
2014-01-22,1,0.0014850718736639833,0.0016258905188507983,-0.009976385149802258,0.010041781378210268,0.9886722773557911
2014-01-24,1,0.0003763440723350489,0.0004081404043973438,-0.003347060438924643,0.01236277617126265,0.9893441850402449
2014-01-28,1,0.0007002679825368019,0.0007226192917325543,-0.003347060438924643,0.01236277617126265,0.9900937738637977
2014-01-30,1,0.0011924436876498525,0.0012765112521147082,-0.003347060438924643,0.010516513813412565,0.9903197141217248
2014-02-03,-1,-0.0009967963724440438,-0.0008157619907037724,-0.003244382405767917,0.01249991403375089,0.9913158216742266
2014-02-05,-1,-0.0001149369231825321,-4.054897586143217e-05,-0.002994223636825453,0.010516513813412565,0.992312818459856
2014-02-07,1,0.000550902766157277,0.0005562450903160959,-0.002994223636825453,0.005894533734076482,0.9930741855739034
2014-02-11,1,0.0011434727066493451,0.001255836740655999,-0.0032674575190358296,0.001309931007710922,0.9930856781467446
2014-02-13,1,0.0013424163801217094,0.0014676690772769318,-0.0044246381833779646,0.0004981776833111028,0.9929061239043366
2014-02-18,1,0.0006600237104830695,0.000680489208505814,-0.004275809923685414,0.0027597916507292692,0.99260326219601
2014-02-20,-1,-0.00015469824774676,-8.446769198582356e-05,-0.0028877347500254683,0.004429279674959323,0.9937576434700284
2014-02-24,1,0.0005219280911004079,0.0005432875000141925,-0.007466989845519661,0.002041584035989692,0.9930333854344789
2014-02-26,1,0.0002833680967742829,0.0003023295518808142,-0.010262217643978794,0.002041584035989692,0.9916698784996828
2014-02-28,1,0.0007099260057036452,0.0007461954311591569,-0.010262217643978794,0.002041584035989692,0.9913374745059579
2014-03-04,1,0.00021800721519425314,0.0002944373931948821,-0.008115027029892113,0.004019952232249992,0.9925789374170157
2014-03-06,1,0.0004123446996424136,0.0004297509325349179,-0.008115027029892113,0.004019952232249992,0.992476206915208
2014-03-10,1,0.0006905455553631427,0.0007309276605312403,-0.01093736485197567,0.004019952232249992,0.9911495188426336
2014-03-12,1,0.0002455720707942597,0.00028051294256179686,-0.010128537618605285,0.005215965648198472,0.9914452897686644
2014-03-14,1,0.0002858514859640466,0.00029094071133039596,-0.012626543508670386,0.005215965648198472,0.9898971802188263
2014-03-18,1,0.0011317193973860219,0.0012604555728752554,-0.012626543508670386,0.004019952232249992,0.9906463580891062
2014-03-20,-1,-0.00048339851858181725,-0.0002650854739296662,-0.012626543508670386,0.005422980016244045,0.9898168768226886
2014-03-24,-1,-0.0010133691889070862,-0.0007854260438425769,-0.010128537618605285,0.007047331362028701,0.9904102887132311
2014-03-26,-1,-0.0026133143906030692,-0.002191539654245061,-0.004262772975833522,0.007047331362028701,0.9914678567323986
2014-03-28,-1,-0.0022191997007619574,-0.001819506091630634,-0.01178812298415377,0.005422980016244045,0.9911065703017682
2014-04-01,-1,-0.0020100307729522945,-0.001620962804253367,-0.01178812298415377,0.007221937458563502,0.9905569676041321
2014-04-03,-1,-0.0020925014397613767,-0.0016949766511369724,-0.01178812298415377,0.007221937458563502,0.9906411258277017
2014-04-07,-1,-0.0028212545944278833,-0.002358515756359267,-0.006839930412335326,0.007221937458563502,0.9909042460913269
2014-04-09,-1,-0.0022628227051075004,-0.0018735537444412812,-0.006839930412335326,0.007659218743699387,0.9909988380993682
2014-04-11,-1,-0.004019874720034516,-0.003420391195045989,-0.002070967300651624,0.011959780290856686,0.990461214555244
2014-04-15,-1,-0.004317965509457312,-0.003641075912525559,-0.003508797943991811,0.011959780290856686,0.9909558020019953
2014-04-17,-1,-0.0028873723644896056,-0.0024107236009624365,-0.0037944585203453993,0.007041652405156103,0.9929579910554609
2014-04-22,-1,-0.002192180548798794,-0.0018178795832224427,-0.0037944585203453993,0.00700931265812604,0.9931010149740624
2014-04-24,-1,-0.002597000415586329,-0.0021784676574027276,-0.003508797943991811,0.009298912950079922,0.9921268871550344
2014-04-28,-1,-0.0040941755789953415,-0.003481162192219715,-0.002692390236113308,0.009298912950079922,0.9917638223773773
2014-04-30,-1,-0.0027929984833990383,-0.002335141446232037,-0.003508797943991811,0.008010378439546042,0.9936242010289389
2014-05-02,-1,-0.0019090782979943556,-0.0016338474574603904,-0.0037944585203453993,0.008010378439546042,0.9934271816435774
2014-05-06,-1,-0.0025097304729694257,-0.0021773455407851187,-0.004322191059159571,0.008010378439546042,0.9937325562707885
2014-05-08,-1,-0.0019339758494076017,-0.0016623844997538982,-0.004322191059159571,0.008010378439546042,0.9929171107813857
2014-05-12,-1,-0.0008119138243805037,-0.0006871474647560799,-0.004322191059159571,0.004418185616313916,0.9941107634779351
2014-05-14,-1,-0.0006825374088303697,-0.0006096911283358692,-0.004840093180370717,0.004418185616313916,0.9939274745732083
2014-05-16,-1,-0.0008986194247411678,-0.0008084205884746096,-0.004840093180370717,0.004692217981169923,0.9937842224524542
2014-05-20,-1,-0.0002952373957290489,-0.0002872094211847408,-0.005689107967895258,0.004692217981169923,0.9936791766737647
2014-05-22,1,0.00035132840973146765,0.0004330464773902278,-0.005689107967895258,0.004159416454796064,0.994205765353019
2014-05-27,1,0.0006715448303123222,0.0008066405074485001,-0.005689107967895258,0.0019983286522763538,0.9938692887588186
2014-05-29,1,0.0005811207563666378,0.0007096194008494455,-0.00472458351678862,0.0029575229916198095,0.9943741048501901
2014-06-02,1,9.412155713374546e-05,0.0001468687402466003,-0.004631829009052189,0.0041675672101781904,0.9944829633838442
2014-06-04,0,-5.339266292109061e-06,5.99209919154225e-05,-0.004041601636374885,0.004508787863587474,0.9944662477980825
2014-06-06,1,0.0007439920167980471,0.000887666369090837,-0.004041601636374885,0.0041675672101781904,0.9956477186919185
2014-06-10,1,0.0009943731956140703,0.0012007680556375133,-0.004620725998036481,0.003028832091538017,0.9954249160081833
2014-06-12,1,0.0005934970780827338,0.0007451711432616378,-0.004041601636374885,0.003028832091538017,0.9958017800395558
2014-06-16,1,0.0008493654582631024,0.0010385097047193239,-0.004041601636374885,0.004626768771181242,0.995401817568944
2014-06-18,1,0.00016294883719607188,0.00020337619011549682,-0.0039028663943329344,0.003028832091538017,0.995638374279234
2014-06-20,1,0.00025955631911301236,0.0003263181249785656,-0.0039028663943329344,0.00450187867738859,0.995306214113251
2014-06-24,1,0.0006521924869889995,0.0008060643991462393,-0.0039028663943329344,0.00398446321086137,0.9954953912962023
2014-06-26,-1,-0.000622148870089599,-0.0004982793136100227,-0.0039028663943329344,0.004376346985857945,0.9954546101026568
2014-06-30,-1,-0.0001332859584782344,-0.0001108749582515904,-0.004204520271910629,0.003982747369503081,0.9954019266112607
2014-07-02,1,0.00033112672448887455,0.00041245266607415774,-0.004204520271910629,0.0032909967330556756,0.9946394024564792
2014-07-07,1,0.0008778939055775397,0.0010650879393125706,-0.004204520271910629,0.003740060763603086,0.994602512537863
2014-07-09,1,0.0006851328002013969,0.0008690574802162215,-0.0036938777722960903,0.003740060763603086,0.9949224078114882
2014-07-11,1,0.0005359831360667389,0.0006748472184302931,-0.0036938777722960903,0.003982747369503081,0.9945682136390526
2014-07-15,1,0.0005563984525453957,0.0006372146782637111,-0.0036938777722960903,0.003740060763603086,0.9950597164085383
2014-07-17,1,0.0007388299790579042,0.0008759123373032974,-0.0016231542765383078,0.003982747369503081,0.9951178335702673
2014-07-21,1,0.0005202443328963641,0.0006302414593620464,-0.0012832636325430474,0.003982747369503081,0.995316904673098
2014-07-23,1,0.0006592128935363457,0.0008146632561565886,-0.0006514605629944238,0.004559750664925238,0.9955543483722462
2014-07-25,1,0.001303838706246201,0.001581691673232972,-0.000909945766610096,0.005383532061615631,0.9916571712011784
2014-07-29,1,0.0009074428167549443,0.0011262539790509514,-0.0007024620650524449,0.006241023039913771,0.9917131903510576
2014-07-31,1,9.407873491495196e-05,0.00020890909492685984,-0.0007024620650524449,0.006241023039913771,0.9926115257556742
2014-08-04,1,0.0002541544664026972,0.0003620300284340123,-0.0014362681387171104,0.006241023039913771,0.9925477240511287
2014-08-06,1,0.0001612322731890312,0.00023128365581228996,-0.0014362681387171104,0.00655242884112611,0.9919627917326339
2014-08-08,1,0.0008917016318008328,0.0011180510885140222,-0.0014362681387171104,0.006241023039913771,0.9924032405848724
2014-08-12,1,0.0011930080565705587,0.0014665616519802358,-0.0022164147763549507,0.006241023039913771,0.9918962465313889
2014-08-14,1,0.0008456561067482333,0.000996708770835588,-0.0028730773137688437,0.005383532061615631,0.9916817780832133
2014-08-18,1,0.00026420683431168615,0.0002683028036945348,-0.0034725674966809097,0.004039541586530366,0.9916340047182
2014-08-20,1,0.0007432883731823679,0.0008224412401321106,-0.004183299112440116,0.00436018689400121,0.9910675404855449
2014-08-22,1,0.0016567468887411403,0.0018826174701829447,-0.004758637351253155,0.002734081105373078,0.9942623393263696
2014-08-26,1,0.0021743883203549463,0.00246543502454065,-0.006041859857890953,0.002734081105373078,0.9930939580304688
2014-08-28,1,0.0013563789229893185,0.0014798529414570603,-0.006892054487992835,0.002734081105373078,0.9930862973983862
2014-09-02,1,0.0015884034388855815,0.0017664810338303234,-0.006892054487992835,0.0015425634647541697,0.992741134403469
2014-09-04,1,0.0010906511182535248,0.0011060057457316775,-0.006892054487992835,0.0008639645655334786,0.9932299957204832
2014-09-08,1,0.001133821497700152,0.001173294903432859,-0.006892054487992835,0.0015687802660161434,0.9932760611720941
2014-09-10,1,0.0017418522725326673,0.0019114821597675264,-0.00803230961345289,0.0015687802660161434,0.9921765598488923
2014-09-12,1,0.0014294145150218769,0.0015793115832788392,-0.010430704063145772,0.0015687802660161434,0.989210088528258
2014-09-16,1,0.0011126424236069378,0.00119488462389403,-0.010430704063145772,0.002965437134433678,0.9894541769804983
2014-09-18,1,0.0006122175133332249,0.0006545411662426256,-0.010430704063145772,0.002965437134433678,0.9898963219323751
2014-09-22,1,0.00044636415835074325,0.000453968543815288,-0.0072281368471849225,0.004762161760937757,0.9897217374124856
2014-09-24,1,0.0004642484799616831,0.00048455436043538726,-0.005935538887100378,0.004762161760937757,0.9897364853694174
2014-09-26,-1,-0.000613633199388566,-0.00042595752026537096,-0.0052767259239366055,0.008010395429833977,0.9888928410820168
2014-09-30,-1,-0.0007182565650942198,-0.000541884817668768,-0.004666829361043892,0.011389116193316385,0.9883698199925378
2014-10-02,-1,-0.00028268643104799036,-0.00020898540547486068,-0.0038704316252831878,0.011389116193316385,0.9882506046258916
2014-10-06,-1,-0.00036008605326299565,-0.00025604966636660903,-0.0038704316252831878,0.011389116193316385,0.9881265879368355
2014-10-08,1,0.00014976754015984885,0.00020557173675998976,-0.002370701230285199,0.008010395429833977,0.9897681633244015
2014-10-10,-1,-0.002718982600513542,-0.0023490094659121196,0.0020048908075878166,0.008839388669919311,0.9911096229190899
2014-10-14,-1,-0.0018876864596716315,-0.0016636235553752219,0.0022460832852978217,0.008839388669919311,0.9916131799931635
2014-10-16,-1,-0.0015567765874924247,-0.0013678756999033134,0.0022460832852978217,0.008839388669919311,0.992016828174465
2014-10-20,-1,-0.0010460296518763762,-0.0009080404992122401,-3.137203109930439e-06,0.007109875648574206,0.9931168233264462
2014-10-22,-1,-0.0009920783980944552,-0.0008361714451154726,-3.137203109930439e-06,0.006707059634029035,0.9939828214874624
2014-10-24,0,-7.943878176668213e-07,6.68614422860313e-05,-3.137203109930439e-06,0.005537774465741654,0.9953612115802271
2014-10-28,1,0.001162543533943304,0.0013111435557758774,0.0009523573375883556,0.006707059634029035,0.9960705005215318
2014-10-30,1,0.0012716428199451052,0.0014286644403537089,0.0001785414559500558,0.006707059634029035,0.9961306812211778
2014-11-03,1,0.00125228734234874,0.0013792556231028447,-0.00018167865905998625,0.006707059634029035,0.9958105328439292
2014-11-05,1,0.001216667978081563,0.0013436973516223962,-0.0007535419945267542,0.007091743411526729,0.9939356138459264
2014-11-07,1,0.0014043329883029134,0.0015547295889820254,-0.003091187158688086,0.005431865215564832,0.9934294286713227
2014-11-11,1,0.0012836049627887227,0.0014114981193581021,-0.003442275582993568,0.005431865215564832,0.9928059052963679
2014-11-13,1,0.0011654125660556965,0.0012784384988008268,-0.004338102002593566,0.007066444827965028,0.9914505129176591
2014-11-17,1,0.0009909248560856974,0.001077570731054213,-0.004210790204982883,0.007066444827965028,0.9912829969372875
2014-11-19,1,0.0010493482857881094,0.0011423112831760313,-0.0036196400155528523,0.008261716337088987,0.9895532360563092
2014-11-21,1,0.0013798713108260077,0.0015152359188850897,-0.004248828850550097,0.008186723258270235,0.9898297352650715
2014-11-25,1,0.0018814417235870117,0.0020937711579717432,-0.004248828850550097,0.003775203005246916,0.9901420008204113
2014-11-28,1,0.0016733903773310111,0.0018315595265544072,-0.004248828850550097,0.0029198703650390664,0.9902704979850685
2014-12-02,1,0.0014878933687956079,0.0016219233140184995,-0.005494918625041874,0.0018769882351530156,0.9901324651228275
2014-12-04,1,0.0027957127816927345,0.003129043221886873,-0.008288094495679993,0.000912560348196325,0.990139738738487
2014-12-08,1,0.0016591630699037629,0.0018249702126346638,-0.008288094495679993,0.00128763312858369,0.9914697330117115
2014-12-10,1,0.0011950404187257378,0.0012867466279144622,-0.006307021073295621,0.0019073671956340984,0.9917434930659225
2014-12-12,1,0.0004308405777039791,0.00044762217513727036,-0.006307021073295621,0.0016028383476706205,0.9928957863363131
2014-12-16,1,0.00047913584281593477,0.000482011235202392,-0.008288094495679993,0.0016028383476706205,0.9925032586984172
2014-12-18,1,0.0016640552686112639,0.001793654418938104,-0.008288094495679993,0.00128763312858369,0.9931996972771185
2014-12-22,1,0.0009254010701820678,0.0009412209958352426,-0.008288094495679993,0.0019073671956340984,0.9927597375122434
2014-12-24,1,0.0009720501457945305,0.0009763793233590321,-0.008288094495679993,0.006651062430716608,0.9920028921608681
2014-12-29,1,0.001050982192846391,0.0010733657655020257,-0.008288094495679993,0.006651062430716608,0.9913264542377872
2014-12-31,1,0.00036595310405854116,0.0004233071784375088,-0.008616958632400987,0.008271617094909955,0.990923962935005
2015-01-05,-1,-0.00019634825166341444,-7.783675542063085e-05,-0.00751076815039432,0.00944513922834742,0.9906371610895721
2015-01-07,-1,-0.0003648875601120037,-0.0002372202219907705,-0.006118470201088066,0.00944513922834742,0.9910304831647421
2015-01-09,1,0.0002049773901547643,0.0002640678691367041,-0.006118470201088066,0.008271617094909955,0.9913267654825734
2015-01-13,-1,-0.00012132288808002541,-3.6963771175464976e-05,-0.005495506374049917,0.00903285254781936,0.9912108196787087
2015-01-15,-1,-0.0006092302119397885,-0.00048126383774893625,-0.004266528145322526,0.010026249508583801,0.9913493407845243
2015-01-20,-1,-6.185141513913383e-05,-4.247097433761835e-05,-0.003641364110019015,0.009500604458703831,0.9918349887320337
2015-01-22,1,0.0006886109374399063,0.0007628347323288102,-0.003641364110019015,0.009500604458703831,0.9912361577073627
2015-01-26,1,0.0011236481322161947,0.0012561912594334572,-0.003641364110019015,0.009116740910769422,0.9917705487778213
2015-01-28,1,0.0005610648036232166,0.0006310909850042797,-0.002967562062099505,0.009116740910769422,0.991902723646813
2015-01-30,1,0.0004296649947939202,0.0004722275611028435,-0.002967562062099505,0.009500604458703831,0.9922682830851112
2015-02-03,1,0.0014790112337744045,0.0016739123345646382,-0.004196891985402853,0.009116740910769422,0.9928670336744977
2015-02-05,1,0.0008965863839514774,0.0009924247719368248,-0.005232072593600437,0.009116740910769422,0.9926370424548416
2015-02-09,1,0.0008311465294197175,0.0009142235069493608,-0.005530653123587201,0.009116740910769422,0.992178464546216
2015-02-11,1,0.0012152948787966416,0.0013590329743004262,-0.005530653123587201,0.007053723148310756,0.9924076926837588
2015-02-13,1,0.0010248301602550536,0.0011084995991459032,-0.005530653123587201,0.007053723148310756,0.9921722187449805
2015-02-18,1,0.00120741301517249,0.0013242621974912942,-0.006647803498788519,0.007053723148310756,0.9920257045938217
2015-02-20,1,0.0018579668469612793,0.002041853084586502,-0.006647803498788519,0.005757384549878563,0.9933392610336611
2015-02-24,1,0.0016118492345533538,0.001742686379656322,-0.007011401846352826,0.005757384549878563,0.9928307922941634
2015-02-26,1,0.0011872906371634606,0.0012491970322918678,-0.007011401846352826,0.005757384549878563,0.9924576608129826
2015-03-02,1,0.0015392924244008236,0.001659453199622702,-0.007011401846352826,0.005757384549878563,0.992573843716637
2015-03-04,1,0.0011984474797156826,0.0012846382079463431,-0.006166230641665372,0.005757384549878563,0.9931866163285458
2015-03-06,-1,-0.0007335905447657423,-0.0004711227711834764,-0.0031139598182884304,0.006721417490754774,0.9929184724946077
2015-03-10,-1,-0.0009668542275478708,-0.0007065591115247654,-0.001851717882835756,0.007979139200467632,0.9929658265512898
2015-03-12,-1,-0.00048437662408382695,-0.0002714076695509858,-0.001851717882835756,0.007979139200467632,0.9934873665096439
2015-03-16,1,5.528204299962299e-05,0.00019300715168138043,-0.0031139598182884304,0.005954838165030234,0.9940230084748127
2015-03-18,1,0.00014310207737043676,0.0002569906708544499,-0.001851717882835756,0.004303390353846229,0.9947607619510658
2015-03-20,1,0.0006235801437433457,0.0006428629838946528,-0.0031139598182884304,0.0033475566709443676,0.9938337047215752
2015-03-24,1,0.0002713397942556959,0.0003062865630307046,-0.0013869102749580569,0.005507455425875355,0.9940927034715611
2015-03-26,-1,-0.00014216061859121813,-6.922109589537238e-05,-0.0012643850000734504,0.006833872287108017,0.9941236366386068
2015-03-30,1,0.00030197594125163404,0.00031832655273754244,-0.0014877413387548127,0.006266159270053081,0.994401964623372
2015-04-01,1,0.00028661169430065905,0.00031914698971352063,-0.003360655304247943,0.006266159270053081,0.9937569343231479
2015-04-06,1,0.0005352429260772666,0.0005585647434651274,-0.003360655304247943,0.005507455425875355,0.993993348816552
2015-04-08,1,0.001096272780678007,0.0011894612027832264,-0.006609380497572844,0.004681259369657487,0.9938723632988792
2015-04-10,1,0.0009814262874442525,0.0010490445953861695,-0.006609380497572844,0.0062295496592564645,0.9928703388499408
2015-04-14,1,0.0002959736030756805,0.00033586199871681434,-0.006707878533902724,0.0062295496592564645,0.9926545853509433
2015-04-16,1,0.0002625344549840647,0.0003085503960128285,-0.006707878533902724,0.00674293263046362,0.9919113169480083
2015-04-20,1,0.00039699768653833357,0.0004016015588864723,-0.003360655304247943,0.006715488531957905,0.9929153727699181
2015-04-22,1,0.0007044154464230057,0.0007818718319987718,-0.003360655304247943,0.006715488531957905,0.9933346808286256
2015-04-24,1,0.0008518786275019715,0.000937791188979488,-0.003360655304247943,0.006715488531957905,0.9931671693336729
2015-04-28,1,0.0010706812089973155,0.0011830982523543961,-0.003598513570179877,0.007227577193064062,0.9921904263926482
2015-04-30,1,0.0005707786301224569,0.0006447489319473887,-0.0025433499517992864,0.007227577193064062,0.9926335062909692
2015-05-04,1,0.0005391202287772966,0.0005647352176173632,-0.0025433499517992864,0.007227577193064062,0.992691113691617
2015-05-06,1,7.39777426840226e-05,0.0001071674976917116,-0.0025433499517992864,0.008022353758139885,0.9924022709611235
2015-05-08,1,0.00042044173334133446,0.0004668123052612543,-0.004415647274155175,0.00756908745322925,0.9924737228581163
2015-05-12,1,0.0002283272706836887,0.0002930679921704618,-0.00455479168671274,0.008799887652084021,0.9919414834717561
2015-05-14,1,0.0014195739200992814,0.0015801675725472168,-0.0064540860924820085,0.007486755157712107,0.9922417538233846
2015-05-18,1,0.0013967187086556744,0.0015417648779682972,-0.008034957413797441,0.0074640794094253055,0.9919162710324317
2015-05-20,1,0.0014684710342302819,0.0016266914327265321,-0.008034957413797441,0.0074640794094253055,0.9919294736147487
2015-05-22,1,0.0013692020177626973,0.0015140029073234928,-0.0064540860924820085,0.0074640794094253055,0.9923295867072228
2015-05-27,1,0.0014648142125453167,0.0015875752509468704,-0.00459572372512114,0.0058635940207238425,0.9934962137131768
2015-05-29,1,0.0009550954190564305,0.0009799222325136488,-0.004752967249861255,0.0058635940207238425,0.9933177405822182
2015-06-02,1,0.0008545493425946267,0.000859010765795721,-0.0061411466236115505,0.0074640794094253055,0.9924400989006145
2015-06-04,1,0.0008678917932454538,0.0008904101551890748,-0.006469001979101928,0.0058635940207238425,0.9926080970587675
2015-06-08,1,0.00012980211676493582,0.00022488811318343178,-0.006041641038428734,0.005101797139164125,0.9936654773979193
2015-06-10,1,0.00030832822549143305,0.0004093338662559559,-0.005239098733137218,0.005101797139164125,0.9941193500326724
2015-06-12,1,0.00023656650223939375,0.00034242358716902045,-0.004521881520929681,0.005101797139164125,0.9944227951782415
2015-06-16,1,0.0007378653058883972,0.0007456774769825672,-0.00420259416843091,0.005382302069580555,0.9948064371244364
2015-06-18,1,0.0009422979346570914,0.0009803780374518897,-0.004521881520929681,0.004771859400653673,0.9944948547800325
2015-06-22,1,0.0006247243727294585,0.0006674097228870678,-0.00534838385163401,0.0038571227823076277,0.9943898420242823
2015-06-24,1,1.2605474425745223e-05,0.00014033529285601445,-0.00534838385163401,0.0047254031114478635,0.9943599970126057
2015-06-26,1,0.0006748671179202917,0.0006779451191159378,-0.006835172773432658,0.004403439635593177,0.9934687763658427
2015-06-30,1,0.00024400015404367462,0.0003159517506216805,-0.006536656017884206,0.006410809960510322,0.9932024507947645
2015-07-02,-1,-0.00014316069064715977,-1.3759389418416582e-05,-0.00377173903274688,0.006410809960510322,0.9936652457074585
2015-07-07,0,-6.481851143797066e-06,8.648840067706565e-05,-0.0037982483739105602,0.006687435032410532,0.9933221245586743
2015-07-09,1,0.0004391433681400921,0.00047281804341468343,-0.005595071499090146,0.006687435032410532,0.9928716410933575
2015-07-13,1,0.0007169611901400442,0.0007256290139982178,-0.005595071499090146,0.007252039030553526,0.9926115350611253
2015-07-15,1,0.001250813823003312,0.0013781723683230346,-0.007112821520525809,0.0067009015500877536,0.9923520070226748
2015-07-17,1,0.0009105609445776312,0.0009922349483337187,-0.005669758129836465,0.0067009015500877536,0.992593286011637
2015-07-21,1,0.00037170260410491313,0.0003812872864404735,-0.0037982483739105602,0.007972392428886043,0.9925814310180899
2015-07-23,1,0.0007007783403114463,0.0007518513355365801,-0.005669758129836465,0.007972392428886043,0.9893721788956676
2015-07-27,-1,-0.0007006378439775627,-0.0005281078726630364,-0.0064033613956841285,0.007972392428886043,0.9873822465532834
2015-07-29,1,0.0005004743197999324,0.0005347305392331877,-0.010650333709056478,0.006544792380328692,0.9862703159993313
2015-07-31,0,-1.8080359808251623e-05,0.0001085384952046294,-0.010650333709056478,0.006544792380328692,0.9861368486428149
2015-08-04,1,0.0003131507884606096,0.0003784191333797574,-0.01277932602126314,0.00523204410793804,0.985244875462549
2015-08-06,1,0.00044556341353048444,0.00046549163369983247,-0.01277932602126314,0.006989356336712649,0.9847927531120734
2015-08-10,1,0.0008738779568470386,0.0009191952372275048,-0.01277932602126314,0.006989356336712649,0.9833866747612982
2015-08-12,1,0.0006306102439040093,0.0006575530242878077,-0.016134620458432974,0.008407734617581965,0.9827935308475154
2015-08-14,1,0.0004513878263895831,0.00046937401252737426,-0.016134620458432974,0.008407734617581965,0.9826174324314911
2015-08-18,1,7.306035054852153e-05,0.00015578643701676738,-0.016134620458432974,0.0078318782852063,0.9828029880797894
2015-08-20,-1,-0.001495357711111905,-0.0012517436646506885,-0.01270879748419746,0.0078318782852063,0.9857916333160492
2015-08-24,-1,-0.0023228180198198,-0.001979506967571273,-0.006603712074742207,0.008095535286628257,0.9879631022268653
2015-08-26,-1,-0.0017304513053680026,-0.0014778606667392223,-0.006577825144857677,0.0078318782852063,0.9900048838855953
2015-08-28,-1,-0.0017614684749093672,-0.0015320038926570781,-0.0113775984916168,0.0078318782852063,0.9899044707135619
2015-09-01,-1,-0.002329973328949385,-0.0020287348425217866,-0.007540645439525128,0.0078318782852063,0.990763920904996
2015-09-03,-1,-0.0017851376325726787,-0.0015452504306529365,-0.007540645439525128,0.006351816884734989,0.9915491549770014
2015-09-08,-1,-0.0006671199021073626,-0.0005570684526106041,-0.0053074697707886295,0.006351816884734989,0.9928556169373619
2015-09-10,-1,-0.0016329580577578331,-0.001387991087912726,-0.0049144967846017715,0.005060700226941953,0.9936735444191088
2015-09-14,-1,-0.0016413180340861303,-0.0014095164350389077,-0.0049144967846017715,0.004845337244736976,0.9936944786201719
2015-09-16,-1,-0.0009287323906704348,-0.0007808584357119641,-0.0053074697707886295,0.00476969455576413,0.99393534574263
2015-09-18,-1,-0.001638421514865996,-0.0014129403293238782,-0.0045231698701651115,0.005825717694489648,0.9934506550432777
2015-09-22,-1,-0.0013907862110209572,-0.0011552189434865631,-0.004631731172954827,0.004845337244736976,0.9939851402970068
2015-09-24,-1,-0.0016334326126716005,-0.0013818818233344353,-0.004631731172954827,0.005847756830981733,0.9921274108393577
2015-09-28,-1,-0.002555980317678197,-0.0021978890684602923,-0.0006746379717992666,0.005847756830981733,0.9917387198824754
2015-09-30,-1,-0.0020600122812397736,-0.001795426505656469,-0.0006746379717992666,0.00871666996761955,0.9907996318903787
2015-10-02,-1,-0.001394866788163387,-0.001200118708463428,-0.001766576346666643,0.005847756830981733,0.9915469643204888
2015-10-06,-1,-0.0011541440416936377,-0.001013452127818434,-0.001766576346666643,0.005847756830981733,0.991760870619306
2015-10-08,-1,-0.0007927418739027924,-0.0007035695951783723,-0.004075252537365845,0.00844699367869086,0.9915372142946063
2015-10-12,-1,-0.0006397362459146544,-0.000570763786813429,-0.005058635045637244,0.009073170301311726,0.9909478723951025
2015-10-14,-1,-0.0006358528396386491,-0.0005628202412241908,-0.004075252537365845,0.009073170301311726,0.9910934005122695
2015-10-16,1,3.390048653889632e-05,5.396054262200904e-05,-0.006745054594532308,0.005838732446413813,0.9911912145226657
2015-10-20,-1,-0.00024326501966331573,-0.00023011100009770762,-0.006745054594532308,0.010138484447115088,0.9903611204251137
2015-10-22,1,0.0008803947219741981,0.0010272989022321471,-0.004588407959712313,0.009494431463651918,0.9922938524714349
2015-10-26,1,0.000700428012552356,0.0008280684802281055,-0.006745054594532308,0.010138484447115088,0.987271646333402
2015-10-28,1,0.0013084591640570057,0.0015089355364635497,-0.004588407959712313,0.009494431463651918,0.9888921826697922
2015-10-30,1,0.0010042769295309385,0.0011857253692919016,-0.004588407959712313,0.010138484447115088,0.9884587644948538
2015-11-03,1,0.0011242670055187738,0.0013135424993364528,-0.006745054594532308,0.010138484447115088,0.988066605715471
2015-11-05,1,0.0010909695725901019,0.0012755908786845362,-0.007321273457455271,0.010306586044657541,0.9845492048577246
2015-11-09,1,0.0009234750134169817,0.001089602256680251,-0.008073205909859712,0.009494431463651918,0.9840645968048944
2015-11-11,1,0.0011437681063788284,0.001344247440911387,-0.00957172134789414,0.009494431463651918,0.9834057680645942
2015-11-13,1,0.0006170847382700572,0.0007350213751075392,-0.00974516028807979,0.010122499120461858,0.9832478661464557
2015-11-17,1,0.0011539229514454259,0.0013388680139045893,-0.00974516028807979,0.009529938739160693,0.983498425205081
2015-11-19,1,0.0018149660691534758,0.0021034173917603414,-0.01111418072346838,0.008697428445934128,0.9829864600159727
2015-11-23,1,0.0008541163158727083,0.0009952366361789555,-0.010197557345642996,0.008697428445934128,0.987653029278761
2015-11-25,1,0.0005785327609020251,0.0006880540372121894,-0.010197557345642996,0.0103801544092573,0.9872428687813729
2015-11-30,1,0.0005768844351876758,0.0007017048221102269,-0.010197557345642996,0.008947894068097838,0.9876343430199476
2015-12-02,1,0.0005766381651741662,0.0007022276155393551,-0.011073787784187617,0.008947894068097838,0.9875283385900995
2015-12-04,1,0.0003173146619576798,0.00041924171410654505,-0.011073787784187617,0.006842099585128586,0.9909996216322187
2015-12-08,-1,-0.0005196548927843568,-0.0005042251702386326,-0.011527146001869248,0.006842099585128586,0.9906091159769564
2015-12-10,-1,-0.0008413344702491421,-0.0007751357853183257,-0.011527146001869248,0.006842099585128586,0.9902896995276486
2015-12-14,-1,-0.0010364272194253999,-0.0009334766559633039,-0.012284176590895802,0.0024054973209436353,0.9896994017685113
2015-12-16,-1,-0.001120747761985185,-0.0009894101547319762,-0.012284176590895802,0.0024054973209436353,0.9892653607482327
2015-12-18,-1,-0.0008129264188493882,-0.0007833850185110005,-0.012284176590895802,0.00617864083247933,0.9894536921093227
2015-12-22,-1,-0.00021834761494423006,-0.00017931244413577877,-0.012284176590895802,0.00617864083247933,0.9884804036304671
2015-12-24,-1,-0.0001065186212111659,-4.2165887780388144e-05,-0.01410079921199448,0.00617864083247933,0.9876917224857252
2015-12-29,1,0.00022640893332880253,0.0003243718103357467,-0.01410079921199448,0.0014371467641641571,0.9878640520541122
2015-12-31,1,3.462381892712767e-05,0.00013673590387422414,-0.01410079921199448,0.0033428389550168875,0.9869622017847051
2016-01-05,-1,-0.00016476832186892266,-9.570732493704217e-05,-0.00928984921092466,0.006264809462663439,0.9871006903842251
2016-01-07,-1,-0.0007964271408419284,-0.0007927805000777157,-0.007531940084040842,0.006910210545807778,0.9872925176341559
2016-01-11,-1,-0.0014318609830355489,-0.0013553462783375554,-0.007852947446957286,0.006910210545807778,0.9879697389299188
2016-01-13,-1,-0.003285965881652384,-0.002895265027039291,-0.007531940084040842,0.00832189457259272,0.9892208474813581
2016-01-15,-1,-0.0025090582998519503,-0.0021875812646455295,-0.007531940084040842,0.011014808374251998,0.9882675113923033
2016-01-20,-1,-0.0024353357077956557,-0.002144515458011324,-0.007531940084040842,0.014305057759640848,0.9874764624641057
2016-01-22,-1,-0.0018744160453857599,-0.001649664275213878,-0.007531940084040842,0.011689297160696329,0.9880826263536323
2016-01-26,-1,-0.002425418100481835,-0.002097812871989067,-0.007531940084040842,0.010234591718926763,0.9886375789102252
2016-01-28,-1,-0.002190934339884749,-0.0019330423020889908,-0.007531940084040842,0.011689297160696329,0.9878091662603723
2016-02-01,-1,-0.0014957058810952672,-0.0013421731052532197,-0.007852947446957286,0.011689297160696329,0.98817403438226
2016-02-03,-1,-0.0015804078495916345,-0.0014053867435569025,-0.0025841776304808533,0.011689297160696329,0.988713447515402
2016-02-05,-1,-0.0023835285097191473,-0.002106820365285732,-0.0010306533176876705,0.011689297160696329,0.9896206478836991
2016-02-09,-1,-0.002125474818534604,-0.0018964187802093385,-0.0005081595029665119,0.011689297160696329,0.9896648178368247
2016-02-11,-1,-0.0018358479298702748,-0.0016330237619452872,-0.0008136791471854533,0.014170055951123467,0.9894666626914507
2016-02-16,-1,-0.0008595340724300955,-0.0007815323737645913,-0.0008136791471854533,0.00943443678863579,0.9915489698969365
2016-02-18,-1,-0.001711072882440154,-0.0015139473686564008,-0.0008136791471854533,0.007817451840396185,0.9916085575971156
2016-02-22,-1,-0.0008388781693771925,-0.0007292569100123016,-0.0024022274682864034,0.007817451840396185,0.9920237556546793
2016-02-24,-1,-0.00080579263149687,-0.0007004465345300565,-0.0024022274682864034,0.007817451840396185,0.9921189390436824
2016-02-26,1,3.172235215702344e-05,6.271005060338517e-05,-0.003817718424978664,0.007646223276581504,0.9929317157924245
2016-03-01,1,0.0004755407582708586,0.0005584038317166789,-0.003117072915717085,0.007646223276581504,0.9939764821097681
2016-03-03,1,0.00023317367226232248,0.00029793613524619863,-0.003117072915717085,0.007817451840396185,0.9928554142658077
2016-03-07,1,0.00031910837353947666,0.000417210741064005,-0.004396615610744803,0.007817451840396185,0.9924659038749652
2016-03-09,1,1.679723998540016e-06,3.9805635734093545e-05,-0.004396615610744803,0.007817451840396185,0.99248815660773
2016-03-11,1,0.000223217310161707,0.0002971934273137693,-0.004752351235120947,0.007280636581349626,0.9930857581568018
2016-03-15,1,0.0005556061804902123,0.0006612251714917022,-0.004752351235120947,0.007817451840396185,0.9928442574341759
2016-03-17,1,0.001226841234540302,0.001476682900194313,-0.004752351235120947,0.00661634393691897,0.9932024170242341
2016-03-21,1,0.001195671551642425,0.0014297816127023357,-0.004752351235120947,0.007301481614880303,0.9932944244509777
2016-03-23,1,0.0013270172688915997,0.0016064260914821595,-0.004752351235120947,0.00808102353866691,0.9928667708411303
2016-03-28,1,0.0012504797950702415,0.0014919133412677897,-0.004986555710304975,0.00808102353866691,0.9929391652445299
2016-03-30,1,0.0015301124181108536,0.001827540841988168,-0.0071182379301783115,0.006774964974340638,0.9932460307498523
2016-04-01,1,0.002460318323560788,0.0028841414245396445,-0.007317668698882585,0.0037787587810307523,0.9927328526565365
2016-04-05,1,0.0017516836694506767,0.002090844850438517,-0.007300317518827335,0.006310281133085998,0.9924240919840933
2016-04-07,1,0.0018100878059032306,0.0021703912428278896,-0.0075475223636819275,0.006310281133085998,0.9919340548753867
2016-04-11,1,0.0019563874642324446,0.0023125581215355327,-0.007282613185074942,0.007993176305210408,0.9920407545151894
2016-04-13,1,0.002025602695835797,0.0024254958967556374,-0.0075475223636819275,0.007993176305210408,0.9913760981310884
2016-04-15,1,0.0024254583300169184,0.002902992016282045,-0.008114681494364001,0.007993176305210408,0.9909354747099891
2016-04-19,1,0.002118949628374118,0.002520207882651116,-0.009830070851674106,0.006361419629508129,0.990043630306825
2016-04-21,1,0.0018755795430826258,0.002221367944463127,-0.008114681494364001,0.0080534844986734,0.9904872069089862
2016-04-25,1,0.0013569562634700365,0.0016093520454068307,-0.008114681494364001,0.009515255507854854,0.9896069701139134
2016-04-27,1,0.0014606677412237388,0.0017292609134835824,-0.008114681494364001,0.012646642946078044,0.9887998708220024
2016-04-29,1,0.0012642909719517083,0.0015100124657915432,-0.0075475223636819275,0.012646642946078044,0.9896742506196361
2016-05-03,1,0.0012674613554269625,0.0014701955472531155,-0.0036853231415914637,0.009515255507854854,0.9908482514118885
2016-05-05,1,0.0006741564482779102,0.0007878474861111719,-0.0017604030382492224,0.009515255507854854,0.9908206045082
2016-05-09,1,0.0009883275684470884,0.0011472219983885356,-0.0017604030382492224,0.00937728228398054,0.9908435384208777
2016-05-11,1,0.0009627729980035205,0.0011197071005742125,-0.0017604030382492224,0.00937728228398054,0.991038543160831
2016-05-13,1,0.0004853475387946107,0.0005423413331275933,-0.003486985423524404,0.00937728228398054,0.9907087758708225
2016-05-17,1,0.0006313791107418288,0.0007402885020879952,-0.0017604030382492224,0.008174228445634603,0.9920301439261394
2016-05-19,1,0.0011677325582766318,0.0013486186499202,-0.0017604030382492224,0.008009496892058331,0.9929120682049807
2016-05-23,1,0.001840335291792193,0.0021290937871290072,-0.0012433183300064278,0.008009496892058331,0.9936201396173068
2016-05-25,1,0.0021199482182290546,0.0024158660047570134,-0.0012433183300064278,0.008009496892058331,0.9941899278481532
2016-05-27,1,0.0019814032872901696,0.002247821454596282,-0.006766638988967698,0.007195414363688069,0.9919021764203643
2016-06-01,1,0.001657325961260076,0.00184088599453462,-0.006766638988967698,0.009487782909903986,0.9908923509293835
2016-06-03,1,0.0010547331423760463,0.001117463941369097,-0.00598332207965537,0.012657898094556034,0.9903574419620301
2016-06-07,1,0.0007106579679632607,0.0007458779328736581,-0.00598332207965537,0.012657898094556034,0.9906155987398703
2016-06-09,1,0.001103659850326409,0.001147681379302146,-0.004362198279692121,0.009137453350517417,0.9911716953243357
2016-06-13,1,0.0007780964829099168,0.0008005556460463973,-0.0007091640686736772,0.009137453350517417,0.9916113011412585
2016-06-15,1,0.0010424400120971626,0.0010594771834390514,-0.0012213249276926863,0.009137453350517417,0.991749836273236
2016-06-17,1,0.0008480521232997389,0.0008636041445414099,-0.002492319275789419,0.009137453350517417,0.9913747097702987
2016-06-21,1,0.0006961223278687011,0.0007398916670859441,-0.002492319275789419,0.007803826464214254,0.9915771331080897
2016-06-23,1,0.0013985133632758411,0.0014556900320718946,-0.004362198279692121,0.006894161456444598,0.9916507350766322
2016-06-27,1,1.2116299986625876e-05,0.00012539476808971024,-0.003576300489630516,0.006894161456444598,0.9933680763446873
2016-06-29,1,0.0003756647435526661,0.00048569301376084515,-0.003576300489630516,0.005260891867329063,0.9945708573919689
2016-07-01,1,0.00020474763360751213,0.00033133828180879703,-0.002938104033886113,0.005260891867329063,0.9953787352521082
2016-07-06,1,0.0005082736495933997,0.0006023241510712575,-0.002938104033886113,0.005260891867329063,0.9951298818730033
2016-07-08,1,0.000860908683087046,0.0008827432657009502,-0.002938104033886113,0.005594047457284907,0.994835509727368
2016-07-12,1,0.0006103939610679334,0.0006904087339251664,-0.002938104033886113,0.005594047457284907,0.9950513712915161
2016-07-14,1,0.000947556334712573,0.0009476626492594592,-0.002938104033886113,0.005594047457284907,0.994929223008705
2016-07-18,1,0.0005440341788925272,0.0005968644359700269,-0.0026288214518307377,0.005777369749132495,0.9950008663759332
2016-07-20,1,0.0007643331261250677,0.0007700035161026425,-0.002938104033886113,0.005777369749132495,0.9952326567070973
2016-07-22,1,0.0008489529840620214,0.0008841181096773045,-0.0026288214518307377,0.005777369749132495,0.9936627055036991
2016-07-26,1,0.0002265147125291825,0.000281989775993844,-0.0015223928580045927,0.006047514501837414,0.9937805981031239
2016-07-28,1,0.0003263275912801882,0.00037486568026145854,-0.0015223928580045927,0.006047514501837414,0.9938117174084734
2016-08-01,1,0.00022213775973421376,0.00028948566138242325,-0.0007065721615356084,0.006047514501837414,0.9938458068251451
2016-08-03,1,0.0002946465893814243,0.00034546448956226006,-0.0007065721615356084,0.006047514501837414,0.9941036589158461
2016-08-05,1,0.0005699417309951069,0.0005854263907296693,-0.0015223928580045927,0.00593820854767195,0.9942867539584038
2016-08-09,1,0.0006831995479684087,0.0006899172221158952,-0.0015223928580045927,0.0049493575085003145,0.9945061626384821
2016-08-11,1,0.0007097719442769757,0.000723921110048005,-0.002782946752900656,0.0041010986800974905,0.993392989442695
2016-08-15,1,0.0007523635979636686,0.0007616685964777674,-0.0035483277670180315,0.004368272715126512,0.9921827403227663
2016-08-17,1,0.0006548327853274459,0.000655452214142999,-0.00356268508000537,0.0068587601985802575,0.9916239180822459
2016-08-19,1,0.0013020832157765929,0.0013942037383491397,-0.003636529130414714,0.0068587601985802575,0.9932628412733394
2016-08-23,1,0.0016899311361007609,0.0018733544200274274,-0.003636529130414714,0.007347664189667906,0.9930558533161473
2016-08-25,1,0.0012484363439264836,0.001339370673103393,-0.003636529130414714,0.00900580128078783,0.9925377166113007
2016-08-29,1,0.001325059357994269,0.001415461381719341,-0.003636529130414714,0.00900580128078783,0.9923387157710073
2016-08-31,1,0.0010311573454857136,0.0010650853499442037,-0.003926537685344819,0.00900580128078783,0.9917375877570217
2016-09-02,1,0.0012098202164027552,0.0012794753025260036,-0.0052322662803756005,0.007860668242660768,0.991731891128921
2016-09-07,1,0.0012295698049662432,0.0013060152105137412,-0.0052322662803756005,0.00959597357753173,0.9910053529268419
2016-09-09,1,0.0004214407526784491,0.0004412924435071889,-0.0052322662803756005,0.00959597357753173,0.9918090306121634
2016-09-13,1,0.0003057741170344203,0.0003444076170268819,-0.0052322662803756005,0.00959597357753173,0.9915507363517847
2016-09-15,1,0.0005161046238757678,0.000545449066750101,-0.0052322662803756005,0.007860668242660768,0.9919162867431224
2016-09-19,1,0.0003954128850262177,0.0004419283495512152,-0.004687351345520554,0.005506846493819038,0.9924886870881005
2016-09-21,1,3.2704284118579674e-05,0.00015087128961338233,-0.004687351345520554,0.0046435518835544155,0.9930034676916887
2016-09-23,1,0.00033752643735820975,0.0003975406483065745,-0.00536744722939728,0.004547015892857748,0.9932163667166921
2016-09-27,1,5.114975549870153e-05,0.00016671697215115246,-0.007941981556082861,0.004547015892857748,0.9928395697798574
2016-09-29,-1,-0.000289913901933747,-0.00015116955591142203,-0.00536744722939728,0.003526963590189641,0.9935714244795123
2016-10-03,-1,-0.00035955917722747783,-0.00020853347412600387,-0.0041170377906562475,0.003526963590189641,0.9933195851917306
2016-10-05,0,-9.213474517787558e-05,4.176316498055743e-05,-0.007141611978734396,0.003060581263820212,0.992981546485812
2016-10-07,-1,-0.0006482411064007477,-0.00043754293203218295,-0.005100657370281125,0.002558521801604597,0.9935024907746938
2016-10-11,-1,-0.0003753235180491993,-0.00022068193109186178,-0.0041170377906562475,0.0031968123637049727,0.9939486036194892
2016-10-13,1,6.428459017698607e-06,8.668811261381443e-05,-0.004532307156232833,0.002565832273714083,0.9937595312877964
2016-10-17,1,0.00036510838303585764,0.0003764323009761369,-0.004532307156232833,0.0031944053392602883,0.9928931539821373
2016-10-19,1,0.0002682888656322947,0.00028056473911230404,-0.004532307156232833,0.004487353035545663,0.9923827225322983
2016-10-21,1,7.239725342917343e-05,0.00011397778612887831,-0.004490661751191385,0.006972120473959724,0.9920569785892543
2016-10-25,-1,-0.00047472469236719514,-0.0003595832102495438,-0.003514834604811927,0.0060476742697997635,0.9928626676182978
2016-10-27,-1,-0.00023647405483912358,-0.00016656153668154094,-0.0034301538607272534,0.00880717487334203,0.9925112688400529
2016-10-31,1,0.00019183968542363464,0.0002201775349650512,-0.0037475376509163803,0.005099037835339765,0.9930090922824363
2016-11-02,-1,-0.0006195043171309854,-0.0004748389790613119,-0.0037475376509163803,0.005099037835339765,0.9907402329878966
2016-11-04,-1,-0.000676006210499972,-0.0005237100074138706,-0.0037475376509163803,0.006035693381573693,0.9903613469439411
2016-11-08,-1,-0.00016744150409937064,-6.607723607060723e-05,-0.0037475376509163803,0.008419164407140661,0.9904864232063797
2016-11-10,-1,-0.0006191880306477286,-0.0004689529906891977,-0.0037475376509163803,0.008419164407140661,0.9901986280161693
2016-11-14,-1,-0.0007282915256449226,-0.0005837082140970149,-0.0037475376509163803,0.008419164407140661,0.9900119401402353
2016-11-16,-1,-0.0003609327589578048,-0.0001834973420833591,-0.004494806055558241,0.007093051725369076,0.9903522118325668
2016-11-18,-1,-0.0002472248692178811,-0.00013148093308760285,-0.004244354071419158,0.006673871766814358,0.9907988610460307
2016-11-22,0,-8.344298084418124e-05,9.563641842856184e-06,-0.004554124027623646,0.006673871766814358,0.9906746116979235
2016-11-25,1,0.0002690412543970694,0.0003136907945883897,-0.0052993297442236915,0.006160815586268421,0.9903914502599039
2016-11-29,1,2.7590381217342116e-05,9.445306975350976e-05,-0.0057096233624049,0.006160815586268421,0.9901062801202362
2016-12-01,-1,-0.002062454592912608,-0.0017539399403851508,-0.0052993297442236915,0.006160815586268421,0.992526190808711
2016-12-05,-1,-0.0010395759207185772,-0.0008429460184946928,-0.0052993297442236915,0.006673871766814358,0.9926678117037783
2016-12-07,-1,-0.00020314496642280327,-9.880672784411734e-05,-0.0052993297442236915,0.005920434083811014,0.9937833077032971
2016-12-09,-1,-0.0004196374748291768,-0.0002960319226222953,-0.004554124027623646,0.005920434083811014,0.9937923072529121
2016-12-13,1,0.00032751779236541394,0.00036382400450997936,-0.004554124027623646,0.0038512098440298343,0.9949491460422322
2016-12-15,1,7.932783797282987e-05,0.000167738704834561,-0.004554124027623646,0.0038512098440298343,0.9946510393331228
2016-12-19,1,1.3041667423621184e-05,9.77201803268805e-05,-0.0016934460983620515,0.0036420383591593266,0.9949201037933837
2016-12-21,-1,-0.00028582083365005166,-0.00016397784774153988,-0.0009439982273651013,0.0036420383591593266,0.9949658883417425
2016-12-23,-1,-0.0005863161645632336,-0.0004375993340343062,0.0001237852932839041,0.003851425258117652,0.9941566189515096
2016-12-28,-1,-0.0009113630578567014,-0.000740812393981298,0.0001237852932839041,0.004450462537254703,0.9939554692761047
2016-12-30,-1,-0.0008864766928555088,-0.0007245811434413085,0.0008228181567463673,0.004450462537254703,0.9941988439105492
2017-01-04,-1,-0.00036454625812544836,-0.00026781016234854075,0.0001237852932839041,0.004450462537254703,0.9936976207203827
2017-01-06,-1,-0.00017275252645047707,-9.840287717812358e-05,0.0001237852932839041,0.005506312199799546,0.9933746390128247
2017-01-10,1,4.775952469619502e-05,0.00010412561038652943,-0.0009439982273651013,0.004450462537254703,0.993701008747888
2017-01-12,1,0.0007642874101007523,0.0008420279347205449,-0.002293765238699754,0.005506312199799546,0.9935165999185294
2017-01-17,1,0.00071270666979171,0.0007961565245440238,-0.002164520853470815,0.0061254630549270155,0.9937392308339174
2017-01-19,1,0.0008280324592453139,0.0009160545876745398,-0.002164520853470815,0.01016639468349126,0.9903718721032811
2017-01-23,1,0.0008622592359210988,0.0009600180173299439,-0.0021221868513066886,0.01016639468349126,0.9901181481909047
2017-01-25,1,0.001102581063891041,0.0012247516934236601,-0.0021221868513066886,0.007507412668301122,0.9913588484589788
2017-01-27,1,0.001134277960049537,0.0012695600840194642,-0.0009514935131773149,0.01016639468349126,0.9913848588655656
2017-01-31,1,0.0011962765819598469,0.001342344756824545,-0.0021221868513066886,0.010725739415217274,0.9904879211761376
2017-02-02,1,0.0011530472471417677,0.0012354783234525578,-0.0021221868513066886,0.01016639468349126,0.9909371950557896
2017-02-06,1,0.0009900318755875145,0.0010503234998097632,-0.002165197264331531,0.007507412668301122,0.9911414571175762
2017-02-08,1,0.0009482540919435938,0.0010331667845420453,-0.0021221868513066886,0.007507412668301122,0.9913783492186179
2017-02-10,1,0.001122921528989154,0.0012291419525115995,-0.0009514935131773149,0.006450826525580193,0.9916463858041845
2017-02-14,1,0.0013062154948228584,0.0014379594242614243,-0.0025776422520206728,0.0062173191541801676,0.9909277362226921
2017-02-16,1,0.0014554110426604407,0.001610424793086551,-0.0025776422520206728,0.005568510643949835,0.9939178157768761
2017-02-21,1,0.0018681994076983474,0.002086662705296613,-0.004758357369950216,0.005348712742936461,0.9935363292149518
2017-02-23,1,0.0014227807451666198,0.0015485566200701328,-0.004758357369950216,0.005568510643949835,0.9933815256796968
2017-02-27,1,0.00197860474774183,0.002176079164829069,-0.004758357369950216,0.005348712742936461,0.9938571205889815
2017-03-01,1,0.0022809064428711166,0.002551438779290338,-0.0017226440642876169,0.005348712742936461,0.9946364850515849
2017-03-03,1,0.0014098875196720134,0.0015388940246820312,-0.0010141255505037874,0.005348712742936461,0.9951517706101464
2017-03-07,1,0.0015671254465712248,0.0017293154830520696,-0.0010141255505037874,0.005348712742936461,0.995365489617367
2017-03-09,1,0.0016951821470319614,0.001887721326644822,-0.0019164107546294482,0.005348712742936461,0.9949384190865862
2017-03-13,1,0.0020783248445582375,0.0023274571168089026,-0.002021225381016128,0.0043579074426560215,0.9949953096758962
2017-03-15,1,0.0013031849049827094,0.0014380051592101301,-0.001574484955469966,0.0043579074426560215,0.9961024066692636
2017-03-17,1,0.0014321073533363254,0.0015604418142520589,-0.001574484955469966,0.0028526032446164478,0.9963973329380769
2017-03-21,1,0.0008825729271960699,0.0009093440823344742,-0.0012158155615024713,0.0032211308336949616,0.9966293588720202
2017-03-23,1,0.001155292069845572,0.00121356609390185,-0.0012158155615024713,0.0032211308336949616,0.9967642797682028
2017-03-27,1,0.001508386732205002,0.0016424632492108692,-0.001574484955469966,0.004164686653152273,0.9957434327426594
2017-03-29,1,0.0010927531443128526,0.0011135614459018262,-0.001574484955469966,0.003256893319917223,0.9959196775155831
2017-03-31,1,0.0007471957939604475,0.0007798588432868555,-0.001574484955469966,0.003584554353040485,0.9959967120793655
2017-04-04,1,0.0010639247221658054,0.0011045312738278492,-0.001574484955469966,0.003584554353040485,0.9960119802522789
2017-04-06,1,0.00033662996491824716,0.00042027264947790295,-0.0007295013144037871,0.003979990031551655,0.9962157070936982
2017-04-10,0,-7.452626313259183e-05,7.72566459329864e-05,-0.0007295013144037871,0.0043941938501732185,0.9957271286412543
2017-04-12,1,0.0001972064010775643,0.00025719244761779965,-0.0005904289210749253,0.004825823601925001,0.9958579458752305
2017-04-17,1,0.0002525885364968448,0.00032672377891576143,-0.0007380461370800616,0.005614605180505441,0.9956503295104492
2017-04-19,1,0.0007429961451206628,0.0007551558654247785,-0.001011567360950671,0.0043941938501732185,0.9952151343116115
2017-04-21,1,0.0009361599147276261,0.0009629597178891055,-0.0015627544719270829,0.003921835227336129,0.9937250329385254
2017-04-25,1,0.0006666920156666989,0.0006934820227139475,-0.001011567360950671,0.004463096668970323,0.9938510101244621
2017-04-27,-1,-0.0002964055578581217,-2.5773458221815728e-05,-0.0007380461370800616,0.005049817619581143,0.9934107890294769
2017-05-01,0,-0.00016902528916070856,2.7112089838956296e-05,-0.0007380461370800616,0.005730563733670404,0.9928190562410362
2017-05-03,1,0.00033041470785142435,0.0004229263247659604,0.00043331189684260227,0.005730563733670404,0.9930049957779865
2017-05-05,1,0.0002704442316680416,0.00038251009430330846,-0.0007009452244722972,0.006153777394387691,0.9926431814353911
2017-05-09,1,0.0005646519214913305,0.0005933046162752243,0.0003272333989452417,0.006153777394387691,0.9930927848111025
2017-05-11,1,0.0005207283584838884,0.000552659334105824,0.00029516816125570123,0.006153777394387691,0.9925826588769056
2017-05-15,1,0.0007690036596098436,0.0007782327089669064,0.00029516816125570123,0.006153777394387691,0.991875815932906
2017-05-17,-1,-0.00018298041268591123,-4.635032536912364e-05,-0.0016650355152658396,0.006153777394387691,0.9923367844361766
2017-05-19,-1,-0.0003620963226936314,-0.0002086367159685563,-0.0014040713530271338,0.007740114622745669,0.9931958658068785
2017-05-23,-1,-0.0005860597391763524,-0.00037374465303321265,-0.0018144509237771193,0.006153777394387691,0.9942227739344046
2017-05-25,-1,-0.00040113790193166854,-0.00020736643056328322,-0.0031231841531351254,0.0036815399816388103,0.9947735895752194
2017-05-30,1,0.0006764807928673646,0.0007215671346670141,-0.003503302376962366,0.0021826926820650624,0.9948017221740694
2017-06-01,1,0.00021740088192985252,0.00030725501245881814,-0.004290781843844164,0.002471144563866693,0.9937089166464489
2017-06-05,1,0.0008849832367485821,0.0008892274128352337,-0.006005033837208026,0.0010328491017267017,0.9934854000303142
2017-06-07,1,0.0009102728195416519,0.000917477712877903,-0.006005033837208026,0.0010309073667002706,0.993043499321868
2017-06-09,1,0.0006964097841376444,0.0008345712320560374,-0.004290781843844164,0.005659107264861252,0.993411236640407
2017-06-13,1,0.00039601021493080094,0.0005690851341996715,-0.003503302376962366,0.005659107264861252,0.9936463269224745
2017-06-15,-1,-0.0003701565968151383,-9.693600054462104e-05,-0.0031231841531351254,0.0058761602824103825,0.9937431814570061
2017-06-19,1,0.0006331136628065731,0.0007343245578682186,-0.0029361032389520194,0.004955273326518881,0.994176340118666
2017-06-21,1,0.00031103535312434333,0.00046118756760951755,-0.0032106978541947685,0.0058761602824103825,0.9934539711295155
2017-06-23,1,0.00010716407854096245,0.00027558504072135913,-0.003063334960541174,0.006318985783219258,0.9933398811609492
2017-06-27,0,-0.00010133314151172871,5.747462937288921e-05,-0.001132882832457013,0.006318985783219258,0.9937204911540213
2017-06-29,-1,-0.00014184730010091814,-1.2599514781218811e-05,-0.001132882832457013,0.0052216805594889676,0.9946956133335187
2017-07-03,-1,-0.0010268880846287666,-0.0007805899822293583,0.00047428932021390056,0.0052216805594889676,0.9945719698419447
2017-07-06,-1,-0.0005912590833014647,-0.00040768409991929317,0.00047428932021390056,0.004955273326518881,0.9948497309764911
2017-07-10,1,0.0001979704273006172,0.0002653102560322521,0.00047428932021390056,0.0052216805594889676,0.9952246191587539
2017-07-12,1,0.000551543066945459,0.0005567033036530541,-0.0006997481163644812,0.004955273326518881,0.9961841200733359
2017-07-14,1,0.000618464276445272,0.0006198568711421745,-0.0008710012048769528,0.005102881826788506,0.9954508046915582
2017-07-18,1,0.000910120271340632,0.0009660433535409031,-0.0007764707839971545,0.006788477377025468,0.9946008185571295
2017-07-20,1,0.0011629750215130265,0.001286901343563786,-0.0007764707839971545,0.006788477377025468,0.9935336373630376
2017-07-24,1,0.0011965586999573361,0.0013229992392597462,-0.0007764707839971545,0.007335418315263342,0.9931174491267349
2017-07-26,1,0.0010000299958457537,0.0010648482821705228,-0.004018338909777985,0.008510043315609995,0.9924552768205941
2017-07-28,1,0.0008019161636318652,0.0008385146814075708,-0.0015559288821506878,0.008510043315609995,0.9925615983077758
2017-08-01,1,0.0009623627429771627,0.0010279939405850459,-0.0015559288821506878,0.008510043315609995,0.9925329046442398
2017-08-03,1,0.0007683257694526383,0.00082480608960829,-9.576759703896378e-05,0.010189545309535124,0.9921061497793011
2017-08-07,1,0.0006443624251123439,0.0006587954367434502,-0.0015559288821506878,0.010189545309535124,0.9923545713962494
2017-08-09,1,0.0006844291781413618,0.0006990128437000523,-0.00122918016561942,0.010189545309535124,0.9924106316785882
2017-08-11,1,0.00017776852514254395,0.00023812392749228818,-0.00122918016561942,0.010189545309535124,0.9934115243426476
2017-08-15,1,0.0010787427999034039,0.0011433900108191821,-0.002752047586662469,0.0068578828236811416,0.9941116030376879
2017-08-17,1,0.0004455247086507017,0.0004649420609003856,-0.002752047586662469,0.0068578828236811416,0.9953099535204419
2017-08-21,1,0.001084162322229728,0.0011690836302050383,-0.002752047586662469,0.008159001283592274,0.9951012984430443
2017-08-23,1,0.001250780107223172,0.0013522311657559567,-0.00359354961123864,0.0048403119802338575,0.9950173781547907
2017-08-25,1,0.0011118836724051892,0.0011871226194695092,-0.005008776479661655,0.0048403119802338575,0.9944436355873753
2017-08-29,1,0.0009551793571110367,0.0009886950730129186,-0.005008776479661655,0.008068848107721483,0.9940665100860272
2017-08-31,1,0.0014900009200695691,0.0015903369194251462,-0.005008776479661655,0.004784096410804054,0.9944134379604671
2017-09-05,1,0.001126769888713044,0.0011643343301451351,-0.0038275871142031373,0.00793891289381135,0.9945645854149127
2017-09-07,1,0.000989966596257797,0.0010079252307744941,-0.0038275871142031373,0.00793891289381135,0.9944364227045616
2017-09-11,1,0.001048573447905114,0.001100325114400715,-0.0038275871142031373,0.00793891289381135,0.9943981713072997
2017-09-13,1,0.0008443034838921733,0.0008760919422865448,-0.0011219250679014182,0.00793891289381135,0.9946152064243972
2017-09-15,1,0.001246016067200228,0.0013463774309521533,-0.0006555417408165273,0.00793891289381135,0.9945099594931126
2017-09-19,1,0.0017493917418106917,0.0019206976463499725,-0.0035904987408170827,0.005654066356349132,0.9946041972810221
2017-09-21,1,0.0013055720892910568,0.001421524560820183,-0.0020004552729793916,0.005654066356349132,0.9949383599939048
2017-09-25,1,0.0009297916238428013,0.0009895366325415964,-0.0007393136073712535,0.007739580397940441,0.9950366797253327
2017-09-27,1,0.0011336354045123633,0.001229499295585055,-0.0003906222946421116,0.007739580397940441,0.9949769708232233
2017-09-29,1,0.0012980959394976834,0.0014081949247905763,-0.0003906222946421116,0.007739580397940441,0.9946573949944337
2017-10-03,1,0.001587634192059257,0.0017427477144754183,-0.0007393136073712535,0.0062676775344933456,0.994439093078426
2017-10-05,1,0.0019311150927521382,0.0021399729104757542,-0.00219134875956241,0.00676985796445532,0.9941594085679913
2017-10-09,1,0.0018674388488780233,0.0020154278215705757,-0.00219134875956241,0.00676985796445532,0.9941179051390155
2017-10-11,1,0.0008903711492145023,0.0009139505792436053,-0.0037064467800927243,0.00676985796445532,0.9938101347038433
2017-10-13,1,0.0016773105890137531,0.0017927974801747063,-0.0037064467800927243,0.0047365562428768075,0.9948245675086591
2017-10-17,1,0.0014560256128445784,0.0015589608571699928,-0.001000498659810689,0.005907194917826122,0.9951251134505339
2017-10-19,1,0.0014954871649270273,0.001627380118473605,-0.0008827329712795195,0.00704965804066939,0.9947188247192552
2017-10-23,1,0.0016864854616032263,0.0018444461703306316,-0.0015991339616391452,0.006130278443484508,0.9946732751473963
2017-10-25,1,0.002084032843115707,0.0023036494967430127,-0.0015991339616391452,0.005577300931043022,0.9950768868244827
2017-10-27,1,0.002628454406359061,0.0029251208359400097,-0.00235287393040822,0.005577300931043022,0.9947503468032961
2017-10-31,1,0.0017821723217787905,0.0019498681913787553,-0.00235287393040822,0.006130278443484508,0.9934670164669925
2017-11-02,-1,-0.00014637111550561854,-0.00014197873991488103,-0.0015991339616391452,0.006130278443484508,0.9920055585305065
