JNU-Tangyin/eata/results/Batch4_SP500/Batch4_SP500-SONC.csv
Date,Action,Predicted_Q25,Predicted_Q75,Actual_Q25,Actual_Q75,RL_Reward
2010-12-14,0,0.0,0.005585142998408113,-0.010877653517971327,0.011925629601453349,0.9825798860638925
2010-12-16,0,0.0,0.0,-0.014138127364329478,0.011925629601453349,0.9786691066531381
2010-12-20,1,0.00628901042311316,0.007028507187509216,-0.017421044529121625,0.0039835842117857,0.9793870920292784
2010-12-22,1,0.006525324800544435,0.007264999142808934,-0.017421044529121625,0.0004960431030518902,0.9788574882898076
2010-12-27,1,0.005427013242453751,0.005978598783486767,-0.017421044529121625,0.0004960431030518902,0.9795862694091018
2010-12-29,1,0.0013473515626283605,0.001415022264870198,-0.010877653517971327,0.0039835842117857,0.9837826498459343
2010-12-31,1,0.001085903772652729,0.0012108663748193356,-0.012558129937720087,0.0039835842117857,0.9810867716144692
2011-01-04,0,-0.0002536761506839278,0.00011329248802014456,-0.015236271179818732,0.010501987644001624,0.9803524040228375
2011-01-06,1,0.0029507882437001926,0.0029981538592770847,-0.015236271179818732,0.01008783154041604,0.9835252042394441
2011-01-10,1,0.0025378864061697684,0.0026127027062051635,-0.01260234311982031,0.010820023433689391,0.9838903969339016
2011-01-12,0,0.0,0.0,-0.01770587383180104,0.000958328774292205,0.9847907187117391
2011-01-14,0,0.0,0.0,-0.009160873798861132,0.0010174813098454728,0.9869891744644653
2011-01-19,0,0.0,0.0,-0.009160873798861132,0.0010174813098454728,0.9878559946576311
2011-01-21,1,0.0007433806346939118,0.0009434867198276942,-0.008533607801671162,0.009046143532337667,0.9876207244208334
2011-01-25,1,0.0001516366191094599,0.00040509029435272913,-0.011679787218682054,0.009046143532337667,0.9865202438416384
2011-01-27,0,0.0,0.0,-0.015072201286681913,0.009046143532337667,0.9847255391367417
2011-01-31,-1,-0.006243691284580808,-0.005291738126153093,-0.014511950583568868,0.009046143532337667,0.9877683725593257
2011-02-02,-1,-0.006589393415278931,-0.005564704298480699,-0.011526004699804093,0.010518851666294854,0.9875761859265185
2011-02-04,0,0.0,0.0,-0.011997645767384331,0.00915912786852871,0.9870340673305802
2011-02-08,0,0.0,0.0,-0.011997645767384331,0.00915912786852871,0.9859193372950156
2011-02-10,0,0.0,0.0,-0.011997645767384331,0.00915912786852871,0.9865732390470424
2011-02-14,-1,-0.00557532887624781,-0.004513143511899681,-0.014511950583568868,0.00915912786852871,0.9871685081399563
2011-02-16,0,0.0,0.0,-0.011997645767384331,0.005474164576279786,0.9868525300000107
2011-02-18,-1,-0.005664668741385645,-0.004604054305762578,-0.011997645767384331,0.012315515606605815,0.9855413027051672
2011-02-23,-1,-0.0058468440800047185,-0.004855759800450922,-0.011668970274225842,0.012890862777665364,0.9862068547016783
2011-02-25,0,0.0,0.0,-0.011393979327260353,0.012315515606605815,0.9870092540882025
2011-03-01,0,0.0,0.0,-0.01047316863425528,0.012315515606605815,0.9874966578077823
2011-03-03,-1,-0.003761198470104537,-0.0031292357847304917,-0.01047316863425528,0.003340731578680607,0.9895741261412844
2011-03-07,-1,-0.002785502887380271,-0.002333042655407646,-0.010656342959900159,0.003340731578680607,0.9891294118090342
2011-03-09,-1,-0.00389290162522867,-0.0033398493900319874,-0.010656342959900159,0.004202293487906725,0.9883587971881473
2011-03-11,-1,-0.0033780546589807763,-0.002989755959847753,-0.010595990286543913,0.004202293487906725,0.9886184673729537
2011-03-15,0,0.0,0.0,-0.007892444826348244,0.004202293487906725,0.9872807766178965
2011-03-17,0,0.0,0.0,-0.007892444826348244,0.004202293487906725,0.98745375504571
2011-03-21,0,0.0,0.0,-0.007892444826348244,0.0025167863548020497,0.9897503975271855
2011-03-23,0,0.0,0.0,-0.00746692616220826,0.0025167863548020497,0.9888424495555797
2011-03-25,1,0.00010582787301094377,0.00023533845934252515,-0.004180870732544404,0.0068692734475281625,0.988460075327538
2011-03-29,-1,-0.0025514684455680923,-0.002221500796120497,-0.003355687521081459,0.010814938402617867,0.9867397585355275
2011-03-31,-1,-0.002465150272967829,-0.0021754526528381694,-0.003355687521081459,0.015813278806569138,0.9815873950010472
2011-04-04,-1,-0.0024028326052247043,-0.0021092452017982774,-0.0021180791804390866,0.019343637802447425,0.9802947716031556
2011-04-06,0,0.0,0.0,-0.004233632956077544,0.015813278806569138,0.9828520480736446
2011-04-08,0,0.0,0.0,-0.007571339649780771,0.015813278806569138,0.9824807569547968
2011-04-12,-1,-0.005295221611574542,-0.004486305154812837,-0.004233632956077544,0.019343637802447425,0.9807431373155873
2011-04-14,-1,-0.003414987412123976,-0.0029084650213539124,-0.007571339649780771,0.019343637802447425,0.9805633944924893
2011-04-18,-1,-0.003172252031239589,-0.0026859200712533804,-0.009672596045805702,0.019343637802447425,0.9802144595591515
2011-04-20,-1,-0.0021978409958773116,-0.0018374537756760496,-0.009002807994070215,0.017877041720550005,0.9814794902524503
2011-04-25,-1,-0.00044465508251994413,-0.00036365889413685857,-0.009672596045805702,0.016355454977639457,0.9813801282110519
2011-04-27,1,0.0008313485853787353,0.0009437749813422941,-0.009672596045805702,0.013558329613845725,0.9823889695311547
2011-04-29,1,0.004588679777496319,0.005263036575231024,-0.009672596045805702,0.009123737413092796,0.9866738060168669
2011-05-03,1,0.005605137297515746,0.006418465283799132,-0.01055409443473431,0.007724247482455632,0.9850933081590915
2011-05-05,0,0.0,0.0,-0.010909025329650527,0.007724247482455632,0.9857091387974851
2011-05-09,0,0.0,0.0,-0.01198157692849083,0.008704657237451632,0.9855595122075066
2011-05-11,1,0.0031727656680694575,0.0035951080511697157,-0.016179122041538378,0.006592299794753491,0.9841764665727645
2011-05-13,0,0.0,0.0,-0.021523999475512458,0.006630795586799007,0.9827511203922163
2011-05-17,0,0.0,0.0,-0.015055375091818316,0.01245333363912637,0.9813301523120791
2011-05-19,0,0.0,0.0,-0.02176125499465128,0.009834228751379149,0.9808332367527614
2011-05-23,0,0.0,0.0,-0.015209023639268373,0.01245333363912637,0.9809368591652374
2011-05-25,0,0.0,0.0,-0.02318621471842787,0.01245333363912637,0.979794387509632
2011-05-27,0,0.0,0.0,-0.025233592094190085,0.00992708789903236,0.9792857452353309
2011-06-01,0,0.0,0.0,-0.022904659762255523,0.012510657563641055,0.9799030476738241
2011-06-03,0,0.0,0.0,-0.015209023639268373,0.016564190381656296,0.9799031783560191
2011-06-07,0,0.0,0.0,-0.015209023639268373,0.016564190381656296,0.9803180788926443
2011-06-09,0,0.0,0.0,-0.009164332108343764,0.016564190381656296,0.9821936024953247
2011-06-13,0,0.0,0.0010740707653225882,-0.009164332108343764,0.011158623756453491,0.9846634185210354
2011-06-15,1,0.0017557935050831058,0.002041872353605837,-0.009164332108343764,0.009913229486336838,0.9859038990050332
2011-06-17,1,0.0005184535077337654,0.0008657759367788835,-0.008734579700272022,0.009913229486336838,0.9866812083579483
2011-06-21,1,0.0017955643942428286,0.0023447194490370717,-0.008734579700272022,0.010277059720891997,0.9863834702713571
2011-06-23,-1,-0.0004389843107636754,-0.00031071731669907795,-0.008734579700272022,0.010277059720891997,0.9867180118833069
2011-06-27,-1,-0.0014899428147604234,-0.001489867976008311,-0.00777510693210501,0.010277059720891997,0.9870412953850344
2011-06-29,-1,-0.0002979418991680225,-0.00012494195861059124,-0.009076911899805737,0.009617989375964961,0.9888792603741577
2011-07-01,0,0.0,0.0,-0.01010695753165122,0.008134620981283971,0.9894903325262567
2011-07-06,0,0.0,0.0,-0.013224696309313163,0.008705217106086226,0.9867951666640976
2011-07-08,0,0.0,0.0,-0.014415405373853028,0.008560155149428601,0.9847132695775379
2011-07-12,0,0.0,0.0,-0.014415405373853028,0.010277059720891997,0.9794843002386954
2011-07-14,0,0.0,0.0,-0.01501582535137585,0.008560155149428601,0.976192956584793
2011-07-18,0,0.0,0.0,-0.01501582535137585,0.014004071705391178,0.9739149660130444
2011-07-20,0,0.0,0.0,-0.01501582535137585,0.007547858445581847,0.9750288211090683
2011-07-22,1,0.0006620162833367137,0.0007010316581287404,-0.019040491300121077,0.010010592314463204,0.9716149805023697
2011-07-26,-1,-0.00016982111985126868,-0.0001278680651754042,-0.019040491300121077,0.025140515546378032,0.9698890279245528
2011-07-28,-1,-0.000813138449173474,-0.0007161197176738141,-0.033163114626693684,0.025140515546378032,0.9673057524154984
2011-08-01,-1,-0.0019134056774586638,-0.0016798598607643414,-0.033163114626693684,0.03469905056313148,0.9648766910830289
2011-08-03,-1,-0.0016786616189488485,-0.0016459396947640014,-0.03500716445313791,0.025140515546378032,0.9663061564522618
2011-08-05,-1,-0.004316369309425729,-0.0034331256546958388,-0.027507289892009183,0.025140515546378032,0.9674958420430426
2011-08-09,-1,-0.006998881406407889,-0.005998432077518213,-0.02059211921963275,0.018959504577716235,0.9726065882396145
2011-08-11,-1,-0.005265893003054842,-0.004564404651163792,-0.027507289892009183,0.01624236765567,0.9720435312063189
2011-08-15,-1,-0.0041552983829920564,-0.0035923150900940147,-0.027507289892009183,0.014169915691415826,0.9745987341421932
2011-08-17,0,0.0,0.0,-0.027507289892009183,0.01624236765567,0.9730889212464829
2011-08-19,-1,-0.006485546582095266,-0.005599206994456403,-0.02662304777424178,0.014169915691415826,0.9770734642547013
2011-08-23,-1,-0.004036678064779418,-0.003450732726220918,-0.02970629957688384,0.0001142871889233464,0.9772073911608682
2011-08-25,-1,-0.0072604311965619875,-0.006271597475591723,-0.02662304777424178,0.0072045241494943625,0.9793697004767223
2011-08-29,-1,-0.0030599990888359125,-0.0026596396226194405,-0.02662304777424178,0.007106665169053672,0.9805611711653898
2011-08-31,-1,-0.004467290716610825,-0.0038793715432381025,-0.02662304777424178,0.012018345533696326,0.9792904991401111
2011-09-02,-1,-0.007392225359487372,-0.006387514156321846,-0.04051343224675368,0.012018345533696326,0.9778096312849865
2011-09-07,-1,-0.0073762625722386295,-0.006374558952805446,-0.04051343224675368,0.007106665169053672,0.9780482339904377
2011-09-09,0,0.0,0.0,-0.02358107090038427,0.012018345533696326,0.9799885943737612
2011-09-13,0,0.0,0.0,-0.02358107090038427,0.017481351988864614,0.9774482538690313
2011-09-15,0,0.0,0.0,-0.02358107090038427,0.016908944269503172,0.9777168749020329
2011-09-19,0,0.0,0.0,-0.02655193776206658,0.01855305973844363,0.9750110878481094
2011-09-21,0,0.0,0.0,-0.02655193776206658,0.021282829549379476,0.9739193928194986
2011-09-23,-1,-0.007663008367265174,-0.007027256810347519,-0.02655193776206658,0.021282829549379476,0.9726425536246857
2011-09-27,0,0.0,0.0,-0.031332969568983564,0.025262834199663044,0.9719723745062496
2011-09-29,-1,-0.00772918021119626,-0.0070076816025124375,-0.02342775264977921,0.02880516112674176,0.9691083711771237
2011-10-03,0,0.0,0.0,-0.018501984486562546,0.02880516112674176,0.9721001441862024
2011-10-05,-1,-0.009341507616083784,-0.008538168005428769,-0.018501984486562546,0.02880516112674176,0.9691263043424688
2011-10-07,0,0.0,0.0,-0.01128310953639967,0.028540265030890723,0.9730842137473634
2011-10-11,0,0.0,0.0,-0.01128310953639967,0.025389860386193543,0.975577809248425
2011-10-13,0,0.0,0.0,-0.020095661755534875,0.025389860386193543,0.9745799107315117
2011-10-17,0,0.0,0.0,-0.018817924649854427,0.02066543181357897,0.976869027878679
2011-10-19,0,0.0,0.0,-0.01816641959797894,0.018408169983139502,0.979111672014277
2011-10-21,0,0.0,0.0,-0.012058241612564174,0.018408169983139502,0.9793526824512828
2011-10-25,0,0.0,0.0,-0.014793457431756758,0.013973968559192723,0.9804017844843055
2011-10-27,-1,-0.005093871117150411,-0.004942748656527461,-0.02366664584250755,0.005657827451477411,0.9834503212772507
2011-10-31,-1,-0.003821850647779108,-0.003501240551894472,-0.02366664584250755,0.008124759704366054,0.9805250074510593
2011-11-02,0,0.0,0.0,-0.02366664584250755,0.013973968559192723,0.9777176772007972
2011-11-04,0,0.0,0.0,-0.02366664584250755,0.01575991754369463,0.9771708808184686
2011-11-08,-1,-0.0010330058315500654,-0.0007965838289210825,-0.02366664584250755,0.01575991754369463,0.9763777760221066
2011-11-10,0,0.0,0.0,-0.02366664584250755,0.01575991754369463,0.9768260225210623
2011-11-14,0,0.0,0.0,-0.025710539701873616,0.013200379951535394,0.9771790731331357
2011-11-16,-1,-0.003606796551117636,-0.0034788627384911685,-0.026906363593625762,0.011415720573604758,0.9781837126089947
2011-11-18,-1,-0.0022021853744380528,-0.002073201818222302,-0.02748654308042375,0.009956482011442776,0.9773563126800274
2011-11-22,-1,-0.002834076945237156,-0.0027087108241405718,-0.026906363593625762,0.01201103690177206,0.9779524329571683
2011-11-25,-1,-0.003920157499990795,-0.00392010406199423,-0.022788100852312608,0.0157646291864833,0.9787357994694668
2011-11-29,-1,-0.0025819203584667417,-0.002398213036014686,-0.021904480718832477,0.0157646291864833,0.9818805365731426
2011-12-01,0,-0.0002599751712015748,0.00021202646467593676,-0.021904480718832477,0.009956482011442776,0.9857608731710732
2011-12-05,1,0.0011416362722418707,0.0018594513194633085,-0.021904480718832477,0.006608124148634629,0.9845378584926056
2011-12-07,1,0.001020374898878726,0.0017156389086270553,-0.023230749922730404,0.0036379904880820863,0.9837690764381768
2011-12-09,0,0.0,0.0,-0.021492165279662783,0.008373771171817007,0.9846123747781094
2011-12-13,0,0.0,0.0,-0.016023040965298434,0.010520073928129618,0.9857362715349691
2011-12-15,0,0.0,0.0,-0.006975467355362228,0.010520073928129618,0.9869270655804172
2011-12-19,0,0.0,0.0,-0.004464365459548004,0.012722239412228005,0.9879459501050732
2011-12-21,0,0.0,0.0,-0.004800236208443868,0.009702656396994459,0.9888000799877401
2011-12-23,0,0.0,0.0,-0.007327151745599314,0.009702656396994459,0.9883094604893862
2011-12-28,0,0.0,0.0,-0.0058479475088744695,0.009702656396994459,0.9894508793438194
2011-12-30,0,0.0,0.0,-0.007327151745599314,0.009702656396994459,0.9888889716292125
2012-01-04,-1,-0.00032618334286257564,-4.3984265945858384e-05,-0.0058479475088744695,0.012605083389777231,0.9873316454209318
2012-01-06,0,0.0,0.0,-0.0029651614428357013,0.014912234765225144,0.9868300786394844
2012-01-10,1,0.001122569920033452,0.001684206396023565,-0.0036908108968878315,0.015582911099487508,0.9871750728325507
2012-01-12,1,0.0007948956438436933,0.0012434323718172973,-0.005956318373340704,0.015582911099487508,0.9867297085667602
2012-01-17,1,0.0019044447024751951,0.0026206184462911402,-0.006307488116015357,0.015582911099487508,0.9863311016763081
2012-01-19,0,0.0,0.0,-0.006307488116015357,0.01819443758660301,0.9850218043334348
2012-01-23,0,0.0,0.0,-0.006982232501643842,0.01819443758660301,0.9849927949541741
2012-01-25,0,0.0,0.0,-0.006982232501643842,0.01958597653014665,0.9828740239803299
2012-01-27,0,0.0,0.0,-0.009107406130067313,0.02367151154511673,0.9806631253670495
2012-01-31,1,0.0031812908332251415,0.004309299103890999,-0.006982232501643842,0.025129940725285772,0.9812540943506292
2012-02-02,1,0.002991591721099876,0.003802378789786339,-0.009107406130067313,0.01958597653014665,0.9832023930721976
2012-02-06,1,0.00447222559474971,0.005186372022155164,-0.01078227100278629,0.017732605955441613,0.9838523347306763
2012-02-08,1,0.005015979327436236,0.005847724388250243,-0.013253829571677905,0.010955896026261989,0.9812854079678356
2012-02-10,0,0.0,0.0,-0.015647389016612067,0.010955896026261989,0.9813119222110516
2012-02-14,0,0.0,0.0,-0.015647389016612067,0.02080724200099791,0.9791874284897213
2012-02-16,1,0.0038736409460399593,0.0045429344933476095,-0.015647389016612067,0.01862193428598581,0.9795437603962571
2012-02-21,1,0.004262183600732121,0.005044132583883934,-0.01786592283549983,0.01862193428598581,0.978668843651326
2012-02-23,1,0.0036864124557890706,0.004316601242399507,-0.01786592283549983,0.01862193428598581,0.9776656510418528
2012-02-27,1,0.0023908724684196777,0.0025962609477049405,-0.015391512702426141,0.01862193428598581,0.9772021124982969
2012-02-29,1,0.0030048454475937922,0.003258721376370377,-0.01786592283549983,0.014117860837697165,0.9775090506379938
2012-03-02,1,0.002104238929974316,0.0022387609035769904,-0.01786592283549983,0.014117860837697165,0.9778559123396213
2012-03-06,1,0.0024187015408919433,0.0027054403124053272,-0.01588213791164585,0.014117860837697165,0.9787615281338277
2012-03-08,1,0.0014113257252737206,0.0016095768723571324,-0.01588213791164585,0.014117860837697165,0.9808468197298303
2012-03-12,1,0.00019417581294660352,0.0002234504456888559,-0.01852003727517122,0.014117860837697165,0.97918039056521
2012-03-14,1,0.001410217103453667,0.001483645605135748,-0.01852003727517122,0.005304977718810266,0.9800907861954962
2012-03-16,1,0.001930536251018865,0.0020549573808307515,-0.021823920047185537,0.00031929211300370876,0.9794765260075011
2012-03-20,1,0.0013792273060649245,0.0014462250374472655,-0.021823920047185537,0.0016523201395782182,0.9792057822509342
2012-03-22,1,0.0018535964307508652,0.0021623691339756057,-0.019064277240650414,0.0016523201395782182,0.9823781643841594
2012-03-26,0,0.0,0.0,-0.019064277240650414,0.00031929211300370876,0.9864525941866477
2012-03-28,0,0.0,0.0,-0.016063551233472247,0.0006944438005670919,0.9860129554145554
2012-03-30,0,0.0,0.0,-0.013985005512997736,0.0035201116328001294,0.9859173560050163
2012-04-03,0,0.0,0.0,-0.013985005512997736,0.007426689557674492,0.9852422886429016
2012-04-05,0,0.0,0.0,-0.012868483615748709,0.007426689557674492,0.9857581706645222
2012-04-10,0,0.0,0.0,-0.011051316588974838,0.007426689557674492,0.9879435450207513
2012-04-12,0,0.0,0.0,-0.011051316588974838,0.01040803360560171,0.9878923070331266
2012-04-16,-1,-0.00027466582461106254,-0.00012654762502744367,-0.007980881933328323,0.01040803360560171,0.989200628778718
2012-04-18,-1,-0.0007987075403551993,-0.0005050700485611082,-0.004960108297217418,0.013045287610217192,0.9895473310304359
2012-04-20,-1,-0.002335021626282972,-0.001773604217610379,-0.0045013082565322346,0.014956502749268082,0.9891207167419905
2012-04-24,-1,-0.002161885703086997,-0.001660629636129125,-0.003396702652542737,0.016397854944316365,0.9870352904132
2012-04-26,1,0.0007038628814527426,0.0007387462656990449,-0.003396702652542737,0.015047892994523998,0.9873926619617927
2012-04-30,1,0.0014244775170576466,0.001525668668790421,-0.0027552158398569896,0.01481542748341889,0.98826560219211
2012-05-02,1,0.0015613576913891649,0.0016561045756510163,-0.003396702652542737,0.01597462914676879,0.9871451315992108
2012-05-04,1,0.0003172354039322457,0.0004370198633741684,-0.003396702652542737,0.01597462914676879,0.9850105660717228
2012-05-08,-1,-0.0012136521236734469,-0.0008696679966158802,-0.0012806388803552986,0.02115956660141823,0.9833550835541222
2012-05-10,0,0.0,0.0,-0.002312966422864563,0.02166830863137808,0.9825609764079183
2012-05-14,-1,-0.002395265548539709,-0.0018859829124062118,-0.002225650156441099,0.02166830863137808,0.9813779092537825
2012-05-16,-1,-0.000828869112135784,-0.0005523394847813407,-0.005581195652198475,0.019409502344118215,0.9816010793315916
2012-05-18,1,0.00011367261600211113,0.0002535047307668273,-0.00265884555751761,0.016998596512613803,0.982416286401329
2012-05-22,1,0.0012209354988974084,0.0012380621184719688,-0.00265884555751761,0.018777896269768952,0.9823820486872422
2012-05-24,1,0.0018042812758705571,0.0018534719043204354,-0.006961290668039018,0.02184853308340151,0.9815400108513881
2012-05-29,1,0.0021968892936387882,0.0023270321940639885,-0.006961290668039018,0.02653857086102103,0.9807116330189265
2012-05-31,1,0.0022252980898386752,0.0022597004048551055,-0.00265884555751761,0.021058766922215637,0.9815580584294302
2012-06-04,0,-1.7309739678395648e-06,0.00019877445798168164,0.0015000343322753905,0.02653857086102103,0.9824206193139712
2012-06-06,1,0.001528680554611488,0.0015467882597251796,0.0,0.021058766922215637,0.9848686069360243
2012-06-08,1,0.00237440121667214,0.002447283784995192,0.0003630286406954531,0.018777896269768952,0.9871275642653503
2012-06-12,1,0.0028700838073757247,0.0030168370516488775,0.0,0.021058766922215637,0.9817078521818267
2012-06-14,0,0.0,0.0,0.0003630286406954531,0.027764528225978934,0.9797663300827845
2012-06-18,0,0.0,0.0,0.0003630286406954531,0.027764528225978934,0.978085380891142
2012-06-20,1,0.0008475743048058799,0.0010991668862243252,0.0003630286406954531,0.026157457154821123,0.9792133089721728
2012-06-22,0,0.0,0.0,-0.00048310282672742655,0.0211000143632962,0.9782564515554675
2012-06-26,0,0.0,0.0,-0.005110912259892322,0.018635082306217552,0.9785965921586616
2012-06-28,0,0.0,0.0,-0.005110912259892322,0.018455466855378834,0.9783179689824375
2012-07-02,0,0.0,0.0,-0.013286488748042502,0.017955407990302503,0.9788974066039741
2012-07-05,0,0.0,0.0,-0.01577869334026974,0.017955407990302503,0.9763728408684417
2012-07-09,0,0.0,0.0,-0.01577869334026974,0.018455466855378834,0.9754250516206883
2012-07-11,1,0.006736762527985725,0.00754269859189597,-0.01577869334026974,0.017955407990302503,0.979572396215039
2012-07-13,1,0.008504053793977092,0.009520143618923173,-0.01577869334026974,0.00991409965304504,0.9797494021194655
2012-07-17,1,0.0070133745829196546,0.007849181679943305,-0.013286488748042502,0.00991409965304504,0.9821557952850807
2012-07-19,1,0.007595519463514417,0.008531706235595272,-0.013286488748042502,0.005993763077659741,0.9813723356223236
2012-07-23,1,0.006149799066864168,0.006930455897954414,-0.009901337967437593,0.009753904405843538,0.9828204298089185
2012-07-25,1,0.005797347774491271,0.006455961523152427,-0.009901337967437593,0.011726930686721005,0.9818756061653657
2012-07-27,1,0.006476025652177709,0.007202028544887176,-0.010708323599673778,0.006359083601730051,0.9804710942771229
2012-07-31,1,0.0038613694223187164,0.0040721752127908205,-0.009756538502006272,0.00796927780908512,0.9828332139225918
2012-08-02,1,0.0007801425716725174,0.0010097652513710086,-0.009687886347783328,0.00796927780908512,0.985579199926496
2012-08-06,1,0.002869591887832883,0.002963252743243262,-0.009687886347783328,0.00796927780908512,0.9847492542749058
2012-08-08,1,0.0018433509294112865,0.0018716238242428174,-0.009687886347783328,0.00857355482031044,0.985821563149824
2012-08-10,1,0.0009807669367419222,0.0011029194916301827,-0.00651924726927234,0.011702293946106935,0.9861880289381483
2012-08-14,-1,-0.0005312792268263868,-0.00012598008167314842,-0.002962329568342644,0.012813060822871872,0.9858835940672609
2012-08-16,1,0.0007899026645595971,0.0008974819855300238,-0.0012807637874035678,0.012813060822871872,0.986528072009582
2012-08-20,1,0.0020661010524845847,0.002090179729938812,-0.0012807637874035678,0.008709113326897874,0.9897383441151746
2012-08-22,1,0.0013179291971965393,0.001455932866483905,-0.0012807637874035678,0.005116295336716189,0.9909269007753893
2012-08-24,1,0.0003635849241093046,0.0006266949265380132,-0.000688655467880167,0.00915993217379483,0.990601342160644
2012-08-28,1,9.189130156221832e-05,0.00047356177090216995,-0.0012807637874035678,0.00915993217379483,0.9902518561896531
2012-08-30,-1,-0.0012473096685596235,-0.0006282089206265595,-0.0017280937930919111,0.00915993217379483,0.989573952192737
2012-09-04,1,0.001056797656400509,0.0013791884183556387,-0.005983767273842984,0.00915993217379483,0.9910019028917177
2012-09-06,1,0.00027829867925770733,0.0007356116099815119,-0.0017280937930919111,0.005980320649863176,0.9923358081970476
2012-09-10,1,0.0010586315493266633,0.0013913174898841953,-0.005125643403217401,0.005980320649863176,0.991619543102914
2012-09-12,1,0.0014418064525775537,0.0017688215547542363,-0.009678388988409243,0.004264783371919356,0.9903322088866878
2012-09-14,0,-2.3655788935978642e-05,0.0004430715708251744,-0.01257855232429983,0.003515732455886995,0.9893856773976262
2012-09-18,1,0.0008445204765758314,0.0012333011456313258,-0.01257855232429983,0.005753320568509894,0.988606656283062
2012-09-20,1,0.0003995334566825289,0.0008261794093531311,-0.012299355636495816,0.00878200713547022,0.9856675679427063
2012-09-24,1,0.0017082397372047771,0.0019906109037469404,-0.01257855232429983,0.005753320568509894,0.9842344556451573
2012-09-26,1,0.0005767170206330426,0.0010368704082906002,-0.012299355636495816,0.0040080573836837365,0.9850570530109048
2012-09-28,0,0.0,0.0,-0.009611534279582824,0.008101006891410373,0.9848094239943292
2012-10-02,0,0.0,0.0,-0.006828391396224324,0.008101006891410373,0.985289374181936
2012-10-04,-1,-0.002138401011864361,-0.0014586986637971245,-0.009611534279582824,0.011494060012443127,0.9842003554236382
2012-10-08,-1,-0.0014287132543505125,-0.0010411528121338962,-0.012632882239870934,0.011494060012443127,0.983399765106871
2012-10-10,-1,-0.0026348079791722666,-0.001972659688113116,-0.012632882239870934,0.011494060012443127,0.983377782452803
2012-10-12,0,0.0,0.0,-0.00603447446834622,0.011494060012443127,0.9845766708569174
2012-10-16,0,0.0,0.0,-0.007945007107908719,0.011494060012443127,0.9832683562738461
2012-10-18,0,0.0,0.0,-0.007945007107908719,0.006754481182129301,0.9850467877199317
2012-10-22,0,0.0,0.0,-0.005361494392932899,0.008941841722143727,0.9874226278735677
2012-10-24,-1,-0.0028793567756173494,-0.002110523708194999,-0.005361494392932899,0.009687350604095335,0.9868480048604684
2012-10-26,0,0.0,0.0,-0.005361494392932899,0.010444382763175684,0.9863367886398959
2012-11-01,0,0.0,0.0,-0.007324500749121842,0.00913650370997987,0.9861259397488529
2012-11-05,0,0.0,0.0,-0.01621185461425831,0.008368945435346832,0.9855415534140707
2012-11-07,0,0.0,0.0,-0.007753259705616635,0.008368945435346832,0.986284571324785
2012-11-09,0,0.0,0.0,-0.003584562621785249,0.010278470626991887,0.9860381390447466
2012-11-13,0,0.0,0.0,-0.0007652992955947546,0.010278470626991887,0.9858680597080869
2012-11-15,-1,-0.0032167333094769873,-0.0028402936098486835,-0.0007652992955947546,0.010278470626991887,0.9858867833074758
2012-11-19,0,0.0,0.0,-0.0022048715809040885,0.010278470626991887,0.9883476701306917
2012-11-21,0,0.0,0.0,-0.004679106418178514,0.010278470626991887,0.9880699471305102
2012-11-26,0,0.0,0.0,-0.008141360387462155,0.010278470626991887,0.9881498966927561
2012-11-28,0,0.0,0.0,-0.01090446419773741,0.008943790989565761,0.9890676388744072
2012-11-30,0,0.0,0.0,-0.008141360387462155,0.009408681087836466,0.9891589992661134
2012-12-04,0,0.0,0.0,-0.0019231423401575537,0.013153690325524265,0.989668027161743
2012-12-06,0,0.0,0.0,-0.0033700941165672937,0.009967116849486089,0.9903350126175222
2012-12-10,0,0.0,0.0,-0.0033700941165672937,0.008471887308613285,0.9916123402378418
2012-12-12,0,0.0,0.0,-0.006055442246065721,0.008658032562496492,0.9907223795338607
2012-12-14,1,0.0021506101238050403,0.0024198718883331255,-0.006055442246065721,0.010473502276966777,0.9904029861022474
2012-12-18,1,0.0026747160001468614,0.002999274172859878,-0.006055442246065721,0.010473502276966777,0.9903615948777982
2012-12-20,1,0.0023973505822864694,0.0027217176179942476,-0.0034057594503444284,0.013816966977176852,0.9906535184053763
2012-12-24,1,0.0015083551998471723,0.0016682145701503647,-0.004631083662596435,0.013816966977176852,0.9902129282146296
2012-12-27,-1,-0.0001826457489201421,-1.8528342964093292e-05,-0.004631083662596435,0.013816966977176852,0.9897758772709652
2012-12-31,1,0.0012990497812796105,0.0013886922870021147,-0.004631083662596435,0.010473502276966777,0.9907810424431055
2013-01-03,1,0.0010213235673008142,0.001038961347793298,-0.004631083662596435,0.009444630473466508,0.9915732613821313
2013-01-07,1,0.0008655707869848639,0.0009377867028554654,-0.004631083662596435,0.012833296009876826,0.9898814941546181
2013-01-09,1,0.001031627565306531,0.0011009919091933113,-0.004631083662596435,0.012833296009876826,0.9903188799311802
2013-01-11,0,0.0,0.0,-0.005014510362319644,0.00837637821300856,0.9913318989693798
2013-01-15,0,0.0,0.0,-0.005014510362319644,0.00837637821300856,0.991192158949841
2013-01-17,1,0.002002151909955016,0.0021714357102392296,-0.007247980731761765,0.005071204099765535,0.9901174589329612
2013-01-22,1,0.0020385978484712005,0.002164274793784922,-0.008062614990012925,0.0030958383375993214,0.9881527652515962
2013-01-24,0,0.0,0.0,-0.007247980731761765,0.006241898045700572,0.9887269534744272
2013-01-28,0,0.0,0.0,-0.007247980731761765,0.007677207557707305,0.988449891428062
2013-01-30,0,0.0,0.0,-0.007247980731761765,0.011888460050813671,0.98774797998808
2013-02-01,0,0.0,0.0,-0.009818479421761714,0.011905390898298783,0.986944923698808
2013-02-05,0,0.0,0.0,-0.008028997107929465,0.011905390898298783,0.9871530225693093
2013-02-07,0,0.0,0.0,-0.008028997107929465,0.011905390898298783,0.9869913075463682
2013-02-11,1,0.002756668705206321,0.003020816524724596,-0.008028997107929465,0.011905390898298783,0.98731652051114
2013-02-13,1,0.00278589732179381,0.00306863540640739,-0.010365762682961467,0.011905390898298783,0.986532205241469
2013-02-15,1,0.0011752455059876466,0.0012201505130740593,-0.006136999363329905,0.012780932930651499,0.9869468767101894
2013-02-20,1,0.00242465939847904,0.0026869414670631833,-0.0032656109470695386,0.011905390898298783,0.9896955129670987
2013-02-22,0,0.0,0.0,-0.004182707511039932,0.007912929655785697,0.9896521172294971
2013-02-26,0,0.0,0.0,-0.004182707511039932,0.012780932930651499,0.9855114297119967
2013-02-28,0,0.0,0.0,-0.004182707511039932,0.00786301756328163,0.9863028402474789
2013-03-04,0,0.0,0.0,-0.004182707511039932,0.0046651068020015654,0.987109995346328
2013-03-06,1,0.0006722655448399516,0.0006791870005013828,-0.004182707511039932,0.0023056830842707603,0.9886731072983661
2013-03-08,1,0.0017304921900461708,0.0018602342135296736,-0.004182707511039932,0.0010649244664597947,0.9884599400713746
2013-03-12,0,0.0,0.0,-0.007387821146146763,0.0023056830842707603,0.9873116508549699
2013-03-14,0,0.0,0.0,-0.004182707511039932,0.0072130070383403435,0.9872674603530991
2013-03-18,1,0.0028553128014218317,0.0031996052115410476,-0.007387821146146763,0.0072130070383403435,0.9854100516501066
2013-03-20,0,0.0,0.0,-0.00960712799535155,0.005848851128115819,0.9854214494042248
2013-03-22,0,0.0,0.0,-0.00960712799535155,0.005848851128115819,0.9857554116071424
2013-03-26,1,0.0009544119889368743,0.0011171668216898212,-0.0041442433707007745,0.003572815053179797,0.9904460844853736
2013-03-28,1,0.0020242549220022363,0.002212808547500588,-0.004431120374530693,0.004754830776616906,0.9898795378160279
2013-04-02,0,0.0,0.0,-0.004431120374530693,0.004754830776616906,0.9899764431220714
2013-04-04,0,0.0,0.0,-0.002476632472485036,0.012648647845086855,0.9891957702397663
2013-04-08,0,0.0,0.0,-0.0024737458264818017,0.013638740646366691,0.9877174091185073
2013-04-10,0,0.0,0.0,-0.0024737458264818017,0.013159200372807005,0.9876248317301852
2013-04-12,0,0.0,0.0,-0.0028296336541234197,0.008872949916200076,0.989191130717968
2013-04-16,1,0.001385288696352827,0.0014831401394978386,-0.0028296336541234197,0.008872949916200076,0.9901423891257254
2013-04-18,1,0.0006509867104327545,0.0008199951080749533,-0.004169265477609595,0.008872949916200076,0.9886237155213525
2013-04-22,1,0.00020242656284324436,0.00039358584021420887,-0.004169265477609595,0.012648647845086855,0.9874419320954037
2013-04-24,1,0.0008855585547624981,0.0009415678119351118,-0.007008034814691781,0.012648647845086855,0.9871966279615697
2013-04-26,1,0.0005576178806208716,0.0006711106245766384,-0.008535684417997543,0.012648647845086855,0.9866880481276104
2013-04-30,-1,-0.0013114368291339141,-0.0008951633891526661,-0.007008034814691781,0.013159200372807005,0.9864052619004842
2013-05-02,0,-9.521063551622578e-05,0.0001373395356150817,-0.007008034814691781,0.009303039910110533,0.987435182490617
2013-05-06,1,0.0013230573424654678,0.0013248497728730552,-0.008535684417997543,0.009303039910110533,0.9864469323855756
2013-05-08,1,0.0007131093512782015,0.0007769161761397756,-0.007008034814691781,0.0070517744312296165,0.9883379714235029
2013-05-10,1,0.0005863205501564396,0.0006820132712433125,-0.007008034814691781,0.01617977116516487,0.986750602476032
2013-05-14,1,0.0013974804376499289,0.0014214837475283503,-0.006224784440621038,0.01617977116516487,0.987087821743382
2013-05-16,-1,-0.0005426442030009804,-0.00030117432957919366,-0.004921463318079403,0.01617977116516487,0.9883545631508966
2013-05-20,-1,-0.00022812366443731506,-1.1212730576234736e-06,-0.0056680591485668485,0.01617977116516487,0.9883701117095416
2013-05-22,-1,-0.0008112155585231454,-0.0004821833013600626,-0.0056680591485668485,0.01617977116516487,0.987682037142794
2013-05-24,-1,-0.0003468828885152233,-0.00010597403945385305,-0.006444614015948218,0.01617977116516487,0.9874721727793324
2013-05-29,1,0.0002346282334213735,0.0003793870043882339,-0.006083971233795371,0.01620249086455729,0.986929325518652
2013-05-31,0,-9.590305921920066e-05,8.743247827909984e-05,-0.006083971233795371,0.01620249086455729,0.9867780456873034
2013-06-04,1,0.0007677902563269163,0.0008285142631488636,-0.004467016014175861,0.016088914077767295,0.9879873762622156
2013-06-06,1,0.0008626738693869035,0.0008859529360962036,-0.004467016014175861,0.016608406200674875,0.9861058383645812
2013-06-10,1,0.00210626026879027,0.0022547922313642735,-0.005616254823160835,0.014019568764456345,0.9879431259470648
2013-06-12,1,0.0029486906913586833,0.0032377485000671304,-0.005616254823160835,0.011594004866541153,0.9884903666675214
2013-06-14,1,0.0031815053017936992,0.003531714099006312,-0.005608762572077713,0.011369826732834631,0.9888259966290344
2013-06-18,1,0.003387117247613765,0.0037298748917360663,-0.005284192298930388,0.009107667391160722,0.9895987177206921
2013-06-20,1,0.0026900085629939616,0.0028976886171429438,-0.004358825923126752,0.011369826732834631,0.9902844926423436
2013-06-24,1,0.0016319171709908943,0.0016870048567789507,-0.0040941910301578194,0.011369826732834631,0.9910625442543874
2013-06-26,1,0.002384890871114039,0.002552922107330681,-0.004358825923126752,0.008850315042242865,0.9915113495649966
2013-06-28,1,0.0017940004124825486,0.0018697579211398854,-0.005284192298930388,0.008850315042242865,0.9917338400137377
2013-07-02,1,0.002458996470222273,0.0026230427248776483,-0.005799007875846276,0.002745398789369743,0.9920752372990131
2013-07-05,1,0.0033808714117667727,0.003651139436817652,-0.005799007875846276,0.002745398789369743,0.9919895387241661
2013-07-09,1,0.0032102363071591844,0.003468659044871598,-0.005799007875846276,0.005198622189336934,0.9911375701188322
2013-07-11,1,0.002780122087378852,0.0028905181129753924,-0.005943406516978988,0.005507936393887861,0.9906782449510944
2013-07-15,1,0.0029378204318910475,0.0030921759780272846,-0.006318179579910623,0.00337452952144725,0.9909924768646728
2013-07-17,1,0.0025743111773739945,0.0026860777049893558,-0.006318179579910623,0.007503314361036718,0.9911311577931037
2013-07-19,1,0.0026680535952114982,0.0027589196696909705,-0.006477645968898521,0.004537549920044505,0.9909859946168184
2013-07-23,1,0.00239604099780615,0.0024728054136361377,-0.006477645968898521,0.0075323814897877445,0.9892432204660175
2013-07-25,1,0.0017955413275757216,0.0018209959997508786,-0.006477645968898521,0.011209561130117228,0.9884365897388827
2013-07-29,1,0.001801801940149271,0.001822608918178356,-0.006477645968898521,0.011209561130117228,0.9882151116674597
2013-07-31,1,0.0014997133280309184,0.00150880308397943,-0.0075230956082792495,0.011209561130117228,0.9868073719391734
2013-08-02,1,0.002106617011602144,0.002167346953094674,-0.009732165295148284,0.0075323814897877445,0.9873965781351612
2013-08-06,1,0.0020427864640553215,0.002091786012620081,-0.009732165295148284,0.0075323814897877445,0.9860349149728221
2013-08-08,1,0.0026810744629402108,0.0028513632786534363,-0.01118421484553325,0.0075323814897877445,0.9857199177462215
2013-08-12,1,0.002397401945562084,0.002521741112861556,-0.01118421484553325,0.011082417969627216,0.9854108614790603
2013-08-14,1,0.002712803975224518,0.002866917570362071,-0.01118421484553325,0.018402662310446728,0.9832470371976014
2013-08-16,1,0.002925310398446407,0.003137991793159104,-0.010390059378488468,0.018402662310446728,0.9833897085200408
2013-08-20,1,0.004632537277163434,0.005065237903412869,-0.010390059378488468,0.017866212932679742,0.984957068297699
2013-08-22,1,0.004386811430981785,0.004746174068169369,-0.010390059378488468,0.01645678398120575,0.9848733045907061
2013-08-26,1,0.003450883295824771,0.003649946442061169,-0.01187262090014205,0.01645678398120575,0.9849821411156223
2013-08-28,1,0.002174348339307611,0.002192226947265283,-0.01187262090014205,0.01645678398120575,0.9854832710013947
2013-08-30,1,0.0012766541211204768,0.0013856546712878945,-0.008730224158737511,0.01645678398120575,0.9858804012146399
2013-09-04,1,0.0030722015452596847,0.003264538427375765,-0.007232331857972613,0.01645678398120575,0.9879649166407358
2013-09-06,1,0.0027094818624785215,0.002807104985875597,-0.007232331857972613,0.015212834977588914,0.988302041201997
2013-09-10,1,0.00272091114832528,0.00277575198838486,-0.007975911588930913,0.01321898992307385,0.9883062147275384
2013-09-12,1,0.004205117103747219,0.004431729848774036,-0.009181257792251676,0.007344916268209938,0.9878940376812163
2013-09-16,1,0.004588708889340007,0.004869899582495614,-0.009181257792251676,0.010844934330236972,0.9878239858678236
2013-09-18,1,0.005169880797507842,0.005516458716066019,-0.010635211512424365,0.006615235194810132,0.9874779861751259
2013-09-20,1,0.003601004483105722,0.0036982088528864907,-0.008911596462502643,0.009849718161732081,0.9891316682334187
2013-09-24,1,0.003379474067853512,0.003494317434900273,-0.008911596462502643,0.009849718161732081,0.988728316967854
2013-09-26,1,0.0028902582431330343,0.002991002880774406,-0.007975911588930913,0.010091328437555494,0.9891636615124111
2013-09-30,1,0.0019385837497065323,0.0020011541489646806,-0.005261307353744445,0.010844934330236972,0.9888217737678516
2013-10-02,1,0.002571523416026634,0.0025807281495885564,-0.00717427121906348,0.010844934330236972,0.9886702139906081
2013-10-04,1,0.0018783174456704645,0.001928779128878322,-0.005186593698744907,0.010844934330236972,0.9890123776466359
2013-10-08,1,0.0002782742242599945,0.0006107646740450423,-0.005186593698744907,0.012651877785134038,0.9882498916534987
2013-10-10,1,0.0011521927844841467,0.0013497301472345552,-0.005186593698744907,0.010844934330236972,0.9893093610225976
2013-10-14,1,0.0013251654814951043,0.0015036419589545664,-0.005186593698744907,0.011060625048903244,0.9895319605876328
2013-10-16,1,0.0008399812995489403,0.001096113489216222,-0.0043203761795534545,0.013420604029124341,0.9898467078788618
2013-10-18,1,0.0014252774863844353,0.001616183221691212,-0.0043203761795534545,0.013420604029124341,0.9899447779849635
2013-10-22,1,0.0011914478942699072,0.0014372188209141909,-0.0050382337830223445,0.013420604029124341,0.9900661353393405
2013-10-24,1,0.00216733250293672,0.002279218635357125,-0.0050382337830223445,0.013420604029124341,0.9896299121809795
2013-10-28,1,0.0021659911607505855,0.002301018622280694,-0.006311633470768592,0.012962173533137457,0.989734338951166
2013-10-30,1,0.0032026836779650843,0.0032655510201132164,-0.006236950523790176,0.01227973949935384,0.9898965952622112
2013-11-01,1,0.0035487006567615784,0.003701799531060002,-0.006665445941343795,0.01227973949935384,0.9895902907531301
2013-11-05,1,0.003739760035345668,0.00390802204873214,-0.006236950523790176,0.01227973949935384,0.9883558859009541
2013-11-07,1,0.0024098311347557615,0.0024481114738201877,-0.004572721901405522,0.01231427669074637,0.9896457435657185
2013-11-11,1,0.002405582957330388,0.002407441932141898,-0.006236950523790176,0.012077866267562137,0.989001481194863
2013-11-13,1,0.0020796484383808736,0.0021806022550176726,-0.007332295945842006,0.010939161431131697,0.9883842914283568
2013-11-15,1,0.0028306880001252297,0.0028663284340606767,-0.007332295945842006,0.010939161431131697,0.98793835366101
2013-11-19,1,0.001480550233575573,0.0016370603095406445,-0.007332295945842006,0.012077866267562137,0.9875492473567304
2013-11-21,1,0.00284001802545966,0.0028891133645060287,-0.010091418175883337,0.012077866267562137,0.9869387831113763
2013-11-25,1,0.00325619945844647,0.0034281444349771916,-0.007468474628425165,0.012077866267562137,0.9875926263517824
2013-11-27,1,0.0030466206155670065,0.0031687754719878117,-0.009044400085816707,0.009099532160951,0.9874268297498002
2013-12-02,1,0.00232580226469571,0.0023611306200846185,-0.009210668058758123,0.009099532160951,0.986554620585242
2013-12-04,1,0.0036995211384954012,0.003919414831355682,-0.012707602823444103,0.007768180420829253,0.987451825922625
2013-12-06,1,0.00409425796709602,0.004326538567467622,-0.01745076405580004,0.006695557756185046,0.9844947234113459
2013-12-10,1,0.002706587121205032,0.0028361726787682305,-0.01745076405580004,0.010240265140905303,0.9829967229667484
2013-12-12,1,0.0014495500517341519,0.001508516233511952,-0.014897167911832845,0.016827493897902696,0.9828321638390451
2013-12-16,1,0.001328746864110521,0.0014372103724175854,-0.014897167911832845,0.01775135430517139,0.9810462331992317
2013-12-18,1,0.0013100267826217712,0.0014501626193426731,-0.014897167911832845,0.016843238089825796,0.9817614137411329
2013-12-20,1,0.0009190494238818378,0.0011213805995934382,-0.014587723988426074,0.010240265140905303,0.9828070885813076
2013-12-24,1,0.0017718170547953882,0.001839512229583587,-0.018341768162673747,0.002681442345831847,0.9799193269683412
2013-12-27,1,0.0008067689242946649,0.0009865145862238628,-0.021979214708394937,0.01029960831657309,0.9793823432750802
2013-12-31,-1,-0.0006736262057295969,-0.0003383288822489106,-0.02169648206263903,0.01029960831657309,0.9803458071766299
2014-01-03,-1,-0.002088087755134576,-0.0015705748066577624,-0.022985439472455845,0.01029960831657309,0.9799859973439877
2014-01-07,-1,-0.001847355488633956,-0.0013832238171904844,-0.02169648206263903,0.009313634781667524,0.9817294088497927
2014-01-09,-1,-0.0031123962346529103,-0.0024694042675925615,-0.019911703562897613,0.009313634781667524,0.9840587026896744
2014-01-13,-1,-0.0019427177934050795,-0.0015374416061459525,-0.019911703562897613,0.009313634781667524,0.9841925772304916
2014-01-15,1,0.0003809229782100898,0.0005003195542983984,-0.019911703562897613,0.007922625009554525,0.9854104591058708
2014-01-17,-1,-0.0004915018349821351,-0.00023475881488190832,-0.019911703562897613,0.010766626307051538,0.9844448913971954
2014-01-22,-1,-0.0024629342061040166,-0.0018982755181910236,-0.019911703562897613,0.012577423450294828,0.9839127521271338
2014-01-24,-1,-0.005647028029506371,-0.0046796134396108555,-0.004845582453425114,0.013298587287190983,0.9839879131106251
2014-01-28,-1,-0.005654847489825211,-0.004751157243515748,-0.003007737997886225,0.013298587287190983,0.985360787579308
2014-01-30,-1,-0.006724004592035878,-0.0057031745057943214,0.0004293172270272295,0.015216235186813677,0.9837365077337672
2014-02-03,-1,-0.007518814432375429,-0.006433685510280087,0.001665210665682668,0.0164149576158987,0.9812028160832089
2014-02-05,-1,-0.006656582500678283,-0.005780398571124232,0.0017715878263019022,0.0164149576158987,0.9818258670317653
2014-02-07,-1,-0.005428131196405833,-0.0047344637575872294,0.0017715878263019022,0.01717599713860059,0.9826437510997995
2014-02-11,-1,-0.003825235616822722,-0.0033720890955822704,0.0017715878263019022,0.01717599713860059,0.9829795851022477
2014-02-13,-1,-0.0033876652238188755,-0.002945243014750531,0.00026769138141062533,0.022540915847064594,0.9812762465715736
2014-02-18,-1,-0.0024151853454508856,-0.0020771975076519563,0.00026769138141062533,0.01717599713860059,0.9825129150912636
2014-02-20,-1,-0.0022226919540086123,-0.0018730444511114634,-0.0028873687780680644,0.01717599713860059,0.9823974511903399
2014-02-24,-1,-0.0016413442987977848,-0.0013400619060535883,-0.008995137062944858,0.016867629763630487,0.982530587046374
2014-02-26,-1,-0.0010402780254483597,-0.0008307532690919213,-0.015230026512237088,0.022540915847064594,0.9768865953740448
2014-02-28,-1,-0.0003344727831050961,-0.00016635719604106338,-0.015230026512237088,0.016867629763630487,0.9773295303172729
2014-03-04,-1,-0.000843373572600546,-0.0005894508647231772,-0.013337800773649844,0.014723450368630979,0.9794371625779323
2014-03-06,0,-8.236847898092446e-05,6.458855594569012e-05,-0.013496513625924567,0.012704750031831821,0.9793539216503867
2014-03-10,1,0.0011799691380485007,0.001208422912753209,-0.01790698831512317,0.011973209728664494,0.9776873846725327
2014-03-12,1,0.002313753737471288,0.002480685544736182,-0.01790698831512317,0.011973209728664494,0.9787479559419391
2014-03-14,1,0.0028046416352921714,0.0030664134673499812,-0.01790698831512317,0.011481201001899512,0.979975342888072
2014-03-18,1,0.002870528500394489,0.003185066555225759,-0.022088605603284885,0.004291313418510896,0.9786796676861955
2014-03-20,1,0.0014530612595016928,0.0016328373214828651,-0.017848991091219443,0.01067457238054394,0.9794606735067213
2014-03-24,1,0.0004772365244946215,0.0005475051615287244,-0.017176673945993315,0.012704750031831821,0.9802893364792787
2014-03-26,1,0.001816224598090429,0.0020836287787913384,-0.017176673945993315,0.01067457238054394,0.9845997453062517
2014-03-28,1,0.001729903968266959,0.0020003299568490825,-0.02122621710630651,0.006915548218180957,0.9839093156786043
2014-04-01,1,0.002588409563283799,0.003001793744450792,-0.02122621710630651,-0.002723124166879361,0.9828175348269119
2014-04-03,1,0.0013318754061329681,0.0015030549791106456,-0.02122621710630651,0.003198129505573996,0.9835565226948954
2014-04-07,-1,-0.00010216331975341478,-8.444328162670399e-05,-0.016893304945225122,0.004920689434992438,0.9860219386603972
2014-04-09,1,0.0009607199404362186,0.0011564295350847053,-0.016893304945225122,0.004920689434992438,0.9855236554200638
2014-04-11,-1,-0.0003117459648716025,-0.0002461021800210394,-0.01495159263806681,0.008225910974838869,0.9862476616788121
2014-04-15,-1,-0.0017446492701654586,-0.001603370419254482,-0.01178484456348767,0.008225910974838869,0.9871494809485514
2014-04-17,-1,-0.0009690591811472315,-0.0009672614454502132,-0.010144606820282228,0.006099438876962271,0.9879199038502113
2014-04-22,-1,-0.00033912338050042044,-0.0002563108464621856,-0.011367618027088647,0.00519776400671065,0.9881422611622012
2014-04-24,-1,-0.0014902261082267857,-0.0014394805439301539,-0.009257133028361338,0.00891583785505664,0.9881256927536649
2014-04-28,-1,-0.002889004191430308,-0.002648911418946831,-0.0065183341768131,0.011122325209322124,0.9884216480131329
2014-04-30,-1,-0.0033470594635994157,-0.003114803452118101,-0.006090083814295986,0.011122325209322124,0.9888276663650392
2014-05-02,-1,-0.002223591376326904,-0.0021520399277878666,-0.006090083814295986,0.00891583785505664,0.9896680034415725
2014-05-06,-1,-0.0021151913795114706,-0.0020299444794256985,-0.007547359081209711,0.011122325209322124,0.9882840157047272
2014-05-08,-1,-0.001963079506277555,-0.0018578723716156146,-0.007547359081209711,0.011122325209322124,0.988654962209248
2014-05-12,-1,-0.000988795675107784,-0.0009489517454207507,-0.008906154332781642,0.009721096293865427,0.9893432275464775
2014-05-14,-1,-0.0011244823738505954,-0.0010754447342450723,-0.007969440197211904,0.011122325209322124,0.988828742129167
2014-05-16,-1,-0.001169025878023597,-0.00112197585805746,-0.007259802424026661,0.011122325209322124,0.9894561386520379
2014-05-20,-1,-0.000875010966123703,-0.0007546798509047196,-0.006090083814295986,0.01555440305656985,0.9892616168709112
2014-05-22,-1,-0.00025840469603666754,-8.341235501086895e-05,-0.006090083814295986,0.01099116680091529,0.9907160362814611
2014-05-27,-1,-0.0005360349022115863,-0.0004741348318409223,-0.004514505589839108,0.010048211237242392,0.9908179769477056
2014-05-29,-1,-0.0018307209402659468,-0.0016870346606640948,-0.0015945867668036898,0.010048211237242392,0.9908300828756543
2014-06-02,-1,-0.0015385081746934221,-0.0014209605604041007,-0.0040522606545766015,0.010048211237242392,0.9905390177450236
2014-06-04,-1,-0.0008280431121867676,-0.0006985121367764093,-0.0040522606545766015,0.010048211237242392,0.9916110812514889
2014-06-06,-1,-0.00030834054990330897,-0.0002393700523558735,-0.0040522606545766015,0.010048211237242392,0.9917996523769661
2014-06-10,1,0.0007133381118241809,0.0008974030411856771,-0.0040522606545766015,0.006101449584306702,0.9923761447020268
2014-06-12,1,0.0010229770210549902,0.0012226297310713578,-0.005620741991069362,0.0024448054912961127,0.992810706057154
2014-06-16,1,0.0005083514688086216,0.0005940853589477491,-0.006697433754478298,0.0024448054912961127,0.9919659832130533
2014-06-18,1,0.000129270416696109,0.00025373012834844876,-0.008389428552072215,0.0011063719180647953,0.9915991155234007
2014-06-20,1,8.99163661280246e-05,0.00024342302200079988,-0.008389428552072215,0.0017631127389046118,0.9902761978429548
2014-06-24,0,-0.00022209931895501628,2.8277704512532135e-05,-0.008389428552072215,0.00021978525015024038,0.9900258250375613
2014-06-26,-1,-0.0012604642916483908,-0.0008245069997704223,-0.008389428552072215,-0.0010227506810969783,0.9906118611578564
2014-06-30,-1,-0.0029212323439898277,-0.0022635951465418387,-0.008389428552072215,0.001653275733867475,0.9914244808719707
2014-07-02,-1,-0.0027133599228175626,-0.0021029349240425676,-0.009021975452663535,-0.0010227506810969783,0.9912272137476166
2014-07-07,-1,-0.0018551701068800978,-0.0013850051153744194,-0.009021975452663535,0.0006053407425284842,0.9907345883217746
2014-07-09,-1,-0.0017432920316008118,-0.001327291890173738,-0.011726085791453244,-0.00041740993856849407,0.9896566502278937
2014-07-11,-1,-0.0017878061456068812,-0.0014022353933683923,-0.011726085791453244,0.00942841317077783,0.9861542488126478
2014-07-15,-1,-0.0024712219328116188,-0.0020254096159998567,-0.011726085791453244,0.00942841317077783,0.986181664351759
2014-07-17,-1,-0.0034122502962280433,-0.0028935511665118367,-0.009021975452663535,0.012374161546161486,0.9858885503533296
2014-07-21,-1,-0.0029273166344082587,-0.0024495509545286115,-0.009021975452663535,0.012374161546161486,0.9858665978980535
2014-07-23,-1,-0.001595650837393301,-0.0013341875510392773,-0.012450639527793843,0.007595019060597785,0.9858193544116571
2014-07-25,-1,-0.0012552074329805916,-0.0010168555654444132,-0.012769788218730734,0.007595019060597785,0.9851951840064862
2014-07-29,-1,-0.0012019658520017107,-0.0009964261461131007,-0.01883865772753108,0.0060272702633582115,0.9847051984655931
2014-07-31,-1,-0.0020598226570536834,-0.0017924551259761374,-0.012769788218730734,0.012374161546161486,0.9847071610614819
2014-08-04,-1,-0.00027646642374138026,-0.0002585428645924412,-0.012769788218730734,0.011043891327655639,0.9849375960876009
2014-08-06,-1,-0.0010635454852799533,-0.0009843141509942681,-0.007817195119124053,0.01138395120160145,0.9857622543965251
2014-08-08,1,0.0016381593836461376,0.0019499408030100587,-0.007817195119124053,0.010654120727296712,0.9894100792401097
2014-08-12,1,0.0010084719742045546,0.001130574631318928,-0.005409376168383367,0.010654120727296712,0.9897944665772601
2014-08-14,1,0.00020406663117796916,0.00025474149833845856,-0.006410743119126189,0.009920710470541973,0.9905353648976396
2014-08-18,1,0.0015509175271491303,0.001878794049637925,-0.006839605701571286,0.005477081231081569,0.990993912894955
2014-08-20,1,0.0006633927218234512,0.0008724182204825253,-0.006410743119126189,0.009920710470541973,0.9913793604910366
2014-08-22,1,0.0008797063042306711,0.0011708348335055445,-0.006410743119126189,0.009920710470541973,0.9913888918743883
2014-08-26,0,-6.745406053128191e-06,0.00011102951378943164,-0.006410743119126189,0.009920710470541973,0.9914957899845618
2014-08-28,1,0.00018424502544109078,0.0002753221313691359,-0.006551813308557476,0.009920710470541973,0.9902663907164514
2014-09-02,1,0.0011458732268042084,0.0014051090312138166,-0.007733357690106666,0.009920710470541973,0.9901269971955241
2014-09-04,1,0.0006805144310857073,0.0007610269962670773,-0.008994678766334124,0.009946109931636159,0.9895729107400816
2014-09-08,1,0.000451253981342159,0.0004774402540370869,-0.008994678766334124,0.011885130986497846,0.9886963329833867
2014-09-10,1,0.0010398244735501966,0.0011045511433796678,-0.009184822941990507,0.012239585728649308,0.9871911392152806
2014-09-12,1,0.0009005592349323522,0.0009947034686445288,-0.009184822941990507,0.012239585728649308,0.9874670073118773
2014-09-16,-1,-0.0003924002834062467,-0.0002551215143181152,-0.009358122192229007,0.013036878160846841,0.986450789146431
2014-09-18,-1,-0.00048438376157839346,-0.00026127141986761755,-0.009910948259341959,0.013036878160846841,0.9855999479797267
2014-09-22,-1,-0.0018096980025998613,-0.001372586476235653,-0.009749619429060014,0.013036878160846841,0.9854107141567153
2014-09-24,-1,-0.0016619003201011247,-0.0012784930331778252,-0.009034519757493406,0.015360106804269576,0.9842807079734084
2014-09-26,-1,-0.0003953409748757937,-0.00018236537639727932,-0.008951512566920814,0.015360106804269576,0.9854463549689417
2014-09-30,0,-2.4776271577112098e-05,0.00012088683697175228,-0.008951512566920814,0.017148726934745714,0.9852583082549278
2014-10-02,1,0.0006634340123028576,0.0006823994641836737,-0.009238270397314157,0.017148726934745714,0.9856185512590546
2014-10-06,1,0.0014196988037328841,0.001469842460687877,-0.009238270397314157,0.014837488950993944,0.9865009734832625
2014-10-08,1,0.000696610214113983,0.0007467021705725045,-0.009238270397314157,0.015479505804776599,0.9870216775628051
2014-10-10,1,0.000990688553057433,0.001014933714852631,-0.009238270397314157,0.015479505804776599,0.9870594511562344
2014-10-14,1,0.001691985118263991,0.0018143162780003864,-0.006985900416217735,0.013416743896233029,0.9880652270912234
2014-10-16,1,0.002100155340649747,0.0022914082220179895,-0.0060576501911240145,0.011567381883858113,0.9897161654911071
2014-10-20,1,0.002010594489424882,0.0021436696535451476,-0.009238270397314157,0.011567381883858113,0.9886086341872938
2014-10-22,1,0.0032778475673453807,0.0035951221624046965,-0.009238270397314157,0.011567381883858113,0.9900533996935411
2014-10-24,1,0.003904821030601256,0.004335584161646415,-0.0069857423475802715,0.00908948814406226,0.9910832874510337
2014-10-28,1,0.004381926649573381,0.004916295003494471,-0.0050651078840069814,0.00908948814406226,0.9904300520939006
2014-10-30,1,0.003986801900662241,0.004463475999376924,-0.0035550211104617684,0.011567381883858113,0.9904184155187725
2014-11-03,1,0.004363270302694575,0.00490931398060445,-0.0035550211104617684,0.009629978441855341,0.9907712255918669
2014-11-05,1,0.00420433933678839,0.0047123611311766355,-0.0035550211104617684,0.009079431458742708,0.9910164346562299
2014-11-07,1,0.004179316176166076,0.0047281221558896375,-0.0035550211104617684,0.009629978441855341,0.9901018148783797
2014-11-11,1,0.004204930042611039,0.004754607242867308,-0.006197184721691979,0.009629978441855341,0.9887526002660483
2014-11-13,1,0.0048931312688026965,0.005562276727247391,-0.006197184721691979,0.013078658944137407,0.98808002120831
2014-11-17,1,0.003856535301911464,0.004374534349074305,-0.0034665900733593475,0.013078658944137407,0.9878175110296109
2014-11-19,1,0.0037691167173888804,0.0042151076595048995,-0.004631342295573501,0.01195661415448519,0.987675029525996
2014-11-21,1,0.003847338132399075,0.004308889046870977,-0.007860586112706642,0.013746278283776992,0.9858724337531024
2014-11-25,1,0.0056018934305123586,0.006317186226513069,-0.011090186351194149,0.01195661415448519,0.9868641649621746
2014-11-28,1,0.006031106650105832,0.0067813262142747185,-0.011090186351194149,0.01195661415448519,0.9866285979709586
2014-12-02,1,0.006181591781057361,0.006908655266477633,-0.011090186351194149,0.01195661415448519,0.9857119337282392
2014-12-04,1,0.004998622501658957,0.005505497067366747,-0.011800461899990473,0.01195661415448519,0.985759485771941
2014-12-08,1,0.0038465902203454194,0.004129910292395168,-0.007591568818806899,0.01195661415448519,0.9830439607621433
2014-12-10,1,0.0019126578063185153,0.0020276269007228976,-0.007304407062735534,0.014329832636265968,0.9829524800121388
2014-12-12,1,0.0029987764699575896,0.003272245708687423,-0.007304407062735534,0.01414169795364279,0.9823515586029946
2014-12-16,1,0.0017879045365950508,0.0018928424629515211,-0.007304407062735534,0.01414169795364279,0.9830829126146537
2014-12-18,1,0.0018814802918894567,0.0019823461979885473,-0.008739704894797173,0.01627112557608703,0.9823836440100158
2014-12-22,1,0.0015048486743319057,0.0015163939837503128,-0.008739704894797173,0.012470390450234188,0.9837456594456496
2014-12-24,1,0.001603591078315752,0.0016430660393861258,-0.008502872507580415,0.012470390450234188,0.9842214668347702
2014-12-29,1,0.0015574055245083508,0.0015914768926460297,-0.008502872507580415,0.007610077627550579,0.9846374340774863
2014-12-31,1,0.0020060430553191424,0.002156266818718504,-0.009164193375016404,0.012470390450234188,0.9826589566290651
2015-01-05,1,0.0011850401120955384,0.0011958040476148489,-0.009164193375016404,0.011334060731647137,0.9828205641392354
2015-01-07,1,0.003293085496733448,0.003544818914983725,-0.009164193375016404,0.011334060731647137,0.9856975598826508
2015-01-09,1,0.004890311135780627,0.005403456019298451,-0.011448237014439984,0.011334060731647137,0.9851104249984349
2015-01-13,1,0.005165486194714502,0.005653213131562602,-0.011448237014439984,0.009761118716283957,0.9864222285162985
2015-01-15,1,0.004520200109855291,0.00490730588310561,-0.012109546865171083,0.011334060731647137,0.9850586875321967
2015-01-20,1,0.0035853804750333,0.0037870667265296268,-0.009384629991926772,0.011653450359546893,0.9851024653069627
2015-01-22,1,0.0036693629158726987,0.0039084552067339875,-0.00846802932221943,0.011653450359546893,0.9857875051946214
2015-01-26,1,0.003213962754780785,0.0033973032948467707,-0.009198798700001965,0.01624096728151138,0.9845068466782618
2015-01-28,1,0.0027201928800342215,0.002828089873893451,-0.007009794863933603,0.01624096728151138,0.9846907946374359
2015-01-30,1,0.0022985795540326893,0.0023760313739598564,-0.007009794863933603,0.01624096728151138,0.983156192270314
2015-02-03,1,0.0023785893307626572,0.00246013358146098,-0.004694924104874465,0.01624096728151138,0.9839473963558837
2015-02-05,1,0.0023963743727509405,0.002447139617675964,-0.007565117350882063,0.011177941977499299,0.9837772103518247
2015-02-09,1,0.0011928993804733526,0.001313055745860109,-0.007565117350882063,0.00677044752134065,0.9851026829451914
2015-02-11,1,0.0018927695090803463,0.0019078710918933213,-0.011633924291207576,0.008682820714890318,0.9835193480666706
2015-02-13,1,0.0022471897095312013,0.002252449882940929,-0.007622103516815262,0.005688906691720398,0.985867751739825
2015-02-18,1,0.0029082039026561597,0.002970217812012954,-0.007622103516815262,0.005688906691720398,0.9865673094415117
2015-02-20,1,0.0029797897388225336,0.003076338592422607,-0.007622103516815262,0.013091083227620377,0.9857476552760772
2015-02-24,1,0.0024819563730398985,0.002497812461563463,-0.00488003160052395,0.013854974397104189,0.9844925754507428
2015-02-26,1,0.002340071559622011,0.0023459474119523244,-0.007622103516815262,0.013854974397104189,0.9795936262697859
2015-03-02,1,0.0033700098978239356,0.0035019068237884606,-0.005758648596062063,0.013091083227620377,0.9834171976903385
2015-03-04,1,0.002868315304594349,0.002900980369119149,-0.013421640845699736,0.013091083227620377,0.9815971376675976
2015-03-06,1,0.0014801789851048405,0.0016095581634404965,-0.007152908353459368,0.013091083227620377,0.9826931398265052
2015-03-10,1,0.0009655516078358219,0.0011618101362683136,-0.007152908353459368,0.013854974397104189,0.9808607925081643
2015-03-12,1,0.0015354524073442272,0.0016397577022530354,-0.008471144496775761,0.013091083227620377,0.9815199928698695
2015-03-16,1,0.0011586229963309286,0.0013096364246484465,-0.017376349275648913,0.013091083227620377,0.9805818865358754
2015-03-18,1,0.002078876478813884,0.0020917228348886273,-0.017376349275648913,0.011659403356740665,0.9811081405421062
2015-03-20,1,0.0027742611670532025,0.002871464371061299,-0.018714892913348463,0.009574608300040002,0.9804131855792917
2015-03-24,1,0.00456805604979102,0.004902328545762528,-0.018714892913348463,0.005580188339573555,0.9826304683515517
2015-03-26,1,0.0011145338340623448,0.0012520048583558878,-0.017376349275648913,0.007639324269858446,0.987670746913532
2015-03-30,1,0.0015415381114887551,0.0016152976097052916,-0.018366608694223463,0.006045478536309992,0.9869466059049831
2015-04-01,0,-0.0002567452708663032,4.454750946830785e-05,-0.018998973948686607,0.006045478536309992,0.98624751420222
2015-04-06,1,0.0001616420669152491,0.00042374549371280545,-0.018998973948686607,0.0046924631357706855,0.985586087720676
2015-04-08,1,0.0008202613106741505,0.00101034383539481,-0.018998973948686607,0.0046924631357706855,0.9871656843680721
2015-04-10,1,0.00014987255799141935,0.0004079454358764618,-0.014794423132331206,0.009474642242237612,0.9872874692346029
2015-04-14,-1,-0.0013297584311805228,-0.0008458980415156931,-0.009284694683426518,0.009474642242237612,0.9880008367349997
2015-04-16,-1,-0.0012177672993467319,-0.0007681627287149302,-0.009284694683426518,0.009474642242237612,0.9879197706967818
2015-04-20,-1,-0.001815367825445568,-0.0012922405076262002,-0.0070432699032745025,0.007098263391636343,0.9892612167226882
2015-04-22,-1,-0.0012876967545169113,-0.0008866364262886438,-0.0070432699032745025,0.009474642242237612,0.9880831392898953
2015-04-24,-1,-0.0009903145697812887,-0.0006558887837781383,-0.008325248608575616,0.00820976895045768,0.9881776374125769
2015-04-28,-1,-0.0011782821263804416,-0.0008479907633487775,-0.007012353902938329,0.00820976895045768,0.9890704184830944
2015-04-30,-1,-0.003492615761307886,-0.0028702541201989585,-0.007012353902938329,0.00820976895045768,0.9905274973111012
2015-05-04,-1,-0.002599237411083897,-0.0020684498041019135,-0.008289969200515356,0.006676638961043032,0.991977071994364
2015-05-06,-1,-0.0031815422084144926,-0.002529514591495332,-0.007194739276246748,0.006676638961043032,0.9924295911793126
2015-05-08,-1,-0.0019606628714036664,-0.0015027323483664252,-0.007194739276246748,0.00646865117970033,0.9926580374052592
2015-05-12,-1,-0.002919964473525376,-0.002295504356177481,-0.00678506946163706,0.007120463015788691,0.9920144061854499
2015-05-14,-1,-0.003114893864263481,-0.0024734331237997844,-0.00678506946163706,0.008371613678545026,0.9913420092086604
2015-05-18,-1,-0.002987156376900596,-0.002370035894102959,-0.00678506946163706,0.008371613678545026,0.9914512917580378
2015-05-20,-1,-0.0022281236572507953,-0.0016919204301265637,-0.00678506946163706,0.009210983493037412,0.9916929558351674
2015-05-22,-1,-0.0025992500675609495,-0.002047469574990619,-0.0016518046306579159,0.014904513469555323,0.9894413971704275
2015-05-27,-1,-0.002513399790175299,-0.0019803947837437,-0.007608115876611548,0.014904513469555323,0.9846692346283986
2015-05-29,-1,-0.0034965236772104926,-0.002828422538906954,-0.007749194799150268,0.014904513469555323,0.9843729271425953
2015-06-02,-1,-0.0028546866266436267,-0.0023874323890554013,-0.006014279952949235,0.014904513469555323,0.9833579129140702
2015-06-04,-1,-0.0019441452892995756,-0.0016279455827418864,-0.010886755769083826,0.011363884889544835,0.9830659279499543
2015-06-08,-1,-0.0003079330990921382,-0.0002564371786695622,-0.010886755769083826,0.011773514444359874,0.9828142144010047
2015-06-10,1,7.015338180590654e-06,4.484504157410479e-05,-0.010886755769083826,0.009210983493037412,0.9830543781805261
2015-06-12,1,0.00040212785597167235,0.00040668323291774355,-0.010886755769083826,0.02005156467409927,0.9816812401651683
2015-06-16,1,0.00021388483071148334,0.00024914541583084224,-0.012708704150780289,0.02005156467409927,0.9804078246158286
2015-06-18,1,0.0010648427249991435,0.0011243000258299848,-0.015822754527892006,0.017924261576155617,0.9799859776902256
2015-06-22,1,0.002391443242540691,0.0026050269318231897,-0.015822754527892006,0.006674120743891412,0.9814491358606454
2015-06-24,-1,-0.001701917773719464,-0.0013886373483049357,-0.015486474607149029,0.011424993610608202,0.9855769944227402
2015-06-26,-1,-0.002757930184373708,-0.002307166341187582,-0.018985669821104747,0.011424993610608202,0.9840721570196745
2015-06-30,-1,-0.003354893312503394,-0.002876865120943448,-0.017490677389108245,0.017924261576155617,0.9828010333593361
2015-07-02,-1,-0.005038391459498371,-0.0043304812427206445,-0.01186169342468399,0.018209632260464632,0.9825479339547358
2015-07-07,-1,-0.003494839158744671,-0.0029927457813566723,-0.01186169342468399,0.0175227983851595,0.9838058834845606
2015-07-09,-1,-0.003243751195783975,-0.0028284244299348147,-0.017490677389108245,0.018209632260464632,0.9808752313153497
2015-07-13,-1,-0.0008141010622332482,-0.0007507099049511582,-0.017490677389108245,0.015642295337784176,0.9824767092755834
2015-07-15,-1,-0.0017246468709095188,-0.0015615259663754218,-0.015509286284988513,0.015642295337784176,0.9830410579387089
2015-07-17,-1,-0.0017966649082074172,-0.0016192900071330778,-0.006846863458194296,0.010829867115295207,0.9845843469958309
2015-07-21,-1,-0.0012949967880158623,-0.001172104529683418,-0.015085344711647193,0.01003059866185631,0.9845612868542657
2015-07-23,-1,-0.0003226724388869311,-0.00026573325115206126,-0.015085344711647193,0.007028957389892852,0.9846643255270493
2015-07-27,-1,-0.002302143326744115,-0.0021386674630937364,-0.009497363860780976,0.007028957389892852,0.985677025485196
2015-07-29,-1,-0.0007589029025386627,-0.0007189296253136664,-0.009497363860780976,0.007028957389892852,0.9861810192591869
2015-07-31,-1,-0.00020783963542008526,-0.00020663332159214927,-0.009497363860780976,0.006441216343919958,0.9868036576345889
2015-08-04,1,0.0006586628045103115,0.0008132151536621059,-0.015085344711647193,0.0038669351046601253,0.985768546346514
2015-08-06,-1,-0.0003538590687090608,-0.00033710460103782624,-0.009497363860780976,0.0038669351046601253,0.9883404856659325
2015-08-10,-1,-0.0003019221516756647,-0.00024094224612944559,-0.00753604705699046,0.004231776996771021,0.9885679496416905
2015-08-12,1,0.00039319175450074333,0.0006007305226496595,-0.008211684504181957,0.0022657758169447447,0.9881900082741479
2015-08-14,1,0.0017942144910113172,0.002343178507993951,-0.008211684504181957,0.006246984224576666,0.9871237940826362
2015-08-18,-1,-0.0004211567734111714,-0.00038145892505764663,-0.01410319035902317,0.005065659707817833,0.9819173635942425
2015-08-20,-1,-0.001650277090745952,-0.001569709749750031,-0.010164776191137523,0.01498570621576042,0.9816874878089257
2015-08-24,-1,-0.0032849574112605823,-0.0029423976353952024,-0.008138393663604901,0.01498570621576042,0.982947905003607
2015-08-26,-1,-0.0007327473875152064,-0.0007268709507516846,-0.010164776191137523,0.0029335097616423494,0.9843709915933324
2015-08-28,-1,-0.0004923590780857447,-0.0004093213523553569,-0.011420288073396963,0.0029335097616423494,0.9826987653063305
2015-09-01,-1,-0.001931216668069107,-0.00180772116780822,-0.011420288073396963,0.003381839794509537,0.9831040811309597
2015-09-03,-1,-0.0015339586573197492,-0.0014286691101609802,-0.011420288073396963,0.007909271258457827,0.9808904928372053
2015-09-08,-1,-0.000888261425574627,-0.0008617701235554855,-0.012513041586561838,0.005099833012279371,0.98065023790658
2015-09-10,-1,-0.0018115093317883925,-0.0016581432293760287,-0.012513041586561838,0.010030872547556486,0.9802526049995187
2015-09-14,-1,-0.0011549811703163012,-0.0010783862936768942,-0.012513041586561838,0.010030872547556486,0.9797184543035855
2015-09-16,-1,-0.005999826533504166,-0.005367571902632064,-0.00992419125589623,0.010030872547556486,0.9845356711587959
2015-09-18,-1,-0.004883902781115653,-0.0043635981376208026,-0.007100620429024437,0.010030872547556486,0.9847194876694207
2015-09-22,-1,-0.006232295794537858,-0.005452805501944595,-0.007100620429024437,0.017399120038627473,0.979667599891833
2015-09-24,-1,-0.004787059679617444,-0.004241274138054415,-0.007100620429024437,0.017399120038627473,0.9797175621175578
2015-09-28,-1,-0.006358512156711633,-0.0056445330638772535,-0.00615023547123335,0.021407181970844208,0.9778907973096012
2015-09-30,-1,-0.006082528807140872,-0.005446854498318525,-0.00615023547123335,0.028982405298528472,0.9765903888459819
2015-10-02,-1,-0.0036476330984881035,-0.0032942190486138245,-0.010585387366566217,0.021407181970844208,0.9788324347155635
2015-10-06,-1,-0.004005921996000569,-0.0036105779966597645,-0.009685424176929242,0.025648229616723264,0.9779712794414422
2015-10-08,-1,-0.0028900836787645883,-0.00263791492463531,-0.013060883581902744,0.025648229616723264,0.9781667656549672
2015-10-12,-1,-0.0014762311930454125,-0.0014464720589832296,-0.018616187530744177,0.021337071443779693,0.9775011383304576
2015-10-14,-1,-0.0020160278113900295,-0.001898346797527746,-0.018616187530744177,0.021337071443779693,0.9769617569319615
2015-10-16,-1,-0.0003346588675668052,-0.00023412534386579035,-0.020340621596648154,0.018617217350886436,0.9768331052944228
2015-10-20,1,0.0021599644576908265,0.0025530622384340646,-0.020340621596648154,0.01800078461387086,0.9790718901022333
2015-10-22,1,0.001006519741751667,0.0012162730120974144,-0.020058072009069138,0.01800078461387086,0.9800788189073789
2015-10-26,1,0.0030841534190121705,0.003592932982662232,-0.020058072009069138,0.01800078461387086,0.9804323230402072
2015-10-28,1,0.0040822161583079775,0.0047592474058261655,-0.020058072009069138,0.01783826580806304,0.9821608352601943
2015-10-30,1,0.0026454745952364184,0.00316942001358185,-0.013537880570176665,0.01783826580806304,0.9847814235855493
2015-11-03,1,0.0035324881253411262,0.004194331628274158,-0.013537880570176665,0.01783826580806304,0.9845142226434916
2015-11-05,1,0.0026429007913714867,0.0031967100236688227,-0.011188637084268151,0.01783826580806304,0.9835251575852182
2015-11-09,1,0.002916158376573043,0.0035642312151846424,-0.006164535527137256,0.017981794393312975,0.9841807979130271
2015-11-11,1,0.004851208363629612,0.0058728487496670905,-0.006164535527137256,0.01845285790665225,0.9840018362472649
2015-11-13,1,0.0015307910259862575,0.0019138416353660839,-0.003467452945615794,0.01845285790665225,0.9844515565007688
2015-11-17,1,0.0010485593778516101,0.0013248786204010238,-0.0003114433434085823,0.01845285790665225,0.9849962014563453
2015-11-19,1,0.0011594159608556876,0.0013895016476037723,-0.0003114433434085823,0.01845285790665225,0.9853144926858752
2015-11-23,1,0.0020871129266470047,0.002361327179616303,-0.0003114433434085823,0.018268920182395076,0.9868722055563359
2015-11-25,1,0.0031121061012756536,0.003599684495427472,0.0008439141009522651,0.018268920182395076,0.9874818585629543
2015-11-30,1,0.002960542437905837,0.003388427130465201,0.00032622973698928886,0.018268920182395076,0.9866062899401175
2015-12-02,1,0.004574575479466603,0.005309490152092547,0.00032622973698928886,0.017819369882333652,0.9881772500180555
2015-12-04,1,0.0026414802569149154,0.0030505600513016946,-0.0011032371425091384,0.017819369882333652,0.988861023948343
2015-12-08,1,0.004014669271879764,0.004604984705549629,-0.004604219419403227,0.012670103094941454,0.986250222748095
2015-12-10,1,0.005445162722542527,0.006257162486586517,-0.014054747226406653,0.012670103094941454,0.9857169474131637
2015-12-14,1,0.004916322802784967,0.005659525069084073,-0.014054747226406653,0.017792911023253366,0.9843172708964582
2015-12-16,1,0.004623264927405651,0.005205141801681441,-0.015297212380196757,0.012670103094941454,0.9838816699068963
2015-12-18,1,0.005149617099093854,0.005916110491523382,-0.016638472178220738,0.012670103094941454,0.9834705913800369
2015-12-22,1,0.006050300202817528,0.006972534270799352,-0.016638472178220738,0.017792911023253366,0.9824056236673586
2015-12-24,1,0.00692149212230408,0.007986994386209558,-0.018020540419218183,0.018743025064999124,0.9799579594157146
2015-12-29,1,0.006724969731069983,0.007679869512161739,-0.02050989424166698,0.018743025064999124,0.9793012128510458
2015-12-31,1,0.005859054196094845,0.006678659983242733,-0.02050989424166698,0.020559554217539047,0.9797806320986382
2016-01-05,1,0.005047987847031512,0.005777945112036288,-0.02050989424166698,0.020559554217539047,0.9794335097239824
2016-01-07,1,0.0035539223788280698,0.00407917680701785,-0.02050989424166698,0.018605540235091433,0.980339042143841
2016-01-11,1,0.003255503086918963,0.0037098300661858458,-0.022802178769589124,0.011190704257079869,0.9788628808297942
2016-01-13,1,0.0017249132907956523,0.001880583939392738,-0.021763391780981238,0.011190704257079869,0.9799220667772901
2016-01-15,1,0.0011319360712971822,0.0011627553352325439,-0.021763391780981238,0.02250577618624402,0.9772897011621651
2016-01-20,1,0.001226309314835038,0.0013720101397714502,-0.022802178769589124,0.024029092312158967,0.9753070377902638
2016-01-22,1,0.0025883315754080547,0.002888087322975942,-0.022802178769589124,0.021132497266733566,0.977019609170957
2016-01-26,1,0.001527827111100779,0.0016174570912106338,-0.021763391780981238,0.014683347149571348,0.9789106947161698
2016-01-28,1,0.0011308570757009085,0.0011963560010072617,-0.0158668971991902,0.014683347149571348,0.9791350432197168
2016-02-01,1,0.0020453579370694037,0.002256264390766093,-0.0158668971991902,0.02687372465346783,0.9754989081747881
2016-02-03,1,3.823160098398063e-05,0.00012982260319872326,-0.013882609651360556,0.02687372465346783,0.9753342687683211
2016-02-05,-1,-0.002230855621267504,-0.001904689412585341,-0.010114625585681566,0.02687372465346783,0.9776443961844846
2016-02-09,-1,-0.006731794279342147,-0.00564184607423236,-0.0062285055232893655,0.02687372465346783,0.9787307633966565
2016-02-11,-1,-0.0048070803564241454,-0.004002680914152257,-0.0062285055232893655,0.020300743417792456,0.9798478701405067
2016-02-16,-1,-0.002091013306303692,-0.001599216598833213,-0.008500644228296486,0.017441421336594803,0.9818295127073554
2016-02-18,-1,-0.003004121854511844,-0.002385558250012507,-0.0062285055232893655,0.017441421336594803,0.9826755739487822
2016-02-22,-1,-0.0037380264612385285,-0.0029359414823618758,-0.0062285055232893655,0.017441421336594803,0.9830008238359735
2016-02-24,-1,-0.004784164884815936,-0.0038296392864674614,-0.005943488180627391,0.017441421336594803,0.9824674527949364
2016-02-26,-1,-0.00443103080674074,-0.0036218849376869915,-0.001350049465747402,0.019050486741230898,0.9808000475040439
2016-03-01,-1,-0.0014770492576375708,-0.0009819023159066476,-0.0022412692731651647,0.017441421336594803,0.9838846270319029
2016-03-03,-1,-0.0012545654614149009,-0.0008374895423834965,-0.000948067763346219,0.01686890174021071,0.9849039990573834
2016-03-07,-1,-0.0004341733745658916,-0.0001371340055135612,-0.0019441044449628768,0.01686890174021071,0.9860711957663559
2016-03-09,-1,-0.0008039895173729272,-0.00044110744352079934,-0.0025557198957618507,0.017022833773507537,0.9849392535702113
2016-03-11,1,0.0005088971362481496,0.0006499830974609835,-0.0037583824911878033,0.016823953408991628,0.9854361431673339
2016-03-15,1,0.0011482709765547622,0.001226212584188632,-0.004798389811006963,0.009688576119023563,0.9879550983161114
2016-03-17,1,0.0017444037815820459,0.001836880426968166,-0.005252056882895138,0.008667262486657518,0.9889872979481336
2016-03-21,1,0.002641740141472726,0.0029622957557779634,-0.005252056882895138,0.008667262486657518,0.9888476226881757
2016-03-23,1,0.0024621478252073383,0.0027971175857641147,-0.005252056882895138,0.008667262486657518,0.9891924653998635
2016-03-28,1,0.0027019317595626813,0.002956219359257453,-0.005252056882895138,0.004238189606508947,0.9906363816930178
2016-03-30,1,0.0046822964847620455,0.005232622113959373,-0.005252056882895138,0.004238189606508947,0.9923815665833878
2016-04-01,1,0.004520290721241223,0.004979269506912928,-0.006065218704175973,0.0032043505094910434,0.9910856297978587
2016-04-05,1,0.004179528665244134,0.0045678812357019625,-0.006065218704175973,0.003615456498915106,0.9910542861827133
2016-04-07,1,0.004448521839719324,0.004907900490282378,-0.005307413448838913,0.0032043505094910434,0.9914623257249223
2016-04-11,1,0.0030032162586356888,0.003170674964008475,-0.005307413448838913,0.003615456498915106,0.991453010869881
2016-04-13,1,0.002423661810221953,0.0024941340641184773,-0.008860979803757876,0.003615456498915106,0.9893197393342766
2016-04-15,1,0.0026998728025154606,0.002833214110318043,-0.006376448530647333,0.003615456498915106,0.9891200222519176
2016-04-19,1,0.0030726153228100824,0.003333189410621145,-0.0067991640093476215,0.004294659425766909,0.9885694160096085
2016-04-21,1,0.0023408936880119175,0.0025318930024567617,-0.008063400168310605,0.006319294497936223,0.9848435565435877
2016-04-25,1,0.002416060994145582,0.002622484446838435,-0.014938303157183233,0.006319294497936223,0.9834289847918299
2016-04-27,1,0.0031328102141472323,0.0034651995507216163,-0.014938303157183233,0.009115860757293311,0.9831303005671281
2016-04-29,1,0.0013867848851148077,0.0014177507583151665,-0.009840675533065796,0.010480213843724027,0.9836667537087577
2016-05-03,1,0.0022624764323179924,0.0024731273305392235,-0.014938303157183233,0.009115860757293311,0.9828140640311924
2016-05-05,1,0.0023675226635503106,0.0026420011242274527,-0.014938303157183233,0.010564191681725076,0.981954158838381
2016-05-09,1,0.001632434738482459,0.0017845102086323844,-0.012736575402083295,0.010564191681725076,0.9824786376218277
2016-05-11,1,0.00017557002357896512,0.00017756562497238967,-0.008291905182677382,0.010564191681725076,0.9855249229752374
2016-05-13,1,0.0005842026436976622,0.0006169993118849084,-0.01375315375556356,0.009115860757293311,0.9841305904632217
2016-05-17,1,0.0010409804841415553,0.0011642008222410812,-0.01375315375556356,0.010390236741508648,0.9826871505561965
2016-05-19,-1,-0.0006146077120708364,-0.0005594651577104804,-0.009445625732525905,0.011452147733267613,0.9864925972234381
2016-05-23,-1,-0.0010632693524839127,-0.0009833453473793259,-0.009975443224701671,0.011452147733267613,0.9859406884885729
2016-05-25,-1,-0.0006544560971505671,-0.0005982520837837244,-0.009975443224701671,0.014011466128551846,0.9848991965977192
2016-05-27,-1,-0.0004461802237740785,-0.0003815332842447513,-0.014063834033830852,0.011720999933173444,0.981345515092752
2016-06-01,-1,-0.0014436853520540097,-0.001221140608897239,-0.01366466325281703,0.011720999933173444,0.9815272914354052
2016-06-03,-1,-0.0011629355795460144,-0.0009653889080556634,-0.01366466325281703,0.008364856014725789,0.9821671686813089
2016-06-07,-1,-0.001935331327568787,-0.0016258235427054598,-0.015968154179015866,0.01144037862138342,0.981495034040393
2016-06-09,-1,-0.0015933933095582747,-0.001334744693382431,-0.015968154179015866,0.012207557418170156,0.9797608176568766
2016-06-13,-1,-0.0035868778681046485,-0.003064835306573089,-0.009974243239196231,0.01315824377111147,0.980353889618962
2016-06-15,-1,-0.0015024484654782497,-0.0012882689410848185,-0.012385147000809843,0.012207557418170156,0.9828665693668408
2016-06-17,-1,-0.0010767164090569148,-0.0008960525787615367,-0.013251019977624626,0.008527041843058025,0.9830269303440948
2016-06-21,-1,-0.0021400066875886716,-0.001813353195802692,-0.013251019977624626,0.012207557418170156,0.9830586083646508
2016-06-23,-1,-0.0008219610743469849,-0.0006738728424520867,-0.013251019977624626,0.00766005163513482,0.9843184963585331
2016-06-27,-1,-0.00414350605183511,-0.0035531741165112664,-0.013251019977624626,0.009325965482610516,0.9867093873437468
2016-06-29,-1,-0.004993280149651056,-0.004228670441678841,-0.01177571066523455,0.009325965482610516,0.9871906029990266
2016-07-01,-1,-0.004658658591538197,-0.00390828275735941,-0.01177571066523455,0.0122896893744049,0.9867148866337077
2016-07-06,-1,-0.004329758184814781,-0.0036611435662159877,-0.01177571066523455,0.01340463963981571,0.9859397238678504
2016-07-08,-1,-0.0024382625987700605,-0.002073170311265463,-0.01177571066523455,0.013917881732442912,0.9859005867526107
2016-07-12,-1,-0.0026953866896567134,-0.002266452462993133,-0.01177571066523455,0.013837810348433413,0.9862671173973816
2016-07-14,-1,-0.002897222436277464,-0.002463862141626952,-0.009984867162460373,0.015391582568878032,0.9857195465779123
2016-07-18,-1,-0.003533975068840212,-0.0030116983559474297,-0.0028968697887490286,0.01598761290784643,0.9850587199379236
2016-07-20,-1,-0.00399251799357935,-0.0033922748379851334,-0.002808207768364947,0.015465046776100402,0.98644472295029
2016-07-22,-1,-0.002186846207000512,-0.0019002815167370544,-0.002808207768364947,0.015465046776100402,0.9874344832149289
2016-07-26,-1,-0.0025969363745057036,-0.0022656555099678554,-0.002808207768364947,0.015465046776100402,0.9881480396251129
2016-07-28,-1,-0.002346256136004618,-0.0020610608265679204,-0.0028386573058590877,0.015465046776100402,0.9880422967687567
2016-08-01,-1,-0.0018191460049769227,-0.001596377627454295,-0.0064976030899613875,0.015783263749547957,0.9878845976695914
2016-08-03,-1,-0.0016328371014072917,-0.0014508712563741145,-0.005306302740213258,0.015323466182778543,0.9892250660215971
2016-08-05,-1,-0.0014719023681164325,-0.0012725649352062773,-0.009064112195521619,0.010047438879353537,0.9901772402110084
2016-08-09,-1,-0.0009375737386292005,-0.0008440047056340413,-0.010856174434149598,0.0038535335587278558,0.9884450159812899
2016-08-11,-1,-0.00041514142781923235,-0.00038414987323610064,-0.014741094073242741,0.0006899856464454492,0.9877224164989219
2016-08-15,-1,-0.0001562071017745366,-0.00014789111201959546,-0.014741094073242741,-0.0014498265006401096,0.9874857184529415
2016-08-17,1,4.782756206763117e-05,0.00010772247695517678,-0.014741094073242741,0.0010209413944097358,0.9874171603175783
2016-08-19,1,0.0004029911073465651,0.0005622083613896778,-0.014741094073242741,0.003345609213594446,0.9874776417441753
2016-08-23,1,0.0008906055366456332,0.0011402153067866028,-0.014741094073242741,0.003345609213594446,0.9880229949705793
2016-08-25,1,0.0006799611173514455,0.0009132649727972704,-0.0099620361849851,0.007787961076398087,0.9873598243138559
2016-08-29,1,0.0008209821618960916,0.001081715200387389,-0.007556998948546948,0.004901145578167548,0.9889182796743469
2016-08-31,1,0.0006719674454792351,0.0008715273578429539,-0.0099620361849851,0.003345609213594446,0.9861152555694427
2016-09-02,1,0.0003152752854599029,0.00046957513650031004,-0.007720410296227258,0.004901145578167548,0.9856518288398981
2016-09-07,0,-7.761914734908456e-05,3.901639884760583e-05,-0.007720410296227258,0.008071608319222073,0.9868350938765375
2016-09-09,-1,-0.0004533625643730107,-0.0003853242771239111,-0.004667771531323876,0.011483336318405117,0.987178568978994
2016-09-13,0,-9.783413246449639e-05,9.701744679943938e-06,-0.00733551709190242,0.011195398152715499,0.9872887041242582
2016-09-15,0,-1.2560291728622055e-05,0.0001100646089752043,-0.008012614822492556,0.011195398152715499,0.9866509435930212
2016-09-19,1,0.00028306134691655704,0.0004696505470764377,-0.008012614822492556,0.011195398152715499,0.9868627694564005
2016-09-21,1,0.00012369949626899027,0.0002561389140683276,-0.008702060068969947,0.011195398152715499,0.9864157675777746
2016-09-23,1,0.0008504597755291471,0.0010982274659793474,-0.010011160017065993,0.011195398152715499,0.9856869708785289
2016-09-27,1,0.0007282999163033576,0.0009317999353671858,-0.012558327310313255,0.012087742887544651,0.9800949231040518
2016-09-29,-1,-0.0002388152004930879,-0.0001937245587593943,-0.010011160017065993,0.01534858423242162,0.9815448757219587
2016-10-03,-1,-0.000421157290134306,-0.00040000292185521163,-0.011551751815380769,0.012087742887544651,0.9825439010452666
2016-10-05,1,5.7655674901586944e-05,0.00012851679586546987,-0.009215590668408205,0.01534858423242162,0.9820457539261458
2016-10-07,1,0.00013668225710383177,0.00022906141722815905,-0.009215590668408205,0.01297253162443604,0.9828682238551307
2016-10-11,-1,-0.0002952523722035963,-0.0002928268676633682,-0.008405051808959922,0.01864097153991489,0.9825743636081993
2016-10-13,-1,-0.0006278886373641138,-0.0005830528242959523,-0.007982068779075976,0.01951772897679929,0.9801602623279477
2016-10-17,-1,-0.00048223781706724985,-0.00047576613500227306,-0.007982068779075976,0.022662601730327567,0.9779551253688404
2016-10-19,0,-2.3837758436536362e-05,4.4116434069027706e-05,-0.0029224344905978542,0.022662601730327567,0.9788413458813575
2016-10-21,-1,-0.00016963907944114503,-0.00014038815946068082,-0.0029224344905978542,0.02066886032735536,0.9797983875385415
2016-10-25,-1,-0.0012232970694559453,-0.001141960681025843,-0.0029224344905978542,0.02066886032735536,0.9833408053078464
2016-10-27,-1,-0.0005492478707184462,-0.0005341218090596993,-0.0029224344905978542,0.02066886032735536,0.9837579805107498
2016-10-31,-1,-0.00041588885613808604,-0.0004047243509924418,-0.007831953310602786,0.02066886032735536,0.983050034079838
2016-11-02,-1,-0.0005821431434990766,-0.0005168413735725071,-0.007957177638581399,0.02066886032735536,0.9816803794544259
2016-11-04,-1,-0.00011924206693660256,-7.316389398578682e-05,-0.009326126275048767,0.02066886032735536,0.9797733992453628
2016-11-08,1,0.0003517587175497123,0.0004972993855829652,-0.00892556215061835,0.022081451565496468,0.9775064321007786
2016-11-10,1,0.0011852571963130885,0.001405528699824327,-0.00892556215061835,0.022081451565496468,0.9793785491386827
2016-11-14,1,0.0028274233378342067,0.0033331190028406013,-0.014328094146739766,0.0196363905813415,0.9797414903323318
2016-11-16,1,0.0022506875262627837,0.0025487006061342002,-0.014328094146739766,0.0196363905813415,0.9790548842817719
2016-11-18,1,0.002149144563705789,0.0024139366846165937,-0.011740797070700993,0.017689693401981933,0.9803324382758785
2016-11-22,1,0.002185382036925535,0.002472564336268986,-0.009396165200749401,0.01418974245606747,0.9813827483668316
2016-11-25,1,0.003029582154389237,0.0034193254726403322,-0.009396165200749401,0.011022630961858565,0.9819461036749485
2016-11-29,1,0.0026244221951914103,0.0030140173631688456,-0.009396165200749401,0.011022630961858565,0.9829267172750117
2016-12-01,1,0.0024725089463344596,0.0028704039190282212,-0.009396165200749401,0.010041475471214537,0.9845364721310998
2016-12-05,1,0.0010731592266219904,0.0012596942296157101,-0.009396165200749401,0.010041475471214537,0.9861125715013498
2016-12-07,1,0.0026755897135190155,0.0030351221124594345,-0.009396165200749401,0.007205194341396616,0.9869013845046193
2016-12-09,1,0.0034165871747641255,0.0038643090029855023,-0.011983225999848808,0.0048404571794663604,0.9870469439193017
2016-12-13,1,0.002268487075217529,0.002560516403100191,-0.011983225999848808,0.006231254966331657,0.9882527200582203
2016-12-15,1,0.00201297247999509,0.0022393412723192155,-0.014620426440002086,0.0048404571794663604,0.9866917010525167
2016-12-19,1,0.001985399100770257,0.0021884822897493194,-0.014620426440002086,0.004858259203489605,0.9863318044724414
2016-12-21,1,0.001953627240985996,0.0021866423917844126,-0.014620426440002086,0.004858259203489605,0.9864965783336481
2016-12-23,1,0.0018628511804612473,0.0020640598840047345,-0.014620426440002086,0.006474064137597504,0.9864655367148267
2016-12-28,1,0.0019071860113369942,0.002169382873692598,-0.010378486693637709,0.006474064137597504,0.9864926384279673
2016-12-30,1,0.0015368294887099763,0.0017663502329556373,-0.011508930577601561,0.005047662302685718,0.9868274832399407
2017-01-04,1,0.0014663878701581061,0.0017123336421107811,-0.00926195943349964,0.007057556537437999,0.9874199184591567
2017-01-06,1,0.002822199790597972,0.0032775306294584184,-0.009353154703258877,0.007057556537437999,0.989056080701979
2017-01-10,1,0.0023218889820643606,0.002698294032890708,-0.00858735373980768,0.007115400078717695,0.9900458127849311
2017-01-12,1,0.0018647094852357001,0.002166193429835291,-0.008044716937244123,0.008773835928984888,0.9897410051040548
2017-01-17,1,0.0008466419219912278,0.0010321301810173626,-0.006030425824492858,0.008773835928984888,0.9918375382417493
2017-01-19,1,0.0006686760416794524,0.0008013214215549075,-0.008044716937244123,0.008773835928984888,0.9916697543176624
2017-01-23,1,0.0004279472322753315,0.0005234231746239332,-0.006201171950929684,0.011362205098669139,0.9909306784632874
2017-01-25,1,0.001128206754970711,0.0013228172490561147,-0.008674149081189499,0.008773835928984888,0.989830943598923
2017-01-27,1,0.00041200018795957936,0.00046963788900622016,-0.008674149081189499,0.00946029744956757,0.9896864292884446
2017-01-31,-1,-0.0009797381418365594,-0.000803261550115458,-0.007123478012973477,0.00995671841849865,0.9889972731842412
2017-02-02,-1,-0.0012420157422295057,-0.0009945634090003943,-0.008373817519074369,0.00995671841849865,0.9889715453187827
2017-02-06,-1,-0.0009853570950514345,-0.0007919839722748841,-0.00965850202325677,0.00995671841849865,0.9879460588759461
2017-02-08,-1,-0.0008118575750075634,-0.000634605815427871,-0.015462424250572189,0.00995671841849865,0.9868130225043038
2017-02-10,1,0.00023631250319077016,0.00029342858223742135,-0.015462424250572189,0.008496961514030829,0.9879072570660197
2017-02-14,1,0.0004207129614586922,0.0004533042747842473,-0.015462424250572189,0.0063859958867205245,0.9877513802705941
2017-02-16,1,0.0005564056977611566,0.0005922195699557816,-0.015462424250572189,0.0063859958867205245,0.9882480489576688
2017-02-21,1,0.0011076827650509451,0.0012153673575031033,-0.01720971763243729,0.003810949342207653,0.9869140330382039
2017-02-23,-1,-0.0015231873805305362,-0.001193318627764323,-0.01632610949136993,0.005216801599139875,0.9889917507717461
2017-02-27,-1,-0.0010290858307721092,-0.0007839481448326816,-0.01632610949136993,0.005216801599139875,0.988826482511661
2017-03-01,-1,-0.001612617482270918,-0.0012905770143592616,-0.015462424250572189,0.0063859958867205245,0.9864759952618098
2017-03-03,-1,-0.002059330855672752,-0.0016911173239860698,-0.015462424250572189,0.00953911794964453,0.986171572809474
2017-03-07,-1,-0.0034627252594411255,-0.0029267613367916587,-0.006430708766549064,0.00953911794964453,0.9874562271533437
2017-03-09,-1,-0.004783579181444429,-0.004083675901143946,-0.004266920076937939,0.012177578273252904,0.986620120978107
2017-03-13,-1,-0.004669011185715036,-0.003976152104409381,-0.0031713826449453674,0.012177578273252904,0.9866497271771972
2017-03-15,-1,-0.004151942530953312,-0.0035356658365215884,-0.006430708766549064,0.012177578273252904,0.9869226069305692
2017-03-17,-1,-0.004039039056894889,-0.003436657330528769,-0.009118693321132802,0.012177578273252904,0.9859120268751269
2017-03-21,-1,-0.009561232876430074,-0.008100562290408276,-0.004634547036289942,0.012177578273252904,0.9848190843559232
2017-03-23,-1,-0.007738198105062096,-0.006579120087936591,-0.004634547036289942,0.012177578273252904,0.9853729041917906
2017-03-27,-1,-0.0071849911044005515,-0.006086169970271837,-0.004474154212732857,0.01415933899096466,0.982306332301878
2017-03-29,-1,-0.003138334544007521,-0.002552171679569685,-0.004474154212732857,0.005475730359891774,0.987569440248156
2017-03-31,-1,-0.003151751923999968,-0.002567964537938198,-0.004841087718015395,0.005475730359891774,0.9868387591848742
2017-04-04,-1,-0.00342097546523977,-0.002827976427748345,-0.0025688672106976146,0.011682808656684005,0.9855495616750473
2017-04-06,-1,-0.0004909735787217474,-0.0003829593812834124,-0.0025688672106976146,0.007265939041185053,0.9873559598476435
2017-04-10,1,0.0006670823596477402,0.0008001326223161401,-0.0025688672106976146,0.011424960911864061,0.9869262689742719
2017-04-12,1,4.184780003769936e-05,0.0001202811462815884,-0.0007765226820688865,0.011424960911864061,0.987301764172103
2017-04-17,-1,-0.0010902217490315691,-0.0010432789084355671,-0.0012919548362631587,0.011424960911864061,0.987168997912399
2017-04-19,-1,-0.0011651098181798812,-0.0011050026722123844,-0.0005275337254689227,0.011424960911864061,0.9871551820481573
2017-04-21,1,0.0006891249394416143,0.0009543631573575185,-0.0020835397502353063,0.009015017314757293,0.9882583903131039
2017-04-25,1,0.0029891810580946207,0.0034940349112457265,-0.0056260059460281455,0.00640273885230327,0.9913941038831626
2017-04-27,1,0.0027803753018205146,0.003218352709014166,-0.0056260059460281455,0.013876707155834663,0.9895879778675114
2017-05-01,1,0.0025122490609958735,0.002810828233737594,-0.005919070653344163,0.008418695067308716,0.9904087616810218
2017-05-03,1,0.004701825435153204,0.00545714682887533,-0.005919070653344163,0.008418695067308716,0.9906315985694101
2017-05-05,1,0.005725438730847802,0.006691789154785223,-0.007117079144216086,0.007754268960909793,0.9892588416726245
2017-05-09,1,0.005602720498550679,0.006459058350658041,-0.008613352112188881,0.005674699482865176,0.9892165011339924
2017-05-11,1,0.005504551882372538,0.006348085216039426,-0.00753931257492061,0.006617380537191323,0.9896476782210394
2017-05-15,1,0.004554011811435193,0.005285937308439124,-0.006474870495900293,0.006617380537191323,0.9914994304075065
2017-05-17,1,0.004455856261362485,0.005149627359417086,-0.00997239956729723,0.006617380537191323,0.989160019395579
2017-05-19,1,0.004655665412721296,0.005387556979293332,-0.007631659737915389,0.008120887326198804,0.9899124931725864
2017-05-23,1,0.0038680646599806878,0.004461086150672769,-0.011248818265207117,0.008120887326198804,0.988792348744449
2017-05-25,1,0.0048958484960234736,0.005576154785743672,-0.011248818265207117,0.006155471141820124,0.9892534893839766
2017-05-30,1,0.00447195834457244,0.005067949663437504,-0.015233912172720064,0.006155471141820124,0.9882698980470341
2017-06-01,1,0.006225977200913521,0.007153877383007453,-0.015233912172720064,0.003576580033241467,0.9868502355238474
2017-06-05,1,0.00532769509886475,0.00609893118040261,-0.015233912172720064,0.005865717131830329,0.9875141818089241
2017-06-07,1,0.004516675069303467,0.00514444692530913,-0.018223825035927052,0.005865717131830329,0.9873377720477027
2017-06-09,1,0.003969867717031814,0.004410624869607811,-0.018223825035927052,0.0056553839518261725,0.9870606870388592
2017-06-13,1,0.003925047955595842,0.004364510342244183,-0.018223825035927052,0.0018157543498266981,0.9866520605734698
2017-06-15,1,0.0018991490418608877,0.0020480734896458877,-0.011081239955365994,0.0018157543498266981,0.9895903473308176
2017-06-19,1,0.0029943998970186573,0.0033409270981445056,-0.01377688564470017,-0.0005450706058590255,0.9884216745299693
2017-06-21,1,0.0010969680539225203,0.0011542294945292224,-0.011081239955365994,-0.0005450706058590255,0.990135443222724
2017-06-23,1,0.0011258719497359681,0.0011288984901611093,-0.011081239955365994,-0.0005800596662301206,0.9906330736410743
2017-06-27,0,-2.8874935831140792e-05,8.628014086565659e-05,-0.011081239955365994,0.0002026799523897331,0.9908130861503663
2017-06-29,-1,-0.0006349009386799521,-0.00044336364701245794,-0.013608915912497917,0.0002026799523897331,0.9901160086083359
2017-07-03,-1,-0.0005200351969268876,-0.00035757275745114983,-0.011561886498625735,-0.0005800596662301206,0.9907884012267797
2017-07-06,-1,-0.00047898840636275536,-0.00040453958646353007,-0.00944315329720271,0.0002026799523897331,0.9908214691833455
2017-07-10,-1,-0.0003907334104752125,-0.0003420154179925775,-0.00944315329720271,0.0013844366253683322,0.9892048004562765
2017-07-12,-1,-0.0011898857708632347,-0.0010200550438609957,-0.011430164493034115,0.0013844366253683322,0.9877024476305697
2017-07-14,-1,-0.0006126454528322746,-0.0005635545946630235,-0.011430164493034115,0.009889311593057313,0.986586301351327
2017-07-18,-1,-0.0025000022782459457,-0.0021339090138361907,-0.01129022725302997,0.009889311593057313,0.986986027964582
2017-07-20,-1,-0.003451672687923589,-0.0029912755693404383,-0.008262691087498402,0.011145874053414868,0.9870251484871626
2017-07-24,-1,-0.0040401286214680025,-0.00348272492806863,-0.01129022725302997,0.011145874053414868,0.9864893529865744
2017-07-26,-1,-0.004493166104209794,-0.00385421322993251,-0.008262691087498402,0.011145874053414868,0.9874324403188418
2017-07-28,-1,-0.006915470136846288,-0.005908579699137649,-0.00757899643656245,0.011145874053414868,0.9871501761805501
2017-08-01,-1,-0.008059709601769948,-0.00685261160371573,-0.008851573791834853,0.011145874053414868,0.9866270384188068
2017-08-03,-1,-0.007701670846277081,-0.006548353018664709,-0.008851573791834853,0.009889311593057313,0.9865818160075678
2017-08-07,-1,-0.005392736781344717,-0.004528441057239533,-0.012320774791609078,0.009058427044903101,0.9886763669603326
2017-08-09,0,0.0,0.0,,,
2017-08-11,0,0.0,0.0,,,
2017-08-15,0,0.0,0.0,,,
2017-08-17,0,0.0,0.0,,,
2017-08-21,0,0.0,0.0,,,
2017-08-23,0,0.0,0.0,,,
2017-08-25,0,0.0,0.0,,,
2017-08-29,0,0.0,0.0,,,
2017-08-31,0,0.0,0.0,,,
2017-09-05,0,0.0,0.0,,,
2017-09-07,0,0.0,0.0,,,
2017-09-11,0,0.0,0.0,-0.005928414168782342,0.009339921008255776,0.9892549750316852
2017-09-13,0,0.0,0.0,-0.005928414168782342,0.008474667901751927,0.9899387276321565
2017-09-15,0,0.0,0.0,-0.004682394267975089,0.007356539550449977,0.9913963477100004
2017-09-19,0,0.0,0.0,-0.0038657056171385418,0.009604290912248133,0.989119859196801
2017-09-21,0,0.0,0.0,-0.004682394267975089,0.008474667901751927,0.9892174247361792
2017-09-25,0,0.0,0.0,-0.0077871110301145985,0.008474667901751927,0.9880494618481604
2017-09-27,0,0.0,0.0,-0.0077871110301145985,0.0077693656593009145,0.9887647607254878
2017-09-29,0,0.0,0.0,-0.0077871110301145985,0.0077693656593009145,0.9889558096965907
2017-10-03,0,0.0,0.0,-0.0077871110301145985,0.007656845079987134,0.9886840578025229
2017-10-05,0,0.0,0.0,-0.005829370608876921,0.008137106163810585,0.9888445936627392
2017-10-09,0,0.0,0.0,-0.010788704926659617,0.008137106163810585,0.9883550549742691
2017-10-11,0,0.0,0.0,-0.01406659533422139,0.009033852384783894,0.9874042961311562
2017-10-13,0,0.0,0.0,-0.016130081157348368,0.011691613103295837,0.9861184913910502
2017-10-17,0,0.0,0.0,-0.016130081157348368,0.007656845079987134,0.9888921158776368
2017-10-19,0,0.0,0.0,-0.014812075778866934,0.009773839917447506,0.9883014945353406
2017-10-23,0,0.0,0.0,-0.010788704926659617,0.011691613103295837,0.9884801494809566
2017-10-25,0,0.0,0.0,-0.010788704926659617,0.011691613103295837,0.9880721958214777
2017-10-27,0,0.0,0.0,-0.015228284314259134,0.009773839917447506,0.9870516574504721
2017-10-31,0,0.0,0.0,-0.010788704926659617,0.01256815327482469,0.9858124333731136
2017-11-02,0,0.0,0.0,-0.011341781340824577,0.011933743688483003,0.9860110942271211
2017-11-06,0,0.0,0.0,-0.006095385913059931,0.01499544847311853,0.9836999798793339
2017-11-08,0,0.0,0.0,-0.004838324865540342,0.01499544847311853,0.9850698108375929
2017-11-10,0,0.0,0.0,-0.00425611666420417,0.01499544847311853,0.9857212708006472
2017-11-14,0,0.0,0.0,-1.9085031859353112e-05,0.01499544847311853,0.9853976138974622
2017-11-16,0,0.0,0.0,-0.0041464851060605415,0.013835307890051857,0.9860280930670454
2017-11-20,0,0.0,0.0,-0.006095385913059931,0.014291151879175738,0.9853569281950083
2017-11-22,0,0.0,0.0,-0.004581297952160768,0.014291151879175738,0.985248692995458
2017-11-27,0,0.0,0.0,-0.004500410168518832,0.014291151879175738,0.9866338827216176
2017-11-29,0,0.0,0.0,-0.005380980245880522,0.011727228224371592,0.988132398233126
2017-12-01,0,0.0,0.0,-0.006457713967231427,0.011727228224371592,0.9875409633737587
2017-12-05,0,0.0,0.0,-0.006457713967231427,0.008889580183092168,0.9904408744491452
2017-12-07,0,0.0,0.0,-0.009440990868238502,0.011727228224371592,0.9886200476337393
2017-12-11,0,0.0,0.0,-0.009440990868238502,0.007904962530081206,0.9893307818104979
2017-12-13,0,0.0,0.0,-0.012173007319058385,0.006227200444881486,0.9885434796966857
2017-12-15,0,0.0,0.0,-0.01355050119990426,0.004572941193044264,0.9883962472667127
2017-12-19,0,0.0,0.0,-0.012173007319058385,0.004572941193044264,0.9893733578400988
2017-12-21,0,0.0,0.0,-0.012173007319058385,0.005737973850494273,0.9890025702533746
2017-12-26,0,0.0,0.0,-0.012173007319058385,0.005737973850494273,0.9893921112024867
2017-12-28,0,0.0,0.0,-0.012338543075632737,0.002338273872365658,0.9894651123855465
2018-01-02,0,0.0,0.0,-0.012338543075632737,0.00513317091499635,0.9896587116832362
2018-01-04,0,0.0,0.0,-0.014852281321645117,0.002338273872365658,0.9884232969764051
2018-01-08,0,0.0,0.0,-0.014852281321645117,0.002338273872365658,0.9880502803731579
2018-01-10,0,0.0,0.0,-0.017882006124239142,0.00513317091499635,0.9862130228000937
2018-01-12,0,0.0,0.0,-0.014852281321645117,0.010062056656860633,0.9868384988494302
2018-01-17,0,0.0,0.0,-0.017174095162096538,0.013580483536737601,0.9859055238396378
2018-01-19,0,0.0,0.0,-0.017174095162096538,0.013580483536737601,0.9855271607426389
2018-01-23,0,0.0,0.0,-0.017174095162096538,0.012167853125608086,0.9856005990923566
2018-01-25,0,0.0,0.0,-0.017174095162096538,0.013847349392108856,0.9843235773897724
2018-01-29,0,0.0,0.0,-0.017174095162096538,0.013847349392108856,0.9838163039786526
2018-01-31,0,0.0,0.0,-0.014154140487409561,0.01477279249551191,0.9841904509789403
2018-02-02,-1,-0.00494339123557158,-0.0038357263953880524,-0.01060090113051481,0.01477279249551191,0.9860741840816477
2018-02-06,-1,-0.004748181145848811,-0.004005585303327806,-0.01060090113051481,0.013614161380591596,0.9863888387944444
2018-02-08,-1,-0.004759957614591167,-0.0040690718124178245,-0.007959885101371997,0.012839496779503811,0.9871744142535077
2018-02-12,-1,-0.004061003672658304,-0.003427054001459353,-0.00842530555540044,0.012012458603401385,0.9880538120703972
