JNU-Tangyin/eata/results/Batch4_SP500/Batch4_SP500-STZ-B.csv
Date,Action,Predicted_Q25,Predicted_Q75,Actual_Q25,Actual_Q75,RL_Reward
2010-12-13,0,0.0,0.0,-0.009714201455430643,0.0015916256378537322,0.988193382413645
2010-12-15,0,0.0,0.0,-0.013329973955944948,0.0,0.9882155079293014
2010-12-17,1,6.819865186492158e-05,7.507069028702827e-05,-0.013329973955944948,0.0002610342843191503,0.9894556208981709
2010-12-21,1,6.540609790342868e-05,7.200257635603833e-05,-0.013329973955944948,0.0002610342843191503,0.9897157358223639
2010-12-23,1,0.0006269351070092783,0.000652478925390726,-0.013329973955944948,0.0,0.9892999593681513
2010-12-28,1,0.0005901665591555756,0.0006113109117551916,-0.013329973955944948,0.0002610342843191503,0.989017126848261
2010-12-30,1,0.0003997820570785313,0.0004155363425869962,-0.013329973955944948,0.0014341345596469793,0.9885081484186105
2011-01-03,0,0.0,0.0,-0.013029736282140228,0.0014341345596469793,0.9894928647526399
2011-01-05,0,0.0,0.0,-0.01292667022539498,0.00392677431125644,0.9896323771196781
2011-01-07,-1,-0.0024149060421372872,-0.002191874526838024,-0.0011745364903596421,0.008215788970470301,0.9923022502567976
2011-01-11,0,0.0,0.0,-0.0011745364903596421,0.005005510419273586,0.9945205126654014
2011-01-13,0,0.0,0.0,-0.00026076201301736783,0.007250110083680252,0.994659627066964
2011-01-18,0,0.0,0.0,-0.00026076201301736783,0.009504003128829605,0.9937850764198961
2011-01-20,0,0.0,0.0,0.0,0.010575287719939156,0.9927341440983811
2011-01-24,-1,-0.0037015385290334276,-0.0032259552620421453,0.0,0.010575287719939156,0.9896024936517951
2011-01-26,-1,-0.0034606659210221135,-0.003029723715116106,-0.0017910782742227118,0.010575287719939156,0.9899215153137663
2011-01-28,0,0.0,0.0,-0.00026151225007574027,0.010313972150086595,0.9919510901551309
2011-02-01,0,0.0,0.0,-0.004754867372170948,0.010076036882486311,0.9914958754414401
2011-02-03,-1,-0.0032764073786658303,-0.002881104036353587,-0.007049381515167447,0.010076036882486311,0.9894112622162946
2011-02-07,-1,-0.0031415607579209103,-0.002766974862157066,-0.007049381515167447,0.010076036882486311,0.9892485148495054
2011-02-09,-1,-0.0030194512501332737,-0.00266360151090722,-0.008255095238885981,0.010076036882486311,0.9884237532814634
2011-02-11,-1,-0.0028949011200706844,-0.0025585436542857293,-0.012416043992325891,0.010076036882486311,0.9881752090096045
2011-02-15,-1,-0.0028409802335636965,-0.002512285600431339,-0.01572730476086704,0.008355493608529989,0.9883389755554057
2011-02-17,-1,-0.002627684644252496,-0.002329898080830877,-0.01572730476086704,0.0034318850960011167,0.989020998846668
2011-02-22,-1,-0.002994067643639949,-0.002656543401651479,-0.013881508993144838,0.006961492000928132,0.9896788010948722
2011-02-24,-1,-0.0029178781706752253,-0.0025918398045010334,-0.013881508993144838,0.008355493608529989,0.9895236184753236
2011-02-28,0,0.0,0.0,-0.013881508993144838,0.008355493608529989,0.9888737271385447
2011-03-02,0,0.0,0.0,-0.008733038435436836,0.00923924024949299,0.9892101738574764
2011-03-04,0,0.0,0.0,-0.006277586855925569,0.010200392240132654,0.989355518362573
2011-03-08,0,0.0,0.0,-0.006277586855925569,0.010200392240132654,0.9897855313160016
2011-03-10,-1,-0.001001671263593269,-0.0008366638400911493,-0.006277586855925569,0.010834439610878203,0.9870498592575895
2011-03-14,0,0.0,0.0,-0.0014945476261335859,0.010834439610878203,0.9884093918884309
2011-03-16,0,0.0,0.0,0.0,0.010834439610878203,0.9895635464349597
2011-03-18,0,0.0,0.0,0.0,0.010834439610878203,0.989634174986308
2011-03-22,0,0.0,0.0,0.0,0.013541340353150896,0.9884240753084128
2011-03-24,0,0.0,0.0,0.0,0.013541340353150896,0.9883783565279101
2011-03-28,0,0.0,0.0,-0.0004488432932513333,0.013216534713820397,0.9887632819223588
2011-03-30,0,0.0,0.0,-0.0024906989841460255,0.010732831475577888,0.9887125909377531
2011-04-01,1,0.0006008705127959889,0.000666516386120673,-0.0024906989841460255,0.007058307446595361,0.9905328964478831
2011-04-05,1,0.0006073462188441075,0.0006741265870124165,-0.0024906989841460255,0.00675942475254762,0.9905914389513399
2011-04-07,1,0.0009099289259542618,0.0010161728168573804,-0.0024906989841460255,0.00549725292120525,0.9932327291524079
2011-04-11,1,0.0011706065892967135,0.0013270784661947592,-0.0004488432932513333,0.00675942475254762,0.9929836755651975
2011-04-13,1,0.0009846414847895842,0.0011536507023973362,-0.0004488432932513333,0.00788433070522613,0.9926389331988482
2011-04-15,1,0.0014031533260634352,0.001638966920139652,-0.0023316453787319315,0.00675942475254762,0.9926411737274041
2011-04-19,1,0.0017188611540879823,0.0019988176838061033,-0.0004488432932513333,0.0016600223275462175,0.9943261936368644
2011-04-21,1,0.0016550972087889908,0.0019219815766268373,-0.0023316453787319315,0.0016600223275462175,0.9931529048426365
2011-04-26,1,0.0017067685918099621,0.002010653209525049,-0.005802726807987153,0.0,0.9931895345596932
2011-04-28,0,0.0,0.0,-0.005607555203100407,0.0,0.9945587121649315
2011-05-02,0,0.0,0.0,-0.005607555203100407,0.0017482472400355041,0.9936412814757504
2011-05-04,0,0.0,0.0,-0.010804006429553197,0.0,0.9926831607941479
2011-05-06,0,0.0,0.0,-0.010804006429553197,0.0017482472400355041,0.9918818126819818
2011-05-10,0,0.0,0.0,-0.011462701732884632,0.0017482472400355041,0.9911599898151704
2011-05-12,1,0.0023921070912918813,0.0028470646338321316,-0.01168908281525261,0.0017482472400355041,0.989666035290491
2011-05-16,1,0.00296078511002564,0.003471606649959105,-0.01168908281525261,0.007608816974796135,0.988999212477282
2011-05-18,1,0.00286607158570917,0.003416227008155276,-0.012078896160990081,0.007608816974796135,0.9879042708318365
2011-05-20,1,0.0027465980825473143,0.0032621950334552744,-0.011462701732884632,0.009985744231486012,0.9894061487161273
2011-05-24,1,0.002875243033981919,0.003393160292422662,-0.010877186918224395,0.011364098624528815,0.9898531414166347
2011-05-26,1,0.001821355839311969,0.0022902311875752463,-0.01168908281525261,0.011364098624528815,0.9894490820206467
2011-05-31,0,0.0,0.0,-0.012818290531355421,0.009915752483106093,0.989529764759097
2011-06-02,1,0.0005058897251478872,0.0005195184601031529,-0.01168908281525261,0.009915752483106093,0.9901270773631716
2011-06-06,1,6.847032131593981e-05,0.00013369510472319938,-0.007534823669927807,0.009915752483106093,0.9896691713303126
2011-06-08,-1,-0.00043384347874579686,-0.00029298469226300065,-0.007468144198452991,0.007431689937481979,0.9901732874595541
2011-06-10,-1,-0.0005799367421743769,-0.0004182985689539293,-0.011269020808138313,0.006722739849398581,0.9899934013650489
2011-06-14,-1,-0.00019049101955994626,-7.052607533436007e-05,-0.011516726780365043,0.0058100394789026765,0.9904480578536273
2011-06-16,-1,-0.0010845774743430381,-0.0008415176477564658,-0.011516726780365043,0.0058100394789026765,0.9908042695114335
2011-06-20,0,0.0,0.0,-0.011516726780365043,0.0058100394789026765,0.989882345502123
2011-06-22,0,0.0,0.0,-0.011516726780365043,0.0058100394789026765,0.9894241392650057
2011-06-24,0,0.0,0.0,-0.011269020808138313,0.0058100394789026765,0.9905161097021162
2011-06-28,0,0.0,0.0,-0.01148630460924745,0.0058100394789026765,0.989179773668299
2011-06-30,0,0.0,0.0,-0.01148630460924745,0.0004619043444821049,0.9895275444006966
2011-07-05,0,0.0,0.0,-0.011729064669110504,0.0,0.9904118432748107
2011-07-07,0,0.0,0.0,-0.012429119796284579,0.0,0.9878795122667267
2011-07-11,0,0.0,0.0,-0.01452124839748925,0.0,0.9847361458721375
2011-07-13,1,0.00011194699026224983,0.00014605197135021046,-0.017980942752513045,0.0,0.9809679311766223
2011-07-15,-1,-0.0005671963870639491,-0.00040951332776370704,-0.017980942752513045,0.004593008800949088,0.9788409516269421
2011-07-19,-1,-0.0003841194057230433,-0.00021785013216802529,-0.017980942752513045,0.0036949148948629976,0.9797282751883671
2011-07-21,1,0.0003397285081684088,0.0004112348537042653,-0.017980942752513045,0.00013041508662019316,0.979943380927326
2011-07-25,0,-6.811540387074218e-05,9.662406959310327e-05,-0.017980942752513045,0.0036928828188896434,0.9795270973850748
2011-07-27,-1,-0.0012609017868377807,-0.0009469657129118325,-0.013919470106193984,0.013077445536957123,0.9804489684341441
2011-07-29,-1,-0.0012999002894725675,-0.0010049581400476426,-0.017980942752513045,0.013077445536957123,0.9787789284293058
2011-08-02,-1,-0.002143865938021623,-0.0017023858770963008,-0.013919470106193984,0.01359982757195019,0.9772579225317483
2011-08-04,-1,-0.003867187544050518,-0.0031914313519462276,-0.012681592157842437,0.01359982757195019,0.9791586153055934
2011-08-08,-1,-0.0059033700316541505,-0.004960842459346361,-0.012908628241143933,0.01359982757195019,0.981203270008539
2011-08-10,-1,-0.00401618998523948,-0.003303431885113905,-0.012906930129027145,0.01359982757195019,0.9837863100296541
2011-08-12,-1,-0.002105536904394926,-0.0016380749722825045,-0.013029316300887047,0.012894567616373587,0.9858812951604842
2011-08-16,-1,-0.0017554190276390747,-0.0013193043665612077,-0.013029316300887047,0.012894567616373587,0.9849938690463227
2011-08-18,-1,-0.002373634939499031,-0.0019068389701286928,-0.012906930129027145,0.013053207086485103,0.9847578035780146
2011-08-22,-1,-0.00044810858188342384,-0.00024005514778746052,-0.01513881292278218,0.013053207086485103,0.9838853175842202
2011-08-24,-1,-0.0006840809246897713,-0.0005020187551698722,-0.023346628135761664,0.01291336406562128,0.9817677784203426
2011-08-26,1,8.314152097364038e-05,0.00016615386021096357,-0.021927264493444384,0.013144332843442477,0.9827560913847766
2011-08-30,1,0.001575227963925549,0.0018126300609064058,-0.02325541145425449,0.013144332843442477,0.9826999219942525
2011-09-01,1,0.00015256447830270777,0.000160479811246297,-0.02325541145425449,0.013533532082822259,0.9823928876260835
2011-09-06,-1,-0.0002878456564900915,-0.0002562426099177271,-0.019969621775464394,0.015004875988352767,0.9822763967993469
2011-09-08,1,0.002883290043958715,0.0031508421088633208,-0.019969621775464394,0.018165354692578323,0.9786804083651887
2011-09-12,1,0.0006219972439291056,0.0007326686226630807,-0.017812879537016404,0.018165354692578323,0.9793117757858744
2011-09-14,1,0.001434510679747296,0.0016129607458129891,-0.017812879537016404,0.015004875988352767,0.9802244597732086
2011-09-16,1,0.0015227729785533609,0.0017322433023683542,-0.017812879537016404,0.015004875988352767,0.9801849759169354
2011-09-20,1,0.0014763182707700137,0.001666386693233084,-0.01400358423342434,0.018165354692578323,0.9801103500236418
2011-09-22,1,0.00032977484412882014,0.00036588141781498766,-0.01237727611102629,0.018165354692578323,0.982547860656279
2011-09-26,1,0.0019158112922784585,0.0021859566265360116,-0.01237727611102629,0.016316233081618767,0.9833753013221228
2011-09-28,1,0.0011247817712973136,0.0012636123681014613,-0.01237727611102629,0.00982575579317825,0.9844252399051284
2011-09-30,1,0.0015887345459234268,0.0017980025852694739,-0.01210833879088265,0.01248801956251737,0.984071308129283
2011-10-04,1,0.0024580462484077095,0.0028262915360042547,-0.01210833879088265,0.006128225057391167,0.9843266329251842
2011-10-06,1,0.005294285074780848,0.006010535781380902,-0.01237727611102629,0.003958779148723416,0.9868269441908515
2011-10-10,1,0.004649688032350434,0.005288979182856165,-0.01258805282705283,0.003412962801218129,0.9857731141205207
2011-10-12,1,0.003991857566331644,0.00448394377001828,-0.01291702320483672,0.005711384646845177,0.9851707725016852
2011-10-14,0,0.0,0.0,-0.01291702320483672,0.014246532598656835,0.9849315164178881
2011-10-18,0,0.0,0.0,-0.012652864723678232,0.005711384646845177,0.986772776552061
2011-10-20,1,0.0008449751789462197,0.0011286431481080676,-0.013794009889928533,0.005711384646845177,0.9851996731583849
2011-10-24,1,0.0007569876300384585,0.0010084137655682656,-0.01665750623696545,0.0031032771546221473,0.9834021212892833
2011-10-26,0,0.0,0.0,-0.020459233530294368,0.0031032771546221473,0.9834041135362246
2011-10-28,1,0.0033698794143251056,0.003953930153171824,-0.020459233530294368,0.002876699787296661,0.9831804776375983
2011-11-01,0,0.0,0.0,-0.014609853251318635,0.01269553044001487,0.9840697607380561
2011-11-03,0,0.0,0.0,-0.01415125908028394,0.01173337651651213,0.9852204840833656
2011-11-07,0,0.0,0.0,-0.013285773789395203,0.01173337651651213,0.986153471308084
2011-11-09,0,0.0,0.0,-0.010763064400456983,0.002876699787296661,0.9875483964777734
2011-11-11,0,0.0,0.0,-0.009788112954091172,0.002876699787296661,0.9887861099365618
2011-11-15,0,0.0,0.0,-0.01181404226215364,0.002876699787296661,0.9881403659496257
2011-11-17,0,0.0,0.0,-0.006161399773506873,0.01185008908323627,0.9896437464114856
2011-11-21,0,0.0,0.0,0.0,0.01185008908323627,0.9915635847141743
2011-11-23,1,0.0015382159353594298,0.001589907953387795,0.0,0.013166606605453383,0.9901009019615252
2011-11-28,0,0.0,0.0,0.0,0.013166606605453383,0.9905430283476216
2011-11-30,0,0.0,0.0,0.0,0.009388352408808805,0.9924054021817298
2011-12-02,0,0.0,0.0,0.0,0.009412318826522936,0.9925575670474186
2011-12-06,0,0.0,0.0,-0.002317202683684695,0.008232472389188068,0.990784660036054
2011-12-08,0,0.0,0.0,0.0,0.009412318826522936,0.9904692879585808
2011-12-12,0,0.0,0.0,0.0,0.012930323642574862,0.9895065894724636
2011-12-14,0,0.0,0.0,0.0,0.012930323642574862,0.9899666089918056
2011-12-16,0,0.0,0.0,-0.0009564792478460885,0.009462683583712649,0.990221733094202
2011-12-20,1,0.0021361997354199533,0.0023185796555147114,-0.0009564792478460885,0.009462683583712649,0.9897565905520994
2011-12-22,1,0.0031020391570765267,0.003354204364603587,-0.004532138393450346,0.008232472389188068,0.9908438653882827
2011-12-27,1,0.001993423836256531,0.0019970880829678662,-0.0048908266629915115,0.005323410398243989,0.9910866148916159
2011-12-29,-1,-0.0005757380160985384,-0.00016662392181474007,-0.003945479747898076,0.005323410398243989,0.9923737151937342
2012-01-03,1,0.0006933807270490635,0.000853692048881336,-0.003945479747898076,0.006264108499041825,0.9907778171398994
2012-01-05,1,0.0004077496533669044,0.0005429411117107133,0.0,0.012284777886106157,0.9923628223824672
2012-01-09,1,0.0009878244725680199,0.0010394839006079278,0.0,0.006264108499041825,0.9928800693358412
2012-01-11,1,0.0017542287549599397,0.0017900746194943697,-0.00390726236670495,0.0006002826989208706,0.9932813349156306
2012-01-13,1,0.0023403856774209713,0.0024511963537418476,-0.004189515873859863,0.0018065652687081753,0.9924970300129896
2012-01-18,1,0.0019295120452634405,0.0019731676584496486,-0.004189515873859863,0.001446672363359674,0.9926072802418754
2012-01-20,0,0.0,0.0,-0.004189515873859863,0.0024640292409576045,0.9917862373433202
2012-01-24,0,0.0,0.0,-0.004189515873859863,0.00012007959928450921,0.9917318808830283
2012-01-26,0,0.0,0.0,-0.004275728406990224,0.00012007959928450921,0.9913561939417304
2012-01-30,0,0.0,0.0,-0.004642479978140825,0.0021037904431040768,0.9901452724337289
2012-02-01,0,0.0,0.0,-0.004642479978140825,0.0021037904431040768,0.9905470719700595
2012-02-03,1,0.0024835981369572633,0.002507862289352376,-0.004642479978140825,0.0,0.9900391364663226
2012-02-07,1,0.0026300190743324798,0.002708773446459561,-0.0057792769147190295,0.0,0.9885601125071821
2012-02-09,-1,-0.0002679175509162946,-0.00013569929648815242,-0.004642479978140825,0.0021037904431040768,0.9903662239488203
2012-02-13,0,0.0,0.0,-0.0032462874831582812,0.011276083798447708,0.9900448352560025
2012-02-15,0,0.0,0.0,-0.002675627345866392,0.011276083798447708,0.9902795799550731
2012-02-17,0,0.0,0.0,-0.002675627345866392,0.0027827249575984323,0.9922070731237665
2012-02-22,0,0.0,0.0,-0.002675627345866392,0.0027827249575984323,0.9929637400628797
2012-02-24,0,0.0,0.0,-0.0013707681745475616,0.011900655037114957,0.9913883481904516
2012-02-28,0,0.0,0.0,-0.0009725500235070327,0.011276083798447708,0.9920410359772744
2012-03-01,0,-2.037784852899899e-05,9.924789190152004e-05,-0.0015564909543839545,0.011062987292151119,0.9932313517814221
2012-03-05,1,0.0017461143608012834,0.0019833246415820573,-0.0015564909543839545,0.011276083798447708,0.9921164726717152
2012-03-07,0,0.0,0.0,-0.00020998058445617372,0.012593176686085504,0.9923409151069903
2012-03-09,0,0.0,0.0,-0.0021638508869113635,0.011900655037114957,0.9881323372710192
2012-03-13,1,0.0024218582463979223,0.0027575711196896474,-0.0024031010318743607,0.011397190594710407,0.9876071491562991
2012-03-15,0,0.0,0.0,-0.0021638508869113635,0.012593176686085504,0.9873833480757251
2012-03-19,0,0.0,0.0,-0.002793470577720711,0.012593176686085504,0.9870908688415476
2012-03-21,1,0.0010009804243863987,0.0011688226479383418,-0.002793470577720711,0.012593176686085504,0.9867925915662596
2012-03-23,1,0.0020669140327901217,0.0024240200805424293,-0.004440057314992304,0.006588415086820922,0.9880913881428726
2012-03-27,1,0.001583496146170087,0.001804448528911329,-0.004440057314992304,0.011007073553417825,0.9876320956539797
2012-03-29,1,0.0014991190572054788,0.0017198262764574566,-0.005362832875724104,0.011007073553417825,0.9876521591176801
2012-04-02,1,0.0029195899519322355,0.003233387278111014,-0.005991441165702931,0.010234171868354581,0.9871099370992102
2012-04-04,1,0.0033679532620379486,0.00371586380729448,-0.0061032014893667285,0.0012761092139900088,0.9873358074645749
2012-04-09,1,0.0010448256284064923,0.001120931013744129,-0.00677952703094639,0.0012761092139900088,0.9916125814964968
2012-04-11,1,0.0005618863246311791,0.000571637271437032,-0.00677952703094639,0.0012761092139900088,0.9916491778037956
2012-04-13,1,0.0004263754980103876,0.0004956459686219377,-0.008674262863454267,0.0,0.9918385580020186
2012-04-17,-1,-0.0005669215470170934,-0.00031960935595539634,-0.012686642696886258,0.0,0.9905859150629741
2012-04-19,-1,-0.0014201287599890813,-0.0010329211831402857,-0.013891030277737158,0.0,0.9903282972320618
2012-04-23,-1,-0.0015490519475435637,-0.0011583837106583263,-0.013891030277737158,0.0,0.9901288311781107
2012-04-25,0,0.0,0.0,-0.013891030277737158,0.0,0.9909893570585873
2012-04-27,0,0.0,0.0,-0.013891030277737158,0.0007845118110464012,0.9897779783394641
2012-05-01,-1,-0.0017123110379130703,-0.0014114702429882193,-0.013891030277737158,0.000128802536842488,0.9905465630848994
2012-05-03,-1,-0.002100726797509166,-0.0017389608178345478,-0.014542634376390088,0.000128802536842488,0.9899251620520739
2012-05-07,-1,-0.002688479349486254,-0.002281904071142119,-0.013658580816430286,0.001170919421573865,0.9897565340014196
2012-05-09,-1,-0.003341457847414687,-0.0028417115734156286,-0.013658580816430286,0.00328686469746212,0.9888553758198451
2012-05-11,-1,-0.0036410459720767883,-0.0031215209256866302,-0.013658580816430286,0.004238255290023682,0.9883955947412333
2012-05-15,-1,-0.004523118743659334,-0.0039038822621255192,-0.013084436989014712,0.008167099518660164,0.9886105325088246
2012-05-17,-1,-0.003916722182702259,-0.003429630615389781,-0.013320145963561056,0.015481527758034477,0.9873003153372516
2012-05-21,-1,-0.0039522985323335,-0.0034707708148123267,-0.013320145963561056,0.01643560918665979,0.9853020538049331
2012-05-23,-1,-0.003945673377362071,-0.0034544824416190946,-0.013320145963561056,0.01643560918665979,0.9854919058297584
2012-05-25,-1,-0.0029159735394830638,-0.0025671586867143173,-0.013658580816430286,0.019097832087930294,0.9816066991044937
2012-05-30,-1,-0.004046655414201937,-0.0034910956439366744,-0.013658580816430286,0.019097832087930294,0.9806111639068162
2012-06-01,-1,-0.004253461275988317,-0.003703859762338355,-0.013296664977760485,0.020960567565202464,0.9762225173338229
2012-06-05,-1,-0.003045409944647754,-0.0026818416745176057,-0.014480245719871426,0.020960567565202464,0.973854250389737
2012-06-07,-1,-0.002851866263037972,-0.0025143268425086938,-0.01088790367535392,0.01960746122158747,0.974921820553508
2012-06-11,-1,-0.0032428310014233153,-0.002855239647492406,-0.01088790367535392,0.01960746122158747,0.9752619154786603
2012-06-13,-1,-0.0027082497081073994,-0.0023901094130518684,-0.01088790367535392,0.024323915879511236,0.9744963922859249
2012-06-15,-1,-0.002729926283233052,-0.0024083539061217412,-0.0061899030413837906,0.01698426353152995,0.9758974269432484
2012-06-19,-1,-0.0017388846870997545,-0.0015306612944134001,-0.0061899030413837906,0.011357579371926925,0.9780884848817857
2012-06-21,-1,-0.0016832747497770167,-0.001483530095584733,-0.01088790367535392,0.011357579371926925,0.9775257411560865
2012-06-25,1,0.001026108942070804,0.0012073034295997905,-0.01088790367535392,0.010390997468926378,0.9828524470746913
2012-06-27,1,0.001193883979880642,0.0014216534938228465,-0.011258861825763805,0.010390997468926378,0.9822618850581005
2012-06-29,1,0.004514550777880377,0.0051812082566291716,-0.01019168456303453,0.010390997468926378,0.9850269522022768
2012-07-03,1,0.005274867819299149,0.006013204552876441,-0.00991975782591281,0.010390997468926378,0.9875593610361643
2012-07-06,1,0.005275943198490795,0.006006191611023297,-0.00991975782591281,0.011694336068401293,0.9875423495045955
2012-07-10,1,0.00465828990067361,0.005292829696336438,-0.003910538545559917,0.013564951671911775,0.9885571231329983
2012-07-12,1,0.00575738196857838,0.006579956691589246,-0.003910538545559917,0.010693015034841848,0.9894596148484219
2012-07-16,1,0.0056102907893239885,0.006382837965475549,-0.0044196571656940015,0.005461296593477898,0.9892272828238556
2012-07-18,1,0.0054517078245316895,0.0061767588207852255,-0.0044196571656940015,0.017264821508577534,0.9870999757330728
2012-07-20,1,0.0051262268570916765,0.00582445251661616,-0.00321753321605932,0.01963293800166595,0.9866112893424589
2012-07-24,1,0.00493263150417815,0.005638487600365727,-0.00321753321605932,0.02052257798824338,0.9855964101284576
2012-07-26,1,0.004919378117584821,0.005619713560773431,-0.00321753321605932,0.01968138913286497,0.9863664014684111
2012-07-30,1,0.004760376654757259,0.005398542822992424,-0.002517113837180533,0.018865530376326135,0.9870118733821267
2012-08-01,1,0.004925518464695986,0.005600854533367723,-0.002517113837180533,0.017102484395172972,0.9878360653081864
2012-08-03,1,0.005383796203517928,0.006142570325531746,-0.002517113837180533,0.014098521294494641,0.9880061980929281
2012-08-07,1,0.0054279119505987305,0.00618389562337431,-0.0010086647247951066,0.014253785842552484,0.98809685889548
2012-08-09,1,0.005294750329267019,0.006026991964568469,-0.00321753321605932,0.01919437779265129,0.987274128744417
2012-08-13,1,0.00506098266288181,0.005750443358925849,-0.0040675656485804,0.01919437779265129,0.9863668239169731
2012-08-15,1,0.00676938962839093,0.007735116539932338,-0.005804326761076161,0.011495259494274171,0.9875516339593498
2012-08-17,1,0.007427787412894045,0.008486738016910843,-0.008835636852403267,0.011495259494274171,0.987695261429732
2012-08-21,1,0.007121633741470982,0.008125132062573037,-0.005804326761076161,0.011495259494274171,0.9895001348357031
2012-08-23,0,0.0,0.0,-0.005804326761076161,0.01284546689789101,0.990181123357785
2012-08-27,0,0.0,0.0,-0.008892517238132943,0.011495259494274171,0.9904105465009807
2012-08-29,0,0.0,0.0,-0.008892517238132943,0.005238279418228154,0.9910006051912902
2012-08-31,0,0.0,0.0,-0.008892517238132943,0.012085043409744877,0.990171381038825
2012-09-05,0,0.0,0.0,-0.008892517238132943,0.01317775257105739,0.9876643062685294
2012-09-07,0,0.0,0.0,-0.006278960480399193,0.01317775257105739,0.9867208509973902
2012-09-11,1,0.005738475389315871,0.0060441111926860525,-0.00743969499901986,0.01317775257105739,0.9855226550997158
2012-09-13,1,0.005629372869235955,0.00593270217728521,-0.005431607854542586,0.01317775257105739,0.9859789611461015
2012-09-17,1,0.0057575921076108835,0.006117677817261487,-0.005431607854542586,0.01317775257105739,0.9859080336304553
2012-09-19,1,0.005444174442437794,0.00571014256637377,-0.005431607854542586,0.013768788527360486,0.9855371621034137
2012-09-21,1,0.005072740066453446,0.005303177928695955,-0.00678650884224524,0.013233654627396611,0.9855188878243066
2012-09-25,1,0.004456691810306672,0.00459970993515695,-0.00678650884224524,0.013233654627396611,0.9856036886477252
2012-09-27,1,0.003975448223920064,0.003975834242688226,-0.00678650884224524,0.014997636599157593,0.9853723570789072
2012-10-01,1,0.003803007557146812,0.003868151764159752,-0.00678650884224524,0.014997636599157593,0.9859671528081325
2012-10-03,1,0.005144712325264338,0.005183295696971604,-0.00678650884224524,0.012682537778801156,0.9876807645757327
2012-10-05,1,0.00542954404112618,0.005444497411841785,-0.008649133119453785,0.012682537778801156,0.9874936642649785
2012-10-09,1,0.004224530678704316,0.004362729452863747,-0.012538830454834166,0.012682537778801156,0.9874582246792295
2012-10-11,1,0.0037496071509433844,0.003941100950843945,-0.012538830454834166,0.012753595867894667,0.9868860847188813
2012-10-15,1,0.0032147820316712336,0.0034598662837719385,-0.012538830454834166,0.009498175162712712,0.9867761841555762
2012-10-17,1,0.003873441894574578,0.004006858501819997,-0.013409603567957949,0.0013346349107501256,0.9865406136478766
2012-10-19,1,0.0030574659297222867,0.003326577653463725,-0.012538830454834166,0.007165771828118761,0.9874552189759096
2012-10-23,1,0.0025023131665677222,0.002894121249529408,-0.011327212577207521,0.007165771828118761,0.9883199895377083
2012-10-25,1,0.0024297447273480257,0.0027929407698535575,-0.011327212577207521,0.0013346349107501256,0.9888649229491269
2012-10-31,1,0.0022577344921923454,0.002666133738032764,-0.011327212577207521,0.0031618670958683836,0.9881010124664661
2012-11-02,1,0.002125268855903943,0.0026031979261336696,-0.011327212577207521,0.003267994580289516,0.9881983266348753
2012-11-06,1,0.002146206604090198,0.0025865066570909035,-0.01209934023934605,0.0023670297551699453,0.9886389810859926
2012-11-08,1,0.0010364658038548677,0.0016136081147009732,-0.003855996006249261,0.0049078924793372085,0.9910847898529003
2012-11-12,1,0.0010773571802106133,0.0016156959267866798,-0.00041702370902673786,0.0008469542413890878,0.9920824655096626
2012-11-14,1,0.0005841343537926302,0.0012037101926511847,0.0,0.0008469542413890878,0.9938435739509369
2012-11-16,1,0.000984029176264771,0.0013300206718299431,0.0,0.0008469542413890878,0.9941647950843567
2012-11-20,1,0.0008906686580571089,0.001347450164974442,0.0,0.0008469542413890878,0.995219067626819
2012-11-23,1,0.0004597909698007874,0.0007011777158095924,0.0,0.0008469542413890878,0.9944175840680637
2012-11-27,1,0.0002966701570841525,0.0005123198941956988,-0.00041702370902673786,0.0008469542413890878,0.994164051918153
2012-11-29,1,0.0008432422163941037,0.000992746555670886,-0.0023763071722121285,0.0,0.994588920029084
2012-12-03,1,0.0009386349224773218,0.0011602528273267948,-0.0022527718841519116,0.0008469542413890878,0.9917049092999369
2012-12-05,1,0.0014080821879617765,0.0015070310777715603,-0.0022527718841519116,0.0,0.9919608159198768
2012-12-07,1,0.0010567492394605027,0.001168097631296742,-0.004641303067332266,0.0,0.9917076939515087
2012-12-11,1,0.0012709579055544852,0.0013626056272469686,-0.005109292628904326,0.0,0.9913038034166805
2012-12-13,1,0.001188401232303252,0.0013118772592109055,-0.0056089603540555,0.0,0.9904852219417345
2012-12-17,1,0.001022909106186719,0.0012232487555024155,-0.0056089603540555,0.0027332737511831283,0.9866599448528841
2012-12-19,1,0.000873759825155302,0.0011087952510125524,-0.0056089603540555,0.0014572092417825017,0.9869859886913297
2012-12-21,1,0.0005902131475967284,0.0008581695344502368,-0.0056089603540555,0.0014572092417825017,0.987242043274473
2012-12-26,1,0.000280154879273748,0.0005508295898424743,-0.005109292628904326,0.0014572092417825017,0.9876925838683142
2012-12-28,1,0.00022558840692485458,0.0005035849454264769,-0.001312507833094765,0.016888962009798725,0.9862846882682978
2013-01-02,1,0.0020558883129156496,0.0021123184028841004,-0.006738069021861363,0.0014572092417825017,0.9842173987055332
2013-01-04,1,0.0015362130070289322,0.0016533238078803077,-0.006738069021861363,0.0061863734072423095,0.9836528719085874
2013-01-08,1,0.0013131926443769799,0.0014459044338403905,-0.00832688777254112,0.0061863734072423095,0.9832256691083293
2013-01-10,1,0.001345125576015811,0.0014040533411289965,-0.004389364273256825,0.015449145068050604,0.9820409013464263
2013-01-14,1,0.0014030452809567387,0.00141399380544061,-0.004389364273256825,0.015449145068050604,0.9818353006550483
2013-01-16,1,0.003314492618166482,0.0034332099962720375,-0.004389364273256825,0.012818523031768062,0.9804430037619902
2013-01-18,1,0.002910532971996975,0.002977866334623598,-0.007843211179785939,0.012818523031768062,0.9802265810425882
2013-01-23,1,0.002983954179095856,0.0030300261925494533,-0.008722799855557607,0.015449145068050604,0.9784475255674109
2013-01-25,1,0.0028243293585328852,0.002887892601974999,-0.008722799855557607,0.018059995733229153,0.9775077276741723
2013-01-29,1,0.0037093354361502806,0.003882445965888696,-0.008722799855557607,0.013603334350471315,0.9787145203004961
2013-01-31,1,0.000134901224707146,0.00037613631986516247,-0.0011512823021763714,0.013603334350471315,0.9840137317223729
2013-02-04,-1,-0.0012279291340283268,-0.0008444740142666916,0.0,0.012472373391118176,0.985283805417187
2013-02-06,-1,-0.002086548537632465,-0.0015544152495412255,0.0,0.014288195447072626,0.9836909827744535
2013-02-08,0,0.0,0.0,-0.0011512823021763714,0.01235615424966093,0.9850523973176216
2013-02-12,0,0.0,0.0,0.0,0.01235615424966093,0.9860928076143329
2013-02-14,0,0.0,0.0,0.0,0.013897510599664434,0.9894776234385363
2013-02-19,0,0.0,0.0,0.0,0.016209173116601642,0.9881894755634116
2013-02-21,0,0.0,0.0,-0.00011714248548119744,0.013897510599664434,0.9907161835850902
2013-02-25,0,0.0,0.0,-0.00011714248548119744,0.003519145345454818,0.9922833699386455
2013-02-27,0,0.0,0.0,-0.00011714248548119744,0.009529812108527385,0.9918639991025221
2013-03-01,0,0.0,0.0,-0.00011714248548119744,0.009529812108527385,0.9918639991025221
2013-03-05,0,0.0,0.0,-0.000994528971217676,0.011530399517870328,0.989147557525079
2013-03-07,0,0.0,0.0,-0.001575765348313297,0.009529812108527385,0.9909215568139973
2013-03-11,0,0.0,0.0,-0.0006623154009566634,0.011530399517870328,0.9912819729750024
2013-03-13,0,0.0,0.0,-0.0006623154009566634,0.01567181700366413,0.9905149812947645
2013-03-15,1,0.0017539331818279766,0.0019403462623650187,-0.003408901052114821,0.0025252591501906552,0.9910873767600302
2013-03-19,1,0.0021325196483874755,0.002348558797779058,-0.006466212618425764,0.0,0.9908600841624682
2013-03-21,1,0.00189662578368122,0.0020709111829256633,-0.006462027751030802,0.0025252591501906552,0.9899744861186914
2013-03-25,1,0.001929987500366347,0.0021156081644646257,-0.008093496820981021,0.009112492310838868,0.989099808207426
2013-03-27,1,0.001975623310424789,0.002166056662422999,-0.008093496820981021,0.002195744386882738,0.9893658435887089
2013-04-01,1,0.001928638509795204,0.0021115974185077742,-0.00932212586811396,0.00297309568229426,0.9887497062357643
2013-04-03,1,0.0030079180184961495,0.0033421965141175155,-0.008093496820981021,0.01005945700609064,0.9892115186786743
2013-04-05,1,0.0024682491899697487,0.002707682580982417,-0.0064625716613994555,0.013784171963091854,0.9892589882774636
2013-04-09,1,0.0026165048063631013,0.002871708757024313,-0.0064625716613994555,0.01002454919986469,0.9898659624416052
2013-04-11,1,0.0024867953326081936,0.0027047853250621286,-0.00932212586811396,0.005488638146709034,0.9890726039931582
2013-04-15,1,0.002172186823181132,0.0023347299591023308,-0.006895455368407476,0.006329189485105933,0.9898253312297624
2013-04-17,1,0.0021079356850920313,0.002283620424868917,-0.0009568827006704461,0.01002454919986469,0.990790648747066
2013-04-19,1,0.001751616727649692,0.001873667156280115,0.0,0.01002454919986469,0.990430624430303
2013-04-23,1,0.0015199892410221317,0.0016072255022360161,0.0,0.013763025707711601,0.9901447620539068
2013-04-25,1,0.0016029524190384972,0.0017166613719666857,-0.0009568827006704461,0.013763025707711601,0.989498781825497
2013-04-29,1,0.0015296903246184187,0.0016339553331551641,0.0,0.013825456615628947,0.9887310716710465
2013-05-01,1,0.0020276085477741335,0.0021820059380673385,0.0,0.013763025707711601,0.9898553053678205
2013-05-03,1,0.00203386771834275,0.0021880645167253604,0.0,0.007584522688285369,0.9898895590030212
2013-05-07,1,0.0019271761778516172,0.002062039253622723,-0.003148149560998987,0.007584522688285369,0.9886708152303407
2013-05-09,1,0.0014017757931937297,0.0014614053108824483,0.0,0.013910735465571375,0.9891723050011805
2013-05-13,1,0.0013160524588163366,0.0013542907217451584,-0.002114665209050785,0.013910735465571375,0.9889048483675564
2013-05-15,1,0.0014602971103921066,0.0015193900103656526,-0.009492145188151342,0.007413826201317969,0.9881363416508284
2013-05-17,1,0.0023210089282421284,0.0024674604731498876,-0.009492145188151342,0.010177614359853841,0.9890550435389465
2013-05-21,1,0.0021139698594876922,0.002219904791575829,-0.002114665209050785,0.006259692822621033,0.9902708131195677
2013-05-23,1,0.0017199851079642376,0.0017622864171088482,-0.004489489837153757,0.006259692822621033,0.9890574345975095
2013-05-28,1,0.0032308148805340955,0.0035459956184811093,-0.004489489837153757,0.0001938770337668981,0.9894237015993207
2013-05-30,1,0.00319109827759379,0.0034779259018117834,-0.004489489837153757,0.0029807497472905987,0.9888354179829376
2013-06-03,0,0.0,0.0,-0.002935699862678087,0.009980862818049116,0.9899562168774546
2013-06-05,0,0.0,0.0,-0.002935699862678087,0.009980862818049116,0.989264995451852
2013-06-07,1,0.0012917202610795713,0.0013936773151936074,-0.0037991905752233256,0.007886459527455779,0.9893140392959536
2013-06-11,0,0.0,0.0,-0.002935699862678087,0.007993812699299288,0.9898448528234892
2013-06-13,0,0.0,0.0,-0.0007146972177701432,0.009980862818049116,0.9903555493809675
2013-06-17,1,0.0014833755336415868,0.001541992006428023,-0.0008585438515833555,0.007346571338304986,0.9907757337838202
2013-06-19,1,0.0013258909474638625,0.0013585862673532408,-0.002935699862678087,0.007346571338304986,0.9901782824043426
2013-06-21,1,0.0006480662946481289,0.000661034295401529,-4.794887793773741e-05,0.007346571338304986,0.9923033175155438
2013-06-25,-1,-0.0015353907871543447,-0.001120231906986474,-4.794887793773741e-05,0.007346571338304986,0.9908765922484926
2013-06-27,-1,-0.0011394722532793115,-0.0007540868379200714,-4.794887793773741e-05,0.0027341850118706764,0.9928158961349003
2013-07-01,-1,-0.001247371569916375,-0.0008222549696924833,-4.794887793773741e-05,0.006163983395613259,0.9927568238104539
2013-07-03,-1,-0.0019928733543434513,-0.001501097118361584,0.0,0.007346571338304986,0.9927318075190736
2013-07-08,-1,-0.0024517318382463902,-0.0018770710739042752,0.0,0.008204526404060592,0.9921537552766884
2013-07-10,1,0.00034720873775243195,0.00041982303406129257,0.0,0.0077924577994373505,0.9938800013128778
2013-07-12,1,0.00046992108597602777,0.0005332515675829204,0.0,0.0077924577994373505,0.9937594600191562
2013-07-16,1,0.00042059697497509997,0.000498034122008775,0.0,0.007624297547737293,0.9931842294460751
2013-07-18,1,0.0003478237857722897,0.0003991860378496235,0.0,0.007624297547737293,0.9926252740590402
2013-07-22,1,0.00025568177128235884,0.00031880032377575084,0.0,0.011022793009481115,0.9920509813293298
2013-07-24,-1,-0.0002340354007114064,-0.00011144489435370745,0.0,0.011022793009481115,0.9924310447623688
2013-07-26,-1,-0.00033760554294329486,-0.0001982212177511079,0.0,0.012972521937412832,0.9905200584804693
2013-07-30,-1,-0.0001831844063861961,-5.056040722586111e-05,-0.0009276472972056742,0.012485419261746006,0.9913158219893148
2013-08-01,1,0.00029335205959687196,0.00038623905787025614,-0.004179596081173992,0.008111839631825591,0.9920295710845365
2013-08-05,1,0.00048710514004768086,0.0005617879707001663,-0.004179596081173992,0.005679300755684493,0.992426238166482
2013-08-07,1,0.0006362596998215224,0.0006469168508009956,-0.0013966541895569693,0.012354243864844924,0.9910132793131857
2013-08-09,1,0.0009012290736153598,0.000938252345295969,-0.0013966541895569693,0.012354243864844924,0.990867047640598
2013-08-13,1,0.0005988323057250467,0.0006117400099585413,0.0,0.012354243864844924,0.9913148848300934
2013-08-15,1,0.0002171517226950736,0.00027689899537706113,0.0,0.012354243864844924,0.9925951680323103
2013-08-19,1,0.00047163998178840826,0.0004943999385624148,0.0,0.012354243864844924,0.9923877037590055
2013-08-21,1,0.0001354527498518482,0.00020016167956330924,0.0,0.012354243864844924,0.9930593186215958
2013-08-23,1,0.0009291985220469812,0.0009867938473822053,0.0,0.006259272142985443,0.9929522051668276
2013-08-27,1,0.0007537316327084772,0.0007702980709012212,0.0,0.006259272142985443,0.993066319893277
2013-08-29,1,0.0006640619714015805,0.000680974016450673,0.0,0.006259272142985443,0.9936815281387531
2013-09-03,1,0.000791878168124438,0.0008428721893348195,0.0,0.006259272142985443,0.9933612771703856
2013-09-05,1,0.0012526402789619791,0.0013404644599977287,0.0,0.006259272142985443,0.9928657772516718
2013-09-09,1,0.0011876672735647515,0.0012309563126536444,0.0,0.006259272142985443,0.9920713893189724
2013-09-11,1,0.001417213369443651,0.0015166466255501683,-0.0009103480628586987,0.004500559193523122,0.9909580379354871
2013-09-13,1,0.001420568020106873,0.0015015850807825995,-0.0009103480628586987,0.012277196570862025,0.9884548404597172
2013-09-17,1,0.001608258577205441,0.001708428344350053,-0.004028270166869402,0.006707925273451359,0.9883862116219346
2013-09-19,1,0.0014547712207211854,0.0015042843087763637,-0.004028270166869402,0.013137901189675175,0.98768197491996
2013-09-23,1,0.0013352705782921953,0.0014171427301460215,-0.0009103480628586987,0.013230372543148008,0.9886704273729254
2013-09-25,1,0.001273858482375832,0.0013526477413711008,-0.001297225978293306,0.013230372543148008,0.9885515842276724
2013-09-27,1,0.001249109558257295,0.0013255543815295066,-0.005208482696326063,0.013230372543148008,0.9882434460482571
2013-10-01,1,0.000866052129648731,0.00086840411381999,-0.001297225978293306,0.013869177262127049,0.9877000556483998
2013-10-03,1,0.0013856252069304005,0.0014601445450232332,-0.005208482696326063,0.01253129850481247,0.9892081569053432
2013-10-07,1,0.00172407672376446,0.0018515412653362967,-0.001316804761446145,0.011398304573582683,0.9906865149172318
2013-10-09,1,0.001425866214974424,0.001533802359950664,0.0,0.01253129850481247,0.9914286034261599
2013-10-11,1,0.0022259310804519914,0.0024299690159786465,-0.001316804761446145,0.011398304573582683,0.9928932650742671
2013-10-15,1,0.0017319816528620488,0.0018497327756296497,0.0,0.011398304573582683,0.9935680445728217
2013-10-17,1,0.0020770337490704062,0.0022862439354921866,0.0,0.011398304573582683,0.993159513566463
2013-10-21,1,0.0025945104406535726,0.0028776974492694994,-0.000974717122983416,0.011438956188851246,0.9927308759079723
2013-10-23,1,0.0021880777452027537,0.0024015265559192804,-0.0006523640780516443,0.011438956188851246,0.9931343695043223
2013-10-25,1,0.0018034204186325089,0.0019249946705414966,0.0,0.012002388530090485,0.9930953544695893
2013-10-29,1,0.002287962329182737,0.0024926540088439273,0.0,0.0055693877706776435,0.993803094307446
2013-10-31,1,0.0019184345140272183,0.0020593781956108658,0.0,0.007670989996612827,0.9940744309622024
2013-11-04,1,0.001508382802709617,0.0015644230920219431,0.0,0.007670989996612827,0.9941214728456852
2013-11-06,1,0.0018756980581063616,0.002004534717365605,-0.0003546045181599069,0.004178763985015079,0.9946751858543466
2013-11-08,1,0.001622613930438845,0.0017236490365568815,-0.0003546045181599069,0.004178763985015079,0.9937611149346307
2013-11-12,1,0.0013623752617014876,0.0014348727372577343,-0.0017161776325313651,0.004178763985015079,0.9935999967846614
2013-11-14,1,0.001596697777282316,0.0016843814386980542,-0.0037456828124915573,0.0030497566711496856,0.9935349245225603
2013-11-18,1,0.0017016469746120198,0.001847317412594785,-0.004246922157559596,0.0030497566711496856,0.9930708856922953
2013-11-20,1,0.0018313991064727326,0.001993870825438048,-0.00603042270830182,0.0018195539660790334,0.992649284798557
2013-11-22,1,0.001553264097895352,0.0016212753557136607,-0.00603042270830182,0.0003166654962177318,0.9932280642496093
2013-11-26,1,0.0013659061855477628,0.0014124060775115197,-0.00603042270830182,0.0009630980281924681,0.9934142535405572
2013-11-29,1,0.0013707933593067173,0.0014183352245076095,-0.00603042270830182,0.0009630980281924681,0.9936638612581264
2013-12-03,1,0.0013577367919353424,0.0014125378621309941,-0.00603042270830182,0.0013094203925693257,0.9937198755870863
2013-12-05,1,0.0012540189289227063,0.0012911764177444133,-0.0066108070727937725,0.0013094203925693257,0.9929144845574512
2013-12-09,1,0.0010045494764990969,0.0010164213511116684,-0.00603042270830182,0.0013094203925693257,0.9900457377385314
2013-12-11,1,0.0009400095396415385,0.0009507429059040299,-0.0036455903085157357,0.002041803926928269,0.988182919771502
2013-12-13,1,0.0004624738515062011,0.0005636696044617282,-0.0006262550679180494,0.002041803926928269,0.9893383481514392
2013-12-17,1,0.0005246973094757774,0.0006243472312054895,-0.0001250028610229492,0.002041803926928269,0.9905743924033216
2013-12-19,1,0.00038249423755405313,0.0004850028214729798,0.0,0.002041803926928269,0.9907152230399692
2013-12-23,1,0.000493957686047989,0.000558484858640389,0.0,0.002041803926928269,0.9896126061196114
2013-12-26,1,0.00046579966302688977,0.0005160630426828789,-0.0001250028610229492,0.002041803926928269,0.9885387171143967
2013-12-30,1,0.0003280967940613372,0.0003951065856497619,-0.0001250028610229492,0.0022088138465239204,0.9874150857801964
2014-01-02,1,0.00037998165948188874,0.00043488744864533585,-0.0020890544674756284,0.0008129131415940645,0.9865558778117305
2014-01-06,0,-8.784618830014434e-05,2.6638817555443427e-05,-0.0020890544674756284,0.00412058269300116,0.9868556923526116
2014-01-08,1,0.0004764938383390742,0.0005346737793258717,-0.0073040743518377645,0.00412058269300116,0.9902450617668268
2014-01-10,1,0.0010712384427059153,0.0010896626034338959,-0.0073040743518377645,0.0,0.992128904240988
2014-01-14,1,0.0008313488860685742,0.0008591554531364,-0.0073040743518377645,0.0008129131415940645,0.9911795881804838
2014-01-16,1,0.000991998305401115,0.0010146098769343108,-0.0073040743518377645,0.0016818432682189665,0.9908674308465059
2014-01-21,1,0.0007505075636925033,0.0007655434284708011,-0.004683769782673205,0.0070422492035828455,0.990743793348253
2014-01-23,1,0.00022726764643421016,0.0003158005861026148,-0.004099809931110411,0.00839551957440456,0.9913484172647006
2014-01-27,-1,-0.00013800002295687077,-5.988127070306328e-06,-0.0008406110280185941,0.010184643264383777,0.9912346256446198
2014-01-29,1,0.0003728894674104895,0.00041790767833674536,-0.00513161007402815,0.009700051226019515,0.9919354067907689
2014-01-31,1,0.000208398981809015,0.000263468819233644,-0.00513161007402815,0.009700051226019515,0.9924069246550037
2014-02-04,1,0.00015761211716001474,0.00021062794905432692,-0.003706377493046956,0.010184643264383777,0.9922953599814184
2014-02-06,1,0.00017343039268282937,0.00022641905759835426,-0.0017480381811486164,0.010147235491248484,0.993045819712098
2014-02-10,1,0.00018842327991992603,0.00023512939668373978,-0.0017480381811486164,0.010147235491248484,0.9928978825590337
2014-02-12,1,0.0003567627675805426,0.00038636256479826096,-0.0017480381811486164,0.009700051226019515,0.994073259668552
2014-02-14,1,0.0001807277624978814,0.0002470012870836387,-0.00513161007402815,0.009700051226019515,0.993393274934487
2014-02-19,1,0.00012888162577331854,0.00020560138485997822,-0.0063208343945856315,0.00698020576478633,0.993387487617761
2014-02-21,1,7.201771553618771e-05,0.00015735843092721467,-0.005140537080395266,0.00727017859899004,0.9933996033997008
2014-02-25,1,0.00021590949177964372,0.00028485254570195394,-0.006598942213882768,0.002681043388541149,0.9939864520282505
2014-02-27,1,0.000279963675412148,0.0003005425388853468,-0.002745657806747557,0.0027534378580951206,0.9944051037598644
2014-03-03,1,0.0002784702460598078,0.00029902994723495267,-0.0003024757177100075,0.006485408632956224,0.9939819102332337
2014-03-05,1,0.000199594342821788,0.00025890331454792655,-0.0004105553948634531,0.006485408632956224,0.9942638935621639
2014-03-07,1,0.00045852506477978195,0.00046537057473715744,-0.002973505819356076,0.004039907224534116,0.9944169559710837
2014-03-11,1,0.0004062975664283654,0.0004193201429066795,-0.004137867355922832,0.003440066288654686,0.9925972826134714
2014-03-13,1,0.0004586940820751844,0.0004688822511351243,-0.007419567385916798,0.003440066288654686,0.9918828356336795
2014-03-17,1,0.0002809459004975683,0.00030466765457749784,-0.007777094926712179,0.003440066288654686,0.9913815595169386
2014-03-19,1,0.0001583898535279016,0.00020296850699054187,-0.004429827497758379,0.0038256824053980983,0.9911971814023703
2014-03-21,1,0.00022639660614863846,0.00027518799308104457,-0.004429827497758379,0.0038256824053980983,0.9912895626096991
2014-03-25,1,0.00018759979234562457,0.00022928646404128344,-0.003064590588975539,0.007696014423035004,0.9913491826862901
2014-03-27,1,8.986550282253297e-05,0.00015153260149833287,-0.0077983069689975485,0.007696014423035004,0.9904702045815174
2014-03-31,1,0.000245744732087382,0.00029204999228603975,-0.0077983069689975485,0.005385874380964804,0.9903598613561857
2014-04-02,1,0.00048533715152883344,0.0004967098210205618,-0.0077983069689975485,0.0036923809639833895,0.9909309077446581
2014-04-04,1,0.00037221831718850295,0.00039804796419898227,-0.0077983069689975485,0.0036923809639833895,0.991130157019398
2014-04-08,-1,-0.0001899616997645634,-9.663405968004943e-05,-0.0077983069689975485,0.004747568196721065,0.991659620357104
2014-04-10,-1,-0.0002458138579622915,-0.00016078865628666274,-0.0077983069689975485,0.004747568196721065,0.991558054881589
2014-04-14,-1,-0.0006109646872986647,-0.0004901897191243296,-0.0007734191546619275,0.009115739649008752,0.9915670121298522
2014-04-16,-1,-0.0003935279336567622,-0.0002984781588621398,-0.00420680776583671,0.005942368189849419,0.9919447129975767
2014-04-21,-1,-0.0001495715054162525,-8.743937939110005e-05,-0.004325691358076406,0.005942368189849419,0.9906442557675702
2014-04-23,-1,-0.00012020092830885055,-6.01856134870463e-05,-0.007925511932743113,0.005929264155571448,0.9903613197637408
2014-04-25,-1,-0.00043318312067866575,-0.00033914369245401766,-0.0008130470187418262,0.005929264155571448,0.99106804020664
2014-04-29,-1,-0.00015207195453580786,-8.97811427991208e-05,-0.004500809586162402,0.005600383916330335,0.9914819077199438
2014-05-01,-1,-0.00017418304299090915,-0.00010485894017578991,-0.004500809586162402,0.006818229887745412,0.9908967305615953
2014-05-05,0,-2.103066776592481e-05,2.3233397089111185e-05,-0.004500809586162402,0.006818229887745412,0.9911023995057627
2014-05-07,-1,-0.0004517992228969002,-0.00035220352953565034,-0.0008130470187418262,0.006818229887745412,0.9923689720710919
2014-05-09,-1,-0.0009059725816014888,-0.0007327627664893239,-0.0008130470187418262,0.006818229887745412,0.9920545626019912
2014-05-13,-1,-0.0002779824631094656,-0.00018856807811092665,-0.0008130470187418262,0.0016548173675686373,0.9937105516150797
2014-05-15,-1,-0.0006656509160959173,-0.00052179256681345,-0.0008130470187418262,0.00364460877617,0.9936738911634986
2014-05-19,0,-7.254702835467482e-05,3.3537230312863115e-06,0.0,0.00364460877617,0.9955970479226761
2014-05-21,-1,-0.00015049108513758285,-6.490444421494525e-05,0.0,0.005746832134318005,0.9944517180995506
2014-05-23,-1,-0.00013119138718740894,-4.742929464339129e-05,0.0,0.0070119174686925365,0.9936488548017371
2014-05-28,-1,-0.00021145936451981835,-0.00011799384995004166,0.0,0.006269399954506243,0.9943036570389381
2014-05-30,-1,-0.00022270087496737643,-0.00010621324079851413,0.0,0.0022730565409306066,0.9950615326746739
2014-06-03,1,0.0002664605623709553,0.00029685131848358813,0.0,0.0022730565409306066,0.9950268203314986
2014-06-05,1,0.000431741431317821,0.00047431550843540755,0.0,0.006269399954506243,0.9929742053740092
2014-06-09,1,0.0002500464477985123,0.0002666896615797788,-0.0002266340823078966,0.006269399954506243,0.9933866432580738
2014-06-11,1,0.00024389310238772364,0.0002612604678487566,-0.0002266340823078966,0.006269399954506243,0.9933892451649697
2014-06-13,1,0.00018642340650323533,0.00019163936702880775,0.0,0.0021449052323143122,0.9939105622508724
2014-06-17,1,0.00013090773789565028,0.00014480628657214582,-0.0002266340823078966,0.0,0.99245080539561
2014-06-19,1,0.00031951795854686554,0.000322319751412094,-0.0002266340823078966,0.0,0.9937469708035823
2014-06-23,1,0.0005632098224674253,0.0006135594671494572,-0.00160885398979425,0.0,0.9936088977923203
2014-06-25,1,0.00044726715829933534,0.000468323310506057,-0.00160885398979425,0.0,0.9935123508153766
2014-06-27,1,0.0004047997525877798,0.00041048936235264815,-0.004048391799990667,0.0,0.9924971119062519
2014-07-01,1,0.0004329869228242026,0.00044134031938867233,-0.004048391799990667,0.0,0.9925251991054876
2014-07-03,1,0.0007139705619904917,0.0007551563156466917,-0.005355995866659283,0.0,0.9920528300701966
2014-07-08,1,0.0006728692846964847,0.0007227193802498647,-0.0005797012992527174,0.0,0.9926353713001477
2014-07-10,1,0.0006711628514410234,0.0007251160723575757,-0.0005797012992527174,0.0,0.9926365290856728
2014-07-14,1,0.0006629751207876578,0.0007193614315870035,-0.0005797012992527174,0.0011428615025111607,0.9920855819129223
2014-07-16,1,0.0003224577093042748,0.00033136483579908647,0.0,0.005045202813689326,0.9938568690979647
2014-07-18,1,0.000560570495478479,0.0006184848545097313,0.0,0.005045202813689326,0.9933403909731027
2014-07-22,1,0.00046909500878519555,0.000504773051335069,0.0,0.0011428615025111607,0.9942513794332614
2014-07-24,1,0.0005087622746572376,0.0005400041727871726,0.0,0.0014908379892765006,0.9941623489939064
2014-07-28,1,0.00034581628662533424,0.0003668778659423036,0.0,0.0014908379892765006,0.9949575348337129
2014-07-30,1,0.0004034365234255574,0.0004409512905664127,0.0,0.0014908379892765006,0.9949313726456798
2014-08-01,1,0.0002291720399046471,0.0002459526065498103,0.0,0.0,0.9972557708759571
2014-08-05,1,0.00018393849374883465,0.0001961883579994179,0.0,0.0014908379892765006,0.9960309538453017
2014-08-07,-1,-4.052008561143339e-05,-1.3969537264096264e-05,0.0,0.005549103163699426,0.995248890509594
2014-08-11,1,8.655786917397364e-05,9.859550615457516e-05,-0.0005164112532607038,0.0017004681674358557,0.995270387502557
2014-08-13,1,0.00029998844982775236,0.0003197239727486233,-0.0005164112532607038,0.00011590436976496018,0.9954763629152257
2014-08-15,1,0.00044016876875269334,0.00046746289146753,-0.0005164112532607038,0.00011590436976496018,0.995561158589319
2014-08-19,1,0.0004465322843791079,0.0004725437022299381,-0.002723356462464879,0.0017004681674358557,0.9950001879735914
2014-08-21,1,0.0005543912670816605,0.0006145052384109045,-0.002723356462464879,0.0017004681674358557,0.9948025501951049
2014-08-25,1,0.0005754393352127514,0.0006445132128729579,-0.00305619090130845,0.0017004681674358557,0.994482187117937
2014-08-27,1,0.0005389040879335998,0.0005944670030143468,-0.00305619090130845,0.005933630190096862,0.9935671534689505
2014-08-29,1,0.00044814784114417924,0.0004629136782856632,-0.006120986214831215,0.005933630190096862,0.9929016235313816
2014-09-03,1,0.00016660267929009335,0.00018823740475029622,-0.0032499893815855605,0.0017004681674358557,0.994227752128893
2014-09-05,-1,-0.0001944025699269487,-0.00011664916486784469,-0.0032499893815855605,0.0022230781249688177,0.9935566250194985
2014-09-09,-1,-0.000263495515916105,-0.00018585650044510824,-0.005771499615407281,0.0022223140872824256,0.9930566168876407
2014-09-11,-1,-0.00020612451109065344,-0.0001366323785868661,-0.005771499615407281,0.007870308376449569,0.9915132316251519
2014-09-15,1,2.614116820107932e-05,7.03085930283689e-05,-0.00951819569999619,0.0022223140872824256,0.990937795253754
2014-09-17,-1,-0.00017419076213430568,-9.389924306372026e-05,-0.011083788670615026,0.000850259599883508,0.9908190503492843
2014-09-19,0,-2.8906060100357956e-05,6.266829453844324e-06,-0.013192200312724733,0.000850259599883508,0.9889494197462494
2014-09-23,-1,-0.00019187712507444816,-0.00013691385834906157,-0.013192200312724733,0.01244849981118168,0.9880889026968023
2014-09-25,0,-1.5261957581008182e-05,2.2102578748408463e-05,-0.013192200312724733,0.009475214115823161,0.9884560528033006
2014-09-29,-1,-0.00033189262088597195,-0.0002485588869436263,-0.010207511943479571,0.009475214115823161,0.989207976176452
2014-10-01,-1,-0.00046452630596180016,-0.0003505969386585094,-0.010207511943479571,0.01244849981118168,0.987951990632025
2014-10-03,-1,-0.00024632584562535255,-0.00016961707974846038,-0.00905392038648136,0.013178522149814288,0.988259352134639
2014-10-07,-1,-0.0007405776647576798,-0.0005943369499426905,-0.004503572074742486,0.013178522149814288,0.9886436770853524
2014-10-09,-1,-0.0001477699154091601,-0.00010966381707420323,-0.0011453683162977052,0.01043065398989915,0.9900754596966896
2014-10-13,-1,-0.0004181254068905155,-0.000347656680181428,0.0,0.01043065398989915,0.9909599628219031
2014-10-15,-1,-0.0005179566158396104,-0.00043695039300580056,0.0,0.01043065398989915,0.9911909342709345
2014-10-17,-1,-0.0004873721001978246,-0.0004094420878388466,0.0,0.009335806886312902,0.9934364337479624
2014-10-21,-1,-0.0001269135996973167,-9.690161325656588e-05,0.0,0.006371629060459897,0.9952644752104589
2014-10-23,-1,-2.4926754956639452e-05,-6.398627838252919e-06,0.0,0.0046147896222537965,0.9959437490281186
2014-10-27,-1,-3.343007426624035e-05,-1.401591534940449e-05,0.0,0.0046147896222537965,0.9959366414225662
2014-10-29,1,3.669709362703243e-06,2.8568682261385627e-05,0.0,0.002769975142453223,0.9970023966974687
2014-10-31,1,0.00022553191947058957,0.00023017307134651422,0.0,0.001077706439088838,0.9959860367854565
2014-11-04,1,0.00031638647839090164,0.0003210774560642866,0.0,0.0,0.9955305786676186
2014-11-06,1,0.0003915922818621637,0.00040272246735359495,0.0,0.001077706439088838,0.9949535126603225
2014-11-10,1,0.0005745962834444094,0.0006328531683800693,-0.001234635992817771,0.0,0.9941075709605356
2014-11-12,1,0.0007356316762715339,0.0008277430168641068,-0.0051660869293895795,0.0,0.9939675323608074
2014-11-14,1,0.000743493623274421,0.00083310778616094,-0.006422547725922334,0.0,0.9930364289065607
2014-11-18,1,0.0006841503259394262,0.0007661361895953309,-0.006422547725922334,0.0,0.9917886633426592
2014-11-20,1,0.0006991243351240234,0.0007798379344359159,-0.006422547725922334,0.0018187661717532016,0.990830664733764
2014-11-24,1,0.0013482015085674406,0.0015556102710014346,-0.006422547725922334,0.010665109506091973,0.9891592152149924
2014-11-26,1,0.0011563336715773895,0.0013258045508479726,-0.00588485340754978,0.014861225339878182,0.9884873976231013
2014-12-01,1,0.0014062969342498533,0.0016077771192471793,-0.005595341959490576,0.010665109506091973,0.9900841454323738
2014-12-03,1,0.0010970578491965974,0.0012566434449675307,-0.005595341959490576,0.010665109506091973,0.9897940505813625
2014-12-05,1,0.0007686930126192768,0.000810218566369551,-0.005595341959490576,0.014861225339878182,0.9893234942363291
2014-12-09,1,0.0009201356256214354,0.0010000422056204805,-0.0037449128581049677,0.02089680229917448,0.9868565807117146
2014-12-11,1,0.0005732092309731014,0.0005977758477255552,-0.0008206551155420729,0.02089680229917448,0.9870912283786594
2014-12-15,1,7.556414440494437e-05,0.00010525027069645199,0.0,0.02089680229917448,0.987051174917973
2014-12-17,1,0.0003891048339600638,0.00041088605025393617,0.0,0.0200579370504513,0.9875970108867453
2014-12-19,1,0.0007339469567841671,0.0007536411036827705,-0.0008206551155420729,0.020065563029207374,0.9866959375437627
2014-12-23,1,0.0015128557323509058,0.0016332173593433612,-0.0008206551155420729,0.017756764855316735,0.988185622606003
2014-12-26,1,0.0017391596044168906,0.0018847190590060444,0.0,0.010411080788741789,0.989122907274546
2014-12-30,1,0.0014263242616433306,0.0015271232291220883,0.0,0.010559063736262336,0.9892480982371009
2015-01-02,1,0.0010277737432815486,0.0010911540163642377,0.0,0.010559063736262336,0.9898018324523998
2015-01-06,1,0.0017354819035351834,0.0018993085108020965,0.0,0.010559063736262336,0.9901808688559065
2015-01-08,1,0.0020920367431786603,0.0023263516160082465,0.0,0.007258311573953278,0.9931677051197545
2015-01-12,1,0.002083351981836413,0.0023132420327495336,0.0,0.007258311573953278,0.9928127406980195
2015-01-14,1,0.002010515377567561,0.00223611539367361,0.0,0.007307639223126794,0.9930907536371039
2015-01-16,1,0.00215646416814648,0.0023883939682942767,0.0,0.0038973662996924867,0.9933028987090133
2015-01-21,1,0.0021524616640379384,0.002379285336631001,0.0,0.0038973662996924867,0.9943159643496546
2015-01-23,1,0.0019453037419110402,0.0021391043964240106,0.0,0.006953927435070045,0.9940064360121529
2015-01-27,1,0.001900084479281079,0.0020799981817962014,-0.0012545462490614774,0.006953927435070045,0.9937061141898728
2015-01-29,1,0.002014334689521036,0.0021940427473316794,-0.0012545462490614774,0.006953927435070045,0.9934438565441249
2015-02-02,1,0.0014270306083518395,0.0015069861782861958,0.0,0.006953927435070045,0.9943298372140139
2015-02-04,1,0.0016895255739158414,0.0017989179281457024,0.0,0.0017371523085637768,0.9949240675984395
2015-02-06,1,0.0016983437507956374,0.0018352952858335192,-0.0012545462490614774,0.0017424705093787138,0.9919631437929582
2015-02-10,1,0.0014294225833198315,0.0015305722580695224,-0.001023254404790934,0.0017424705093787138,0.9922508564769379
2015-02-12,1,0.0016938796887263,0.0018433487147611418,-0.001023254404790934,0.0017424705093787138,0.9915674624432426
2015-02-17,1,0.0012447236396468798,0.0013122480501604442,-8.523164344812567e-05,0.0017424705093787138,0.9921156305113011
2015-02-19,1,0.0016882137269133117,0.0018346044978469838,-8.523164344812567e-05,0.0,0.9926889535299387
2015-02-23,1,0.0013962017739377634,0.0014806999390918514,-8.523164344812567e-05,0.0,0.9926106549941627
2015-02-25,1,0.00113055194958366,0.001176614306617646,-8.523164344812567e-05,0.0,0.992488779560218
2015-02-27,1,0.0013268457342341048,0.0013967536953630392,-0.001278949335135311,0.0,0.9922956529670269
2015-03-03,1,0.0009037644942288959,0.0009225311239269734,-0.001278949335135311,0.0,0.9925914601961366
2015-03-05,1,0.0009990375434342413,0.0010164237063501312,-0.001278949335135311,8.66976669674396e-05,0.9914164526430391
2015-03-09,1,0.0008847335409973895,0.0009145512818411563,-0.001278949335135311,8.66976669674396e-05,0.9936267866663802
2015-03-11,1,0.0004984857492428051,0.0005850448307983217,-8.523164344812567e-05,0.005006375664003369,0.9935122161094214
2015-03-13,1,0.0006543867040787552,0.000761768935561614,-0.0010240703764357465,0.001083248454232941,0.9945117797844689
2015-03-17,1,0.000914718348714385,0.0009585509099538109,-0.007093806279300217,0.001083248454232941,0.9934850516603131
2015-03-19,1,0.000913729469869146,0.0009454049748632393,-0.008172934471340198,0.001083248454232941,0.9927093129190764
2015-03-23,1,0.0008016680379482426,0.0008464586075826854,-0.008172934471340198,0.001083248454232941,0.9933597507974024
2015-03-25,1,0.000517743401664263,0.0005834735652844109,-0.004347345252746621,0.001083248454232941,0.9940902191238763
2015-03-27,1,0.0003958625335891519,0.0004558964902526421,-0.0018625964414759524,0.0008231554533306221,0.9945874756023405
2015-03-31,1,0.00042954121179377357,0.00047620466185037294,-0.0018625964414759524,0.003720100717088089,0.9941187451544351
2015-04-02,1,0.0008018382383467448,0.0008046225553842609,-0.004177142332477015,0.003720100717088089,0.9944672613760053
2015-04-07,1,0.0008720277353911665,0.000886187374046937,-0.004234942204758509,0.0008231554533306221,0.9948896439212139
2015-04-09,1,0.0011769029755252743,0.0012391310530463179,-0.007513248009268208,0.0,0.9947883266816773
2015-04-13,1,0.0009934109848676656,0.001027721765242759,-0.007513248009268208,0.0,0.9950698466309239
2015-04-15,1,0.00046051775773708404,0.0004958925484669667,-0.0018818630655697839,0.0,0.9963485866895353
2015-04-17,1,3.1367077901055967e-06,9.510782662731286e-05,-0.00036474033179486096,0.0,0.9974426069144147
2015-04-21,1,2.921016328560032e-05,0.00012121007729014224,-0.00036474033179486096,0.0,0.9954611242014517
2015-04-23,-1,-0.0002199704238243825,-7.869002170294724e-05,-0.0018818630655697839,0.0,0.9950519781038762
2015-04-27,-1,-0.00015423261722899336,-3.7552115903493396e-05,-0.004234942204758509,0.0,0.9944750735308231
2015-04-29,-1,-0.0002744430466599626,-0.00011966373160950057,-0.004234942204758509,0.0,0.9945677335253551
2015-05-01,-1,-0.00016288895769659832,-3.709173889339374e-05,-0.0007876420701852009,0.0,0.9947278069946544
2015-05-05,-1,-0.000787036044386022,-0.0005667489043440207,0.0,0.0034361334821362112,0.9944895831834293
2015-05-07,-1,-0.0011876187629500253,-0.0009088991770916115,0.0,0.0034361334821362112,0.9939282473232424
2015-05-11,-1,-0.0014993343334321963,-0.0011661367585260565,0.0,0.004190506266779272,0.9933650534403979
2015-05-13,-1,-0.0012892082788638773,-0.0010036206988860079,0.0,0.004636491908273744,0.9927136744881744
2015-05-15,-1,-0.0011139473455300543,-0.0008684901110602877,0.0,0.004636491908273744,0.9927921247985173
2015-05-19,-1,-0.0008641873661385604,-0.0006870515368132973,-0.0012942823366196806,0.004190506266779272,0.9943673215677677
2015-05-21,-1,-0.0008879243640914123,-0.000722588350316376,0.0,0.004636491908273744,0.9943323193897565
2015-05-26,-1,-0.0012589468832306353,-0.0010419001163793741,0.0,0.004636491908273744,0.9946753839165285
2015-05-28,-1,-0.0013991835108205742,-0.0011433916577267304,0.0,0.004335370051695165,0.9949834564390541
2015-06-01,-1,-0.000557772316380521,-0.00045051477466688034,0.0,0.0010225330786466033,0.9960366589555207
2015-06-03,1,1.7036450823654592e-05,2.4651841344546784e-05,0.0,0.0,0.9948256226457411
2015-06-05,1,3.426474185045199e-05,4.380859227027102e-05,0.0,0.0,0.9955117408346666
2015-06-09,1,1.2121287035050826e-07,3.875329523547268e-06,0.0,0.0,0.9959139201489798
2015-06-11,-1,-9.576599274738971e-06,-7.603128348376546e-06,0.0,0.0,0.9960994437760351
2015-06-15,-1,-8.0326422078426e-06,-7.439239515473212e-06,0.0,0.0,0.9960996693129962
2015-06-17,1,1.6820169154607027e-06,3.6021142854659247e-06,0.0,0.0,0.9969234343585616
2015-06-19,0,-1.7057256023828402e-07,2.644254843107819e-06,0.0,0.0,0.9966049663942861
2015-06-23,-1,-2.788624813243908e-06,-1.4439374731337877e-06,0.0,0.0,0.9966044236204271
2015-06-25,1,8.598825638320273e-06,1.628328920010973e-05,0.0,0.0,0.994854023983151
2015-06-29,0,-2.6781470474172407e-06,1.7709153810207896e-06,0.0,0.0,0.9942107690145389
2015-07-01,1,1.4293574668513446e-05,1.9181469051228378e-05,0.0,0.0,0.9959796012223869
2015-07-06,1,0.00037799581401127673,0.00039445750151576416,0.0,0.004988984680164992,0.994901649481187
2015-07-08,1,0.00032956015736551294,0.0003525651138991185,0.0,0.004988984680164992,0.9949223951743031
2015-07-10,1,0.00024531843219063876,0.00026622660003974933,0.0,0.008751167542917406,0.9940045947306034
2015-07-14,1,0.0002513829267856093,0.0002738270369039131,0.0,0.008751167542917406,0.9932967370951752
2015-07-16,1,0.00018046049906129085,0.0002137805346237667,0.0,0.008751167542917406,0.9933087894006134
2015-07-20,1,0.00014723679539435056,0.0001829166298223977,0.0,0.008751167542917406,0.9927794497478777
2015-07-22,1,9.643618017058574e-05,0.0001380646110279006,0.0,0.011311697221653634,0.9921911745760942
2015-07-24,1,0.00013327010314511073,0.00017241087088577475,0.0,0.008751167542917406,0.9916402514553091
2015-07-28,-1,-0.00011871973512106146,-8.38521331170352e-05,0.0,0.007871496788183413,0.9907554087296391
2015-07-30,-1,-0.00010269774122282485,-7.382688587448029e-05,0.0,0.011311697221653634,0.9881468562256895
2015-08-03,1,9.145411091969918e-05,0.00010084949435884823,0.0,0.008953712194266732,0.9890928705441876
2015-08-05,1,0.000255336257831793,0.0002837435042213839,0.0,0.009863862864917371,0.9886360970133315
2015-08-07,1,0.0004233439519135332,0.00047345280971932465,0.0,0.009863862864917371,0.988755992136388
2015-08-11,1,0.0005643821479729969,0.00063240099766052,-0.0003123946444555658,0.009863862864917371,0.9893205165546907
2015-08-13,1,0.0005747840524099566,0.0006454873057261089,-0.002614197512235774,0.009863862864917371,0.9888253733304023
2015-08-17,1,0.0007088060183420704,0.0007887695917143173,-0.002614197512235774,0.0029633492074489865,0.9899192546780706
2015-08-19,1,0.0007718288162173773,0.0008511321891268176,-0.002614197512235774,0.009411630515825109,0.9887636272049013
2015-08-21,1,0.00021658651793015105,0.00022278876988808094,-0.002614197512235774,0.009411630515825109,0.9894856379907877
2015-08-25,1,2.3728300496107022e-05,2.7269026859029364e-05,-0.0003123946444555658,0.009411630515825109,0.9901273418951705
2015-08-27,1,0.0006226390542205401,0.0007008965490886121,-0.0003123946444555658,0.005505334567272974,0.9927902490898434
2015-08-31,1,0.0006574606375109209,0.0007475864402539508,-0.003456716971506041,0.005505334567272974,0.9922097990854455
2015-09-02,1,0.000703796456411871,0.00079742002582474,-0.003456716971506041,0.0018875195155768354,0.9925649783864243
2015-09-04,1,0.0005769102206422557,0.0006420800197828303,-0.0003123946444555658,0.0018875195155768354,0.9919862071140949
2015-09-09,1,0.00046011740115644775,0.0004999469698755003,0.0,0.005505334567272974,0.9912875209482077
2015-09-11,1,0.00038062761098901153,0.00041072183059336016,0.0,0.00849552201574813,0.9909326130269298
2015-09-15,1,0.0003604318029534721,0.0003863460749051672,0.0,0.00849552201574813,0.9901821043588718
2015-09-17,1,0.0007406311952619098,0.0008127251480837015,0.0,0.00484877759002704,0.9918267067949895
2015-09-21,1,0.0005613289721578378,0.0006149732660861149,0.0,0.0017323551598488448,0.9932642591768468
2015-09-23,1,0.0004501646899389004,0.00048676161416912414,0.0,0.00041025612829956933,0.994134178489828
2015-09-25,1,0.00034168484861136556,0.00035404122217801387,0.0,0.00041025612829956933,0.9941843190211688
2015-09-29,1,0.00011200690920585276,0.00013369138763432337,0.0,0.0012693628248028554,0.9947290650481145
2015-10-01,1,7.162936885396087e-05,9.923796517189819e-05,0.0,0.0012693628248028554,0.994742979378905
2015-10-05,1,0.0005490040877260539,0.0005792997004832319,0.0,0.00041025612829956933,0.9964896180027287
2015-10-07,1,0.0006866744724699607,0.0007333185444018688,0.0,7.579242432294264e-05,0.9970746176767058
2015-10-09,1,0.0012259646108548983,0.0013701862167171536,-0.002971152237344411,0.0,0.9964934861733008
2015-10-13,1,0.0010440480914791347,0.001155531874370385,-0.0006525526626994416,0.0,0.9973257683911524
2015-10-15,1,0.0008796251620782379,0.000958284708191354,-0.0006525526626994416,0.0,0.9964473696769595
2015-10-19,1,0.0007144071548884235,0.0007788692673772837,-0.0006525526626994416,0.0,0.994947640406796
2015-10-21,1,0.0007241721662411746,0.0007957215472884315,-0.0006525526626994416,0.0007207262588106311,0.9935818475518728
2015-10-23,1,0.0007264221163548282,0.0008027235077606689,-0.002971152237344411,0.00441264246638482,0.9927263449779257
2015-10-27,1,0.0007347999182462528,0.0007974116079954308,-0.002971152237344411,0.009327799911075563,0.9917011514333303
2015-10-29,1,0.0007315784966064299,0.0007976124413419255,-0.002971152237344411,0.010992385489179406,0.991139295880804
2015-11-02,1,0.000702030369016394,0.0007677121044773236,-0.004095210253140958,0.010992385489179406,0.9907545877996505
2015-11-04,1,0.000621831636863679,0.0006756056519557912,-0.008571107330426047,0.010992385489179406,0.990197804090265
2015-11-06,1,0.0002567660922420415,0.0002650068692178471,0.0,0.010992385489179406,0.9911943224265661
2015-11-10,1,0.00027118863076057935,0.00027441731647744326,0.0,0.010992385489179406,0.9911894929178525
2015-11-12,1,0.0005062636492603416,0.000531858220575093,0.0,0.009327799911075563,0.9922238859353272
2015-11-16,1,0.0004334398889918199,0.00044766879101047026,0.0,0.004257254580239799,0.9931350076996965
2015-11-18,1,0.0006063162033540819,0.0006500338475246167,0.0,0.0006899719541038803,0.9930788310648913
2015-11-20,1,0.0005446419987944619,0.0005632200763745755,0.0,7.013885780529839e-06,0.9939846991308523
2015-11-24,1,0.0007351101589512652,0.000776548774305652,0.0,0.0,0.9945216836345481
2015-11-27,1,0.0008072800133786103,0.0008555580512038751,0.0,0.0,0.9950309230124862
2015-12-01,1,0.000516146711233935,0.0005174501033400225,0.0,0.0,0.9948017136888815
2015-12-03,1,0.00030962596738328237,0.00033740477405114357,0.0,0.0,0.9945001292345867
2015-12-07,1,0.00022511073422595306,0.0002630911714354631,0.0,0.0,0.9938263518686047
2015-12-09,1,0.0001987980531770273,0.00022793242052724914,0.0,0.0,0.9912560239297944
2015-12-11,1,0.00013703714927590529,0.00017523161954553513,-0.001343947522243269,0.0,0.9906216797480593
2015-12-15,-1,-0.00020638014005585877,-0.00011543692304026511,-0.0028095424685471242,0.0,0.9904610483930575
2015-12-17,1,0.00013324513923400127,0.00017569744230964501,-0.004701854044298656,0.0,0.9910685527248495
2015-12-21,1,9.566877125850973e-05,0.0001437648103809021,-0.006250642124273195,0.00284149851094858,0.989877754489599
2015-12-23,1,5.726147276469338e-05,9.864874019578091e-05,-0.004701854044298656,0.011420807531536542,0.9882801248062173
2015-12-28,1,4.474846006448054e-06,5.3093559314763654e-05,-0.007392161136576801,0.011420807531536542,0.9869638419412529
2015-12-30,1,0.00033231475702296027,0.0003406172443861452,-0.007392161136576801,0.011420807531536542,0.9864623872843529
2016-01-04,1,0.00010212344397743713,0.00012866481286707667,-0.007095495291338036,0.012561862120415924,0.9854664876347191
2016-01-06,1,0.00022999330319439755,0.00024379561102415742,-0.013497898276705233,0.011420807531536542,0.9841391743936615
2016-01-08,1,0.0011069514303961255,0.0012036848269816438,-0.020083450099112932,0.008382827812988141,0.9821668743787133
2016-01-12,1,0.0008340750268178558,0.0009077079857207321,-0.020083450099112932,0.01231212440186951,0.9812110198630245
2016-01-14,1,4.5549944092079084e-05,8.509245806384271e-05,-0.0199072598067401,0.01231212440186951,0.9814201761733579
2016-01-19,-1,-0.00013744314904822928,-5.0225345134912174e-05,-0.0199072598067401,0.016880261316447074,0.9805238330877715
2016-01-21,1,0.0001306891466708018,0.00014615439210445414,-0.0199072598067401,0.016880261316447074,0.9816848358281635
2016-01-25,1,0.00043157245598661524,0.0004524021557146087,-0.0199072598067401,0.0045733273250804654,0.98297570429142
2016-01-27,1,0.00024285652773084113,0.00024468254522976376,-0.014313585024253051,0.004205613123894597,0.9840305652905715
2016-01-29,1,0.0004507521736644384,0.0004747989413641078,-0.014313585024253051,0.004205613123894597,0.9838373926043036
2016-02-02,1,0.0005527750218142346,0.000589308268825934,-0.014313585024253051,0.003278113709761039,0.9853987471423717
2016-02-04,1,8.531555429054519e-05,0.00010025707783929191,-0.007782820437356017,0.01171025538078773,0.9840104885086829
2016-02-08,-1,-0.0005278383048822042,-0.0004353922619192248,-0.004100474083432697,0.01171025538078773,0.9865100939987358
2016-02-10,-1,-0.00013004679847565022,-9.574083322327795e-05,-0.004100474083432697,0.0010706066529603344,0.9884173869706289
2016-02-12,-1,-0.00038694701945084686,-0.00031515936587427377,-0.0023484666761134304,0.0034992277228298382,0.9888181607282535
2016-02-17,-1,-0.00019062094122470705,-0.00013949632334420479,-0.0023484666761134304,0.007564486064842397,0.9892971070783098
2016-02-19,-1,-0.002311319582441066,-0.0021214619163043586,-0.0023484666761134304,0.007564486064842397,0.9885238748272026
2016-02-23,-1,-0.0021480568656828173,-0.0019790586350767114,-0.0004978977942297975,0.01111628456455662,0.987868966055805
2016-02-25,-1,-0.0020025567562373327,-0.0018549856065461592,0.0,0.01111628456455662,0.9879832623157915
2016-02-29,-1,-0.0026999654599660717,-0.002471197957899218,0.0,0.00938599657134172,0.9884946571001894
2016-03-02,-1,-0.002634216018135369,-0.0024184347779903546,0.0,0.007098899599738246,0.9886983517775748
2016-03-04,-1,-0.003334001765448754,-0.003036610091099629,0.0,0.0062541814467803585,0.9903662373843753
2016-03-08,-1,-0.0033099077494132905,-0.0030151493803897284,0.0,0.007098899599738246,0.98744715238121
2016-03-10,-1,-0.0012654989368542193,-0.0011575458729485857,0.0,0.009719525169244165,0.9877094573254348
2016-03-14,-1,-6.251294239909737e-05,-4.518118070863571e-05,-1.0217072012641387e-05,0.007098899599738246,0.9888468993683692
2016-03-16,1,4.171425737915465e-05,4.713234687586868e-05,-0.00019399241187956665,0.006193879585025457,0.9891841228870595
2016-03-18,1,2.9035194288210844e-05,3.6130640933865803e-05,-0.00019399241187956665,0.006193879585025457,0.98908720819741
2016-03-22,-1,-0.0010316683183911584,-0.000960840499129507,-0.00019399241187956665,0.0031283684083794816,0.9897641412162881
2016-03-24,-1,-0.0009462552330915589,-0.0008879417551408951,-0.00019399241187956665,0.0031283684083794816,0.989866114159144
2016-03-29,-1,-0.0008706311097259972,-0.0008236417204027506,-0.00019399241187956665,0.0005282062373427079,0.9903407613758454
2016-03-31,-1,-0.0007895656620475206,-0.0007543979536033568,-1.0217072012641387e-05,0.0,0.9906519534744482
2016-04-04,-1,-0.0008079259158140366,-0.0007717993065932604,0.0,0.0,0.9919625562932836
2016-04-06,-1,-0.0013525199303160366,-0.0012560278164307972,0.0,0.0,0.996062439031123
2016-04-08,-1,-0.0012900575881529277,-0.0012014009830021858,0.0,0.0,0.9976070703353831
2016-04-12,-1,-0.0013666611974218667,-0.0012744177441064463,0.0,0.0,0.9962360404424754
2016-04-14,-1,-0.0012634949876007917,-0.0011831817338751433,0.0,0.0,0.9971578842553849
2016-04-18,-1,-0.0011459385360032541,-0.0010824783127098417,0.0,0.0,0.9973376093644807
2016-04-20,-1,-0.0011035074388314964,-0.0010513119021129476,0.0,0.0,0.9958118239295121
2016-04-22,-1,-0.0010027821675901488,-0.0009632932307845087,0.0,0.0,0.9958637321742713
2016-04-26,-1,-0.0008942436726174815,-0.0008695394038092663,0.0,0.0,0.9952193989997375
2016-04-28,-1,-0.0007892732920762209,-0.000778713420635105,0.0,4.639751826613182e-05,0.9946360334997705
2016-05-02,-1,-0.0006867636180858488,-0.000681095029480594,0.0,4.639751826613182e-05,0.9933007634305047
2016-05-04,-1,-0.0006855075823508786,-0.0006599103927301261,-0.0006927662088652367,0.0010395101731163214,0.992417843987989
2016-05-06,-1,-0.0005763532800190854,-0.0005316143837139883,-0.0028723966620933165,0.0034853411822656664,0.9922142902029513
2016-05-10,-1,-0.0006720877777325121,-0.000626422558142075,-0.004488585464312405,0.0034853411822656664,0.9924587330470677
2016-05-12,-1,-0.00064590620089535,-0.0005965264066808166,-0.004488585464312405,0.0034853411822656664,0.992339007141854
2016-05-16,-1,-0.0005237283508525861,-0.000453138537751843,-0.004488585464312405,0.004801798164266798,0.9920543225994994
2016-05-18,-1,-0.0005140816142674761,-0.0004380636010300827,-0.0007940980354976066,0.004865743092497006,0.9927286058760653
2016-05-20,-1,-0.0003943303333386628,-0.00029472792494676973,-0.0007940980354976066,0.004865743092497006,0.992802604837869
2016-05-24,-1,-0.00031718412496132626,-0.0002062773928149906,-0.0007940980354976066,0.004102316190703329,0.9932800921262612
2016-05-26,-1,-0.00025878911038428986,-0.0001390827102207556,-0.004488585464312405,0.0035066561583424025,0.9933197494660022
2016-05-31,-1,-0.0003121749217275444,-0.00018511280683242175,-0.0007940980354976066,0.004102316190703329,0.993759231147057
2016-06-02,1,0.00017121994864967394,0.0001859315984228401,0.0,0.006143668413350796,0.9920681695632507
2016-06-06,1,0.000144869608538523,0.00014825234561163496,0.0,0.006143668413350796,0.9920418339502847
2016-06-08,1,1.9525095991326175e-05,4.932764859340053e-05,0.0,0.00525920051226915,0.9928784666162315
2016-06-10,1,7.872180474847272e-05,9.670136734228442e-05,0.0,0.0057968258308766,0.9925862293174146
2016-06-14,1,0.00011976682113059689,0.00013208954376440978,-0.0002994324969449067,0.00525920051226915,0.9922443000575286
2016-06-16,1,0.00018167680939267734,0.0001971060533168684,-0.0002994324969449067,0.00525920051226915,0.992945007369168
2016-06-20,1,4.513828292950017e-05,5.8681725271883596e-05,-0.0022993313988013105,0.0057968258308766,0.9921297429355651
2016-06-22,1,0.00021956389638377264,0.00024227343148195785,-0.0022993313988013105,0.006196826830878892,0.9920905767744573
2016-06-24,1,0.00019792381258029485,0.00022782359626387353,-0.0002994324969449067,0.006196826830878892,0.992749566836757
2016-06-28,1,0.00015279947945137775,0.00015879561163587537,-0.0002994324969449067,0.00539253417893658,0.9937947395565551
2016-06-30,1,0.00010233866641741184,0.00012211274689687734,-0.0002994324969449067,0.0022101659003698395,0.9965172711687326
2016-07-05,1,0.000201725596204112,0.00020481569297077062,-0.0002994324969449067,0.0,0.9968004817575435
2016-07-07,1,7.525043047463601e-05,9.366699492152446e-05,0.0,0.000583657118660973,0.9969104219274609
2016-07-11,1,0.00017543383524882487,0.0001754402230126171,0.0,0.0,0.9971597468394405
2016-07-13,1,0.00010234188103199739,0.00011279267804774757,0.0,0.0,0.9972546137449007
2016-07-15,1,6.32590096227838e-06,3.436740771913724e-05,0.0,0.0,0.9959554347121093
2016-07-19,0,-1.2887638449919953e-05,2.3692473265695543e-05,0.0,0.0,0.9968115269011742
2016-07-21,1,0.0001030398911579815,0.00012210064055791505,0.0,0.0,0.9967758898638361
2016-07-25,1,0.00010999997176993576,0.00012756375042953974,0.0,0.0,0.9961838261153794
2016-07-27,1,0.0001622942083243456,0.00018408033883306776,-0.0004784512160901237,0.0,0.9958291669708808
2016-07-29,-1,-9.222314259404955e-05,-2.8461915264372427e-05,-0.0004784512160901237,0.0,0.9959386410405645
2016-08-02,-1,-0.0001395768236511584,-6.90426033366807e-05,-0.0004784512160901237,0.0,0.9958143634552862
2016-08-04,0,-4.639799472544779e-05,9.568470536718503e-06,-0.0014633201559643508,0.0,0.9961868827473686
2016-08-08,1,3.654461641822641e-05,7.280643324446898e-05,-0.00032828964662474236,0.0,0.9960519352156352
2016-08-10,-1,-0.00014002990563753945,-8.193740171119591e-05,-0.00032828964662474236,0.0,0.9960769960128738
2016-08-12,1,6.010565830121631e-05,8.377797783554449e-05,0.0,0.0,0.9971557393484314
2016-08-16,1,3.234900373306403e-05,5.967053043164398e-05,-0.00032828964662474236,0.0,0.99624004379924
2016-08-18,1,4.4177791167150545e-06,2.8278165327189617e-05,-0.00032828964662474236,0.0005299941721500659,0.995057367768656
2016-08-22,1,0.00010155680044753677,0.00011265100807483029,-0.0007371409090587286,0.0,0.995567788180958
2016-08-24,-1,-0.00012706848253275283,-7.50413864686768e-05,-0.0001362837541446621,0.0,0.9959158978652257
2016-08-26,1,0.0004309343950105631,0.00048310909592262283,-0.0001362837541446621,0.0,0.9956911481670428
2016-08-30,1,0.00044351858451989956,0.000492163784697948,-0.0001362837541446621,0.0,0.9957389417448624
2016-09-01,1,0.00035144316761517706,0.0003823835809480153,-0.0001362837541446621,0.0,0.9950378325791548
2016-09-06,1,0.0003381279163724975,0.00035945741707828964,-0.0001362837541446621,0.0,0.9952056197015098
2016-09-08,1,0.0001227320120889429,0.00012629161967816187,0.0,0.0012181487379863336,0.9944172058270684
2016-09-12,1,0.0002639110260939542,0.00027705758148481607,0.0,0.0,0.9949269159258677
2016-09-14,-1,-2.4014238315806858e-05,-1.2404811329426858e-06,0.0,0.0,0.9960106690686993
2016-09-16,1,6.23902529714108e-05,7.585811784875416e-05,0.0,0.0,0.9967359068235018
2016-09-20,1,3.404592697996942e-05,5.400780628026469e-05,0.0,0.0,0.995144097907477
2016-09-22,0,-2.5315294858138933e-05,4.965122163609704e-06,0.0,0.0,0.9951599816833295
2016-09-26,-1,-5.3499140343167504e-05,-1.9062367769754905e-05,0.0,0.0,0.9938795811328429
2016-09-28,-1,-8.09202195402113e-05,-4.270201581158994e-05,0.0,0.0,0.9938629308760406
2016-09-30,1,0.00034456534976495606,0.0003823464191227955,0.0,0.0,0.9945219247432506
2016-10-04,1,0.0003271704364989778,0.00036201547379850014,0.0,0.0,0.9942103968407319
2016-10-06,1,0.0007736759055901583,0.0008638705625170278,0.0,0.0,0.9953435196823144
2016-10-10,1,0.0004337036297424506,0.00044514719923709076,0.0,0.0,0.9956740683547561
2016-10-12,1,0.0003847570585509977,0.0003878267103977301,0.0,0.0,0.9908566775222941
2016-10-14,1,0.0001297424870426422,0.00013171789207456987,0.0,0.0,0.9906294910276475
2016-10-18,1,0.00041831052425043676,0.0004595403086379596,0.0,0.0,0.9919762070665302
2016-10-20,1,0.00021273010133391305,0.0002163547502118342,0.0,0.0,0.9921712619729368
2016-10-24,0,-7.662238514630364e-06,1.9322284781967528e-05,0.0,0.0,0.9917179071401979
2016-10-26,-1,-3.4414734263293965e-05,-3.3812753043533706e-06,0.0,0.0,0.9917131683934263
2016-10-28,0,-2.289077271868341e-05,5.392127359264375e-06,0.0,0.0,0.9915349972398088
2016-11-01,-1,-8.981342965010228e-05,-5.4016445633288455e-05,0.0,0.0,0.9915602502030586
2016-11-03,-1,-6.740923420019214e-05,-3.8051011249269113e-05,-0.0009407429733317152,0.0,0.9893945423513032
2016-11-07,-1,-0.00014710593837840725,-0.00010370266977732127,-0.0009407429733317152,0.0,0.9893643999600414
2016-11-09,-1,-0.0009139323937707143,-0.00078066249108751,0.0,0.0010938388094776878,0.9929367129708895
2016-11-11,-1,-0.0010252618183558889,-0.0008803316944257602,0.0,0.0014983915066184082,0.9934935424632105
2016-11-15,-1,-0.0011113553617082862,-0.0009507356885019623,0.0,0.006641516269058345,0.9927321152083992
2016-11-17,-1,-0.0009355042413378919,-0.0008053895102862914,0.0,0.008769595326965304,0.9918703064421989
2016-11-21,-1,-0.0002964573493118366,-0.0002611057919093255,0.0,0.006641516269058345,0.9931431475182169
2016-11-23,-1,-0.0002683883044430372,-0.00023861009901080438,-0.0009407429733317152,0.006641516269058345,0.9918992497680084
2016-11-28,-1,-0.00030677900422226194,-0.0002704552708125494,-0.0003765848903920781,0.007121242396434594,0.9916692720956144
2016-11-30,-1,-0.00030733666215132147,-0.0002728781085597914,0.0,0.008743536797489824,0.9911949258026316
2016-12-02,-1,-0.0006186542173034605,-0.0005453661137986978,0.0,0.008743536797489824,0.9928821189738966
2016-12-06,-1,-0.0004258906641983072,-0.0003745262217454599,0.0,0.009506345175251802,0.9893429047975428
2016-12-08,-1,-0.00035205511580869715,-0.0003107858452168446,0.0,0.008743536797489824,0.9894723851722116
2016-12-12,-1,-0.0002767067376796775,-0.00024574615303770293,-0.0003765848903920781,0.008341297474534097,0.989716857010512
2016-12-14,-1,-0.0002070680880072113,-0.00018450126276815722,-0.0003765848903920781,0.00769402784516029,0.9904529105138922
2016-12-16,-1,-0.00011205284456111141,-0.00010071885868975463,-0.002152888477888198,0.006868822603990055,0.9898240418978195
2016-12-20,-1,-0.00019510721219390318,-0.0001742789886758073,-0.002152888477888198,0.006868822603990055,0.9897165166303554
2016-12-22,-1,-0.00020736206361311851,-0.00018472363654286348,-0.0003765848903920781,0.009274440133405478,0.9889925520971252
2016-12-27,-1,-0.00025437370720039217,-0.00022906625759469969,-0.001023133806711964,0.009274440133405478,0.9888648402632074
2016-12-29,-1,-0.0002119220658142559,-0.0001921773828120156,-0.006271708847907542,0.00769402784516029,0.987597880268602
2017-01-03,-1,-0.00017916675949467958,-0.0001598449735868926,-0.006271708847907542,0.009274440133405478,0.9867879712234275
2017-01-05,-1,-0.000215033828148269,-0.00019281720352821592,-0.0043003387204093605,0.00769402784516029,0.9903484119052339
2017-01-09,-1,-0.00014768355593862924,-0.0001333670923383574,-0.005614213311426927,0.003237654208751842,0.9900204025777428
2017-01-11,-1,-0.00019745617467531318,-0.00017748768353194143,-0.004990802830742414,0.013518796094666717,0.9883061015888128
2017-01-13,-1,-0.00020487727846711206,-0.00018762329683186601,-0.004990802830742414,0.013518796094666717,0.9883022594496718
2017-01-18,-1,-0.00012333657479026314,-0.00011639590441047526,-0.006161940334415077,0.012806886710242849,0.9896790712772747
2017-01-20,-1,-0.00028628586103735605,-0.0002615170571212018,-0.003148736267535898,0.013518796094666717,0.9894068669468714
2017-01-24,-1,-2.620479980967572e-05,-1.842167634705118e-05,-0.003148736267535898,0.011643108691997611,0.9913533826690226
2017-01-26,-1,-7.740830442904358e-05,-7.645256873967785e-05,-0.0005784077643110155,0.011643108691997611,0.9918284664559384
2017-01-30,-1,-0.0003047874683129593,-0.0002808237202546045,0.0,0.011643108691997611,0.9925487214626422
2017-02-01,-1,-0.00019831515775023937,-0.00018345078557052452,0.0,0.004721333920699775,0.9937154442420814
2017-02-03,-1,-0.00014820649318642173,-0.00014331358053413541,0.0,0.0061410633438189425,0.993549922672699
2017-02-07,-1,-0.00017010159793764176,-0.00015830935732623645,0.0,0.0030113041353798924,0.994135806498264
2017-02-09,1,0.00012434441837907675,0.00015348141079016118,0.0,0.0003529188892382818,0.9961424281281319
2017-02-13,1,0.00012821388323110052,0.0001578648653934919,0.0,0.0003529188892382818,0.996140582117481
2017-02-15,1,9.788307456014592e-05,0.00012361228113844883,0.0,0.0016932719162998878,0.9954444891933648
2017-02-17,1,0.0002706957609542824,0.00031942295455737084,0.0,0.0,0.9966638613544105
2017-02-22,1,0.00028733612571814674,0.00033829334443160735,0.0,0.0,0.9967455532534565
2017-02-24,1,0.00033111387428366387,0.00039229785824543967,0.0,0.0,0.9967142800801362
2017-02-28,1,0.00018123656023898634,0.0002227875403601852,0.0,0.0,0.9980287000150915
2017-03-02,1,0.0003146119999663018,0.00038796311291011145,0.0,0.0,0.9972186770210684
2017-03-06,1,0.00036079119007435524,0.0004402669702009539,0.0,0.0,0.9973076953751272
2017-03-08,1,0.00030622999434023297,0.00037910223881340035,0.0,0.0,0.9978176222116846
2017-03-10,1,0.00030522798612449975,0.0003763309440842534,0.0,0.0,0.9947761174610015
2017-03-14,1,0.00036406787614173515,0.00044926356514095,0.0,0.0,0.9941321418831047
2017-03-16,1,0.0004943271040189661,0.00059723273777678,0.0,0.0,0.9949951411816853
2017-03-20,1,0.0004380561342850267,0.0005266743284756778,-0.0003691937713121441,0.0,0.9948337916263903
2017-03-22,1,0.00042523286799901435,0.0005100180903979289,-0.0003691937713121441,0.0,0.9947005716544446
2017-03-24,1,0.00043335642449790257,0.0005195149284384604,-0.001167157892150553,0.000982389215839592,0.9943208831816047
2017-03-28,1,0.00042087889239268304,0.0005034110998990687,-0.0015242209935372381,0.000982389215839592,0.9935243703867384
2017-03-30,1,0.0005100606913284827,0.0006045312132314199,-0.0015242209935372381,0.000982389215839592,0.9938031653513489
2017-04-03,1,0.0005043835295600025,0.0005982195045237461,-0.001167157892150553,0.000982389215839592,0.993888183822705
2017-04-05,1,0.0003193699014043005,0.0003569033243044572,-0.00026598804027946964,0.000982389215839592,0.994044477084675
2017-04-07,1,0.0006501503678703004,0.0007203608853273282,0.0,0.004839677814787913,0.994825170212603
2017-04-11,1,0.0006114968875214094,0.0006748102738056005,0.0,0.000982389215839592,0.9954211281851454
2017-04-13,1,0.0005793506615193936,0.0006371282745791187,0.0,0.000982389215839592,0.9954362607620612
2017-04-18,1,0.0006387435652874291,0.0007213831800240581,0.0,0.004839677814787913,0.9949407647353695
2017-04-20,1,0.0006306049637641459,0.0007112798244054581,0.0,0.001892510167269137,0.994844939974437
2017-04-24,1,0.0006401484972854718,0.0007196009490910151,0.0,0.0,0.9951955850586015
2017-04-26,1,0.00044159004505196905,0.000492497641000492,0.0,0.0008136533840792447,0.9950653851603533
2017-04-28,1,0.000307738733622276,0.0003235661474594254,0.0,0.0008136533840792447,0.9946757609552991
2017-05-02,1,0.0002791354022511438,0.00029004459621452387,0.0,0.0008136533840792447,0.9946892066294803
2017-05-04,1,0.00032538660052890464,0.000346885766736492,0.0,0.010403739939402173,0.9936810016997217
2017-05-08,1,0.0005519840310700682,0.0006073155501174,0.0,0.0008136533840792447,0.9949414974179439
2017-05-10,1,0.0005244774290029835,0.0005811906853596216,0.0,0.004974134301416707,0.9936509025061343
2017-05-12,1,0.0005329428332666675,0.0005965100244543109,-0.0011257650971090367,0.004974134301416707,0.9930655075574858
2017-05-16,1,0.0005265840233692839,0.0005848673446941364,-0.0028716836754587582,0.0008136533840792447,0.9936340855923613
2017-05-18,1,0.0003325222171735628,0.00035706339877845955,-0.0005819728594499072,0.0008136533840792447,0.9939474576309811
2017-05-22,1,0.0003069436727355363,0.00032918679874846654,-0.0005819728594499072,0.0008136533840792447,0.9939597641096771
2017-05-24,1,0.00025332116789469753,0.00027102630567221503,0.0,0.0,0.9950577269063235
2017-05-26,1,0.0002736007320776574,0.0002994127152323908,-0.00046027554727592977,0.0,0.994550248983902
2017-05-31,1,0.0002134559175250848,0.00022050972071530194,-0.0019627995012776967,0.002533174149178974,0.9933855432552214
2017-06-02,1,0.00044287670918793584,0.00046870842954354556,-0.0019627995012776967,0.000579464616505638,0.9914958835405765
2017-06-06,1,0.00029409706825142605,0.0002977207082055415,-0.0019627995012776967,0.000579464616505638,0.9917209455600935
2017-06-08,1,0.0002548247192820992,0.00025764579962332576,-0.00046027554727592977,0.000579464616505638,0.9927761010465426
2017-06-12,1,0.0002446193138311132,0.0002465225253758469,0.0,0.000579464616505638,0.9933643549022445
2017-06-14,1,0.00014118256348408844,0.00017358357401859686,0.0,0.00336430438521871,0.9922919846872504
2017-06-16,1,0.00026368111857363126,0.0002670934797562687,0.0,0.00452775207967127,0.9920726453987007
2017-06-20,1,0.0001659687642241872,0.00017782156732224654,0.0,0.00452775207967127,0.9921042298080437
2017-06-22,-1,-6.459884171420275e-05,-7.489355532782043e-06,0.0,0.00452775207967127,0.9917762283919395
2017-06-26,1,0.00017406879787754907,0.00019532527469682422,0.0,0.0027056743641734053,0.9930833949878375
2017-06-28,1,0.0001302680656202143,0.00015933960057568086,0.0,0.000579464616505638,0.9943077524632228
2017-06-30,1,0.0004935991660991303,0.0005107887145844959,0.0,0.0,0.9968730219777096
2017-07-05,1,0.000420583238720926,0.00044809182661745056,0.0,0.0,0.9975362197238384
2017-07-07,1,0.0004425019243048782,0.0004700817446372694,0.0,0.0,0.9967667614349796
2017-07-11,1,0.0004172008988077069,0.00043565809793934105,0.0,0.0,0.9964652832827676
2017-07-13,1,0.0005158975838910438,0.0005610333574622288,0.0,0.0,0.9976075279124232
2017-07-17,1,0.0005074401756316006,0.0005510171328268805,0.0,0.0,0.9977505898609461
2017-07-19,1,0.0004752451644292328,0.0005131490100333478,0.0,0.0,0.9977814127804878
2017-07-21,1,0.0003500082428841819,0.00036079824048909994,0.0,0.0,0.9982785068060437
2017-07-25,1,0.00031178998821842975,0.00031602820675140554,0.0,0.0,0.9977680921956378
2017-07-27,1,0.00029465586379125023,0.00029662769830297907,0.0,0.0,0.9976597152995419
2017-07-31,1,0.00021575489258590321,0.0002285050640814462,0.0,0.0,0.9977202861430344
2017-08-02,1,0.00037727360275208996,0.0003797598832020899,0.0,0.0,0.9975938266585379
2017-08-04,1,0.0003800471925446067,0.0003838929727709568,0.0,0.0,0.9986233033504978
2017-08-08,1,0.0003652992448199028,0.00037000174152106337,0.0,0.0,0.997681845567479
2017-08-10,1,0.0003076494429922927,0.00032159854443306203,0.0,0.0,0.9977258161299662
2017-08-14,1,0.0002444280052932742,0.00026750047209008187,0.0,0.0,0.9977742538673348
2017-08-16,1,0.00018311486436183128,0.0002155441246730919,0.0,0.0,0.9978211273847727
2017-08-18,1,0.0001203043142648927,0.00016194902208072347,0.0,0.0,0.997869227763105
2017-08-22,1,1.8863650034974672e-06,4.132219933972327e-05,0.0,0.0,0.9985342566297585
2017-08-24,-1,-6.353995484494144e-05,-1.4519369794043207e-05,0.0,0.0,0.9986200904491422
2017-08-28,-1,-0.00011566002419097888,-5.720765949427414e-05,0.0,0.0,0.9976651311693132
2017-08-30,1,3.6078674942624626e-05,5.025808661653232e-05,0.0,0.0,0.99768567361646
2017-09-01,1,3.976078784292867e-05,5.2963349082818574e-05,0.0,0.0,0.997682715361729
2017-09-06,1,0.00013942497927623982,0.00014165235855411964,0.0,0.0,0.998904755516364
2017-09-08,1,0.00010411798822616624,0.00011210717502190424,0.0,0.0,0.9961438051210304
2017-09-12,1,9.523142191726584e-05,0.00010518011880939428,0.0,0.0,0.9959934527089469
2017-09-14,1,8.876439565464469e-05,9.879476778853898e-05,0.0,0.0,0.9957365755856665
2017-09-18,1,1.7568964984290112e-05,4.039184772417635e-05,0.0,0.0,0.9957956704973444
2017-09-20,1,1.5677088262311894e-05,3.764905117155235e-05,0.0,0.0,0.9946187150858415
2017-09-22,0,-1.182012051159287e-05,1.296538462118582e-05,0.0,0.0,0.994651136428314
2017-09-26,-1,-0.00012186019533660148,-8.341941044503973e-05,0.0,0.0,0.9954987882286486
2017-09-28,-1,-1.6683002797949876e-05,-9.036008993000666e-07,0.0,0.0,0.9955099633673283
2017-10-02,-1,-3.080500360686087e-05,-1.2953647921575471e-05,0.0,0.0,0.9955000114182001
2017-10-04,-1,-6.418853523846672e-05,-3.6449293619367944e-05,0.0,4.705092486213235e-05,0.9941312680764943
2017-10-06,1,0.0002908641523860641,0.00030971238508355594,0.0,0.0,0.9967744512769283
2017-10-10,1,0.0002474495930569381,0.0002580415162451367,0.0,0.0,0.9969631812216164
2017-10-12,1,0.00018388828835055296,0.00018511804005948046,0.0,0.0,0.9972711749610733
2017-10-16,1,0.00013026890654997211,0.00014852303756156585,0.0,4.705092486213235e-05,0.9967070747735945
2017-10-18,1,0.00034074532982656227,0.00035526368420733286,0.0,0.0,0.9968161116483788
2017-10-20,1,0.00028709826293755883,0.00029521634711514246,0.0,0.0,0.9968445951103772
2017-10-24,1,0.00034753840940214423,0.0003695581492883219,0.0,0.0,0.9968014285175766
2017-10-26,1,0.0002741051977987703,0.00027813165168266653,0.0,0.0,0.996039404251831
2017-10-30,1,0.00026599810008769305,0.0002675902605474131,0.0,0.0,0.9960564551391721
2017-11-01,1,0.00037851263062449496,0.0003849617250310158,0.0,0.0,0.9966159454765632
2017-11-03,1,0.00032186870996091184,0.0003255303371923181,0.0,0.0,0.9961970716634665
2017-11-07,1,0.00026876482321393317,0.0002803693262309072,0.0,4.586386024405103e-05,0.9961266619101198
2017-11-09,1,0.00021455747634567724,0.0002340807839780719,0.0,0.0001941561189197238,0.995809653977688
2017-11-13,1,0.00026088782588895896,0.00027604553455841895,0.0,4.586386024405103e-05,0.9963647492958542
2017-11-15,1,0.00018519555251242728,0.00020332936333632417,0.0,0.0008703793275889707,0.9961838628026842
2017-11-17,1,0.00011549106212105565,0.00013891611062288764,0.0,0.002588317933005095,0.9958700978182105
2017-11-21,1,0.000408027459856934,0.00043882076929571093,0.0,0.002588317933005095,0.9957697624263188
2017-11-24,1,0.0004780014719403951,0.0005095541940383174,0.0,0.002588317933005095,0.9964727085586733
2017-11-28,1,0.00047641684485081844,0.0005094898061867945,0.0,0.002588317933005095,0.9964624702764958
2017-11-30,1,0.0002948442789073688,0.0003049863318716857,0.0,0.0028201389342883947,0.9960997885741106
2017-12-04,1,0.000245195618247469,0.0002639608886728351,0.0,0.0028201389342883947,0.9964944723023086
2017-12-06,1,0.0003431399001183643,0.0003715498190293449,-0.0004395537324004433,0.0026057140151884554,0.9952741978602819
2017-12-08,1,0.0003222484561470978,0.00034988401314647215,-0.002047293224134215,0.0026057140151884554,0.9941109480703978
2017-12-12,1,0.00028560181344821506,0.0003030940086581176,-0.003249037606278637,0.0037843511218392757,0.9935553999023748
2017-12-14,1,0.00044657863287347367,0.0004841815780084988,-0.003249037606278637,0.0016378090431270077,0.9945868170822698
2017-12-18,1,0.00039779190188928633,0.00042796064737860647,-0.0024641258058862438,0.0003361994343780207,0.9947978679210951
2017-12-20,1,0.0003635588972478908,0.00038833427107246986,-0.003249037606278637,0.0015866820037977831,0.9943924780644493
2017-12-22,1,0.0003557097050190882,0.00037830955903519754,-0.003249037606278637,0.0003361994343780207,0.9944997345314098
2017-12-27,1,0.00021328228938067214,0.00021682734415334024,-0.003249037606278637,0.0003361994343780207,0.9945674439384669
2017-12-29,1,0.0003215472383108008,0.00033430157013118267,-0.0027986353044333395,0.0,0.9956143126088428
2018-01-03,1,0.00027677366310341594,0.0002823567833519971,-0.0027986353044333395,0.0003361994343780207,0.995377897299421
2018-01-05,1,6.437753000733775e-05,9.581054741871308e-05,-0.0005784979263177861,0.0003361994343780207,0.9956537674645183
2018-01-09,-1,-6.395361673264307e-05,-1.4606118332787378e-05,0.0,0.0003361994343780207,0.997112354885882
2018-01-11,-1,-7.086389144736474e-05,-1.8037081324679755e-05,-0.0005784979263177861,0.0,0.995271220358656
2018-01-16,0,-1.7990626602793383e-05,1.9212533565894136e-05,-0.0005784979263177861,0.0,0.9941331645921778
2018-01-18,-1,-9.19424268620373e-05,-4.384497147888862e-05,0.0,0.0005780837006637209,0.9929262364272883
2018-01-22,-1,-0.00016352070931531027,-0.00010830350293119151,0.0,0.0,0.9933297625021177
2018-01-24,-1,-0.00019669957861651963,-0.00013659821848780774,0.0,0.0,0.9933098267991604
2018-01-26,-1,-0.00023551707887300332,-0.00016894233582757581,0.0,0.0006212008152048179,0.9930833451955047
2018-01-30,-1,-0.00011754615474975091,-7.569455103872136e-05,0.0,0.0027585514028540805,0.9926661014445942
2018-02-01,-1,-6.979289785243983e-05,-3.271290730651446e-05,0.0,0.0006212008152048179,0.9930720752008007
2018-02-05,-1,-0.00031548061939127875,-0.00024900801176069355,0.0,0.0027585514028540805,0.9935607678676481
2018-02-07,-1,-0.00031521737538885933,-0.0002480715930691256,0.0,0.0010595666032097105,0.993675900893759
2018-02-09,-1,-0.0008118148240675552,-0.0006862916949405119,0.0,0.0053379247386179,0.9935772246790708
2018-02-13,-1,-0.0005091470369154317,-0.00042258184706130705,0.0,0.0010595666032097105,0.9946166525539156
2018-02-15,-1,-0.00030031061934657834,-0.00023776742967375147,0.0,1.3718137164173623e-05,0.9960839409155869
2018-02-20,-1,-0.0004201117112620431,-0.0003349263822316513,0.0,1.3718137164173623e-05,0.9959893275666543
2018-02-22,-1,-0.00044505490444104545,-0.00035620995633419783,0.0,1.3718137164173623e-05,0.9958141331209038
2018-02-26,-1,-0.0005383958626823198,-0.0004289803554171361,0.0,0.0,0.9944152188240418
2018-02-28,-1,-0.0004484879868082058,-0.0003506322860846585,0.0,0.0,0.9949466471258802
2018-03-02,-1,-0.00014181257229596388,-0.0001060194121089747,0.0,0.0,0.9927381735224742
2018-03-06,-1,-8.559991195940296e-05,-5.4197116862497025e-05,0.0,0.0,0.9932188212534754
2018-03-08,-1,-0.0001390864308826135,-9.803731577856233e-05,-0.003131481020691925,0.0,0.9927592144873443
2018-03-12,1,0.000248568652987389,0.0002525187646482485,-0.004700790923123985,0.0,0.9940499705324125
2018-03-14,1,0.00026494241057574647,0.0002818064561548476,-0.003131481020691925,0.0,0.9945381168344758
2018-03-16,1,0.00024331474810893622,0.0002565965430678379,-0.003131481020691925,0.0,0.9945586102327116
2018-03-20,1,0.00022187540034943894,0.00023139545242026425,-0.003131481020691925,0.0,0.9926527583306546
2018-03-22,1,0.000147153329753921,0.00014906150723701937,-0.0007034674137894032,0.0,0.9929145348015201
2018-03-26,-1,-0.00018772244431011892,-0.00015043247419864667,0.0,0.0,0.993513110706174
2018-03-28,-1,-3.6051425843067376e-05,-2.8938416245347e-05,0.0,0.0,0.9934847809126143
2018-04-02,1,0.00031910654438862125,0.0003575760157958368,0.0,0.0,0.9949519413693744
2018-04-04,1,0.00030171167577786327,0.00033744419049301687,0.0,0.0,0.9949642163341805
2018-04-06,1,0.0002207706511190807,0.00024534864513433977,0.0,0.0,0.9954849798239553
2018-04-10,1,0.00018476434945186187,0.00020981206885273954,0.0,0.0,0.9960307602893042
2018-04-12,1,0.00011052216305605866,0.00011652225646103496,0.0,0.0,0.9960838624847089
2018-04-16,1,0.00010054760442357847,0.0001048255528664554,0.0,0.0,0.9942847851772584
2018-04-18,1,0.00036439937491552566,0.0004039234192653444,0.0,0.0,0.9956554668442867
2018-04-20,1,0.0004257711747365165,0.0004804566988187614,0.0,0.0,0.9952086877665911
2018-04-24,1,0.0002587835730424094,0.00029106408160570966,0.0,0.0,0.9960664772910266
2018-04-26,1,0.00021207565965233822,0.00023126020234199573,0.0,0.0,0.9961823007583278
2018-04-30,1,0.0002412140255403891,0.00026047148575390804,-0.0018045312513303106,0.0,0.995244502408364
2018-05-02,1,0.0002299940821298515,0.0002485667132065659,-0.0018045312513303106,0.0,0.9943846890664408
2018-05-04,1,0.00023016086828754373,0.0002517807983312938,-0.0018045312513303106,0.0,0.9939379306950792
2018-05-08,1,0.00021416282329660466,0.00023321042774466442,-0.0018045312513303106,0.0,0.993443961328668
2018-05-10,1,0.000254786745530933,0.000288230686749722,-0.0018045312513303106,0.0,0.9934204295431155
2018-05-14,1,3.1770935249983756e-05,3.475552383394046e-05,-0.00011868319668615761,0.002385251823080162,0.9947670254920841
2018-05-16,-1,-1.4195020772849926e-05,-1.1419334745258907e-05,0.0,0.002385251823080162,0.9951329122169978
2018-05-18,-1,-7.079185283293666e-05,-6.223140706570267e-05,0.0,0.002385251823080162,0.9944217680081782
2018-05-22,-1,-0.00012803434830525916,-0.00011289653924116295,0.0,0.009832466675112563,0.9929998930656423
2018-05-24,-1,-3.255642051022978e-05,-3.044826360955015e-05,-0.00011868319668615761,0.009832466675112563,0.992585729027674
2018-05-29,-1,-3.0435398861532052e-05,-2.8354917183539045e-05,-0.00011868319668615761,0.002385251823080162,0.993737199673513
2018-05-31,-1,-5.356282492505883e-06,-2.065919662587207e-06,-0.00011868319668615761,0.002385251823080162,0.9941342914115159
2018-06-04,1,1.4112780046113775e-05,1.689833825763149e-05,-0.0040696665505812555,0.0,0.9909386761794712
2018-06-06,1,9.267951685102389e-05,9.923672996945193e-05,-0.0040696665505812555,0.0,0.9911329108649517
