JNU-Tangyin/eata/results/Batch4_SP500/Batch4_SP500-ISRG.csv
Date,Action,Predicted_Q25,Predicted_Q75,Actual_Q25,Actual_Q75,RL_Reward
2010-12-14,0,-0.0005244762441557033,0.0,-0.007316480655595688,0.011435870422119656,0.9873638123491892
2010-12-16,1,0.0011497961450422072,0.001727147987983294,-0.007316480655595688,0.011435870422119656,0.9872662994200254
2010-12-20,1,0.002027737508970595,0.002666344161121153,-0.009648188769903122,0.011435870422119656,0.9860855476642862
2010-12-22,0,0.0,0.0,-0.007316480655595688,0.018696384534323686,0.981860748203966
2010-12-27,0,0.0,0.0,-0.005231152221588581,0.018696384534323686,0.9818872782274463
2010-12-29,1,0.0005261515894977725,0.0008713437378775016,-0.005915041544912453,0.023131341356951544,0.9811995218934708
2010-12-31,0,0.0,0.0,-0.011115238329777389,0.023131341356951544,0.979803697425988
2011-01-04,0,0.0,0.0,-0.01223073063587708,0.023131341356951544,0.9802519902833093
2011-01-06,0,0.0,0.0,-0.011115238329777389,0.023131341356951544,0.980955241143049
2011-01-10,0,0.0,0.0,-0.011115238329777389,0.023131341356951544,0.9815496084660686
2011-01-12,1,0.0014808859976528515,0.001832884715963375,-0.011115238329777389,0.01359349627168242,0.9833328569011958
2011-01-14,1,0.0011800557587918863,0.0013580732946814355,-0.004962019062452153,0.01359349627168242,0.9840082629458201
2011-01-19,1,0.0006813508475772248,0.0007751098772454245,-0.004903196776921696,0.009458511987887684,0.9854957773599168
2011-01-21,1,0.0027749218579138446,0.0031454479151149135,-0.004903196776921696,0.008395790364435812,0.9904798182747412
2011-01-25,1,0.0037666883211643024,0.004326737277691191,-0.01162759255124142,0.006941995007956531,0.9881890227234111
2011-01-27,1,0.003545907118743182,0.00408925127972061,-0.00979373452392507,0.006941995007956531,0.9889855290267281
2011-01-31,1,0.002566741752663833,0.0029672684263036776,-0.00979373452392507,0.006941995007956531,0.9887610454944737
2011-02-02,1,0.0029462817518388883,0.003398071438960101,-0.004903196776921696,0.00850002109045504,0.9893141974247576
2011-02-04,1,0.003864553068078689,0.004500456415225741,-0.007799349637984146,0.007235535207345803,0.9886442365630526
2011-02-08,0,0.0,0.0,-0.007799349637984146,0.0072148453858616075,0.9890657974867141
2011-02-10,0,0.0,0.0,-0.00979373452392507,0.003829167030063365,0.9887934329700903
2011-02-14,0,0.0,0.0,-0.00979373452392507,0.003829167030063365,0.9895081796909869
2011-02-16,0,0.0,0.0,-0.013005088591623191,0.005852037814855748,0.9888038886533832
2011-02-18,1,0.003828003554439392,0.004355570714472208,-0.013684332987563084,0.006682671283967207,0.9866247940464121
2011-02-23,1,0.0020465608295583454,0.0022824951092941964,-0.010123998683243802,0.006682671283967207,0.9883707504447591
2011-02-25,1,0.002823633934940142,0.0031587515782995138,-0.010123998683243802,0.006682671283967207,0.987561396312968
2011-03-01,1,0.0017198970662456233,0.0019793173358806553,-0.0054826378159466855,0.007784119382939654,0.9896361342856701
2011-03-03,1,0.0028071640407472636,0.0031871677698378674,-0.007833966091541513,0.006682671283967207,0.9898645049682946
2011-03-07,1,0.0021706223753245432,0.002432798162015745,-0.005938018503937139,0.007616174490248372,0.988847489366919
2011-03-09,1,0.0014401554351741192,0.001529121528668526,-0.005938018503937139,0.014508472821727073,0.986917348046148
2011-03-11,1,0.0016725019322647303,0.001875761302331765,-0.005938018503937139,0.015835056199997328,0.986394967859012
2011-03-15,1,0.0008929885259483508,0.0009206178212919525,-0.009863140793510014,0.015835056199997328,0.9856464872770233
2011-03-17,0,0.0,0.0,-0.009602111555127135,0.015835056199997328,0.9861229889509561
2011-03-21,0,0.0,0.0,-0.009522471064431229,0.014508472821727073,0.9871029542577721
2011-03-23,-1,-0.02193797931643755,-0.018940266620058595,-0.008732688288579656,0.015835056199997328,0.9739609383118034
2011-03-25,0,0.0,0.0,-0.011069150992352797,0.014508472821727073,0.9864668258292363
2011-03-29,0,0.0,0.0,-0.011069150992352797,0.01071686823692909,0.9867966396133006
2011-03-31,0,0.0,0.0,-0.011069150992352797,0.01071686823692909,0.9869757466556651
2011-04-04,1,0.0029970550228939803,0.0033309947744702504,-0.011069150992352797,0.010321916392199341,0.9878092374044286
2011-04-06,1,0.004442312385644155,0.00492780739166742,-0.01210209472184244,0.005235882193852862,0.9883555465980018
2011-04-08,1,0.0038942699625409186,0.004261526767367376,-0.011319007006693802,0.005235882193852862,0.9892304536915761
2011-04-12,1,0.003119935004397549,0.0033249121167712135,-0.011710624532931296,0.005235882193852862,0.9890325217991607
2011-04-14,1,0.0017575319409032632,0.0018101214720455392,-0.014074241811515582,0.008878477504893035,0.9883682965645361
2011-04-18,1,0.001194323057354256,0.0012927065039113905,-0.014781084495127883,0.008878477504893035,0.9884043553307955
2011-04-20,1,0.0019611439720249265,0.0019702630835222597,-0.014781084495127883,0.0077190545485973944,0.989330231671011
2011-04-25,1,0.0012047411639864655,0.0012372473624078124,-0.014152299983804118,0.0077190545485973944,0.989448737467281
2011-04-27,1,0.0015063026206559938,0.0015348258737607463,-0.014152299983804118,0.00844093859557725,0.9891584513517013
2011-04-29,1,0.0007616851761790116,0.0008153886478791346,-0.013246141273226437,0.00844093859557725,0.9899342603537431
2011-05-03,1,8.220934228340179e-05,0.00027753199709049895,-0.013246141273226437,0.00844093859557725,0.9897267435909821
2011-05-05,-1,-0.00043803121245306043,-0.00017473009666924358,-0.011654657754477242,0.00844093859557725,0.9904789188185461
2011-05-09,1,0.0005063798771156695,0.0006550823303010933,-0.011654657754477242,0.00844093859557725,0.9905999619613645
2011-05-11,1,0.00014876072831735256,0.0003169360663228052,-0.008542441656193571,0.003761940675185685,0.9918659051660159
2011-05-13,1,0.0003656875352318869,0.00048266088835919875,-0.008482978829983083,0.0037438715636319555,0.9924150494692119
2011-05-17,-1,-0.0005529548900506341,-0.0002869513220088236,-0.008482978829983083,0.008119036430472563,0.9920753958733147
2011-05-19,-1,-0.0008505943060248153,-0.0005256347093584271,-0.008482978829983083,0.008386731260916061,0.9919905709429865
2011-05-23,-1,-0.002083874775009387,-0.0015902370670185944,-0.005696623827238211,0.009795955666386792,0.9920596918374894
2011-05-25,-1,-0.002279187486767265,-0.001750044903864077,-0.005696623827238211,0.008938663840395116,0.9922510321913793
2011-05-27,-1,-0.0016963666237823484,-0.001304070682985629,-0.0072231216415124845,0.01168786328883483,0.9903542003285412
2011-06-01,-1,-0.0020750917515956957,-0.001608267448769929,-0.005696623827238211,0.01168786328883483,0.989706895317401
2011-06-03,-1,-0.0021337974581981676,-0.0016827580170924589,-0.001463090634453365,0.013388406715074967,0.9884023630730273
2011-06-07,-1,-0.0012423033467894701,-0.0009480849842629786,-0.0004818870973784258,0.012680077063042354,0.9893044144739446
2011-06-09,-1,-0.0011221520837244826,-0.0008869353241528923,-0.0004818870973784258,0.012680077063042354,0.9878958094850668
2011-06-13,-1,-0.0012818033242799525,-0.0010163052086491447,-0.004265192711261318,0.012680077063042354,0.9873422457194169
2011-06-15,-1,-0.0011145182308087318,-0.0008974612375699193,-0.0033761541587040093,0.01041582906535085,0.9882250316286971
2011-06-17,-1,-0.0003752792689457652,-0.0002727111421903528,-0.0033761541587040093,0.009813011633569943,0.9881279849182396
2011-06-21,1,0.0005104549666635572,0.0005115684546354041,-0.0033761541587040093,0.011946768864503273,0.9848354957374212
2011-06-23,1,9.069879825089253e-06,0.00013145039878360447,-0.010460616855171008,0.019574808737113536,0.9819432787759673
2011-06-27,1,0.000755384120971483,0.0007637887650045136,-0.00971510657515255,0.011946768864503273,0.9834080322417752
2011-06-29,1,0.0016051264022772247,0.0017301079455513029,-0.01089120167278756,0.009813011633569943,0.9837416640428481
2011-07-01,1,0.0026544638552946967,0.0029266322131986876,-0.013285049141767463,0.008394562625848985,0.9826683482252584
2011-07-06,1,0.002783959369512874,0.0031006042885812594,-0.014330974247714756,0.008394562625848985,0.9809635946058503
2011-07-08,1,0.0022185052042063965,0.002491088912505853,-0.014330974247714756,0.008394562625848985,0.9800081134466664
2011-07-12,1,0.0006850077722269374,0.0007210742943726282,-0.014330974247714756,0.014150387993207923,0.9768268625263281
2011-07-14,0,0.0,0.0,-0.017254429019125377,0.02870316681263829,0.973653620825002
2011-07-18,1,0.00032674946393042065,0.0003890193111100871,-0.017254429019125377,0.02870316681263829,0.973203501603175
2011-07-20,1,0.0033275550400678248,0.0036913852903452254,-0.017254429019125377,0.012735266238222128,0.976089351024965
2011-07-22,1,0.002918831632431857,0.003142025723682731,-0.019232906003556233,0.002506289272918867,0.9763599718151628
2011-07-26,1,0.0029659942620747495,0.003249030188903429,-0.02549424350631175,0.012735266238222128,0.9734659997052406
2011-07-28,1,0.002132909201011587,0.0022817161927644702,-0.02549424350631175,0.01742489769025693,0.973320052904957
2011-08-01,1,0.002318010356952548,0.002487785429810082,-0.02549424350631175,0.028759786966265844,0.9716818867713561
2011-08-03,1,0.0007251270135821704,0.0007924311915531879,-0.017002105176035835,0.028759786966265844,0.973180993200155
2011-08-05,-1,-0.0012643194520801067,-0.0009646822374284647,-0.016699948069249102,0.028759786966265844,0.9745614979285065
2011-08-09,-1,-0.0029369483849546172,-0.0024125409598745933,-0.009745935593921307,0.028759786966265844,0.9771913824411683
2011-08-11,-1,-0.002777084799000933,-0.002293700059852662,-0.0161395579852631,0.019675507027993987,0.979044042164551
2011-08-15,0,0.0,0.0,-0.0161395579852631,0.02245984406863077,0.978751107232095
2011-08-17,0,0.0,0.0,-0.0161395579852631,0.024792805470497854,0.9772829554386003
2011-08-19,0,0.0,0.0,-0.00897859763589181,0.024792805470497854,0.9788724710349065
2011-08-23,0,0.0,0.0,-0.011687041374417874,0.02116445678436594,0.9811801953317026
2011-08-25,0,0.0,0.0,-0.014499652935548772,0.018222117137492257,0.9806261235369607
2011-08-29,0,0.0,0.0,-0.014499652935548772,0.01744215319965556,0.9829056140764384
2011-08-31,0,0.0,0.0,-0.02111613978837727,0.01744215319965556,0.9817437295858852
2011-09-02,0,0.0,0.0,-0.02219672348421555,0.01744215319965556,0.9798999968039961
2011-09-07,0,0.0,0.0,-0.02219672348421555,0.01744215319965556,0.9797599433772793
2011-09-09,1,0.0004970632570340261,0.0005641899656237761,-0.021873362258198713,0.01744215319965556,0.9804569808716447
2011-09-13,1,0.002070323046313853,0.002388164802189386,-0.021873362258198713,0.01744215319965556,0.9793388382070464
2011-09-15,1,0.0027822902446056996,0.0031136766699825834,-0.021873362258198713,0.015841297825514154,0.9800606391723917
2011-09-19,1,0.00277388006060231,0.0031278983751643437,-0.021873362258198713,0.01589123718117043,0.9795797634927775
2011-09-21,1,0.0007040213151624703,0.0007360701512004418,-0.015865113544005154,0.01643236237326138,0.9761065093862313
2011-09-23,1,0.000592753629723772,0.0006322345759960214,-0.013586095635024355,0.01589123718117043,0.9780001089387307
2011-09-27,1,0.001185382578949439,0.0012819765660061037,-0.013586095635024355,0.01589123718117043,0.9785123336687451
2011-09-29,1,0.00019842892404534128,0.00021806261349431184,-0.009603968030659445,0.016123334539465375,0.9785476786387314
2011-10-03,0,0.0,0.0,-0.0067706190525130125,0.016123334539465375,0.9812654669946538
2011-10-05,1,0.0005799500343276479,0.0005947761587158725,-0.007431826109283593,0.01589123718117043,0.9829309365914294
2011-10-07,-1,-0.0003360399739308192,-0.00022424825745840016,-0.007431826109283593,0.015938273619201238,0.9829570425183337
2011-10-11,0,0.0,0.0,-0.007431826109283593,0.015938273619201238,0.984697795454581
2011-10-13,0,0.0,0.0,-0.008289011178035764,0.015938273619201238,0.9844068147276466
2011-10-17,0,0.0,0.0,-0.0067706190525130125,0.017298129304070587,0.9846000622892658
2011-10-19,1,0.00307723253947203,0.0033567657533122154,-0.0067706190525130125,0.0169034321465154,0.9876641326579866
2011-10-21,0,0.0,0.0,-0.012178470493944528,0.0169034321465154,0.9863471174748197
2011-10-25,0,0.0,0.0,-0.012178470493944528,0.006807045077902456,0.9869815553130078
2011-10-27,0,0.0,0.0,-0.012178470493944528,0.0023373065220768305,0.9881972659540464
2011-10-31,1,0.00021249311690191115,0.00022339976013786261,-0.012178470493944528,0.00634175717123874,0.986967336993086
2011-11-02,1,0.0027039337989979376,0.0028591102732693687,-0.009528579847445552,0.01921509418294337,0.9859217962941171
2011-11-04,0,0.0,0.0,-0.006330393288881965,0.009165169319987381,0.9877175498061476
2011-11-08,0,0.0,0.0,-0.006330393288881965,0.006476421613304844,0.9883276021465298
2011-11-10,0,0.0,0.0,-0.006330393288881965,0.01075415390534057,0.9873982837247817
2011-11-14,1,0.003012976939690674,0.0032642237290543942,-0.010000164371017327,0.006476421613304844,0.987168648801099
2011-11-16,0,0.0,0.0,-0.010000164371017327,0.006476421613304844,0.9880836479614757
2011-11-18,0,0.0,0.0,-0.0053476755933629504,0.008249353961354192,0.9893768188777737
2011-11-22,0,0.0,0.0,-0.005736017825362531,0.009452004065091571,0.9882817480559106
2011-11-25,0,0.0,0.0,-0.0043725176562610015,0.017603726392214997,0.9870586128330477
2011-11-29,1,0.0019172093725489125,0.00204636648579825,-0.004602170365270852,0.01356565138902625,0.9879090512258099
2011-12-01,1,0.0023048729916058603,0.002406636262492297,-0.006438801585075037,0.01356565138902625,0.9879912331299253
2011-12-05,1,0.001864201060370626,0.0018954551095735983,-0.007388257451998336,0.01668318744977528,0.9870305287897426
2011-12-07,0,0.0,0.0,-0.01069652913723158,0.01668318744977528,0.9854565223128141
2011-12-09,0,0.0,0.0,-0.01069652913723158,0.01356565138902625,0.9866371934324355
2011-12-13,1,0.002826906762515629,0.0032223324611103834,-0.007388257451998336,0.015306316566783409,0.9870662614841045
2011-12-15,0,0.0,0.0,-0.006438801585075037,0.015306316566783409,0.9876039883639309
2011-12-19,1,0.0024497290241593155,0.002709154887986961,-0.006438801585075037,0.015306316566783409,0.9879482662023582
2011-12-21,1,0.0028828345756043627,0.003223309472098059,-0.007388257451998336,0.013417932223743927,0.9862604642913122
2011-12-23,1,0.00354616594601351,0.003927757549599382,-0.009937080112631242,0.012742553350633705,0.9855561754839449
2011-12-28,0,0.0,0.0,-0.007329886036668202,0.012085420953813446,0.9860633299991808
2011-12-30,0,0.0,0.0,-0.006521951541713834,0.011660318198440217,0.9866398254426562
2012-01-04,1,0.0013925504182668207,0.001446905071862221,-0.0035268654295647055,0.011660318198440217,0.9860571329497684
2012-01-06,1,0.001147298639643774,0.0012073084360014002,-0.0028962106875896777,0.012085420953813446,0.9868105349834365
2012-01-10,0,0.0,0.0,-0.001668726601198317,0.012085420953813446,0.9870637697618648
2012-01-12,-1,-0.0007600447627106079,-0.00013119547444977783,-0.002973021487012081,0.008991484516508205,0.9878800947114972
2012-01-17,1,0.000404182550139842,0.0008366328075330466,-0.002973021487012081,0.01250672049875595,0.9869417639582755
2012-01-19,0,0.0,0.0,-0.0034591644807758356,0.009211933909133746,0.9868103562588573
2012-01-23,0,0.0,0.0,-0.0030926386354824657,0.009211933909133746,0.989678729828097
2012-01-25,0,0.0,0.0,-0.0023642941410350693,0.006797613177357274,0.9916072535154753
2012-01-27,1,0.0003867714304976564,0.0004986060235078888,-0.0023642941410350693,0.008729110680682358,0.9913475288177284
2012-01-31,1,0.001237659879441796,0.001302435511133715,-0.0023642941410350693,0.008100974396258127,0.9915639647384527
2012-02-02,1,0.0013594191126574807,0.0013791045918541333,-0.0030926386354824657,0.007143408746207967,0.9925212874437653
2012-02-06,1,0.0018744109642722976,0.0019784463735279976,-0.004840946862625039,0.004757020448527397,0.9923726252043613
2012-02-08,1,0.0022053593281622596,0.002407569604456498,-0.004089612241773786,0.006588948978919713,0.9920920780867831
2012-02-10,0,0.0,0.0,-0.0039735312700975006,0.012850715384150368,0.9911853862478541
2012-02-14,0,0.0,0.0,-0.006087218049368594,0.006082907523448259,0.992386572889309
2012-02-16,1,0.0014967393941734115,0.0015280867289297765,-0.0037585072380140684,0.006082907523448259,0.9931325232874045
2012-02-21,1,0.0014775463070118228,0.001529510640031973,-0.0027009668530593037,0.006082907523448259,0.9933323735519322
2012-02-23,1,0.0008211860555621768,0.0008832557537680126,-0.0017512343610882886,0.006082907523448259,0.993300931660297
2012-02-27,1,2.9841839438793502e-05,0.00023916668387789352,-0.003445375374474056,0.006082907523448259,0.9929935397957848
2012-02-29,1,0.0003815877375891373,0.00047896006071860566,-0.002746128270215308,0.008322903740294114,0.9929778461136405
2012-03-02,1,4.5442127099520825e-05,0.00020884904819129383,-0.002746128270215308,0.005786430690647496,0.9940347422223119
2012-03-06,1,0.00035962986716013296,0.00042582309915809686,-0.0007192498320642497,0.007641155916042248,0.9944681751282407
2012-03-08,1,0.0005655115487078206,0.0006163967198720211,-0.001967300882609343,0.005658007026830462,0.9949436693363425
2012-03-12,1,0.0005268199762980623,0.0005919867476591007,-0.003193885423146098,0.0041372501841536995,0.9948403354298078
2012-03-14,1,0.0015193821536400864,0.0016181410461395874,-0.002746128270215308,0.005409535118891695,0.9942572121451034
2012-03-16,1,0.0014578324019099743,0.0015356727463375556,-0.004438653434636148,0.005409535118891695,0.9932914089443378
2012-03-20,1,0.001478924630851733,0.001551826981587095,-0.004438653434636148,0.008071228937091699,0.9897334967185523
2012-03-22,1,0.0017947291873749718,0.0019637852818560828,-0.007343605679951576,0.008071228937091699,0.9890748431965434
2012-03-26,1,0.0017944501977132429,0.0019387776776922069,-0.009080232263498442,0.007641155916042248,0.9883866470508473
2012-03-28,1,0.0016467244573377597,0.00175622228634368,-0.009080232263498442,0.007685957945640594,0.987673534140518
2012-03-30,1,0.0015085315396736099,0.0016067050459671341,-0.009341309819591043,0.008382193629250637,0.9866825599775337
2012-04-03,1,0.0019113194375116778,0.0020857001744460104,-0.009341309819591043,0.010663841657466994,0.9860929868884443
2012-04-05,1,0.0014527746935858081,0.0015194026941153403,-0.011716495754829416,0.010663841657466994,0.9846978247159678
2012-04-10,1,0.0012979257919324219,0.0013619712398570119,-0.012537941074990722,0.010663841657466994,0.9849187342690017
2012-04-12,1,0.0017807152378499869,0.001893222646712995,-0.012940104993612783,0.009411197844010179,0.9848582594538166
2012-04-16,1,0.0008269513683542384,0.0008549574334919588,-0.01307799936928187,0.009411197844010179,0.9851992434241429
2012-04-18,1,0.0021077013946257835,0.002219835120219317,-0.013293260531695024,0.0024735951517135257,0.9872196483672874
2012-04-20,1,0.0014303138712344243,0.001444447493338447,-0.015038397537289866,0.0024735951517135257,0.9857725572651087
2012-04-24,1,0.0008772067263771541,0.0009477746158193695,-0.013730143198985353,0.006220616238409847,0.9858011400595404
2012-04-26,1,0.002116209043372412,0.002232830488453865,-0.013730143198985353,0.005729897817080824,0.9861888339077812
2012-04-30,1,0.001663973532950459,0.0016993547676602348,-0.013730143198985353,0.0029107954719075125,0.9871757346297972
2012-05-02,0,0.0,0.0,-0.015038397537289866,0.0029107954719075125,0.9876177910868369
2012-05-04,1,0.001188311095101135,0.0012042110827214698,-0.015038397537289866,0.004692192454745145,0.9859991125526113
2012-05-08,1,0.00031023250121168665,0.00047331961971024513,-0.015038397537289866,0.011286879871304101,0.9854056008544967
2012-05-10,0,0.0,0.0,-0.015038397537289866,0.011286879871304101,0.9855837526348543
2012-05-14,0,0.0,0.0,-0.015316197581025983,0.012359010402233066,0.9841436678605135
2012-05-16,-1,-0.0007243409611143148,-0.0005487176869425285,-0.010765644389447845,0.012359010402233066,0.9847197940305386
2012-05-18,-1,-0.0005611285173845201,-0.000464805839565456,-0.0078423372298182,0.014983423459580363,0.9853783352077735
2012-05-22,-1,-0.0014518223869056386,-0.0011169451639222732,-0.0078423372298182,0.012359010402233066,0.9865502846896981
2012-05-24,0,0.0,0.0,-0.009278902594054157,0.014983423459580363,0.985258935544523
2012-05-29,-1,-0.0012806732076566904,-0.0009750959185075631,-0.010924798516465266,0.014983423459580363,0.9843992224247217
2012-05-31,0,0.0,0.0,-0.010602462526612795,0.014983423459580363,0.9849132095063694
2012-06-04,0,0.0,0.0,-0.0078423372298182,0.019691512121985444,0.9853995530493493
2012-06-06,0,0.0,0.0,-0.0078423372298182,0.014983423459580363,0.9866803465652743
2012-06-08,0,0.0,0.0,-0.010602462526612795,0.01105167574443949,0.9866612873259157
2012-06-12,0,0.0,0.0,-0.010602462526612795,0.007311548646954676,0.9870011554493426
2012-06-14,0,0.0,0.0,-0.007887617522154678,0.008800885934140676,0.9871038970830204
2012-06-18,0,0.0,0.0,-0.008540395117855655,0.008800885934140676,0.9876814471653995
2012-06-20,0,0.0,0.0,-0.010682815166499951,0.00978525829972034,0.9870847292628032
2012-06-22,0,0.0,0.0,-0.01564100005666397,0.008664390505868239,0.9831353632250708
2012-06-26,0,0.0,0.0,-0.01149006217307934,0.00978525829972034,0.9828026182311379
2012-06-28,0,0.0,0.0,-0.009643650729160102,0.012237231322044847,0.9819931545383441
2012-07-02,0,0.0,0.0,-0.016159641926886327,0.00978525829972034,0.9829279435318257
2012-07-05,0,0.0,0.0,-0.016159641926886327,0.00978525829972034,0.9826815978498232
2012-07-09,0,0.0,0.0,-0.011510964302997034,0.010546240752514549,0.9819895973826408
2012-07-11,0,0.0,0.0,-0.009949189431698818,0.011736414097412431,0.9829816143309151
2012-07-13,1,3.792373660604307e-05,8.900724782358378e-05,-0.009949189431698818,0.011736414097412431,0.9830862355592878
2012-07-17,-1,-0.0008158825593917204,-0.0006142819379113345,-0.009949189431698818,0.011736414097412431,0.9830008560645876
2012-07-19,-1,-0.0006539853076082979,-0.0004948973632438085,-0.009949189431698818,0.012760565366248162,0.9829857661247522
2012-07-23,-1,-0.004610317555068068,-0.003976013226696429,-0.006515319640088476,0.012760565366248162,0.9883686154162709
2012-07-25,-1,-0.003971852093322918,-0.003430894010622621,-0.005707689192248255,0.011736414097412431,0.989833744201082
2012-07-27,-1,-0.003326941329179097,-0.0028336577927541764,-0.006515319640088476,0.005687410503440134,0.9911227560690923
2012-07-31,-1,-0.004138361411864263,-0.003583704493912339,-0.005707689192248255,0.005687410503440134,0.9920778656124495
2012-08-02,0,0.0,0.0,-0.005707689192248255,0.005687410503440134,0.9918579756049326
2012-08-06,0,0.0,0.0,-0.005707689192248255,0.003434610553192725,0.9935328288374516
2012-08-08,-1,-0.002215127665420054,-0.0019419131761530912,-0.006415515322499875,0.002299850689105086,0.9938890540848228
2012-08-10,0,0.0,0.0,-0.006415515322499875,0.003434610553192725,0.9928380606457794
2012-08-14,0,0.0,0.0,-0.0074174892288790244,0.00032641067560686143,0.9930414039099185
2012-08-16,-1,-0.0008520263547088119,-0.0007628868557250285,-0.0074174892288790244,0.0015318554495535744,0.992697520536678
2012-08-20,-1,-0.0010254428875487967,-0.0009233313527298693,-0.0074174892288790244,0.005314989849192484,0.9919610733867331
2012-08-22,-1,-0.0012173990360650135,-0.0010848354453558305,-0.0074174892288790244,0.005314989849192484,0.9918226009540879
2012-08-24,-1,-0.0010371729580939844,-0.0009466153224930939,-0.006216435618644831,0.008046209227058695,0.9912564508157795
2012-08-28,-1,-0.0016086259116582188,-0.00144456324546131,-0.007634278119393566,0.008046209227058695,0.9899764220500696
2012-08-30,-1,-0.0022203540521141254,-0.001961462638006774,-0.007193630394166114,0.008543360178015713,0.9896507614276044
2012-09-04,-1,-0.0016134722986856239,-0.0014748722662808365,-0.007193630394166114,0.00873998097851268,0.9890814000779287
2012-09-06,-1,-0.0015187180398134545,-0.00136355557434851,-0.006507047822067118,0.009960574532035183,0.9885920864886742
2012-09-10,-1,-0.00018733034818563607,-3.0275968981659414e-05,-0.006507047822067118,0.008981223522250817,0.9891654767986778
2012-09-12,-1,-0.0008518651964626225,-0.0008093648540201655,-0.006507047822067118,0.008981223522250817,0.9885641221961008
2012-09-14,0,-7.141767446274124e-05,2.5690934617723688e-05,-0.006507047822067118,0.008216909841420924,0.9901782333692605
2012-09-18,1,0.000979915333520454,0.001276350443667845,-0.006507047822067118,0.008981223522250817,0.9873557236351728
2012-09-20,0,0.0,0.0,-0.004935342083316707,0.008981223522250817,0.9876241529597367
2012-09-24,0,0.0,0.0,-0.004935342083316707,0.008981223522250817,0.9873552035154597
2012-09-26,0,0.0,0.0,-0.004565493772750178,0.008981223522250817,0.9887094918516115
2012-09-28,0,0.0,0.0,-0.004565493772750178,0.008981223522250817,0.9883894109132876
2012-10-02,0,0.0,0.0,-0.004565493772750178,0.010989861978671338,0.9881981680606501
2012-10-04,1,0.0010555782493970847,0.0012863272627542115,-0.004565493772750178,0.005219982471821253,0.9894781510035093
2012-10-08,1,0.0002629855410128079,0.00034859438461800544,-0.0033893458746019644,0.005872534006807272,0.9894799810680963
2012-10-10,-1,-0.0013294657764417663,-0.0011483467857906413,-0.004327633299601843,0.005872534006807272,0.9901150132887758
2012-10-12,-1,-0.0008596832821950355,-0.0007746979381614997,-0.004327633299601843,0.006710746638035585,0.9895029435357302
2012-10-16,1,0.0017263939032479822,0.001997241673104084,-0.007016876348931261,0.005042535804668248,0.9920639907509378
2012-10-18,0,0.0,0.0,-0.007016876348931261,0.006178406636576569,0.9908922853829741
2012-10-22,0,0.0,0.0,-0.00900160028656276,0.005042535804668248,0.9915667223686299
2012-10-24,0,0.0,0.0,-0.007304515667110325,0.005689739753771047,0.9917221370942538
2012-10-26,0,0.0,0.0,-0.007304515667110325,0.006178406636576569,0.9914761457040201
2012-11-01,0,0.0,0.0,-0.011089540342221336,0.006178406636576569,0.9912157355755687
2012-11-05,0,0.0,0.0,-0.011089540342221336,0.006178406636576569,0.9908232326006315
2012-11-07,0,0.0,0.0,-0.011089540342221336,0.006275592044371471,0.9904082121534006
2012-11-09,1,6.596074730919304e-05,0.00026625231407121296,-0.007859461858229163,0.007823105168585948,0.9903018533732142
2012-11-13,1,0.0010584820484613705,0.0014157543044049773,-0.007859461858229163,0.008919783706300114,0.9898111481187641
2012-11-15,1,0.00026014792940378794,0.00048373227939690856,-0.007339100912351383,0.008919783706300114,0.9902436436861496
2012-11-19,1,0.0020129782048973967,0.0023851707913913247,-0.008347258580199232,0.006674800500172197,0.9897466082313238
2012-11-21,1,0.0013205559303661575,0.0016250804118380941,-0.009528457504587999,0.006674800500172197,0.9851680633189699
2012-11-26,1,0.0026674725461472287,0.00322505681589953,-0.01189470539263807,0.008919783706300114,0.9841910725530711
2012-11-28,1,0.002649002983506561,0.0031729996842127517,-0.01189470539263807,0.009965893381714561,0.9838651320477672
2012-11-30,1,0.002173449445358282,0.002602883442782,-0.014594456264604105,0.01511017223436272,0.9829549314433667
2012-12-04,1,0.0017977681449902923,0.0021251785592553783,-0.014594456264604105,0.01511017223436272,0.9823244904135433
2012-12-06,1,0.001430191917508265,0.0017512249153749362,-0.010300647984073666,0.01511017223436272,0.9830640536980454
2012-12-10,1,0.001960734357505609,0.0023694207587903874,-0.010300647984073666,0.014595973361389729,0.9837986973127555
2012-12-12,1,0.002631640771006934,0.003118824903014502,-0.010300647984073666,0.012916189853434078,0.9843172649523189
2012-12-14,1,0.0005457785864167099,0.0005697225002435572,-0.014594456264604105,0.01360565672573771,0.9832114993024563
2012-12-18,1,0.0012618364384025457,0.0013341741628058422,-0.014594456264604105,0.01360565672573771,0.9833116311675627
2012-12-20,-1,-0.003899932579168775,-0.0034120433273487367,-0.01043451727203002,0.014595973361389729,0.9864669218176314
2012-12-24,-1,-0.0025043178949505805,-0.0021089524395339083,-0.0075748100724727305,0.015977957701926847,0.9822499989256541
2012-12-27,-1,-0.0021245472154881005,-0.001788733498914668,-0.005912621130321898,0.01593233881339843,0.9837036948551217
2012-12-31,-1,-0.001569129688179007,-0.0013141057020968194,-0.005743995959138203,0.01360565672573771,0.9854098324227992
2013-01-03,-1,-0.0005797597651321107,-0.00048192134357251084,-0.005743995959138203,0.01400394246664739,0.9859157350097021
2013-01-07,-1,-0.0008741893184619832,-0.0007359874117442255,-0.005743995959138203,0.01400394246664739,0.9855389196856071
2013-01-09,-1,-0.00047422535045401335,-0.00040426765862002254,-0.005743995959138203,0.01400394246664739,0.9858417656275177
2013-01-11,-1,-0.0003332075867636733,-0.0002858317054840175,-0.007068934558921646,0.015116047353285795,0.984985768855038
2013-01-15,-1,-0.0006790294571374946,-0.0005810480184627166,-0.00561900761084322,0.015116047353285795,0.9862746382606862
2013-01-17,1,0.00015992665856194834,0.00016007386534312078,-0.0045581857734342,0.006722953107924391,0.987877676488331
2013-01-22,1,0.0004100090970371647,0.00043759857257347277,-0.0045581857734342,0.006722953107924391,0.9861002619313379
2013-01-24,1,0.0027101923987886403,0.0030132457539211632,-0.0045581857734342,0.005016546807135996,0.9897306844604338
2013-01-28,1,0.0021672829610631583,0.0023812109984749207,-0.0047038842753872635,0.005189256760409367,0.9895368273533428
2013-01-30,1,0.00173988853078551,0.0018845439535637616,-0.0063129831976765916,0.00804562107513551,0.98490720876217
2013-02-01,1,0.0020319203483305385,0.0022384418058298597,-0.012727095185291214,0.00804562107513551,0.9804211477188477
2013-02-05,1,0.0012738344654997051,0.0013532074683935832,-0.012727095185291214,0.00804562107513551,0.9794186667964303
2013-02-07,1,0.0010661635955910365,0.001093879786837756,-0.012880984106757677,0.00804562107513551,0.9790726855424278
2013-02-11,1,0.0015162774175697218,0.0016786513223359246,-0.012880984106757677,0.005189256760409367,0.9798427692619242
2013-02-13,1,0.0013871881313212832,0.0015160024401405688,-0.015530329385655342,0.005189256760409367,0.9777399571426081
2013-02-15,1,0.0010866789387755245,0.0011655195144763923,-0.02357611033948057,0.00804562107513551,0.9726045291738719
2013-02-20,1,0.000918988392968944,0.001004105134355389,-0.015530329385655342,0.00804562107513551,0.9742083844872363
2013-02-22,1,0.000856233566555175,0.0008578584488972264,-0.01919064710685643,0.004540093543057116,0.9744322248387004
2013-02-26,0,0.0,0.0,-0.01919064710685643,0.006098131423078756,0.974478392036258
2013-02-28,0,0.0,0.0,-0.014713563928096982,0.004439471741523995,0.9789385715887312
2013-03-04,0,0.0,0.0,-0.013471456243997376,0.004439471741523995,0.9828288296825093
2013-03-06,0,0.0,0.0,-0.012887555447178877,0.007214832403808136,0.9838314300035641
2013-03-08,-1,-0.0019033924801365575,-0.0015312472642839544,-0.013436938119192483,0.009377702431015737,0.9838885794652619
2013-03-12,-1,-0.0018673727561878547,-0.001538227822103318,-0.013436938119192483,0.009377702431015737,0.9837902421908735
2013-03-14,-1,-0.0015397304217026446,-0.0013672967952615945,-0.007744597734751923,0.013543996553627318,0.9843277271072318
2013-03-18,-1,-0.0010808656198815969,-0.0009532234592818202,-0.004479590553135998,0.009377702431015737,0.9899515477774079
2013-03-20,-1,-0.0003831437962417046,-0.00037554601343405995,-0.007383945900259384,0.006062105064603573,0.9899773387426509
2013-03-22,-1,-0.0013773305659102032,-0.0012189349972414724,-0.013436938119192483,0.005897306049684413,0.98945893743995
2013-03-26,0,0.0,0.0,-0.013436938119192483,0.005897306049684413,0.9892686110797065
2013-03-28,-1,-0.001303081625631635,-0.0011638042683294813,-0.009359190025715157,0.009252146060798199,0.9890359500324515
2013-04-02,-1,-0.001256036521231222,-0.0011161107186444992,-0.006026944487553387,0.006855294406530609,0.9896549877275256
2013-04-04,0,0.0,0.0,-0.006026944487553387,0.006188343419107493,0.9902864259598637
2013-04-08,0,0.0,0.0,-0.004676670562812806,0.006188343419107493,0.9899380818749121
2013-04-10,-1,-0.0011722983498168899,-0.0010851526274716938,-0.006026944487553387,0.006188343419107493,0.9893603144345267
2013-04-12,-1,-0.00045814605558771346,-0.0004016717865074355,-0.009080923425137747,0.006188343419107493,0.9884334109490666
2013-04-16,1,0.00022556462698400024,0.0003371480169316739,-0.01360576969640404,0.006188343419107493,0.9870653262591789
2013-04-18,-1,-0.0015295939471298087,-0.0013912547503298557,-0.013459567466924983,0.006188343419107493,0.9877247319306434
2013-04-22,-1,-0.0028779867213896944,-0.0025842604710513807,-0.008367340906794443,0.007882465375517634,0.9881342278027563
2013-04-24,-1,-0.002641031268474018,-0.002367083248006308,-0.010176380306493591,0.008167701862584727,0.9869173497391607
2013-04-26,-1,-0.0017494991395958586,-0.0015724889430953513,-0.010176380306493591,0.014190201782297521,0.9847664384717048
2013-04-30,-1,-0.0012485645217904682,-0.0011268566389520127,-0.010176380306493591,0.014190201782297521,0.9850996731669078
2013-05-02,-1,-0.0016099258215464638,-0.0014193488045261228,-0.012779696705581736,0.014190201782297521,0.984256221602085
2013-05-06,-1,-0.00033879154667132145,-0.00032712702215468485,-0.012779696705581736,0.012666568255095061,0.9850235330269785
2013-05-08,-1,-0.0006300776553741056,-0.0006263107068682581,-0.010176380306493591,0.01353724359124374,0.985259240861259
2013-05-10,1,2.079736152737165e-05,8.10230392155603e-05,-0.007486345650946592,0.012666568255095061,0.9866977411009658
2013-05-14,-1,-0.0004068783927536337,-0.0003373201065172438,-0.008566033292797367,0.012666568255095061,0.9868372532716428
2013-05-16,-1,-0.003245271217966479,-0.0028086866492292775,-0.008566033292797367,0.01353724359124374,0.986395399686448
2013-05-20,-1,-0.002831211761304481,-0.002452047576135166,-0.006857527509980817,0.01353724359124374,0.9862949141229969
2013-05-22,-1,-0.003565812100074474,-0.003097524344538645,-0.006857527509980817,0.012729206930311154,0.9871747173223475
2013-05-24,-1,-0.0009163687981685389,-0.0007764442789797469,-0.006857527509980817,0.01109094409147998,0.9900669691877476
2013-05-29,-1,-0.0006932344980722698,-0.0006297975864667904,-0.006857527509980817,0.01109094409147998,0.9899278562290889
2013-05-31,-1,-0.000977381200997219,-0.0008704248736580083,-0.005271274110541591,0.008582681762291355,0.9906494195064569
2013-06-04,-1,-0.000606927357352231,-0.000560230613053515,-0.006857527509980817,0.008582681762291355,0.9906922464331884
2013-06-06,1,0.0002221166657117027,0.00027872024631820123,-0.006857527509980817,0.008030433000566044,0.991055265500708
2013-06-10,1,0.00027368845924710596,0.00033229836199348236,-0.008462595578395703,0.005250196996636512,0.9866541380441911
2013-06-12,-1,-0.00010649129446114574,-1.329646560715124e-05,-0.0056237144005899485,0.00819194802049587,0.9868775422801385
2013-06-14,1,5.1316524340813154e-05,0.00015271755992116848,-0.004991265675221954,0.007899486873298858,0.9880121155905331
2013-06-18,1,0.0020905363951635517,0.002568004761935528,-0.008110332164175199,0.005250196996636512,0.9873872435034237
2013-06-20,1,0.000937106800050103,0.0012361130280281107,-0.008110332164175199,0.007899486873298858,0.9849170631981078
2013-06-24,1,0.0014602159676441327,0.0018110687976291284,-0.008110332164175199,0.007899486873298858,0.9847580628608116
2013-06-26,1,0.0018351416837808477,0.002277129832097867,-0.012074466631758821,0.007899486873298858,0.982518521648487
2013-06-28,1,0.0018451892602655091,0.002262263055572561,-0.012074466631758821,0.008334609416383063,0.9812712215776662
2013-07-02,1,0.0012952203132967977,0.00161981146954979,-0.013838845895425129,0.008334609416383063,0.981109758655853
2013-07-05,0,0.0,0.0,-0.013838845895425129,0.009062126052290218,0.9810876590830402
2013-07-09,0,0.0,0.0,-0.01148366485023607,0.009062126052290218,0.9862142094656127
2013-07-11,1,0.0015776058387158723,0.0019409989389380445,-0.01148366485023607,0.009062126052290218,0.9863310706206971
2013-07-15,1,0.001034968821000346,0.0012893992988117923,-0.01148366485023607,0.009062126052290218,0.9860112614029682
2013-07-17,1,0.0006239177726513435,0.000887553376705742,-0.007850631193157966,0.009062126052290218,0.9870462832063472
2013-07-19,1,0.0013944070965848942,0.0017416619555673063,-0.007850631193157966,0.006300524890753653,0.9898430018059236
2013-07-23,-1,-0.000506385838572571,-0.0004161757260072989,-0.007850631193157966,0.007111433855298929,0.9897490607329368
2013-07-25,-1,-0.0027588447718275263,-0.002541386627712761,-0.007128948941415237,0.009154416731354607,0.9910312047998754
2013-07-29,-1,-0.002163794975296713,-0.0019395816960260642,-0.007128948941415237,0.004488761723315028,0.9930491486090562
2013-07-31,-1,-0.0026132777410108016,-0.002323453879042287,-0.007128948941415237,0.0038467528830893527,0.9930443579091924
2013-08-02,-1,-0.0019919806586381978,-0.001770022880359239,-0.007399998770664547,0.0038467528830893527,0.9934862228385902
2013-08-06,-1,-0.002978229235174184,-0.0025768627344434896,-0.007399998770664547,0.0043242369080456425,0.9931411244220641
2013-08-08,-1,-0.0021791408173176792,-0.001910482890971039,-0.00735655189141577,0.0038467528830893527,0.9937139162817924
2013-08-12,-1,-0.0024798856762173285,-0.002212291819165718,-0.00735655189141577,0.0038467528830893527,0.9931624944369115
2013-08-14,-1,-0.002931152052429163,-0.0025831377762487754,-0.00735655189141577,0.0038467528830893527,0.9931042975194384
2013-08-16,-1,-0.0031623291123684437,-0.002827974049839744,-0.0044520966408171355,0.0043242369080456425,0.9930990637783558
2013-08-20,-1,-0.002819493399930602,-0.002493627077549586,-0.0047606225918887,0.0038467528830893527,0.9943633026526915
2013-08-22,-1,-0.002122003220531787,-0.001881460428531578,-0.0069063452311094575,0.003394507040924078,0.9942880231898774
2013-08-26,-1,-0.0017025280395836198,-0.0015365314077279263,-0.008113286369502048,0.001277373949324177,0.9933705759849403
2013-08-28,-1,-0.0022246402476133183,-0.001988468638111214,-0.00735655189141577,0.0034532508806026287,0.9934841813172467
2013-08-30,-1,-0.001884616666539694,-0.0017099048725783587,-0.006932729523175554,0.003600705757380365,0.9927531238030008
2013-09-04,-1,-0.0011072525367196505,-0.0010746196005747255,-0.00817561177670428,0.0012227376748503564,0.9923409173754435
2013-09-06,-1,-0.0012956536595727535,-0.001238698567350159,-0.01018081712064999,0.0037614994221023706,0.9911768198635379
2013-09-10,-1,-0.0026047709182331403,-0.0023485940049043337,-0.00817561177670428,0.0069823064684265135,0.9899118906263448
2013-09-12,-1,-0.0036635042771754472,-0.00322674981375617,-0.006953504658909632,0.009289861865802235,0.9890303306631079
2013-09-16,-1,-0.0032288284047408047,-0.0028574148108267442,-0.006953504658909632,0.010231441812473513,0.9875757513722715
2013-09-18,-1,-0.0028714296783063534,-0.002581883735085695,-0.008210397722188262,0.014748037559411521,0.984868465016586
2013-09-20,-1,-0.0021159467781215868,-0.0019377809198591763,-0.010289328797767032,0.012249126358568856,0.9830373143485823
2013-09-24,-1,-0.003064071183072507,-0.002773226943358859,-0.010070900600488632,0.012249126358568856,0.9833965817801702
2013-09-26,-1,-0.0019939205935735954,-0.0018619380770395972,-0.010701770273479166,0.01880330668005751,0.9826564967096835
2013-09-30,-1,-0.0010514436027642404,-0.0010092064577747755,-0.010701770273479166,0.01768016170307676,0.9828066221445958
2013-10-02,-1,-0.0015494685453023157,-0.0014886159220134155,-0.010487495916865864,0.01768016170307676,0.9829319672171172
2013-10-04,-1,-0.0023124767379803924,-0.0021171771124113056,-0.008924835648563365,0.01768016170307676,0.9840978752640779
2013-10-08,-1,-0.0015120763414975952,-0.001374052841900256,-0.010487495916865864,0.01768016170307676,0.9842007095447041
2013-10-10,-1,-0.0006630989221010995,-0.0006358716710576249,-0.010487495916865864,0.010134596626818478,0.9846501582149897
2013-10-14,1,0.0007244412545617672,0.000849765173804727,-0.010487495916865864,0.01505963926059906,0.9845016442975658
2013-10-16,1,0.001454400478564976,0.0017825661988619787,-0.008924835648563365,0.008351478870969601,0.987302385392574
2013-10-18,1,0.00014207622018326462,0.00027808287596757297,-0.008019786213581629,0.008351478870969601,0.9897723859164002
2013-10-22,-1,-0.0007065316176581365,-0.0006885318037321536,-0.004576000508776353,0.008351478870969601,0.9901594887878772
2013-10-24,-1,-0.0002510649967913913,-0.0001612869517804566,-0.004576000508776353,0.0061789442819844345,0.9913542913138205
2013-10-28,1,0.0007854645623084372,0.0010582538801357528,-0.007302044149996296,0.005660554706000249,0.9918051860784592
2013-10-30,1,0.0006009638757803034,0.0008533124462427013,-0.007484322832058265,0.0061789442819844345,0.9907148064850686
2013-11-01,1,8.59213695411463e-05,0.00022148108751531242,-0.004606538332508101,0.0061789442819844345,0.990763853994347
2013-11-05,1,0.0004171280327176166,0.0006101645827543448,-0.006062711569128246,0.004599887464053092,0.9924034993343372
2013-11-07,1,0.0015119646126844739,0.0019088578690223503,-0.007114104531283987,0.0029547939061111738,0.9910349599748596
2013-11-11,1,0.002406250451912683,0.002870655817453504,-0.007114104531283987,0.0018954860660316834,0.9919273629822999
2013-11-13,1,0.0027818240568356963,0.003333490922900086,-0.00725806601626868,0.0029547939061111738,0.990038855319308
2013-11-15,1,0.0027402154465209915,0.003283495764475224,-0.0082746456270375,0.0008911774863559693,0.989478975195643
2013-11-19,1,0.002819654250243812,0.003385142838126009,-0.010927571632693034,0.0010125279517748417,0.9882394200417585
2013-11-21,1,0.002292873136246619,0.002764848503699472,-0.009088419741408107,0.00538183868481012,0.9882515933967659
2013-11-25,1,0.001954117523485536,0.0023958205389548863,-0.00724861419139749,0.00817161744204717,0.988406922132099
2013-11-27,1,0.0013712803308746637,0.001698736824285182,-0.0062207666169802195,0.011198601413208643,0.989243703052526
2013-12-02,1,0.0014769105075099218,0.0018592751679400495,-0.0062207666169802195,0.011198601413208643,0.9893815959620695
2013-12-04,1,0.0013412363718236949,0.0016973183929399626,-0.008395398577167408,0.011198601413208643,0.9886340281716819
2013-12-06,1,0.0012636941500159587,0.001551316815305089,-0.007709963175803537,0.008653484949267994,0.9895402285469607
2013-12-10,1,0.0010143449264530071,0.0012646618713394362,-0.007709963175803537,0.014081061924076321,0.9884250242936565
2013-12-12,1,0.0005610239363193217,0.0006802460372893279,-0.007709963175803537,0.014694554746778062,0.9828603170642515
2013-12-16,-1,-0.00022465702737157065,-0.0001683130766878755,-0.007709963175803537,0.015341860107032233,0.9794238467997763
2013-12-18,1,0.00028000474568370487,0.00031004166104769536,-0.00612994841826283,0.01694007286832153,0.9790815850640185
2013-12-20,1,0.0004972585527517926,0.0005322092044756448,-0.002192040619795133,0.01815149376826997,0.979073727620147
2013-12-24,-1,-0.00013080021631234418,-0.0001251196681707024,-0.007709963175803537,0.01694007286832153,0.9767318922009479
2013-12-27,1,0.00010098365755754898,0.00012621892139226936,-0.007709963175803537,0.01694007286832153,0.9775784088811518
2013-12-31,1,0.0004537416548447647,0.0005372374766302891,-0.007709963175803537,0.01694007286832153,0.977364523142377
2014-01-03,-1,-0.00011386739699270783,-0.00010700826611537526,-0.008992508875933582,0.01694007286832153,0.9768409320587665
2014-01-07,-1,-4.0633474523881115e-05,-3.998376622044923e-05,-0.007820896302544945,0.018386276399674405,0.9758834129442958
2014-01-09,1,0.00028913569005750575,0.0003184397520545089,-0.007820896302544945,0.015941572193574956,0.9772133081677046
2014-01-13,1,0.0004900430374857797,0.0005564655798285888,-0.0057569235507661624,0.015941572193574956,0.9827546910696449
2014-01-15,1,0.0014075823229178675,0.0016104222538470942,-0.0018565256909919173,0.015941572193574956,0.9853669461939549
2014-01-17,1,0.0018688592294197155,0.002127733538734258,-0.0057569235507661624,0.014031851962453178,0.9863436188813461
2014-01-22,1,0.0017283042770438574,0.001959111419276937,-0.007699189638375803,0.012444923729944215,0.9865452601146242
2014-01-24,1,0.000997395424016144,0.001132146060175072,-0.006747509642627943,0.012444923729944215,0.989057886748404
2014-01-28,1,0.0009139960675246979,0.0010371443877790958,-0.007695485613376511,0.012444923729944215,0.9886052785169015
2014-01-30,1,0.000965548085929989,0.0010893200866374706,-0.007695485613376511,0.012297691422646867,0.9886999877692092
2014-02-03,1,0.0004503246934112288,0.0004863870788358053,-0.006747509642627943,0.013590155040561134,0.9889878789310931
2014-02-05,1,0.000818302052658182,0.0008978410906912289,-0.006747509642627943,0.010130993278377128,0.990041464480749
2014-02-07,1,0.0008532927477068974,0.0009364980304500791,-0.007695485613376511,0.010130993278377128,0.9896976127691359
2014-02-11,1,0.0009336378335351142,0.0010234564543621042,-0.007906293945827843,0.008379899987153015,0.9907569398783722
2014-02-13,1,0.0014415812243058252,0.0016062646762016498,-0.008372343141764025,0.003072743854544386,0.9910624069288219
2014-02-18,1,0.0012548953622130055,0.0013612115970814491,-0.008100605166944119,0.006161320778760131,0.9915734359049229
2014-02-20,1,0.0010664522326670352,0.0011566292319640644,-0.007816949295887637,0.00777394212686789,0.99160587299646
2014-02-24,1,0.001242367298362707,0.001383146374736823,-0.008661673793331635,0.006263721893816484,0.9904850549610101
2014-02-26,1,0.000933350747035927,0.0009982333016440607,-0.00839363984351102,0.005657914034409662,0.9911141086417031
2014-02-28,1,0.0009216116847868756,0.0009811912336957376,-0.00839363984351102,0.006354983822146653,0.9906501421822789
2014-03-04,1,0.0012148644413815847,0.0013354328659019134,-0.007816949295887637,0.007264425126376312,0.9870054772566453
2014-03-06,1,0.0013136212363772332,0.0014565975542174757,-0.007816949295887637,0.010192804029821426,0.9833223530920102
2014-03-10,1,0.0016667127750689954,0.0018988616524203083,-0.009848603066757833,0.010192804029821426,0.9801287315110452
2014-03-12,1,0.001575658359487098,0.0017834591215554502,-0.015495853284425766,0.010192804029821426,0.9767569821173593
2014-03-14,1,0.0004202011278874188,0.00042160399056972585,-0.01612478479663101,0.010192804029821426,0.9757465746600661
2014-03-18,1,0.0003802740305910332,0.0004120414794069639,-0.01858853150562098,0.010192804029821426,0.97388232335958
2014-03-20,1,0.0007804871863683746,0.0008045409940232995,-0.01858853150562098,0.00749796011838647,0.9740258566524863
2014-03-24,1,0.00019421929948220583,0.00022899936078096307,-0.017248864357675323,0.010697496181012173,0.9744017256203648
2014-03-26,1,7.643931953429703e-05,0.00012561375062514104,-0.021663652850866497,0.010697496181012173,0.969633910601594
2014-03-28,1,0.0003798344812446482,0.0003990322769804709,-0.021663652850866497,0.0046515753974840585,0.9698286772642937
2014-04-01,1,0.0017849133884965454,0.0019477615359193073,-0.021663652850866497,-0.0015259360426165595,0.97322485530035
2014-04-03,1,0.0029382017883328457,0.0032603419580897945,-0.021663652850866497,-0.004058407103105764,0.9757527991536309
2014-04-07,1,0.0018950551074925096,0.002110947751457325,-0.01731610850666939,-0.0015259360426165595,0.9799349449929103
2014-04-09,1,0.0009215509062001342,0.0010053188016440476,-0.01731610850666939,-0.0011988952438387742,0.9834979477005231
2014-04-11,1,0.0002917901166555633,0.000295367304807908,-0.01421915964078771,0.001287653764382982,0.9839036302210482
2014-04-15,-1,-0.0005163568952608279,-0.00041531997405745073,-0.008193737480242142,0.002487058038107588,0.98579449575796
2014-04-17,-1,-0.0008909912894532804,-0.0007373304330035922,-0.010895172021334122,0.006032112116539463,0.9841502244638383
2014-04-22,-1,-0.0006405945778383005,-0.0005040186397858874,-0.01421915964078771,0.002487058038107588,0.9842553264967284
2014-04-24,-1,-0.0023121293934219717,-0.0019702649510028023,-0.010895172021334122,0.004804446987916615,0.9888771028622912
2014-04-28,-1,-0.002524256513906831,-0.002151222521310817,-0.008856220386316265,0.008735914411148193,0.988577560570555
2014-04-30,-1,-0.002836292291954788,-0.0024222074904552107,-0.008856220386316265,0.013555294560581894,0.9871398880591715
2014-05-02,-1,-0.002779760638145204,-0.002379849582441256,-0.01097051206873716,0.009872299174713352,0.9872767857365241
2014-05-06,-1,-0.0028515091441132408,-0.002448144708177592,-0.009743436813300619,0.009872299174713352,0.9876398578488925
2014-05-08,-1,-0.0033035463763668575,-0.0028293642079066745,-0.005571806594641435,0.009872299174713352,0.987973177137723
2014-05-12,-1,-0.0026517490176586568,-0.0022396272894833697,-0.005571806594641435,0.008041895162421653,0.9891388065680801
2014-05-14,-1,-0.0024877013612606066,-0.002098944840074715,-0.005571806594641435,0.010396858516898045,0.9880795099663002
2014-05-16,-1,-0.002360156462932371,-0.001989302981101203,-0.003767284141145716,0.011670693304059409,0.9879722433730405
2014-05-20,-1,-0.0029405459072418373,-0.002508497415354356,-0.0025090499574759472,0.011670693304059409,0.9879786079414777
2014-05-22,-1,-0.002587477261825067,-0.002219053898863563,-0.0025090499574759472,0.011670693304059409,0.9882280291574825
2014-05-27,-1,-0.0020449587971586728,-0.0017473302048674985,-0.0030610976526356487,0.01006744439783103,0.9894795846718247
2014-05-29,-1,-0.002155103672874732,-0.0018207115547301386,-0.002367661078119178,0.01006744439783103,0.9904767801880692
2014-06-02,-1,-0.002445932359292788,-0.002078614669294706,-0.002367661078119178,0.011670693304059409,0.9883361748334356
2014-06-04,-1,-0.002184413560626773,-0.0018766927054513168,-0.003832507370209135,0.011670693304059409,0.9877391011475548
2014-06-06,-1,-0.002111812561140051,-0.0018223640615550917,-0.00559300705785253,0.011670693304059409,0.9869743645606879
2014-06-10,-1,-0.0012802538116582357,-0.001150010672338565,-0.009035621148780034,0.011670693304059409,0.9869454635892172
2014-06-12,1,0.0003654011225256404,0.000490111180591047,-0.009670466920596232,0.008111906933230682,0.9877287397254726
2014-06-16,1,0.001122098010175301,0.0013436379982875398,-0.012183395472960917,0.002941875783389738,0.9889289172990615
2014-06-18,-1,-4.1823707591837224e-05,-4.089456682250647e-05,-0.009458696461333804,0.004924848122960778,0.9893383673069104
2014-06-20,-1,-7.343023297380604e-05,-6.314589073154681e-05,-0.009458696461333804,0.005624629191999939,0.9889881384560977
2014-06-24,-1,-0.00012221584197943882,-0.00011977535908737329,-0.009458696461333804,0.009763631517786451,0.9838988487642264
2014-06-26,1,0.00014246232257464033,0.00014850151580329964,-0.009458696461333804,0.009763631517786451,0.983337578927241
2014-06-30,1,0.0004395112783836141,0.0005165320774769048,-0.008819341455056886,0.006078150331500367,0.9856812130087105
2014-07-02,1,9.955814118559532e-05,0.00014000839072283422,-0.008819341455056886,0.006078150331500367,0.9855464448720896
2014-07-07,-1,-8.378785948700078e-05,-4.532299448617865e-05,-0.008819341455056886,0.006078150331500367,0.9861424578065193
2014-07-09,1,5.951650317055244e-05,0.00016937212746571256,-0.008819341455056886,0.006078150331500367,0.9865309049827637
2014-07-11,1,0.0003617556332004878,0.0005210655508120891,-0.009434883878748638,0.005074211780924667,0.9867819115152315
2014-07-15,-1,-0.000161620450167958,-9.191113343212331e-05,-0.008819341455056886,0.006078150331500367,0.986553153674286
2014-07-17,0,-9.813049326497323e-06,8.40331555839039e-05,-0.008099011496262841,0.009404259579590762,0.9863048670911312
2014-07-21,1,0.0004446756935141281,0.0006003960040893274,-0.008099011496262841,0.009404259579590762,0.9864890134422669
2014-07-23,1,0.0026571756849483666,0.0031273784521535924,-0.009434883878748638,0.009112227443202508,0.9901646972616723
2014-07-25,1,0.0028293111672159435,0.003335787631074667,-0.009434883878748638,0.008692711752215487,0.991308374758145
2014-07-29,1,0.0023985755064689866,0.0028301223968550306,-0.0044295089714431,0.009809889023466516,0.9910678939142964
2014-07-31,1,0.0018496642747479408,0.0021945198123518913,-0.01011941923739865,0.009809889023466516,0.9906472332423031
2014-08-04,1,0.0017268230122893806,0.0020428049672482546,-0.004976185131010034,0.009919611153604697,0.990611812230931
2014-08-06,1,0.0011757123323401857,0.0013866355489244233,-0.004976185131010034,0.009919611153604697,0.9902997434903025
2014-08-08,1,0.001171444023845072,0.0014040062692939784,-0.002586630373665177,0.009919611153604697,0.9911910705237278
2014-08-12,1,0.0019044058710784568,0.002267668096246776,-0.002586630373665177,0.009919611153604697,0.9914890468849886
2014-08-14,1,0.0018636984595926994,0.002166637152931884,-0.003905226022083581,0.009967544532257544,0.9907290426946315
2014-08-18,1,0.0020118176118353523,0.002340063605203854,-0.008546570389320095,0.010298968269933527,0.9895757746693808
2014-08-20,1,0.002411551607646541,0.002826814055185129,-0.0037767587931018635,0.009426947375858887,0.9907728026003491
2014-08-22,1,0.003843411725300832,0.0045884677231300625,-0.011979152972539781,0.008846807020976384,0.9887573298278142
2014-08-26,1,0.005237268100274023,0.006272967223686364,-0.011979152972539781,0.008846807020976384,0.9881156622105453
2014-08-28,1,0.0034224198684207285,0.004092916676196927,-0.008766275645760421,0.008846807020976384,0.9892912807457649
2014-09-02,1,0.003987069682382315,0.0046777521216664186,-0.008766275645760421,0.006924815994452157,0.988826765386443
2014-09-04,1,0.0030318920634490026,0.0035366640307924906,-0.006549161340537691,0.010348300616201712,0.9897617357860594
2014-09-08,1,0.002631819581603052,0.0030089913432549834,-0.006549161340537691,0.013043640057977264,0.988384002589019
2014-09-10,1,0.0026447100488390775,0.0030022809414789243,-0.007811016227638166,0.01313429087219025,0.9878758207829262
2014-09-12,1,0.003720197219508719,0.004259348179701357,-0.012785079590254211,0.012041577102610964,0.9870662696479486
2014-09-16,1,0.002128274759111778,0.002252016742703782,-0.011105584185144955,0.010166871463157732,0.9877299876397673
2014-09-18,1,0.001933231614311563,0.001998856930917072,-0.011105584185144955,0.010166871463157732,0.9873548668222771
2014-09-22,0,-5.725346381897287e-05,0.00014848095887344396,-0.008267859427243224,0.01501928114965976,0.9866964055532249
2014-09-24,1,0.0005293749851922199,0.0006675291305239171,-0.009261595635255393,0.01501928114965976,0.9853696019955931
2014-09-26,-1,-0.00031425758771467095,-5.49201369192784e-05,-0.009261595635255393,0.01501928114965976,0.9854534152462003
2014-09-30,-1,-0.0009253018202816134,-0.0005507367041467247,-0.009261595635255393,0.01721843555640839,0.9848178992855833
2014-10-02,1,0.00020764591445169287,0.0003913154174314048,-0.009261595635255393,0.01721843555640839,0.984844901596842
2014-10-06,1,0.0016103359221420468,0.001618019110735156,-0.009261595635255393,0.012812194797862357,0.9856347128510724
2014-10-08,1,0.0016963285001655708,0.0017233452725175652,-0.009161882638090315,0.013600372756874346,0.9859165172024966
2014-10-10,-1,-0.0004746692197493673,-0.0001906588019498079,-0.00823462176152153,0.013600372756874346,0.9871516782710501
2014-10-14,-1,-0.0013067776499627675,-0.000922634191354157,-0.003874443934669708,0.01817723405522476,0.9863566150254571
2014-10-16,-1,-0.001490492888665978,-0.0011093142355035274,-0.001005346356498338,0.01817723405522476,0.9862712742979836
2014-10-20,1,0.000676888373243568,0.000796101741880287,-0.0034882732902410275,0.010842453906265885,0.9893779645066615
2014-10-22,0,-2.7853331673639717e-06,0.00022112054983941672,-0.0031343893349837972,0.009667382822010486,0.9910913332460944
2014-10-24,-1,-0.0005450037788224246,-0.00024773358075046723,-0.0017353701040226323,0.009667382822010486,0.9918927516207175
2014-10-28,1,0.0002586449990558045,0.0004652269067710271,-0.0031343893349837972,0.009667382822010486,0.9925019098045033
2014-10-30,1,0.0002871893192271061,0.0004606955404987546,-0.002320344746239365,0.009667382822010486,0.9927695259408676
2014-11-03,1,0.0012764797937146887,0.0012793043419495223,-0.003679598659899708,0.007214268083247429,0.992678535737979
2014-11-05,1,0.0023760879404593864,0.0026020717365997804,-0.0064756163813902345,0.007214268083247429,0.9922382728984727
2014-11-07,1,0.0016677240878357098,0.0017646327509743738,-0.00421794029970611,0.009667382822010486,0.9926219962721315
2014-11-11,1,0.0023567365015009323,0.00253861869561116,-0.0064756163813902345,0.0054124496249877705,0.9921345129226642
2014-11-13,1,0.0021830961853038415,0.0023280481235717562,-0.006848563659936314,0.00636589173539118,0.9917039409299553
2014-11-17,1,0.0020706263275092176,0.0022335664696081746,-0.006833889798427063,0.00636589173539118,0.9916432398741889
2014-11-19,1,0.002080535125732896,0.0022456638552596302,-0.006833889798427063,0.010844102423282627,0.9900517685807936
2014-11-21,1,0.0017353940581193521,0.0018115225859011022,-0.006833889798427063,0.011624804859124998,0.9894306785817604
2014-11-25,1,0.0012253005684467809,0.0012591184604281102,-0.006833889798427063,0.011022151217142265,0.9893269816978412
2014-11-28,1,0.0006693056196426402,0.0008041126482989586,-0.006833889798427063,0.011022151217142265,0.9896449284993044
2014-12-02,1,0.00023959429712317717,0.0004187386169802866,-0.006767058807610751,0.011022151217142265,0.989635034959509
2014-12-04,-1,-0.0004014774438430008,-0.00011567625231485477,-0.006767058807610751,0.009474292245358557,0.9897006367902799
2014-12-08,-1,-0.0004193584211398783,-0.00012261292153261847,-0.006767058807610751,0.009447779256769887,0.9896748518203203
2014-12-10,-1,-0.001251069176844111,-0.0008740328476477715,-0.006767058807610751,0.010563678910189042,0.9888884286203969
2014-12-12,1,0.0008646460697950926,0.0009047101872147817,-0.00723998458669869,0.009447779256769887,0.9889263595236847
2014-12-16,1,0.0006623203610902036,0.0007012482970132452,-0.00723998458669869,0.011938134949003951,0.9872539949947767
2014-12-18,1,0.0021159656128086814,0.0023216587257603384,-0.009091223689831077,0.009447779256769887,0.9884397507333517
2014-12-22,1,0.002257513444203732,0.002440785072232652,-0.009091223689831077,0.009447779256769887,0.9881216203618085
2014-12-24,1,0.0017723696166973024,0.0018854743910465994,-0.009211005754259134,0.009315431396075852,0.9882323712399469
2014-12-29,1,0.001238668250813388,0.001251113553238758,-0.015266833249783621,0.009315431396075852,0.9866084457673708
2014-12-31,1,0.0008432936793702423,0.0009018502698107207,-0.017480638947320437,0.009315431396075852,0.9860534137600956
2015-01-05,1,8.183912895635796e-05,0.00020458790798440083,-0.015266833249783621,0.010882593007931506,0.9861400812224237
2015-01-07,1,0.0008453250053552142,0.0008495920246275934,-0.015266833249783621,0.012442208013841926,0.9854047633988064
2015-01-09,1,0.0007216324698704371,0.000733877427081033,-0.015266833249783621,0.009660858482406985,0.9859983173825725
2015-01-13,1,0.0008275105401369557,0.000833333560347848,-0.015266833249783621,0.007964538456777998,0.9864645221214482
2015-01-15,1,0.0009959420754930308,0.0010366975153180019,-0.01351093120248348,0.007964538456777998,0.9876766026392855
2015-01-20,1,0.0010584604141568059,0.0011331926053027048,-0.008931607424663708,0.006463523666010936,0.9886513354272596
2015-01-22,1,0.0007187331690974266,0.0007446895854205009,-0.008931607424663708,0.0060618533673535485,0.989392207317836
2015-01-26,1,0.0007062457319378224,0.0007071750862044774,-0.007403386146247523,0.005098600554461627,0.9902239330302408
2015-01-28,-1,-0.0010517836241065634,-0.0008107736609355064,-0.004509968636815741,0.005098600554461627,0.9917284583038513
2015-01-30,-1,-0.0015228913916553828,-0.0012353444810623174,-0.004509968636815741,0.0060618533673535485,0.9921204142012282
2015-02-03,-1,-0.0003338296252480353,-0.0002050385515590565,-0.007403386146247523,0.0060618533673535485,0.9919709408751773
2015-02-05,1,0.0004017025193434715,0.000422040350883802,-0.0077229348646257,0.0041851322995271325,0.9925582257152791
2015-02-09,-1,-0.0009379433560239727,-0.0007388089379461848,-0.004727996133920424,0.0041851322995271325,0.9937900481744053
2015-02-11,-1,-0.0011673273071545164,-0.0009389068687139419,-0.004727996133920424,0.006431910424972598,0.9927218237829216
2015-02-13,-1,-0.001123326215358757,-0.0008481410196688827,-0.00874169495132664,0.006431910424972598,0.9920851462282319
2015-02-18,-1,-0.0007903839141744146,-0.0005778440928734892,-0.00874169495132664,0.006241990807217219,0.9920123381245074
2015-02-20,-1,-0.0010838875102567578,-0.0008126439015951836,-0.00874169495132664,0.006241990807217219,0.9922984196027943
2015-02-24,-1,-0.0012716051430528767,-0.0009798833220671294,-0.009228842823439994,0.006241990807217219,0.9921293233684688
2015-02-26,-1,-0.0013526699088679088,-0.0010767880566053389,-0.010462053179724973,0.006788089226172768,0.9913567467320487
2015-03-02,-1,-0.001011598657401772,-0.0008220412215638884,-0.009228842823439994,0.008580500465458309,0.9911661537480603
2015-03-04,-1,-0.0010425842693829927,-0.0008629752616072172,-0.004833840463175597,0.0065101064774809765,0.9922995207803591
2015-03-06,-1,-0.0022155976066904597,-0.0018367001432049185,-0.003072980533044658,0.008602076445176798,0.9919456746267683
2015-03-10,-1,-0.002919372429271172,-0.0024372418505156195,-0.0025461482161319837,0.008602076445176798,0.9920223701276282
2015-03-12,-1,-0.002274356034345444,-0.0018568601281976078,-0.0025461482161319837,0.0065101064774809765,0.9916627377476612
2015-03-16,-1,-0.0006114780263183285,-0.00047623085954872084,-0.0025461482161319837,0.0065101064774809765,0.9919827902789865
2015-03-18,-1,-0.0008444538636912868,-0.0006659377785603049,-0.0035242285122050513,0.008665076489155862,0.9912747376302306
2015-03-20,-1,-0.0011946582322689759,-0.0009604130676787505,-0.003818188731131748,0.013391893538220654,0.9900286236603636
2015-03-24,-1,-0.0010208485007841403,-0.0008492197183036078,-0.004557353140197295,0.013391893538220654,0.9872926384504994
2015-03-26,-1,-0.0012894269999328993,-0.0010778901185038259,-0.0058620151729254135,0.013391893538220654,0.9875737770074412
2015-03-30,-1,-0.0007280199178157601,-0.0005954460533502913,-0.008704043413170158,0.009593818361064273,0.9875754608467912
2015-04-01,-1,-0.00032635221379324376,-0.00026931985032474656,-0.010683722631208974,0.009593818361064273,0.9869139010595102
2015-04-06,-1,-0.00012692141502814418,-7.183525401102279e-05,-0.010683722631208974,0.005201726632734022,0.9873898606392342
2015-04-08,1,0.00010316352526144513,0.00012362491842140695,-0.010744452504356286,0.005201726632734022,0.9866557536396651
2015-04-10,1,0.0012903021626434919,0.0014651644475546018,-0.010744452504356286,0.005201726632734022,0.9876044690593346
2015-04-14,1,0.0011970461162870098,0.0013425203014419298,-0.010683722631208974,0.004030822117135436,0.9889449399295602
2015-04-16,1,0.001674640757538756,0.0018869237594080893,-0.010683722631208974,0.0049392269725795175,0.9893260784848416
2015-04-20,1,0.0021321446332164405,0.0024137083516269867,-0.010683722631208974,0.004030822117135436,0.9903520291962584
2015-04-22,1,0.00024113322595738232,0.00027110235792411207,-0.009134481653417665,0.004030822117135436,0.9929313734203445
2015-04-24,-1,-0.00027855922728801203,-0.0002501742870324439,-0.00748535832679127,0.00442034685927745,0.993643407873582
2015-04-28,-1,-0.0004424153249072806,-0.0003792934049781804,-0.00748535832679127,0.00442034685927745,0.9931299135008926
2015-04-30,-1,-0.0011155892849816374,-0.0009692307175817348,-0.0044671194572115085,0.00442034685927745,0.9928359823144494
2015-05-04,-1,-0.0007117522141771547,-0.0006311440245324798,-0.006710516222904234,0.005758845539069131,0.9914636940197143
2015-05-06,-1,-0.001880367684573333,-0.001617211523637101,-0.003830143816952322,0.005758845539069131,0.9914416546998486
2015-05-08,-1,-0.0014586207441753384,-0.0012507436495245061,-0.0068376054638557195,0.00442034685927745,0.9918070348508086
2015-05-12,-1,-0.0016578219088774922,-0.001408537285230974,-0.0068376054638557195,0.0074376155319215475,0.9906537541657584
2015-05-14,-1,-9.90594775696187e-05,-7.7746682627151e-05,-0.009291762402254333,0.00433022114393631,0.9907489057031129
2015-05-18,1,0.0002146555296497635,0.0003099845905160008,-0.009291762402254333,0.00433022114393631,0.9905084327502398
2015-05-20,-1,-0.000406085212891103,-0.00040088031042004454,-0.008304728394393932,0.007260434458103054,0.9906521126828984
2015-05-22,-1,-0.00022961005651116453,-0.00020492553662661235,-0.008304728394393932,0.010455301079384239,0.9903638539446884
2015-05-27,-1,-0.00023669941512978975,-0.00021254824381754158,-0.008121467962122963,0.005395176684363371,0.9911527711493915
2015-05-29,-1,-0.0011146234928431492,-0.0009929965967038156,-0.006562581559491119,0.006045352594276586,0.9918546705080417
2015-06-02,-1,-6.000715417665282e-05,-3.15750551732721e-05,-0.008121467962122963,0.004694142796864644,0.9919679696033138
2015-06-04,-1,-0.00023466386226917723,-0.00023265226611037762,-0.006257114867047988,0.004694142796864644,0.9924666371004337
2015-06-08,-1,-0.0004890608473489575,-0.0004659525108207696,-0.006257114867047988,0.0054325827758280355,0.9918431302588886
2015-06-10,1,0.00045352896865663366,0.0005619319586280363,-0.0064001989955383524,0.004694142796864644,0.9926187799943428
2015-06-12,-1,-4.50803877842842e-05,-9.521579050159146e-06,-0.0057139463688843295,0.006180830137173735,0.9918364244274697
2015-06-16,-1,-0.0001795173298273981,-0.00014619889085675322,-0.0057139463688843295,0.006180830137173735,0.9916023816054088
2015-06-18,1,6.654835823054344e-05,0.00012288146602819255,-0.0057139463688843295,0.005143290050325577,0.992485528616807
2015-06-22,-1,-0.00034425586248259393,-0.0002909250897396077,-0.0057139463688843295,0.006180830137173735,0.9915207027485902
2015-06-24,-1,-0.0008127560161297184,-0.0006913457110032536,-0.0014657095088991294,0.013297486511867455,0.9870202160200529
2015-06-26,-1,-0.00016548508978427257,-0.00015166502418487897,-0.00411499996988663,0.013297486511867455,0.9865325528570911
2015-06-30,-1,-0.00029581376215000665,-0.0002827898543299422,-0.00411499996988663,0.013297486511867455,0.9875510095629456
2015-07-02,-1,-0.0005921752122141782,-0.000514284623516127,-0.006179956671754981,0.013297486511867455,0.987189236287806
2015-07-07,-1,-0.0006397005055993007,-0.0005527261993431851,-0.006179956671754981,0.013297486511867455,0.9877255837145045
2015-07-09,-1,-0.0005679302863324843,-0.0005119083772572434,-0.008170378504661362,0.013297486511867455,0.9872400009530494
2015-07-13,1,0.00035574763514988094,0.00041545851688899813,-0.008170378504661362,0.009478911261889218,0.987809840447164
2015-07-15,-1,-0.00015670124648579196,-0.00015655710087806172,-0.005197141977669773,0.009478911261889218,0.9883408614350756
2015-07-17,-1,-0.00021867283875507705,-0.0002036157331906706,-0.005197141977669773,0.009478911261889218,0.9880901225177389
2015-07-21,1,0.00032256764598621564,0.0003675643604678728,-0.006500633773981834,0.004341978708830412,0.988899317514623
2015-07-23,1,0.0017988404437325276,0.002031438865688027,-0.008349767387802172,0.00016036758613533413,0.9915370696165969
2015-07-27,1,0.0014415989340676421,0.0016189846685893642,-0.012092170962775602,0.00016036758613533413,0.9906411645181814
2015-07-29,1,0.0009171975505434054,0.0010134486449254704,-0.012092170962775602,0.004341978708830412,0.9897420612458264
2015-07-31,1,0.00045962747987891145,0.0004786161273113269,-0.007840972963142607,0.006360314782345704,0.9897835557434437
2015-08-04,1,0.0006084478379805119,0.0006763321248547186,-0.00809362106370752,0.006360314782345704,0.9893101294120119
2015-08-06,1,0.0006053817912949854,0.0006975829873349375,-0.006312911089937813,0.006360314782345704,0.989431062286108
2015-08-10,1,0.0007908453507533292,0.0009025823165867441,-0.00740178898554617,0.006360314782345704,0.9886151543406095
2015-08-12,1,0.0006418638877563998,0.0007204334712983048,-0.011398174068662859,0.006360314782345704,0.9878214538921576
2015-08-14,1,0.0005624897636337318,0.0006202046875808594,-0.011398174068662859,0.007371941065118076,0.9873291677888041
2015-08-18,1,0.0004407857428417141,0.00048403242225675594,-0.011398174068662859,0.007371941065118076,0.9876048202192804
2015-08-20,1,0.00012587520317612855,0.00014088392097580876,-0.011398174068662859,0.007880715703495612,0.9878551972186134
2015-08-24,-1,-3.6854685434530598e-06,-1.5593758198490628e-06,-0.010997175922332885,0.007880715703495612,0.9884203036676555
2015-08-26,1,0.0004966167688996429,0.0005790923922645452,-0.010997175922332885,0.0065234631448744165,0.9896531734768957
2015-08-28,1,0.00021347365951633913,0.00023672674300837071,-0.014798794147924763,0.005406379515290783,0.9876203074419259
2015-09-01,1,0.0005304369101123061,0.0006622004495633834,-0.015574058475037345,0.0065234631448744165,0.9874428350577842
2015-09-03,1,0.0007070246436329832,0.0008499248162987323,-0.015574058475037345,0.0065234631448744165,0.9869481031752595
2015-09-08,1,0.001360581233058027,0.001622690133797673,-0.017920806747050717,0.0065234631448744165,0.9872384525200573
2015-09-10,1,0.0013235367337355525,0.0015939644729777965,-0.015574058475037345,0.007631643991160726,0.9876127983752921
2015-09-14,1,0.00028563880705611427,0.0003324202902734673,-0.017699094987297843,0.006804748920336311,0.9872644262294886
2015-09-16,1,0.0002579495355879645,0.0002822272853106557,-0.017699094987297843,0.004866873416430799,0.9869395865847697
2015-09-18,1,0.00019636037748179812,0.00022854058418911234,-0.017699094987297843,0.008612548318988717,0.986827804294752
2015-09-22,-1,-0.0005418558547593261,-0.0004570610033646096,-0.012848504271007442,0.009482393836655511,0.9868208534395934
2015-09-24,-1,-0.0003812274852148447,-0.0003264569015478045,-0.012848504271007442,0.01200594411444739,0.9843330977355386
2015-09-28,-1,-0.0012746859527978877,-0.0011051131074758494,-0.008947252535704947,0.01200594411444739,0.9863329312814291
2015-09-30,-1,-0.001276200100942121,-0.001112974247844242,-0.007401013850511754,0.01200594411444739,0.9871541144714618
2015-10-02,-1,-0.000776233852973718,-0.0006713386942393434,-0.00705864325955823,0.00907125283232859,0.9882544108534449
2015-10-06,-1,-0.0010581765777846863,-0.0009324850734927826,-0.006590635634949894,0.012000108629347148,0.9887495470029659
2015-10-08,-1,-0.0007687161855219345,-0.0006727294009631244,-0.006590635634949894,0.008534067915445375,0.9894711954071328
2015-10-12,-1,-0.0012229899864665556,-0.001061709076621283,-0.005988564649379089,0.008534067915445375,0.9901099584160544
2015-10-14,-1,-0.0012485499147105237,-0.0010899835120673305,-0.005988564649379089,0.009521332902005335,0.9898007540947926
2015-10-16,-1,-0.0007491906448937265,-0.0006550573379227268,-0.005988564649379089,0.006861687653739661,0.9909633812759582
2015-10-20,-1,-0.0008505566976647965,-0.0007337834509958876,-0.005050672977696142,0.004828314318591635,0.9922573669089334
2015-10-22,1,0.0001188329219439461,0.00012734056537560228,-0.005050672977696142,0.004828314318591635,0.9940871451201495
2015-10-26,-1,-0.00019298747888248327,-0.00016001867266769775,-0.004338713653461928,0.005299357707957498,0.9933537754693473
2015-10-28,-1,-9.745533277605864e-05,-6.703516671501183e-05,-0.004593148559183949,0.004407267348660077,0.9933834399055912
2015-10-30,-1,-4.757798635393614e-05,-4.6466125728438605e-05,-0.004272671381273026,0.004407267348660077,0.9935475526506932
2015-11-03,1,4.1388110046226876e-06,1.2473303776313322e-05,-0.004593148559183949,0.004259772787319826,0.9937463906983589
2015-11-05,-1,-0.0002289024002720326,-0.00018330507947769372,-0.005050672977696142,0.004435827054005186,0.9920395062712064
2015-11-09,-1,-0.00015469914322554937,-0.0001294202004129075,-0.005165310534920735,0.004435827054005186,0.9914987418647975
2015-11-11,-1,-0.00015395485383505727,-0.00013052268267928566,-0.004593148559183949,0.004435827054005186,0.991081299324182
2015-11-13,-1,-0.00026840045752692343,-0.00021802976013560903,-0.00481485179638182,0.006180365102065648,0.9905849195774332
2015-11-17,-1,-0.00023524017054026152,-0.00019538642323110576,-0.004616724979815113,0.015198774229485889,0.9895020908387897
2015-11-19,-1,-0.00023503991492777597,-0.00018176930415123548,-0.005909276623527923,0.01132146313794172,0.9897215829092576
2015-11-23,1,0.00015622470076458907,0.00016276203112966866,-0.005909276623527923,0.00973828376149654,0.9905873435008038
2015-11-25,1,0.00010470981136222269,0.00011753093775967993,-0.005909276623527923,0.010464529355567239,0.9903113932566563
2015-11-30,0,-3.0524527361831146e-05,9.933694979381364e-06,-0.005909276623527923,0.011481101751007384,0.9899027377894432
2015-12-02,1,0.00028765745281537214,0.0003261804411768068,-0.005931987091310696,0.011481101751007384,0.9899453250794418
2015-12-04,1,0.0003253592955376027,0.0003388719896872461,-0.002387012487970799,0.010425385659331484,0.9915202874675725
2015-12-08,-1,-0.0001417909474496226,-9.917143008515783e-05,-0.002387012487970799,0.010425385659331484,0.990868377010945
2015-12-10,1,0.0006667123424851109,0.000755755114886372,-0.002387012487970799,0.00973828376149654,0.991909241790461
2015-12-14,1,0.001895378572584828,0.0022550370386464707,-0.0008914375267716785,0.008667087514698912,0.9926121814035352
2015-12-16,1,0.0022097686956005645,0.002580294532565837,-0.0008914375267716785,0.006336657156753241,0.9930896382449752
2015-12-18,1,0.001655235765233098,0.0019436607579976389,-0.0008438646096457967,0.006336657156753241,0.993702746370769
2015-12-22,1,0.0017853066992348954,0.0020732342127559714,-0.0008438646096457967,0.006336657156753241,0.9933709344096976
2015-12-24,1,0.001725885357461579,0.0019930560440216665,-0.0020326538586032976,0.005594492761902964,0.991932974856021
2015-12-29,1,0.0018869809818459077,0.0021658650718596206,-0.01209808951383154,0.004923196907607044,0.9906394429701673
2015-12-31,1,0.0018023107444232417,0.0020898841991418677,-0.006079453094631435,0.005594492761902964,0.9901358531820971
2016-01-05,1,0.0020097994507545305,0.0023183452481237146,-0.008739257351893506,0.005594492761902964,0.9896108538348214
2016-01-07,1,0.0014277495716882842,0.0016601087166350009,-0.008739257351893506,0.0069147252103576055,0.9890924455259604
2016-01-11,1,0.0018638251344352107,0.002157474239443255,-0.013919336125292253,0.006843247071574231,0.9866832617248412
2016-01-13,1,0.001521903669563736,0.0017309403041396258,-0.013919336125292253,0.011128207004661531,0.9852029490008881
2016-01-15,1,0.0018297691554137947,0.0020243872101884794,-0.013919336125292253,0.011128207004661531,0.9850053609415279
2016-01-20,1,0.0020548870814338645,0.002324126214835265,-0.013919336125292253,0.012522198101844942,0.9849265372458819
2016-01-22,1,0.002479540042734049,0.002811527938863287,-0.013919336125292253,0.011125651838432546,0.9852486694518514
2016-01-26,1,0.0013152392379553145,0.0014632556536343093,-0.005843922755348251,0.011125651838432546,0.9863176664465223
2016-01-28,1,0.0007810888950979054,0.0008839242146283044,-0.000131215713383326,0.012522198101844942,0.9867586652557597
2016-02-01,1,0.001669075375131035,0.0019094098182258676,-0.004912785789790762,0.012522198101844942,0.9875047661565417
2016-02-03,1,0.0015419642584910452,0.0017407064299865434,-0.0008825076052661403,0.012522198101844942,0.9881258950019596
2016-02-05,1,0.000972440305266047,0.0010873594742880541,-0.0008825076052661403,0.01075658715693533,0.9894054305363627
2016-02-09,-1,-6.418642709440947e-05,-5.419342936978049e-05,-0.0008825076052661403,0.011121313310877852,0.990661821461731
2016-02-11,1,0.00041910738774156346,0.0004615912129943201,0.001147521034525477,0.010932835318988574,0.9920861545577953
2016-02-16,1,0.0005730898990582037,0.0005911890559796046,-0.0008825076052661403,0.010932835318988574,0.9918271313100696
2016-02-18,1,0.0006881097428287346,0.0007103048115447252,-0.005025736892218134,0.010290477282022628,0.9903281968154293
2016-02-22,1,0.00017397732105291902,0.00028751279163543854,-0.005025736892218134,0.010932835318988574,0.9892335868661678
2016-02-24,1,1.4050280713118917e-05,0.0001603961073614061,-0.006371978615520853,0.012272042250564979,0.9888130004211573
2016-02-26,1,0.0007066466166401762,0.0007481002429997681,-0.006371978615520853,0.010932835318988574,0.9896740727747653
2016-03-01,1,0.0004988091029821361,0.0005952224822876552,-0.006414799143352294,0.010932835318988574,0.9888434806211355
2016-03-03,1,0.000682483330089672,0.0007363107799143009,-0.006414799143352294,0.010932835318988574,0.9884000589054819
2016-03-07,1,0.00019689960734315266,0.0003317646881254072,-0.007945017558510578,0.012272042250564979,0.986892324166679
2016-03-09,0,-0.00013035506894459186,6.625144818025639e-05,-0.007945017558510578,0.015727297397872955,0.9859766921832452
2016-03-11,1,0.0004192797831682002,0.0005216730483367562,-0.007945017558510578,0.015727297397872955,0.9861922092414251
2016-03-15,1,0.0005880051652262469,0.0006649243831507594,-0.005848678683801167,0.010248310659866443,0.9872445609078758
2016-03-17,1,0.0003354678463859003,0.0004164948825812088,-0.005425987248713735,0.010248310659866443,0.9889204156866814
2016-03-21,1,0.0013393945055111887,0.0013689660280005234,-0.005474591989476043,0.008688214538604909,0.9904555971052683
2016-03-23,1,0.0012807833665854401,0.0013255499148122987,-0.005166891645308178,0.008688214538604909,0.9896788770239889
2016-03-28,1,0.0009033183913267583,0.0009292448446222477,-0.005376002854888964,0.008688214538604909,0.989586082308934
2016-03-30,1,0.0016802066787372503,0.0017730202937559002,-0.005376002854888964,0.00822798438121873,0.9910685893095021
2016-04-01,1,0.0019028962090939924,0.0020052324333284695,-0.005956111395931475,0.005345281440445141,0.9908269576847972
2016-04-05,1,0.0017799721946334928,0.0018552089345162742,-0.005956111395931475,0.005345281440445141,0.9911449022102629
2016-04-07,1,0.00172607261682512,0.0017874060633866458,-0.005683366359366635,0.002903872986401663,0.99266516591784
2016-04-11,1,0.0017425343511299602,0.0018010607353553458,-0.005683366359366635,0.004795000051154901,0.9925197419291345
2016-04-13,1,0.001881358997575714,0.001946939875189659,-0.005683366359366635,0.004351239051933671,0.9927081809813896
2016-04-15,1,0.001743826998535882,0.0018045136542798174,-0.005683366359366635,0.004795000051154901,0.9923660294737434
2016-04-19,1,0.00201104139677054,0.0021488656576160356,-0.0061656205805482025,0.006415829591962182,0.9912067979751041
2016-04-21,1,0.002552517977452325,0.00274913626088429,-0.0061656205805482025,0.0059776283634398394,0.9924976587363846
2016-04-25,1,0.002340660254358465,0.0025079216475554196,-0.00643198703282442,0.006601965820209266,0.992037048445458
2016-04-27,1,0.0018392737891333405,0.0019251074631828316,-0.00577215517679204,0.008171822787414278,0.9917956017838653
2016-04-29,1,0.001552043514269587,0.0016186411740181273,-0.00577215517679204,0.008171822787414278,0.9917923489839344
2016-05-03,1,0.0006401273566672377,0.0007244012289522902,-0.003691785454262109,0.007110921720119037,0.9930268101486278
2016-05-05,1,0.0008978854305155314,0.0009095175327908012,-0.003301964740261844,0.007110921720119037,0.9930282030134092
2016-05-09,1,0.0011650050334895965,0.0011837760877219953,-0.003301964740261844,0.006333416558323514,0.9934625945797552
2016-05-11,1,0.0015889956525658193,0.001711204826042412,-0.003301964740261844,0.008440832126339497,0.9928684190308212
2016-05-13,1,0.001140883023247594,0.0011573239486148388,-0.003301964740261844,0.007200591499760777,0.9929080783594825
2016-05-17,1,0.000944249155293539,0.0009548826492066875,-0.0024653083885988964,0.006333416558323514,0.9944326524159451
2016-05-19,1,0.0010936964717241477,0.0011336596906461143,-0.0028479876114591318,0.005231935478394882,0.9944960222800884
2016-05-23,1,0.001331820741072755,0.001419011113598008,-0.0028479876114591318,0.005231935478394882,0.99478729365727
2016-05-25,1,0.0015981324738077699,0.0016900379221928058,-0.0028479876114591318,0.005590154519922374,0.994632421896816
2016-05-27,1,0.001305430442519271,0.001382078476391793,-0.003301964740261844,0.005590154519922374,0.992798289883231
2016-06-01,1,0.0009027451192180962,0.0009311543178437137,-0.0031026765433850682,0.009770240448466264,0.9911342660278257
2016-06-03,1,0.000796503169841738,0.000831811100406063,-0.0025322522990579026,0.009770240448466264,0.9909127369567109
2016-06-07,1,0.0007188649876453911,0.0007603694668031586,-0.0025414365264736518,0.009770240448466264,0.9905068936377548
2016-06-09,1,0.0016689029488685609,0.0017930594261361327,-0.0025414365264736518,0.008944235805380514,0.9910427806648686
2016-06-13,1,0.001253184791956924,0.0013057647717219297,-0.0025414365264736518,0.008944235805380514,0.9911546482153526
2016-06-15,1,0.0014139749635490003,0.001507144019390829,-0.0030005639540980887,0.008944235805380514,0.9908880402769357
2016-06-17,1,0.00046821070640051945,0.0005626645038474684,-0.003865733906073903,0.008944235805380514,0.9905923614988376
2016-06-21,0,-0.0002142381777464243,4.982720506733866e-06,-0.002760442268071534,0.008944235805380514,0.9888090734948893
2016-06-23,1,0.0007837086367580017,0.000812738353058477,-0.004636129105531969,0.007288856328495198,0.989134876033871
2016-06-27,-1,-0.0003822910361167017,-0.00022602930543827785,-0.002760442268071534,0.007288856328495198,0.9911283370657662
2016-06-29,1,0.00041922129314191537,0.00051293995782862,-0.003831119182427968,0.006019922562644583,0.9926461270233804
2016-07-01,-1,-0.00026183349347388973,-7.061380509479451e-05,-0.003831119182427968,0.0057438328186894564,0.9927226912417854
2016-07-06,0,-5.200005057611032e-06,0.00014200243276801659,-0.004481611808508374,0.004387008781251544,0.9928292987917638
2016-07-08,1,0.0003407450192700141,0.00042163711453674515,-0.004481611808508374,0.002817885773614299,0.9929150315741728
2016-07-12,1,6.515290677850918e-05,0.00017741157619823104,-0.004085773689691576,0.004462079728126237,0.9931589137039861
2016-07-14,1,0.00023744595366489535,0.00031523637640522897,-0.004481611808508374,0.0038739025393721965,0.9930965212939187
2016-07-18,0,-4.560966212220012e-06,9.778510713918638e-05,-0.004481611808508374,0.0038739025393721965,0.9930542246659377
2016-07-20,1,0.0010250283271512409,0.00107061832258437,-0.004887870951910231,0.0030763964077612834,0.9943160890266416
2016-07-22,1,0.0008322627609508543,0.0008527124119107805,-0.004650588936509558,0.003484059244141636,0.9951740338087534
2016-07-26,1,0.00042937266011876864,0.00046471404424401386,-0.004650588936509558,0.0054051172464865994,0.9949514126559368
2016-07-28,1,0.0005756845309016281,0.0005974909144810807,-0.004650588936509558,0.004327109059466486,0.994907897431462
2016-08-01,1,0.0004324635247249543,0.00047463545397599395,-0.004650588936509558,0.003484059244141636,0.9952128278986578
2016-08-03,1,0.0002855153631686989,0.00033654367888722695,-0.002411669839456727,0.003484059244141636,0.9955753656061538
2016-08-05,1,0.00042991224052999833,0.0004619246408064531,-0.002579694430471394,0.003484059244141636,0.9956753750514263
2016-08-09,-1,-0.00015076754150850427,-2.626544905743244e-05,-0.004444564764549401,0.003484059244141636,0.995466740607894
2016-08-11,1,0.00021193498049091466,0.0002596458497482111,-0.004444564764549401,0.0034691894570907074,0.994695008509807
2016-08-15,0,-2.8616169324492224e-05,5.498176241866055e-05,-0.004444564764549401,0.004178236073450381,0.9938587956666115
2016-08-17,-1,-0.00021905928436035538,-0.0001147035276753269,-0.0017458893061566647,0.0049127374391024995,0.9936619208482409
2016-08-19,1,9.647832921659826e-05,0.0001457530736168258,-0.0017458893061566647,0.0056845580570504045,0.9933782159192066
2016-08-23,1,0.0004436987622791663,0.00045726045960153253,-0.0017458893061566647,0.006221614940803245,0.9933441751219245
2016-08-25,1,0.00013299503630965841,0.00016588252942649495,-0.0017458893061566647,0.0070929443814232405,0.9924815403051547
2016-08-29,1,0.00018752285940540022,0.00020838764055488632,-0.0024843966469642095,0.008368200488945623,0.9916230464159556
2016-08-31,1,9.805009880767839e-05,0.0001314736825377692,-0.0035691435146971567,0.008368200488945623,0.991386934864463
2016-09-02,1,0.00017872901856783526,0.00019267879467001903,-0.004246985591242633,0.008368200488945623,0.990929573768209
2016-09-07,1,0.0001259787095464209,0.00015147051505247467,-0.0035691435146971567,0.008368200488945623,0.9912844572680499
2016-09-09,-1,-0.00020171310184792531,-0.00013681436219583959,-0.002834880275973886,0.008368200488945623,0.9920935053681375
2016-09-13,-1,-6.628841797449921e-05,-3.069901500866068e-05,-0.002834880275973886,0.00804048890515525,0.992018640432545
2016-09-15,1,0.0004388573915644953,0.0004624089809400342,-0.002834880275973886,0.006959431931196994,0.9928179614660523
2016-09-19,1,0.0003192606846503314,0.0003207138948341401,-0.0035691435146971567,0.006177110790727829,0.9929313618826594
2016-09-21,1,0.00047555997360931027,0.00048612649837254606,-0.005059696371823606,0.004328490197953759,0.9899758415311751
2016-09-23,1,0.00034280624003078406,0.0003693981646669292,-0.0045402004848207845,0.0032023119148828355,0.9912504219955077
2016-09-27,1,0.0006429234531527561,0.0006439730385143277,-0.006092763137257436,0.0032023119148828355,0.9914711093187542
2016-09-29,1,0.0006409799810590443,0.0006556572379753018,-0.007745748417146552,0.0028199274642987464,0.9905523454435795
2016-10-03,1,0.00048132129730628164,0.0004883637801528761,-0.006092763137257436,0.0038993530273962003,0.9907395145563033
2016-10-05,1,0.00042094571221600263,0.00043675792377520587,-0.006092763137257436,0.0038993530273962003,0.9904849764098311
2016-10-07,1,0.00023643686838396678,0.00028249742265457913,-0.006092763137257436,0.005828454385519429,0.9901256687416118
2016-10-11,1,2.1935636556342277e-05,8.828520929950661e-05,-0.0049208952090045634,0.008691243296953595,0.9905620667755896
2016-10-13,1,0.00013048067850572435,0.0001779871158131748,-0.007745748417146552,0.008691243296953595,0.9871489650072416
2016-10-17,1,0.00017699847644441998,0.00021071440918248453,-0.011091840461627598,0.008691243296953595,0.9863344673879945
2016-10-19,-1,-0.0008229959440536306,-0.0006572119485638978,-0.006187260756138088,0.008691243296953595,0.9885495395484829
2016-10-21,-1,-0.0008706243233675588,-0.0007039780355772565,-0.005534888714888036,0.009930943421511112,0.987919106457115
2016-10-25,-1,-0.0009269969280621265,-0.0007467393483529598,-0.008597487902727127,0.009930943421511112,0.9866677986071545
2016-10-27,-1,-0.0015127115656574212,-0.0012581437020817985,-0.003809475304834181,0.010182521101148454,0.9863086315750051
2016-10-31,-1,-0.0008683205355966612,-0.0007113417265561051,-0.006886259178608689,0.010182521101148454,0.986314631398376
2016-11-02,-1,-0.0013804939099588266,-0.001152231422199895,-0.014507174756963639,0.010182521101148454,0.98530402095037
2016-11-04,-1,-0.001253245231083285,-0.0010385000980657642,-0.014507174756963639,0.01001697237200156,0.98547522267588
2016-11-08,-1,-0.0008595937738363068,-0.0006813767412141568,-0.018706300206941952,0.007091865149091063,0.9853385634369043
2016-11-10,-1,-0.002575715761408061,-0.002200996463781111,-0.01093587098711928,0.008260024025788496,0.9878960028190444
2016-11-14,-1,-0.0026690986523006457,-0.0023136780417632938,-0.005638716548054779,0.009710318514264396,0.98804287954549
2016-11-16,-1,-0.0027167931936089647,-0.0022949530791003575,-0.005638716548054779,0.008260024025788496,0.9892956907448869
2016-11-18,-1,-0.0015645476279033193,-0.001336724559175614,-0.006595003123784193,0.007091865149091063,0.9902039511197526
2016-11-22,-1,-0.0019463952030408535,-0.0016845861455657828,-0.005929040325296859,0.004737914780087043,0.9918719041766633
2016-11-25,-1,-0.0011328877009392272,-0.0009737653418454916,-0.005929040325296859,0.004276865960334498,0.9924032249162966
2016-11-29,-1,-0.0012713070158754704,-0.0011097165393947753,-0.005929040325296859,0.004082301987610758,0.992958050428682
2016-12-01,-1,-0.0019934221931267506,-0.0017406912426301123,-0.004469410831559955,0.004082301987610758,0.9938609286602087
2016-12-05,-1,-0.0017848723946491153,-0.0015585897471458291,-0.005536142391272533,0.004082301987610758,0.9928766756976533
2016-12-07,-1,-0.002484996138322237,-0.002168581804959664,-0.004160582001019019,0.005150210089866826,0.9932127499031254
2016-12-09,-1,-0.0021784981428074556,-0.001973448628254823,-0.004160582001019019,0.0061144431083959986,0.9917491097733709
2016-12-13,-1,-0.0018364335096982798,-0.0016404022569228307,-0.005536142391272533,0.0061144431083959986,0.9907385310140698
2016-12-15,-1,-0.0016767854378475747,-0.001494861945427751,-0.005536142391272533,0.0061144431083959986,0.9910794257747177
2016-12-19,-1,-0.0015663926689835931,-0.0014077473096324052,-0.005929040325296859,0.0061144431083959986,0.9912159392722455
2016-12-21,-1,-0.001774911420517963,-0.0016029246803395533,-0.0028989122341000753,0.0061144431083959986,0.9915451417117838
2016-12-23,-1,-0.00132977495013413,-0.001197772544071048,-0.0028989122341000753,0.00912315521110696,0.9890781209977773
2016-12-28,-1,-0.0013452725415039168,-0.00122644368238669,-0.0028989122341000753,0.00912315521110696,0.9882053059948627
2016-12-30,-1,-0.0012404217715451414,-0.0011440202585493368,-0.0021477358423449677,0.00912315521110696,0.9882088628412843
2017-01-04,-1,-0.0014144253809892085,-0.0012979193141459042,-0.0017561310367203847,0.006728049909383177,0.9890493439806628
2017-01-06,-1,-0.0010686654840076871,-0.0009892457583668191,-0.0017561310367203847,0.006728049909383177,0.9893063263332382
2017-01-10,1,0.00010463635651967055,0.0001452788441750591,-0.0020503241966232273,0.004734871074392435,0.9912949252708808
2017-01-12,1,0.00029487400973556694,0.00037385798660695066,-0.0017561310367203847,0.004149163758547832,0.9932644750194259
2017-01-17,1,0.00047631820487277645,0.0006012885091973934,-0.0017561310367203847,0.005553178264805092,0.992803993932286
2017-01-19,1,1.762282096802356e-05,5.835346840974548e-05,-0.001185506035475869,0.006016109111922933,0.9926713078897891
2017-01-23,-1,-6.147159779899438e-05,-2.678828131523665e-05,0.001958949386027509,0.006338120679746493,0.9921229737441634
2017-01-25,1,0.001999229213435823,0.0023034937694011363,0.0001181497076221586,0.005553178264805092,0.9962644553903238
2017-01-27,1,0.0015895041937420834,0.0018436825185712464,0.0001181497076221586,0.004863074320926859,0.9969289763293895
2017-01-31,1,0.0016673374615171197,0.0019352751841622776,0.0015897062038365307,0.005646595037034989,0.9969259874514587
2017-02-02,1,0.001645879011756714,0.0018740074664038672,0.0015474106521301818,0.004737438504701111,0.9971765697406093
2017-02-06,1,0.0017217325799265973,0.0019482883986855393,-0.0003474805489369275,0.004737438504701111,0.9962266392965345
2017-02-08,1,0.0018601825275623063,0.0021387946124021037,0.0001181497076221586,0.005646595037034989,0.9959722397492833
2017-02-10,1,0.002094390762303242,0.0024228111833914257,-0.0009075855527063846,0.005646595037034989,0.9958901436157311
2017-02-14,1,0.0027179645607242316,0.0031547308913640673,-0.0009075855527063846,0.005811964389829414,0.995775620878734
2017-02-16,1,0.0031730909397368924,0.0036867938605545103,-0.0025938088013590455,0.006270765063101936,0.9953420024211934
2017-02-21,1,0.0038181777285782852,0.004444380587690196,-0.0030556427279085354,0.004737438504701111,0.9949308987013888
2017-02-23,1,0.003855670845167882,0.004482953884387544,-0.0030949432198880203,0.004421946382382164,0.9947170973042502
2017-02-27,1,0.0036997997321862363,0.004298892075696105,-0.002807079237832828,0.008444138664944808,0.9943281202347273
2017-03-01,1,0.004001516134707724,0.004640029853534941,-0.0030633383862168424,0.008444138664944808,0.9937702722606646
2017-03-03,1,0.004094072672868316,0.004743432645407096,-0.0030633383862168424,0.008444138664944808,0.9935410557015558
2017-03-07,1,0.0032661354992117447,0.0037850324402007264,-0.002807079237832828,0.008444138664944808,0.9945462207019244
2017-03-09,1,0.0036032584026576935,0.004174485414981724,-0.0026069089653522073,0.0044814308903115985,0.994717333346708
2017-03-13,1,0.003387189440553568,0.003917298958531989,-0.002433718272255675,0.006385827123847815,0.9950605961430814
2017-03-15,1,0.0034392093446027946,0.003904646514686797,-0.002855098328224891,0.0019780415177933267,0.9949277135926547
2017-03-17,1,0.003373234712104197,0.0038183195522558206,-0.002433718272255675,0.0019780415177933267,0.9954023635390888
2017-03-21,1,0.002855824768241663,0.003232423709786685,-0.002433718272255675,0.003513631718169761,0.9925634721064658
2017-03-23,1,0.001936740668391947,0.0021563080027326943,-0.0015133362387210244,0.004848190263974534,0.9927167165724146
2017-03-27,1,0.002883594916138643,0.003250264476043645,-0.0015133362387210244,0.004848190263974534,0.9929317116315927
2017-03-29,1,0.0024457976691824685,0.002727262501399599,-0.0008720308628040597,0.005815811169816107,0.9931625420242841
2017-03-31,1,0.0024071543693391737,0.0026898738371727146,-0.0009317121680781142,0.005815811169816107,0.9931165882351489
2017-04-04,1,0.002541986173304557,0.0028745728621373855,-0.00026451977936485266,0.006164225399476581,0.9933886929398315
2017-04-06,1,0.0014880537205809801,0.0015667093330075008,-0.00026451977936485266,0.006164225399476581,0.9932251493540648
2017-04-10,1,0.0012189782795455537,0.0012366239578669406,-0.0007651370852952122,0.006164225399476581,0.9927172886665449
2017-04-12,1,0.0013705082831815844,0.001448227175525914,0.00046452551060356814,0.006164225399476581,0.9929829026537909
2017-04-17,1,0.0014807130810628303,0.0015900141054559281,-0.00030405017882896134,0.006694250583098389,0.9927492143081131
2017-04-19,1,0.002447378188937202,0.002654921801336119,-0.00030405017882896134,0.006694250583098389,0.9957649823223359
2017-04-21,1,0.002589060234078836,0.002855367874771187,0.00046452551060356814,0.008206290501994272,0.9954335724116565
2017-04-25,1,0.00271734168778455,0.0029642827854167216,0.00046452551060356814,0.008206290501994272,0.9947721127595665
2017-04-27,1,0.0023387729927932966,0.002497524682297101,0.00046452551060356814,0.008317205754596959,0.9946211254261961
2017-05-01,1,0.0023055560769895526,0.0024594701088352555,0.0018293054817776168,0.008317205754596959,0.994729908615251
2017-05-03,1,0.0018922125390339105,0.001969888100551959,0.001731942588785998,0.008317205754596959,0.9945439241125518
2017-05-05,1,0.0018842288851598696,0.0019636457904536895,0.0001724368316287121,0.008317205754596959,0.994213784618043
2017-05-09,1,0.0015655371362144396,0.001611020250407914,0.001731942588785998,0.00833809855074556,0.9943931283212835
2017-05-11,1,0.001622744349144276,0.0016870712617253394,-0.00015296778499060794,0.00833809855074556,0.9935572273176182
2017-05-15,1,0.001743292711034301,0.0017863383765327394,-0.00037167125223417263,0.00833809855074556,0.9930959530996458
2017-05-17,1,0.0012603523159161224,0.001311840919679524,-0.002390785367991031,0.006644219397129713,0.993277694668696
2017-05-19,1,0.001997748380804359,0.002053814864431716,-0.002390785367991031,0.006644219397129713,0.9925392280847818
2017-05-23,1,0.0023240343895338995,0.002394236518752557,-0.002390785367991031,0.006644219397129713,0.9933048316659792
2017-05-25,1,0.002364719832339288,0.0024272003304647597,-0.0027064076623634927,0.0056276470843742545,0.9931958252501011
2017-05-30,1,0.0023003628259699654,0.0023357220203746964,-0.004900590109740472,0.0056276470843742545,0.9924154954817033
2017-06-01,1,0.0021723172041371907,0.0021923415520939686,-0.0060046712438971,0.006644219397129713,0.991281096441994
2017-06-05,1,0.002422695319747017,0.0025647250979112177,-0.007944055197048445,0.006167977470215327,0.990778228107287
2017-06-07,1,0.0023884573855007685,0.0025030832660348805,-0.007944055197048445,0.0068527023312634616,0.9900113206164661
2017-06-09,1,0.0018458343552588761,0.0018833571730397316,-0.0060046712438971,0.01034891635128576,0.9906276835332912
2017-06-13,1,0.0012035016682465857,0.0012673686047068988,-0.005136529767943182,0.01034891635128576,0.9910574826135417
2017-06-15,1,0.0006257263972018145,0.000772920209437616,-0.005136529767943182,0.011685287791801455,0.9904481637389857
2017-06-19,1,0.0025406359243804735,0.002735268940521012,-0.005136529767943182,0.007187862512706219,0.9919732309562278
2017-06-21,1,0.0023699778029295116,0.002498717829346275,-0.005136529767943182,0.007187862512706219,0.9915055502894268
2017-06-23,1,0.0021957579528159204,0.0022750661276659556,-0.0060081670724366374,0.01034891635128576,0.988562824683226
2017-06-27,1,0.0018258188814695522,0.0018624016485157145,-0.004614467902419523,0.01034891635128576,0.9889378267750354
2017-06-29,1,0.0015991231321292785,0.0016012039687580714,-0.004614467902419523,0.010058024301124888,0.989159755243766
2017-07-03,1,0.0009250040250541701,0.0010196919597829101,-0.004003578725296467,0.010058024301124888,0.989886968708049
2017-07-06,1,0.0011925948706298054,0.0012603446609933408,-0.004614467902419523,0.007163697790159229,0.9904395668018456
2017-07-10,1,0.0016110706487515536,0.0016198128186463395,-0.004614467902419523,0.006030441820350815,0.9904136443807954
2017-07-12,1,0.001488717014306345,0.0015037372464962472,-0.004003578725296467,0.006905450520748373,0.9903971231747064
2017-07-14,1,0.0016772976108040429,0.001701272156773625,-0.004003578725296467,0.006905450520748373,0.9901502880753156
2017-07-18,1,0.0013184611358887577,0.0013464175110853719,-0.003600214141211521,0.010987380899453291,0.9885314361497631
2017-07-20,1,0.0018046630032225587,0.0018197787351497798,-0.005483667528921958,0.009788723891351901,0.9886811550850078
2017-07-24,1,0.0013371452373812467,0.0013679782307660837,-0.003600214141211521,0.009788723891351901,0.9914685942821312
2017-07-26,1,0.0008012327077588439,0.0008968607422969471,-0.004606293483819066,0.010405357816340919,0.9906811070352678
2017-07-28,1,0.00021671762835595424,0.00041839773638543943,-0.004606293483819066,0.01016022212911492,0.9910161987736452
2017-08-01,1,8.965555753081211e-05,0.0002947982021765394,-0.004606293483819066,0.01016022212911492,0.9908770639814297
2017-08-03,-1,-0.0004278303357592544,-0.00014876966644529607,-0.0026286109883986025,0.01016022212911492,0.9904091590702613
2017-08-07,0,-0.00020292201056227763,2.716024672240534e-05,-0.0018272880467695572,0.012101875612742351,0.9900662319082989
2017-08-09,0,-0.0001535428759705255,7.857031205263962e-05,0.00027394388058125886,0.013805593072021652,0.9899453615491209
2017-08-11,-1,-0.0005218914171055356,-0.0002302406713647824,0.0012925279073504098,0.012087758349389745,0.9907338598346932
2017-08-15,1,0.0006580115500261832,0.0008183431488399317,-0.0007532247287193803,0.00868576907377582,0.9933238298042847
2017-08-17,1,0.0004186213487153328,0.0005656602254604072,-0.001733912054004563,0.00868576907377582,0.993913332038411
2017-08-21,1,0.0004449777969322813,0.0006040777639548191,-0.0010949668072255997,0.00813405666914195,0.9941467359296315
2017-08-23,1,0.00025315716004161153,0.0004436441100108896,-0.0010949668072255997,0.007637562689356111,0.9944951279867561
2017-08-25,-1,-0.0003262899100926601,-5.205334201497736e-05,-0.0010949668072255997,0.007637562689356111,0.9944251634718506
2017-08-29,0,-0.00021657918132882712,5.261490671808796e-05,-0.0010949668072255997,0.007478005152287887,0.9945163961753222
2017-08-31,1,0.00015259113325168236,0.00037911053599240464,-0.0010949668072255997,0.006258053654235941,0.9943740664611159
2017-09-05,1,0.00034960934974326817,0.0005708829091720835,-0.0010949668072255997,0.007478005152287887,0.9939185275617995
2017-09-07,1,0.000595126384068844,0.0007943676946895922,-0.0010949668072255997,0.007478005152287887,0.9939560169232944
2017-09-11,1,0.002073694487932503,0.002103966255242802,-0.0023050583079708216,0.007478005152287887,0.992752531405407
2017-09-13,1,0.0017571639296147872,0.0018233483811809423,-0.0023050583079708216,0.008531087058725864,0.9924756807585052
2017-09-15,1,0.0016339732452893799,0.001690186078968585,-0.0007120060169774626,0.008531087058725864,0.9925419486704806
2017-09-19,1,0.0018250162534645935,0.0018381380189992785,-0.0017251490729226072,0.008051775718662559,0.991553487120201
2017-09-21,1,0.0010028089024631311,0.0011140082413821854,-0.0009597375513811903,0.009102866559009748,0.9918893049601829
2017-09-25,1,0.00043513726470248535,0.0006129350105514378,-0.0006685005001045732,0.011156867848361996,0.9903568982493317
2017-09-27,1,0.0006123032082360894,0.0007619304878224175,-0.0009401346870887741,0.011156867848361996,0.9904120082332175
2017-09-29,1,0.0011175064561496062,0.0012329305871155325,-0.0009401346870887741,0.010354483000930033,0.9913186706901997
2017-10-03,1,0.001904156314029912,0.0019327687138943827,-0.0018162334277575282,0.00684282836310475,0.992142449497317
2017-10-05,1,0.0023435184612773793,0.0023736286457468206,-0.0018162334277575282,0.00684282836310475,0.992279575388808
2017-10-09,1,0.000983031878871076,0.0011291863140888482,-0.00028630259193790575,0.009006269375597698,0.992974850988761
2017-10-11,1,0.0019810642607468593,0.001993691586753576,-0.00028630259193790575,0.009006269375597698,0.9930497069310655
2017-10-13,1,0.0025002124949858665,0.002638976473588601,-0.0018162334277575282,0.009006269375597698,0.9929080084053008
2017-10-17,1,0.001810294670664468,0.0018778825440201818,-0.0018162334277575282,0.009006269375597698,0.9936768812392983
2017-10-19,1,0.0020996149472911185,0.0022149668782933747,-0.002000645519178401,0.01003620933614342,0.993568169876671
2017-10-23,1,0.003571878762139041,0.003883358037436823,-0.002367846503971989,0.006543120603744803,0.995017247826683
