JNU-Tangyin/eata/results/Batch4_SP500/Batch4_SP500-PG.csv
Date,Action,Predicted_Q25,Predicted_Q75,Actual_Q25,Actual_Q75,RL_Reward
2010-12-14,0,0.0,0.0,-0.0022052436191712086,0.0032005487685003234,0.995718485978984
2010-12-16,1,0.0002252839350793872,0.00025794305369805615,-0.0022052436191712086,0.0032005487685003234,0.9960725599574679
2010-12-20,0,0.0,0.0,-0.0022949184633424846,0.001738573979750006,0.996256318129739
2010-12-22,0,0.0,0.0,-0.0022949184633424846,0.0032005487685003234,0.9959692869227109
2010-12-27,0,0.0,0.0,-0.002200424787567751,0.003794214874900515,0.9960305109539392
2010-12-29,0,0.0,0.0,-0.0022949184633424846,0.003794214874900515,0.994490783098617
2010-12-31,0,0.0,0.0,-0.002466311765204307,0.003794214874900515,0.9937823207263375
2011-01-04,0,0.0,0.0,-0.0030344704042899037,0.0017043737055583716,0.9939910517456969
2011-01-06,0,0.0,0.0,-0.0030344704042899037,0.0030732194137916566,0.9935450279079415
2011-01-10,0,0.0,0.0,-0.0025492034883251814,0.0071270038971321305,0.9929992394778645
2011-01-12,0,0.0,0.0,-0.0025492034883251814,0.00393462219224431,0.9936245812974466
2011-01-14,0,0.0,0.0,-0.003033109123928668,0.002479744740466424,0.9937902416021526
2011-01-19,0,0.0,0.0,-0.0034617798670488874,0.002479744740466424,0.9933281655058998
2011-01-21,1,0.0001575214628323698,0.00016681549325664566,-0.0034617798670488874,0.0031541404867850564,0.9933541811172015
2011-01-25,1,0.0012438057037508065,0.0012664626920743673,-0.0036496697712001835,0.002479744740466424,0.9936033797001302
2011-01-27,0,0.0,0.0,-0.0033922653187778455,0.002479744740466424,0.9945536441155849
2011-01-31,-1,-0.00041964103159800086,-0.0003293247219849106,-0.0033922653187778455,0.0030485565024046465,0.9950321403571284
2011-02-02,0,0.0,0.0,-0.0036496697712001835,0.0030485565024046465,0.9948806222628658
2011-02-04,-1,-0.000991904076777574,-0.0007723056046198413,-0.004977217895543619,0.002479744740466424,0.9950598127609511
2011-02-08,0,-6.548683197219119e-05,3.054270308023801e-05,-0.004977217895543619,0.002479744740466424,0.9953987555258111
2011-02-10,0,-4.661088179312982e-05,3.759628687477953e-05,-0.005184049835945552,0.0022630963800926197,0.9953188013675017
2011-02-14,1,1.2260247667087273e-05,7.834251008810136e-05,-0.006001318397166037,0.0014973022876945373,0.9948792665607704
2011-02-16,-1,-0.0007153545769464114,-0.0005568158153274005,-0.006001318397166037,0.0025178668378050676,0.9943343600111736
2011-02-18,-1,-0.0008588279153440903,-0.0006424631277718294,-0.006001318397166037,0.0023857008457040642,0.9940936680617035
2011-02-23,-1,-0.0013837275193517846,-0.0010779933227910792,-0.006583348635549823,0.0023857008457040642,0.9941523939633891
2011-02-25,0,0.0,0.0,-0.00545384148249338,0.0029453079429003185,0.9943764801724216
2011-03-01,0,0.0,0.0,-0.00545384148249338,0.0030538703475704618,0.9941008798759065
2011-03-03,0,0.0,0.0,-0.005986974295722154,0.004209452760332877,0.9936204608538205
2011-03-07,0,0.0,0.0,-0.004682049604604093,0.006080298940985706,0.9937577344544156
2011-03-09,0,0.0,0.0,-0.005986974295722154,0.004780107273638778,0.9935296448950627
2011-03-11,0,0.0,0.0,-0.004682049604604093,0.006441298578099326,0.9934572410801518
2011-03-15,-1,-0.0010131053836845525,-0.0008846196227872071,-0.003839557869196748,0.00839941831404203,0.9931502484499526
2011-03-17,-1,-0.0026877056219037866,-0.0023596702029797362,-0.0036357416389946598,0.006441298578099326,0.9935307653843838
2011-03-21,-1,-0.002170165203751171,-0.0018845268183829277,-0.0036357416389946598,0.006441298578099326,0.9938032135354821
2011-03-23,-1,-0.0022831488528678645,-0.0019979642627784605,-0.00300688413180293,0.006441298578099326,0.9940458648024084
2011-03-25,-1,-0.0020529038577683373,-0.0018121763636873229,-0.00300688413180293,0.006441298578099326,0.9940424865188638
2011-03-29,-1,-0.0013446347437765065,-0.0012140002661507935,-0.0023453687436755825,0.006307983261342669,0.9941646320769699
2011-03-31,0,0.0,0.0,-0.0021886893644735236,0.00646593083694485,0.9946568723982122
2011-04-04,0,0.0,0.0,-0.0021886893644735236,0.00646593083694485,0.9945701180947688
2011-04-06,0,0.0,0.0,-0.0021886893644735236,0.007318678363168082,0.9941001644755395
2011-04-08,0,0.0,0.0,-0.0021886893644735236,0.007318678363168082,0.994023183539245
2011-04-12,0,0.0,0.0,-0.0021886893644735236,0.007318678363168082,0.9942204814447984
2011-04-14,1,0.0005135047450073534,0.0005490654901302553,-0.0021886893644735236,0.007656109823820747,0.9939901701342424
2011-04-18,1,0.000460182357217291,0.0004694195813950908,-0.002040636137768269,0.007318678363168082,0.9944217447458792
2011-04-20,1,7.31874828762348e-05,0.00014294812045560252,7.613713151622211e-05,0.007318678363168082,0.9944590614922898
2011-04-25,-1,-0.0004726222211806886,-0.00030834744884934825,-0.0008155663446553969,0.007318678363168082,0.9944222472550859
2011-04-27,1,0.0002897039458006832,0.0003313120290650169,-0.0016096741625506602,0.007252329791043324,0.9945983907972158
2011-04-29,1,0.0007539560392929789,0.0007541369544692545,-0.002209320993606169,0.005028367233490054,0.9950153871659584
2011-05-03,1,0.0012389218053965607,0.0013178390038720987,-0.003297197785297961,0.003960534641154233,0.9944291495905254
2011-05-05,1,0.001379232277452519,0.0014918073214656626,-0.004919947273247086,0.001620051588185266,0.9945203825286527
2011-05-09,1,0.0010528310143040408,0.0011304057301218784,-0.004919947273247086,0.001620051588185266,0.994940680773401
2011-05-11,1,0.0016612047354638139,0.0018495083205455941,-0.004919947273247086,0.001189631727291421,0.9947937817583148
2011-05-13,1,0.0021810340897580023,0.0024517848540080694,-0.005044803762608685,0.0011082646933268095,0.9947276832438899
2011-05-17,1,0.002388507399942804,0.002685384416396383,-0.0060845121179881065,0.0003807081622406619,0.9938055123711218
2011-05-19,1,0.002277188656933471,0.0025484464400485876,-0.0060845121179881065,0.0010728586935877446,0.9936880207549829
2011-05-23,1,0.0018609276802969577,0.0020702800027496094,-0.007234839630839934,0.0014282560547203794,0.9934866558247996
2011-05-25,1,0.0015404879666525832,0.0017030225804036119,-0.007234839630839934,0.0014282560547203794,0.993546345317693
2011-05-27,1,0.001547797362539308,0.0017292080887845612,-0.008828731487196966,0.0027691417262059696,0.9929917641615132
2011-06-01,1,0.001494220702191726,0.001656820954882684,-0.007234839630839934,0.0014282560547203794,0.9936711106427762
2011-06-03,1,0.0008968362476136144,0.000967293444186948,-0.005255831231708069,0.00430183615445957,0.9934924160787872
2011-06-07,1,0.0009129073681077302,0.0010068713133554918,-0.003612976036352723,0.006310323505042119,0.993540493591694
2011-06-09,1,0.001017236764090915,0.001141588424407791,-0.00322501226853453,0.006310323505042119,0.993617818667967
2011-06-13,1,0.0008427923622050431,0.0009379463430908013,-0.0030103801256972517,0.006310323505042119,0.9935180046253637
2011-06-15,1,0.0005698291282068646,0.0006457726251847954,-0.0027668082639501854,0.006310323505042119,0.9942810219929519
2011-06-17,1,0.001262210064465247,0.0014553138498176763,-0.0030103801256972517,0.003722022777296211,0.9944587364466108
2011-06-21,1,0.00033487916241403475,0.0003867983871814498,-0.0030103801256972517,0.0035889929488395977,0.9951930265265231
2011-06-23,-1,-0.00036835789307142945,-0.00030369040515596934,-0.0030103801256972517,0.003722022777296211,0.9954637982979115
2011-06-27,-1,-0.0007791316758790192,-0.0006558686546673856,-0.003294424533835478,0.003636314628906008,0.9954818399482688
2011-06-29,-1,-0.0007244504559279598,-0.0006365131772936639,-0.0038708479494055995,0.003636314628906008,0.9947589345336563
2011-07-01,1,0.0005311395280536968,0.0006194416489262507,-0.004364639220105734,0.0011232663538496314,0.9954450045604224
2011-07-06,1,0.0006104284968841094,0.0007153541581024933,-0.00496269290678955,1.4604056790755676e-06,0.9951283875667533
2011-07-08,1,0.0009251871530742975,0.0010382396240807246,-0.006495464639939356,-0.0002317510028051027,0.9933946700691481
2011-07-12,1,0.00036909943503975196,0.0004095102098603048,-0.007487313323185491,0.0011232663538496314,0.992183901298928
2011-07-14,1,0.00011352428662167837,0.00017136622175078153,-0.010363772484256071,0.0015872114967456503,0.9893812847610666
2011-07-18,1,0.0004388504631932449,0.0005050205283631394,-0.010363772484256071,0.0062414536231682975,0.9885397753485295
2011-07-20,-1,-4.274280397195698e-05,-9.014455264881545e-06,-0.010363772484256071,0.0062414536231682975,0.9887811221525885
2011-07-22,0,-2.920911736357907e-05,6.7393400887773075e-06,-0.013377494926493759,0.0040859099931246255,0.988458324085706
2011-07-26,-1,-0.0006819836974849781,-0.0005669831649717808,-0.010120663525713164,0.012153335115262658,0.98780459496657
2011-07-28,-1,-0.001463477320045045,-0.0012374054552821683,-0.009917159345661484,0.012153335115262658,0.9878458510364325
2011-08-01,-1,-0.0015855016422164133,-0.0013471660363776872,-0.009917159345661484,0.012153335115262658,0.9875486156391413
2011-08-03,-1,-0.0020430288112555147,-0.0017426769661624763,-0.0062313786533535285,0.012153335115262658,0.9872099571207664
2011-08-05,-1,-0.0024326255711011355,-0.0020677883441289125,-0.0077525083286570755,0.01158662612076743,0.9882123479828615
2011-08-09,-1,-0.002437385903505104,-0.002054588756062741,-0.004800163467790723,0.009086616835541426,0.9896387406213476
2011-08-11,-1,-0.002055718758550446,-0.001744363799985417,-0.004800163467790723,0.0069516625584076465,0.9917442997890954
2011-08-15,-1,-0.0014235146324348886,-0.0011760601675343593,-0.004800163467790723,0.0048139129882010445,0.9929698414118259
2011-08-17,-1,-0.00157145836043878,-0.0013047824548782574,-0.003687224500699687,0.00646807799013665,0.9923676973329574
2011-08-19,-1,-0.0017713058400233655,-0.001492905211018981,-0.003687224500699687,0.006638499365392993,0.9914112282609845
2011-08-23,-1,-0.0006634815788079602,-0.0005216215468092859,-0.006967463195389922,0.005702322240402302,0.9924520812095113
2011-08-25,-1,-0.0006314103191852675,-0.0004987339600579331,-0.006967463195389922,0.005702322240402302,0.9917795796264776
2011-08-29,0,0.0,0.0,-0.006967463195389922,0.00646807799013665,0.9907072469419179
2011-08-31,0,0.0,0.0,-0.008157021189244015,0.006607927071483136,0.9899957815687125
2011-09-02,-1,-0.0006411227802569028,-0.0005263118277966345,-0.008103313547459023,0.006607927071483136,0.9901635516194536
2011-09-07,-1,-0.00037072239188498646,-0.0002978396829281848,-0.008103313547459023,0.007402059694542248,0.9901554545145753
2011-09-09,-1,-0.0007068669640449387,-0.0006151526632609094,-0.0060569209775428135,0.007402059694542248,0.9905541049816835
2011-09-13,-1,-0.0006936783414575561,-0.0005968946711519857,-0.0060569209775428135,0.009203721779823652,0.9898517970244882
2011-09-15,-1,-0.0003594088014316797,-0.0002922947688643605,-0.0060569209775428135,0.009203721779823652,0.9901902933343014
2011-09-19,1,0.00032288116941050447,0.00035431920567923945,-0.0060769072599208855,0.00582541760183944,0.9911869172217589
2011-09-21,1,0.0001960619871191713,0.00023598870372765825,-0.004119263493273674,0.008893252436704357,0.991566641692771
2011-09-23,-1,-0.00030752637881781595,-0.00030248319150088545,-0.0035867092449032964,0.010581182240321814,0.991833179466024
2011-09-27,1,0.0006293075253259504,0.0007551583235922831,-0.0060769072599208855,0.006046706257436539,0.9922504486808367
2011-09-29,1,0.0006589794389481147,0.0007700333567299923,-0.004119263493273674,0.005643323348527826,0.9929159279657739
2011-10-03,1,0.000503195538620475,0.0006125842884138093,-0.004804235874498594,0.005643323348527826,0.9926035346625132
2011-10-05,1,0.0009361652037900111,0.0011239724621946421,-0.008518180212112099,0.005029620037694407,0.992026206654256
2011-10-07,0,0.0,0.0,-0.008518180212112099,0.005330157620520311,0.9918562837058646
2011-10-11,0,0.0,0.0,-0.008518180212112099,0.005881070130214239,0.9917989669482292
2011-10-13,0,0.0,0.0,-0.010139553700831165,0.006820963774998539,0.9906768182152685
2011-10-17,0,0.0,0.0,-0.0118609959247556,0.007189320733886947,0.9901861002387635
2011-10-19,1,0.000677352961068455,0.0008043178915778149,-0.0118609959247556,0.007138827962339428,0.9903429947584008
2011-10-21,1,0.0009468453241708343,0.0011131568396020974,-0.0118609959247556,0.006820963774998539,0.990933409698544
2011-10-25,1,0.0006217541723011564,0.0007323707480157332,-0.008949038284284203,0.006820963774998539,0.9910072507508163
2011-10-27,0,0.0,0.0,-0.01051726282034553,0.005881466590975992,0.990921872564001
2011-10-31,0,0.0,0.0,-0.006582788062047285,0.007138827962339428,0.99065516666397
2011-11-02,1,0.0002161126130512313,0.0002747732786118046,-0.005926868719525573,0.008139345149053838,0.9898356106678147
2011-11-04,1,9.911285732230428e-05,0.00012114120267874008,-0.005926868719525573,0.008480921181111165,0.9896466279413376
2011-11-08,1,0.0006892122794689226,0.000809045614362115,-0.005926868719525573,0.008139345149053838,0.9903423460101269
2011-11-10,1,0.0002761761843713929,0.00033157949737563496,-0.005926868719525573,0.007838871895362875,0.9908840274036834
2011-11-14,1,7.685833658698947e-05,9.027585946903168e-05,-0.005926868719525573,0.006837103662632523,0.9911717031197521
2011-11-16,1,2.503874529717238e-05,3.093857848621987e-05,-0.005926868719525573,0.006837103662632523,0.9911520707244684
2011-11-18,-1,-5.909187035748821e-05,-3.816562507854909e-05,-0.005141477017853487,0.006837103662632523,0.9913885879938702
2011-11-22,-1,-0.00024036664990079274,-0.00022931887684228428,-0.0032690638816743134,0.007911309464666704,0.9917831389387995
2011-11-25,-1,-0.00037623010749370997,-0.00035774800636114725,-0.0007292080257389586,0.007911309464666704,0.9917262690248945
2011-11-29,1,0.00021987571117967225,0.0002831622027802505,-0.0031233928920585893,0.007377725704612599,0.9929613134561718
2011-12-01,1,0.0006725268247687244,0.0007880808958401847,-0.0031233928920585893,0.006711163874842814,0.994602792766361
2011-12-05,1,0.0009292727880978961,0.0010800866072801353,-0.0031233928920585893,0.006479451251574529,0.9950798901095695
2011-12-07,1,0.0010391941903234682,0.00120330281056413,-0.003777898244925511,0.006479451251574529,0.9949723637425274
2011-12-09,1,0.0008979565045892539,0.0010363902202171248,-0.003777898244925511,0.004780113843110862,0.9954655999888004
2011-12-13,0,0.0,0.0,-0.003777898244925511,0.0034488180900926276,0.9955416025647007
2011-12-15,0,0.0,0.0,-0.0031233928920585893,0.0034488180900926276,0.9958323990997757
2011-12-19,0,0.0,0.0,-0.0035391873499864964,0.0034488180900926276,0.9958818071835039
2011-12-21,0,0.0,0.0,-0.003777898244925511,0.0024222053290067955,0.9956479682474056
2011-12-23,0,0.0,0.0,-0.003959703529566807,0.0020519384920755813,0.995400022386084
2011-12-28,1,0.0008942592914853491,0.0008960762908244468,-0.004306740422885956,0.0020519384920755813,0.9949651351316625
2011-12-30,0,0.0,0.0,-0.005411945036443499,0.0018439668969043295,0.9946950707476506
2012-01-04,0,0.0,0.0,-0.005411945036443499,0.0020519384920755813,0.9945867828799468
2012-01-06,1,0.000548418668551115,0.0005811472160619777,-0.007698243024062896,0.002376666967191953,0.9938618984742007
2012-01-10,1,0.00040101689864341475,0.00040367719390587456,-0.007698243024062896,0.002376666967191953,0.9941063857995321
2012-01-12,1,1.5098602488999212e-05,6.972372226804932e-05,-0.0045264954582217055,0.0027704269113635127,0.9943167464990057
2012-01-17,1,0.0006019896769588379,0.0006641013130401521,-0.0045264954582217055,0.0032168355282314745,0.9941998996031854
2012-01-19,1,0.00039341124115505174,0.00040922554174020964,-0.00400064266496036,0.004288961211214684,0.9938731771787997
2012-01-23,1,3.4538366782284666e-05,5.391368975606544e-05,-0.005223062017183524,0.004288961211214684,0.9942724741917959
2012-01-25,1,0.00022164901841665647,0.00023535231402904857,-0.0031895032407571644,0.004288961211214684,0.9935065883978251
2012-01-27,-1,-0.00032897795258637896,-0.0002540911443325213,-0.0025461817789845295,0.004644391234400277,0.9937355505376755
2012-01-31,-1,-0.0008808323470798556,-0.0007423025589743177,-0.00034793513479451784,0.005680638969989723,0.9937302790738305
2012-02-02,-1,-0.0009991624408475894,-0.0008315882222789369,-0.001331061595691855,0.005680638969989723,0.9932942475181376
2012-02-06,-1,-0.0007747552802228524,-0.0006381902257457051,-0.0011172091734122551,0.004644391234400277,0.9940908490572237
2012-02-08,-1,-0.0006147205016986455,-0.0005125374455801851,-0.0018568787906990333,0.004974447281787374,0.9938970147394028
2012-02-10,-1,-0.00030791385348937904,-0.00025774793922176775,-0.0005232075331302439,0.004974447281787374,0.9937910668372298
2012-02-14,-1,-0.0002567613271675332,-0.0001978103860152065,-0.0009630730571356586,0.004476187359397586,0.9941350755928964
2012-02-16,-1,-0.00032317914965223016,-0.00022971131750117857,-0.0028515760565742433,0.004241371031393174,0.9943047006402583
2012-02-21,-1,-0.0002815022487860599,-0.00022723281075997026,-0.0009630730571356586,0.004241371031393174,0.9948268214384247
2012-02-23,1,0.000804088377448655,0.0008950487565708806,-0.0009630730571356586,0.004241371031393174,0.9960927512106654
2012-02-27,1,0.00038144820121384853,0.00039243046067304543,-0.0014104197552235135,0.003609707299839612,0.9962744151497952
2012-02-29,1,0.0007084684230567335,0.0007754318788069457,-0.0018586447680920327,0.0011483014152806456,0.9965381834843632
2012-03-02,1,0.0004411449629968758,0.00047995651430681645,-0.0018586447680920327,0.0028507365317472235,0.9971190515515107
2012-03-06,1,0.0006641796610154164,0.0007444558903045022,-0.002548868607700717,0.0028507365317472235,0.9967382343425274
2012-03-08,1,0.0006491324561286023,0.0007316125477638699,-0.001626038154896113,0.002602027395647592,0.9970856439317725
2012-03-12,1,0.0008930120120184762,0.0009942098074932379,-0.0031580508007548027,0.0011909859102968636,0.996742454465735
2012-03-14,1,0.0008728026754719824,0.0009825643231340263,-0.004763460353086168,0.0008966125830611999,0.996600649222634
2012-03-16,1,0.0009725127515061163,0.0011277041127664476,-0.004326291474370071,0.0016508762564747814,0.9961670289055022
2012-03-20,1,0.0006241173456191612,0.0006911922614143546,-0.004326291474370071,0.002646643059349765,0.9959964515560463
2012-03-22,1,0.000959674382680177,0.0010937805050507173,-0.004326291474370071,0.002646643059349765,0.9953350844733426
2012-03-26,1,0.0005125272778674178,0.0005526317841362386,-0.004763460353086168,0.0031369022578806686,0.9946182284757462
2012-03-28,1,0.00023099719203060863,0.00024881573466130336,-0.004494472212857156,0.0031369022578806686,0.9947435816568264
2012-03-30,0,0.0,0.0,-0.0069030869010055845,0.0027989617943766916,0.9926307062933021
2012-04-03,0,0.0,0.0,-0.005672297770154712,0.0027989617943766916,0.9928581111183371
2012-04-05,0,0.0,0.0,-0.005672297770154712,0.004008216300740446,0.9924357930715098
2012-04-10,0,0.0,0.0,-0.0040806058987242445,0.004008216300740446,0.9930490974734022
2012-04-12,0,0.0,0.0,-0.0040806058987242445,0.005550862552395288,0.9926353561966672
2012-04-16,0,0.0,0.0,-0.004814398072570417,0.004008216300740446,0.9931397994461909
2012-04-18,0,0.0,0.0,-0.004466992333979672,0.005550862552395288,0.9929659964514123
2012-04-20,0,0.0,0.0,-0.006952408006290208,0.0029642779302797065,0.9932029275010616
2012-04-24,-1,-0.0004992407549798746,-0.00036939052620906074,-0.005569584203902336,0.00032627402965337463,0.9940607986976666
2012-04-26,-1,-8.220947805868338e-05,-2.4895973879687273e-05,-0.006952408006290208,0.002372726140875974,0.9932085242412353
2012-04-30,-1,-0.0014985260064381157,-0.001294377857291416,-0.004122794238083804,0.00377620718418409,0.9955323969804226
2012-05-02,-1,-0.0011609695123752791,-0.0010067429101108813,-0.005569584203902336,0.002372726140875974,0.9953849419946178
2012-05-04,-1,-0.001082902216089436,-0.0009316001571800747,-0.006952408006290208,0.0002004682811988501,0.9953419047322545
2012-05-08,-1,-0.0012408438783207917,-0.0010647343694541976,-0.006952408006290208,0.002372726140875974,0.9947478224531052
2012-05-10,-1,-0.0011921214886313172,-0.0010278668539780906,-0.005569584203902336,0.002372726140875974,0.9946063681159675
2012-05-14,-1,-0.001500016535596128,-0.0012992491325920924,-0.004122794238083804,0.0030432387703501693,0.9946285483958535
2012-05-16,-1,-0.000750033123901524,-0.0006647732562253157,-0.004122794238083804,0.0030432387703501693,0.9944995434053174
2012-05-18,-1,-0.0009535707419128004,-0.0008634509175259805,-0.004026620848355356,0.0030432387703501693,0.9944369694548347
2012-05-22,-1,-0.0011455792189255618,-0.0010312310861142105,-0.005906982967618695,0.0030432387703501693,0.9932643749565
2012-05-24,-1,-0.0012681144543917147,-0.0011444746971494167,-0.005906982967618695,0.0018836338623717495,0.993439458197944
2012-05-29,-1,-0.0009574722528039,-0.0008739884786094932,-0.00886421301460137,0.00021525288168479853,0.9933928181697185
2012-05-31,-1,-0.0013802039085019685,-0.0012387292137031169,-0.005734069332081797,0.003930383433613592,0.9929948151119362
2012-06-04,0,0.0,0.0,-0.003996568684912904,0.006313582006685368,0.9925852317136475
2012-06-06,0,0.0,0.0,-0.0036970307125765494,0.003930383433613592,0.9931325253228263
2012-06-08,0,0.0,0.0,-0.0036970307125765494,0.003739783528943357,0.9936331472613701
2012-06-12,0,0.0,0.0,-0.004897701715586164,0.0032948456897381,0.9935637454506795
2012-06-14,-1,-0.0011619837003709304,-0.0010396225494967487,-0.004897701715586164,0.0045966126844042155,0.9912966469841311
2012-06-18,0,0.0,0.0,-0.0020386878935573644,0.005959324789743501,0.991347262035122
2012-06-20,0,0.0,0.0,-0.0019311713982270978,0.005959324789743501,0.9923746917453292
2012-06-22,0,0.0,0.0,-0.003270378755310036,0.005959324789743501,0.9925597452881957
2012-06-26,-1,-0.002915663866076398,-0.0025259798346468883,-0.003270378755310036,0.005959324789743501,0.9920607950941733
2012-06-28,-1,-0.0022415536778548468,-0.0019381240234732852,-0.003270378755310036,0.008240064739763084,0.992296484139506
2012-07-02,-1,-0.0017039767561213247,-0.0014671360840311717,-0.004539450331583896,0.005356859334410743,0.9929358726486298
2012-07-05,-1,-0.0015889617012350768,-0.0013720547571308178,-0.005445940834094263,0.005356859334410743,0.9925976201903552
2012-07-09,-1,-0.0012393333658959655,-0.0010836777684791092,-0.005445940834094263,0.008240064739763084,0.9909843508587785
2012-07-11,-1,-0.0010845027658586532,-0.0009632901801275994,-0.005376055666187992,0.008240064739763084,0.9906073772918287
2012-07-13,1,0.00040170367875072343,0.00044233955059821777,-0.005376055666187992,0.006560231276899537,0.9936384615735437
2012-07-17,1,0.00041809505916240154,0.000521122125858134,-0.005376055666187992,0.005107118390647985,0.9938895549278624
2012-07-19,1,0.0006437055836134163,0.000769698631103407,-0.004570537872981723,0.005609155579641359,0.9940087260791556
2012-07-23,0,0.0,0.0,-0.0038842993629132324,0.005609155579641359,0.9942160482588778
2012-07-25,0,0.0,0.0,-0.001944419397518455,0.005609155579641359,0.9944260689443816
2012-07-27,0,0.0,0.0,-0.0028400703701729098,0.0048243216805688785,0.9948713830545334
2012-07-31,0,0.0,0.0,-0.0019768573384787436,0.0048243216805688785,0.995149818045198
2012-08-02,0,0.0,0.0,-0.0014586210728628041,0.0048243216805688785,0.9958476222788885
2012-08-06,1,0.000712496437851811,0.0008867706031813698,-0.0014586210728628041,0.003979208276013065,0.997383132960064
2012-08-08,1,0.0009390560441666618,0.0011319125059438741,-0.0016710798685830681,0.0032842208427609097,0.9971653634164315
2012-08-10,1,0.0009565063743799368,0.0011539477993314899,-0.0016710798685830681,0.0038461838542491814,0.9970232883242035
2012-08-14,1,0.0010421872917135008,0.0012593856104850824,-0.001788922314865308,0.0033698754043483443,0.9970101481869346
2012-08-16,1,0.0010902054851467066,0.0013122311736649436,-0.001788922314865308,0.0037467270971403236,0.9966867771259792
2012-08-20,1,0.0009547241849480467,0.0011550835181383377,-0.0016710798685830681,0.0037467270971403236,0.9968989506537038
2012-08-22,1,0.0010328206513518239,0.0012443907148425503,-0.0016710798685830681,0.004160220216452994,0.9967629689072921
2012-08-24,1,0.0011406998473603637,0.0013637730496865177,-0.0016710798685830681,0.004160220216452994,0.996805323515548
2012-08-28,1,0.0011203185924532144,0.0013494488942966763,-0.001846590039686774,0.004160220216452994,0.9965121319334808
2012-08-30,1,0.000955853316360894,0.001144049106808822,-0.0017272029335928904,0.004160220216452994,0.996633834846068
2012-09-04,1,0.0011196889042471916,0.001326317996279415,-0.002095489803812008,0.0037467270971403236,0.9963505686508861
2012-09-06,1,0.001588550343077561,0.001878053264109684,-0.002095489803812008,0.0037467270971403236,0.9967261996541984
2012-09-10,1,0.0015400639038713271,0.0018124045489628761,-0.0023672767725089823,0.0036094881051379913,0.9963891338192585
2012-09-12,1,0.0016002220778043588,0.0019057094717231536,-0.0028695495253405557,0.0036094881051379913,0.995987720179583
2012-09-14,1,0.0018858902886287228,0.0022197724540199285,-0.0028695495253405557,0.0017349541988007206,0.9961010439690613
2012-09-18,1,0.0018356914011939775,0.002158152961634055,-0.0028695495253405557,0.003757670744979144,0.9957329433385929
2012-09-20,1,0.0013146322620369367,0.0014888739333797489,-0.0028695495253405557,0.003757670744979144,0.9956879899650979
2012-09-24,1,0.0014554278076326058,0.0016599077263932819,-0.004572560420537138,0.003177824843654754,0.9951441343394726
2012-09-26,1,0.0011842380356079933,0.001347930710152505,-0.006244461768457018,0.003757670744979144,0.9944644853743703
2012-09-28,1,0.0012875846711152697,0.001487692547430649,-0.007746570218984908,0.004546492814134268,0.992658620857856
2012-10-02,1,0.0010303489578746485,0.001199911672709963,-0.006244461768457018,0.004546492814134268,0.9929667055351409
2012-10-04,1,0.0010441187104317689,0.00120263695834455,-0.0075396099111136716,0.003757670744979144,0.9927370085234783
2012-10-08,1,0.0011200174114980054,0.0013039142026092664,-0.007674535721038106,0.0038948540951204685,0.9924573401083554
2012-10-10,1,0.0006397332583461302,0.0007455477431642331,-0.007884441266968273,0.0038948540951204685,0.9924807944733245
2012-10-12,1,0.00046647887610200647,0.0005411033792774851,-0.007884441266968273,0.0038948540951204685,0.9924977706433905
2012-10-16,1,0.0006832044361336038,0.0007718879957904432,-0.007884441266968273,0.001157092219924119,0.9926867240703795
2012-10-18,1,0.0009540168758416158,0.0010861060481064822,-0.007884441266968273,0.0020674553130761207,0.9918470234556167
2012-10-22,1,0.0005063254226352063,0.0005630955781334374,-0.005469023411420098,0.004238413752920809,0.9923547915809754
2012-10-24,1,0.00010684985825575713,0.0001229335996878961,-0.0037683017493868303,0.004238413752920809,0.992718525230438
2012-10-26,1,0.00017751172900985432,0.00018006648209875235,-0.0037683017493868303,0.004238413752920809,0.993923994517756
2012-11-01,1,0.00021273013759556152,0.00023370388158181355,-0.0037683017493868303,0.00495989320715696,0.9938311175026289
2012-11-05,1,7.8396817267541e-05,8.704730597046173e-05,-0.0036552139745349983,0.00495989320715696,0.9938564017022798
2012-11-07,-1,-0.0001078488616367205,-0.00010005897374609017,-0.0034666245788199704,0.005826854855604795,0.9941820938889433
2012-11-09,-1,-0.0007806950807343554,-0.0006756916734265558,-0.003224540734140662,0.005826854855604795,0.9947270074947968
2012-11-13,-1,-0.0017820910386533103,-0.0015071718771569066,-0.001974553840964886,0.006330229552029435,0.9942088308343536
2012-11-15,-1,-0.002258241773266217,-0.0019081468418668715,-0.0018983903671535296,0.006330229552029435,0.9938331610284824
2012-11-19,-1,-0.0017372633988514657,-0.0014320090196768198,-0.0018983903671535296,0.005044226108095091,0.9952208887876735
2012-11-21,-1,-0.0012304495720617155,-0.0010160055535071762,-0.0030338831405532702,0.005212017673569971,0.9951093533099402
2012-11-26,-1,-0.0007650385883316419,-0.000615051124710535,-0.0036552139745349983,0.004776338751938909,0.9952157788773223
2012-11-28,-1,-0.0007824100846631631,-0.0006303984374350853,-0.0036552139745349983,0.002269217965987588,0.9955336070510145
2012-11-30,-1,-0.0005787214173616345,-0.00045662773356729044,-0.0048076091537784145,0.002297328932966965,0.9947236523180363
2012-12-04,-1,-0.001017302563430027,-0.0008367340105890898,-0.0066529990413274915,0.005212017673569971,0.9936249428790577
2012-12-06,-1,-0.00019154297282069553,-0.000168085672165622,-0.006999215638292412,0.0027380039811475414,0.9936290722291401
2012-12-10,-1,-6.232064158425088e-05,-5.870828411129152e-05,-0.006999215638292412,0.002872986066653189,0.9935504646191968
2012-12-12,1,2.1123328826575836e-05,2.9960402046631726e-05,-0.006999215638292412,0.002872986066653189,0.9936032907903551
2012-12-14,-1,-0.0006754871565889237,-0.0005684331158983811,-0.006456412093447065,0.00546595306382723,0.9937545763418799
2012-12-18,-1,-0.0007484340101767406,-0.0006212836657616957,-0.006999215638292412,0.00546595306382723,0.9932389494609796
2012-12-20,-1,-0.0005211295360936672,-0.00044978968044190825,-0.006456412093447065,0.004919538322383778,0.9937493481826561
2012-12-24,-1,-0.0015837870667290933,-0.001371457349557447,-0.004449917043476873,0.00546595306382723,0.9937051936236088
2012-12-27,-1,-0.0021367156234640434,-0.001808937981216841,-0.002157168480286651,0.006217047206329257,0.9913782383804092
2012-12-31,-1,-0.0015360147851296057,-0.0013174013299035142,-0.000942070363497827,0.006217047206329257,0.9917094310968128
2013-01-03,-1,-0.0011101336330017954,-0.0009631764218642079,-7.3260923336496e-05,0.006217047206329257,0.9926125870461155
2013-01-07,-1,-0.0012184892300915883,-0.0010600073280614408,-7.3260923336496e-05,0.0062597519878887335,0.9922616814250433
2013-01-09,-1,-0.0010773754623899171,-0.0009357525040705712,0.00010717586310113387,0.0062597519878887335,0.9922779651814854
2013-01-11,-1,-0.0008113470952455467,-0.0007078113428439241,0.00010717586310113387,0.0062597519878887335,0.9924655484923798
2013-01-15,-1,-0.0004974699437352535,-0.00042117455955614075,0.00010717586310113387,0.007232575494319859,0.9926161280300033
2013-01-17,-1,-0.0006240056695045713,-0.0005371307082802199,0.00010717586310113387,0.007232575494319859,0.9928676214966712
2013-01-22,-1,-0.0004090838596440545,-0.00035525352905359394,-0.0007814465602539343,0.008253055350315008,0.9924809350156353
2013-01-24,-1,-0.00025748005027235825,-0.00021768107127267987,-0.0005514781947946906,0.007232575494319859,0.9932241252765831
2013-01-28,1,0.0006298412824175991,0.0006990242542814875,-0.001268236388559879,0.005953440380538981,0.9950122296351419
2013-01-30,1,0.0012650052795083427,0.0014315582245196725,-0.003313567624066072,0.005953440380538981,0.9950570033497286
2013-02-01,1,0.0018361413881316066,0.002103816878979611,-0.003313567624066072,0.004538102735412677,0.9953675770983796
2013-02-05,1,0.0016911755289416267,0.001943059897083562,-0.001268236388559879,0.004258278995057478,0.9959363280865627
2013-02-07,1,0.0017141198225335598,0.0019515398034127586,-0.003313567624066072,0.0037481266526347523,0.9958519374219874
2013-02-11,1,0.001892943116005412,0.002186851232136575,-0.0025267630637442716,0.0037481266526347523,0.9960913603881644
2013-02-13,1,0.0021464462523070396,0.0024714799808217025,-0.003313567624066072,0.0037481266526347523,0.995740524581141
2013-02-15,1,0.0021721101284411237,0.0025124958451117176,-0.0038791716350367175,0.0037481266526347523,0.9950089357544347
2013-02-20,1,0.0024032023663256505,0.002780428643352182,-0.002739820439545772,0.004258278995057478,0.9950142061066328
2013-02-22,1,0.0021810275040324823,0.002508795845081853,-0.004106789845666816,0.004258278995057478,0.9949190581062938
2013-02-26,1,0.0018034315954157335,0.00208959178564129,-0.004106789845666816,0.005142763805384528,0.9948898129833649
2013-02-28,1,0.0015543715144140284,0.0017832347702154542,-0.004012667422420343,0.004258278995057478,0.9952549060247413
2013-03-04,1,0.001962220071124155,0.00225831537097469,-0.004012667422420343,0.006491964274851131,0.9943830738450106
2013-03-06,1,0.0020163701769765592,0.002309632399621859,-0.00448693845144093,0.006491964274851131,0.9937267300927365
2013-03-08,1,0.0017346341712723055,0.0019594642953976765,-0.00448693845144093,0.007289321636828346,0.9935467338833854
2013-03-12,1,0.0015154308603419334,0.0017016722427197536,-0.0047756158269957215,0.007837985022489797,0.9928244560755898
2013-03-14,1,0.0018967911657866983,0.002160993829627058,-0.00448693845144093,0.007445062981632234,0.9931183464185521
2013-03-18,1,0.0014279563121423638,0.0016432986599268981,-0.00448693845144093,0.007445062981632234,0.9934854002056828
2013-03-20,1,0.0016597331234040132,0.0018744047985592709,-0.004919387805319853,0.007445062981632234,0.993104757629814
2013-03-22,1,0.0013134742293870406,0.0014663931353834027,-0.004637020535580431,0.00857632860357079,0.9924249953276361
2013-03-26,1,0.0015933816587200833,0.0017430400621304262,-0.004637020535580431,0.00879026909030317,0.9893751643203317
2013-03-28,1,0.001149212039577143,0.0012354351798700132,-0.005708907143565137,0.00879026909030317,0.9889517460338091
2013-04-02,1,0.0015621444743756916,0.0016860341584748729,-0.006795566378505643,0.007249441140667082,0.9891563225899055
2013-04-04,0,0.0,0.0,-0.005708907143565137,0.008142379930081121,0.9890882412079899
2013-04-08,0,0.0,0.0,-0.005902193440019695,0.008142379930081121,0.9890857055491176
2013-04-10,0,0.0,0.0,-0.00543406282322321,0.006973360926979568,0.9895941926990073
2013-04-12,0,0.0,0.0,-0.00543406282322321,0.007154971353411306,0.9896239751060414
2013-04-16,0,0.0,0.0,-0.0036060024039778283,0.008142379930081121,0.9895095686266847
2013-04-18,0,0.0,0.0,-0.0036060024039778283,0.008142379930081121,0.9896101305212304
2013-04-22,0,0.0,0.0,-0.005707879697709365,0.007154971353411306,0.9899056632566289
2013-04-24,0,0.0,0.0,-0.00415680535009637,0.006850777480436386,0.9936310336423515
2013-04-26,1,4.3845033385669945e-05,0.00011235696517273184,-0.0031158211474506957,0.007154971353411306,0.9922868348438272
2013-04-30,0,0.0,0.0,-0.00415680535009637,0.006569490205526813,0.9913852728318705
2013-05-02,0,0.0,0.0,-0.005707879697709365,0.005751177115648499,0.9904523993627914
2013-05-06,0,0.0,0.0,-0.004288046152943539,0.006569490205526813,0.9902414357218341
2013-05-08,0,0.0,0.0,-0.006756271401396658,0.003564131276501561,0.9901235447931795
2013-05-10,0,0.0,0.0,-0.006756271401396658,0.005886167777643958,0.9898169208241495
2013-05-14,0,0.0,0.0,-0.00728652817871835,0.002834972225264333,0.9901138201252675
2013-05-16,1,0.0009951753469088524,0.0010042867743230727,-0.00728652817871835,0.002834972225264333,0.9901754238178871
2013-05-20,1,3.672486669657353e-05,0.00019110937565640324,-0.005489201632318468,0.0057607888002001555,0.990513503495899
2013-05-22,-1,-0.00043140408268965214,-0.00020304848533848202,-0.009996806967245817,0.0057607888002001555,0.9883590985764197
2013-05-24,-1,-0.0002548112509993736,-6.288406878470767e-05,-0.011347531601343053,0.0057607888002001555,0.9884371507443399
2013-05-29,-1,-0.001289780936845104,-0.0009907969718042724,-0.00728652817871835,0.009617504772131007,0.9895346708775481
2013-05-31,-1,-0.002264648809173455,-0.0018417667693518293,-0.007181108649123347,0.009617504772131007,0.9903787132902901
2013-06-04,-1,-0.0019875495855978067,-0.0015975137154825773,-0.007181108649123347,0.009617504772131007,0.9900658179912978
2013-06-06,-1,-0.002177880566403541,-0.0017700294077715299,-0.005489201632318468,0.009617504772131007,0.9903482645666255
2013-06-10,-1,-0.0017165447690824288,-0.0013722087702524085,-0.005489201632318468,0.00951462401139702,0.990473102551306
2013-06-12,-1,-0.0020484227819024103,-0.0016573074343080203,-0.0034705536878564527,0.010387257812841026,0.9898287026742323
2013-06-14,-1,-0.0018369126414130147,-0.0014739453943876295,-0.0010997230490769564,0.009813942236684236,0.9900396541048567
2013-06-18,-1,-0.0014224077406402914,-0.0011162954929489909,-0.0071574720868231405,0.009357812406256084,0.9902574646529104
2013-06-20,-1,-0.002398027277835448,-0.0020411305477351,-0.0010997230490769564,0.009813942236684236,0.9911338801579657
2013-06-24,-1,-0.00145307249737345,-0.0012331335655372828,-0.0021144296196414524,0.009357812406256084,0.9933667633656214
2013-06-26,-1,-0.0010119622843156111,-0.0008580753823900619,-0.0030266157441345863,0.006451764871529026,0.9936240860784913
2013-06-28,-1,-0.0012440634385300418,-0.0010586854008967058,-0.0030266157441345863,0.006451764871529026,0.9940074882894205
2013-07-02,-1,-0.0005788167500233546,-0.0004806421151321669,-0.0030266157441345863,0.004617950077217494,0.9948310562901928
2013-07-05,-1,-0.0007575062075951457,-0.0006365176537600531,-0.003426229041339128,0.0064352727457105425,0.9939990083301521
2013-07-09,-1,-0.0002022769374612509,-0.0001585881532044615,-0.003426229041339128,0.004225184348142199,0.9945260276475031
2013-07-11,1,0.00014349595708091218,0.00014783315313351213,-0.003426229041339128,0.0030628215774795163,0.9949900230600633
2013-07-15,1,0.00043924136685888533,0.00048561936352383523,-0.0038706579470940954,0.002639469540210147,0.9951368360429527
2013-07-17,-1,-4.321150900455365e-05,-2.55051744149682e-05,-0.003426229041339128,0.002639469540210147,0.9957616221023217
2013-07-19,1,0.00022457977727881938,0.0002282781785453402,-0.004470537287734818,0.0019487044328151976,0.9956728262149752
2013-07-23,1,0.00010433305978488888,0.0001173412049330355,-0.004470537287734818,0.0019487044328151976,0.9957268834934295
2013-07-25,1,1.365532679411117e-07,1.6001612878325982e-05,-0.003981709877250388,0.0025945296838988485,0.9959145661271565
2013-07-29,0,-4.74687556902462e-06,4.338402203305503e-06,-0.004470537287734818,0.0027707865144716566,0.9950507354028051
2013-07-31,1,4.251094448613435e-05,4.4109770929311756e-05,-0.0066392163854972494,0.0025945296838988485,0.9942709509685848
2013-08-02,1,0.0002715159131212885,0.000299140100000985,-0.0066392163854972494,0.0027707865144716566,0.9946349197537308
2013-08-06,1,0.0004333232856812291,0.0004840003220620517,-0.0066392163854972494,0.0025945296838988485,0.9945560202286687
2013-08-08,1,0.00032058491273827624,0.00033028299368666235,-0.0066392163854972494,0.00021976838418236256,0.9945538155529379
2013-08-12,1,0.00037092371818990436,0.0004117860514246681,-0.005567342458561969,0.0011197450860523641,0.9941249583251246
2013-08-14,1,0.00018997673136036887,0.00019926857365512335,-0.005189214673851741,0.0032828371141200223,0.9942521061843206
2013-08-16,-1,-0.0003290126083533377,-0.0002746864825453006,-0.003478037859230407,0.005181220268932496,0.9939847826860086
2013-08-20,-1,-0.0005436632725928806,-0.0004591958557135563,-0.003537256472306023,0.0059120632397138065,0.9936852581854142
2013-08-22,-1,-4.832253989866385e-05,-3.8512391519335574e-05,-0.004216764907866593,0.0059120632397138065,0.9934632637697189
2013-08-26,-1,-0.0005802484599321999,-0.0005210524520307989,-0.004216764907866593,0.0059120632397138065,0.9941277158201504
2013-08-28,-1,-0.0011505568217639005,-0.0010311911282395406,-0.003537256472306023,0.0059120632397138065,0.9943979260054108
2013-08-30,-1,-0.00044022360928543846,-0.00041609574521042663,-0.005468737801653,0.00414040261685679,0.993530679698433
2013-09-04,-1,-0.0003242344948950892,-0.0003178182434111619,-0.005468737801653,0.0046564076409882325,0.9932017455915013
2013-09-06,-1,-0.00037716022124939497,-0.0003738444197618282,-0.005168810442520117,0.0046564076409882325,0.9932591711347704
2013-09-10,-1,-0.00013464679780349827,-9.972378424343395e-05,-0.005731525759315307,0.0046564076409882325,0.9933431915008657
2013-09-12,1,0.00026107665819711,0.0003769595328508285,-0.005731525759315307,0.0076862232519875956,0.9925368244734263
2013-09-16,-1,-0.001260687877286413,-0.00118012478386203,-0.005731525759315307,0.006300838898642246,0.9933205105285319
2013-09-18,-1,-0.001107136355662839,-0.0010114387676661992,-0.008521499450953988,0.00754929191934175,0.9926247603304251
2013-09-20,-1,-0.0015749409228493602,-0.0015577416866300164,-0.005731525759315307,0.007711767279602697,0.9921562450855721
2013-09-24,-1,-0.0015879741354044186,-0.0015522100084397537,-0.005035530747871897,0.008339112932576886,0.991354574592094
2013-09-26,-1,-0.0019153777121960725,-0.0019125013646335521,-0.003997664845918912,0.008339112932576886,0.9915026917612644
2013-09-30,-1,-0.003104486974946241,-0.0029809976687563793,-0.00319196670094916,0.009125589706513835,0.9913046604667701
2013-10-02,-1,-0.0027739782145727327,-0.002703429208654271,-0.003997664845918912,0.010205980526762934,0.9906673013934868
2013-10-04,-1,-0.002337855653893989,-0.0023350757024111473,-0.005035530747871897,0.010205980526762934,0.9903770160331747
2013-10-08,-1,-0.002028275308458663,-0.0019781045476607606,-0.00416611938324159,0.010205980526762934,0.9908096821611159
2013-10-10,-1,-0.001842485508972186,-0.0017915484470488287,-0.005634954305128286,0.010598562544349235,0.9909393759464439
2013-10-14,-1,-0.001456165088970415,-0.0013511344286225098,-0.005634954305128286,0.010598562544349235,0.9914999320757198
2013-10-16,-1,-0.00031265242741180594,-0.00018948800641644417,-0.00416611938324159,0.009787073028320669,0.9921502695980599
2013-10-18,-1,-0.00042038941301142293,-0.00039542606403447194,-0.00416611938324159,0.008795640740376875,0.9919431663375309
2013-10-22,-1,-0.0005623833740079325,-0.0005187473115027306,-0.003313781519031008,0.007058837259260433,0.9928285595713813
2013-10-24,-1,-0.00033940431486926756,-0.0003312125816156946,-0.0030680571833875403,0.00703693906404667,0.9931330303360938
2013-10-28,-1,-0.0003565744001285576,-0.00033048340245617127,-0.0027972441005472593,0.00626634794489766,0.9938491769953551
2013-10-30,1,4.05374967243334e-06,4.822087348185496e-05,-0.0030680571833875403,0.0056030076818706235,0.9945902783232257
2013-11-01,-1,-0.0002828882041009621,-0.00027366848138787625,-0.0030680571833875403,0.0056030076818706235,0.9946961302720081
2013-11-05,-1,-0.00012984211700296886,-0.00011007246506763262,-0.0034501450971947205,0.00595143263968601,0.9943300698727217
2013-11-07,1,0.0003604857925540748,0.0004681261393012322,-0.0034501450971947205,0.00595143263968601,0.9940207043759488
2013-11-11,1,0.001303292061909679,0.0013210022041432105,-0.004621464955689757,0.00595143263968601,0.9934275499455746
2013-11-13,1,0.002045459033344425,0.0021355278268296606,-0.006274027499699795,0.0046711073632689885,0.9927714720951293
2013-11-15,1,0.001514192518019992,0.001669421715818367,-0.008002635706063913,0.0035176920859519,0.9929568414907831
2013-11-19,1,0.0010900902420951156,0.0011710884556822303,-0.008445424029370178,0.004218239947345392,0.9920971181450109
2013-11-21,1,0.001317964341774405,0.0014914518159032154,-0.008445424029370178,0.003585989909593629,0.9918395217359037
2013-11-25,1,0.0015517935732286571,0.0017529309252039627,-0.008445424029370178,0.0014069623754501821,0.9915482543079462
2013-11-27,1,0.0012805531534059653,0.0014742489966440898,-0.008002635706063913,0.0034129486399184757,0.9921977292476826
2013-12-02,1,0.0010878805202913734,0.001279645256119604,-0.007375900184460572,0.0034129486399184757,0.9924432670130078
2013-12-04,1,0.0012497466101750439,0.001481012459719313,-0.008002635706063913,0.0030623524911662127,0.9922556134023583
2013-12-06,1,0.0012761789528745041,0.0014717119807676694,-0.007460167026729456,0.0030623524911662127,0.993266925656083
2013-12-10,1,0.0016708893883945392,0.0019150460646702736,-0.007460167026729456,0.002535741806061933,0.9931495564079477
2013-12-12,1,0.0009797591847370989,0.0011202157764240318,-0.006655796476547205,0.002272891986235424,0.9941888645664647
2013-12-16,1,0.0005641356095699592,0.0006344081324384556,-0.005988963016479833,0.002535741806061933,0.9941840430335239
2013-12-18,1,0.0007736331904211581,0.000862303229672046,-0.005988963016479833,0.002272891986235424,0.9948561886317119
2013-12-20,1,0.0005603416777991639,0.0006255202958439867,-0.006655796476547205,0.002535741806061933,0.9945485624463695
2013-12-24,1,0.0005641662733391118,0.00065583184440522,-0.007506537380699905,0.0032322153419464686,0.9937275684072056
2013-12-27,1,0.0009401428132199154,0.0010924018272999174,-0.008572413046289506,0.0027102272866093764,0.9931523811103934
2013-12-31,1,0.0007684800760597974,0.0009081152816503554,-0.010109814100656506,0.0027102272866093764,0.9921554269399913
2014-01-03,1,0.0002691822318348936,0.000330010621500064,-0.010400219609884076,0.0027102272866093764,0.9921072875938663
2014-01-07,1,0.0005967626995459516,0.0006915695863272617,-0.010400219609884076,0.003999565730443302,0.9921274289914987
2014-01-09,-1,-0.00015708226750257132,-0.00012229119729886465,-0.009204555705320673,0.005196817646470738,0.9925895540269611
2014-01-13,-1,-0.00047230223179084115,-0.00039174854063517224,-0.009204555705320673,0.006453689000787815,0.991868267768646
2014-01-15,-1,-5.052492326919965e-05,-2.4361654589730787e-05,-0.010400219609884076,0.005470225898726548,0.9913786518621515
2014-01-17,-1,-0.000833575372040616,-0.0006880239323431049,-0.011888073355051513,0.006453689000787815,0.9900257670459562
2014-01-22,-1,-0.0016912490234140892,-0.00140369436563587,-0.010439989839138977,0.006453689000787815,0.9905413339384058
2014-01-24,-1,-0.0014163761306622993,-0.0011855029431011809,-0.009204555705320673,0.005470225898726548,0.991639477715452
2014-01-28,-1,-0.0015872887205490658,-0.001326331477870981,-0.004975561451732377,0.005196817646470738,0.9921453063321173
2014-01-30,-1,-0.0027923933819757807,-0.002382279043568192,-0.002924667289883512,0.005470225898726548,0.9923603172981794
2014-02-03,-1,-0.0030143204263641237,-0.002600103858347469,-0.001761973892352284,0.005917448750793877,0.9913542249807856
2014-02-05,-1,-0.0024855297654788194,-0.0021419271376005473,-0.0029436663653651463,0.005917448750793877,0.9917751336627031
2014-02-07,-1,-0.001535964670405619,-0.0013457252458114475,-0.0029436663653651463,0.004681553611356713,0.9923081298265631
2014-02-11,-1,-0.0007475048955003417,-0.0006531883617399109,-0.0029436663653651463,0.00413415521066122,0.9930174398766989
2014-02-13,-1,-0.0014218379023802432,-0.0012304115280890493,-0.002692747522561086,0.00413415521066122,0.9938206868356997
2014-02-18,-1,-0.0015447270610722285,-0.0013222611637810399,-0.0017210647079455297,0.00413415521066122,0.9950533408459552
2014-02-20,-1,-0.0017303387949251334,-0.0014735900085936205,-0.0028209388121448833,0.00413415521066122,0.9944981478546061
2014-02-24,-1,-0.002408197329179622,-0.002019256295897582,-0.003900682356131103,0.004515862870853807,0.9933309080759589
2014-02-26,-1,-0.002353344248940273,-0.0019771516154985513,-0.0043176481028276885,0.005513942051771716,0.9931592978496435
2014-02-28,-1,-0.002015358811125318,-0.0016789284412079759,-0.0043176481028276885,0.0044116180241328875,0.9935791391174872
2014-03-04,-1,-0.0020822675004176505,-0.001742576445934688,-0.0033904234033484823,0.0044116180241328875,0.9942411384831107
2014-03-06,-1,-0.0018414285426704628,-0.0015644508436521388,-0.0027953370078114665,0.0044116180241328875,0.9947124503557329
2014-03-10,-1,-0.0014073829236474769,-0.0011993342707830239,-0.0033904234033484823,0.005618989515007282,0.9945799197687291
2014-03-12,-1,-0.0012057016091359721,-0.0010120642487992763,-0.0033904234033484823,0.007079894416600994,0.9944438373502577
2014-03-14,-1,-0.0010276970398997564,-0.0008785761823098708,-0.004082079052362626,0.007079894416600994,0.9942050373716642
2014-03-18,-1,-0.0004156050245256089,-0.0003587769590605537,-0.004082079052362626,0.0030229097662623377,0.9946595243031965
2014-03-20,-1,-0.0009808249317864305,-0.0008636597171812561,-0.0033904234033484823,0.007079894416600994,0.9947908107177653
2014-03-24,-1,-0.00031839073744094397,-0.00029393531451082276,-0.003369588003983597,0.0030229097662623377,0.9958264781130189
2014-03-26,-1,-0.00013976390086349204,-0.00013789217415063754,-0.003369588003983597,0.0036716000566406324,0.9953125678873417
2014-03-28,-1,-0.00010208249537802159,-0.00010124362404125017,-0.003369588003983597,0.009227167188571684,0.9943888408686643
2014-04-01,1,0.00018759640159608971,0.0002317953809595382,-0.0038680099811971066,0.004659468506237104,0.9947582583452197
2014-04-03,1,0.00029533188795256745,0.00037482809364783765,-0.004082079052362626,0.004659468506237104,0.9945585137334563
2014-04-07,1,0.0004571438338200277,0.0005577106460390342,-0.004279259919277089,0.002091705906824265,0.9946950619890145
2014-04-09,1,0.0010849009739574709,0.0012963502940420918,-0.004279259919277089,0.0018114082701124708,0.9945720011090091
2014-04-11,1,0.0010987889481797217,0.0013422940556116593,-0.0041258346101042155,0.0029005151304738333,0.9946147792725766
2014-04-15,1,0.001075124268220022,0.0013064534261004452,-0.00517346616159075,0.0029005151304738333,0.9942264428358056
2014-04-17,1,0.0015151330207442484,0.0018133025619853564,-0.005550758043254308,0.001700574236992716,0.9938215665527835
2014-04-22,1,0.001501151128694017,0.001814807839885753,-0.005550758043254308,0.0029005151304738333,0.9938863651194757
2014-04-24,1,0.0013008523209052237,0.0015657241170938118,-0.00517346616159075,0.0029005151304738333,0.9948743681761287
2014-04-28,1,0.0017996439140012363,0.002110331185332374,-0.005409748679308453,0.001497700856324132,0.9950522036517719
2014-04-30,1,0.0016853643492426326,0.0019822893725732916,-0.00517346616159075,0.002190743505602411,0.9953762982362261
2014-05-02,1,0.0017080070810385024,0.0020356140998723325,-0.005339714963769407,0.002909676343949329,0.9954463882539142
2014-05-06,1,0.0012793159531435624,0.0015326953402138264,-0.005329564613201783,0.002909676343949329,0.9957203867353425
2014-05-08,1,0.0014017166657892698,0.0016408178010120006,-0.005329564613201783,0.002882142313997218,0.9960190328636078
2014-05-12,1,0.0011083822874912498,0.0012944263902166043,-0.005065220110993642,0.0022735221719914663,0.9965738979446699
2014-05-14,1,0.00105003939920831,0.0012448379437116767,-0.004055219060926505,0.0022735221719914663,0.996698001983143
2014-05-16,1,0.0006420792588081088,0.0007714684146824557,-0.002145755985031978,0.0022735221719914663,0.9973153727228402
2014-05-20,1,0.0005066768270963285,0.0006062678587273084,-0.0015314019015673322,0.002150613198251738,0.9975597090778112
2014-05-22,1,0.0008217006551697758,0.000979617507992379,-0.002145755985031978,0.0012219768750958227,0.9971764400177812
2014-05-27,1,0.0005006515773192381,0.000603150056130344,-0.003776194270175422,0.0012219768750958227,0.9970704492425855
2014-05-29,1,0.0004330055997081476,0.0005044994579153706,-0.004179918110216707,0.0012219768750958227,0.9966116832000053
2014-06-02,1,0.0006251859282760844,0.0007452424423852455,-0.004179918110216707,0.0012219768750958227,0.9965665345525853
2014-06-04,1,0.00023384711179205367,0.00027921940422591645,-0.003776194270175422,0.0032308014177949533,0.9963728239523388
2014-06-06,1,0.0002135140698432335,0.0002462347092245698,-0.003776194270175422,0.003629708792380364,0.9962014786665319
2014-06-10,1,0.0004328162020511586,0.0005137027390650958,-0.003776194270175422,0.004732406994272529,0.9954128875074331
2014-06-12,1,8.818533115440321e-05,0.00010166146017191147,-0.004179918110216707,0.004732406994272529,0.9952723205798453
2014-06-16,-1,-0.00010407070234967709,-7.950974866920001e-05,-0.004179918110216707,0.004732406994272529,0.9952309828853187
2014-06-18,-1,-9.18791764802414e-05,-6.63797838133535e-05,-0.005207566682435907,0.004732406994272529,0.9949144083364736
2014-06-20,-1,-6.437923489083005e-05,-3.9782681445577e-05,-0.005207566682435907,0.004096137385861998,0.9951260814830403
2014-06-24,-1,-0.001181568089445276,-0.0009738269910350466,-0.003498499417356576,0.004096137385861998,0.9955422672028951
2014-06-26,-1,-0.0017727413021897164,-0.0014659788897675393,-0.003498499417356576,0.003802323203780893,0.9954843754281709
2014-06-30,-1,-0.0016134074293176197,-0.0013417727393724083,-0.0038125044840683396,0.003414549255665736,0.9956169255308334
2014-07-02,-1,-0.0009212774907482749,-0.0007497513194532107,-0.005693021085978273,0.0021349353532411283,0.9955778495759128
2014-07-07,-1,-0.00015721676424909056,-0.00011564881448177571,-0.005693021085978273,0.0018921093184003771,0.9939661970261863
2014-07-09,1,0.0001434527672540541,0.00017074618182812086,-0.005693021085978273,0.0018921093184003771,0.9935891196235749
2014-07-11,0,-4.2503228078585826e-05,1.368753185546312e-06,-0.00634048459280113,0.0020781278958794626,0.9928978128897397
2014-07-15,-1,-5.841451152235544e-05,-9.60579165887253e-06,-0.00634048459280113,0.002642680128205858,0.9926786749617285
2014-07-17,-1,-0.0004340931605624111,-0.00033924690135909475,-0.005606493569674572,0.0039736585239747504,0.9929346789121808
2014-07-21,-1,-0.0005113631676622548,-0.0004065435808110026,-0.005606493569674572,0.005962988554965277,0.9927040917890771
2014-07-23,-1,-0.0004617213092363395,-0.00037691113108630485,-0.005606493569674572,0.005962988554965277,0.9925645078237967
2014-07-25,-1,-0.0007325033639246497,-0.0006098331698638728,-0.004177666904234351,0.005962988554965277,0.9927423870803426
2014-07-29,-1,-0.0012139963412436594,-0.001026955325801179,-0.001955073837665063,0.005962988554965277,0.9929080224155008
2014-07-31,-1,-0.0016530418782675007,-0.0014238851326487903,-0.001108468171944064,0.005962988554965277,0.9933119190703928
2014-08-04,-1,-0.0006797469163604023,-0.0005781372973467958,-0.0010206844170569588,0.005698795411196673,0.995320324487321
2014-08-06,1,5.914808840963036e-06,3.2889345707421176e-05,-0.0011141220633018717,0.005698795411196673,0.9961179831832224
2014-08-08,1,0.00012593201285866833,0.00012833504885640957,-0.0011141220633018717,0.003693295787568859,0.9969023354978751
2014-08-12,-1,-6.302693982764159e-05,-1.4389739634531641e-05,-0.0016519427305011333,0.003693295787568859,0.9966685790765796
2014-08-14,1,0.00031825697557935455,0.00033407388850760164,-0.001955073837665063,0.0021072234575728,0.9967573346157913
2014-08-18,1,0.0004908357139186361,0.0005329421664835216,-0.0018238874063724098,0.002636025135319308,0.9968373521201899
2014-08-20,1,0.000630052676434164,0.0006947018388608112,-0.0018238874063724098,0.00197506236893989,0.9969917226568634
2014-08-22,1,0.0008940448859208604,0.0010046832860036623,-0.0018238874063724098,0.002709347052645324,0.9969833454782314
2014-08-26,1,0.0008117344123826508,0.0009050552365029823,-0.002033756366031569,0.0035006106168113957,0.996483594990081
2014-08-28,1,0.0007317484844666154,0.0008213563895238021,-0.002033756366031569,0.0035006106168113957,0.9960924543023304
2014-09-02,1,0.000842380618091144,0.0009660361122001962,-0.003056241298367149,0.0035006106168113957,0.9956584773548567
2014-09-04,1,0.0009306194491761027,0.0010505965192849135,-0.004061150676724961,0.0030548570091972083,0.9956582368004734
2014-09-08,1,0.0007841095729678296,0.0008851849293571685,-0.003056241298367149,0.0035006106168113957,0.9954240899701529
2014-09-10,1,0.0010341017021996092,0.0011857776071049976,-0.0031567362830207746,0.0035006106168113957,0.9951384743966531
2014-09-12,1,0.000804022046342836,0.0009143861352961776,-0.004498481551936366,0.004850404295832746,0.9945557780066377
2014-09-16,1,0.0009657516087772009,0.0010943740672461695,-0.005223814323963856,0.0035006106168113957,0.9940617393678782
2014-09-18,1,0.0012404524451948013,0.001437339857801113,-0.007169112778048652,0.0035006106168113957,0.9931932053889527
2014-09-22,1,0.0012364237437996876,0.0014230585151433313,-0.007169112778048652,0.009051233806552853,0.9923963740149327
2014-09-24,1,0.0012529803740257113,0.0014305279817806694,-0.007169112778048652,0.00605864620855783,0.9925981920169725
2014-09-26,1,0.0008637095025242969,0.0009754392670919663,-0.007169112778048652,0.009414789197901377,0.9915943918105783
2014-09-30,1,0.000714248911874086,0.000820803404115725,-0.00642415365963291,0.009689519835158993,0.9915103009583425
2014-10-02,1,0.00048371665155672397,0.0005531694195558179,-0.005223814323963856,0.009689519835158993,0.9917300602990465
2014-10-06,1,0.000516886183709595,0.0005820369632418061,-0.005223814323963856,0.009689519835158993,0.9921051729807845
2014-10-08,1,0.0005449018553344553,0.0006002484487057968,-0.004912671637311184,0.009689519835158993,0.9920972716775697
2014-10-10,1,0.0006259943879650374,0.0006892585208443172,-0.001965474370721138,0.006856703375058145,0.9928620691053026
2014-10-14,1,0.0003920054491529989,0.00042960371292949655,0.000326249741644778,0.006856703375058145,0.9933690178575959
2014-10-16,-1,-4.364052572556861e-05,-1.7694571434563754e-05,0.000326249741644778,0.006856703375058145,0.9933335232884566
2014-10-20,1,0.00046969834254382973,0.000511977210175196,-0.002355216856326967,0.004743644548912172,0.9942376629561037
2014-10-22,1,0.000439815475405379,0.00047672516803080325,-0.001372389402141495,0.004979137978050319,0.9942436307920166
2014-10-24,1,0.0005559498077818551,0.0006000202469693653,-0.001372389402141495,0.0042015734746443725,0.9958120354290462
2014-10-28,1,0.0008355193697410868,0.0009171431756521564,-0.002321682335583013,0.0038620854788573786,0.9959558793719252
2014-10-30,1,0.000913106973623232,0.001004679184615613,-0.002321682335583013,0.0038620854788573786,0.9953464630573999
2014-11-03,1,0.000924647039897252,0.001009085937477259,-0.0029637962855785602,0.005003821027402025,0.994764672903121
2014-11-05,1,0.0012065533208471774,0.0013249459548274225,-0.0032658949122317013,0.00430380977432762,0.9946994002397289
2014-11-07,1,0.0011618690370463719,0.0012737835587520747,-0.0032658949122317013,0.004764509323845096,0.9945643292863677
2014-11-11,1,0.0012112385730754696,0.0013297322018671995,-0.004285397585352829,0.004764509323845096,0.9941940437682045
2014-11-13,1,0.0007959122204923332,0.0008431030996488438,-0.004285397585352829,0.005027813381618884,0.9942219193902284
2014-11-17,1,0.0005098300667723453,0.0005115115712659595,-0.0038799098462568658,0.005027813381618884,0.9943917048276677
2014-11-19,1,0.0006601600460898068,0.0006755204927443772,-0.0038799098462568658,0.00679113555338234,0.9934655265424576
2014-11-21,1,0.000698960323260588,0.0007310240930381995,-0.0038799098462568658,0.00679113555338234,0.9934278538619
2014-11-25,1,0.0007852118332064607,0.0008345072316397811,-0.002623627596425253,0.0066962061860105886,0.9936584256373829
2014-11-28,1,0.001281801689489481,0.0014176799191941297,-0.0038799098462568658,0.006092338936068988,0.9939264416251791
2014-12-02,1,0.0013253731546789534,0.0014554788795280102,-0.0048881571578674584,0.00491043809714309,0.9936912353437541
2014-12-04,1,0.0011938199575063327,0.0013039369336450772,-0.005349835738733526,0.004292292187885934,0.9938811359656824
2014-12-08,1,0.0010355413884988872,0.0011080123551811332,-0.005349835738733526,0.004728084541128715,0.9937300212240423
2014-12-10,1,0.0007716123142932916,0.0008030693144653356,-0.005349835738733526,0.00542790298355007,0.9932325729155195
2014-12-12,1,0.0005369070299326567,0.0005437686420798248,-0.00460495167189618,0.00542790298355007,0.9935492122836674
2014-12-16,1,0.0003091289079821364,0.00034913873636236066,-0.00460495167189618,0.00542790298355007,0.9935744382330784
2014-12-18,1,0.000761049199061716,0.0007669531932404921,-0.00460495167189618,0.0044809121334957736,0.9940684450710563
2014-12-22,1,0.0005684116068282027,0.0006260362631651914,-0.004827003126158077,0.0044809121334957736,0.9936769780740551
2014-12-24,1,0.0010517626498664306,0.0010670232979762212,-0.005946899427606788,0.003633271976831706,0.9927591208272611
2014-12-29,1,0.000980082495083399,0.001028441113563889,-0.007684397168490701,0.0005633776402917327,0.9908361326089878
2014-12-31,1,0.00044883506749262756,0.0004693216561892501,-0.007684397168490701,0.0044809121334957736,0.9908715964435288
2015-01-05,1,0.00016765949846339807,0.0002182749173647015,-0.006495563556068682,0.007017840875705861,0.9906518886021287
2015-01-07,1,0.00019697708202087952,0.00023742984057065376,-0.006495563556068682,0.00976548288128546,0.9905111891772034
2015-01-09,1,0.00025872345957013865,0.00028870189945307266,-0.00804895897112325,0.007017840875705861,0.9905483517180341
2015-01-13,1,0.00026782320042593967,0.000293506529458368,-0.00804895897112325,0.007017840875705861,0.9906194538550845
2015-01-15,1,0.00018532865973420605,0.00021404763616922763,-0.00804895897112325,0.007017840875705861,0.9905986331221243
2015-01-20,1,0.0004710091656292704,0.0004736860496488886,-0.00804895897112325,0.006831860920154267,0.9906736736100561
2015-01-22,1,0.0004676055315855048,0.00047387265247839165,-0.012272414077618473,0.004942162418475285,0.9905651515127847
2015-01-26,-1,-0.00016038048511212696,-7.785763181243418e-05,-0.007949081709577912,0.006111867531807604,0.9914309644581676
2015-01-28,-1,-0.0013021890875550772,-0.0010957256613657253,-0.0041858329002534495,0.006111867531807604,0.993694258865148
2015-01-30,-1,-0.0016283033643775713,-0.0013780608262456938,-0.0035425831447837117,0.004947199254474056,0.9944869104447569
2015-02-03,-1,-0.0011152354589685797,-0.0009285681112135796,-0.0041858329002534495,0.0034662733093099177,0.995116515166729
2015-02-05,-1,-0.0009881663791085748,-0.0008104388322429724,-0.005215091634019219,0.003296743914939281,0.9944128136777961
2015-02-09,-1,-0.001366364068541263,-0.001154247028697565,-0.0041858329002534495,0.0034890170572279126,0.9940705894664588
2015-02-11,-1,-0.0011950560868465858,-0.0010037362763393202,-0.0041858329002534495,0.0036281006619839824,0.994011758667774
2015-02-13,-1,-0.0010257531958773663,-0.0008625336276762692,-0.0041858329002534495,0.003790101643378027,0.9930967048494754
2015-02-18,-1,-0.0008674857122897073,-0.0007279834615045227,-0.005116793739420043,0.003790101643378027,0.9928093198834241
2015-02-20,-1,-0.0014092584068498126,-0.001196780283494063,-0.0036495441885954897,0.00543320219865619,0.992492704362098
2015-02-24,-1,-0.0013693278587679103,-0.0011495181964513684,-0.005437676870855377,0.003790101643378027,0.9923758697836902
2015-02-26,-1,-0.0016535892659959688,-0.0013881920166909979,-0.009723727359355021,0.003790101643378027,0.9916484054029323
2015-03-02,-1,-0.001515641657887528,-0.0012730248531787598,-0.009723727359355021,0.00503639594000746,0.9914222910325167
2015-03-04,-1,-0.001728476302074784,-0.0014702741756177418,-0.00966209028115837,0.00503639594000746,0.9912145782188585
2015-03-06,-1,-0.0021550878012562653,-0.0018546301653292563,-0.008730004688994432,0.005751514124751531,0.9918948798494861
2015-03-10,-1,-0.0027959732641922863,-0.0024020529713326957,-0.007994897895357605,0.00558596647981871,0.9923862864721138
2015-03-12,-1,-0.002922935558804375,-0.0024921920717579154,-0.007994897895357605,0.005123288158924428,0.992371488631344
2015-03-16,-1,-0.0020226708720269275,-0.0017285169975839705,-0.007994897895357605,0.004723432852097299,0.9933253317623219
2015-03-18,-1,-0.001967441743567057,-0.0016799759780118312,-0.005270350250937931,0.0046185091895178144,0.9941619736761582
2015-03-20,-1,-0.0015859344463721044,-0.0013540238646163813,-0.008228024829242096,0.0042428658607293005,0.9945243827721614
2015-03-24,-1,-0.0015657561301942132,-0.0013589864490497461,-0.00276427624768705,0.0042428658607293005,0.9948487472226822
2015-03-26,-1,-0.0019478222616906488,-0.0017060753600823346,-0.00035895659635258603,0.0042428658607293005,0.994231911385912
2015-03-30,-1,-0.001627443779908375,-0.0014312273891624598,-0.002909513447432065,0.0029304993483513816,0.9947042583669772
2015-04-01,-1,-0.0013690592739633634,-0.0012291638269648958,-0.0044280260645982545,0.0021617303919167496,0.9950391107290261
2015-04-06,-1,-0.0010492440445688312,-0.0009505818124674989,-0.0044280260645982545,0.0021617303919167496,0.995013274762347
2015-04-08,-1,-0.000970987165553298,-0.0008913183148595589,-0.0036780387902907836,0.0021617303919167496,0.9952567236067025
2015-04-10,-1,-0.0009099148170373065,-0.0008234206095930465,-0.0036780387902907836,0.0021617303919167496,0.9951142530595549
2015-04-14,-1,-0.0009210223788169323,-0.0008232582943315302,-0.0044280260645982545,0.0011939650920218257,0.9948213832728299
2015-04-16,-1,-0.0007485656949384696,-0.0006855502651060507,-0.0044280260645982545,0.0029304993483513816,0.9941410320699388
2015-04-20,-1,-0.0009348794333692118,-0.0008501324193079795,-0.004054390815193126,0.0029309129706478767,0.9944638937280044
2015-04-22,-1,-0.0007689540351452659,-0.0007080999788637245,-0.004275967576688192,0.0018664078848062413,0.9943704693097648
2015-04-24,-1,-0.0010868413484038622,-0.0010153725690128746,-0.004275967576688192,0.0018664078848062413,0.9955028885992239
2015-04-28,-1,-0.00108806609549716,-0.001029783437883843,-0.004275967576688192,0.0033995732897360654,0.9950907855937996
2015-04-30,-1,-0.0014088627075544528,-0.0013101853248925065,-0.004072420453400133,0.0033995732897360654,0.9950197771013576
2015-05-04,-1,-0.0009616373908826869,-0.0009206746664227013,-0.004072420453400133,0.0033995732897360654,0.9951201916828525
2015-05-06,-1,-0.000964397148339376,-0.0009140144157913329,-0.0045522650182282035,0.0016257934266101742,0.9952304661794812
2015-05-08,-1,-0.0007623368919504426,-0.0007324809837919176,-0.005344359134778998,0.0016257934266101742,0.9951438412949208
2015-05-12,-1,-0.0010806009606936517,-0.0010146457086365752,-0.0045522650182282035,0.0041791361946234475,0.9944588716789444
2015-05-14,-1,-0.0003136800284433647,-0.00024022679411634334,-0.005344359134778998,0.0032732575396220414,0.9947366153497417
2015-05-18,0,-7.396617662891708e-05,4.0481338008425754e-05,-0.005990614139117517,0.0032732575396220414,0.994098885662418
2015-05-20,1,2.572449239446274e-05,0.0001635389455710304,-0.005990614139117517,0.006428944263713318,0.9933009386598713
2015-05-22,0,-9.162060804221911e-05,2.5864020787973727e-05,-0.005614208531736071,0.006428944263713318,0.9934021653049621
2015-05-27,-1,-0.00035676353440847175,-0.000295334094998599,-0.005614208531736071,0.006428944263713318,0.9935113298733828
2015-05-29,-1,-0.0007017813904072381,-0.0006991575795856665,-0.0042533361366776795,0.006428944263713318,0.9940658211430594
2015-06-02,-1,-0.000545819635079041,-0.0005200603226878478,-0.005614208531736071,0.004739996671447489,0.9939017382997016
2015-06-04,-1,-0.0005528696847414702,-0.0005177735287082944,-0.0043319378385829384,0.008393827358954659,0.993061532200286
2015-06-08,-1,-0.0005807034765990762,-0.0005428003280326494,-0.0034756545080990055,0.010027905067217121,0.9925434950309142
2015-06-10,1,5.764425151033364e-06,0.00011754834495364722,-0.004755919799353333,0.004285839271742601,0.9930165766836566
2015-06-12,1,8.87796651663077e-05,0.0002347509107891425,-0.003650523661704471,0.009895363193479039,0.9926950615338418
2015-06-16,1,0.0003266215235064716,0.0005172025411334599,-0.0034756545080990055,0.005006624381706926,0.9936782578122211
2015-06-18,1,0.0006097413658807846,0.0008033046078115642,-0.0034756545080990055,0.0020280121015507353,0.994551541291375
2015-06-22,-1,-5.234459208905098e-05,-8.66283869431901e-06,-0.003650523661704471,0.0020280121015507353,0.9944067852725382
2015-06-24,-1,-0.00046243127666650136,-0.00044249916861189523,-0.0022249069932793533,0.0020280121015507353,0.9944513243696571
2015-06-26,-1,-0.00017619863975073914,-0.0001283312691328487,-0.004326003281971663,0.0020280121015507353,0.9940936465041722
2015-06-30,-1,-0.0003423504625796643,-0.0002997997558159424,-0.004007787800331695,0.0033372481673179426,0.9943290545958311
2015-07-02,1,4.2001657956410715e-06,6.272861175258632e-05,-0.005513758164909909,0.002182271508026446,0.9930114787436652
2015-07-07,1,0.0007011322476112255,0.0008650529071009031,-0.006513574326728073,0.0016467923290733437,0.9934241758127866
2015-07-09,1,0.00045686055269216494,0.0005946946317074281,-0.0054137683144014435,0.0016467923290733437,0.9940196872076722
2015-07-13,1,0.0009380223123772699,0.0011472735548383678,-0.0054137683144014435,0.0014023811391509309,0.9937945350452402
2015-07-15,1,0.0008013114838522552,0.0009673234106733254,-0.0054137683144014435,0.0001595474499729857,0.9936741183274899
2015-07-17,1,0.0009565915701163828,0.0011556880441099527,-0.006513574326728073,-0.0005549204990595959,0.9931145123637635
2015-07-21,1,0.0007493211982767026,0.0009161375888619095,-0.0055753430177408235,-0.00099164005827931,0.9932821475392619
2015-07-23,1,0.0005576112585857331,0.0007066769341454629,-0.0055753430177408235,-0.00099164005827931,0.9931548692107677
2015-07-27,1,0.00025605993594720656,0.000362502272998849,-0.008217987892075356,-0.00099164005827931,0.9905509586489061
2015-07-29,1,0.00014002799357311447,0.00018179999511739093,-0.009290351967431634,-0.001680839688020305,0.9887106068168434
2015-07-31,-1,-0.001106337786620601,-0.0009842862651602907,-0.006806524969369939,-0.00099164005827931,0.9912224105030047
2015-08-04,-1,-0.001238588015585102,-0.0011104646719560785,-0.008592427637668367,-0.00099164005827931,0.9901935895906587
2015-08-06,-1,-0.0008970060888904395,-0.0008279329790935319,-0.008592427637668367,0.0018468335491928895,0.9892764978742931
2015-08-10,-1,-0.0005659943110198401,-0.0005366872546991881,-0.01117107645573035,0.0018468335491928895,0.9882031744686887
2015-08-12,-1,-0.0004055518785351971,-0.0003972580429470851,-0.01426521677619059,-0.00046291260403789826,0.9872258176350709
2015-08-14,-1,-0.0006708209215546526,-0.0006390756195067738,-0.01426521677619059,0.0015275061406814132,0.987460371374929
2015-08-18,-1,-0.0010695548490830095,-0.0009720231603350378,-0.01426521677619059,0.008475239622491377,0.9863039284550117
2015-08-20,-1,-0.0012601731108455765,-0.0011497094871096005,-0.011993001021631543,0.008475239622491377,0.9867175724970566
2015-08-24,-1,-0.002678540068250744,-0.0023998036848333075,-0.0067790217418591155,0.009557341490083889,0.9890532555923727
2015-08-26,-1,-0.0018317132642014975,-0.0016640138744161577,-0.005573960470510963,0.009557341490083889,0.9903147947982961
2015-08-28,-1,-0.0017472033733002728,-0.0015909166196180667,-0.0067790217418591155,0.010915531099858823,0.989396425685979
2015-09-01,-1,-0.002323534167700419,-0.0021121793664177963,-0.004843316051404084,0.010915531099858823,0.9901700242861983
2015-09-03,-1,-0.001815209649676641,-0.0016708635077971763,-0.004843316051404084,0.009557341490083889,0.9906348400007169
2015-09-08,-1,-0.0017047305301699726,-0.0015772909464119326,-0.004379223824724254,0.009557341490083889,0.991511819697529
2015-09-10,-1,-0.0022649093369909983,-0.002068315868090047,-0.000963555120489024,0.009557341490083889,0.99144785809742
2015-09-14,-1,-0.0022001303687693564,-0.0020194510983994503,-0.00039929969621086645,0.009557341490083889,0.9916286486157385
2015-09-16,-1,-0.0017689660556692377,-0.001614543432895913,-0.0022504354900224413,0.007635571229771814,0.9932723948390116
2015-09-18,-1,-0.0018251261552943568,-0.0016587088687538,-0.00039929969621086645,0.008667996095693851,0.9929291945824089
2015-09-22,-1,-0.0017997411824623758,-0.0016254222359999256,-0.00039929969621086645,0.0074502048807876,0.9931182420362995
2015-09-24,-1,-0.0011217379528405361,-0.001041955378212146,-0.0022504354900224413,0.0074502048807876,0.9929232891261351
2015-09-28,-1,-0.0009046700249384304,-0.0008547465719410349,-0.00039929969621086645,0.0074502048807876,0.9926863426078082
2015-09-30,-1,-0.0006555218109736958,-0.0006461536273221736,-0.002155722627159349,0.007019905949237015,0.9928054082052984
2015-10-02,-1,-0.0005882646714083213,-0.000573712015894971,-0.002675651742146455,0.00711994994023658,0.9924838586634185
2015-10-06,-1,-0.00011138821612674256,-5.205312056185714e-05,-0.002675651742146455,0.006145196494934307,0.9928866286985008
2015-10-08,1,0.00028304196573480445,0.0004002481855971987,-0.00429722335550101,0.005898972016708751,0.9932241730158665
2015-10-12,1,0.0002783519926348446,0.00039354018160204796,-0.00840576688779053,0.005898972016708751,0.9927022541340059
2015-10-14,1,0.00021197407066951058,0.00031135619457130123,-0.00840576688779053,0.005898972016708751,0.9925663232643456
2015-10-16,1,0.00038293669886634246,0.0004968022732910726,-0.009460087806813938,0.005149006085850787,0.9916582631785814
2015-10-20,1,0.00011692403192772015,0.0001796076924006697,-0.008864849691711621,0.005898972016708751,0.9912680798317378
2015-10-22,1,0.00032337680821789664,0.0004187862608597263,-0.00840576688779053,0.005898972016708751,0.991945706002623
2015-10-26,1,0.0011180583356729724,0.0013118849863654552,-0.00840576688779053,0.0043888264932335184,0.9932489864137385
2015-10-28,1,0.0007417508522497833,0.0008776699466595917,-0.007473019367928525,0.005149006085850787,0.9932983735366593
2015-10-30,1,0.0010056392177406359,0.0012105690524180884,-0.007569263825922217,0.0043888264932335184,0.9932721367545121
2015-11-03,1,0.001129176105211111,0.0013391048102803097,-0.007569263825922217,0.0043888264932335184,0.992746915752952
2015-11-05,1,0.0010165351123651483,0.0012192684175821589,-0.005734536014769735,0.005259879507381165,0.991910037483245
2015-11-09,1,0.001022609284136322,0.0012608901077182197,-0.005734536014769735,0.0064732229539936174,0.9919477130661802
2015-11-11,1,0.0011856383659925207,0.0014398846818893564,-0.005734536014769735,0.0064732229539936174,0.9920825292626184
2015-11-13,1,0.00041429021913303707,0.000550396700157551,-0.0027399531108581194,0.006652289872123287,0.9931467518623985
2015-11-17,1,0.0008138937848630488,0.0010025976629145464,-0.0021402243252574113,0.007967750639827945,0.9926206950481596
2015-11-19,1,0.0010570508987593056,0.0012586179574940357,-0.005734536014769735,0.006652289872123287,0.9914233406843547
2015-11-23,1,0.0012817624042894727,0.0015468450281368971,-0.003774876032306006,0.008798640098062334,0.9909825130060572
2015-11-25,1,0.0015970828356973756,0.0019397422624998295,-0.0021402243252574113,0.008798640098062334,0.9913738134404202
2015-11-30,1,0.0011254438946861633,0.0013886515149457894,-0.0009014664984498529,0.008798640098062334,0.9919679864568515
2015-12-02,1,0.0017170821696409128,0.002084954810677036,-0.0021221372086427976,0.00726192731435476,0.9921084689990778
2015-12-04,1,0.002501066328775962,0.002979208159671993,-0.004684385276026415,0.006652289872123287,0.9926717225919356
2015-12-08,1,0.0025338999059230155,0.003019947945340346,-0.008342804757993857,0.005768397905702112,0.9922162106501118
2015-12-10,1,0.0024665441140190635,0.0029326074109004294,-0.008665660749961356,0.006976006948483683,0.9912448180678951
2015-12-14,1,0.002517999335943249,0.0029749027743477797,-0.008665660749961356,0.0061874217706862,0.9907609431568709
2015-12-16,1,0.0032610433806459565,0.003801370510310563,-0.008966915803076146,0.003971435436852233,0.9909647797309886
2015-12-18,1,0.0022607173005653202,0.002671735470125477,-0.008966915803076146,0.0043914566042238075,0.9915473116046051
2015-12-22,1,0.002032371535118126,0.0023412146992673926,-0.008966915803076146,0.0043914566042238075,0.9914851226269122
2015-12-24,1,0.0018897369960500336,0.002163213519903876,-0.008966915803076146,0.006214655847891975,0.9902006627475618
2015-12-29,1,0.0019432963004922346,0.0022186537323472936,-0.008966915803076146,0.008560041930936018,0.9897403551008483
2015-12-31,1,0.0017708248234765728,0.0020338719519261113,-0.008966915803076146,0.00984478520180363,0.9890514044001177
2016-01-05,1,0.0015107100489350437,0.0017383468597353012,-0.008966915803076146,0.011161541742314224,0.9887780046324269
2016-01-07,1,0.0009443773733879947,0.0010822524040682037,-0.007389788464699474,0.011161541742314224,0.9892475429816469
2016-01-11,1,0.000714722552256093,0.0008128240897964018,-0.006688834963549437,0.012038608313377684,0.9896013077588093
2016-01-13,1,0.00025404249283775694,0.0002673098047932806,-0.008006868967371636,0.012038608313377684,0.9884472771173298
2016-01-15,-1,-0.0012538089532718108,-0.0009915987822270282,-0.006688834963549437,0.01311859111880764,0.9882107116368413
2016-01-20,-1,-0.0005288822571425789,-0.00038787810706486785,-0.00592340570029205,0.012257716155497037,0.9891962945588872
2016-01-22,1,5.5876538804199016e-05,0.0001252776925097347,-0.00592340570029205,0.012257716155497037,0.9899627935456594
2016-01-26,0,-5.149394612719417e-05,8.416232410548934e-05,-0.005124237794367701,0.011234577689687343,0.99122217182821
2016-01-28,1,0.0004809667541139824,0.0005372611419184611,-0.00601965881008404,0.009915072272025658,0.9905875000830225
2016-02-01,1,0.0009152858648117968,0.0009337924344573193,-0.0067721701438615625,0.009915072272025658,0.9909548973494599
2016-02-03,1,0.0002626806114075329,0.0003943511728432608,-0.005124237794367701,0.010099520225574442,0.9912173366980511
2016-02-05,1,5.3041302302963894e-05,0.00022049554882288218,-0.00492849493486676,0.010099520225574442,0.9911563670077242
2016-02-09,1,0.0009697311929212279,0.0009856072690525713,-0.00492849493486676,0.00827572652838891,0.9917577594222108
2016-02-11,-1,-0.0002613105194035167,-9.269158126558248e-05,-0.00492849493486676,0.00827572652838891,0.9928743438508167
2016-02-16,1,0.0002795963299825265,0.0003872644731160011,-0.005885611437508735,0.005079324378358883,0.9932881684964681
2016-02-18,1,0.000605120634843087,0.0006484166165568716,-0.005113759389905243,0.005079324378358883,0.9932358637595878
2016-02-22,1,0.0006703669607613069,0.0007065146167659668,-0.005113759389905243,0.005587008912302679,0.9932686987042179
2016-02-24,1,0.00035417792379332976,0.00042594868924790527,-0.0065713375469365065,0.005587008912302679,0.993307164301681
2016-02-26,1,0.0001701001988576587,0.00025578805655921067,-0.005113759389905243,0.0038431695368136972,0.9943119062901793
2016-03-01,1,0.0003679415824874489,0.0004139966145813292,-0.00361076911641728,0.0025122248815494315,0.9952010626015856
2016-03-03,1,0.0010584870119181521,0.0011167016461616367,-0.004524141129752759,0.00207802009225542,0.9950840794306695
2016-03-07,1,0.0010533516778750834,0.0011036050305415473,-0.0039919959712230255,0.001804694721229121,0.9953748026579324
2016-03-09,1,0.0008765213358794993,0.0008969772542503742,-0.004966689600659073,0.00207802009225542,0.9948785448785766
2016-03-11,1,0.0005017348549400961,0.0005167089018534689,-0.0039919959712230255,0.00207802009225542,0.9953388139422099
2016-03-15,1,0.00012576775234376844,0.00019588577914680044,-0.003989969910334311,0.00207802009225542,0.9955373124521297
2016-03-17,1,0.0006517820854114632,0.0006524963061064312,-0.004469039684004555,0.00207802009225542,0.995868219745457
2016-03-21,1,0.001341917102205187,0.0014854518231817142,-0.004469039684004555,0.002518030943840752,0.9954867346084099
2016-03-23,1,0.0009494521561049666,0.0010145552908766362,-0.00472062700429105,0.002518030943840752,0.9944165542056772
2016-03-28,1,0.0007846724444149585,0.0008218294876606205,-0.00472062700429105,0.004010318207786894,0.994363269086924
2016-03-30,1,0.000892662787311312,0.0009554668405347593,-0.005505106223164119,0.0045636907715560825,0.9932044262637045
2016-04-01,1,0.0009811200429017972,0.001037881591935933,-0.005505106223164119,0.004333883501381721,0.9938422115233126
2016-04-05,1,0.0005261328439447487,0.0005534106158095069,-0.005505106223164119,0.0047433554235041435,0.9935957626791454
2016-04-07,1,0.0005987129208765966,0.0006090951998813069,-0.004714548821624903,0.0047433554235041435,0.9938291909566142
2016-04-11,-1,-0.00025503349489721066,-9.86634118986503e-05,-0.003874064324648856,0.005495233732219359,0.9935903709804262
2016-04-13,-1,-0.00017574401609976863,-5.0073535587665235e-05,-0.0037575589111820415,0.005495233732219359,0.9934610857789206
2016-04-15,0,-2.898105113948601e-05,5.657200768154836e-05,-0.0037575589111820415,0.005495233732219359,0.9930496767934124
2016-04-19,1,0.00020676381043713225,0.0002740578772162601,-0.0052999468338756125,0.004616214543392377,0.9927952146411
2016-04-21,-1,-0.0009007444165939514,-0.0007000302763421778,-0.0037575589111820415,0.004616214543392377,0.9934038560799675
2016-04-25,-1,-0.001008065413304531,-0.0007696379318167137,-0.0037575589111820415,0.004416263910388562,0.9936458486988073
2016-04-27,-1,-0.0014512147786636415,-0.0011793740759564377,-0.0025091316340487696,0.005234467342544529,0.9939954786778178
2016-04-29,-1,-0.000867420429935963,-0.0007057984102876055,-0.003312348535780483,0.005234467342544529,0.9941180353375761
2016-05-03,-1,-0.0005231758938221366,-0.000398202600873103,-0.0037575589111820415,0.005234467342544529,0.9941556954885616
2016-05-05,-1,-0.00048492967796757123,-0.00036339193834720806,-0.00339349288846933,0.005267824137666535,0.9941922253308176
2016-05-09,-1,-7.048669134708142e-05,-6.305882112589721e-06,-0.004198089513553268,0.004518930300451158,0.9943350096189446
2016-05-11,1,0.0005147052299933555,0.0005807676900779627,-0.003590590432774015,0.00526604786372796,0.9944096008072347
2016-05-13,-1,-0.0005295321397961579,-0.00040824752544342156,-0.003590590432774015,0.00526604786372796,0.9946064239253456
2016-05-17,-1,-0.0004451246133492928,-0.0003625204496222745,-0.003590590432774015,0.006293326588109929,0.9947583630734914
2016-05-19,-1,-0.0005909534107936685,-0.0004945696543160981,-0.0032324919780351,0.006293326588109929,0.9949664507028411
2016-05-23,-1,-0.0004491112680480919,-0.0003806719997639039,-0.0032324919780351,0.006293326588109929,0.9949333230921255
2016-05-25,-1,-0.00016268257724911866,-0.00010862974880842155,-0.0032324919780351,0.005732080442837473,0.9953225466122595
2016-05-27,-1,-0.00040887555169116454,-0.0003101732686753156,-0.004791801256526222,0.005732080442837473,0.9938365102771513
2016-06-01,-1,-0.0006821436572013567,-0.0005195807114481008,-0.003717505892309478,0.00630500895840312,0.992835501047962
2016-06-03,-1,-0.0006017997079837163,-0.0004375501788557353,-0.003717505892309478,0.006633223558847217,0.9927590355217315
2016-06-07,-1,-0.0009532596640141873,-0.0007287235814725857,-0.003717424211439345,0.0076899070261919195,0.9925196143401871
2016-06-09,-1,-0.0010035270909600868,-0.0007421229799281958,-0.003717424211439345,0.00810298803519935,0.9924660628881359
2016-06-13,-1,-0.0012425655366386488,-0.0009555971512649069,-0.0026033034541586373,0.00810298803519935,0.9927087057311599
2016-06-15,-1,-0.0006994454792489686,-0.0005104828637286845,-0.0013999670121971604,0.0076899070261919195,0.9933875138040051
2016-06-17,-1,-0.00028891282811147967,-0.00017549405976904366,-0.0009682586595670035,0.0076899070261919195,0.9938148019468394
2016-06-21,1,9.532319245000111e-05,0.00014086121095574053,-0.0012856280431816042,0.0076899070261919195,0.993494641491428
2016-06-23,1,0.0007819026138276834,0.0008565958172402148,-0.0012856280431816042,0.005992662566275057,0.9936700422898421
2016-06-27,-1,-0.0006936214643796642,-0.0005853885912566756,-0.0007599411186723771,0.005992662566275057,0.9948837164265534
2016-06-29,1,0.0006654483322335855,0.0007240314974494486,-0.0012856280431816042,0.0031306984789615253,0.9960196662889211
2016-07-01,1,0.0013780802803909581,0.0015709709077175553,-0.0012856280431816042,0.004456779262812072,0.9956175383987244
2016-07-06,1,0.000777887062297222,0.0008092545887668693,-0.0012856280431816042,0.004073818333874441,0.9955595598048208
2016-07-08,1,0.0014459300076861263,0.001610302244102889,-0.001482049295667306,0.0031073194378534543,0.9959715870093477
2016-07-12,1,0.0015282487789769388,0.0017161236436582824,-0.001482049295667306,0.0031073194378534543,0.9959895497642849
2016-07-14,1,0.001566024037144221,0.0017608681553299187,-0.001482049295667306,0.004073818333874441,0.9958233997691052
2016-07-18,1,0.0013856849440984497,0.0015374697094499915,-0.0013118447444445316,0.004073818333874441,0.9957435680648201
2016-07-20,1,0.0009214005604120447,0.0009966154592379157,-0.0013118447444445316,0.004205209736181272,0.995862856960643
2016-07-22,1,0.0010671622604752288,0.0011629952761245913,-0.0018995322137283532,0.004205209736181272,0.995828587590053
2016-07-26,1,0.0012305570438623844,0.0013929000199112735,-0.0018995322137283532,0.00450829127152316,0.9956773328726036
2016-07-28,1,0.0010603735748317895,0.0012068143938851021,-0.0011440426337004132,0.005029639992563261,0.9959417928860261
2016-08-01,1,0.001720230188386875,0.0019482470710434727,-0.0018995322137283532,0.00450829127152316,0.9962157822056603
2016-08-03,1,0.0011267635109696917,0.001239808531871014,-0.002754996541944788,0.00450829127152316,0.9961330623838691
2016-08-05,1,0.0008695579505608499,0.0009331427073604358,-0.0017719443367153595,0.005029639992563261,0.9957048766827762
2016-08-09,1,0.0012448353652973628,0.001397228476074848,-0.0028806807571438433,0.005121471955889113,0.9952627364894894
2016-08-11,1,0.001659341015360063,0.0018804570103876051,-0.003994435143138982,0.005121471955889113,0.9944047481106959
2016-08-15,1,0.0015734212178101015,0.0017673203761576115,-0.005109330321071407,0.005723061622006782,0.9927769381364117
2016-08-17,1,0.0014208125520805545,0.0015872231817776034,-0.004047515992994433,0.0064389887247077,0.992644185534342
2016-08-19,1,0.0015149932406530516,0.0016930103301968217,-0.004047515992994433,0.0064389887247077,0.9927908343565719
2016-08-23,1,0.0016558142413090034,0.001872977166542931,-0.004676453681690543,0.005430911554851028,0.9927993809536809
2016-08-25,1,0.0017135416942538843,0.001926519524434715,-0.007990004072305188,0.005796784688771265,0.991821954750774
2016-08-29,1,0.0018785762909851625,0.0021129280811929864,-0.007990004072305188,0.005192861099876612,0.9921464285308406
2016-08-31,1,0.0012774288807827741,0.001416671379861578,-0.008039639092890783,0.0072173913544443516,0.9916253911348538
2016-09-02,1,0.001481808222489403,0.0016387864586187404,-0.009640390619774973,0.007370912217694596,0.9907944406313949
2016-09-07,1,0.0012742479941757496,0.0013961849243546314,-0.009640390619774973,0.007370912217694596,0.9909761884545247
2016-09-09,1,0.0007470054222202091,0.00082256273854579,-0.00482381777454167,0.009573696855766789,0.9914586711960126
2016-09-13,1,0.00041020877132925466,0.0004411402084220165,-0.006580438513851367,0.00653963599211134,0.9923388647419994
2016-09-15,1,0.0008934819108322818,0.0009355881244725746,-0.006580438513851367,0.0056958258580024745,0.992753094979871
2016-09-19,1,0.0005080807893511488,0.000550678624623139,-0.007290154193996637,0.0056958258580024745,0.9924976403439499
2016-09-21,1,0.00020825199006363582,0.00028519381763853006,-0.007699875712967645,0.0056958258580024745,0.9917445604592836
2016-09-23,1,0.00035854009965731026,0.0003988183882133394,-0.0070812610494578035,0.0045380920716809135,0.9923320638483839
2016-09-27,1,0.0005592869008988452,0.000572248025540488,-0.0070812610494578035,0.0045380920716809135,0.990749905692264
2016-09-29,1,0.0005150094521362168,0.0005234820492017898,-0.0070812610494578035,0.004359323927028846,0.9913445101490584
2016-10-03,1,0.0005905881360957525,0.0006068054610074475,-0.006854913689609518,0.003293292838768891,0.9925994385947016
2016-10-05,1,0.0003868720999091886,0.0004134348290809187,-0.006854913689609518,0.002365669534549674,0.9930234603480761
2016-10-07,1,0.0005386819160754977,0.0005594247728971595,-0.0070812610494578035,0.00039810811473373547,0.9925582679165291
2016-10-11,-1,-0.0001296484523295075,-2.344898720514464e-05,-0.006854913689609518,0.002365669534549674,0.9922883516521478
2016-10-13,-1,-0.0002878873587131288,-0.00016905500244156354,-0.007693917166999221,0.002365669534549674,0.9899865886885688
2016-10-17,-1,-0.00026101126486600815,-0.00015639408587718657,-0.007693917166999221,0.0034882638908812543,0.9897059009610326
2016-10-19,-1,-0.001038316825247988,-0.0008428765444913423,-0.0070812610494578035,0.005575655964879969,0.9904970038693656
2016-10-21,-1,-0.0013923637893107118,-0.0011603302991366096,-0.0075501475609684515,0.005575655964879969,0.9905424019126121
2016-10-25,-1,-0.0004420178348619967,-0.0003297985098200296,-0.0075501475609684515,0.005575655964879969,0.991703802473981
2016-10-27,-1,-0.0006411882740231119,-0.0005021723095007119,-0.005591605688658105,0.0074708130534510645,0.9919186850407611
2016-10-31,-1,-0.0004448006750184436,-0.000341378676984024,-0.005591605688658105,0.0074708130534510645,0.9917640788978518
2016-11-02,-1,-0.0006238115276766946,-0.0004886411517396488,-0.00702366989999105,0.0074708130534510645,0.9913409879642849
2016-11-04,-1,-0.0010857851614623076,-0.0009029272062099553,-0.005625571545162951,0.0074708130534510645,0.9915688023525535
2016-11-08,-1,-0.00034358005617574045,-0.00024882512857028776,-0.005625571545162951,0.0072375903516738145,0.9920505758016752
2016-11-10,-1,-0.0017294673038837003,-0.001476156222088391,-0.00515363588486374,0.0074708130534510645,0.9937418853550836
2016-11-14,-1,-0.001604902078160054,-0.0013774368082942819,-0.004790245933987991,0.007553652108433735,0.9938357622152674
2016-11-16,-1,-0.002210577553131301,-0.001861704010374883,-0.004801567886156273,0.007321329850685486,0.993703518271177
2016-11-18,-1,-0.002023261446071065,-0.0017420940710839166,-0.002793360672816082,0.007321329850685486,0.9940681984963419
2016-11-22,-1,-0.0015717316231828077,-0.001357705840978421,-0.0037400645958238377,0.006737517043381438,0.9947136163617647
2016-11-25,-1,-0.001258760669026704,-0.001085985894262594,-0.0037400645958238377,0.005999797888972644,0.9947712324343877
2016-11-29,-1,-0.0012874534410202757,-0.001123466356197799,-0.004474871959273311,0.005999797888972644,0.9945791216066393
2016-12-01,-1,-0.0016008445890722664,-0.0014009670856833258,-0.0032579622211205113,0.005999797888972644,0.9946783606000712
2016-12-05,-1,-0.0011652655867830102,-0.0010190262050402915,-0.0032579622211205113,0.003590801994440386,0.9952082316481782
2016-12-07,-1,-0.0007326405904093608,-0.0006385257507015179,-0.0032579622211205113,0.003590801994440386,0.9957046614519898
2016-12-09,-1,-0.0007633720705357665,-0.0006568696775347087,-0.003631165953529517,0.0033886529557053888,0.9957916026011505
2016-12-13,-1,-0.00042702171601038534,-0.00036581547282291474,-0.003631165953529517,0.0031682641448478295,0.9960992711188955
2016-12-15,-1,-0.0006700617301772329,-0.0005736911713664296,-0.0032579622211205113,0.0031682641448478295,0.9958528081442274
2016-12-19,-1,-0.0007499681756691057,-0.0006370785649704315,-0.0033217694580803554,0.0031682641448478295,0.995701971876841
2016-12-21,-1,-0.000505255467742551,-0.00044620287505950775,-0.0035238125953177004,0.0033886529557053888,0.9940152294839502
2016-12-23,-1,-0.0003684615752897432,-0.0003198414441782254,-0.004578765923213818,0.0033886529557053888,0.9935634484474721
2016-12-28,-1,-0.0006562386383046342,-0.000571647588395939,-0.003865283153289966,0.0033886529557053888,0.9936268250370145
2016-12-30,-1,-0.0006051054000865524,-0.0005297395767731546,-0.003865283153289966,0.004329033816729515,0.9933951423389897
2017-01-04,-1,-0.0003366884088522884,-0.000303280603381254,-0.003865283153289966,0.005349689095654147,0.9933295003272631
2017-01-06,-1,-0.00011808008127043863,-0.00011461088786826672,-0.004391893410234608,0.003566592166408519,0.9934874695363686
2017-01-10,-1,-0.0005569152930495265,-0.0005019791048886211,-0.0031331113863477507,0.005437744558997223,0.9937403030074172
2017-01-12,-1,-0.0003659616609061107,-0.00033895285777390497,-0.0034615217576579637,0.005437744558997223,0.9934420994507136
2017-01-17,1,4.847216229532585e-05,7.490780461281766e-05,-0.004265011820041361,0.004129648070830856,0.993863571101089
2017-01-19,1,1.1296095709437115e-06,2.794883361597773e-05,-0.004265011820041361,0.005437744558997223,0.9921526657543778
2017-01-23,1,0.0006080659413126841,0.0007209600723441778,-0.0037132464126796603,0.005284728928233496,0.9936949971334684
2017-01-25,1,0.0005376093231172663,0.0006272243697819269,-0.0034480978728200747,0.004129648070830856,0.9942312332523893
2017-01-27,1,0.0005463183835999022,0.0006499259740139764,-0.0031591796027265594,0.004129648070830856,0.9944346953352587
2017-01-31,1,0.0007305309203283735,0.0008552361443149264,-0.0031591796027265594,0.004129648070830856,0.9945544933558222
2017-02-02,1,0.0005435482174778105,0.0006189017832798627,-0.0037132464126796603,0.0038530983078255286,0.994239242460287
2017-02-06,1,0.0005518315765254745,0.000639891592218467,-0.0034480978728200747,0.0038530983078255286,0.9943323688702967
2017-02-08,1,0.0008696804872051548,0.0010132444576216857,-0.0034480978728200747,0.0034404987422567575,0.9945644819762222
2017-02-10,1,0.0008206439673296361,0.000961703379988101,-0.0027292793046278657,0.0034444367326068874,0.994714380407048
2017-02-14,1,0.0007229432478002094,0.000843167258261307,-0.0027292793046278657,0.0035771139537640237,0.994772220041653
2017-02-16,1,0.0013167209112858096,0.00151374968233841,-0.0027292793046278657,0.002802553560338949,0.9964074588292176
2017-02-21,1,0.0015346026900182382,0.0017671705947881855,-0.0027292793046278657,0.0022684516781586424,0.996552309603879
2017-02-23,1,0.0013925154771357732,0.001604074677316658,-0.0022494202078953626,0.0022684516781586424,0.9966517495769857
2017-02-27,1,0.001329679854216522,0.001537004347379261,-0.002256968610870483,0.0022684516781586424,0.9966466648677398
2017-03-01,1,0.0014961086709488003,0.0017273132316956248,-0.002256968610870483,0.0022684516781586424,0.9966206912083092
2017-03-03,1,0.0013497899383543344,0.0015746050577280617,-0.002256968610870483,0.0022684516781586424,0.9968957363294513
2017-03-07,1,0.0011133828744390962,0.0012880330790523992,-0.002256968610870483,0.00245437482929847,0.9969972847246237
2017-03-09,1,0.001087016703834686,0.0012542386654834869,-0.0026621465108181757,0.00245437482929847,0.9967914088662074
2017-03-13,1,0.0012169603693290908,0.0013956753466649514,-0.0026621465108181757,0.001104879072673645,0.996897475701313
2017-03-15,1,0.0009126404320045838,0.0010223727720022828,-0.002256968610870483,0.00245437482929847,0.9970729005115788
2017-03-17,1,0.0006633079525710408,0.0007242977939454809,-0.002256968610870483,0.002651973003889838,0.9970960834933212
2017-03-21,1,0.0011737972253656693,0.0013334074195302309,-0.0025885007940204493,0.002931268012383037,0.9962309105164385
2017-03-23,1,0.0009824800450016122,0.0011100208889786812,-0.003295376132165333,0.002931268012383037,0.9959623520460198
2017-03-27,1,0.0009121364002746516,0.001032386212519136,-0.003295376132165333,0.0035977676764668344,0.9955623496595565
2017-03-29,1,0.0009748799041372554,0.0011012074802268193,-0.004013943955992879,0.0035977676764668344,0.9944179818361845
2017-03-31,1,0.0005372596550733743,0.0005786035209144644,-0.0033516583196553785,0.0035977676764668344,0.9945315964153026
2017-04-04,1,0.000913946888046102,0.0010419012262154487,-0.004662893947622011,0.0035977676764668344,0.9941080716566072
2017-04-06,1,2.255096085173301e-05,7.68705858982215e-05,-0.0033516583196553785,0.0035977676764668344,0.9945059443736636
2017-04-10,0,-2.0053091606187553e-06,5.728966170770702e-05,-0.0033516583196553785,0.0035977676764668344,0.9946323839740091
2017-04-12,1,0.00020467971447340013,0.00023994668011464784,-0.003801229202406294,0.0013901229798808374,0.9948154677771454
2017-04-17,0,-6.011858986495458e-05,2.454718599272088e-05,-0.003801229202406294,0.0011872960067902355,0.9951228989290245
2017-04-19,-1,-0.0002135771043320699,-0.00012092060088498256,-0.0031849781461468765,0.000694209306197967,0.9959435899555346
2017-04-21,-1,-0.00042704602744398853,-0.00031708757247331167,-0.0029861560688737624,0.0011872960067902355,0.9960208568481878
2017-04-25,-1,-0.0001991386396771975,-0.00010551788852502484,-0.0029861560688737624,0.0005781535520590578,0.9967427099979541
2017-04-27,-1,-0.0010996789608649221,-0.0008835341860044446,-0.001986904701376237,0.0011872960067902355,0.9974516394369698
2017-05-01,-1,-0.0011122493544705654,-0.0009101788463096104,-0.0011588963876738318,0.001898316180061409,0.9972530351975003
2017-05-03,-1,-0.0010956002511688626,-0.0009131730415563998,-0.0005215285115540407,0.0023298755890074035,0.997341040093932
2017-05-05,-1,-0.0010518966924667,-0.000877315661795828,-0.0005215285115540407,0.004198588060783748,0.9970587034897603
2017-05-09,-1,-0.0009555978345091606,-0.0008030526739480678,-0.0003403955654276357,0.004198588060783748,0.9970966165858727
2017-05-11,-1,-0.001100563732679187,-0.0009247068038367405,-0.0003403955654276357,0.004198588060783748,0.9965612955414448
2017-05-15,-1,-0.0010703434866218423,-0.0008977926337995113,-0.0005215285115540407,0.004198588060783748,0.9966355697085822
2017-05-17,-1,-0.0011641290025150926,-0.0009749817417286444,-0.0003403955654276357,0.004358965589200825,0.9958084279284753
2017-05-19,-1,-0.0011106984756725394,-0.0009348122806868947,0.0002560911000338442,0.004358965589200825,0.9958903771981935
2017-05-23,-1,-0.0013224220782760746,-0.0011091475913198542,0.0002560911000338442,0.004358965589200825,0.9957047548391059
2017-05-25,-1,-0.001127213830966077,-0.0009359189447918612,-0.0007634061755452622,0.004331606155246927,0.9959461728137806
2017-05-30,-1,-0.0009379163039816105,-0.0007733009260584239,-0.002169814634654314,0.003725424762319256,0.9960405746412074
2017-06-01,-1,-0.0006681632277059804,-0.0005416263725300734,-0.0026016615785403245,0.003231773079085666,0.9957519746727072
2017-06-05,-1,-0.0008148831293458735,-0.0006474895227908331,-0.0026016615785403245,0.003231773079085666,0.9956678716734038
2017-06-07,-1,-0.0007948422616588949,-0.0006332010448748973,-0.002886823083448064,0.003231773079085666,0.995620946985186
2017-06-09,-1,-0.0007464064840441295,-0.0006099227344022696,-0.002886823083448064,0.003150759578288544,0.9958209231910555
2017-06-13,-1,-0.0009160541602660614,-0.000750282290765167,-0.0034849923603897737,0.003150759578288544,0.9956872314868614
2017-06-15,-1,-0.00018904584010861358,-0.00013459934988989947,-0.0034849923603897737,0.0024561521619037726,0.9959618804775622
2017-06-19,0,-1.0227514387984026e-05,2.041975942036959e-05,-0.0034849923603897737,0.0034986952374790594,0.9953095465949758
2017-06-21,-1,-0.00027421166343877544,-0.00020602830707678325,-0.0034849923603897737,0.0034986952374790594,0.9953058700479244
2017-06-23,-1,-0.00012043406535178824,-8.334197895956451e-05,-0.0034849923603897737,0.0029234279450749785,0.9954521677764283
2017-06-27,-1,-0.00036393452284955266,-0.00030068416114191514,-0.003309220995177339,0.0035569674434698722,0.9952434434735954
2017-06-29,-1,-0.0009315598769149831,-0.000797077245935312,-0.003309220995177339,0.004751852924483912,0.995015258020304
2017-07-03,-1,-0.0005224506881626186,-0.00044969011275297296,-0.003309220995177339,0.004751852924483912,0.9950081935399702
2017-07-06,-1,-0.0006952903196937809,-0.0005972895783907419,-0.0030603465016848055,0.004751852924483912,0.9950661704799743
2017-07-10,-1,-0.0008362983392963702,-0.0007194978318974549,-0.002315843299760678,0.005565397624963097,0.9949870013094099
2017-07-12,-1,-0.00032471999470430564,-0.0003199793245731203,-0.002005656190462006,0.005565397624963097,0.9950346801615834
2017-07-14,-1,-6.970536044771775e-05,-2.232217522107972e-05,-0.002005656190462006,0.005565397624963097,0.9952064213999802
2017-07-18,1,0.00040049052452904567,0.0005007429073060655,-0.002005656190462006,0.00428468097185642,0.9957067681168005
2017-07-20,1,0.00037016904862240444,0.0004626283698748727,-0.002005656190462006,0.00428468097185642,0.9956743471405988
2017-07-24,1,0.0003929165976572849,0.0005053905539266893,-0.0019629599845902386,0.004758663060894314,0.9955828377725905
2017-07-26,1,0.0005857354986946039,0.0007006765767844995,-0.002005656190462006,0.0042493173340792416,0.9959233240278698
2017-07-28,1,0.0008535247616902873,0.000999461226791935,-0.0019629599845902386,0.003838815062977541,0.9967713911039552
2017-08-01,1,0.001141652786287725,0.0013261573841003053,-0.0019629599845902386,0.003473617576414268,0.9969637592158652
2017-08-03,1,0.0012427667109657513,0.0014604773830417367,-0.0019914599430043466,0.003838815062977541,0.9967771470839495
2017-08-07,1,0.0014448794760732401,0.0016909132140478112,-0.0018688770251517,0.003473617576414268,0.9972280579655476
2017-08-09,1,0.001527600589386818,0.001776432240335663,-0.0018688770251517,0.0029618728443408958,0.9972039264377871
2017-08-11,1,0.0013565505439329716,0.0015859832053470642,-0.001454305822623049,0.0035998716971254695,0.9969676746426396
2017-08-15,1,0.0015313514758507848,0.0017745987649466877,-0.0016763965025089664,0.002726677534658377,0.996898668875964
2017-08-17,1,0.0014194878992164373,0.0016416097094819322,-0.0016763965025089664,0.002726677534658377,0.9969238159936211
2017-08-21,1,0.0016717802609442795,0.0019287108196641852,-0.0016763965025089664,0.0026249137638314803,0.9965196183525754
2017-08-23,1,0.001387063940040045,0.0015905822554974206,-0.0016763965025089664,0.0026249137638314803,0.9959182374017839
2017-08-25,1,0.0014301055434485699,0.0016399823675601148,-0.001964903215587033,0.002726677534658377,0.9956603196253616
2017-08-29,1,0.0012548172236825444,0.0014300493531634476,-0.0033242916367071246,0.002726677534658377,0.994794042330636
2017-08-31,1,0.001254920123062264,0.0014310972101876762,-0.001797044834698399,0.00250589280353863,0.9951735582024196
2017-09-05,1,0.0015386121479957675,0.0017685674379131606,-0.001797044834698399,0.002975704697385763,0.994729367678725
2017-09-07,1,0.0016189166520673955,0.0018602215520246521,-0.003299805016211157,0.0033959163015322355,0.9944727957045464
2017-09-11,1,0.0018531528726423332,0.002107926140986849,-0.003299805016211157,0.003257388953469872,0.9948158010152702
2017-09-13,1,0.0014990334491147657,0.0016829101165994217,-0.003299805016211157,0.003257388953469872,0.9947744010982776
2017-09-15,1,0.001676223412203479,0.0019137181611868935,-0.00276079511253495,0.004161425047028284,0.9944014777889705
