JNU-Tangyin/eata/results/Batch4_SP500/Batch4_SP500-LBTYA.csv
Date,Action,Predicted_Q25,Predicted_Q75,Actual_Q25,Actual_Q75,RL_Reward
2010-12-14,0,0.0,0.002550652576594911,-0.0021683894448336974,0.005436404426040892,0.992588125809189
2010-12-16,0,0.0,0.0,-0.0021683894448336974,0.005437871704294449,0.9923830667788951
2010-12-20,0,0.0,0.0,-0.0029104546559080065,0.005437871704294449,0.9921525109123949
2010-12-22,0,0.0,0.0,-0.0021683894448336974,0.006220839009138593,0.9913783863560057
2010-12-27,-1,-0.00018969533618913272,-3.0503486855538336e-05,-0.0009576835244744092,0.012349608646545452,0.9894081247850249
2010-12-29,0,0.0,0.0,-0.0009576835244744092,0.01626221411167914,0.9891193586626665
2010-12-31,0,0.0,0.0,-0.0027969685359421014,0.01626221411167914,0.9882841809762983
2011-01-04,0,0.0,0.0,-0.0049297470595156545,0.014722025882130976,0.9882833214892451
2011-01-06,0,0.0,0.0,-0.0049297470595156545,0.00769067091983896,0.9893080969278067
2011-01-10,1,0.0007286685694535922,0.0012030677806821343,-0.004290729117188257,0.00769067091983896,0.9903014581524365
2011-01-12,1,0.0003712468881658267,0.0007093453462803629,-0.004290729117188257,0.014722025882130976,0.9888445966540539
2011-01-14,-1,-0.0007524988691628911,-0.0002175376091450472,-0.004290729117188257,0.014722025882130976,0.9887083657176204
2011-01-19,-1,-0.0020138282794203194,-0.0012983358578543248,-0.0017572939185517514,0.019236543840455995,0.9875688605405952
2011-01-21,0,-0.0001026783667062482,0.0004212179032916394,-0.004617480404062978,0.00769067091983896,0.9905456647389284
2011-01-25,1,0.0022249880156427642,0.002414984685064094,-0.006112951220514157,0.005580884210350953,0.9906362302751831
2011-01-27,1,0.003094187771826348,0.0031465828802578087,-0.006112951220514157,0.009193614275815583,0.9891869285958772
2011-01-31,1,0.0014414457121035356,0.0017127359278027341,-0.0062391424344499565,0.009193614275815583,0.9887692181931023
2011-02-02,1,0.001744687767232948,0.001961949836296697,-0.006112951220514157,0.019264336078086926,0.9875425008222483
2011-02-04,1,0.0019885851800112717,0.0021672439055427997,-0.0062391424344499565,0.019264336078086926,0.9869449236656626
2011-02-08,0,0.0,0.0,-0.0062391424344499565,0.019264336078086926,0.9871714654009676
2011-02-10,0,0.0,0.0,-0.0074573779685675225,0.008731719893304679,0.9877181051730737
2011-02-14,0,0.0,0.0,-0.012905595276112129,0.0076349640853757075,0.9863123447775151
2011-02-16,1,0.0024820545474294425,0.0026226601429796257,-0.012905595276112129,0.0033407808656588066,0.9861969332741471
2011-02-18,0,0.0,0.0,-0.012905595276112129,0.0033407808656588066,0.9871555998004321
2011-02-23,0,0.0,0.0,-0.010714606741346238,0.0033407808656588066,0.9882851943499656
2011-02-25,0,0.0,0.0,-0.010714606741346238,0.0033407808656588066,0.9889063928182064
2011-03-01,0,0.0,0.0,-0.006249699349491645,0.0033407808656588066,0.9903608704330671
2011-03-03,0,0.0,0.0,-0.009329844312716766,0.0028199661300148766,0.9923388358024787
2011-03-07,0,0.0,0.0,-0.007945172242834905,0.0031862483836411887,0.9923623273448854
2011-03-09,1,0.0009622476900226298,0.0011731919925224194,-0.007945172242834905,0.004828164717719864,0.9917556052772369
2011-03-11,1,0.001068291167477965,0.0012335877717980764,-0.004815911386603008,0.006748987184826778,0.991980736961889
2011-03-15,0,0.0,0.0,-0.0033035829303514506,0.006748987184826778,0.9933381657281124
2011-03-17,0,0.0,0.0,-0.0033035829303514506,0.008615805764748317,0.9925576093171472
2011-03-21,1,0.00022225029303366906,0.0002594942447516266,-0.0033035829303514506,0.010554005580681727,0.9915633768019909
2011-03-23,0,0.0,0.0,-0.0029084393682961168,0.014342624915445868,0.9892510679976578
2011-03-25,0,0.0,0.0,-0.0038511616389984805,0.010554005580681727,0.989813447635886
2011-03-29,1,0.000815417050578234,0.0008340997195093384,-0.0038511616389984805,0.012193990789343577,0.9893882893901454
2011-03-31,0,0.0,0.0,-0.0026235091343400556,0.012193990789343577,0.9894719433526312
2011-04-04,0,0.0,0.0,-0.00354606542325258,0.012193990789343577,0.9893716350200839
2011-04-06,1,0.0035543523607868633,0.0038225301097153134,-0.005829276674622444,0.008325240525543521,0.9904054719181685
2011-04-08,1,0.0028684925994465777,0.0029702984941242386,-0.005829276674622444,0.008325240525543521,0.9904057730076627
2011-04-12,1,0.0024772076780302283,0.0025569499333236516,-0.004812697671234507,0.01234101288381441,0.989655961521379
2011-04-14,1,0.0021795093057715735,0.0022138999357377395,-0.005829276674622444,0.009602209894448151,0.9895672235188298
2011-04-18,0,0.0,0.0,-0.006856814558721916,0.006559841361184666,0.9897843975010852
2011-04-20,0,0.0,0.0,-0.006856814558721916,0.004397120392038021,0.9920616414221608
2011-04-25,1,0.0027574244273150137,0.0027623193976994377,-0.006856814558721916,0.004397120392038021,0.9913336148686552
2011-04-27,1,0.003391443002258306,0.0035026355820313992,-0.006856814558721916,0.004397120392038021,0.9917199459908881
2011-04-29,0,0.0,0.0,-0.006856814558721916,0.004225291742408637,0.9922613422915786
2011-05-03,0,0.0,0.0,-0.007139536219640848,0.004225291742408637,0.9923159708741918
2011-05-05,0,0.0,0.0,-0.011126828636017872,0.002602116999413299,0.9922032452873603
2011-05-09,0,0.0,0.0,-0.012153226884876656,0.0020276435866577987,0.9917384157095884
2011-05-11,0,0.0,0.0,-0.012153226884876656,0.0016698418588384693,0.9926989921923168
2011-05-13,0,0.0,0.0,-0.012153226884876656,0.0016698418588384693,0.9919831564698145
2011-05-17,0,0.0,0.0,-0.012153226884876656,0.0016698418588384693,0.9910618067942545
2011-05-19,0,0.0,0.0,-0.012153226884876656,0.0016867910967225544,0.9905434433340599
2011-05-23,0,0.0,0.0,-0.011957040726454775,0.0021234774869459904,0.9888943508850232
2011-05-25,0,0.0,0.0,-0.011957040726454775,0.0021234774869459904,0.9881503549808393
2011-05-27,0,0.0,0.0,-0.011957040726454775,0.0031213800675465616,0.9882371134243203
2011-06-01,-1,-0.0008564551477841474,-0.0004644097010687337,-0.010700850550816168,0.007364581863175911,0.9872997320712147
2011-06-03,-1,-0.0015763647542707641,-0.0010876837683539897,-0.008846661239544152,0.013271363207663273,0.9856852017015768
2011-06-07,-1,-0.002393078489112299,-0.0018080880440462307,-0.008846661239544152,0.015427482982951457,0.9842326740268592
2011-06-09,-1,-0.002899705526931111,-0.002248869791664281,-0.008846661239544152,0.015427482982951457,0.9840784282557195
2011-06-13,-1,-0.00477962639488195,-0.003875602929967357,-0.009294896928126399,0.015427482982951457,0.9836457929156767
2011-06-15,-1,-0.00426664716506171,-0.0035387406536566443,-0.009294896928126399,0.016021489032703874,0.9837632191464892
2011-06-17,-1,-0.0025255377728232754,-0.0020840768506775065,-0.012786099264282534,0.016021489032703874,0.9836236141989052
2011-06-21,-1,-0.0007004110536992019,-0.0004909975594202128,-0.009991180130791961,0.013469365224247413,0.9860148212136597
2011-06-23,-1,-0.0011544561624442155,-0.0008530797233206507,-0.009771054187441872,0.016021489032703874,0.9851918274738698
2011-06-27,-1,-0.0005391207371968542,-0.0003136386104848247,-0.011906144813622031,0.016021489032703874,0.9851912845601604
2011-06-29,1,0.0010751158797693264,0.0010972969292681125,-0.016150565549284596,0.010636653204801333,0.9848717073410519
2011-07-01,1,0.002456925346772665,0.002595943160112798,-0.016150565549284596,0.0007167142417446936,0.9853574029601697
2011-07-06,1,0.002454116885881867,0.002644388887385016,-0.016150565549284596,0.0007167142417446936,0.9846935335506756
2011-07-08,1,0.0019418130973450384,0.0020604731526345926,-0.019926813326270824,0.0005208460857374172,0.9800090557189953
2011-07-12,1,2.9191609961261186e-05,6.580474721393352e-05,-0.022767884593192584,0.005870065316195919,0.9750501619250426
2011-07-14,-1,-0.0002131251196894323,-0.00013100334789043635,-0.022767884593192584,0.009024593421966525,0.972813752695256
2011-07-18,0,0.0,0.0,-0.016299480547636358,0.013305516453891253,0.9727593823539675
2011-07-20,-1,-0.001343365483589574,-0.0011391644098421494,-0.016299480547636358,0.013305516453891253,0.972868723293179
2011-07-22,-1,-0.0007193001826418274,-0.0005515574192671156,-0.02462145534058393,0.009394524119757896,0.9708368852355191
2011-07-26,1,0.0001668325475036396,0.00021068020275617262,-0.027393979369642475,0.009394524119757896,0.9692383126974801
2011-07-28,0,0.0,0.0,-0.027393979369642475,0.01024034229919843,0.9702477250205994
2011-08-01,0,0.0,0.0,-0.027393979369642475,0.021373066104651107,0.9669230087886541
2011-08-03,0,0.0,0.0,-0.023075203330435785,0.02263240496673374,0.9672119659021687
2011-08-05,0,0.0,0.0,-0.01904753711462098,0.02263240496673374,0.9698980097054821
2011-08-09,0,0.0,0.0,-0.015273232924302486,0.02138921478497053,0.9764025012537454
2011-08-11,-1,-0.0036031109269074367,-0.00308585072332088,-0.01904753711462098,0.020992239854154448,0.9781092173356107
2011-08-15,0,0.0,0.0,-0.01904753711462098,0.015191396319380997,0.9777886624621056
2011-08-17,0,0.0,0.0,-0.01904753711462098,0.015191396319380997,0.9776560794110819
2011-08-19,0,0.0,0.0,-0.007111089080593974,0.020992239854154448,0.9798213382744569
2011-08-23,0,0.0,0.0,-0.004763149786885492,0.020992239854154448,0.9815655163779815
2011-08-25,-1,-0.010138173686769164,-0.008860967562833904,-0.005011605450344263,0.020992239854154448,0.9779528758075807
2011-08-29,0,0.0,0.0,-0.005011605450344263,0.015196779212820803,0.9832901159038452
2011-08-31,0,0.0,0.0,-0.01223662813162668,0.0071119221793877795,0.984408534017381
2011-09-02,-1,-0.004912123434518649,-0.0043635302321724,-0.014492038368674073,0.0071119221793877795,0.9836584772182735
2011-09-07,-1,-0.004854926980880556,-0.004317577147680621,-0.017446338029978782,0.006431720843867329,0.9835576190327286
2011-09-09,-1,-0.006307068617337593,-0.005651769463915591,-0.014492038368674073,0.010164464057419442,0.98128729498928
2011-09-13,0,0.0,0.0,-0.013104685804465947,0.01382044873604255,0.980022045044633
2011-09-15,-1,-0.0022867781781985503,-0.0021430370729991974,-0.013104685804465947,0.017035796196987404,0.9796430346593881
2011-09-19,-1,-0.0007501429889608486,-0.0006704607444727261,-0.013104685804465947,0.017035796196987404,0.979432534206944
2011-09-21,-1,-0.0005852471386707147,-0.0004477904816752656,-0.017446338029978782,0.0199234641022623,0.9772780855458316
2011-09-23,-1,-0.0016435278187751892,-0.0016192341287927106,-0.013104685804465947,0.02481635082503723,0.9767516619245787
2011-09-27,-1,-0.0004547644187929521,-0.00032347066155128366,-0.016750239039832773,0.02362335327181415,0.9765018422543849
2011-09-29,-1,-0.0012457866539081275,-0.0012095388636449835,-0.011884744355786167,0.02362335327181415,0.9760291316539418
2011-10-03,-1,-0.003917178736862429,-0.0036850070796466674,-0.011884744355786167,0.02362335327181415,0.9767792018247138
2011-10-05,-1,-0.004503628074752651,-0.004168057863970649,-0.009481727948134212,0.02362335327181415,0.9777523399759269
2011-10-07,-1,-0.001500181996443486,-0.0014911703395907158,-0.011884744355786167,0.02362335327181415,0.9776882646091767
2011-10-11,1,0.0007889358275669461,0.001101296052618965,-0.011884744355786167,0.021654850761314827,0.9799365827579954
2011-10-13,1,0.0006684695402998462,0.000916448323248269,-0.017792809661616688,0.021654850761314827,0.9787887928222242
2011-10-17,0,0.0,0.0,-0.02056482560448749,0.021654850761314827,0.9772699115011081
2011-10-19,1,0.002213278896424048,0.0027058367124650267,-0.017558920238336675,0.018226249336478477,0.9784447023060877
2011-10-21,1,0.003312668909457364,0.003919868062815614,-0.01767267868525209,0.013336905308705772,0.9794896751137009
2011-10-25,0,0.0,0.0,-0.01767267868525209,0.011536484572259198,0.9807404626303948
2011-10-27,0,0.0,0.0,-0.02056482560448749,0.004790480992947685,0.9804297185070067
2011-10-31,0,0.0,0.0,-0.01767267868525209,0.004790480992947685,0.9823679372762056
2011-11-02,0,0.0,0.0,-0.01767267868525209,0.013336905308705772,0.9807731771419783
2011-11-04,0,0.0,0.0,-0.015897952183630555,0.008820196853522602,0.9839745238927461
2011-11-08,0,0.0,0.0,-0.015897952183630555,0.009951195927328248,0.983731223604518
2011-11-10,0,0.0,0.0,-0.015897952183630555,0.010617639207958775,0.9845426017086626
2011-11-14,0,0.0,0.0,-0.013917422072976292,0.007958588239316151,0.9869466768241664
2011-11-16,0,0.0,0.0,-0.015897952183630555,0.007958588239316151,0.9858584145814966
2011-11-18,0,0.0,0.0,-0.016249059184137556,0.010056672253377075,0.9853063955840217
2011-11-22,0,0.0,0.0,-0.016249059184137556,0.014912561408249963,0.9841705266425633
2011-11-25,1,0.001922920386770108,0.0026305676248367014,-0.012200182306477517,0.016762420581330102,0.9851245425633951
2011-11-29,1,0.0013261804859016737,0.0019463982910932496,-0.012200182306477517,0.016762420581330102,0.9850762165085367
2011-12-01,1,0.0014864153091977712,0.002067858173400279,-0.012200182306477517,0.01028762127428335,0.9870500411789307
2011-12-05,1,0.0020171702745441756,0.002663693695739208,-0.009824098211357277,0.014912561408249963,0.9865903071994996
2011-12-07,1,0.002064325320013817,0.002658589504431671,-0.009824098211357277,0.01028762127428335,0.9869154553876321
2011-12-09,1,0.0018275517039670008,0.0024099691185212584,-0.00857145204901032,0.014645715818390132,0.9873862091299148
2011-12-13,1,0.001963092571420181,0.002640811994164553,-0.0020085734728643393,0.014645715818390132,0.9883773014511256
2011-12-15,1,0.002064923459912137,0.0027543191430316662,-0.0020085734728643393,0.01204066051724412,0.9899088064111622
2011-12-19,1,0.001327735862492586,0.0018499814969863675,-0.0010033425259596677,0.016579880893815513,0.9890857715273924
2011-12-21,1,0.0020969485825383617,0.0027178104710353437,-0.0020085734728643393,0.01233478188196599,0.9907563673526179
2011-12-23,1,0.003275649157444682,0.004037385887976756,-0.0025968789240090485,0.01233478188196599,0.9909148229207638
2011-12-28,-1,-0.00076309653133348,-0.0006040335484704981,-0.0020085734728643393,0.01233478188196599,0.9910427031432358
2011-12-30,0,0.0,0.0,-0.0020085734728643393,0.01233478188196599,0.9911452016331452
2012-01-04,0,0.0,0.0,-0.002570378245733728,0.01233478188196599,0.9916912185166984
2012-01-06,0,0.0,0.0,-0.001785571878142643,0.015149488784265397,0.990530554377398
2012-01-10,0,0.0,0.0,-0.0014535085304458336,0.01340009663324273,0.9912900173823413
2012-01-12,1,0.00174400955355617,0.0018068625565083416,-0.0022082861762367065,0.015573336117715334,0.9908488210542348
2012-01-17,1,0.0007554237576014429,0.000897497599434005,-0.0022082861762367065,0.016200819281091444,0.9906079295523942
2012-01-19,0,0.0,0.0,-0.0032309768976024555,0.01340009663324273,0.9916712158816885
2012-01-23,0,0.0,0.0,-0.00377196912926768,0.01340009663324273,0.9906398732120495
2012-01-25,0,0.0,0.0,-0.0022082861762367065,0.011206558544737092,0.9916718817563013
2012-01-27,0,0.0,0.0,-0.0022082861762367065,0.01340009663324273,0.9906281951239942
2012-01-31,0,0.0,0.0,-0.0022082861762367065,0.013598367543290111,0.9901729267085931
2012-02-02,0,0.0,0.0,-0.002775779086177251,0.013598367543290111,0.9893504792995345
2012-02-06,0,0.0,0.0,-0.009958839710008504,0.011272648848086219,0.9894883326078986
2012-02-08,0,0.0,0.0,-0.009958839710008504,0.013258930598357845,0.9887919044249917
2012-02-10,0,0.0,0.0,-0.0068737245922259535,0.011272648848086219,0.989909923645258
2012-02-14,1,0.005777099827349381,0.006290471801152544,-0.007565313864125069,0.011272648848086219,0.989358015106363
2012-02-16,0,0.0,0.0,-0.006455650215871102,0.011272648848086219,0.9898531756237106
2012-02-21,0,0.0,0.0,-0.00513404669117112,0.009971861053445646,0.9908641393098196
2012-02-23,0,0.0,0.0,-0.006864479597902191,0.009971861053445646,0.9902511472248509
2012-02-27,0,0.0,0.0,-0.006864479597902191,0.009575431680064262,0.9904289337509355
2012-02-29,0,0.0,0.0,-0.00734700652352989,0.007942933721883833,0.9905809216858926
2012-03-02,0,0.0,0.0,-0.0067937425071625665,0.005159872921962475,0.9923741258488321
2012-03-06,0,0.0,0.0,-0.006455650215871102,0.007942933721883833,0.9920282086584865
2012-03-08,0,0.0,0.0,-0.0067937425071625665,0.005159872921962475,0.9918798870525027
2012-03-12,0,0.0,0.0,-0.007936319990123133,0.005159872921962475,0.9901929907837047
2012-03-14,0,0.0,0.0,-0.007936319990123133,0.005159872921962475,0.9907591488528849
2012-03-16,0,0.0,0.0,-0.007936319990123133,0.005159872921962475,0.9910237773095367
2012-03-20,1,0.0036044852951260522,0.00398918338003093,-0.007936319990123133,0.008004776525483127,0.9904757961560784
2012-03-22,1,0.001119016342720449,0.0012424503980141741,-0.005757664262100107,0.008004776525483127,0.9911021153781118
2012-03-26,0,0.0,0.0,-0.00938706783572675,0.004956936365372041,0.9908757372071956
2012-03-28,0,0.0,0.0,-0.00838317468682812,0.00792667218358758,0.9903405689593031
2012-03-30,1,0.0018600466331981408,0.00197151848669448,-0.00838317468682812,0.00792667218358758,0.9902627626898469
2012-04-03,1,0.0018068580886901884,0.0019194359922213708,-0.00542303321246723,0.007317358925119756,0.9917502278273939
2012-04-05,1,0.0009105411212312565,0.0009159447511918363,-0.00542303321246723,0.007065362733865521,0.9922256282212907
2012-04-10,1,9.086526796335499e-05,0.0001978214666167627,-0.0006469176160477265,0.007065362733865521,0.9938962739797109
2012-04-12,1,0.0007426454794995665,0.0007680808094700802,-0.004162879710574982,0.007065362733865521,0.9939772042812771
2012-04-16,1,0.0005647537397990746,0.0006067643788110336,-0.00542303321246723,0.007317358925119756,0.991966545187492
2012-04-18,1,0.0005120003112905919,0.0005835428370050627,-0.00542303321246723,0.007317358925119756,0.9916644245966889
2012-04-20,-1,-0.00046265620475738876,-0.00024014399858826357,-0.010081016462454635,0.007065362733865521,0.9884058323787924
2012-04-24,-1,-0.0020213343345267766,-0.0015579587488773288,-0.005305561689980151,0.008595277108021403,0.9873747525766523
2012-04-26,-1,-0.0005230320221654314,-0.0002829443888841855,-0.009130753291143254,0.007320797335676454,0.9882648841631527
2012-04-30,-1,-0.0008456462870361513,-0.000542929373446633,-0.009130753291143254,0.005527771599322474,0.9884471003144495
2012-05-02,-1,-0.00048388125950998037,-0.00023440983254994976,-0.011781336370426795,0.005527771599322474,0.9874049785227745
2012-05-04,-1,-0.0012856048339471308,-0.0009104112551330016,-0.01589826334396745,0.008243792607015632,0.9865342785633849
2012-05-08,-1,-0.0018956224871983524,-0.0014032648434090047,-0.01589826334396745,0.01074742695017802,0.9852822399257802
2012-05-10,-1,-0.002375650386592227,-0.0018213839952625958,-0.01304747383003331,0.01074742695017802,0.9857512054102274
2012-05-14,-1,-0.002622203767204605,-0.001982410993757945,-0.010659424534698326,0.01031565844017168,0.987196909278579
2012-05-16,-1,-0.0018111768540182676,-0.0012997423210507396,-0.010659424534698326,0.008436725511822434,0.9871225405918513
2012-05-18,-1,-0.00432815919131751,-0.0035711228681138793,-0.009706252361832816,0.01074742695017802,0.9883977946321939
2012-05-22,0,0.0,0.0,-0.009706252361832816,0.009753750767002153,0.9900690228203536
2012-05-24,0,0.0,0.0,-0.009706252361832816,0.009753750767002153,0.9897586067577393
2012-05-29,-1,-0.0032280430752292142,-0.0026393967738654427,-0.009706252361832816,0.009753750767002153,0.9896452346375836
2012-05-31,-1,-0.004302017200441618,-0.0035787991460783596,-0.007227686961470217,0.00978377399099917,0.9893505543567197
2012-06-04,-1,-0.004746416810799051,-0.003970835120240154,-0.003482142416686756,0.011380452217413097,0.9883789100200765
2012-06-06,0,0.0,0.0,-0.003482142416686756,0.009585376396055823,0.9910879101498902
2012-06-08,0,0.0,0.0,-0.0015101263656755169,0.009585376396055823,0.9916376298432165
2012-06-12,0,0.0,0.0,-0.0031399680325144945,0.009585376396055823,0.9908758059969002
2012-06-14,0,0.0,0.0,-0.0015101263656755169,0.01087532910457411,0.9906280672856858
2012-06-18,0,0.0,0.0,-0.0015101263656755169,0.010540252802646555,0.9901260761417237
2012-06-20,0,0.0,0.0,-0.0031399680325144945,0.014318159360022448,0.9886220980443856
2012-06-22,0,0.0,0.0,-0.005395668229095704,0.014318159360022448,0.9883901874087629
2012-06-26,0,0.0,0.0,-0.005035862162449728,0.014318159360022448,0.9885521031632358
2012-06-28,0,0.0,0.0,-0.005035862162449728,0.014318159360022448,0.9887071436091209
2012-07-02,0,0.0,0.0,-0.005035862162449728,0.007739380322397994,0.9899384246995275
2012-07-05,1,0.0020179437290151394,0.0021357416295255272,-0.005921613590538174,0.008234907269584636,0.9893812045537222
2012-07-09,1,0.002127071733261664,0.0022748962589364684,-0.005921613590538174,0.012984756310878384,0.987918043048752
2012-07-11,1,0.000846978632711569,0.0008773439289931275,-0.0016925246629584344,0.012984756310878384,0.9893901870381645
2012-07-13,1,0.001878478127979402,0.001957918164525288,-0.0016925246629584344,0.010689676082245856,0.9904190266796887
2012-07-17,1,0.0032735394120050427,0.0035295414814631183,-0.0016925246629584344,0.007985717793247672,0.9920023490953167
2012-07-19,1,0.0037071495113407587,0.00408300056460739,-0.0016925246629584344,0.006940665268347071,0.9935606109885085
2012-07-23,1,0.003174777303912221,0.003494585882163179,-0.0016925246629584344,0.006940665268347071,0.9937864368146392
2012-07-25,1,0.003026464360818895,0.0033419205700044663,-0.0010435587640205029,0.006940665268347071,0.9938699666205136
2012-07-27,1,0.002777315215550239,0.003047709114026637,-0.004360855649198151,0.006940665268347071,0.9936630965165246
2012-07-31,1,0.003624896039465609,0.004017024872786613,-0.004360855649198151,0.006168788625878159,0.9939050456649442
2012-08-02,1,0.003257080417690781,0.003615570617203339,-0.004218816513069513,0.005345053366909007,0.9941699497425561
2012-08-06,1,0.00450800370580561,0.0050727654056378114,-0.004218816513069513,0.005345053366909007,0.9947374639701723
2012-08-08,1,0.004298880058341577,0.004807463902431018,-0.004218816513069513,0.006181588195052217,0.9947681948406903
2012-08-10,1,0.004458706412070296,0.00498321213383023,-0.004218816513069513,0.005531022443824782,0.994545515657504
2012-08-14,1,0.00466785635107987,0.00518535030921085,-0.0042399551825040675,0.004546769058084521,0.994253945206945
2012-08-16,1,0.004708135832410741,0.005259458380605284,-0.004181281279226863,0.005531022443824782,0.99430631087222
2012-08-20,1,0.003826695441310767,0.004234681680951853,-0.0027380073313818436,0.005531022443824782,0.9946298522012204
2012-08-22,1,0.003498674041567447,0.003851824412477559,-0.0022605437152983373,0.006844066813954308,0.9947049480326053
2012-08-24,1,0.0035405268355749543,0.0038591788292220014,-0.0017448687925188183,0.010547038004395408,0.9933478577053857
2012-08-28,1,0.003436612948742232,0.0037060165321239347,-0.0022605437152983373,0.010547038004395408,0.9929774607245756
2012-08-30,1,0.0024489029198357243,0.0025623832923918647,-0.0017448687925188183,0.010547038004395408,0.9929048638616955
2012-09-04,1,0.002721535870370557,0.003004043153375842,-0.0017448687925188183,0.00929712439331086,0.9934615388929008
2012-09-06,1,0.0038650337031019546,0.004189894520088397,-0.0022605437152983373,0.00761644471591897,0.9936507695143477
2012-09-10,1,0.003622697962680076,0.00393193291766115,-0.002734754483262059,0.00761644471591897,0.993283562297565
2012-09-12,1,0.003650656969063725,0.003917664210482505,-0.002734754483262059,0.00761644471591897,0.9925226175340529
2012-09-14,1,0.0034851346270214495,0.003841560145699789,-0.002734754483262059,0.00637404151857727,0.9931383452639447
2012-09-18,1,0.0031521700983366905,0.003502474063730488,-0.002310836605841243,0.00637404151857727,0.9939359841356159
2012-09-20,1,0.0032592852953146024,0.0036256253598522196,-0.00048811296865535197,0.00637404151857727,0.9939746598516056
2012-09-24,1,0.004610206464909139,0.00515910905295036,-0.0012164070398974851,0.005857691224312397,0.9953173364510568
2012-09-26,1,0.004189902455144473,0.004663692779061665,-0.002940954248862126,0.005857691224312397,0.994646736559174
2012-09-28,1,0.004419687674869082,0.004920636500732815,-0.004482105986607452,0.005752377627762019,0.9940366226030823
2012-10-02,1,0.004603823807862235,0.005109454298671533,-0.004711204396227235,0.005727947172490398,0.9933056541069382
2012-10-04,1,0.004501506515289366,0.004997765751386887,-0.0060341671765051005,0.003932388982913336,0.9912997092450551
2012-10-08,1,0.004325158953977854,0.0048238854540926905,-0.007563715525419643,0.005857691224312397,0.9909295647298525
2012-10-10,1,0.001977761053213881,0.0019948751183478837,-0.005115245232315289,0.005857691224312397,0.9921496371394832
2012-10-12,1,0.002722456740894807,0.002897594971449649,-0.007457991492259136,0.00574983178982643,0.991232864575042
2012-10-16,1,0.002483332669536352,0.002590735466437607,-0.011560106062911062,0.0023974842040645605,0.9896485058679407
2012-10-18,1,0.002835306736035919,0.002986991714397721,-0.011560106062911062,0.0023974842040645605,0.9885134251021986
2012-10-22,1,0.0019400785740829284,0.0019784425908600436,-0.011560106062911062,0.0063986566836689435,0.9878648264591848
2012-10-24,1,0.0005381010016622541,0.0007788065479394078,-0.009881437348860971,0.0063986566836689435,0.9891090144422838
2012-10-26,1,0.0005097776365168887,0.0007035687657443163,-0.009881437348860971,0.0063986566836689435,0.9892004777884941
2012-11-01,1,0.00014322641097377572,0.0004096288527868367,-0.011560106062911062,0.0048457760836483794,0.9889259833333419
2012-11-05,-1,-0.002430398744817926,-0.0018512544226826542,-0.005870276609653039,0.0063986566836689435,0.9901102532154623
2012-11-07,-1,-0.0030787129320321823,-0.0024123399575971,-0.00431125176472995,0.010800456475850928,0.9886709371663666
2012-11-09,-1,-0.0023793466555015654,-0.0018645142640466444,-0.00431125176472995,0.010800456475850928,0.9886433529176731
2012-11-13,-1,-0.00295115536180463,-0.0023784211078728343,-0.0034020204545309953,0.010800456475850928,0.9885438104814144
2012-11-15,-1,-0.0049951168039020204,-0.0041672913881777,-0.0034020204545309953,0.010800456475850928,0.9889725431467646
2012-11-19,-1,-0.004042566521140193,-0.003306730116280013,-0.0034020204545309953,0.016518522554021923,0.9892855011753102
2012-11-21,-1,-0.0035578993110412364,-0.00290267004845759,-0.0026224060629704087,0.008233991392157464,0.9900028014758239
2012-11-26,-1,-0.0026717096898553937,-0.002190606424685734,-0.003565162061744019,0.008233991392157464,0.9902601202211071
2012-11-28,-1,-0.0025404897362799306,-0.0020839877150830286,-0.00431125176472995,0.011429087344863972,0.9897675221993181
2012-11-30,-1,-0.0035808993809099895,-0.0030030125175582287,-0.003565162061744019,0.01882022880770209,0.9887531076299317
2012-12-04,-1,-0.0042655533698072266,-0.0035464121424149237,-0.0010876581333667556,0.01882022880770209,0.98769017606475
2012-12-06,0,0.0,0.0,-0.002673010718101884,0.006040145275447222,0.9915504856264202
2012-12-10,0,0.0,0.0,-0.002673010718101884,0.008037500837318655,0.9912750151091584
2012-12-12,0,0.0,0.0,-0.002673010718101884,0.010504204426648567,0.9903957334421838
2012-12-14,0,0.0,0.0,-0.002673010718101884,0.010504204426648567,0.9901844863098962
2012-12-18,0,0.0,0.0,-0.002673010718101884,0.009781337033299616,0.990893927077678
2012-12-20,0,0.0,0.0,-0.004768320640171042,0.011515076803342085,0.9896199973798784
2012-12-24,0,0.0,0.0,-0.003898739248565807,0.011515076803342085,0.9899453649037372
2012-12-27,0,0.0,0.0,-0.002788207492780554,0.013405006764584476,0.9898694718358317
2012-12-31,0,0.0,0.0,-0.002350819291951117,0.011515076803342085,0.9911807310578199
2013-01-03,0,0.0,0.0,-0.002788207492780554,0.011515076803342085,0.9910840883585788
2013-01-07,0,0.0,0.0,-0.004843162084315819,0.011515076803342085,0.9895065612424832
2013-01-09,0,0.0,0.0,-0.007938550597262412,0.013405006764584476,0.9871961571314036
2013-01-11,0,0.0,0.0,-0.007938550597262412,0.011515076803342085,0.9882354923753746
2013-01-15,1,0.7988233063504033,0.7996995008813906,-0.007708635384073508,0.011515076803342085,0.555873306621816
2013-01-17,1,0.002648055492770199,0.002860715384285811,-0.010926744664655572,0.0015368405323752526,0.9870781222124189
2013-01-22,1,0.002175366411638122,0.0023186605242881994,-0.008875244398397212,-0.0008064000765644512,0.9879193246560727
2013-01-24,0,0.0,0.0,-0.010926744664655572,0.0015368405323752526,0.9875528098292274
2013-01-28,0,0.0,0.0,-0.010926744664655572,0.0008745189150764712,0.9874937595258887
2013-01-30,0,0.0,0.0,-0.010926744664655572,0.017521775727192785,0.9857890673552913
2013-02-01,0,0.0,0.0,-0.010926744664655572,0.014785922623467703,0.9868435198356319
2013-02-05,0,0.0,0.0,-0.007693536733334589,0.014785922623467703,0.9880194497608494
2013-02-07,0,0.0,0.0,-0.007387534544922924,0.01150211488679116,0.9902751367305875
2013-02-11,1,0.0013263779934598145,0.0014571388669015496,-0.007693536733334589,0.01150211488679116,0.9898762684408859
2013-02-13,1,0.0003497872441639903,0.0003852621873385154,-0.007693536733334589,0.01150211488679116,0.9899119515652037
2013-02-15,-1,-0.0005233691710652817,-0.0003927053197232897,-0.008622273132610884,0.01150211488679116,0.9896087849031421
2013-02-20,-1,-0.0004112627464272022,-0.000365151851265813,-0.004141405273547515,0.014785922623467703,0.9888741939059617
2013-02-22,-1,-0.0004556547727201834,-0.00039570515450900996,-0.004141405273547515,0.014785922623467703,0.9895784303351189
2013-02-26,1,0.0005419960267163722,0.0006288826182407035,-0.008912785255828002,0.014785922623467703,0.9886201590293163
2013-02-28,1,0.0017240634886438147,0.0019983558529530093,-0.008912785255828002,0.01150211488679116,0.9893628331440265
2013-03-04,1,0.0022304292642459566,0.002571878909763488,-0.008912785255828002,0.011589465874271806,0.9889646810555285
2013-03-06,1,0.002486161674629052,0.0028493583123769205,-0.009705458792345911,0.011589465874271806,0.9885290670265403
2013-03-08,1,0.0024204693371132173,0.002737956474541639,-0.009705458792345911,0.01141522118342543,0.9885781967653128
2013-03-12,1,0.0020911132602893573,0.0023814985763168017,-0.008912785255828002,0.01141522118342543,0.989020468644827
2013-03-14,1,0.0017103400628587758,0.001954754490786737,-0.006985093013328494,0.015182702370970193,0.988890571456638
2013-03-18,1,0.0010011437483574315,0.0011818664855337423,-0.0057281047195865565,0.015182702370970193,0.9890474920773009
2013-03-20,1,0.0017994808621416667,0.0020846778430613474,-0.007768786651983861,0.01141522118342543,0.9893591008616363
2013-03-22,1,0.0017071359969242795,0.0019395972349074073,-0.00790137148917872,0.00869286656227905,0.9898037182551298
2013-03-26,1,0.0018857525917632136,0.002123289850009775,-0.007436263725896027,0.006176172206092782,0.9914622646478213
2013-03-28,0,0.0,0.0,-0.007436263725896027,0.0053763814680664905,0.9916277834706703
2013-04-02,0,0.0,0.0,-0.008136329937167546,0.004011672843571091,0.9920860272114914
2013-04-04,0,0.0,0.0,-0.007436263725896027,0.0053763814680664905,0.991365735107268
2013-04-08,0,0.0,0.0,-0.007436263725896027,0.006176172206092782,0.9911882343168947
2013-04-10,0,0.0,0.0,-0.007436263725896027,0.009963927464698218,0.9890274126168226
2013-04-12,0,0.0,0.0,-0.008136329937167546,0.008294297714003404,0.988783113946826
2013-04-16,0,0.0,0.0,-0.007436263725896027,0.008294297714003404,0.9897261663819618
2013-04-18,0,0.0,0.0,-0.007985274032625991,0.008294297714003404,0.9898609690525388
2013-04-22,1,0.003186469300295198,0.003242741452941009,-0.005494459854562335,0.006121839985058799,0.9903170384981126
2013-04-24,0,0.0,0.0,-0.005384685627722919,0.00972180563164662,0.9898809870012338
2013-04-26,0,0.0,0.0,-0.007609517151432604,0.00906558606275721,0.9897707955138662
2013-04-30,0,0.0,0.0,-0.007342333661022693,0.00906558606275721,0.9902035044750256
2013-05-02,0,0.0,0.0,-0.007940142334919116,0.006121839985058799,0.9906611935152847
2013-05-06,0,0.0,0.0,-0.007940142334919116,0.005827353071736633,0.9906501374951607
2013-05-08,0,0.0,0.0,-0.008788127006823987,0.004353512745330313,0.9913080791178933
2013-05-10,0,0.0,0.0,-0.008788127006823987,0.005827353071736633,0.9894955938433856
2013-05-14,1,0.00172702294035239,0.0017747034950249053,-0.009273899791998746,0.004978608285269917,0.9880969771259095
2013-05-16,1,0.0009004148220059,0.0009537988227115658,-0.007940142334919116,0.008182125322790713,0.9887738996133046
2013-05-20,1,0.00011377084187402797,0.0002845393964566658,-0.009274023290928742,0.008182125322790713,0.9882921228332081
2013-05-22,-1,-0.00022544516507261335,-4.3051771993555675e-05,-0.01441359600012746,0.004978608285269917,0.9873379333948457
2013-05-24,1,7.013629184666244e-05,0.00016893973191129535,-0.01441359600012746,0.004978608285269917,0.9870947198867591
2013-05-29,1,0.0005247245672619777,0.0006395942869722694,-0.01441359600012746,0.011915094091436106,0.985333003994782
2013-05-31,0,-0.00019350031347785857,1.5733827083590614e-05,-0.01441359600012746,0.01431949018750729,0.9853970050234365
2013-06-04,1,0.0001445060254605052,0.00030465769338281845,-0.01441359600012746,0.014943841528643767,0.9845274334241254
2013-06-06,0,0.0,0.0,-0.009212917205581006,0.015900195700696,0.9853965102996141
2013-06-10,0,0.0,0.0,-0.006299893104035145,0.014943841528643767,0.9880082609125325
2013-06-12,0,0.0,0.0,-0.004713626604602197,0.015900195700696,0.9876178681196853
2013-06-14,0,0.0,0.0,-0.004713626604602197,0.015900195700696,0.9879661895218141
2013-06-18,0,0.0,0.0,-0.0012787009457018365,0.016926584196924086,0.9881130068910173
2013-06-20,0,0.0,0.0,-0.000502364033479105,0.016926584196924086,0.989938749234838
2013-06-24,0,0.0,0.0,-0.000502364033479105,0.016926584196924086,0.9906790773101204
2013-06-26,0,0.0,0.0,-0.0012911317935666365,0.013066538690312164,0.9924177767699011
2013-06-28,0,0.0,0.0,-0.0008669513676024133,0.008431366588798127,0.9933197183323929
2013-07-02,0,0.0,0.0003630261081452793,-0.0008669513676024133,0.006905575645226961,0.9944484300156048
2013-07-05,1,0.0013330851992317213,0.0013347234028801163,-0.0015062144275611326,0.005512944943239909,0.9935533523999664
2013-07-09,0,0.0,0.0,-0.0015062144275611326,0.003728140508998512,0.9939169746426494
2013-07-11,1,0.0010194229679468393,0.0011031782094772429,-0.0015062144275611326,0.0022240393694068768,0.9947613165033029
2013-07-15,1,0.0006586555230111583,0.000821932758446789,-0.0022774026303822225,0.0014656644791043712,0.9943710930961699
2013-07-17,1,0.0012889577975714972,0.001379894440204671,-0.004985439017499486,0.000690471735071681,0.9941009424876323
2013-07-19,1,0.0014303881722442621,0.001470346265454281,-0.0071269220324586035,0.0014656644791043712,0.9935033361804124
2013-07-23,1,0.0019129274829735032,0.002002409223412671,-0.007903470981567014,0.001595834659246683,0.9922414270171436
2013-07-25,0,0.0,0.0,-0.007903470981567014,0.0036112957246298137,0.9927400924196547
2013-07-29,0,0.0,0.0,-0.007903470981567014,0.004217148268747593,0.9924919466947333
2013-07-31,1,0.0021401353247439904,0.0023342030468728975,-0.007903470981567014,0.004186077657859916,0.9917802222664659
2013-08-02,1,0.0009370496510909805,0.0009383719536008795,-0.007903470981567014,0.006508321336354785,0.9914525919009609
2013-08-06,1,0.0008742404829882441,0.0009041132013017706,-0.007903470981567014,0.006508321336354785,0.9910586428482246
2013-08-08,0,-0.0001834229496251675,2.690970149283288e-05,-0.011763979904624855,0.006508321336354785,0.9903355749147567
2013-08-12,-1,-0.00039866445229555926,-0.0002056360120978927,-0.009957249606232205,0.007189262428777261,0.9905798551671069
2013-08-14,-1,-0.0010352182028437996,-0.0007804142881966468,-0.0062989509541251,0.0072716681440121046,0.9910173543077112
2013-08-16,-1,-0.0009113100898164193,-0.0006920186246607207,-0.004495744161335139,0.0072716681440121046,0.991342923446124
2013-08-20,-1,-0.0007414029962444179,-0.0005915415173017718,-0.003642673006263113,0.007312785821524516,0.9915431238524328
2013-08-22,1,6.938790293647095e-05,7.833023552910478e-05,-0.004495744161335139,0.006535789908099733,0.9914320119054371
2013-08-26,-1,-0.00024693347008407785,-0.00017554004038867327,-0.005602951662123504,0.006535789908099733,0.9913598303494837
2013-08-28,-1,-0.0003190207514257885,-0.00022887428333461993,-0.004838977280882159,0.007312785821524516,0.9908218386077233
2013-08-30,1,0.0002775751914903398,0.0003105675649666666,-0.004746226811930143,0.005738517570941014,0.992369447548575
2013-09-04,1,0.0013657221238058386,0.0015251809891490707,-0.004746226811930143,0.005738517570941014,0.9926883999033734
2013-09-06,1,1.3554272928753666e-05,6.0860045704410536e-05,-0.0038904187283357846,0.005738517570941014,0.9929818143495704
2013-09-10,-1,-0.0003201722564081201,-0.00018684633231605126,-0.004924753691093312,0.004935180615106241,0.9923051508690086
2013-09-12,-1,-0.0002868382817207621,-0.00015270892046980686,-0.006354399613908516,0.004935180615106241,0.9908338741403112
2013-09-16,-1,-0.00045731344903663187,-0.00029268986256926016,-0.006354399613908516,0.005527792458534403,0.9909110571529889
2013-09-18,1,0.0007739779592204998,0.0007868792293900993,-0.006354399613908516,0.0029888114320080292,0.9915545573377872
2013-09-20,-1,-0.0004548273774545675,-0.0002830100564377966,-0.006301889092126551,0.005527792458534403,0.9916983600935558
2013-09-24,-1,-9.415084886060763e-05,-1.579669104434731e-05,-0.004924753691093312,0.006134195738777092,0.9908704957221958
2013-09-26,1,0.0009518797197170825,0.0010249557631718021,-0.004924753691093312,0.006134195738777092,0.9911181695734516
2013-09-30,1,0.0017865261520895906,0.0020786498519178784,-0.0033725634415025575,0.008192460937555811,0.9910799465346972
2013-10-02,1,0.0013377526860739576,0.0015081851815794958,-0.008629753563950855,0.007395394740338025,0.9895023524173533
2013-10-04,1,0.0007533592386181126,0.0008572092172142484,-0.004964993638263363,0.007395394740338025,0.9905226308178724
2013-10-08,-1,-0.0007581898518381874,-0.0006332423188858668,-0.008162597193816883,0.007395394740338025,0.9903863497457264
2013-10-10,-1,-0.0005310708200081803,-0.0004187965122717954,-0.008162597193816883,0.007395394740338025,0.9881975217653035
2013-10-14,-1,-0.0003426934862651918,-0.00026005498877933707,-0.012388565260182078,0.01206496947669387,0.9873862830360566
2013-10-16,-1,-0.00040570603956347905,-0.00031924949406627245,-0.012388565260182078,0.01206496947669387,0.9863857257897918
2013-10-18,-1,-0.0003797288652494478,-0.00027927408666782606,-0.012388565260182078,0.010915867780265896,0.9867505266362769
2013-10-22,1,7.827132028595415e-05,0.00016325940753631154,-0.012388565260182078,0.009818519953895613,0.9873892771816767
2013-10-24,1,0.0008261414133144487,0.0008534978705766953,-0.012388565260182078,0.008304888097568405,0.9872443575678357
2013-10-28,1,0.0008331846212226559,0.0008379593660413557,-0.012388565260182078,0.009818519953895613,0.9857531022626876
2013-10-30,-1,-0.0006251601245832095,-0.00046550919404049636,-0.008603046323119022,0.011004779314721155,0.9865865873562237
2013-11-01,-1,-0.0009913639351113435,-0.0007424640556446132,-0.009298630941442168,0.011389758502708543,0.9860206602491195
2013-11-05,-1,-0.0019947311005445263,-0.0016554628932019175,-0.007928079494118216,0.011389758502708543,0.9867539717589318
2013-11-07,-1,-0.0008081509525861756,-0.0005588370076386052,-0.0076521334108307516,0.011389758502708543,0.9898660143753107
2013-11-11,-1,-0.0018781609159269144,-0.001427803790201257,-0.006718760625375313,0.01069079745560412,0.9907765060125288
2013-11-13,-1,-0.001758525839741269,-0.0013332563393699962,-0.006718760625375313,0.009946846349891408,0.9915149286938296
2013-11-15,-1,-0.0006606755264798272,-0.00044602678652707944,-0.006718760625375313,0.008681198195468438,0.991705226741834
2013-11-19,-1,-0.0009498053107760499,-0.0007119446916657876,-0.006733455473324119,0.010822891272173915,0.9909024529756014
2013-11-21,-1,-0.0002612626703285239,-0.00015978109307476166,-0.0027435005540040226,0.011002897222441249,0.990879370348577
2013-11-25,1,0.001609664798686326,0.0017718200345508645,-0.0027435005540040226,0.010573891399032333,0.9926971338978562
2013-11-27,1,0.0025392511430763357,0.0028452665036625296,-0.0027435005540040226,0.00931008314209522,0.99353520047643
2013-12-02,1,0.002846436504284535,0.0032314808219709324,-0.0027435005540040226,0.00931008314209522,0.993295438511068
2013-12-04,1,0.002263318460499605,0.002578112462069869,-0.0015347927552805459,0.00931008314209522,0.993791683223107
2013-12-06,1,0.003212979258450148,0.0036959780303224632,-0.0017667423828866247,0.00931008314209522,0.9936454801269803
2013-12-10,1,0.003092873868358364,0.003545855923999053,-0.003282309936456054,0.00931008314209522,0.9931086370533065
2013-12-12,1,0.0027590355923193585,0.0031644897961160398,-0.0024807207411792088,0.00931008314209522,0.9935372543212349
2013-12-16,1,0.0026788414798275696,0.0030523732990993956,-0.003282309936456054,0.00931008314209522,0.9931852537422029
2013-12-18,1,0.0026140812826163104,0.002976659345685843,-0.004208306205963594,0.008128946816107497,0.9934133420229517
2013-12-20,1,0.0031518675034673317,0.0036031626920407784,-0.004471490140187323,0.0062396866562241275,0.9930722311256962
2013-12-24,1,0.00308888714969864,0.003477998065974917,-0.008551214799780344,0.0017176952813409004,0.9909510464279265
2013-12-27,1,0.0034704393473452685,0.003921886593759044,-0.008754126411878841,0.0013510543886308553,0.9890716719668123
2013-12-31,1,0.0033903804914909206,0.0038108470229294223,-0.008858802264763785,0.0013510543886308553,0.9888835605995507
2014-01-03,1,0.0027813176898179113,0.003084198853638009,-0.011838706106933985,0.0013510543886308553,0.9883158622829639
2014-01-07,1,0.0027475798018043902,0.003007922083745213,-0.011838706106933985,0.0019109469614186315,0.9885982999273444
2014-01-09,1,0.002268702063634093,0.002455693827092543,-0.011838706106933985,0.0031979512175280373,0.9889516870150031
2014-01-13,1,0.00225466547133572,0.002411857752093544,-0.011838706106933985,0.004365375645545883,0.9884196269538186
2014-01-15,1,0.0018576023784855076,0.0019700328197211916,-0.011838706106933985,0.005490245723481406,0.9887587426346172
2014-01-17,1,0.0012768540745529925,0.0013068039605210067,-0.011838706106933985,0.0077438048403482155,0.9869596163612542
2014-01-22,1,0.000948555368890894,0.0009607099945586274,-0.011838706106933985,0.010503387841945913,0.9867029864593211
2014-01-24,-1,-0.00038269202531037566,-0.00024646025257622393,-0.007362551082580409,0.010503387841945913,0.9880032776540064
2014-01-28,1,6.64171270854882e-05,0.00012275399940935483,-0.007362551082580409,0.006774060779693413,0.9890268545953338
2014-01-30,-1,-0.001431125510634625,-0.0011531000098424465,-0.005372602209019673,0.010503387841945913,0.9892744701557076
2014-02-03,-1,-0.002248039752982877,-0.0018895975695877717,-0.004801291249960016,0.010503387841945913,0.989244692277033
2014-02-05,-1,-0.001500312463740031,-0.001232383385354573,-0.004801291249960016,0.010665185428509093,0.989428680653883
2014-02-07,-1,-0.0010366627290577814,-0.0008202215551549199,-0.005372602209019673,0.006774060779693413,0.9896967111006335
2014-02-11,1,0.0001668243495552743,0.00020441023026564946,-0.005372602209019673,0.00698151128848961,0.9895649726489446
2014-02-13,-1,-0.00017595138282447425,-6.360972039627248e-05,-0.008000937616009078,0.00698151128848961,0.9888125214858056
2014-02-18,1,0.0012236304073645519,0.0012682319772261321,-0.01212187120295314,0.005241582278132739,0.9900196405529351
2014-02-20,1,0.00148790466878284,0.0016102164909626037,-0.01212187120295314,0.0026226600391596336,0.9898580840866509
2014-02-24,1,0.0008412780157620281,0.0008657610120547833,-0.01212187120295314,0.005142926604419737,0.9898009577725163
2014-02-26,1,0.0001548451857222211,0.00021260137123134163,-0.011712841562079504,0.005142926604419737,0.9901409435660444
2014-02-28,1,0.00038850959582221805,0.00045648345612913277,-0.011712841562079504,0.0007415078096314383,0.989567858992522
2014-03-04,-1,-0.0011365921075968508,-0.0008358982634137204,-0.01031521594992014,0.005834833436416769,0.9907265692958953
2014-03-06,-1,-0.00026045507268214474,-7.531829644593117e-05,-0.01031521594992014,0.005057177427467563,0.991102169530533
2014-03-10,-1,-0.001133904543804592,-0.000845668402922171,-0.011712841562079504,0.005057177427467563,0.9885873872845762
2014-03-12,-1,-0.0003927667647540331,-0.00017520311591811243,-0.011712841562079504,0.005057177427467563,0.9868211679116464
2014-03-14,-1,-0.0014660381777765992,-0.0011279620711872958,-0.013410549433095173,0.005057177427467563,0.9861007584214233
2014-03-18,-1,-0.0017555422901954186,-0.0014353397237541474,-0.013410549433095173,0.006179086287153375,0.9860036200619278
2014-03-20,-1,-0.0018448310447772764,-0.001541312652048626,-0.013410549433095173,0.007549037050526586,0.9859600432416836
2014-03-24,-1,-0.002211484705479891,-0.0018817117832618936,-0.008484350045382998,0.009731814089128028,0.9858633145907904
2014-03-26,-1,-0.003895081251988455,-0.003294107941350569,-0.005189649886541273,0.009731814089128028,0.9860709122701057
2014-03-28,-1,-0.002859087513867717,-0.0023905183066598463,-0.007536743646651381,0.007549037050526586,0.9870227750496626
2014-04-01,-1,-0.003800777721199626,-0.00315625019285199,-0.007536743646651381,0.008676276572535026,0.9866978812273801
2014-04-03,-1,-0.0025263763681583166,-0.0021130653833468576,-0.007536743646651381,0.012742505944933875,0.9852242659160382
2014-04-07,-1,-0.005638277550207047,-0.004862001243283526,-0.0034356704417268956,0.016146035499875214,0.9854168543392692
2014-04-09,-1,-0.0034737402535898864,-0.0029543572023097413,-0.0034356704417268956,0.01007157205886487,0.9885710501839562
2014-04-11,-1,-0.005482015311100156,-0.004736831987533167,-0.00029097125291886776,0.01007157205886487,0.9884368989898958
2014-04-15,-1,-0.005014846639571023,-0.0043071477691687555,-0.00029097125291886776,0.01007157205886487,0.9889548506549376
2014-04-17,-1,-0.004655726324835335,-0.003993766317154205,-0.0010311074426371401,0.01007157205886487,0.9895536837892096
2014-04-22,-1,-0.002628269639498428,-0.002293292207062157,-0.0022214266838870064,0.008355176179509382,0.9917118704022789
2014-04-24,-1,-0.0023138452312655064,-0.0020636660102943964,-0.0008579319057855349,0.01007157205886487,0.990157658453648
2014-04-28,-1,-0.002675763156046979,-0.0023882832331966718,-0.0008579319057855349,0.01007157205886487,0.9899227019065975
2014-04-30,-1,-0.0025384689249337263,-0.0022390483570163197,-0.0008579319057855349,0.008355176179509382,0.9903804024386369
2014-05-02,-1,-0.0005744305171770157,-0.0005420967053710354,-0.0022214266838870064,0.007741063171737323,0.9921486610045999
2014-05-06,1,0.0007334786740196581,0.000874618777181651,-0.00333438906007193,0.005565594829311149,0.9925852532992826
2014-05-08,1,0.0008852948457795922,0.001028697341370178,-0.00461622603531268,0.005565594829311149,0.9916183955226879
2014-05-12,1,0.0011685023161602708,0.0013584415384202985,-0.006773427186330545,0.006676374613741719,0.9908698772505073
2014-05-14,1,0.0014819513571753653,0.0017092547782503052,-0.008715194756142111,0.004685409364925364,0.9901430935863572
2014-05-16,1,0.001879434346274824,0.002188069682539731,-0.009349221048331387,0.004685409364925364,0.9896638839325295
2014-05-20,1,0.002150301920435875,0.002532418999930761,-0.009349221048331387,0.004877424467636761,0.9894857011438624
2014-05-22,1,0.0036211967378479756,0.004220459118529983,-0.009349221048331387,0.004685409364925364,0.9901939680622995
2014-05-27,1,0.003702394398184623,0.004333519398686141,-0.009349221048331387,0.004877424467636761,0.9904027778793407
2014-05-29,1,0.0036460727354542676,0.00425474850584805,-0.009349221048331387,0.005738025873325102,0.9906046340385944
2014-06-02,1,0.00421355179190994,0.004929005253240477,-0.009349221048331387,0.006447844155993683,0.9911108989586495
2014-06-04,1,0.00288917555673385,0.0034090101151408865,-0.0032169884105422283,0.006867590407290562,0.992889983343719
2014-06-06,1,0.0033604842764089777,0.003966578702015633,-0.0032169884105422283,0.006447844155993683,0.9935962264779182
2014-06-10,1,0.0032070687543933546,0.003770375859515905,-0.0032169884105422283,0.0062012442250113636,0.9938160407280632
2014-06-12,1,0.0017587752703011174,0.002098431933998113,-0.002275380112254163,0.006447844155993683,0.9943241951846464
2014-06-16,1,0.0011855378464826094,0.001434857013283596,-0.002275380112254163,0.006867590407290562,0.9939956914257393
2014-06-18,1,0.00037156074038961697,0.0004090568666532783,-0.002813532705469889,0.006867590407290562,0.9938703544682872
2014-06-20,1,0.0003990778868810388,0.000442613312434644,-0.005276397031712706,0.006986348564262741,0.9918245488650564
2014-06-24,0,-6.490454990310692e-05,1.4110132846648896e-06,-0.008103339437543981,0.006986348564262741,0.9911600632561336
2014-06-26,-1,-0.0002997102142850523,-0.00014654155186988142,-0.008103339437543981,0.0068755899288080215,0.9914602579847994
2014-06-30,1,0.0007879066067975035,0.0008025520355193778,-0.008103339437543981,0.004066807611757859,0.991591813734084
2014-07-02,1,0.001384122418646806,0.0015116682379681925,-0.009256376626798912,0.0016144143732975097,0.9907794868929829
2014-07-07,1,0.001552733717074385,0.0017503242377637544,-0.009256376626798912,0.0038508406187791827,0.9905510826173741
2014-07-09,1,0.0013364227993240133,0.0015134343132909825,-0.009256376626798912,0.0048945820257635005,0.9901356034398894
2014-07-11,1,0.002541369173797548,0.0029838481909323397,-0.010098267097175411,0.0016144143732975097,0.9898294384820319
2014-07-15,1,0.002519910152637384,0.0029588620112728434,-0.008577249822595603,0.0016144143732975097,0.9906140338394487
2014-07-17,1,0.002033558911310059,0.0023723836264891796,-0.008577249822595603,0.006373821533335269,0.9896713357098368
2014-07-21,1,0.0011260144611204455,0.0012968405652328977,-0.007063948382931124,0.006270624709390395,0.9914494996436727
2014-07-23,1,0.0008256222540757171,0.0010065772380131739,-0.004012444856620579,0.006270624709390395,0.9921934804040107
2014-07-25,1,0.00017042724408296387,0.0002141369167726978,-0.004785673922979879,0.006270624709390395,0.9918565632150386
2014-07-29,1,0.0002494591079080101,0.00035536834119794094,-0.005109089503456993,0.010026955704802719,0.9913731143248337
2014-07-31,-1,-0.0007479347961844348,-0.0006828785904737855,-0.002632460077551418,0.010383377713648627,0.9912016408257953
2014-08-04,1,0.00022041952196309586,0.0003362394532884098,-0.008526757731580095,0.010073787241814007,0.9907390802085514
2014-08-06,1,9.696356321542594e-05,0.00013473312512363536,-0.008526757731580095,0.008480913562290231,0.9911279576441497
2014-08-08,-1,-0.0012237956278359791,-0.0010590713495554262,-0.008526757731580095,0.008480913562290231,0.991176382870562
2014-08-12,-1,-0.001332190308904948,-0.0011293663543040817,-0.008526757731580095,0.010073787241814007,0.9905814982539105
2014-08-14,1,6.75715788001858e-05,0.00013327599290416427,-0.008526757731580095,0.008480913562290231,0.9902316964985556
2014-08-18,0,-4.993829473620714e-05,7.407217873632718e-05,-0.008526757731580095,0.00653116564415697,0.9904414386231034
2014-08-20,1,0.00010464583103475959,0.0001707075262179538,-0.008526757731580095,0.00653116564415697,0.9902640299479225
2014-08-22,-1,-0.0004695268998034099,-0.0003386412892315338,-0.008526757731580095,0.008630941923246394,0.9894702262915922
2014-08-26,-1,-0.0002561109352198337,-0.0001579183339556375,-0.007425745487457033,0.008882507651352825,0.9893352002259065
2014-08-28,-1,-0.0014223018586231465,-0.001031417619250828,-0.009943242843673358,0.007413708172742101,0.9886658862585026
2014-09-02,-1,-0.001317337356327661,-0.0010427228886767514,-0.008139948675685765,0.007413708172742101,0.9886866409445711
2014-09-04,-1,-0.003610400484235463,-0.0029587049627554747,-0.0068246474314611685,0.007413708172742101,0.9896152868619642
2014-09-08,-1,-0.00412534620932792,-0.0034375520900960434,-0.00526073961149421,0.007413708172742101,0.9894557754142136
2014-09-10,-1,-0.003274941596777362,-0.00269997885407223,-0.00578210019034571,0.006840853085872345,0.9893597010616338
2014-09-12,-1,-0.0010201553060830981,-0.0007476981227767004,-0.010437759020395638,0.004086153136433634,0.9901683841846277
2014-09-16,-1,-0.001691157309236251,-0.001325909228495846,-0.012735765718538766,0.004086153136433634,0.9898741339529205
2014-09-18,-1,-0.0021390330325984125,-0.0016904449379972768,-0.012735765718538766,0.005774589101651418,0.9895412039831718
2014-09-22,-1,-0.0018889858002254726,-0.0014790993420199234,-0.00987388155144258,0.009970828557685303,0.9898858870774296
2014-09-24,-1,-0.0005972747844484213,-0.00041402959193591793,-0.012947939235581608,0.009970828557685303,0.9889951299803558
2014-09-26,-1,-0.0003205736599276299,-0.00023999644695982497,-0.00987388155144258,0.011795600221773592,0.9885209178167931
2014-09-30,-1,-0.0011211881283047082,-0.00096257223358699,-0.006072134006898731,0.014974979818753648,0.9881414590593528
2014-10-02,-1,-0.0008799734549984645,-0.0007650504317549042,-0.009670580041849003,0.014974979818753648,0.9875237378498823
2014-10-06,-1,-0.0003801088081778626,-0.00034379800775617665,-0.009670580041849003,0.014974979818753648,0.9878202152971474
2014-10-08,1,6.2157572342042e-05,8.267444335358707e-05,-0.011561983720804976,0.011795600221773592,0.9881854764771448
2014-10-10,-1,-0.0011375216862007348,-0.001016900764042969,-0.004437338248454006,0.016908998882732392,0.9875246828936445
2014-10-14,-1,-0.0005990270637582339,-0.0005853085987932782,-0.004437338248454006,0.016908998882732392,0.9867241380151128
2014-10-16,-1,-0.00036482388754780436,-0.00032533480817640437,-0.004279893714748936,0.019977428549985656,0.9864118228330676
2014-10-20,1,0.0005583482173878757,0.0007271522006419054,-0.0061205436908951805,0.019977428549985656,0.9871185808860856
2014-10-22,1,0.0007793900041164711,0.0009935703319505244,-0.005677295633410071,0.016994026357960785,0.9883873898377065
2014-10-24,1,0.00198117918606571,0.0022899904500110427,-0.005677295633410071,0.015784449108530114,0.9896042220778121
2014-10-28,1,0.0027325411623188157,0.003155924195490785,-0.005677295633410071,0.014283356924534396,0.9903047104421902
2014-10-30,1,0.0024906992789660632,0.002881563917452139,-0.004348701703227783,0.015784449108530114,0.9870712711846312
2014-11-03,1,0.0020116779326703367,0.0022761546897184,-0.005677295633410071,0.015784449108530114,0.9855198534042485
2014-11-05,1,0.0012449290017527708,0.0013793715168514582,-0.006125167056641785,0.015784449108530114,0.985616988296176
2014-11-07,1,0.002462659860200255,0.002757577708852223,-0.008149977939451011,0.013342594816411825,0.9865598874776325
2014-11-11,1,0.0022713007733966895,0.0025370807985925187,-0.008149977939451011,0.0071381809899662375,0.9873470724311806
2014-11-13,1,0.0028876704859420563,0.003240487476565292,-0.009495003870394309,0.0039820207458358525,0.9876557474299021
2014-11-17,1,0.0026749607397984036,0.003022348031988754,-0.009495003870394309,0.00235861247292752,0.987498355048805
2014-11-19,1,0.0024845877714823063,0.0028373157062619126,-0.008227121580610914,0.013342594816411825,0.9868263588543407
2014-11-21,1,0.003035466260975006,0.003481235453018266,-0.008227121580610914,0.013342594816411825,0.9867348067417385
2014-11-25,1,0.003512376333522379,0.004006588125858712,-0.008227121580610914,0.006114486238764359,0.9869230860676521
2014-11-28,1,0.006118384036728274,0.0069355834254719775,-0.008227121580610914,0.002903566845586222,0.9888938952208014
2014-12-02,1,0.0052195861640383055,0.0059244593728855965,-0.008143895725721367,0.002903566845586222,0.9901242044354773
2014-12-04,1,0.0046983078393528655,0.0053331745832798485,-0.009240357974602004,0.002903566845586222,0.9887259555503252
2014-12-08,1,0.004358578379808737,0.004936512100129704,-0.008143895725721367,0.002903566845586222,0.9892506602419374
2014-12-10,1,0.003545809701319276,0.003984972757438139,-0.004627174475201664,0.003443798482202567,0.9904971765284841
2014-12-12,1,0.002698420968610499,0.002976451563732309,-0.0034033030192879123,0.003762320240314463,0.9913818468524587
2014-12-16,1,0.0018131488660007022,0.001953804646911625,-0.0034033030192879123,0.003762320240314463,0.9914894076384597
2014-12-18,1,0.002836194360242607,0.0030903278055160596,-0.004627174475201664,0.0033669526511219327,0.9919272924146513
2014-12-22,1,0.0031035684206688024,0.003357934173755294,-0.004627174475201664,0.0033669526511219327,0.9925523034659095
2014-12-24,1,0.003141468366320765,0.0034101304105701342,-0.004627174475201664,0.0033669526511219327,0.9921613545895791
2014-12-29,1,0.003251351769852907,0.0035430348992571198,-0.008143895725721367,0.0013431261490832592,0.9908625793858605
2014-12-31,1,0.002180368569233552,0.002287819315107991,-0.003686847391485184,0.003531782747072561,0.9920277445259772
2015-01-05,1,0.00030688076238538804,0.00042861862399394334,-0.0034033030192879123,0.0051786942620490415,0.9932049772620699
2015-01-07,1,0.0008576247701859278,0.0008643335731522898,-0.00201920324709731,0.0069098772366815355,0.9925733905922091
2015-01-09,1,0.0010149893146435972,0.0010648732708214534,-0.005275546668936439,0.0069098772366815355,0.9919051889621635
2015-01-13,1,0.000996026890556371,0.0010276333917214344,-0.005275546668936439,0.007994058429611109,0.9914391313821964
2015-01-15,1,7.33766185453091e-05,0.00018115126198612155,-0.0021472902866144384,0.009232960333262163,0.9890489915451698
2015-01-20,-1,-0.0004901495653164985,-0.00031869507409904013,-0.0021472902866144384,0.009232960333262163,0.9890926915479773
2015-01-22,1,5.248860638683582e-05,0.000125691711058554,-0.0021472902866144384,0.009426312093070993,0.9886908564460413
2015-01-26,0,-0.00012512199563152965,1.852349274586158e-05,-0.005275546668936439,0.009426312093070993,0.9883268638869487
2015-01-28,-1,-0.0014664811300728739,-0.0011236240775574636,-0.0007894598791647869,0.009878958507354759,0.987689367147376
2015-01-30,-1,-0.0018103024697853835,-0.0013905361838946677,-0.0022491550792176013,0.010816540915960562,0.9870881029810258
2015-02-03,1,2.4246747929078708e-05,0.00020237003897229816,-0.007730814045672752,0.00979120045531726,0.9882385971812936
2015-02-05,1,0.0014338628329740894,0.0015004896841260878,-0.008935932605354538,0.00979120045531726,0.9884169412360915
2015-02-09,1,0.00036699412588205,0.0004547190522957175,-0.007777885505391241,0.00979120045531726,0.9882797511474456
2015-02-11,1,0.0008487891651957513,0.0008845258203865503,-0.00908312805542416,0.00979120045531726,0.9879540761270863
2015-02-13,1,0.0029787662988771677,0.0032256905236137078,-0.010240702988743987,0.00979120045531726,0.9897029187754101
2015-02-18,1,0.002897993664962581,0.003147256927137724,-0.010240702988743987,0.0101079447625062,0.9898960097493485
2015-02-20,1,0.002994890416267531,0.0032204431851310805,-0.010343656183671654,0.010816540915960562,0.9892543648642014
2015-02-24,1,0.002388492348080507,0.00247545540417046,-0.010343656183671654,0.0101079447625062,0.9893921625399257
2015-02-26,1,0.002853245196888973,0.0029935056011706476,-0.013705063717024773,0.007488596751138401,0.9892231625262671
2015-03-02,1,0.0028033961373235237,0.002937686319712703,-0.013705063717024773,0.004291970538826394,0.9898412517928475
2015-03-04,1,0.0028330554803628477,0.0029806821185345196,-0.010343656183671654,0.004291970538826394,0.9907816073190401
2015-03-06,1,0.0014746560609204212,0.0015666609379307618,-0.008820288765318233,0.004291970538826394,0.991940509578687
2015-03-10,1,0.00024008124498841156,0.0005049713720154647,-0.005832182596153169,0.005561612256243607,0.9928056942622709
2015-03-12,0,-0.0002788074062230996,3.832112114706104e-05,-0.0050954307919579,0.005979093297585667,0.9932132605967012
2015-03-16,0,-5.4696626150129704e-05,0.00020123635058191347,-0.00639368583019969,0.003917687038035038,0.993527422410187
2015-03-18,0,-1.3746897920722178e-05,0.0002456484602015444,-0.006603386860026993,0.003474778686001066,0.9938254166729071
2015-03-20,1,0.0010057230643461526,0.0010630206682339274,-0.006603386860026993,0.0023071236088532347,0.9936848065264123
2015-03-24,1,0.0007179800957736637,0.0007808424005676452,-0.005803830748673389,0.003474778686001066,0.9937357070668265
2015-03-26,-1,-0.00024697061718934304,-5.200181263045206e-05,-0.004962171167315589,0.005979093297585667,0.9928831904853123
2015-03-30,-1,-0.0003593444341888121,-0.00014899047961114246,-0.005803830748673389,0.006104643409058358,0.9923975164858544
2015-04-01,-1,-0.0006844516051644809,-0.0004038791445824739,-0.005803830748673389,0.005229178792609815,0.9927035439880614
2015-04-06,1,0.00019839319103298034,0.00031006404752416736,-0.005803830748673389,0.006259256855714726,0.9917674921661274
2015-04-08,1,7.975377832601774e-05,0.00021559122118844078,-0.006603386860026993,0.006259256855714726,0.9912967186119238
2015-04-10,1,0.00046692228100911646,0.000532976514362258,-0.008928709228700052,0.0029188480795038084,0.9900919142265985
2015-04-14,-1,-0.0005402090908867851,-0.00034434722358367756,-0.005212698947704795,0.0029188480795038084,0.9912840101595144
2015-04-16,-1,-0.0011417187269631016,-0.0008517369687514359,-0.004765127233659391,0.006259256855714726,0.9908350097965382
2015-04-20,-1,-0.0015734995188340442,-0.0012507689177941868,-0.0043299167637658315,0.009620654382891253,0.9905118568034917
2015-04-22,-1,-0.0010129254093613322,-0.0007848240405944405,-0.00348864992526156,0.012604989341590392,0.9880124177728683
2015-04-24,1,0.002036844307462839,0.0023550057696787832,-0.00348864992526156,0.016172997866754385,0.9884003192157748
2015-04-28,1,0.0013561779246050254,0.0015231630818770899,-0.002599945345595477,0.016172997866754385,0.9883707709389598
2015-04-30,1,0.000769084687816992,0.0008287200742653263,-0.002480832153746298,0.016172997866754385,0.9878588141384205
2015-05-04,1,0.001126101915746513,0.0012110577229558705,-0.0031313103497140234,0.013412431327328986,0.9883063431120291
2015-05-06,1,0.000276006380640101,0.00032941833707178004,-0.004938778936685286,0.013412431327328986,0.9870319959236287
2015-05-08,-1,-0.001422068570137072,-0.001153367457579925,-0.0032567744639546885,0.013412431327328986,0.9880011652671583
2015-05-12,-1,-0.0018449315926288093,-0.0014997468539183862,-0.0032567744639546885,0.016172997866754385,0.9869134765883729
2015-05-14,-1,-0.0005179354343577574,-0.00039627728483770643,-0.0048658010609248445,0.013857758026914344,0.9875054034941125
2015-05-18,1,0.0006036929798480289,0.0006612577967004879,-0.0048658010609248445,0.013857758026914344,0.9883796065150313
2015-05-20,1,0.0028316900428909824,0.003188144413577167,-0.0048658010609248445,0.010837853739971554,0.9907377229322936
2015-05-22,1,0.004077224653477635,0.0046062359281013225,-0.0048658010609248445,0.005741105030793358,0.9915226742783741
2015-05-27,1,0.004246100162225488,0.004756084417302112,-0.005792256124185423,0.003787667764503169,0.9908943978967436
2015-05-29,1,0.002516315633285403,0.002693852191399954,-0.005317307646632265,0.003787667764503169,0.9921055638102553
2015-06-02,1,0.0019373129928063953,0.002026802892083929,-0.005317307646632265,0.003787667764503169,0.9909501074965468
2015-06-04,1,0.0002649412807717106,0.0003824479992959452,-0.004857274974567938,0.005741105030793358,0.9897866678519027
2015-06-08,1,0.00043964819016904116,0.0005269144561417686,-0.005317307646632265,0.003787667764503169,0.989620041684254
2015-06-10,1,0.0007058921880526243,0.0007895974302993544,-0.007238612806861507,0.002381071424141756,0.989679223322359
2015-06-12,1,0.00016064650400096842,0.0003329856863254054,-0.007213034547790784,0.0031400224370917267,0.988380549902398
2015-06-16,1,5.421488927962164e-06,0.00019363505821540022,-0.007213034547790784,0.005741105030793358,0.9872886320926888
2015-06-18,1,0.0005921602768730462,0.0006970468840952202,-0.007213034547790784,0.0033992286619899037,0.9866338814087405
2015-06-22,1,0.00015965309304436046,0.00035328408165601413,-0.007213034547790784,0.0036190092121139075,0.9866549945875278
2015-06-24,-1,-0.0003339491973963789,-8.116820251817872e-05,-0.0087829631464113,0.0036190092121139075,0.9866718931314009
2015-06-26,1,7.44939963224047e-05,0.00021580297648341015,-0.01021401472671199,0.0036190092121139075,0.9859639364904901
2015-06-30,-1,-0.000937466878673957,-0.0007028770743321518,-0.0087829631464113,0.009067151461028083,0.9867559746977249
2015-07-02,-1,-0.003458273801660277,-0.0028965567780959247,-0.005866717072408505,0.009067151461028083,0.9903553621560993
2015-07-07,-1,-0.0037423528030047226,-0.003173632563411786,-0.005866717072408505,0.011845732809231197,0.9896663339304012
2015-07-09,-1,-0.0029668908384309607,-0.002588580257831782,-0.005866717072408505,0.012183920342211359,0.9873315313480256
2015-07-13,-1,-0.0017042282828629582,-0.0014708699091693558,-0.0060517856160149895,0.011845732809231197,0.9889851252918302
2015-07-15,-1,-0.0008778044274193026,-0.000766985423587911,-0.009216978216928602,0.009067151461028083,0.9889024570117293
2015-07-17,-1,-0.00018878650579962243,-0.00016183991570989088,-0.009216978216928602,0.0088449500709871,0.9891184622826563
2015-07-21,1,0.00032743989420558393,0.0004022988477616257,-0.009216978216928602,0.010275115845918482,0.9889041262951898
2015-07-23,-1,-0.00010514857534517554,-8.104349484751206e-05,-0.01047975648283334,0.010275115845918482,0.9877895381387405
2015-07-27,-1,-0.0006321020871764484,-0.0006078682256768122,-0.012477766651554456,0.010275115845918482,0.9850371578753802
2015-07-29,1,2.167913945718062e-05,5.269556229737595e-05,-0.012477766651554456,0.0088449500709871,0.9854565985660679
2015-07-31,-1,-0.00021373024626988388,-0.0001860156285754806,-0.012477766651554456,0.009872122871705304,0.9830827641338368
2015-08-04,-1,-0.00038210802996080243,-0.0003193432172675486,-0.02627087115103256,0.0088449500709871,0.9815144966420631
2015-08-06,-1,-0.00043583686922953047,-0.000365320638780026,-0.01851602173643374,0.0088449500709871,0.9837832809212661
2015-08-10,-1,-0.00025864212442729844,-0.00021994268534515025,-0.01851602173643374,0.009872122871705304,0.9829766275665373
2015-08-12,-1,-0.001058763238647327,-0.0009332482552753914,-0.019303419560432657,0.009872122871705304,0.9830353101107618
2015-08-14,-1,-0.0007008382812420088,-0.0005963032274687289,-0.019303419560432657,0.00886384445052851,0.9830877260113914
2015-08-18,-1,-0.0007965435165555722,-0.0006523862177144465,-0.019303419560432657,0.00886384445052851,0.9828575267333105
2015-08-20,-1,-0.0020972588385971035,-0.0018032782893083557,-0.012171554473862423,0.010717756874472458,0.9836625827164576
2015-08-24,-1,-0.004408293668351054,-0.0038529506107044084,-0.009496298894626637,0.010717756874472458,0.9856230091548104
2015-08-26,-1,-0.004013710478511644,-0.0035160888072280367,-0.009496298894626637,0.009458809646907191,0.9861193051250651
2015-08-28,-1,-0.0022342968530531,-0.0019502208749586146,-0.011889740980193273,0.008117199514181678,0.9842158950092389
2015-09-01,-1,-0.00422098493715245,-0.0037132080609400334,-0.009496298894626637,0.008980810278158028,0.9854545277617371
2015-09-03,-1,-0.0037392434641294607,-0.0032595665855692556,-0.009496298894626637,0.008980810278158028,0.9849904873719676
2015-09-08,-1,-0.0032707283565458376,-0.002837447370148704,-0.009496298894626637,0.008980810278158028,0.9851374844336778
2015-09-10,-1,-0.0038701710194624264,-0.003342171196778597,-0.005882267034094692,0.008653814417666286,0.9858555423598754
2015-09-14,-1,-0.004348515154131993,-0.00377796613879836,-0.0036750917713897985,0.008653814417666286,0.9854077786853358
2015-09-16,-1,-0.002708459721454059,-0.002399103427190858,-0.0036750917713897985,0.007632199869673039,0.9864822469374848
2015-09-18,-1,-0.0020871667784966236,-0.0018438214419616442,-0.0036750917713897985,0.007632199869673039,0.9864232338339869
2015-09-22,-1,-0.0024854169449802866,-0.0021839819909665096,-0.0036750917713897985,0.007459809308594696,0.9871722911073965
2015-09-24,-1,-0.002121260407917091,-0.0018937770657066603,-0.009870320353722026,0.007459809308594696,0.9856213181501615
2015-09-28,-1,-0.005889792975750156,-0.0052029126152219425,-0.003950146169153585,0.008277813393321561,0.9879508308312563
2015-09-30,-1,-0.006712128311102384,-0.005873467368029881,-0.0016021140165007153,0.007459809308594696,0.9876301546031719
2015-10-02,-1,-0.005486589995708863,-0.004793085778450765,-0.0030491597127821515,0.005624646978624202,0.990049368525505
2015-10-06,-1,-0.004433573036801832,-0.003888411996322903,-0.0030491597127821515,0.006097361853317892,0.989423824607505
2015-10-08,-1,-0.0039000667069914383,-0.003450802635025928,-0.005816031457613597,0.006097361853317892,0.9895131204353091
2015-10-12,-1,-0.0029786088686193663,-0.002748883382562081,-0.005816031457613597,0.00804588150731666,0.9895684640160239
2015-10-14,-1,-0.0016787407344125767,-0.0016674035060474932,-0.005816031457613597,0.008494131282979097,0.9896062440107222
2015-10-16,-1,-0.00044775110896395367,-0.00025765009187656994,-0.009158743550268768,0.00792496202916983,0.9901500436577426
2015-10-20,-1,-0.0008072600288662168,-0.0006850071276852961,-0.01357907254890074,0.00792496202916983,0.9881932846736026
2015-10-22,-1,-0.0020601285634289637,-0.002015284672668851,-0.011198426655069427,0.00792496202916983,0.9884763422917471
2015-10-26,-1,-0.002061262121529758,-0.0019511535495045256,-0.011198426655069427,0.00792496202916983,0.9882018630946389
2015-10-28,-1,-0.0013351182762280276,-0.0013275184322563832,-0.01357907254890074,0.008494131282979097,0.9871738971265834
2015-10-30,-1,-0.0009561190185446956,-0.0008709366461166006,-0.01357907254890074,0.009888950620500247,0.9865575482291931
2015-11-03,1,0.0004184493141374903,0.000688135951429266,-0.01357907254890074,0.008494131282979097,0.9873548743458178
2015-11-05,1,9.985576327460372e-05,0.00033315325228363754,-0.014727694766751266,0.008494131282979097,0.9869632813639564
2015-11-09,1,0.00051075983615465,0.00083437239301755,-0.014727694766751266,0.00792496202916983,0.987365391869341
2015-11-11,1,0.0012320835735671045,0.0016654736139421935,-0.01686737118866996,0.006958501493667008,0.9861236658942205
2015-11-13,1,0.000572820786687536,0.000905043428717637,-0.018827739539585428,0.006958501493667008,0.9844982978634633
2015-11-17,-1,-0.0007889601937617653,-0.0006407575265518356,-0.01686737118866996,0.011465239985796023,0.9852613581027426
2015-11-19,-1,-0.002069135726714839,-0.0020031823684989484,-0.018302609911214757,0.011465239985796023,0.9841820121071293
2015-11-23,-1,-0.002848130100042867,-0.0025993004564089724,-0.018302609911214757,0.006958501493667008,0.9853823420082777
2015-11-25,-1,-0.0031051407581434856,-0.0028006525191422767,-0.017009593598631897,0.009634239597406896,0.9857311619903417
2015-11-30,-1,-0.0031919648577643893,-0.002855345156025933,-0.017009593598631897,0.010125768888864265,0.9852564094459016
2015-12-02,-1,-0.001819564936241092,-0.0017175015381866781,-0.017009593598631897,0.010125768888864265,0.9836833389739632
2015-12-04,-1,-0.0016896117917206352,-0.00162661452303315,-0.014909385374794451,0.010125768888864265,0.9841431206762555
2015-12-08,-1,-0.0013882656833590517,-0.001374609779019309,-0.01873898485426178,0.010125768888864265,0.9820807760963332
2015-12-10,-1,-0.00095463354125505,-0.0008637104000375558,-0.025874638928321862,0.00652572118646939,0.9794204459110111
2015-12-14,-1,-0.0028781584666935566,-0.0027068701777052144,-0.025874638928321862,0.00652572118646939,0.9799949795967715
2015-12-16,-1,-0.0018717974322735248,-0.0017989613279270076,-0.02765416501915073,0.0059182321546141165,0.9779471577046135
2015-12-18,-1,-0.003067560971470834,-0.002901784342423501,-0.0204536318915926,0.0059182321546141165,0.9798240508560694
2015-12-22,-1,-0.002701631136942814,-0.002591424454703284,-0.0204536318915926,0.012294244441931935,0.9778762967126409
2015-12-24,-1,-0.001655687320441922,-0.0016319072346381927,-0.0204536318915926,0.014958784639383233,0.9772846800917004
2015-12-29,-1,-0.0010040683175879456,-0.0008894204153066343,-0.0204536318915926,0.006858250514596282,0.9772586858207014
2015-12-31,1,0.0007676489665581342,0.0011283526756523117,-0.0204536318915926,0.01387699508501971,0.9776089986118403
2016-01-05,0,-5.1377441492156655e-05,0.0001610174782034849,-0.0204536318915926,0.016549690964245696,0.9772119859511815
2016-01-07,-1,-0.0012740026551310332,-0.0011828014298489926,-0.01905610979688583,0.01937953586830908,0.9762397023837805
2016-01-11,-1,-0.004189112146034105,-0.003969489870528904,-0.019538546187323598,0.01937953586830908,0.9770289987999441
2016-01-13,-1,-0.0062260330308844865,-0.005706140152234789,-0.015175080612322579,0.01937953586830908,0.9782502391891069
2016-01-15,-1,-0.008217907017246754,-0.007354706874715336,-0.012877105595938512,0.021302560551357867,0.9755254328655112
2016-01-20,-1,-0.008654563849148004,-0.007761325204406144,-0.011077531653536723,0.024753122079685497,0.972403574160059
2016-01-22,-1,-0.005704837108476926,-0.005258660516976143,-0.011077531653536723,0.024753122079685497,0.9737280448294113
2016-01-26,-1,-0.005486065943812528,-0.004976263858303654,-0.013453660458765337,0.021302560551357867,0.974926744767762
2016-01-28,-1,-0.005717689718819689,-0.005225823045076676,-0.008760556427942644,0.021302560551357867,0.9752276340467949
2016-02-01,-1,-0.003734546986977564,-0.0035121555584013402,-0.008760556427942644,0.025537124033625326,0.9760094804332142
2016-02-03,-1,-0.0033103616327344325,-0.003129347872262927,-0.007351669933316668,0.025537124033625326,0.9772852824122028
2016-02-05,-1,-0.004483468586146041,-0.0041404355379248275,-0.006382402860934621,0.015886733373881377,0.9808373472848092
2016-02-09,-1,-0.006688109644796178,-0.006131679459788217,-0.005912987398234449,0.015886733373881377,0.9815819790767809
2016-02-11,-1,-0.005550854734627912,-0.005173730900601426,-0.006382402860934621,0.02618220395317663,0.9807287922267082
2016-02-16,-1,-0.0012221172953088533,-0.0010813628721657526,-0.007351669933316668,0.0075049516029205895,0.9853726600106522
2016-02-18,1,0.0006552413783748748,0.0010528981777170937,-0.007351669933316668,0.011774027239422757,0.9859476124319363
2016-02-22,1,2.5830169575284927e-06,0.00011532398840515885,-0.007351669933316668,0.004775887151679232,0.9873522729807792
2016-02-24,-1,-0.000814089918967649,-0.0008119075746163126,-0.006382402860934621,0.004775887151679232,0.9870542060584981
2016-02-26,-1,-0.00024672297583804774,-0.00010401990408315487,-0.006382402860934621,0.004775887151679232,0.9873747002973711
2016-03-01,1,0.0008800686923446496,0.0012179938569417137,-0.005912987398234449,0.005571173853686365,0.9867961502603088
2016-03-03,1,0.0008055131092108797,0.0011424143099473655,-0.005147037888132059,0.009510982928443275,0.9865048323737756
2016-03-07,1,0.00044509947096992855,0.0007031387653089496,-0.006944848483607214,0.009510982928443275,0.9853543452834727
2016-03-09,-1,-0.00042137822478923766,-0.00025396755494292117,-0.006739020414844,0.011342169177741744,0.9861167028862463
2016-03-11,1,0.00034483549415108045,0.0006675250706065945,-0.004879645496084728,0.011342169177741744,0.9870359953150547
2016-03-15,1,0.0005896810159358334,0.0009342812227401121,-0.0047606288720027125,0.011342169177741744,0.9877500500940997
2016-03-17,1,0.0013983950980048178,0.0017736544960826428,-0.004879645496084728,0.0060371939939482385,0.9891999256465338
2016-03-21,1,0.001948868995856905,0.002435344462225586,-0.005477039741021672,0.0060371939939482385,0.9886558500719852
2016-03-23,1,0.0012460189311631939,0.0016671016742752453,-0.008262912493025059,0.0060371939939482385,0.9891747713921006
2016-03-28,1,0.0013307970090575632,0.001759339498465551,-0.008262912493025059,0.00789415888917356,0.9888222331631226
2016-03-30,1,0.0037107851157215004,0.004539200731949594,-0.008262912493025059,0.00789415888917356,0.9887161183484535
2016-04-01,1,0.0037890298815992937,0.004604670079098771,-0.011699166332699379,0.0034566291968854924,0.9874306501868542
2016-04-05,1,0.0031476209930333585,0.003882472085585608,-0.011699166332699379,0.008327284717686408,0.9871357744296804
2016-04-07,1,0.00358118980138345,0.004410070036031482,-0.01094347936695259,0.0028629373246417517,0.9872792842925722
2016-04-11,1,0.004047240083995872,0.004900310200571127,-0.01094347936695259,0.0018806043758346574,0.9883537690443994
2016-04-13,1,0.003795802805869928,0.004523867933613102,-0.01094347936695259,0.0018806043758346574,0.98877893738793
2016-04-15,1,0.00306870333705527,0.0036522722303260935,-0.009283984666258635,0.0018806043758346574,0.9892157821313635
2016-04-19,1,0.0031065476335196216,0.003718092195879024,-0.01094347936695259,0.003083591382572445,0.9868396775109382
2016-04-21,1,0.0023372839764845663,0.002848222783663037,-0.011757636985707105,0.003083591382572445,0.9867881512018987
2016-04-25,1,0.002584362610517821,0.0031353988271979262,-0.01379412259775483,0.003083591382572445,0.98585900698541
2016-04-27,1,0.0037548512116654478,0.004485115935168005,-0.01379412259775483,0.005071495642977595,0.9863906761719723
2016-04-29,1,0.002557536635632602,0.003105499493590092,-0.009962813203607878,0.008364021234962578,0.9875805514287179
2016-05-03,1,0.0023732406676058066,0.0028834388740477963,-0.008469093470314264,0.005071495642977595,0.9896169056560701
2016-05-05,1,0.0022445014108019652,0.0027530168409977056,-0.008469093470314264,0.011544097710427139,0.9886881134729701
2016-05-09,1,0.001475247595093083,0.0017733170287131,-0.008469093470314264,0.011544097710427139,0.9881783313937292
2016-05-11,1,0.001974679686730255,0.002408649831957093,-0.01379412259775483,0.011544097710427139,0.9870255116325269
2016-05-13,1,0.0006885037085931386,0.0008434643390971329,-0.01653497620348059,0.011544097710427139,0.9834995865347728
2016-05-17,1,0.001132494110514829,0.0013486957199451035,-0.015138395623413181,0.011544097710427139,0.9854710753849861
2016-05-19,1,0.00042836650902862964,0.0005957437046368496,-0.013594900868777881,0.011544097710427139,0.9859885206449817
2016-05-23,1,0.0006828554981080878,0.0009091976858485919,-0.014540730436482335,0.009915562803486105,0.9826739421387125
2016-05-25,1,0.0018510498791697867,0.002294105963265609,-0.014540730436482335,0.010958398659456407,0.9816704026942666
2016-05-27,1,0.0020522954518640848,0.002483743492791392,-0.023385105732697246,0.009720329786495861,0.9747315938330435
2016-06-01,1,0.0014522762346041483,0.0017234989664952263,-0.023385105732697246,0.010958398659456407,0.9704656563956447
2016-06-03,1,0.0011289012148607332,0.0012083707851102883,-0.02343890271352079,0.009720329786495861,0.9703054985624815
2016-06-07,1,0.0006666410778838585,0.0007260684339347528,-0.04117958839127273,0.00953671418873427,0.9671650796365846
2016-06-09,-1,-0.000729950582574658,-0.0004807083030235733,-0.04117958839127273,0.016786365926912898,0.9662809601013431
2016-06-13,-1,-0.0037214336006237475,-0.0030843978918056883,-0.014882914623714686,0.020961384488489793,0.9675713295334365
2016-06-15,-1,-0.002893844023104296,-0.002405789443263566,-0.014882914623714686,0.02397562496813129,0.9669077215484433
2016-06-17,-1,-0.003129597728807319,-0.0026534850181926355,-0.012699208235184748,0.027851524385356034,0.9658240222722977
2016-06-21,-1,-0.005915701414877614,-0.005075532328028832,-0.015839892409533377,0.027851524385356034,0.9684404996151856
2016-06-23,-1,-0.004040083884982148,-0.003471169641187644,-0.015839892409533377,0.023315411371198982,0.9701961588301725
2016-06-27,-1,-0.008659298660134587,-0.007564427385300546,-0.011174245731167801,0.023315411371198982,0.9747727949562794
2016-06-29,-1,-0.006084689084658186,-0.005253933909071331,-0.0124247173525395,0.020961384488489793,0.9797267581658814
2016-07-01,-1,-0.0071938606070240385,-0.0061211984060447824,-0.011174245731167801,0.01814507994396945,0.9794462788524168
2016-07-06,-1,-0.009072487542675499,-0.007789368473043906,-0.011174245731167801,0.022253350960898043,0.9802057959371872
2016-07-08,-1,-0.005115335009283082,-0.004461838224875935,-0.0124247173525395,0.016669794833562797,0.9823474194391152
2016-07-12,-1,-0.0028774334506436834,-0.00255932211953946,-0.0124247173525395,0.0137809588021846,0.9839051050894585
2016-07-14,-1,-0.0013810442581096431,-0.0012803505500501265,-0.0124247173525395,0.01271018191581326,0.984927331164997
2016-07-18,-1,-0.0012920243061604175,-0.0011677396205441305,-0.0124247173525395,0.01271018191581326,0.9853034513011096
2016-07-20,-1,-0.0022115159779642294,-0.0019793561214505877,-0.0035739227771393956,0.01271018191581326,0.9864921884640204
2016-07-22,-1,-0.0014855872267385405,-0.0013688243912549404,-0.00858055713844464,0.01096765144464407,0.9863332641660759
2016-07-26,-1,-0.0013752937590083831,-0.0012642159377957028,-0.004442808258619911,0.01078507054660367,0.986827425798462
2016-07-28,-1,-0.0016809278816078935,-0.0015294913274812578,-0.010218718936168662,0.01078507054660367,0.986142455471001
2016-08-01,-1,-0.0014839767553492043,-0.0013051650451482563,-0.010218718936168662,0.010028566098948583,0.9867905089347571
2016-08-03,-1,-0.0009664763149746985,-0.0008560228223580062,-0.00721930244425527,0.010028566098948583,0.9883807965973329
2016-08-05,-1,-0.0023006628531383657,-0.002046007964843652,-0.004311173798068609,0.010767062066167045,0.9886423504664562
2016-08-09,-1,-0.0007605836709298092,-0.0007497198036459166,-0.006325581763234661,0.010028566098948583,0.9895611034341121
2016-08-11,-1,-0.0005351079416466397,-0.0005065639201247796,-0.006325581763234661,0.008993829807071542,0.9886888908864998
2016-08-15,-1,-0.00022103173402396412,-0.00019854977005497471,-0.009823815554514753,0.008993829807071542,0.9867699387566009
2016-08-17,-1,-0.00012811198440295903,-9.079668786788439e-05,-0.011677383955585346,0.010767062066167045,0.9857945323483793
2016-08-19,1,6.581686553577067e-05,0.00020768802803869044,-0.007705524117394166,0.010767062066167045,0.9863288476015
2016-08-23,1,0.0006271851251732587,0.0008560193330954135,-0.007705524117394166,0.011191083135089226,0.9861166794341849
2016-08-25,-1,-0.0005776448006958228,-0.0005410801583875074,-0.004504130109667943,0.013736333607492109,0.986298287078625
2016-08-29,-1,-0.00037881332873012437,-0.0003097741571315662,-0.004504130109667943,0.013736333607492109,0.9852674605244139
2016-08-31,1,0.00046904587815556125,0.0006894564298118074,-0.0069434378969248575,0.012806883364733975,0.9842932225993074
2016-09-02,1,0.0017724319341438294,0.0021964921341655567,-0.0069434378969248575,0.012806883364733975,0.9840689840674216
2016-09-07,1,0.0016269267466541347,0.00201751901276222,-0.005681205060707892,0.012806883364733975,0.9838500396333353
2016-09-09,1,0.0006558271941014235,0.000910286458877448,-0.012229728753135579,0.012806883364733975,0.9830092065825933
2016-09-13,1,0.0011293031643495703,0.0014076220779162688,-0.011206482583737756,0.012102873035737234,0.985155561513534
2016-09-15,1,0.0014397460267208699,0.0017686846772636037,-0.016429793025614148,0.011073869485013625,0.9854448488070815
2016-09-19,1,0.0020219758269720495,0.0024756240235499676,-0.016429793025614148,0.011073869485013625,0.9848787219421995
2016-09-21,1,0.002169397505484504,0.0025924908319333567,-0.016429793025614148,0.01037723446228705,0.9852868993182387
2016-09-23,1,0.002858337652867876,0.003368196324121649,-0.016429793025614148,0.007187791648989455,0.9861365209477038
2016-09-27,1,0.0020241866644381368,0.0024090293225784466,-0.013777419404314983,0.009070859568658367,0.9877097968371599
2016-09-29,1,0.0016415873781351089,0.001983835687047777,-0.010073515487221638,0.007187791648989455,0.9888459416730699
2016-10-03,1,0.002569910143381784,0.0030296340656058274,-0.010073515487221638,0.009070859568658367,0.9900207834412618
2016-10-05,1,0.002557242631101674,0.0029983167100398516,-0.012313649991176876,0.007406504789100513,0.9892667613756182
2016-10-07,1,0.0014758488409073647,0.001797647951638458,-0.010844389073272445,0.007920125662053062,0.9909448756162407
2016-10-11,1,0.0008904679933329524,0.0010812815437802668,-0.00943412667279627,0.009856066280545805,0.9899586089520895
2016-10-13,1,0.0005487510025351418,0.0006924622890010997,-0.00943412667279627,0.009856066280545805,0.9875289015693438
2016-10-17,1,0.00030603999144527606,0.000453620844663886,-0.008275110565693352,0.009856066280545805,0.9881297173890463
2016-10-19,1,0.0010176776036305486,0.0012960612294243361,-0.008275110565693352,0.010207724340664815,0.9871829734594276
2016-10-21,1,0.001413644338807482,0.0017535671948465995,-0.008275110565693352,0.012394423354509188,0.9856779914334627
2016-10-25,1,0.002399927070741488,0.0029402426204223602,-0.008275110565693352,0.012394423354509188,0.9856371359828646
2016-10-27,1,0.0023171667647411062,0.002875182977168443,-0.00916284777504759,0.012394423354509188,0.985092091211556
2016-10-31,1,0.002625993914495306,0.0031715695571441728,-0.010844389073272445,0.008736016451083784,0.9849225459965023
2016-11-02,1,0.0008535273685447051,0.0010291575753925372,-0.013093357689198414,0.008736016451083784,0.9830842970735992
2016-11-04,1,0.00082855313668609,0.0010157317127686165,-0.01296740230709396,0.008736016451083784,0.9831825224051116
2016-11-08,1,0.0017659178901648516,0.002039927510637326,-0.01296740230709396,0.008736016451083784,0.983924387195924
2016-11-10,-1,-0.0018059371733558777,-0.0014990268662521098,-0.009769428447464645,0.008736016451083784,0.9876353707846808
2016-11-14,-1,-0.0012742829974663954,-0.0011001919316747963,-0.012172106924476747,0.011402161746081088,0.9866071737960114
2016-11-16,-1,-0.0041469700922081056,-0.003289644393306763,-0.012172106924476747,0.008736016451083784,0.9887522201142598
2016-11-18,-1,-0.0005024053577304374,-0.0002649101162795403,-0.012172106924476747,0.008736016451083784,0.988919700420678
2016-11-22,-1,-0.00028440972598679814,-7.484836826061848e-05,-0.012172106924476747,0.011402161746081088,0.9881115219750707
2016-11-25,-1,-0.0026847746626765196,-0.00204864659464963,-0.008781283934080272,0.008640878880417441,0.9898617381965786
2016-11-29,-1,-0.0021625157361871584,-0.001703388307320761,-0.008781283934080272,0.012209131713950532,0.9888367786668604
2016-12-01,-1,-0.0038482488444674928,-0.0032831992924226266,-0.0072181334937132064,0.012209131713950532,0.9913820116915719
2016-12-05,-1,-0.003718790774393404,-0.0032376516471500456,-0.00688667365387703,0.012810298697466947,0.9902799103710244
2016-12-07,-1,-0.002168582320275287,-0.0019025412195740896,-0.00688667365387703,0.016561443929486133,0.9886731108103604
2016-12-09,-1,-0.0033118061695886726,-0.002842169992635408,-0.00688667365387703,0.016561443929486133,0.9874005761161213
2016-12-13,-1,-0.0027846328985011593,-0.00240002780289176,-0.00539547361630363,0.016981621508442277,0.987332827824224
2016-12-15,-1,-0.0028760838143985002,-0.0024920364164928922,-0.00539547361630363,0.016981621508442277,0.9872765367104828
2016-12-19,-1,-0.002798561870916332,-0.002401914656223571,-0.005163745050537701,0.016981621508442277,0.987349912211723
2016-12-21,-1,-0.0010249188899095012,-0.0008935872234991102,-0.005163745050537701,0.014740617955113909,0.9889619676336633
2016-12-23,-1,-0.0009108144438669896,-0.0008235026507392087,-0.002655638347650416,0.014740617955113909,0.9889020738265993
2016-12-28,-1,-0.001979563830384103,-0.0016612732116793553,-0.0002860543545594758,0.01951221502885886,0.9880673062006574
2016-12-30,-1,-0.0020083070941409892,-0.0017334140722818647,0.00021480209632422062,0.01951221502885886,0.9883149423861116
2017-01-04,-1,-0.0008599223758034959,-0.0007239389173313144,-0.0005008564508836964,0.014994935718834635,0.9897898323599005
2017-01-06,1,0.0022126290702767456,0.002526883977916476,-0.0024583270924918533,0.008760776314887354,0.9926640483762014
2017-01-10,1,0.0029603904480499984,0.0033746440314675642,-0.0041074735963355655,0.006684147361190376,0.9918943259542087
2017-01-12,1,0.0034244656680348187,0.003844000019780622,-0.004942278242893271,0.00520768615935248,0.992471503157782
2017-01-17,1,0.003358011246711992,0.0037994433898131457,-0.0041074735963355655,0.00520768615935248,0.9930356335799094
2017-01-19,1,0.002746432040379365,0.0030109147670195095,-0.0038520747533010383,0.00520768615935248,0.9937137033378004
2017-01-23,1,0.00264644889702343,0.0028989541422437615,-0.0038520747533010383,0.008045255393555205,0.9922329353923
2017-01-25,1,0.00310410230126319,0.003451328346548532,-0.0055780908546912795,0.007006277330420512,0.9908436613497534
2017-01-27,1,0.005251825835272917,0.005964229746332775,-0.0055780908546912795,0.006848510263876544,0.9909790593463694
2017-01-31,1,0.0048440017203082155,0.005489561124993381,-0.007809568473456888,0.006848510263876544,0.9885232341472284
2017-02-02,1,0.003744655497731994,0.004152441378732945,-0.010921228003492356,0.006848510263876544,0.9886363674531183
2017-02-06,1,0.004069191477057381,0.00458281881815336,-0.007361144445032481,0.00853834410161371,0.9889302773192278
2017-02-08,1,0.003302432311541842,0.0037258670575799867,-0.0055780908546912795,0.00853834410161371,0.9899059448927165
2017-02-10,1,0.0032362444034916386,0.0036567888051681555,-0.005381324792419299,0.009339013500930048,0.989890808725822
2017-02-14,1,0.0037410800905973932,0.004275055527105059,-0.005381324792419299,0.010574486214577426,0.9885237245446369
2017-02-16,1,0.004719850779759003,0.005446025827154498,-0.005381324792419299,0.010574486214577426,0.9886791684771994
2017-02-21,1,0.005712882422756222,0.006498542516441748,-0.012237192499435993,0.008664458744455445,0.987285499061608
2017-02-23,1,0.0041311089733304645,0.004658328826106633,-0.010928831014604984,0.008664458744455445,0.9881168488825369
2017-02-27,1,0.00579917967842818,0.006631870331598195,-0.010928831014604984,0.007632598599553647,0.9880413197723746
2017-03-01,1,0.00354172406868666,0.004084180417634453,-0.006621944541032602,0.007632598599553647,0.9907080660094344
2017-03-03,1,0.0020458525946332215,0.0022636490025496427,-0.004468942138049764,0.009717357429455255,0.9907289409932705
2017-03-07,1,0.0022833318946964254,0.002514259164079043,-0.006621944541032602,0.00777470942139055,0.9893309315178949
2017-03-09,1,0.0019217231201352114,0.0020654851855078926,-0.005735795665543738,0.00777470942139055,0.9895875136257161
2017-03-13,1,0.0020303972806875667,0.0021251127985892175,-0.009398794118479862,0.006444390715177299,0.9896182622164311
2017-03-15,1,0.003090915104259642,0.003350013783925955,-0.010489178957055353,0.0058184808380149465,0.9902148294637235
2017-03-17,1,0.003724525892693111,0.004084063238361409,-0.010489178957055353,0.003976200516421035,0.9897382406942953
2017-03-21,1,0.001791571305638168,0.0019175027439362414,-0.008989903656427075,0.004994680355341322,0.9921075623996192
2017-03-23,1,0.0008174204754903814,0.0008580560869072369,-0.006829725279158159,0.004994680355341322,0.9925615536985518
2017-03-27,1,0.0017033703731653884,0.0018361905212949422,-0.006829725279158159,0.006068432134394696,0.9914813314127099
2017-03-29,1,0.0006016410296153413,0.0006669443850196037,-0.004557837620942144,0.006068432134394696,0.9916500583812569
2017-03-31,1,0.00110362829984159,0.001119155031622552,-0.006829725279158159,0.006068432134394696,0.9916154064434624
2017-04-04,1,0.0011298688811435963,0.0012131474264071138,-0.006829725279158159,0.004987691364320108,0.9916680441876172
2017-04-06,-1,-0.00034518218123705106,-9.533036478028467e-05,-0.008989903656427075,0.005374421372763067,0.9908223880916364
2017-04-10,-1,-0.0010928360202677127,-0.0007498754805944254,-0.012209168638166729,0.005374421372763067,0.9864330881862734
2017-04-12,-1,-0.0008749411347625201,-0.0006261349148461686,-0.013281095540788202,0.005374421372763067,0.9860308643960581
2017-04-17,-1,-0.0004732944147206016,-0.00033211934098228914,-0.013281095540788202,0.005374421372763067,0.985915729753268
2017-04-19,0,-6.891720767121008e-05,1.4071740387937585e-05,-0.017519387615266335,0.0033576117307120876,0.9858182392544221
2017-04-21,-1,-0.0004558241989986793,-0.0003052432831176129,-0.017519387615266335,0.0060671172969010145,0.9851366660156626
2017-04-25,1,0.0005071879020740854,0.0005850904970325938,-0.017519387615266335,0.004983433356776989,0.985401596504253
2017-04-27,-1,-0.001213174554700013,-0.0007988929310715977,-0.017519387615266335,0.006162803282831049,0.9849143134099706
2017-05-01,-1,-0.002091411698741056,-0.0015318152976502898,-0.017519387615266335,0.005873641202664053,0.985424084525508
2017-05-03,-1,-0.003172879608018762,-0.0025348358771755362,-0.014446565042289996,0.008101174278505107,0.9850373425303933
2017-05-05,-1,-0.0036905192280301392,-0.002973333689989774,-0.012367654099479866,0.008039422308573432,0.9853857044995263
2017-05-09,-1,-0.00802628885257536,-0.006808711896142461,-0.010552566812571025,0.008039422308573432,0.9874384808000063
2017-05-11,-1,-0.009048860160544283,-0.007700781160954673,-0.010552566812571025,0.008039422308573432,0.9876744810551608
2017-05-15,-1,-0.009176521736263776,-0.007827133527056123,-0.010552566812571025,0.008039422308573432,0.9870754058096427
2017-05-17,-1,-0.009415321292327168,-0.008086749810892191,-0.012367654099479866,0.008039422308573432,0.9873984985608046
2017-05-19,-1,-0.008572766890520223,-0.00732984057309097,-0.012367654099479866,0.008074959283376983,0.9875805268775462
2017-05-23,-1,-0.007316346069024772,-0.006231351005427219,-0.0135988962972446,0.006478022626179254,0.9888213414361641
2017-05-25,-1,-0.007655399273771877,-0.0065011375078530345,-0.0135988962972446,0.006619480865051416,0.9873633057831764
2017-05-30,-1,-0.007017289202161011,-0.0059857974930603765,-0.0135988962972446,0.008392723075582816,0.9870303326114809
2017-06-01,-1,-0.004748521006673346,-0.004114974911750024,-0.010996652038076126,0.00890951733179943,0.9864654886985841
2017-06-05,-1,-0.004084479655334975,-0.0035710735796969286,-0.00817966647991241,0.008952145434823195,0.9866983682955016
2017-06-07,-1,-0.005112606411119596,-0.0045386417829570225,-0.00817966647991241,0.008952145434823195,0.986713235550769
2017-06-09,-1,-0.006093623199247844,-0.005397765509754475,-0.004602980511765216,0.009430770429978192,0.9856676703024129
2017-06-13,-1,-0.005471942765920689,-0.004869563438930006,-0.006567384399110898,0.013616542815826476,0.9855096335396153
2017-06-15,-1,-0.006434135964255917,-0.005725837779137088,-0.0002860643217031903,0.01573622700077384,0.983839996318727
2017-06-19,-1,-0.004983314241032,-0.004468730997140246,-0.004602980511765216,0.013616542815826476,0.9858740012742978
2017-06-21,-1,-0.004461935731555098,-0.004094930679463095,-0.0035925113289189785,0.014745396627293756,0.9860381121036239
2017-06-23,-1,-0.00258871956283545,-0.00244082961360985,-0.004417062408860326,0.013305955346476998,0.9887925985081683
2017-06-27,-1,-0.002005956966665552,-0.00192191730789892,-0.0037402448426070573,0.010384095383975403,0.9892319186018388
2017-06-29,-1,-0.00015616058868692914,-1.0818039805234037e-05,-0.0037402448426070573,0.00970806982303274,0.9912163686772005
2017-07-03,-1,-0.00018023209166357637,-7.957743498680027e-05,-0.0033394696566791176,0.00970806982303274,0.9909019379315839
2017-07-06,-1,-0.0009126747682538492,-0.0009071756294581722,-0.0014867073896328974,0.00970806982303274,0.9918959069229577
2017-07-10,-1,-0.00013804187806416444,-1.5547713110642997e-05,-0.0033394696566791176,0.00970806982303274,0.9924980815848291
2017-07-12,1,0.0004499642224690491,0.0006797343433780293,-0.0033394696566791176,0.00970806982303274,0.9924985480981596
2017-07-14,1,0.002454064719155367,0.003049453262589849,-0.0037402448426070573,0.008242337574873172,0.9935241931650096
2017-07-18,1,0.0018408474772411301,0.002296061077259874,-0.0037402448426070573,0.009197634465041831,0.9929830892894764
2017-07-20,1,0.0028317390553191917,0.0034756248943516007,-0.004949141715725267,0.008242337574873172,0.9921009107995765
2017-07-24,1,0.0015113331206513937,0.001857843036562792,-0.0019580707968134712,0.00896158324175433,0.9920719352583026
2017-07-26,1,0.001696462861948716,0.002048596726343996,-0.005645448608331074,0.009517414829021425,0.9904807629464799
2017-07-28,1,0.002566422040732654,0.0030597008759630302,-0.005645448608331074,0.008348931029533036,0.9907029208335716
2017-08-01,1,0.003506656223119239,0.004127761480619319,-0.0059520572293678305,0.0055726750027792855,0.9908479016803802
2017-08-03,1,0.003969297978628922,0.004693363621564495,-0.0059520572293678305,0.006552534737469307,0.990874401870129
2017-08-07,1,0.004335986405446572,0.005161862262087657,-0.005317980886806298,0.006552534737469307,0.9907235452019334
2017-08-09,1,0.004603275349147647,0.005502105237506737,-0.005317980886806298,0.006552534737469307,0.9894658492651671
2017-08-11,1,0.003482452608773811,0.004127796703560383,-0.0075457441811608295,0.006552534737469307,0.9884557090246897
2017-08-15,1,0.0036287120662383474,0.004269239102365412,-0.00906124687062555,0.006552534737469307,0.9880506509258655
2017-08-17,1,0.0028483970557383964,0.0034097551120312462,-0.006129757070997961,0.007241334684147952,0.989215210525092
2017-08-21,1,0.0030654180939470145,0.0036352004205476977,-0.006129757070997961,0.006552534737469307,0.98935949514391
2017-08-23,1,0.0034497153053944084,0.00411868137707073,-0.004511808394242661,0.006552534737469307,0.9905011376790702
2017-08-25,1,0.003083582428992677,0.003648542216308429,-0.006129757070997961,0.008588686692010846,0.9895685443930891
2017-08-29,1,0.003100680084501422,0.0036888353803228467,-0.005016975957397568,0.008778513670065515,0.9897395571695153
2017-08-31,1,0.0033835422932983316,0.003989379359486546,-0.00858065569369327,0.0148850945278905,0.9876404111336912
2017-09-05,1,0.0029588637683656805,0.003481660191660383,-0.011867434670317315,0.0148850945278905,0.9866316336141291
2017-09-07,1,0.0020356041557713085,0.002420805179088408,-0.011867434670317315,0.0148850945278905,0.9862031417539594
2017-09-11,1,0.0011079219896170801,0.0013867581059748462,-0.00858065569369327,0.0148850945278905,0.9865451062008527
2017-09-13,1,0.0015841379920936483,0.0019264690181393016,-0.012865120914916182,0.0148850945278905,0.986118689462494
2017-09-15,1,0.00287105208351708,0.0034653661093846664,-0.016339742571251877,0.008778513670065515,0.9862009554573533
2017-09-19,1,0.003428365665010347,0.004104225955911301,-0.016339742571251877,0.015320954182423581,0.9853833692896008
2017-09-21,1,0.0037796249118779526,0.004494373131537106,-0.01806757077720893,0.00939353499070364,0.9847322982582317
2017-09-25,1,0.003296297203386911,0.003867752300095216,-0.01806757077720893,0.006345304186628858,0.9852497606277625
2017-09-27,1,0.003442135346521013,0.004024957205688825,-0.01806757077720893,0.003896370827511351,0.9849608882816238
2017-09-29,1,0.0013322765250960694,0.0014025381741010958,-0.01642566602219671,0.0028281785815957704,0.9867112765182616
2017-10-03,-1,-0.0001735584746975657,-1.253678895604503e-05,-0.01604831351881424,0.0028281785815957704,0.988057807578294
2017-10-05,-1,-0.0006643534667879444,-0.00043453542761921955,-0.010644155842505042,0.004581734497319074,0.989968271959783
2017-10-09,-1,-0.0021510025876221315,-0.0016988532735837496,-0.010644155842505042,0.006166705688677379,0.9895708424352435
2017-10-11,-1,-0.00155225990889076,-0.0012132033563605818,-0.010644155842505042,0.003659206003391248,0.9899891566172967
2017-10-13,-1,-0.001532912643474057,-0.0012466174962512478,-0.007246607623730519,0.0043515577363126496,0.990377516417195
2017-10-17,-1,-0.0010117919849865504,-0.0007857106173755242,-0.010083456872178237,0.0020229488714911797,0.9904855404556565
2017-10-19,-1,-0.0019933088565454848,-0.0016556852070154639,-0.008199106192774433,0.0043515577363126496,0.9901503772390603
2017-10-23,-1,-0.00229702088928746,-0.0019458417104952453,-0.0070288706878196775,0.008205697277808175,0.9895110717356571
2017-10-25,-1,-0.0024337260135612196,-0.002072729035672213,-0.0070288706878196775,0.008205697277808175,0.9891568401893547
2017-10-27,-1,-0.004594241503419258,-0.00388804265988294,-0.0070288706878196775,0.008205697277808175,0.9882717124082612
2017-10-31,-1,-0.004721347380288409,-0.003950711409229304,-0.0070288706878196775,0.008205697277808175,0.9850231227399744
2017-11-02,-1,-0.0035859461323147304,-0.002956930991789549,-0.009430246064445712,0.005604262261281625,0.9861530971330886
2017-11-06,-1,-0.005630677031355259,-0.004705176747742392,-0.008784539163260557,0.0070040962573893655,0.986528037018854
2017-11-08,-1,-0.006370188277187535,-0.005402411516652913,-0.008784539163260557,0.0070040962573893655,0.9863303516954605
2017-11-10,-1,-0.00702650882066083,-0.005942306756735826,-0.011839755783636611,0.008570175664670436,0.9847712952595776
2017-11-14,-1,-0.00652443075775724,-0.0055813950057661006,-0.009829744339219432,0.01135992829137485,0.9844184951507878
2017-11-16,-1,-0.005575132994561092,-0.004764842402059694,-0.009829744339219432,0.01135992829137485,0.9843513352918679
2017-11-20,-1,-0.0035942260786590878,-0.0031100412117048967,-0.011282205378620095,0.011627778577246568,0.9850678811587781
2017-11-22,-1,-0.0029627418229221355,-0.002569318581106779,-0.011282205378620095,0.014325077203635106,0.9832535856172744
2017-11-27,-1,-0.004538302875715655,-0.003916407538735484,-0.009829744339219432,0.015851721397141867,0.9819139479938113
2017-11-29,-1,-0.0007026663243770005,-0.0005611904135700624,-0.009829744339219432,0.014325077203635106,0.9861976884470388
2017-12-01,-1,-0.0013493448000469217,-0.0011449438256543514,-0.003823861584260077,0.014325077203635106,0.9861288594100192
2017-12-05,-1,-0.0004749724047523727,-0.0004309605363674268,-0.00237764071998551,0.01193634236265036,0.9873676077288566
2017-12-07,-1,-0.0013077419875509317,-0.0011585337083999307,-0.00237764071998551,0.01193634236265036,0.9867918069047016
