JNU-Tangyin/eata/results/Batch4_SP500/Batch4_SP500-WEC.csv
Date,Action,Predicted_Q25,Predicted_Q75,Actual_Q25,Actual_Q75,RL_Reward
2010-12-14,0,0.0,0.0,-0.0032477672370395173,0.00435521741103526,0.9949776170553384
2010-12-16,0,0.0,0.0,-0.0029619996429670514,0.003612517019609766,0.9956895509632602
2010-12-20,0,0.0,0.0,-0.0029619996429670514,0.0031199065287118195,0.9960522286456951
2010-12-22,0,0.0,0.0,-0.002745279679467233,0.0034040183889530165,0.9961934922272901
2010-12-27,0,0.0,0.0,-0.002618718647401371,0.003861286589150999,0.9957459366686312
2010-12-29,0,0.0,0.0,-0.002618718647401371,0.003861286589150999,0.9954971101513157
2010-12-31,0,0.0,0.0,-0.0013974613152797264,0.004511876430454912,0.9950374496532393
2011-01-04,0,0.0,0.0,-0.0011378948837770823,0.00568894787340891,0.9939606533474051
2011-01-06,0,0.0,0.0,-0.0028105622695591944,0.00568894787340891,0.9934884811214872
2011-01-10,0,0.0,0.0,-0.0028105622695591944,0.007803893074627092,0.9931752555952511
2011-01-12,-1,-0.0002569067446455156,-0.0001844040426449713,-0.004559625818726069,0.00561091401308059,0.9930206065740221
2011-01-14,-1,-0.00022437739173268006,-0.00015842276601021096,-0.004641357013986499,0.00561091401308059,0.9930731261681837
2011-01-19,-1,-0.000557473983380718,-0.00043271999027988324,-0.004641357013986499,0.006319236614633008,0.992713442489699
2011-01-21,-1,-0.00047574957475061237,-0.00036201086182751735,-0.004641357013986499,0.006319236614633008,0.9928980435240243
2011-01-25,1,0.0002122266705565218,0.00021229315978520813,-0.007686496820055578,0.004747983964305718,0.9929061942830779
2011-01-27,1,0.0003920678503582265,0.0004146699194358853,-0.007686496820055578,0.004747983964305718,0.9930756152970542
2011-01-31,-1,-7.890677975633028e-05,-2.2746560746436374e-05,-0.007686496820055578,0.0061566228692569855,0.9931020575956042
2011-02-02,-1,-0.000249081273158638,-0.00018402868242096713,-0.00751898124943052,0.0061566228692569855,0.9930183475734489
2011-02-04,0,0.0,0.0,-0.003819503317783055,0.006794128462965513,0.9932707163973752
2011-02-08,0,0.0,0.0,-0.003819503317783055,0.006299538825665623,0.9927384418084793
2011-02-10,-1,-0.00045471201875470294,-0.00037137521788305086,-0.003819503317783055,0.006299538825665623,0.9919539018597151
2011-02-14,-1,-0.0005222159460041265,-0.00043800992676722357,-0.008353046730795368,0.006299538825665623,0.9910738308895314
2011-02-16,-1,-0.0004092022682308236,-0.0003379111429639006,-0.008353046730795368,0.007070247950963388,0.9907709071083101
2011-02-18,0,0.0,0.0,-0.008353046730795368,0.00864995875411953,0.9898308735587845
2011-02-23,-1,-0.0004700666609916697,-0.00039315721188442883,-0.007153654424989698,0.00864995875411953,0.9900474261141289
2011-02-25,-1,-0.0009250730991284936,-0.00076269558936157,-0.007153654424989698,0.007070247950963388,0.9905095345975936
2011-03-01,-1,-0.0009376116792099439,-0.0007850083008769163,-0.0062083919188930855,0.008689567362526768,0.9904538633181317
2011-03-03,0,0.0,0.0,-0.004509026717636736,0.008689567362526768,0.9916617227915481
2011-03-07,0,0.0,0.0,-0.00399534992839239,0.009039087142991772,0.9916761506393328
2011-03-09,1,0.0009120416783094422,0.0009910099206335676,-0.004925515332354197,0.006287817401007681,0.9925779742067332
2011-03-11,0,0.0,0.0,-0.005470239560726358,0.006287817401007681,0.9936427250637823
2011-03-15,-1,-0.00023621984112640173,-0.0002121561164653771,-0.0047462760567841475,0.006287817401007681,0.9940429438729931
2011-03-17,-1,-0.00015091175257106768,-0.00013530293420047456,-0.004420669848383477,0.002370743511498559,0.9947108828886225
2011-03-21,1,0.0005216826110138272,0.0005962072767294722,-0.0047462760567841475,0.0010976077108889812,0.994795625951346
2011-03-23,1,0.0004478175787737866,0.0005149639331460806,-0.0047462760567841475,0.0029515713344053117,0.9947443731270466
2011-03-25,1,0.0004045393699353345,0.00046378557524092714,-0.0047462760567841475,0.0058434314399010475,0.9942917168078729
2011-03-29,1,0.0005280858288116945,0.0005994879435757368,-0.004420669848383477,0.006577668586316622,0.9941382644344817
2011-03-31,1,0.0012004221333401497,0.0013917104352757712,-0.004420669848383477,0.006577668586316622,0.9943892443227078
2011-04-04,1,0.0009092358485964533,0.0010124564606841314,-0.004420669848383477,0.006577668586316622,0.9941729529137838
2011-04-06,1,0.0008020375648299734,0.0009034997369231931,-0.004602244591174197,0.006577668586316622,0.993946222725044
2011-04-08,1,0.0003749200706083185,0.00041830881933866825,-0.0018140583078455237,0.006577668586316622,0.993698538906759
2011-04-12,-1,-0.00035815562137072774,-0.00029488188589498116,0.0005198063727335308,0.0072578079130397434,0.9933136149200604
2011-04-14,1,6.767626197285543e-05,8.559754090207327e-05,-0.0019038707728423819,0.007534984475199876,0.9928842525529981
2011-04-18,-1,-2.4243296066683124e-05,-2.313286872254476e-05,0.00023514888689633856,0.0072578079130397434,0.9935229209220822
2011-04-20,1,0.00035666425702425336,0.00042631088618150004,-0.0009511693785152974,0.0072578079130397434,0.9939261891489906
2011-04-25,1,0.0007609844106411251,0.0008844391927563207,-0.004891320394923659,0.0072578079130397434,0.9937761007449573
2011-04-27,1,0.0014054881975593741,0.0016084001098738054,-0.004891320394923659,0.005390594338557662,0.9946128020805604
2011-04-29,1,0.0017263010480204244,0.0019601780592025343,-0.004891320394923659,0.0026914135676929483,0.9947181886636962
2011-05-03,1,0.0017848622293980504,0.001984380140096135,-0.005924096972597527,0.0026914135676929483,0.9947508178669641
2011-05-05,0,0.0,0.0,-0.005640579905035353,0.0020790962711156437,0.995177705776653
2011-05-09,0,0.0,0.0,-0.005640579905035353,0.0020790962711156437,0.9952100330486796
2011-05-11,0,0.0,0.0,-0.005556945080864545,0.0020790962711156437,0.9954195823597659
2011-05-13,1,0.0016699178789529611,0.001856515416784475,-0.006202753387053414,0.0020790962711156437,0.9952142533519444
2011-05-17,1,0.0016611821405926757,0.0018351592959686678,-0.006460469893247115,0.002418669018873778,0.9945883947014962
2011-05-19,1,0.0015548945053525023,0.0017109399887974008,-0.006460469893247115,0.005243448398613294,0.9939947917331664
2011-05-23,0,0.0,0.0,-0.006202753387053414,0.005243448398613294,0.9946589575241592
2011-05-25,0,0.0,0.0,-0.006565786556265495,0.005243448398613294,0.9939757351245256
2011-05-27,0,0.0,0.0,-0.006565786556265495,0.0058730727286073914,0.9936825664006654
2011-06-01,0,0.0,0.0,-0.006460469893247115,0.006927645446934774,0.9939168454486438
2011-06-03,0,0.0,0.0,-0.00620956542073469,0.007289911354566239,0.9933217702791207
2011-06-07,0,0.0,0.0,-0.00620956542073469,0.006927645446934774,0.9936738039526835
2011-06-09,0,0.0,0.0,-0.004690150943905812,0.005989422884225536,0.9938447477158785
2011-06-13,0,0.0,0.0,-0.004719304628933481,0.007081672471338167,0.9933400557040587
2011-06-15,0,0.0,0.0,-0.004745581240558742,0.007081672471338167,0.9935083741650702
2011-06-17,0,0.0,0.0,-0.006701976778649519,0.005519369170101028,0.9938075118409958
2011-06-21,1,0.0007926851294320784,0.0008502973129638275,-0.006701976778649519,0.006212862869704953,0.9933618257425405
2011-06-23,1,0.00023524999047669042,0.00024647767928254156,-0.004428072547923983,0.008056870761549765,0.9933442941031827
2011-06-27,1,0.0002265915182937384,0.0002361397566417491,-0.005644994656497346,0.006212862869704953,0.9931485375027065
2011-06-29,1,5.800636096800531e-05,0.00011130063066009145,-0.006701976778649519,0.005519369170101028,0.9930627625101857
2011-07-01,0,0.0,0.0,-0.007177827553010439,0.005190111805791837,0.9934880330839143
2011-07-06,0,0.0,0.0,-0.008147430705114256,0.005190111805791837,0.992841571761538
2011-07-08,0,0.0,0.0,-0.009778564862957532,0.005190111805791837,0.991103498081552
2011-07-12,1,0.000533327675193075,0.000578621367471064,-0.009778564862957532,0.005190111805791837,0.9877447214113328
2011-07-14,0,0.0,0.0,-0.010357710459971328,0.006508327568748265,0.9855332106666671
2011-07-18,0,0.0,0.0,-0.010357710459971328,0.010254736727582661,0.9844088701672886
2011-07-20,1,0.34542084037399,0.3567871842359906,-0.010357710459971328,0.011630865908479242,0.7396359697927515
2011-07-22,1,0.00010791589464269092,0.00019608844044944414,-0.010551709829178286,0.002872623046533046,0.9840885175279341
2011-07-26,0,0.0,0.0,-0.010551709829178286,0.012650137761317768,0.9834244552887712
2011-07-28,0,0.0,0.0,-0.010725023168001259,0.015395888215980943,0.982174791953831
2011-08-01,0,0.0,0.0,-0.010725023168001259,0.016213695114342314,0.9816444177237819
2011-08-03,0,0.0,0.0,-0.010551709829178286,0.016213695114342314,0.9823797681780964
2011-08-05,0,0.0,0.0,-0.010551709829178286,0.015480508843448731,0.9835931704671803
2011-08-09,-1,-0.0021723589010609516,-0.001881734341902717,-0.008076618251488926,0.015480508843448731,0.9864970621009226
2011-08-11,-1,-0.001161718675951465,-0.0009792836747740817,-0.008076618251488926,0.012405742337686576,0.988115142516435
2011-08-15,-1,-0.00051827121759273,-0.0004036204717323455,-0.008076618251488926,0.009950419658490937,0.9889141733284743
2011-08-17,0,0.0,0.0,-0.008076618251488926,0.010445340487704955,0.9887762784922769
2011-08-19,0,0.0,0.0,-0.0055134459664497315,0.010445340487704955,0.9894892616656562
2011-08-23,1,0.00023300556727680197,0.0002365359147601403,-0.006896346988840261,0.009007340041890797,0.9896445755984774
2011-08-25,1,0.00022276405344361956,0.00023935785452491897,-0.006896346988840261,0.009007340041890797,0.9893495847890658
2011-08-29,1,0.0005035840402812576,0.0005404221553630369,-0.006896346988840261,0.008381063621935449,0.9902254480106387
2011-08-31,1,0.00042923931052885257,0.0004359637513610795,-0.007534601227531213,0.009007340041890797,0.9891010476810961
2011-09-02,-1,-0.0006353243754820728,-0.0004880007644371858,-0.0071616831508487504,0.009007340041890797,0.989405548793908
2011-09-07,-1,-0.0002356097293829314,-0.0001347057303052264,-0.008465242540184317,0.008636793216858453,0.9891300123440457
2011-09-09,-1,-0.0012832893971143414,-0.001051633464734087,-0.006876534429528826,0.009007340041890797,0.9890769206079236
2011-09-13,-1,-0.0005951294239904413,-0.00045672154915164814,-0.008465242540184317,0.00978831225774835,0.9886558651051263
2011-09-15,1,0.00016425947744892833,0.00019864080068698488,-0.008465242540184317,0.008305294914412044,0.9892550067121736
2011-09-19,1,0.000562982375740563,0.0006160117737817678,-0.008465242540184317,0.008305294914412044,0.9889609804741922
2011-09-21,1,0.000682440818675327,0.0007758463834785631,-0.006876534429528826,0.010184769807538557,0.9892863305287127
2011-09-23,0,0.0,0.0,-0.005837917583970856,0.010184769807538557,0.990415246632813
2011-09-27,0,0.0,0.0,-0.006876534429528826,0.01043553995748779,0.9889317375392312
2011-09-29,0,0.0,0.0,-0.005837917583970856,0.01043553995748779,0.9889185239209073
2011-10-03,0,0.0,0.0,-0.00736114940708177,0.01043553995748779,0.9882348995532355
2011-10-05,1,0.0009048703431167378,0.001042415847517577,-0.00736114940708177,0.0120238450406101,0.9875400038326235
2011-10-07,1,0.0017721960074699092,0.0020316369197146745,-0.00736114940708177,0.011379388614010841,0.9882893618303477
2011-10-11,1,0.0016966600795429347,0.0019448544907864557,-0.0028396137597871403,0.01043553995748779,0.9892535699297554
2011-10-13,1,0.0013392489273810378,0.0015070179194032708,-0.00736114940708177,0.011379388614010841,0.987268591137581
2011-10-17,1,0.0012281848523690339,0.0013817447293533994,-0.01355520432456937,0.013399849851527564,0.9861325702237138
2011-10-19,1,0.0017400918183295856,0.0019514051780679077,-0.01355520432456937,0.013399849851527564,0.9861792046852946
2011-10-21,1,0.00214779754747959,0.0024021762184484336,-0.01355520432456937,0.011075820731114915,0.9860835464401861
2011-10-25,1,0.0014399657994024504,0.0015827043043351052,-0.012811330674648479,0.010459179515855031,0.9862628214513559
2011-10-27,1,0.0020255065879880487,0.00224472270279712,-0.012811330674648479,0.010388088825085226,0.9865117469593464
2011-10-31,1,0.0009176433031782039,0.000987564280948212,-0.010027606332926054,0.011457056280166383,0.9874914235137576
2011-11-02,1,0.0010398889287546787,0.0011232201110657279,-0.008969447437982803,0.011457056280166383,0.9887147235445055
2011-11-04,1,0.0012282393338909961,0.0013174767151109229,-0.009123350504105513,0.009868484861203022,0.9888905015663715
2011-11-08,1,0.0020172099510079103,0.002246693007365897,-0.009123350504105513,0.009868484861203022,0.9892086344535423
2011-11-10,1,0.0017038711167601656,0.0018922631534466073,-0.009123350504105513,0.009868484861203022,0.9898508023712538
2011-11-14,1,0.0010819206613345558,0.001152484048695009,-0.009123350504105513,0.009103479234096167,0.9906187458048605
2011-11-16,1,0.0011647709654613418,0.0012637978712772735,-0.009872542891997049,0.00945980171912322,0.9897087714957097
2011-11-18,1,0.0012491971721336407,0.001373038147716262,-0.009872542891997049,0.008565750943336718,0.9900484261271941
2011-11-22,1,0.0008357673830945258,0.0009446876774236535,-0.005654808538548592,0.012038689443591839,0.9901604265360572
2011-11-25,1,0.0009051712550718128,0.0010018896208537382,-0.0020016111100111715,0.011131330037425998,0.9908691034282362
2011-11-29,1,0.0013931376408641777,0.0015558583342964289,-0.004331984706383466,0.011733513160203456,0.9908287184850418
2011-12-01,1,0.0017128663457498176,0.0019105907412681786,-0.005654808538548592,0.008759628664478537,0.9912779980550717
2011-12-05,1,0.0011955989064876581,0.0012926442348767,-0.005737638896391506,0.008759628664478537,0.9909079781418461
2011-12-07,1,0.0009850449071107208,0.0010454919653691535,-0.00558542668356398,0.008759628664478537,0.9906682743696256
2011-12-09,1,0.0013791182506676684,0.00152420655961764,-0.004281247302107624,0.007726215734189039,0.9921898111174177
2011-12-13,1,0.0011928645988208426,0.0013220182756321596,-0.004281247302107624,0.007726215734189039,0.9925059784979484
2011-12-15,1,0.001419415930398181,0.0015570455421129482,-0.0039055112595714238,0.007360681289931796,0.9940378118745464
2011-12-19,1,0.0014889012904577648,0.0016054802507939228,-0.004281247302107624,0.005947468962413154,0.9940819024456301
2011-12-21,1,0.002147680399364399,0.0023270389707801863,-0.004281247302107624,0.003509897906872369,0.994772729970338
2011-12-23,1,0.0018341350178021577,0.0019298907494065018,-0.004486694769650394,0.003509897906872369,0.9938448915257886
2011-12-28,1,0.0017035851355364127,0.001759153998114765,-0.00574555003268943,0.003509897906872369,0.9935967738204469
2011-12-30,1,0.0009012734574389209,0.0009723679626702248,-0.005541978729471304,0.0027765039852919123,0.9942266212981424
2012-01-04,1,0.0011435058243634685,0.0012098803612573257,-0.004486694769650394,0.004677953815631664,0.9944950281888807
2012-01-06,1,0.001252891085445362,0.0013466250213812385,-0.004078331566229483,0.004769747787761486,0.9946262262052059
2012-01-10,1,0.0011082992977034113,0.001170810596654716,-0.005541978729471304,0.005946862528031166,0.993917919809011
2012-01-12,1,0.0004204658960210864,0.00048160595052899495,-0.005541978729471304,0.005946862528031166,0.9937759646352304
2012-01-17,1,0.0009930789677156167,0.001077566814020141,-0.005541978729471304,0.005946862528031166,0.9940183858791486
2012-01-19,1,0.0004136229490099059,0.00044188755291660136,-0.002043312308941114,0.005946862528031166,0.9941918559596431
2012-01-23,1,0.0007965881817070925,0.0008359898948026472,-0.005315215477263149,0.005946862528031166,0.9940623169141213
2012-01-25,1,0.0012705623961519336,0.0013734429114581157,-0.0020349891478248197,0.0038750704828194146,0.9953250648396953
2012-01-27,1,0.00029258459674995764,0.00034384669196293506,-0.0015988906129612026,0.0029886853764078784,0.996154123260568
2012-01-31,1,0.00020841216984264152,0.0002696265199033836,-0.002483764188479136,0.0029886853764078784,0.9962408104170289
2012-02-02,1,8.793038111907245e-05,0.00020623229770672623,-0.002483764188479136,0.002609927768516722,0.9966543384704173
2012-02-06,1,0.00047466191897577783,0.0005162823511518779,-0.002483764188479136,0.0021840982554006743,0.9967516959284761
2012-02-08,1,0.0006884897855476469,0.0006933508501611051,-0.002340918263474676,0.002609927768516722,0.9967721120208027
2012-02-10,1,0.0002356423529376461,0.0002990182304199356,-0.0014618512330861466,0.0029886853764078784,0.9968700847203881
2012-02-14,1,0.00012666899343474503,0.00021289985252365384,-0.002340918263474676,0.0029886853764078784,0.9960556023659316
2012-02-16,1,0.00014528011732675727,0.00017957506938392234,-0.002483764188479136,0.0027096174921594283,0.9958996560898423
2012-02-21,-1,-0.0002070502708198426,-0.000115606193639996,-0.002483764188479136,0.0027096174921594283,0.9958889752110484
2012-02-23,1,0.00014292577906003558,0.00017838404349839127,-0.002483764188479136,0.002578891413418832,0.996003304724474
2012-02-27,-1,-0.00036539596520154447,-0.00024201300051201764,-0.002340918263474676,0.0033509990616926973,0.9953853460865549
2012-02-29,-1,-0.0005360438269059779,-0.0003997030472115461,-0.0021024853871201444,0.00500702957741727,0.9949085236100321
2012-03-02,0,0.0,0.0,-0.0021024853871201444,0.00500702957741727,0.994789397478188
2012-03-06,0,0.0,0.0,-0.0009296364173186,0.005603656538246067,0.9946397479512546
2012-03-08,0,0.0,0.0,-0.003494774586674477,0.004208756740117756,0.9950005011480489
2012-03-12,0,0.0,0.0,-0.0039658061624169025,0.002777833282995397,0.9950628765935461
2012-03-14,0,0.0,0.0,-0.003494774586674477,0.0035762327796526458,0.995376342253761
2012-03-16,0,0.0,0.0,-0.003559285145360359,0.004208756740117756,0.9947676246636314
2012-03-20,1,0.0001122593386631486,0.00017135441221959125,-0.0012768504207794928,0.005128902285731479,0.9948058413444584
2012-03-22,1,0.00020064252629245721,0.0002424361119582054,-0.00347293223309691,0.006174760733034835,0.9940903218700922
2012-03-26,0,-3.3561090841631024e-05,7.739811240622973e-05,-0.0037421758339373974,0.005912731481766354,0.9942658558437136
2012-03-28,0,-4.302099336524315e-05,7.879993433614069e-06,-0.00347293223309691,0.006174760733034835,0.9941746727611958
2012-03-30,1,0.0003555363315179061,0.0003653375989331625,-0.00347293223309691,0.006801531171656977,0.9939523432268098
2012-04-03,1,0.0006155215285917758,0.0006757601823930244,-0.004086701218147632,0.006801531171656977,0.9937415593400786
2012-04-05,1,8.35665964895489e-05,0.00012801495090147158,-0.004086701218147632,0.006801531171656977,0.9936703347076123
2012-04-10,-1,-0.0004928971314598746,-0.0003708227391293898,-0.0038833275200923704,0.007286379314721515,0.9935039162043098
2012-04-12,1,9.12585106916419e-06,7.175155600958101e-05,-0.0038833275200923704,0.006801531171656977,0.9938651594526413
2012-04-16,1,0.000260240023344464,0.00029689533808815815,-0.003702873483725606,0.006801531171656977,0.9943130797291809
2012-04-18,-1,-0.0002542485198354053,-0.0001230854537983988,-0.003702873483725606,0.006244848346995263,0.994312441391266
2012-04-20,1,0.00023323381275225572,0.0002895655870355714,-0.004629073186856997,0.005932656610058592,0.9943232602453951
2012-04-24,1,0.00016015950005572295,0.0002153279118966972,-0.003968794167512258,0.006244848346995263,0.9942836056766559
2012-04-26,1,0.0008422316250317552,0.0008991394354199811,-0.0044663552850846035,0.006244848346995263,0.9944767876020921
2012-04-30,1,0.0010512824801552582,0.0011213449869391188,-0.0044663552850846035,0.005223293356898058,0.9947053517778479
2012-05-02,1,0.0005955311886735165,0.0006036799981572547,-0.004092048292189567,0.005776311383152304,0.9936607354360777
2012-05-04,1,0.0006537240994719381,0.000672313162245019,-0.0025717814143766046,0.005776311383152304,0.9940636842481105
2012-05-08,1,0.0007687496029651972,0.0007820637350070385,-0.0015279247141078863,0.005776311383152304,0.9941803371369341
2012-05-10,1,0.00098360426880546,0.001045693146504204,-0.0015279247141078863,0.0064471943017590915,0.9941992279717062
2012-05-14,1,0.001212045309439395,0.0013143286362627537,-0.0015279247141078863,0.0064471943017590915,0.9941783808409551
2012-05-16,1,0.0015563250756519134,0.0017478191408103496,-0.0011074789967287174,0.0064471943017590915,0.9945084088335685
2012-05-18,1,0.0010240500539405912,0.0011443504984006057,-0.00044995591294352214,0.007274383588920122,0.9949080031227258
2012-05-22,1,0.001526354715747403,0.0017199170651023463,-0.0011074789967287174,0.0064471943017590915,0.9945666901018576
2012-05-24,1,0.0016403654172563145,0.001843975279788523,-0.0011074789967287174,0.005666728426852577,0.9945813568737474
2012-05-29,1,0.001378132497347364,0.0015286916403802573,-0.0011074789967287174,0.006629825035495756,0.9944949903715475
2012-05-31,1,0.0016094230631923069,0.0017887672508881255,-0.0011074789967287174,0.006629825035495756,0.9952378047510106
2012-06-04,1,0.0013251786908442596,0.001463814813495235,-0.001022619116234344,0.007822275790130116,0.9947751040238779
2012-06-06,1,0.0016899695812610162,0.0018670500410937194,-0.0015056321677364252,0.006629825035495756,0.99485108005404
2012-06-08,1,0.001790652997969447,0.001971324786725826,-0.0015056321677364252,0.0060400920454848515,0.9949195808452799
2012-06-12,1,0.0018225127842722406,0.001998981507481421,-0.0015056321677364252,0.005109995383718254,0.9951446888104462
2012-06-14,1,0.001721591472911959,0.0018879023987780374,-0.0015056321677364252,0.0060400920454848515,0.9946466029181733
2012-06-18,1,0.002042369906378746,0.002274795599948476,-0.0022369412423646675,0.005109995383718254,0.9948594694285904
2012-06-20,1,0.0014868767943468876,0.0016038647355935934,-0.0015056321677364252,0.0060400920454848515,0.995058576756574
2012-06-22,1,0.001301415037731032,0.001377028975358702,-0.0015056321677364252,0.005679936665687497,0.9949261708682914
2012-06-26,1,0.001707892980895187,0.001857226457267866,-0.002553429800179014,0.004785267312043678,0.9942050866314998
2012-06-28,1,0.002108339037954363,0.0023148171424713085,-0.002553429800179014,0.006148673050949703,0.9940656567253126
2012-07-02,1,0.002411338956085129,0.002655908495926322,-0.004607546790866891,0.004785267312043678,0.9942530604898194
2012-07-05,1,0.002078447532962714,0.00224161190379384,-0.006732660157255595,0.004785267312043678,0.9935564379134905
2012-07-09,1,0.0019209472726894393,0.0020666308823158886,-0.006732660157255595,0.006148673050949703,0.9933243202655925
2012-07-11,1,0.0021942997977888235,0.002368738699958324,-0.0074116997761630365,0.0059439967725409115,0.9924481910476706
2012-07-13,1,0.0024641994115334105,0.002655458287818207,-0.008535725672908097,0.0027588557790733334,0.9920942518757501
2012-07-17,1,0.0022824575950924765,0.002454637385733267,-0.008535725672908097,0.0016627353019185406,0.9919311308346075
2012-07-19,0,0.0,0.0,-0.008918469498444378,0.0003098082630033407,0.992965565159075
2012-07-23,0,0.0,0.0,-0.008535725672908097,0.0014480841089551798,0.9933408526409414
2012-07-25,0,0.0,0.0,-0.0074116997761630365,0.002289288472743992,0.9938268836626183
2012-07-27,0,0.0,0.0,-0.008535725672908097,0.0014480841089551798,0.9940733652395946
2012-07-31,1,0.0013679653676509046,0.001417099910122452,-0.008535725672908097,0.0007006457540219553,0.9937776589357048
2012-08-02,1,0.0009333592353302637,0.0009466692459753339,-0.004659648878562654,0.0007006457540219553,0.9947991384986571
2012-08-06,1,0.0009228105718085975,0.0009459180246772243,-0.0046712969692384275,0.0005194940823655805,0.994551576660498
2012-08-08,1,0.00030187768873486215,0.0004058947720659455,-0.003924366694854362,0.0009094968109637724,0.9954391987340084
2012-08-10,-1,-0.00024939677621713813,-7.693759405890646e-05,-0.0046712969692384275,0.0009094968109637724,0.9952343059020984
2012-08-14,-1,-0.0006270444378619221,-0.0004072555341252754,-0.004786890399730341,0.0009094968109637724,0.9950590037277532
2012-08-16,-1,-0.0009405905289283291,-0.0006938148282861283,-0.004786890399730341,0.0027339904047358173,0.9945902705090454
2012-08-20,-1,-0.0010045354841134685,-0.0007353810125876546,-0.007388908338837498,0.0015688499359189584,0.9942331474018029
2012-08-22,-1,-0.0009144931933573238,-0.0006669495353899426,-0.007388908338837498,0.00013027916367287152,0.9946181065822786
2012-08-24,-1,-0.0011622311244505166,-0.0008944963662172714,-0.006250133771925932,0.00013027916367287152,0.9948657410913868
2012-08-28,-1,-0.0016026967362043165,-0.0012622919545324518,-0.006250133771925932,0.006002442572021058,0.9943067204157714
2012-08-30,-1,-0.002339813976458621,-0.0018776738719737498,-0.007388908338837498,0.006565794685023192,0.9936969967706248
2012-09-04,-1,-0.0018195709117110128,-0.0014427753289056268,-0.007388908338837498,0.006002442572021058,0.9943120691957567
2012-09-06,-1,-0.001535925585458849,-0.0012064018399145847,-0.007388908338837498,0.006110145495599865,0.9939552939027897
2012-09-10,-1,-0.0023874694976637866,-0.0019635445636302052,-0.0046573074040777394,0.006110145495599865,0.9940328738470384
2012-09-12,-1,-0.002717651136743429,-0.0022778645559524352,-0.002486153932408991,0.006110145495599865,0.9942838112987815
2012-09-14,-1,-0.0028886380477710716,-0.0024285792637253607,-0.0016979537524403033,0.005963090282805956,0.9949091207236556
2012-09-18,-1,-0.00298110144353223,-0.0025235794992976464,-0.001052065310699084,0.006110145495599865,0.9942464933490162
2012-09-20,-1,-0.002613283322215715,-0.002229741180128071,-0.001052065310699084,0.006110145495599865,0.9942588611055787
2012-09-24,-1,-0.002539934320869881,-0.0021385225939693033,-0.0011860368680120682,0.005963090282805956,0.9946054350203343
2012-09-26,-1,-0.0021451216213399416,-0.0017904319876446534,-0.004926595732385916,0.004726467762952729,0.9951982022283661
2012-09-28,-1,-0.001965187805235802,-0.0016442995025808928,-0.0022207762022002815,0.004691211440183706,0.995477117582748
2012-10-02,-1,-0.0019288193850766334,-0.001613367743064767,-0.0018737709082070867,0.005354425765744255,0.9947364097011571
2012-10-04,0,0.0,0.0,-0.004869295385019716,0.00422372495987162,0.9944923534171449
2012-10-08,0,0.0,0.0,-0.007005536038418397,0.004045613284051919,0.9938678145930417
2012-10-10,0,0.0,0.0,-0.007312138769455848,0.004045613284051919,0.9931292148482513
2012-10-12,-1,-0.0014618214933065626,-0.0012177498086284318,-0.007312138769455848,0.004433044294135461,0.9928431957129883
2012-10-16,-1,-0.0009395251087777959,-0.000760395665985142,-0.008037536011834115,0.0034816835237320405,0.99272979952944
2012-10-18,-1,-0.0007329535419048627,-0.0005905337321584819,-0.008037536011834115,0.004340988333665176,0.9921281898113352
2012-10-22,0,0.0,0.0,-0.007475102416752229,0.004340988333665176,0.9923960816781054
2012-10-24,0,0.0,0.0,-0.007186575889980726,0.005440074147296677,0.9924972024235845
2012-10-26,0,0.0,0.0,-0.007186575889980726,0.00622873250489277,0.9921892477317599
2012-11-01,0,0.0,0.0,-0.007186575889980726,0.00695253622444627,0.9922597362920542
2012-11-05,0,0.0,0.0,-0.007186575889980726,0.00695253622444627,0.992876863823684
2012-11-07,0,0.0,0.0,-0.005580214470378422,0.007207586970338004,0.9925766792339356
2012-11-09,0,0.0,0.0,-0.005252354634519674,0.007207586970338004,0.9928954117710512
2012-11-13,-1,-0.0015980069912051257,-0.0014139976890621092,-0.005252354634519674,0.00695253622444627,0.9934029250054811
2012-11-15,-1,-0.002363306610556713,-0.0020903603509603505,-0.005252354634519674,0.00695253622444627,0.9935808292719284
2012-11-19,-1,-0.0015009532572835714,-0.0013505689944863465,-0.005252354634519674,0.007207586970338004,0.9930794972764847
2012-11-21,-1,-0.0013415793616049832,-0.0012346611606376015,-0.006041861825919549,0.007207586970338004,0.9927324811219727
2012-11-26,-1,-0.0009732715331986256,-0.0009321754691924186,-0.005252354634519674,0.007207586970338004,0.9932008973606916
2012-11-28,-1,-0.00048200418163781575,-0.0004765618155726366,-0.006041861825919549,0.004750378280955059,0.9932251436082714
2012-11-30,1,0.00015862270583483543,0.0002612290728580687,-0.006757388340050506,0.0021940823013673525,0.9929332755420656
2012-12-04,0,0.0,0.0,-0.006041861825919549,0.005046221382708409,0.9924422250419471
2012-12-06,1,0.0007357429721285482,0.0009729299708222839,-0.006757388340050506,0.003391797747489815,0.9929465995105484
2012-12-10,1,0.0006716091757970552,0.0008956504200463564,-0.006757388340050506,0.002010161763947961,0.9931142286052734
2012-12-12,1,0.0009252114693004774,0.0012082506377815937,-0.006757388340050506,0.008020758509712754,0.9922474444531281
2012-12-14,1,0.00038378508523575073,0.0005712211422087998,-0.0034730502615078337,0.008020758509712754,0.9929723759749323
2012-12-18,1,0.001049540231510644,0.0012925970245805001,-0.00552609563311666,0.0035204540340851584,0.9934414444219295
2012-12-20,1,0.0011592783675091608,0.001474306140409776,-0.0034730502615078337,0.005362644049249485,0.993434439078771
2012-12-24,1,0.0009505017837471197,0.001224528475767731,-0.0030648070014290822,0.005362644049249485,0.9937246361025119
2012-12-27,1,0.00020882645105350456,0.00035121739073421513,-0.0030648070014290822,0.005681399846057349,0.9938287769670645
2012-12-31,0,0.0,0.0,-0.000991575453922471,0.0071961450996839375,0.9938681108891401
2013-01-03,0,0.0,0.0,-0.0003259181386559655,0.007351764159267683,0.9942552324283024
2013-01-07,0,0.0,0.0,-0.0003259181386559655,0.007351764159267683,0.9945120766144963
2013-01-09,0,0.0,0.0,0.00031299452118700624,0.007351764159267683,0.9944701546889029
2013-01-11,1,0.0007076952465491977,0.0008498458905268258,0.00031299452118700624,0.006970670637710459,0.9958167861015107
2013-01-15,1,0.000832853367715337,0.000999482214278795,-0.0007580306696018161,0.006970670637710459,0.9954820568357986
2013-01-17,1,0.0008114196476132476,0.000977107808645351,-0.0007580306696018161,0.007074972878147326,0.995139468672537
2013-01-22,1,0.0012827063601287985,0.0014889022353281735,-0.002055616214465106,0.007074972878147326,0.9952827889472249
2013-01-24,0,0.0,0.0,-0.002055616214465106,0.007074972878147326,0.9946429142414867
2013-01-28,0,0.0,0.0,-0.002055616214465106,0.007074972878147326,0.9947388097616812
2013-01-30,0,0.0,0.0,-0.002055616214465106,0.007404512736510577,0.9944855487255053
2013-02-01,0,0.0,0.0,-0.002055616214465106,0.00732753750779026,0.9947766153169173
2013-02-05,1,0.0017462494557615857,0.001992392112665584,-0.002055616214465106,0.00732753750779026,0.9948505218019901
2013-02-07,0,0.0,0.0,-0.002681295014729924,0.007516322572881476,0.993988937292202
2013-02-11,0,0.0,0.0,-0.002792460443522595,0.007516322572881476,0.9937566244280186
2013-02-13,1,0.0011913896179953152,0.0012843196222073448,-0.0020926713573959964,0.007516322572881476,0.9940557801597893
2013-02-15,1,0.001074112289065199,0.001144513908724644,-0.0020926713573959964,0.006498736657912034,0.9945088239453312
2013-02-20,1,0.0014502929992524618,0.0015957586344902122,-0.0018662068932372754,0.006498736657912034,0.9946582218842557
2013-02-22,0,0.0,0.0,-0.0020483827896362094,0.006174163990885157,0.9947317193221211
2013-02-26,0,0.0,0.0,-0.0020483827896362094,0.007516322572881476,0.9943499737949153
2013-02-28,0,0.0,0.0,-0.0020483827896362094,0.006174163990885157,0.9941951058368789
2013-03-04,0,0.0,0.0,-0.0029453698556331388,0.004532291012059616,0.994294820870404
2013-03-06,1,0.0024319216476028343,0.002734725578829883,-0.002361078773923185,0.004532291012059616,0.9943872267731361
2013-03-08,1,0.0022680165952180488,0.0025419013049590615,-0.0020346861214150785,0.004966580709602542,0.994911048442376
2013-03-12,1,0.002253374263953522,0.002521451528900167,-0.0020346861214150785,0.004310395613007837,0.9949137765884025
2013-03-14,1,0.002342236747540199,0.0026452472001406895,-0.0020346861214150785,0.005500609941571713,0.9948659928322703
2013-03-18,1,0.0020825129967457384,0.0023512176697371703,-0.0020346861214150785,0.008080457313921336,0.9940531750630638
2013-03-20,1,0.0019423350039533063,0.0021650772834712023,-0.0027445500913780285,0.005500609941571713,0.993783804816631
2013-03-22,1,0.0016814358261861223,0.0018356168708621487,-0.0027445500913780285,0.008207935587077131,0.993271461697671
2013-03-26,1,0.0019888514576591847,0.002195303423828774,-0.0009308112020231727,0.005500609941571713,0.9939294032239948
2013-03-28,1,0.0029318741700685175,0.003281813547675159,-0.00238355771584543,0.004613484355649056,0.994821661939815
2013-04-02,1,0.0020993740315178597,0.0022874729455070273,-0.0009308112020231727,0.008207935587077131,0.9943910396988589
2013-04-04,1,0.001797036347567353,0.0019226167619446483,-0.0014687457118138787,0.008207935587077131,0.9936570957873903
2013-04-08,1,0.0018802544460231607,0.00197481779236516,-0.0028530769218081562,0.006321027440676251,0.993001893528232
2013-04-10,1,0.0019621661718667387,0.0020882969020357945,-0.004017883027933208,0.00916400397322328,0.9925316730114644
2013-04-12,1,0.0018739923081381525,0.001937115211250334,-0.008990413666927972,0.006457267924066184,0.9919470842035752
2013-04-16,1,0.0017913302054563076,0.001867277598542441,-0.00858432995652526,0.005818468071495966,0.9925153835427537
2013-04-18,1,0.0012673931605447176,0.0012777808138359466,-0.007311632379978825,0.0076609417247480455,0.9922784436552141
2013-04-22,1,0.0018120140856313824,0.0018870238310391679,-0.00858432995652526,0.0076609417247480455,0.9920482696666704
2013-04-24,1,0.0021615625999013934,0.0023057022112768907,-0.00896363524898418,0.0076609417247480455,0.9913062906672381
2013-04-26,1,0.002279601537874463,0.0024638393929573366,-0.010171430618596773,0.0076609417247480455,0.990365498623327
2013-04-30,1,0.002319292857677253,0.002454371808560165,-0.011039035110088347,0.0054510588739203215,0.9895960773808363
2013-05-02,1,0.001917734965338334,0.002034312060767657,-0.010171430618596773,0.0054510588739203215,0.9901781310654524
2013-05-06,1,0.001372689290567468,0.001407053152405114,-0.010086310524123829,0.005569882455557661,0.9908536149687096
2013-05-08,1,0.00126662012123002,0.0012773305104229792,-0.010171430618596773,0.005569882455557661,0.9905358510267751
2013-05-10,1,0.00027216686801444104,0.0004082481347739433,-0.010086310524123829,0.005981278118629361,0.991175440365749
2013-05-14,1,0.000577581034497453,0.0006388291882337098,-0.010171430618596773,0.005569882455557661,0.9909031633890442
2013-05-16,1,0.00014723653125905132,0.0002892612960533733,-0.010171430618596773,0.005569882455557661,0.9909676973177662
2013-05-20,0,-0.00012657652247337564,6.526378497746766e-05,-0.010171430618596773,0.005557223015527896,0.9915725055519631
2013-05-22,-1,-0.0010091592349591968,-0.000674678359582755,-0.010396008866222346,0.00483747901696243,0.9899345271466035
2013-05-24,-1,-0.0017130394921707,-0.0013212656641769887,-0.007079606600751568,0.0055978838337124495,0.9899500356994883
2013-05-29,-1,-0.002455364858067898,-0.002001542559638789,-0.005656649843328113,0.008100538868106341,0.9898018940670182
2013-05-31,-1,-0.0026908268458675465,-0.0021999660286537125,-0.005418833611467129,0.008100538868106341,0.9896425030569824
2013-06-04,-1,-0.0029598152001624875,-0.0024318135338182376,-0.006889779751508694,0.008100538868106341,0.9891308337863286
2013-06-06,-1,-0.002420374265553378,-0.0019914520873893513,-0.0039431701807646925,0.007176360811214148,0.9903508308823219
2013-06-10,-1,-0.00238453755119007,-0.001958064391696258,-0.0036249443234430026,0.010647384230141423,0.9893275682598773
2013-06-12,-1,-0.003227495696407787,-0.0026930907797930795,-0.0003681491231845405,0.011590153032529079,0.9882338287002217
2013-06-14,-1,-0.0021343210707316794,-0.0017587407989525779,-3.041445365194553e-06,0.011590153032529079,0.9888115899195095
2013-06-18,-1,-0.0018641566501566066,-0.0015159889925976384,-0.00144216960270825,0.011590153032529079,0.9894090842185054
2013-06-20,-1,-0.00411950211277223,-0.003503330216819841,-0.0007916130635682666,0.011872088189747462,0.9898966192258974
2013-06-24,-1,-0.0030782845073273613,-0.0026150001294617782,-0.0007916130635682666,0.011394851474343326,0.9910061888404366
2013-06-26,-1,-0.002036641663616599,-0.00172033341430143,-0.0009885152694172961,0.010068694392353961,0.9917533184480483
2013-06-28,-1,-0.0018032534206169843,-0.001506928397737061,-0.0016078380224132018,0.010068694392353961,0.9919348236521651
2013-07-02,0,0.0,0.0,-0.0016078380224132018,0.010068694392353961,0.9927545107261296
2013-07-05,0,0.0,0.0,-0.0009885152694172961,0.010068694392353961,0.9923610303717285
2013-07-09,-1,-0.0014619218815240947,-0.0012000758335973982,-0.004237013723710188,0.008445698607462616,0.9929088843562324
2013-07-11,-1,-0.0007911503781373418,-0.00060278952163678,-0.004237013723710188,0.005924732905522279,0.9940621932563113
2013-07-15,1,7.90446165798695e-05,0.00015384459159203926,-0.0048268990607495,0.003982117892144788,0.9942192028459294
2013-07-17,-1,-0.0001543372273508113,-6.172426202484803e-05,-0.006236368817379918,0.003982117892144788,0.9938765786123693
2013-07-19,1,0.00017338880802050504,0.00022820561166647663,-0.007383876254803843,0.0036881938539916016,0.9933100071241927
2013-07-23,1,0.0008492202588273437,0.0009183280747745129,-0.007724426545472474,0.0034874313087307086,0.9928301937169415
2013-07-25,1,0.000834547886679287,0.0009208392674237953,-0.007724426545472474,0.0034874313087307086,0.9929505219424026
2013-07-29,1,0.0005689621461907383,0.0006064755105461336,-0.008044549991403119,0.004093919563941929,0.9922897552225031
2013-07-31,1,0.0006071564754956064,0.0006419061647562499,-0.008044549991403119,0.004039639977473159,0.9926125371828854
2013-08-02,1,0.0009835216601200394,0.001071579580832138,-0.008044549991403119,0.002853692233875899,0.9924841958050119
2013-08-06,1,0.0004777745739501805,0.0004896438769996623,-0.00972928046724672,0.002853692233875899,0.9920061866438868
2013-08-08,1,0.00033888917561232686,0.0003582951983421289,-0.00972928046724672,0.001842023044234481,0.9919657285923428
2013-08-12,-1,-0.0001849944720189505,-0.00011542925773929053,-0.008174521383285192,0.005040397095965049,0.9926307866888064
2013-08-14,-1,-0.0006984682558325312,-0.0005735588628521175,-0.008202618987379057,0.005040397095965049,0.992807131668628
2013-08-16,-1,-0.0014123709058336546,-0.0012175225794963055,-0.007804655312624472,0.005638050818966776,0.9934512147975891
2013-08-20,-1,-0.0008316541035658045,-0.0007526369213678914,-0.005750622355538403,0.005638050818966776,0.9924218200692787
2013-08-22,-1,-0.0012492684192657124,-0.0011064508800752919,-0.005750622355538403,0.004955128372761426,0.9928617290846932
2013-08-26,-1,-0.0013881561194634784,-0.0012328810369516417,-0.004368414737183499,0.004955128372761426,0.9931235550433063
2013-08-28,-1,-0.0007280817462972125,-0.0006767342357396907,-0.005750622355538403,0.004005731453965278,0.99296135074348
2013-08-30,-1,-0.0006328797550442921,-0.0005924488758575375,-0.007943992572537834,0.002821419334039013,0.9928237948087342
2013-09-04,-1,-0.001326726681571683,-0.0012259838649389956,-0.00275787140902044,0.003161669123540123,0.9936326017059398
2013-09-06,-1,-0.0015644467528222212,-0.0014260140348233976,-0.005759988223569691,0.003161669123540123,0.9928989554745111
2013-09-10,-1,-0.0013311283423793386,-0.0012083635500678923,-0.00647289455717322,0.003161669123540123,0.9927437667698058
2013-09-12,-1,-0.0014547376307081133,-0.0013463866877267475,-0.00296247218586397,0.00420494936163252,0.9921676009634918
2013-09-16,-1,-0.0008219711071275991,-0.0008082571676466801,-0.0070714842955681215,0.004694589729486175,0.9916749516419037
2013-09-18,1,0.00054421469930124,0.0007114953439950235,-0.010439557291701127,0.004300746826106099,0.9923780578314433
2013-09-20,1,0.00035902699143024457,0.0005529484173065675,-0.0070714842955681215,0.00803972303349368,0.9922569788412077
2013-09-24,1,0.0007058489271724987,0.000915485496108941,-0.0070714842955681215,0.00803972303349368,0.9923148997737234
2013-09-26,1,0.00015554809273757243,0.00027196653137446055,-0.0029093518883896385,0.00803972303349368,0.9926918560162096
2013-09-30,0,-2.9122911138119783e-05,6.968465897065493e-05,-0.002176479227503216,0.00987885388467322,0.9925817278883723
2013-10-02,0,-3.624861859442382e-05,3.1371723071892354e-05,-0.003774544701361126,0.00987885388467322,0.992150139552379
2013-10-04,-1,-0.00041306785733811807,-0.00039685821117432427,-0.002176479227503216,0.00987885388467322,0.9924366359969131
2013-10-08,-1,-0.00020747519617506937,-0.00015378173550077476,-0.002176479227503216,0.00987885388467322,0.992699331626763
2013-10-10,1,0.0006316387961500341,0.0008022702874265125,-0.003935311103347448,0.007036914439647941,0.9931866853239727
2013-10-14,1,0.00045856613852218687,0.000587413345568188,-0.003935311103347448,0.005283754227329502,0.9937388318993319
2013-10-16,1,6.815957321747477e-06,3.3496337870258524e-05,-0.003935311103347448,0.004917815191140088,0.9933664103804735
2013-10-18,1,0.0001529463859137117,0.00015744811305338992,-0.003935311103347448,0.005283754227329502,0.9928656820942793
2013-10-22,1,0.0006983100459528452,0.0007547620068778813,-0.003935311103347448,0.004917815191140088,0.993707060777076
2013-10-24,1,0.0005585466347024755,0.0005998932273447028,-0.006606932967758322,0.004917815191140088,0.9933115911525952
2013-10-28,1,0.0008430302882688496,0.0009315313766939176,-0.006798672212377456,0.004257278251840823,0.993479315685336
2013-10-30,1,0.0004541514289393404,0.0004922919434551226,-0.006798672212377456,0.004917815191140088,0.9933733786824887
2013-11-01,1,0.00026058017233786886,0.0002856552937471537,-0.007453412187535381,0.004257278251840823,0.9931193434926211
2013-11-05,1,0.0003274422726822738,0.00034795958061149525,-0.006798672212377456,0.004257278251840823,0.9933373601462537
2013-11-07,1,0.0004769352415655861,0.0005411980086830344,-0.006789376888170096,0.004257278251840823,0.9926328488071073
2013-11-11,-1,-0.001025586506816507,-0.0007953740578347679,-0.007771952688029588,0.004257278251840823,0.991876120476104
2013-11-13,-1,-0.001232178029473749,-0.0010120927983703711,-0.0073417477190123965,0.003920282451801333,0.9927465372714319
2013-11-15,1,0.00033191044360037647,0.00033631167195956487,-0.0073417477190123965,0.0031880642872329705,0.9932779190204829
2013-11-19,1,0.0005242547773117551,0.0005680005336205693,-0.0073417477190123965,0.003920282451801333,0.9921807353227576
2013-11-21,-1,-0.0003111115599214456,-0.00021556632171444744,-0.007434892274433657,0.0044191223621693415,0.9919986464324928
2013-11-25,-1,-0.0005591390659322637,-0.00042807694190186325,-0.007430636019833272,0.004294627545827843,0.9922561288394102
2013-11-27,-1,-5.8898097405204634e-05,-3.5345684457695946e-05,-0.007074731348522002,0.0031880642872329705,0.9924606916818339
2013-12-02,-1,-3.778002739018724e-05,-1.6751097979596756e-05,-0.006455526806019287,0.0031880642872329705,0.9929517388518065
2013-12-04,1,0.0005760606283463062,0.0007274447973206704,-0.007074731348522002,0.0029138750283599817,0.9923484673039522
2013-12-06,1,0.0009340303666978409,0.0011141123010567644,-0.007430636019833272,0.0029138750283599817,0.9923130088850922
2013-12-10,1,0.00012834633941872467,0.00022569861493886673,-0.007074731348522002,0.0029138750283599817,0.9933349520895233
2013-12-12,1,0.0002441194280237729,0.00037934687909073654,-0.007129901382817041,0.004175400239844004,0.9924788253800253
2013-12-16,1,0.000541971731431767,0.0007093454539203568,-0.007129901382817041,0.0019984542916860583,0.9930814944253906
2013-12-18,1,0.0011050812672264909,0.0013392826703629685,-0.007129901382817041,0.0019984542916860583,0.993975716973565
2013-12-20,1,0.0011144640900969337,0.0013641850787965955,-0.004814439103536688,0.003138273450072203,0.994259607839116
2013-12-24,1,0.001403451193318009,0.0017201776179921926,-0.005528954016892941,0.0022375024783054392,0.9941571879838715
2013-12-27,1,0.0009577101184915885,0.0011892984066017073,-0.0029075472707918906,0.002235343239563753,0.9945871608466086
2013-12-31,1,0.0011086743162233759,0.0013665243665314454,-0.0029075472707918906,0.004114038695594361,0.9938315575355702
2014-01-03,1,0.00028542250044725733,0.00040052580013232866,-0.0029075472707918906,0.005855081226159048,0.9936034116696051
2014-01-07,1,0.0004034540171082558,0.000503523624139236,-0.0026547994945720524,0.004114038695594361,0.9946231646586161
2014-01-09,-1,-0.0003450863263878363,-0.0003029245070108397,-0.0017992756024192383,0.004442900636109524,0.9947039986950587
2014-01-13,-1,-0.00015586575996626772,-0.00013375597750997674,-0.0009500668224887672,0.005855081226159048,0.9948305090692238
2014-01-15,-1,-0.00040238931430125685,-0.00033819496059721613,-0.0009500668224887672,0.00886901831503265,0.994073081028594
2014-01-17,-1,-0.00030893492431347436,-0.00024541681842807665,-0.0009500668224887672,0.00886901831503265,0.9937646484408432
2014-01-22,1,0.0003349321991546428,0.0003640020869412774,-0.0022584139869023336,0.009293460048868414,0.9935487131810523
2014-01-24,1,0.0001332755090269654,0.00013869172152199344,-0.0021611063066969316,0.009293460048868414,0.993587884601526
2014-01-28,-1,-0.00042644198795685565,-0.00031624260613315067,-0.003740291607405133,0.009293460048868414,0.9933410711050625
2014-01-30,1,0.00022458124319449008,0.00026846520203347514,-0.003740291607405133,0.009293460048868414,0.9937789540668227
2014-02-03,1,0.00017485027694231527,0.00021033071750568985,-0.003740291607405133,0.009541366516534333,0.9933552833101631
2014-02-05,-1,-0.0003619211449517218,-0.0002380324972439647,-0.004333932805078191,0.009541366516534333,0.9929597121943323
2014-02-07,-1,-0.0001228757266584162,-3.84678391110658e-05,-0.004333932805078191,0.009541366516534333,0.9931553593543948
2014-02-11,1,0.0013998216419299045,0.0015779340698053445,-0.004333932805078191,0.007783681115833316,0.9932534068395035
2014-02-13,1,0.0011267269328341148,0.001226985062020811,-0.0038267120239389987,0.007917924457297136,0.9932023235428633
2014-02-18,1,0.0017368414796573948,0.0019491818642482243,-0.0038267120239389987,0.008208845991303915,0.9932135604060661
2014-02-20,1,0.0015198294171830983,0.0016746592353125535,-0.0038267120239389987,0.007433608669327272,0.9931479781684553
2014-02-24,1,0.0011010780673504337,0.0011801380470726213,-0.0038267120239389987,0.007583983603608762,0.9929639721262968
2014-02-26,1,0.0010251202399451265,0.0011022750067157295,-0.0038267120239389987,0.008262960696574667,0.9924232984179671
2014-02-28,1,0.0010346722934005963,0.0010860368123338383,-0.0038267120239389987,0.007583983603608762,0.9926954627652081
2014-03-04,1,0.0011790845593731356,0.0012491039965277495,-0.0035805655970186498,0.007583983603608762,0.9935159732027284
2014-03-06,1,0.001003787369650758,0.001089869178034012,-0.0007073958646033754,0.007583983603608762,0.9939149233261643
2014-03-10,1,0.0010206665842220027,0.0011065777090240158,-0.001532620326684139,0.007583983603608762,0.9936491087470083
2014-03-12,1,0.0014835743776942698,0.0016194954881651065,-0.001532620326684139,0.007583983603608762,0.9938762251807204
2014-03-14,1,0.002380279630020486,0.0026707824569598025,-0.0034391664112256317,0.0069829906524223745,0.9944252751806938
2014-03-18,1,0.0027807105449696775,0.0031551919203254963,-0.0034391664112256317,0.007000458740724637,0.9939182515764245
2014-03-20,1,0.00212070760159318,0.0024001073803117568,-0.001494088347054417,0.007345046265022153,0.9937514933375787
2014-03-24,1,0.002644378881228363,0.0030054641270336425,-0.002740500925895214,0.006936429250054133,0.9938564853000806
2014-03-26,1,0.002427548373486621,0.0027349191433886752,-0.0012740438451541852,0.0068040986536526986,0.9946031941169916
2014-03-28,1,0.0027342872256718624,0.0030900953217504294,-0.002740500925895214,0.006936429250054133,0.9937854320797036
2014-04-01,1,0.0030169462192574928,0.003391522615478786,-0.0035081279770605833,0.006936429250054133,0.993692983393896
2014-04-03,1,0.002997915761061607,0.003362965226326398,-0.003952551846464554,0.007331089982792327,0.992375326984365
2014-04-07,1,0.0028684622867307568,0.0032009067454073043,-0.00478772899475351,0.007331089982792327,0.9921220035339631
2014-04-09,1,0.0026326880019235475,0.0028880880710826133,-0.00478772899475351,0.007331089982792327,0.991342492386676
2014-04-11,1,0.0031544367291030757,0.0035355712899061567,-0.009804810391947989,0.007331089982792327,0.9891551068753275
2014-04-15,1,0.003865329860980447,0.004342049489906808,-0.009804810391947989,0.007331089982792327,0.9889129784273774
2014-04-17,1,0.0031512783983359163,0.0035075175484841088,-0.0065210507420072426,0.00563762048383769,0.9894700830754286
2014-04-22,1,0.0028719466755314066,0.0031789044342253243,-0.008818600306891838,0.00563762048383769,0.9890771536218508
2014-04-24,1,0.0028445337703224666,0.003134475214578679,-0.008818600306891838,0.008034668391837769,0.9884193183121264
2014-04-28,1,0.0029577160083983636,0.0032328431823463433,-0.008818600306891838,0.00563762048383769,0.9892029630177799
2014-04-30,1,0.0028871976094502023,0.003153321765921486,-0.008818600306891838,0.004246465085175802,0.989465063046611
2014-05-02,1,0.0024743243416721497,0.0027097699928721663,-0.005805238947298336,0.004246465085175802,0.9907345823766971
2014-05-06,1,0.0016568157731841997,0.0017179810682575792,-0.004951135829006412,0.002979698217373079,0.9914345443516721
2014-05-08,1,0.0013306316946191615,0.0013326784327048339,-0.004686571822915465,0.002979698217373079,0.9927511527813467
2014-05-12,-1,-0.0005302366398263426,-0.0003255301111045459,-0.004680953365747931,0.002979698217373079,0.995115673194928
2014-05-14,1,0.0001244406319071437,0.00022776288272530833,-0.0048375405284218475,0.002654534050047031,0.9951024639719169
2014-05-16,-1,-0.000420788618138217,-0.0002472706309747448,-0.004386696226809456,0.004609732231008476,0.9948182246380348
2014-05-20,-1,-0.0010272430402271699,-0.0007792196722227728,-0.004386696226809456,0.006834685288527317,0.9940240376678948
2014-05-22,-1,-0.0010549143382206838,-0.0007847945273559614,-0.003006551690361063,0.006834685288527317,0.994060394878696
2014-05-27,-1,-0.000985911466780009,-0.0007450969383191971,-0.0048375405284218475,0.008151551587599441,0.9916371937721097
2014-05-29,-1,-0.001412009277366008,-0.0010950044513941897,-0.003006551690361063,0.008984508559620404,0.9912927493369408
2014-06-02,-1,-0.001061295124577384,-0.0008005110826180648,-0.003006551690361063,0.008151551587599441,0.991480859162059
2014-06-04,-1,-0.0012971976946523126,-0.0009887671784406353,-0.00508922101329996,0.008151551587599441,0.9900914132675285
2014-06-06,-1,-0.0012501573301660447,-0.0009433748974094459,-0.006303090438210314,0.007075873799245978,0.9898236427054136
2014-06-10,-1,-0.0017775081317171076,-0.0014015809679572544,-0.006303090438210314,0.007075873799245978,0.9896678497440108
2014-06-12,-1,-0.0020499574928923387,-0.001647685027190388,-0.006096367365801816,0.008687145806705175,0.9895970443033616
2014-06-16,-1,-0.0014002457439246702,-0.0010912432117224384,-0.008735049515594048,0.0069991568534889335,0.9899716586023288
2014-06-18,-1,-0.0008216957277016168,-0.0005658328236017615,-0.008735049515594048,0.004932941566808199,0.9909615208416226
2014-06-20,-1,-0.0006659093000509184,-0.0004290043872590642,-0.008735049515594048,0.004932941566808199,0.9910082992503517
2014-06-24,-1,-0.0009088827686728818,-0.0006741356867283984,-0.007119958283544916,0.004274955088047767,0.9932654830202479
2014-06-26,-1,-0.0006241185125134738,-0.0004123017390275642,-0.008735049515594048,0.00390226746517864,0.9934195236452407
2014-06-30,-1,-0.0006429453137207893,-0.000418661983425213,-0.00931038578584365,0.004274955088047767,0.9919353684560671
2014-07-02,-1,-0.00202963408477538,-0.0016414858381052421,-0.009336953515633408,0.004274955088047767,0.9917071536523461
2014-07-07,-1,-0.001602914885079796,-0.0013094545939482212,-0.00937877927224839,0.004274955088047767,0.9914918951674673
2014-07-09,-1,-0.0016494259779110437,-0.0013530006591829105,-0.011628728925447834,0.00390226746517864,0.9903216197477018
2014-07-11,-1,-0.001374652677732917,-0.0011349069009990319,-0.011628728925447834,0.005635463817192014,0.9894203971839443
2014-07-15,-1,-0.0014929751648349605,-0.0012427839949770425,-0.011628728925447834,0.005635463817192014,0.989573759971892
2014-07-17,-1,-0.001820724297117251,-0.0015211776384361165,-0.011628728925447834,0.008241287852536246,0.9893624804691401
2014-07-21,-1,-0.0015193519750578612,-0.001248664697662519,-0.011628728925447834,0.005397899599771279,0.9897112855296
2014-07-23,-1,-0.0012142947038315793,-0.000995656679960594,-0.011628728925447834,0.008241287852536246,0.9888351792692235
2014-07-25,-1,-0.0014782946700563114,-0.0012351528160574879,-0.011628728925447834,0.008241287852536246,0.9894142392631563
2014-07-29,-1,-0.001707549531939785,-0.0014095506067042542,-0.009469436903455775,0.008241287852536246,0.990289558959609
2014-07-31,-1,-0.0030691196680367175,-0.002618308464348214,-0.005475210741749322,0.011496782265440608,0.9904612509684064
2014-08-04,-1,-0.002514153827997403,-0.0021609786566254103,-0.005475210741749322,0.011496782265440608,0.9906617156249011
2014-08-06,-1,-0.0034504567208845163,-0.0030210430525417194,-0.003475169106366317,0.011496782265440608,0.9912473188415005
2014-08-08,-1,-0.0019701486023564084,-0.0017219880793133424,-0.004029801264163748,0.009050236693957547,0.9924715246931632
2014-08-12,-1,-0.0028088185216035393,-0.0024394332993784304,-0.003588864184331887,0.009050236693957547,0.9918681622939391
2014-08-14,-1,-0.0020531969901662686,-0.001796403282703589,-0.004923980317201251,0.010048910055330085,0.991262316089999
2014-08-18,-1,-0.0020827763619677333,-0.0018249070784650372,-0.004141958003472681,0.010048910055330085,0.990714511086052
2014-08-20,-1,-0.001130188582828993,-0.0009983431283749427,-0.0072418519718827545,0.008693308549286436,0.9912287303346443
2014-08-22,-1,-0.000852210468032839,-0.0007808153884977424,-0.008413013177185938,0.008693308549286436,0.9907070841459906
2014-08-26,-1,-0.0007113178614060789,-0.0006667293955757251,-0.007681763014589652,0.008305059733093985,0.9912139659017932
2014-08-28,1,0.0002460503294533136,0.0003177822102183328,-0.008590142094240659,0.00441824282789531,0.9918352441939379
2014-09-02,1,8.414486312176636e-06,6.85986765431485e-05,-0.007681763014589652,0.00441824282789531,0.9925667068578076
2014-09-04,1,0.00011038126012356686,0.00017484660806276595,-0.007681763014589652,0.004668686021924659,0.9926761592868631
2014-09-08,1,0.0008728407454826961,0.0010945803646393412,-0.007681763014589652,0.004668686021924659,0.9933585664805281
2014-09-10,1,0.0003837695141548271,0.0005159421441490088,-0.005156939125490914,0.005742841443548041,0.9924361146050477
2014-09-12,0,-6.583083010972709e-05,9.284309678298143e-06,-0.005156939125490914,0.005742841443548041,0.9926858257521319
2014-09-16,1,0.0005474183945040138,0.0007173271058786846,-0.005156939125490914,0.009140413898762866,0.991677171294259
2014-09-18,1,0.00032606510493345266,0.000493811255015915,-0.005156939125490914,0.009343704219499831,0.9913098877920278
2014-09-22,1,0.00030173572655450566,0.00046910683452607894,-0.0023157514419629988,0.010689049313089389,0.9912072589854639
2014-09-24,-1,-0.00021465330834336685,-0.00013635918650313226,0.0014060869497383914,0.010689049313089389,0.9911207451770289
2014-09-26,-1,-0.0005121039196860789,-0.00047681835998877577,0.002437876859722109,0.010689049313089389,0.9909466817870082
2014-09-30,-1,-0.0003047915260858865,-0.00024188772783978807,0.00156974185704877,0.010689049313089389,0.9912727170126745
2014-10-02,-1,-0.0007671860081396721,-0.0006926070025213553,0.0014741043604722314,0.013848158188519666,0.9897858156094442
2014-10-06,-1,-0.00015846825533669538,-0.00013836483376764572,0.0014741043604722314,0.013848158188519666,0.9903304323726633
2014-10-08,1,0.0008998762094404142,0.0010427280081873795,0.0009771050223910907,0.013848158188519666,0.9910532763444482
2014-10-10,1,0.0006785817189683778,0.0007680865433049356,0.00020188639606721226,0.010689049313089389,0.9909308132777662
2014-10-14,1,0.001981622224605077,0.002254147884903965,-0.00045879587726613383,0.006359504031221058,0.9925153237305463
2014-10-16,1,0.0016838708085843304,0.0019124428947431364,-0.0024040591009374733,0.005185261813997997,0.9912944370849851
2014-10-20,1,0.00207566133824734,0.0023532567790547822,-0.0024040591009374733,0.005185261813997997,0.9910323093079244
2014-10-22,1,0.0022499248497174383,0.002560622913617302,-0.004257199794922548,0.005185261813997997,0.9908579739262943
2014-10-24,1,0.002499684542508494,0.0028456690829567277,-0.004257199794922548,0.004775297977299169,0.9907175747881136
2014-10-28,1,0.0025687520781336767,0.0029271435114709356,-0.007350896399275541,0.004775297977299169,0.9902265392745468
2014-10-30,1,0.0029949190014433706,0.0033892952545537002,-0.004104955839293326,0.0053789520366093,0.9909035610070615
2014-11-03,1,0.0027716518311346004,0.0031222927124501965,-0.004104955839293326,0.005703269284742196,0.9909563210547749
2014-11-05,1,0.0034180819134753274,0.003873129890131456,-0.00200175817377934,0.005703269284742196,0.9921270531548239
2014-11-07,1,0.0028004980734441347,0.003211550662472659,-0.00200175817377934,0.006209415681420154,0.9928477794772914
2014-11-11,1,0.0030970908096934918,0.0035542220635609205,-0.00200175817377934,0.005703269284742196,0.9931025645488231
2014-11-13,1,0.0017471268793919075,0.001999499780167992,-0.001498736405700779,0.005927936605661153,0.9943401699582489
2014-11-17,1,0.002730817181158296,0.0031369200038191443,-0.00200175817377934,0.005703269284742196,0.9947606889248873
2014-11-19,1,0.002734820567496193,0.0031503712682017385,-0.001498736405700779,0.006565915859510607,0.9936980541703913
2014-11-21,1,0.0019924225231572573,0.0022407340829990524,-0.0008041900379941538,0.006903557088804597,0.9935734324802277
2014-11-25,1,0.001604607793916822,0.0017950738076246272,0.0010361613275218363,0.009197571113069236,0.9930556516983998
2014-11-28,1,0.0023582784254545996,0.002643521350359869,0.0010361613275218363,0.012989031522813154,0.9930083280898713
2014-12-02,1,0.0025121289010759653,0.0028132962480416743,-0.0012368754806993195,0.012989031522813154,0.9907254991025846
2014-12-04,1,0.0026340162069008275,0.002938620113208379,-0.0035766407386957286,0.012989031522813154,0.9899844084970486
2014-12-08,1,0.0028249640908753967,0.003142886169535776,-0.001632604691781683,0.012370416411032205,0.9903867077755834
2014-12-10,1,0.002870845488642219,0.0032107045891458744,-0.004963817343720376,0.012370416411032205,0.989831161739175
2014-12-12,1,0.002465971587145167,0.0027546542886647415,-0.003428925909649088,0.012370416411032205,0.9904991628979166
2014-12-16,1,0.002218596257216476,0.002455147670745764,-0.0011760179810110837,0.01252250805670416,0.9897928290649531
2014-12-18,1,0.003313467101836569,0.0036979504976982396,-0.0020886626416136618,0.012370416411032205,0.9907780652920035
2014-12-22,1,0.002510648753086639,0.0027106976197574205,-0.0020886626416136618,0.012397288010723255,0.9903618267746672
2014-12-24,1,0.003191450854993308,0.003482481866197781,-0.0020886626416136618,0.012347634536902345,0.9912201231090144
2014-12-29,1,0.0033712730819828243,0.0035960224101004275,-0.0035516806587492164,0.011275745444967837,0.9918390221384086
2014-12-31,1,0.0022804350100578256,0.0024153254995574838,-0.0020886626416136618,0.011928696996781143,0.9922527804682861
2015-01-05,1,0.0017778938686821343,0.0018022615364490055,-0.0020886626416136618,0.011928696996781143,0.9924847489925048
2015-01-07,1,0.0023252436292026356,0.0024394556316493874,-0.0033941504717018506,0.011928696996781143,0.9919481773164849
2015-01-09,1,0.002260094572349234,0.002346624511732317,-0.004782256807201235,0.011928696996781143,0.9894944658190022
2015-01-13,1,0.0024516055154954986,0.0025996032029172523,-0.00684498524845128,0.012074084725026689,0.986971211499701
2015-01-15,1,0.0029339290348349427,0.003134200759198002,-0.012548343524342113,0.01038339360954122,0.9861774487162804
2015-01-20,1,0.003176792959111508,0.0034015435036220325,-0.012548343524342113,0.01038339360954122,0.9858462833744301
2015-01-22,1,0.0038915368585003213,0.00425107719786379,-0.014466911338402624,0.009166222763453791,0.9851015482391025
2015-01-26,1,0.0037144889133965764,0.004019702388277345,-0.014466911338402624,0.01032655595130114,0.9847949312241452
2015-01-28,1,0.003453474860909015,0.003722008645259286,-0.016219295043411547,0.01032655595130114,0.9833816672177436
2015-01-30,1,0.0027658088636096615,0.002949994025770153,-0.01577675684582414,0.009166222763453791,0.9844860681556113
2015-02-03,1,0.002439678276336883,0.0025476352594067378,-0.01577675684582414,0.01018374885390178,0.9838951046115902
2015-02-05,1,0.0019909867969698965,0.002001232175337851,-0.01750803328775472,0.010093156096058976,0.9826110923748489
2015-02-09,-1,-0.000303391455547257,-6.581365513316274e-05,-0.01561016062409322,0.010093156096058976,0.985455330132913
2015-02-11,-1,-0.0014366999049554288,-0.0010330010128009508,-0.014586466082196044,0.010093156096058976,0.9870779664310501
2015-02-13,-1,-0.0022885526692850286,-0.0017734833463655608,-0.01423185158009038,0.01090358695841827,0.9875480479405974
2015-02-18,-1,-0.001832160023807911,-0.0013439715563770432,-0.01423185158009038,0.01090358695841827,0.987350599663044
2015-02-20,-1,-0.0025494617063545107,-0.0019470471633036247,-0.011823018922454426,0.011202386036299928,0.987702670068931
2015-02-24,-1,-0.0022204504487370784,-0.0016583902656991136,-0.011823768541055144,0.01090358695841827,0.9879445669105558
2015-02-26,-1,-0.0035118146182813695,-0.0028084398774757277,-0.010751292537922213,0.01090358695841827,0.9890541973064143
2015-03-02,-1,-0.003991030318372364,-0.0032443630614777575,-0.00817376246477538,0.011202386036299928,0.9889312169157248
2015-03-04,-1,-0.0034923478153415146,-0.002860777998914367,-0.00724021032822319,0.010930607762771513,0.9894722852159903
2015-03-06,-1,-0.004646417492676906,-0.003885338176304246,-0.00615883405234046,0.009448678219264827,0.9913721413194225
2015-03-10,-1,-0.003911975037810755,-0.0033012178052219676,-0.00724021032822319,0.009448678219264827,0.9913597274548749
2015-03-12,-1,-0.00390005209770737,-0.0032825193099238477,-0.0065122188383326994,0.009448678219264827,0.9917532716492243
2015-03-16,-1,-0.003210928946986296,-0.002699937583660105,-0.005927031937219945,0.008724428174668626,0.9923538935264125
2015-03-18,-1,-0.0024224630264491173,-0.002016873617760788,-0.005224945009114969,0.007482235685903685,0.9936676058497539
2015-03-20,-1,-0.0020754239112718547,-0.0017233007283023356,-0.004726269528719906,0.007482235685903685,0.9933895641808976
2015-03-24,-1,-0.0025112872789370363,-0.0021085788843539397,-0.004517433420055743,0.007482235685903685,0.9936721247462899
2015-03-26,-1,-0.002685627222681535,-0.0022951185769669582,-0.0038328356122175585,0.008724428174668626,0.9931031223074569
2015-03-30,-1,-0.0018981039162871754,-0.0016126792818684332,-0.004479522602834829,0.007839992539693561,0.9932417697790505
2015-04-01,-1,-0.00155088796993252,-0.0013240858047061021,-0.00534273993777905,0.007199941581789545,0.9928227100309154
2015-04-06,-1,-0.0018361911656347989,-0.0015329862296553222,-0.00534273993777905,0.007199941581789545,0.9925563875069875
2015-04-08,-1,-0.0023237469016139517,-0.001980456527916356,-0.006378019894301553,0.007199941581789545,0.9912021050304948
2015-04-10,-1,-0.0032608001864891612,-0.0027211174773722185,-0.005440343108868417,0.0063203959669144005,0.9913747849207767
2015-04-14,-1,-0.00272744733715221,-0.0022857557489663408,-0.007188256269896971,0.005296983265983448,0.9914407214282626
2015-04-16,-1,-0.0029287970935948492,-0.00246952528808828,-0.009039027706388654,0.0064396482515110265,0.9903669641517825
2015-04-20,-1,-0.0022787050794129803,-0.0018934686295553078,-0.009039027706388654,0.0064396482515110265,0.9905308385262752
2015-04-22,-1,-0.002554378581685746,-0.0021192290459617477,-0.009039027706388654,0.007888964530863678,0.9900813786658227
2015-04-24,-1,-0.0014508225090021885,-0.001186727130960749,-0.009039027706388654,0.005579214988161689,0.9908037883468694
2015-04-28,-1,-0.0018430666061613745,-0.0015505425575322207,-0.0077292913709715895,0.005579214988161689,0.9916107123348338
2015-04-30,-1,-0.002607258721687828,-0.0022421397054694855,-0.004786870831381773,0.005579214988161689,0.992255119185941
2015-05-04,-1,-0.0017386712823448996,-0.0014961911555693471,-0.006851174441261197,0.003715087196084173,0.992391042130984
2015-05-06,-1,-0.0034371044590696194,-0.003001892023987508,-0.007898622214060463,0.003715087196084173,0.9930113880773263
2015-05-08,-1,-0.0032028587205617963,-0.0027775050413089584,-0.009547020235655275,0.0012952651914127714,0.9929909494107543
2015-05-12,-1,-0.0039103141058495945,-0.0033964605622261836,-0.007898622214060463,0.001529868977642778,0.9929549999867399
2015-05-14,-1,-0.002787071139807561,-0.002471293095026018,-0.006792008353364136,0.001529868977642778,0.9934368797844632
2015-05-18,-1,-0.001944070892880569,-0.0017426005217807579,-0.006792008353364136,0.0012952651914127714,0.9938126746021837
2015-05-20,-1,-0.0009637647868572217,-0.0009227519472912218,-0.006792008353364136,0.001529868977642778,0.9933692167420523
2015-05-22,-1,-0.0004509077240800089,-0.00035714201013909146,-0.007177988781319079,0.001529868977642778,0.9930184701305604
2015-05-27,-1,-0.0012904538614219047,-0.0011946024214270084,-0.008554247808168101,0.001529868977642778,0.9927984722286588
2015-05-29,-1,-0.0012843802895103154,-0.0011848173373046826,-0.008554247808168101,0.002956061071678958,0.9923174560687592
2015-06-02,-1,-0.0015428579941939107,-0.0014404062479167444,-0.008554247808168101,0.002956061071678958,0.9921273190980131
2015-06-04,-1,-0.002176861270007677,-0.002018420558187242,-0.006553139737999549,0.009734464002627674,0.9912021269860883
2015-06-08,-1,-0.0027903233860699615,-0.002566844283262351,-0.0047655739222268925,0.011823298338315595,0.990466300055125
2015-06-10,-1,-0.001988961342333254,-0.0019080283962904492,-0.007011892746949223,0.011823298338315595,0.9900196207515415
2015-06-12,-1,-0.0012460433137047862,-0.0012029539708522522,-0.0069371865920312414,0.010065211614289946,0.9904906033764312
2015-06-16,-1,-0.000461615685795979,-0.00027575519166381744,-0.0069371865920312414,0.009282517396677337,0.9909950033884661
2015-06-18,1,0.0005793909795031431,0.0009215977949109029,-0.008554247808168101,0.009282517396677337,0.9903745163296522
2015-06-22,1,0.00021890647085981115,0.0005156310566718975,-0.006181155374711269,0.009282517396677337,0.9908326259746671
2015-06-24,-1,-0.00022537988348585137,-1.663297297818786e-05,-0.006424535974546123,0.009893020708171576,0.9898651769591242
2015-06-26,1,0.0002463219664058391,0.0005301785896803859,-0.006424535974546123,0.011020360730459419,0.9897946280059603
2015-06-30,-1,-0.00035317530163835053,-0.0001500477772550553,-0.0026186120016034806,0.011020360730459419,0.9904761520806942
2015-07-02,0,-8.11533667941249e-05,2.9446058682037015e-05,-0.0026186120016034806,0.009893020708171576,0.9914635592146942
2015-07-07,1,0.0006370846640442727,0.0008237145511904184,-0.006424535974546123,0.008380682008424636,0.9917635351402455
2015-07-09,-1,-0.0002872683652923118,-0.00024712748117317355,-0.0012136284437678868,0.009893020708171576,0.9919952363551869
2015-07-13,1,0.000490236581721575,0.0006867318291848536,-0.0026186120016034806,0.011020360730459419,0.9917999715710185
2015-07-15,1,0.000569325215485261,0.0007668502720228356,-0.0026186120016034806,0.011892692138382746,0.9908448745240211
2015-07-17,1,0.0010202057221922484,0.0012945357693157009,-0.0004201576624046935,0.011020360730459419,0.992249702089355
2015-07-21,1,0.00037668707076280426,0.000505907956978843,-9.748711935398412e-05,0.011020360730459419,0.9922958741335781
2015-07-23,1,1.3153901523404147e-05,7.774061086056845e-05,-9.748711935398412e-05,0.009952686621314244,0.993287492350144
2015-07-27,1,0.00038607845026199483,0.0004936592710828911,-0.0010214942023581764,0.008304546338541545,0.9913968130129905
2015-07-29,1,0.0005027489760136383,0.0005750120267071542,-0.0016989755271537292,0.009960799260861762,0.9894735626150091
2015-07-31,1,0.0006099180761548406,0.0006925040118286982,-0.0016989755271537292,0.009443808060431231,0.9898017300323767
2015-08-04,1,0.0004943025418148988,0.000573805711406502,-0.003975997133918547,0.009443808060431231,0.98937169235127
2015-08-06,1,0.001179266858026452,0.001368923522626441,-0.003975997133918547,0.00791981806663349,0.9894430656709692
2015-08-10,1,0.0016351933441195363,0.0019237953458038672,-0.004869802941012576,0.00791981806663349,0.9892674903229796
2015-08-12,1,0.002467800485969028,0.0028656931641224312,-0.008739147067387204,0.007003393805244819,0.9892696104167709
2015-08-14,1,0.0024054673460214434,0.002768669297479732,-0.008739147067387204,0.007455990656088042,0.988883690639108
2015-08-18,1,0.0019857121287075816,0.00226602721649374,-0.008739147067387204,0.007455990656088042,0.9891004974510886
2015-08-20,1,0.0023478533462482206,0.0027071649756350786,-0.008739147067387204,0.00838294193278221,0.98873863047271
2015-08-24,1,0.0009385885978885197,0.001126146531933647,-0.006054087683699275,0.00838294193278221,0.9908919591909645
2015-08-26,1,0.0005727311704718382,0.000713542094927141,-0.0022751795250491366,0.00838294193278221,0.992305732729224
2015-08-28,1,0.000525134759478485,0.0006305651840018727,-0.0022751795250491366,0.009307632471776375,0.9919112766560048
2015-09-01,-1,-0.000278639980290841,-0.00026530803381097086,0.00047500971645339003,0.0137481739691369,0.9918489509302809
2015-09-03,0,-3.794760627221359e-05,1.2811036340034954e-05,0.00047500971645339003,0.0137481739691369,0.9917493699272693
2015-09-08,1,7.660810164282896e-05,0.00013360405186345207,0.00047500971645339003,0.01116341252454505,0.9923203369445955
2015-09-10,1,0.0004137308828921642,0.0005495568705815738,0.00047500971645339003,0.0137481739691369,0.9921448824272728
2015-09-14,1,0.000951198738421458,0.001155088114282823,-0.000870052750868325,0.011363759082402126,0.9929011118377836
2015-09-16,1,0.001400565381844305,0.001698118863227045,-0.0029165056257333378,0.011363759082402126,0.992572619258247
2015-09-18,1,0.0017602918034409507,0.0020773818584161087,-0.0029165056257333378,0.011363759082402126,0.9925928001654338
2015-09-22,1,0.0012318742604887547,0.0014357235088279818,-0.0020729261161758173,0.011363759082402126,0.9926103374381249
2015-09-24,1,0.0021364070337456147,0.0024823388655236664,-0.0029165056257333378,0.010457041151692732,0.9928661172111455
2015-09-28,1,0.0016270217696839203,0.0018317954264690662,-0.003701066172859938,0.00846495330338268,0.9925947343299183
2015-09-30,1,0.002486393712914858,0.0028099396414303646,-0.004514480264653491,0.006202872693490792,0.9924093991080437
2015-10-02,1,0.0024663786629808403,0.0027619535537148536,-0.006944177091279748,0.005216291619466407,0.992230017882998
2015-10-06,1,0.002098139897607547,0.0023499183028965615,-0.004514480264653491,0.005216291619466407,0.9929253604969914
2015-10-08,1,0.002545758148776942,0.0028783376592142794,-0.004441761153163622,0.003732769724754886,0.9936555973321677
2015-10-12,1,0.002739129037948521,0.0031137799443837835,-0.00630602454841141,0.0032140489434461504,0.9914046405038328
2015-10-14,1,0.002161989999456763,0.0024383497980527183,-0.006087867213941803,0.005216291619466407,0.9917113385056529
2015-10-16,1,0.0026712896815430797,0.003011899174878028,-0.009623169314349202,0.0032140489434461504,0.9911379624015354
2015-10-20,1,0.0025758534936152913,0.002896912497474087,-0.01039168439875802,0.003732769724754886,0.9892555120724507
2015-10-22,1,0.002516821442124655,0.002799162053935364,-0.01039168439875802,0.004113061984508639,0.9895358754528141
2015-10-26,1,0.0014869925570220517,0.0015840263475908217,-0.01039168439875802,0.004997667959571879,0.9897449707194713
2015-10-28,1,0.0004295224080068232,0.0005094788452726104,-0.01020581255137964,0.004997667959571879,0.989781613176458
2015-10-30,1,2.7366504885267947e-05,0.00015564062589294237,-0.009623169314349202,0.0056618933293899314,0.9899343940490704
2015-11-03,1,0.0003000920877829277,0.0003927295254761245,-0.01020581255137964,0.007912103668663557,0.9884037176877323
2015-11-05,1,0.00018801809246696163,0.00027376822894283607,-0.01103315218089277,0.008749224690378529,0.9868867231131742
2015-11-09,-1,-0.001064080049936603,-0.0008562332776779183,-0.01020581255137964,0.009858234114850272,0.9882101236261088
2015-11-11,-1,-0.0008550361569001729,-0.0006456982449789861,-0.011237066749901187,0.009858234114850272,0.987278994226533
2015-11-13,-1,-0.0019482002874035241,-0.001587585715268774,-0.011237066749901187,0.0110144744540697,0.9870771527498802
2015-11-17,-1,-0.001387044155135297,-0.001111696559074872,-0.010885221535764312,0.0110144744540697,0.9874606147760655
2015-11-19,-1,-0.001634028630859038,-0.0012695792841034203,-0.011237066749901187,0.010174307892654395,0.9873106237036137
2015-11-23,-1,-0.0012388610397886944,-0.0009830683405360149,-0.010885221535764312,0.010174307892654395,0.987504163616195
2015-11-25,-1,-0.0012240779958842193,-0.0010192023113678957,-0.0061029443507396725,0.012157062580729152,0.9872820639882055
2015-11-30,-1,-0.001726658285053589,-0.001415268509544521,-0.002772284026193182,0.012157062580729152,0.9869811055906162
2015-12-02,-1,-0.0020042566579708755,-0.0016739214548437092,-0.0037761037562891236,0.009474949190433457,0.9878390425485719
2015-12-04,-1,-0.0011215519193440273,-0.0008984600829594474,-0.00033460657669864716,0.008969172091835401,0.9894616422626591
2015-12-08,-1,-0.00048471714071355085,-0.00034581580291167695,-0.00167858063491244,0.007728216962219248,0.9906803651304343
2015-12-10,-1,-0.00211256475022577,-0.001774182345408971,-0.0004795658114997184,0.007966009538610437,0.9911447296025274
2015-12-14,-1,-0.0014362863163555,-0.001160138556941752,-0.00167858063491244,0.007728216962219248,0.9920415631677613
2015-12-16,1,1.0437221151391764e-05,9.385184282186703e-05,-0.0032035279974683634,0.007184732789618801,0.9928003702024444
2015-12-18,-1,-0.0007041722123124163,-0.0005465725434456555,-0.0032035279974683634,0.007966009538610437,0.9911966616292506
2015-12-22,0,-3.735269954840032e-05,1.7588146967319494e-05,-0.004746165828269012,0.008799306758640754,0.9902909218287299
2015-12-24,1,0.0002925607474207777,0.00032361766910068404,-0.005263371247076001,0.008799306758640754,0.9900963411377126
2015-12-29,1,0.0009579211955782016,0.001036459175240412,-0.0055370616676435214,0.011091735376084596,0.9893666585443142
2015-12-31,1,0.00042929038835931316,0.000452247565152272,-0.004924950057038806,0.013054648027217376,0.9892261703544304
2016-01-05,1,0.0013034760462700538,0.001492533091542285,-0.004924950057038806,0.013054648027217376,0.9894081956976759
2016-01-07,1,0.0012219445518774049,0.0014127238781279402,-0.004924950057038806,0.013054648027217376,0.9888987884342039
2016-01-11,1,0.0012258972640040548,0.001410691065317938,-0.004837395968458185,0.013054648027217376,0.9891202594688229
2016-01-13,1,0.0012007583524816963,0.001389056210086889,-0.005810579834050247,0.013054648027217376,0.9881742008843275
2016-01-15,1,0.0009204989039205438,0.0009682193864262649,-0.005810579834050247,0.01169753080253951,0.9893121451153319
2016-01-20,1,0.0005435960125135637,0.000574684049849052,-0.004609457029368937,0.01169753080253951,0.990627428610695
2016-01-22,1,0.0011347961970869667,0.001187013386574571,-0.0037948244637988388,0.010443547835788772,0.9915930701048578
2016-01-26,1,0.0004712347016523844,0.0005604427675618811,-0.0019570939359173896,0.009787677710356702,0.992377688358025
2016-01-28,1,0.0011203645243173773,0.0011292344622395225,-0.0019570939359173896,0.009787677710356702,0.9918420130574613
2016-02-01,1,0.0018308592696672024,0.0019124962489559347,-0.0020931486443061718,0.007706060847221031,0.9925988448540429
2016-02-03,1,0.0018780708998029963,0.001958253329978646,-0.002494332706071422,0.00508038181578805,0.9926905053575634
2016-02-05,1,0.0023976409258852373,0.0025801862175119337,-0.0021669266987154015,0.00508038181578805,0.99274573678198
2016-02-09,1,0.0023430761928743193,0.002519090116409128,-0.0021669266987154015,0.006545382157321219,0.9924091108589068
2016-02-11,1,0.0015677223862200352,0.0016746716283400648,-0.0017283445120441776,0.006545382157321219,0.9937922146566267
2016-02-16,1,0.0014869237377725508,0.0015720911359971025,-0.0018221794718392011,0.006545382157321219,0.9936187699157255
2016-02-18,1,0.0022578938687227695,0.00248280186669614,-0.0016258948113874352,0.00733014532859298,0.9943369631982092
2016-02-22,1,0.0025794780428550273,0.002866703346757012,-0.0018221794718392011,0.005853763852499646,0.994170721525286
2016-02-24,1,0.0030727885312084972,0.003474489518054143,-0.0021669266987154015,0.00733014532859298,0.9936417691341017
2016-02-26,1,0.0025479313315775395,0.002890253134571876,-0.0021669266987154015,0.005853763852499646,0.9950356544006236
2016-03-01,1,0.0022669167378620114,0.0025477849402354433,-0.0021669266987154015,0.00733014532859298,0.9946026636838292
2016-03-03,1,0.0024436912506673116,0.002760460304171846,-0.0018595775967451748,0.0074571462223870615,0.9944737898962747
2016-03-07,1,0.0025823187258080743,0.0029216457797209116,-0.001978518304045556,0.00733014532859298,0.9940095007541517
2016-03-09,1,0.0029895820916645884,0.00335763856036335,-0.0027867384197903335,0.005575947727263712,0.9942935259043824
2016-03-11,1,0.003265280467390039,0.0037059756177600057,-0.0030101939903369023,0.005575947727263712,0.9940562788271914
2016-03-15,1,0.003308176938617351,0.0037529847997243493,-0.0034368912716701123,0.006937307263258546,0.9935929537807859
2016-03-17,1,0.003842959161226603,0.00437051222793258,-0.0036130217187736024,0.0034535815820672337,0.9931646438400906
2016-03-21,1,0.003109287916280511,0.003503097363486578,-0.0034368912716701123,0.006167739353307134,0.9940917319347177
2016-03-23,1,0.002883721361569589,0.0032075298574727115,-0.0036130217187736024,0.003239209615571176,0.9918804727197699
2016-03-28,1,0.002446989390399613,0.002692393500735905,-0.0034839580464949556,0.006167739353307134,0.9919277419846909
2016-03-30,1,0.002983775452082949,0.0033092249223951333,-0.0034839580464949556,0.006167739353307134,0.9915615526294914
2016-04-01,1,0.002942555283303303,0.0032456302563031126,-0.0034839580464949556,0.006111477286601645,0.9918199724084523
2016-04-05,1,0.001354159904020466,0.001361761186660686,-0.0030101939903369023,0.006642069052678841,0.9925471517043354
2016-04-07,1,0.0014647310710217227,0.0014974304623468035,-0.0024707294509766125,0.006863879020577934,0.9917311054789997
2016-04-11,1,0.0006885777485600619,0.0007913442689508777,-0.002560817449894338,0.007535282798601594,0.9906374108870215
2016-04-13,1,0.0006650560783948035,0.0007557322697842798,-0.001992715581362095,0.007535282798601594,0.9913154623781215
2016-04-15,1,0.0009371085428644236,0.0009748744713756667,-0.001992715581362095,0.007207425295137245,0.9915234689981762
2016-04-19,1,0.0007927216208720726,0.0008662614583760419,-0.002743898929753982,0.007207425295137245,0.9906044052871992
2016-04-21,-1,-0.0017582621904396244,-0.001348562149672677,-0.001992715581362095,0.00909302855047839,0.991520146638641
2016-04-25,-1,-0.0012224694637560144,-0.0008782874799524048,-0.002743898929753982,0.007207425295137245,0.9920999858737635
2016-04-27,-1,-0.0010452817757654947,-0.0006974729982675777,-0.002743898929753982,0.007207425295137245,0.9922618550696702
2016-04-29,-1,-0.0005193840289782197,-0.0002550595878527929,-0.002743898929753982,0.00909302855047839,0.9919426184153255
2016-05-03,1,0.000133268307231761,0.0002911053474393595,-0.002743898929753982,0.007436983257367819,0.9920401650943828
2016-05-05,-1,-0.0003629504367098479,-7.701804792533155e-05,-0.0044715185583639365,0.007436983257367819,0.9917697834522441
2016-05-09,1,1.8312722573051994e-05,0.00022336174720678705,-0.0044715185583639365,0.005582051504809024,0.9925712148145476
2016-05-11,1,0.0005068221197813795,0.000601829676753291,-0.0044715185583639365,0.009583398185241938,0.9915352734040043
2016-05-13,-1,-0.0002631119047565477,-3.124070130553381e-05,-0.0036939355148964056,0.009583398185241938,0.991605837692134
2016-05-17,-1,-0.0008093356663935739,-0.0005284273234278389,-0.0036939355148964056,0.010754349033278257,0.9916766626330772
2016-05-19,-1,-0.0008545317587897584,-0.000587128782888034,-0.002387881449359578,0.010754349033278257,0.9922876531376015
2016-05-23,-1,-0.001069852378738721,-0.0007986166444880222,-0.002387881449359578,0.010754349033278257,0.9924699821934934
2016-05-25,-1,-0.0010692797192953405,-0.0007656055655973417,-0.0020518781464009977,0.009632436207519027,0.9932764685974352
2016-05-27,-1,-0.00037042512772154847,-0.00016616452569122287,-0.0020518781464009977,0.009632436207519027,0.9929546561632389
2016-06-01,-1,-0.00023730854993075955,-3.174194774641884e-05,-0.0027247281655433473,0.009632436207519027,0.993357023155488
2016-06-03,1,0.00028238681385621845,0.0004289912983734764,-0.0027247281655433473,0.009632436207519027,0.9935317898226416
2016-06-07,-1,-0.00036751488375535817,-0.0001353185640779529,-0.0024829598127140643,0.010754349033278257,0.9933887508280835
2016-06-09,1,0.0007964542636634151,0.0008661172848913948,-0.002511318833551152,0.009477382707570346,0.9929236006490664
2016-06-13,1,0.0006856954701986774,0.0007735500058150575,-0.0028942012650504563,0.009477382707570346,0.9920421568816647
2016-06-15,1,0.0008950639792248826,0.0009328543550125428,-0.0028942012650504563,0.008792453738101627,0.9923674539151867
2016-06-17,1,0.0012287473833448562,0.0012311055496642552,-0.0028942012650504563,0.008609339065530438,0.9925013614924261
2016-06-21,1,0.0011412872098269774,0.0011632518112577222,-0.002511318833551152,0.008609339065530438,0.9926685400978988
2016-06-23,1,0.0013884944195210937,0.0014802885611628117,-0.002511318833551152,0.010160310070358534,0.9919503629880306
2016-06-27,1,0.0023611277528815876,0.0025888470098921253,-0.0028942012650504563,0.008998768612782784,0.9922045283474457
2016-06-29,1,0.002219445858281365,0.0024455700979711488,-0.003921784720136061,0.008998768612782784,0.9920699115427711
2016-07-01,1,0.0026254200295209706,0.0029016472515029407,-0.00298750224374096,0.008998768612782784,0.9926245741065123
2016-07-06,1,0.002325127703581377,0.0024904822331407047,-0.007815403826517991,0.005558802562630602,0.9920675251378013
2016-07-08,1,0.0019222083758884357,0.002029250273505482,-0.007815403826517991,0.003243187997716133,0.9924778776845335
2016-07-12,1,0.0012719718446297563,0.0013227325936440144,-0.004880161355927986,0.003243187997716133,0.9934781287787319
2016-07-14,1,0.0014550053296921443,0.0015411616311010203,-0.0041258366143421335,0.0025518888101083888,0.9938728435023081
2016-07-18,1,0.0015461951080613192,0.0016502847700353989,-0.007815403826517991,0.0023822866353470145,0.9929857814288703
2016-07-20,1,0.001004038318205777,0.0010136020523675907,-0.010865519999400495,0.0025518888101083888,0.9917017921315288
2016-07-22,1,0.0016007242074577576,0.0016597720374398166,-0.010865519999400495,0.0023822866353470145,0.9911912529874207
2016-07-26,1,0.0010924714135588395,0.0011012307834654157,-0.010257033913508636,0.0025518888101083888,0.991380221756439
2016-07-28,1,0.0007774387904530005,0.0008131297351115372,-0.0077294591507527715,0.00258552825402258,0.9918053929682654
2016-08-01,1,0.0015882174494328636,0.0016928593128724698,-0.011187594027267605,0.0025029246769501497,0.9904898851090171
2016-08-03,1,0.00072386608586199,0.0007357343021257396,-0.010859998968929094,0.0033930850231322523,0.9908181583775476
2016-08-05,0,-3.276808156829706e-05,6.413603011678614e-05,-0.0072911416192046755,0.004890691749621752,0.9912978472926728
2016-08-09,1,0.00018045675787132064,0.00022651191245843706,-0.0072911416192046755,0.0067942907527723485,0.9904979957881858
2016-08-11,-1,-0.00021418446417649322,-9.844015534787355e-05,-0.010859998968929094,0.0067942907527723485,0.9886790939234271
2016-08-15,-1,-0.000993497665671763,-0.0007944518086928571,-0.010577797988760435,0.011386852162211072,0.9883003275631285
2016-08-17,-1,-0.0012338051780210928,-0.001000189835173465,-0.0072911416192046755,0.009070444878667566,0.989230120335821
2016-08-19,-1,-0.00065344976628169,-0.0005166769017999768,-0.005853841828189866,0.010366945642745916,0.9894946557215573
2016-08-23,-1,-0.0006214294184968116,-0.0004992699659259142,-0.003985944817367349,0.011090747762175217,0.9888759769312313
2016-08-25,-1,-0.0010201734133952196,-0.0008178177094010754,-0.003985944817367349,0.011090747762175217,0.9886393183553591
2016-08-29,-1,-0.001651599763369428,-0.0013733181593038881,-0.003985944817367349,0.010398714784995246,0.9893885233486213
2016-08-31,-1,-0.0020907350990742243,-0.0017525123495545094,-0.005770723467370817,0.010398714784995246,0.9893529124153325
2016-09-02,-1,-0.001683049495337723,-0.0013883249880053228,-0.009160146733958891,0.008839767219607575,0.9891700779137871
2016-09-07,-1,-0.001339452207333885,-0.0010881216912308627,-0.012397216868968651,0.005821916554054219,0.9888341824486223
2016-09-09,-1,-0.002584404852618849,-0.0021985592006349506,-0.009160146733958891,0.005821916554054219,0.9909024639020831
2016-09-13,-1,-0.00366532611795201,-0.0030451160080203652,-0.00969559007483318,0.005033728321578021,0.9915576892355586
2016-09-15,-1,-0.002853422123388961,-0.002357569067273197,-0.00969559007483318,0.00647520252217898,0.9907166478754421
2016-09-19,-1,-0.001711095560556638,-0.001375861451774069,-0.00969559007483318,0.005018939359383732,0.991128009914158
2016-09-21,-1,-0.0008719229458921684,-0.0006493519562380111,-0.00969559007483318,0.00459973564605823,0.991759570672459
2016-09-23,-1,-0.00040088531755613614,-0.00025425631892907316,-0.00969559007483318,0.001250828066195684,0.9916463462136537
2016-09-27,-1,-0.0009134502265634762,-0.0007385991126265153,-0.007742256409916881,0.004658653032785713,0.9923391741951023
2016-09-29,-1,-0.0017518555477691491,-0.0014817203027526686,-0.007742256409916881,0.0052104804817604666,0.9923846792756081
2016-10-03,-1,-0.002703084879635218,-0.002320677984900654,-0.0044722858591409766,0.005368479105023046,0.9917956553046173
2016-10-05,-1,-0.003936932313612945,-0.003406257035201256,-0.006670251947852051,0.005368479105023046,0.9915611408329958
2016-10-07,-1,-0.004443221183701302,-0.003822177851499787,-0.007904179276549326,0.005368479105023046,0.9910087002956482
2016-10-11,-1,-0.0049490853252782945,-0.004255633410262155,-0.006670251947852051,0.008515743750834047,0.9902782950403232
2016-10-13,-1,-0.003547639006567024,-0.0030127749965439257,-0.008991185670310046,0.005324112218440181,0.9897829173837981
2016-10-17,-1,-0.00345011058497807,-0.002951649786978743,-0.009057600717742677,0.00479059993806924,0.989955198352517
2016-10-19,-1,-0.0029200419731715476,-0.002513481021326614,-0.009057600717742677,0.006117113004297544,0.989057827931804
2016-10-21,-1,-0.0029510510255187734,-0.002563663111478715,-0.009057600717742677,0.00713975302378704,0.9886412757211033
2016-10-25,-1,-0.002229357419397309,-0.001960517237571149,-0.009057600717742677,0.009071807806519661,0.9880896530614194
2016-10-27,-1,-0.0023202107258699805,-0.002020764888190722,-0.009069756836656517,0.009071807806519661,0.987647564488544
2016-10-31,-1,-0.0007070955932710914,-0.0006430583474643434,-0.009069756836656517,0.009071807806519661,0.9875985339797027
2016-11-02,-1,-0.0017887435078219028,-0.0016016156826698714,-0.009574835003291204,0.009071807806519661,0.9867461508364275
2016-11-04,-1,-0.001875791233356564,-0.0016831596181255668,-0.009574835003291204,0.009071807806519661,0.9869452319445724
2016-11-08,-1,-0.0006483518712061289,-0.0006244019169235822,-0.009574835003291204,0.009071807806519661,0.9872122199404365
2016-11-10,-1,-0.002714438000242753,-0.0024381518527075994,-0.007029170946782516,0.01082120819880424,0.9888783508086397
2016-11-14,-1,-0.003414341289020881,-0.0030587474805897634,-0.0013413177125340494,0.01257561074983295,0.9878428444052763
2016-11-16,-1,-0.0023242082483105678,-0.0021548132148704272,-0.0013413177125340494,0.01082120819880424,0.9881610794577504
2016-11-18,-1,-0.002064050729199393,-0.001916963452781477,-0.0013413177125340494,0.01257561074983295,0.9877499298422024
2016-11-22,-1,-0.0007840062586904797,-0.000745755535365643,-0.0013413177125340494,0.01257561074983295,0.9889826880122974
2016-11-25,-1,-0.0005026217571280199,-0.0004020336413801286,8.521031697476441e-05,0.00797360871860479,0.9903749246404456
2016-11-29,1,0.0003008513016466108,0.000499040028947415,-0.003255315716069733,0.005379327295447561,0.9914160653475713
2016-12-01,-1,-0.0016428990751904222,-0.0015500679727388756,-0.0005527890175371301,0.00797360871860479,0.9917303818495217
2016-12-05,-1,-0.001073766609199823,-0.0010631349348836784,-0.0027252580999170915,0.008824891007981896,0.991826293501038
2016-12-07,-1,-0.0004966361742774464,-0.0004204227220474691,-0.0027252580999170915,0.006842288155635338,0.9928574652320132
2016-12-09,1,8.075618542728445e-05,0.00023192452254840862,-0.0028956385310832623,0.005379327295447561,0.9930921807058791
2016-12-13,1,0.001246257762469654,0.001603370596094984,-0.0028956385310832623,0.004453886444631698,0.9937738558071662
2016-12-15,1,0.000498350085624288,0.0007339340797252972,-0.0027252580999170915,0.005663088058573264,0.9945994685439395
2016-12-19,1,0.0010194498456740863,0.001312467630255696,-0.0028956385310832623,0.004453886444631698,0.9946502961545599
2016-12-21,1,0.0014643820607603848,0.001847103210425624,-0.0028956385310832623,0.002621352693957284,0.9944755053300177
2016-12-23,1,0.0013373644790054414,0.0016631219527566989,-0.0035654258325045042,0.001535422912922107,0.9943315712945674
2016-12-28,1,0.000600483587287853,0.0007956802011168569,-0.0028956385310832623,0.002154238161316488,0.9952265954190751
2016-12-30,1,0.001096509729861534,0.00135709670155334,-0.0020922755023243663,0.002154238161316488,0.9953599376074979
2017-01-04,1,0.0013114093637827157,0.0015986303849620238,-0.0024268758779624738,0.001828125684166871,0.9941804814012135
2017-01-06,1,0.0008595097037098268,0.0010460986371348816,-0.0020608441830990074,0.002154238161316488,0.9941654143335427
2017-01-10,1,0.0005751737923495417,0.0007290692288714441,-0.0012385482716109697,0.00596993431938953,0.9943394421594383
2017-01-12,1,0.000986485220544661,0.0012006113004422744,-0.003192544712596094,0.003201649786436857,0.993946293076302
2017-01-17,1,0.0013178229175363314,0.0015691052055776932,-0.005351083629271474,0.003201649786436857,0.9936039265663295
2017-01-19,1,0.000903427894204976,0.0011060430187894567,-0.005160707091447366,0.005664250135020773,0.9937985698233932
2017-01-23,1,0.0005603885227333966,0.0006902719732381403,-0.005160707091447366,0.006214619658440683,0.9935939568182027
2017-01-25,1,0.0003191437418781235,0.00040443384322168437,-0.003390032327529864,0.007205404822924831,0.9928344633996754
2017-01-27,1,0.0006257329235494212,0.0007773682163147004,-0.003390032327529864,0.007205404822924831,0.9929446612460502
2017-01-31,1,0.001321767540441546,0.0015775344358962666,-0.00576668716746781,0.007205404822924831,0.9929632762397503
2017-02-02,-1,-5.32472711838156e-05,-4.174374407208707e-05,-0.00576668716746781,0.007205404822924831,0.9932471068419784
2017-02-06,1,1.8318732820824175e-05,5.5920777906870545e-05,-0.00576668716746781,0.007205404822924831,0.9934383524635085
2017-02-08,1,0.0007857259840125012,0.0009517931662057041,-0.005984098167730184,0.005739355008378698,0.9933116090790517
2017-02-10,1,0.0007405474426249813,0.0009419593049850961,-0.004906951949937913,0.008131846448141666,0.9932023294119742
2017-02-14,1,0.0010460191057807865,0.001328760338863688,-0.0030536922907052795,0.008944435657533008,0.9930242512441457
2017-02-16,1,0.0012732120899693548,0.0015954009738152395,-0.0030536922907052795,0.008944435657533008,0.9929952447341408
2017-02-21,1,0.0012976314359366315,0.0015813738833104088,-0.004718448023830506,0.009266030841530156,0.9922822389825546
2017-02-23,1,0.0016369069337055136,0.0019299071387040637,-0.004718448023830506,0.005982101865027128,0.9929259287567679
2017-02-27,1,0.001305594224059978,0.0015112651353198362,-0.004718448023830506,0.007157885554148129,0.992608255577443
2017-03-01,1,0.0010038930640965094,0.0011134893280479693,-0.003976685111487929,0.005416199235519618,0.9931181079966553
2017-03-03,1,0.0005582549206637272,0.0005985898176340677,-0.003976685111487929,0.005416199235519618,0.9933760695836139
2017-03-07,1,0.00034294799094364736,0.00034734460576885736,-0.003976685111487929,0.005416199235519618,0.9935570560177179
2017-03-09,1,0.00020473634839717793,0.00023871854309432864,-0.003158364553097826,0.007157885554148129,0.9936923890323272
2017-03-13,1,0.0007664726479178624,0.0008628197371834496,-0.004070253847484111,0.0037382881135731225,0.9940706638146057
2017-03-15,1,0.0013890479373337627,0.0015731705185431984,-0.004070253847484111,0.0037382881135731225,0.9947678005770522
2017-03-17,1,0.0009534146776503023,0.001061581600819593,-0.004070253847484111,0.003553406502524257,0.9949255437711861
2017-03-21,1,0.0015507360712597256,0.0017527566454907818,-0.0045389521120912,0.0031882246620277745,0.9955184407163933
2017-03-23,1,0.0013767479035169162,0.0015576943277277302,-0.00699159870653566,0.003553406502524257,0.9947683630348705
2017-03-27,1,0.00196123250637343,0.0022705158695686275,-0.00699159870653566,0.003553406502524257,0.994774841720586
2017-03-29,1,0.0013698630273967017,0.0015407755068132729,-0.00699159870653566,0.004411117769089276,0.9947762963310003
2017-03-31,1,0.0010656812591105622,0.0011815130038818852,-0.00554063087927247,0.004411117769089276,0.9948381992466386
2017-04-04,1,0.0014569976533544454,0.001667483080899099,-0.00554063087927247,0.004877071445547871,0.994732387618104
2017-04-06,1,0.0005528679530859422,0.0005687877048966638,-0.003620482583465548,0.00519967345417243,0.994952178247035
2017-04-10,0,-0.0001391102211331139,1.2736025271037712e-06,-0.003620482583465548,0.00519967345417243,0.9949022200033945
2017-04-12,1,0.0003289869616785652,0.0004002376179257441,-0.00554063087927247,0.004877071445547871,0.994880761492971
2017-04-17,1,0.00023102293986328794,0.00030462966822109483,-0.003620482583465548,0.00500400766741149,0.9950398094540733
2017-04-19,1,0.0003031420053316062,0.00033564304151421096,-0.003620482583465548,0.00500400766741149,0.9949337350333846
2017-04-21,1,0.0001319317545509858,0.00018948972335343644,-0.0030128161678202228,0.004832548465460178,0.995777586186427
2017-04-25,1,0.0008071067010840098,0.0008778193124319407,-0.0030128161678202228,0.004832548465460178,0.9958021024433517
2017-04-27,-1,-0.00019814943814433316,-5.713826189553242e-05,-0.0012305348050626946,0.0051918081682263,0.9952749643459138
2017-05-01,-1,-0.00048023396616017513,-0.0003133354246000605,0.00025093240536088797,0.0051918081682263,0.9954119943309057
2017-05-03,-1,-0.00012337121093181514,-1.4980400408838622e-05,0.0004889211103788803,0.005362368135827614,0.9953576760707735
2017-05-05,1,0.0007003034030033687,0.0007169135738614636,-0.0005224264866344733,0.005058239227963219,0.9956595208390961
2017-05-09,1,0.0005799466982192508,0.0006202308346589692,0.0004889211103788803,0.0055989131413426,0.9956326631654703
2017-05-11,-1,-8.441052919406518e-05,-1.0955700879448276e-05,0.0004889211103788803,0.0055989131413426,0.9953578076405609
2017-05-15,1,0.000482918409057394,0.0005044572862874932,0.0004889211103788803,0.0055989131413426,0.9958740675440102
2017-05-17,1,0.00036328586777286385,0.0003741614245664431,0.0009142387068574516,0.006382313311257627,0.9959107169956262
2017-05-19,1,0.0005442088204059809,0.0005868483002326528,0.0004889211103788803,0.006382313311257627,0.9955918380850569
2017-05-23,1,0.0005105532903658738,0.0005191718030959015,-0.0011532508086070246,0.005692330184028072,0.9955567388479611
2017-05-25,1,0.0011675070999739242,0.0012861223389020549,-0.003318850493584377,0.005012223794155712,0.9959885145572058
2017-05-30,1,0.0011961827260042156,0.001327424403892421,-0.003870586681951427,0.005012223794155712,0.9952060706473732
2017-06-01,1,0.0014367320148893057,0.0015905452247686731,-0.006248522974922805,0.003459690890600001,0.9944646483742885
2017-06-05,1,0.0009842962082218004,0.0010576800660369902,-0.0048560365014537425,0.0025348121658436123,0.9948053835293675
2017-06-07,1,0.0013232529606762816,0.001456691544149115,-0.00499332183174976,0.002258660497057831,0.9948873528453415
2017-06-09,1,0.0013214032775592866,0.0014727696801132878,-0.004444596137554031,0.0024117399387163533,0.995079743522583
2017-06-13,1,0.0011105613480570289,0.0012032304630074887,-0.004444596137554031,0.0030689771970895474,0.994771182929317
2017-06-15,1,0.001199457880652273,0.0012959035581366924,-0.00499332183174976,0.0030689771970895474,0.9942876279008176
2017-06-19,1,0.0009952522094620678,0.001053412693544384,-0.004444596137554031,0.0036844710094111064,0.9943333263499406
2017-06-21,1,0.0010041323491629304,0.0010625214056494932,-0.004444596137554031,0.003981011007711543,0.9943420804500209
2017-06-23,1,0.0010142106644394037,0.0011012168877736598,-0.005351201097140433,0.00617599530081467,0.9936404825862949
2017-06-27,0,-2.5349196374838405e-06,9.244839225268277e-05,-0.004716409880184412,0.006700800760036218,0.9940229928164421
2017-06-29,-1,-0.0008062746091935028,-0.0006144317552598547,-0.002779701265978423,0.006700800760036218,0.9948190268093032
2017-07-03,-1,-0.0007667046957049561,-0.0006047008230463969,-0.0019972252885314544,0.007376970049842647,0.9943606598274282
2017-07-06,-1,-0.0013586554994526458,-0.001098794623045365,-0.001710179945518288,0.00830894568577505,0.9935791963701762
2017-07-10,-1,-0.0014300005704261385,-0.0011564684469708448,-0.0007130987488946445,0.00830894568577505,0.9935164990814622
2017-07-12,-1,-0.001114367441842764,-0.0008780710007476409,-0.0019972252885314544,0.007608797556761382,0.993675866249451
2017-07-14,-1,-0.0010058096422520002,-0.0008012074500324822,-0.0019972252885314544,0.007608797556761382,0.9936860971434057
2017-07-18,0,-4.9636035369374595e-05,6.667164317070525e-06,-0.0019972252885314544,0.007153484014306304,0.9941642578939285
2017-07-20,1,0.00027201226430550806,0.00029038553087644447,-0.0026841720468094247,0.006784607465748727,0.9942821443456457
2017-07-24,1,0.00020129851940090392,0.00021703668657281812,-0.0019972252885314544,0.006784607465748727,0.9948986914410123
2017-07-26,1,9.732536678564677e-05,0.00014425970897620258,-0.0007130987488946445,0.006589862918665218,0.9952644942199513
2017-07-28,-1,-0.00024044496372229736,-0.00014934450724887397,0.0010853063961915172,0.006589862918665218,0.9951047457164899
2017-08-01,-1,-0.00032806601536593987,-0.00018537891397435636,-0.0006928601065371472,0.004865129501034819,0.9954158670320663
2017-08-03,1,0.0006808248978798123,0.0006929532478946229,-0.0018761462252843016,0.0032799401468299105,0.9962513385975926
2017-08-07,1,0.0010373706877596688,0.0011322172675005773,-0.0018761462252843016,0.003542403471665447,0.9961911148240447
2017-08-09,1,0.0008567884049081728,0.0009061160998420025,-0.0014938414718602274,0.003542403471665447,0.9962466399916211
2017-08-11,1,0.0007793504927781161,0.0008499751656004682,-0.00011615446876469919,0.006141154971739503,0.9964026175482389
2017-08-15,1,0.001030298298351012,0.0011194544395565344,-0.0018761462252843016,0.004726398441997823,0.9953814202251104
2017-08-17,1,0.0007499823839739192,0.0008110879172775076,-0.0014938414718602274,0.006152364239260584,0.9951477143646167
2017-08-21,1,0.0010812814554566764,0.0011829033970200587,-0.0020735336724393635,0.004726398441997823,0.994771045250092
2017-08-23,1,0.0011259416966339733,0.0012199271054093635,-0.00450709100897301,0.004726398441997823,0.994218941467267
2017-08-25,1,0.0010241501644659807,0.0010984192319082233,-0.007364416506622392,0.006152364239260584,0.9934591826902178
2017-08-29,1,0.001074843623585627,0.0011586377264436168,-0.007522626111051472,0.006152364239260584,0.9926095395712509
2017-08-31,1,0.0009351587510330218,0.000991327607468119,-0.007522626111051472,0.006152364239260584,0.9923146908425089
2017-09-05,1,0.0012811810197207293,0.0014033671651058949,-0.007522626111051472,0.006467927362332699,0.9918063210715833
2017-09-07,1,0.0014402510223711943,0.0015702984745070998,-0.007522626111051472,0.006467927362332699,0.9915547659728186
2017-09-11,1,0.001653615118259239,0.0017909737197958837,-0.007522626111051472,0.004036404397736934,0.991817532022897
2017-09-13,1,0.0004156437801673139,0.0004445617532996841,-0.00634499565290428,0.004036404397736934,0.9932783490986825
2017-09-15,1,0.0010652874005882872,0.0011281563435448052,-0.007208581474037544,0.003991138125130843,0.9928295852145604
2017-09-19,1,0.00031315251475627377,0.00034649349135997876,-0.005356837456077903,0.00502677636565175,0.9933916136557529
2017-09-21,-1,-0.0004148225016083448,-0.0002756907234345432,-0.004586111374979914,0.00789660426320209,0.9931755258697674
2017-09-25,-1,-0.00024806485673362153,-0.00013480603366532472,-0.0019070722748177529,0.00502677636565175,0.994002260719079
2017-09-27,-1,-0.0008726502375068153,-0.0007156224984586165,-0.0006536548009223608,0.00502677636565175,0.9947222512262733
2017-09-29,-1,-0.0012543690323074909,-0.0010317502905002316,-0.0003895311500856681,0.007809492011028431,0.9941054538069598
2017-10-03,-1,-0.0010304063354259695,-0.0008214728609229826,-0.0006536548009223608,0.007330137606607593,0.9949172382855764
2017-10-05,-1,-0.0004418516938999459,-0.00031631592695613263,-0.0008300595135042484,0.007330137606607593,0.9949841531502679
