JNU-Tangyin/eata/results/Batch4_SP500/Batch4_SP500-UPS.csv
Date,Action,Predicted_Q25,Predicted_Q75,Actual_Q25,Actual_Q75,RL_Reward
2010-12-14,0,0.0,0.0,-0.0044575311659890045,0.001202710472206372,0.9963692569444017
2010-12-16,0,0.0,0.0,-0.002739910995204608,0.001614567431674897,0.9971622484310269
2010-12-20,1,0.0006956857433653232,0.0007380791549372824,-0.0018873807193717255,0.002140344615396186,0.9967883823351469
2010-12-22,1,0.0009628336212862318,0.0010187891024969167,-0.0018873807193717255,0.0031698861620428837,0.99646180791431
2010-12-27,1,0.0009349665623652254,0.0009904707651652643,-0.0028174845165525675,0.003429979296607469,0.9961320083396522
2010-12-29,1,0.0008440215250427241,0.000883036783176981,-0.0028174845165525675,0.003429979296607469,0.9962764133179424
2010-12-31,1,0.0012699265676732515,0.0014315491211920185,-0.004815316369475293,0.004224746798095356,0.9943898828420747
2011-01-04,0,0.0,0.0,-0.005244419286922338,0.004224746798095356,0.9921479247181533
2011-01-06,0,0.0,0.0,-0.004815316369475293,0.004224746798095356,0.9922998278427453
2011-01-10,0,0.0,0.0,-0.0022055809852273792,0.004224746798095356,0.9923320911200249
2011-01-12,0,0.0,0.0,0.00010905032395009962,0.004224746798095356,0.9925373949992657
2011-01-14,0,0.0,0.0,-0.0022055809852273792,0.004955151632341856,0.9921973104214499
2011-01-19,-1,-0.0008227608784364784,-0.0005264412679359089,-0.00030265113775891606,0.004955151632341856,0.9923474580193802
2011-01-21,-1,-0.00028138980118686647,-6.306689313902245e-05,-0.00030265113775891606,0.005131612758184748,0.9925214898754074
2011-01-25,1,0.0003960067244503329,0.0004695390348565274,-0.002633911476119581,0.00437139801600067,0.9912070250135896
2011-01-27,1,0.0010525498628126471,0.0011258750838294724,-0.003965384160073087,0.00437139801600067,0.9910224236316907
2011-01-31,-1,-0.00017175807425922604,-9.007930329585546e-05,-0.003965384160073087,0.003689520690607405,0.9917062153768248
2011-02-02,1,0.000237991930004422,0.0002673980634984363,-0.0016544287790201664,0.003689520690607405,0.9933109765800096
2011-02-04,1,0.00028285676967145467,0.00032127331345566546,-0.007386596469308744,0.003379340363619316,0.9923462650365221
2011-02-08,0,-8.137991736266388e-05,2.9307829514318518e-05,-0.007386596469308744,0.006267714669460123,0.9915921512813994
2011-02-10,1,0.00010047410098617561,0.00018577420942263452,-0.007386596469308744,0.007730794692594682,0.9910316442058638
2011-02-14,1,0.00031357376098349187,0.000356039901131235,-0.012581745403417378,0.006642576816231754,0.9901549923025308
2011-02-16,1,0.0008603880580779614,0.0008681479081709328,-0.014233657725564243,0.006642576816231754,0.9888178814808432
2011-02-18,1,0.0011184125952305398,0.0011512141866339251,-0.014233657725564243,0.00777983165391007,0.9883620307579013
2011-02-23,-1,-0.0012487043420310938,-0.0009795793556538496,-0.011171024798722019,0.00777983165391007,0.9899426231553098
2011-02-25,-1,-0.0015924651543628736,-0.0012605980145976492,-0.011171024798722019,0.008377584089750255,0.9898327974179446
2011-03-01,-1,-0.0017987722155036819,-0.0015002485200497858,-0.009337566230899829,0.013604820556703508,0.9895906957732435
2011-03-03,-1,-0.0011198487633888561,-0.0008906064755833596,-0.009337566230899829,0.009952334440226819,0.9899875856217037
2011-03-07,0,0.0,0.0,-0.003304104035809486,0.009952334440226819,0.9907111217904015
2011-03-09,0,0.0,0.0,-0.006449557248509554,0.007226895408618248,0.9910990431035832
2011-03-11,0,0.0,0.0,-0.008454271689396513,0.005041944392298433,0.9910435100853022
2011-03-15,0,0.0,0.0,-0.006053881922508981,0.005041944392298433,0.9925279716623019
2011-03-17,0,0.0,0.0,-0.006053881922508981,0.004358829159198943,0.9938186349751897
2011-03-21,0,0.0,0.0,-0.006706957896148587,0.004186151132298916,0.993939638841508
2011-03-23,0,0.0,0.0,-0.0036436202558241073,0.004358829159198943,0.9942280804167253
2011-03-25,0,0.0,0.0,-0.0036436202558241073,0.004948072244147611,0.9939703599522224
2011-03-29,0,0.0,0.0,-0.0036436202558241073,0.004818301755323997,0.9947448581231978
2011-03-31,0,0.0,0.0,-0.0036436202558241073,0.004818301755323997,0.9948343272065163
2011-04-04,0,0.0,0.0,-0.0036436202558241073,0.004818301755323997,0.9949022007157913
2011-04-06,-1,-0.000806302690339732,-0.0008054055462570174,-0.004507122819580879,0.004688880558031841,0.994694519565696
2011-04-08,0,0.0,0.0,-0.003042233672301729,0.004688880558031841,0.9952127416620405
2011-04-12,-1,-0.0006896871013889464,-0.0005364861198292322,-0.003042233672301729,0.006350721127182664,0.9945476099188986
2011-04-14,-1,-0.0007420400998992308,-0.000594871222027222,-0.002994159624938386,0.006350721127182664,0.9947448723299607
2011-04-18,-1,-0.0010690889274265346,-0.000873814709024539,-0.00396749769496631,0.006350721127182664,0.9950399160612328
2011-04-20,-1,-0.0005793827493160832,-0.0004619001702216923,-0.00396749769496631,0.006253955288615313,0.9950420374005209
2011-04-25,0,0.0,0.0,-0.004261053847703157,0.004253828658219981,0.9951433049391931
2011-04-27,0,0.0,0.0,-0.004726681241897813,0.003144991284522133,0.9951349144183497
2011-04-29,1,0.0001536159138644249,0.00017932154595554995,-0.004726681241897813,0.0024859399142540158,0.995441246604969
2011-05-03,0,0.0,0.0,-0.005211370921417165,0.0026925902980388786,0.994528863205158
2011-05-05,0,0.0,0.0,-0.005211370921417165,0.0026925902980388786,0.9944614917754837
2011-05-09,1,6.162626285388664e-05,8.163799577434242e-05,-0.007577381376591957,0.0026925902980388786,0.9938329105614114
2011-05-11,1,0.0009741107072868554,0.0011130879407432771,-0.007577381376591957,0.000315717250272883,0.9936091639990701
2011-05-13,1,0.00032982161746974547,0.00034593415742679805,-0.00818779761778408,0.000315717250272883,0.9937240370910867
2011-05-17,-1,-0.00010924657829407714,-7.527985752561961e-05,-0.00818779761778408,0.0009086345033259946,0.9937690779474009
2011-05-19,0,0.0,0.0,-0.00818779761778408,0.000315717250272883,0.9941872642488004
2011-05-23,0,0.0,0.0,-0.00818779761778408,0.0017732247723743035,0.993665273265846
2011-05-25,0,0.0,0.0,-0.007436221057062765,0.0024896442498564776,0.9936688161624675
2011-05-27,0,0.0,0.0,-0.007436221057062765,0.003339726958745871,0.9934303505291616
2011-06-01,0,0.0,0.0,-0.0038594295206818207,0.003339726958745871,0.994119028319707
2011-06-03,0,0.0,0.0,-0.001784696835211255,0.007017877869366147,0.9935823633882985
2011-06-07,0,0.0,0.0,-0.001089871414713961,0.008843671281056118,0.9939566806552615
2011-06-09,0,0.0,0.0,-0.001089871414713961,0.01005789481311084,0.9932244560464796
2011-06-13,0,0.0,0.0,-0.0016920799419395613,0.01005789481311084,0.9929389419056368
2011-06-15,0,0.0,0.0,-0.0013370954768110311,0.008843671281056118,0.9933957440454847
2011-06-17,1,0.04211207092972481,0.05206605929396481,-0.0030573590813565456,0.008843671281056118,0.9571619762051572
2011-06-21,0,0.0,0.0,-0.0030573590813565456,0.008843671281056118,0.9931959937353277
2011-06-23,0,0.0,0.0,-0.0033735275598783163,0.010238541488864276,0.9929133973529035
2011-06-27,0,0.0,0.0,-0.004523817924122022,0.010238541488864276,0.991564555023915
2011-06-29,0,0.0,0.0,-0.00942702214742533,0.010238541488864276,0.9903367719258531
2011-07-01,0,0.0,0.0,-0.010743383664213842,0.0018063066489834353,0.9904863320005948
2011-07-06,0,0.0,0.0,-0.012157877059161316,0.0018063066489834353,0.9893882704922857
2011-07-08,0,0.0,0.0,-0.016249092085424462,0.0018063066489834353,0.9886575270590444
2011-07-12,1,1.668111958285414e-17,1.6934834275728647e-17,-0.019411468449324842,0.003503584475017878,0.985755641477063
2011-07-14,1,0.0008921204048181758,0.0010837196791899616,-0.0206411811950125,0.008281366430989676,0.9820849050217028
2011-07-18,1,3.4313447984574724e-05,5.161586168956013e-05,-0.0206411811950125,0.010814489531498057,0.9819498816207156
2011-07-20,1,0.0004327439663805242,0.0005022319836130792,-0.0206411811950125,0.00816973638369427,0.9820296741455502
2011-07-22,1,0.0004220209714369449,0.00046566580970208764,-0.024881354850457994,0.007143091041744985,0.9801902579663315
2011-07-26,-1,-0.0003112754561816021,-0.00028486858252050066,-0.0206411811950125,0.00816973638369427,0.9803478908013905
2011-07-28,0,0.0,0.0,-0.0206411811950125,0.011518541844388507,0.9803670396603122
2011-08-01,-1,-0.0010094871620000385,-0.0008956719861313715,-0.01837595173947558,0.015597338411924462,0.9792073937829938
2011-08-03,-1,-0.002972108409378305,-0.0026710070005887526,-0.012215278934866895,0.015597338411924462,0.9799311186788496
2011-08-05,-1,-0.004842179250907481,-0.004255144283657947,-0.011987864189626364,0.015597338411924462,0.9805284151648497
2011-08-09,0,0.0,0.0,-0.011987864189626364,0.011659807262601641,0.9832645327034194
2011-08-11,-1,-0.002030218938942537,-0.0018039293479077934,-0.010529270785171279,0.010066563777810032,0.9864733189451965
2011-08-15,0,0.0,0.0,-0.010529270785171279,0.010590558164665531,0.9864150160317696
2011-08-17,-1,-0.0017393123207911565,-0.0015451894611387598,-0.010529270785171279,0.013231790423168138,0.9857820891479706
2011-08-19,-1,-0.002300141321766074,-0.0020567784259307572,-0.010529270785171279,0.013231790423168138,0.9871515459765055
2011-08-23,-1,-0.0024453270169002292,-0.0022161445690419288,-0.010978957729876322,0.010590558164665531,0.9873366223616941
2011-08-25,-1,-0.002840684970640187,-0.002585621353961399,-0.010978957729876322,0.008106061213182745,0.9873846745189336
2011-08-29,-1,-0.0004784533989467169,-0.0004530466314365187,-0.010978957729876322,0.008106061213182745,0.9881576292872462
2011-08-31,-1,-0.00046279653165297557,-0.00045941616157858263,-0.012256509714986671,0.010590558164665531,0.9868439791805375
2011-09-02,-1,-0.001809587751910436,-0.0016687489958524286,-0.013758268687084265,0.010590558164665531,0.986437420760649
2011-09-07,-1,-0.002291382376575745,-0.0020699966972157493,-0.012256509714986671,0.014371233874264634,0.9850997774738742
2011-09-09,-1,-0.0022589674054404947,-0.0020213595814861326,-0.012256509714986671,0.015745243519872457,0.9846606727140154
2011-09-13,-1,-0.00223301821464946,-0.00203467170441044,-0.012256509714986671,0.020397119468215322,0.984068395841921
2011-09-15,-1,-0.0007518849444531269,-0.0007428779930691993,-0.012256509714986671,0.015745243519872457,0.9846807991499621
2011-09-19,-1,-0.0006309044975170723,-0.000585868775282547,-0.013520571858387469,0.015745243519872457,0.9843008083484988
2011-09-21,-1,-0.00118686116766027,-0.0011806574288595537,-0.008500347901782286,0.018553464217288086,0.9847116291535859
2011-09-23,-1,-0.002116099396440584,-0.0020111430577865485,-0.006370874833146141,0.018553464217288086,0.985169452329088
2011-09-27,-1,-0.0013323779998572842,-0.0012966265191474665,-0.008500347901782286,0.015424360170405816,0.9854433541410013
2011-09-29,-1,-0.0008171942590800256,-0.0008052664401392836,-0.006370874833146141,0.015424360170405816,0.9857318041230637
2011-10-03,-1,-0.0010832603535110815,-0.001069294667576208,-0.004483735073910073,0.015424360170405816,0.9865998202617363
2011-10-05,1,0.0003413903145565228,0.0005021679701420026,-0.006370874833146141,0.012515128190440114,0.9880124568870872
2011-10-07,0,0.0,0.0,-0.0071610522621492045,0.012515128190440114,0.9875031128607369
2011-10-11,0,0.0,0.0,-0.0071610522621492045,0.012515128190440114,0.9876634746806497
2011-10-13,1,0.0010936060199088602,0.0013564015805495556,-0.009502684939488226,0.012808038723068276,0.9863583824813944
2011-10-17,1,0.0010068521538454584,0.0012472755137686049,-0.007635537192191268,0.012884535874209431,0.9866385153248197
2011-10-19,1,0.0012889444507080783,0.0015712868150380937,-0.010429911298819162,0.0125406272408205,0.9867882125074016
2011-10-21,1,0.0016335934208051128,0.0019462094131243249,-0.010429911298819162,0.011891005829977524,0.987124679963902
2011-10-25,1,0.001276631796910856,0.0015150764407002703,-0.009385247586903714,0.011419519603328234,0.9877812378015279
2011-10-27,1,0.0016546209211882536,0.0019123851057016856,-0.014168441678084023,0.007769683223205854,0.9879417835173679
2011-10-31,1,0.0010046026812625057,0.0011645956632427455,-0.009385247586903714,0.011419519603328234,0.9877106496349849
2011-11-02,1,0.0006094924690740604,0.0006971908256293951,-0.008218958750846992,0.012884535874209431,0.9865440783633708
2011-11-04,1,0.000975905342737566,0.0011257994659035658,-0.007776268696064716,0.012506400847902291,0.9871749178025201
2011-11-08,1,0.0015373584029462505,0.0017622017666189278,-0.007776268696064716,0.012506400847902291,0.9870061384251672
2011-11-10,1,0.0014391871403545012,0.0016855430815144483,-0.007776268696064716,0.007573456146565826,0.9882503499968253
2011-11-14,1,0.001702883192268611,0.0019990042539244574,-0.009230006533722164,0.004909008910648886,0.9881086156659692
2011-11-16,1,0.0013348915347203795,0.0015847057126877934,-0.008474994692906364,0.007573456146565826,0.9883456117281105
2011-11-18,1,0.0013822734202840687,0.0016510618738023325,-0.009230006533722164,0.007573456146565826,0.987963843500502
2011-11-22,1,0.001377336354989587,0.0016888637701523248,-0.008474994692906364,0.012507157796452145,0.9876407028233593
2011-11-25,1,0.0009238755107482062,0.0011872102638497246,-0.006432878668677955,0.012507157796452145,0.9883364429657057
2011-11-29,1,0.001771007379937956,0.0021533841998692647,-0.008474994692906364,0.008580545522575969,0.9890407389325467
2011-12-01,1,0.0024159578562383045,0.0028595183087217146,-0.006432878668677955,0.008234896578892467,0.9910563849916719
2011-12-05,1,0.002710768333212928,0.003195233085203032,-0.006432878668677955,0.008234896578892467,0.9908238597958412
2011-12-07,1,0.00292658414640486,0.0034234328685171156,-0.008752387942216465,0.006657118185419928,0.9912009010841327
2011-12-09,1,0.0028739155469491417,0.0033863364267314854,-0.006432878668677955,0.008003754581421694,0.9918606159848663
2011-12-13,1,0.0025655493930638656,0.00305222255264287,-0.004392298186863391,0.008003754581421694,0.9929485317089615
2011-12-15,0,0.0,0.0,-0.004392298186863391,0.006657118185419928,0.9930077673449667
2011-12-19,0,0.0,0.0,-0.0020090000762252973,0.007944595706721787,0.99307695577423
2011-12-21,0,0.0,0.0,-0.003962632900744046,0.006657118185419928,0.9941033299282284
2011-12-23,0,0.0,0.0,-0.003962632900744046,0.006312512408315254,0.9942888933538349
2011-12-28,0,0.0,0.0,-0.002259009732117282,0.006312512408315254,0.9945394334296525
2011-12-30,0,0.0,0.0,-0.002259009732117282,0.005218801335136309,0.9949159730484798
2012-01-04,0,0.0,0.0,-0.002259009732117282,0.005218801335136309,0.9947883671430208
2012-01-06,0,0.0,0.0,-0.0007388455671728088,0.005218801335136309,0.9951653629612328
2012-01-10,0,0.0,0.0,-0.002259009732117282,0.004875511996234729,0.9952092320705778
2012-01-12,0,0.0,0.0,-0.00402140018144781,0.004344737991423615,0.9952729255326
2012-01-17,0,0.0,0.0,-0.002259009732117282,0.004875511996234729,0.9953483537517744
2012-01-19,1,0.0008000695278843375,0.000804586979654566,-0.00402140018144781,0.003229292447785114,0.9959443497553279
2012-01-23,0,0.0,0.0,-0.004585109333628179,0.003229292447785114,0.9958542021301203
2012-01-25,0,0.0,0.0,-0.004714263049849532,0.003229292447785114,0.9955420480693185
2012-01-27,0,0.0,0.0,-0.004714263049849532,0.003694419557123881,0.9955514788806336
2012-01-31,0,0.0,0.0,-0.004585109333628179,0.003694419557123881,0.9958067022664489
2012-02-02,0,0.0,0.0,-0.004550606091989828,0.0030335925847875126,0.9965160297850265
2012-02-06,1,0.0008070557945132012,0.0008377038474465068,-0.0045864407744693565,0.0015982597679305808,0.9960704457992638
2012-02-08,1,0.0008358535009490873,0.0008565910098180796,-0.004550606091989828,0.0021508553625465636,0.9958934299765204
2012-02-10,1,0.0007789546907646754,0.000815877539641492,-0.0032937318819495592,0.005302322948115316,0.9956692666005023
2012-02-14,1,0.0002565697336357745,0.0003739186227527612,-0.0032937318819495592,0.005302322948115316,0.9955715485712759
2012-02-16,1,0.0001682643769570237,0.0003173799269966318,-0.0032937318819495592,0.0060185863305531676,0.995075842831387
2012-02-21,1,0.0003210446957183016,0.0004333770187555829,-0.0032937318819495592,0.0073398055813449995,0.993184947365291
2012-02-23,1,0.00046556049515593834,0.0005572938848793209,-0.0028612046971096114,0.0060185863305531676,0.9937770675119959
2012-02-27,0,-0.00018222473534709998,6.977511458676651e-06,-0.0032937318819495592,0.0073398055813449995,0.9931495743927514
2012-02-29,1,0.0003858794431539843,0.00040539182870092316,-0.004403301681177795,0.0073398055813449995,0.9928484121027948
2012-03-02,1,7.989339815289305e-05,0.00012393421841436046,-0.003244186598065156,0.008801276416559206,0.9925346983876787
2012-03-06,1,0.0001485563311506721,0.00018007723350794345,-0.0024945900756468318,0.008801276416559206,0.9930061349017695
2012-03-08,1,0.00028377458702233323,0.00031633661624949725,-0.0032310612968523564,0.0073398055813449995,0.9930966379127577
2012-03-12,1,0.0003211452920218293,0.00035583830436477967,-0.006810494669552383,0.005193441035305935,0.9925032261667007
2012-03-14,1,0.00037120125257736304,0.0003884408210698941,-0.006810494669552383,0.006403409777837182,0.9923504010519175
2012-03-16,1,0.0003700283699026649,0.0003901651540514565,-0.005040353743820159,0.004473400939007726,0.9930365746736333
2012-03-20,1,0.0007486926912710836,0.0007506512737183577,-0.0032310612968523564,0.004473400939007726,0.9945912524930399
2012-03-22,1,0.0009942385465821438,0.0010484208154264386,-0.005040353743820159,0.005318595691100173,0.9941655562128551
2012-03-26,1,0.000693326344638384,0.0006996299898066117,-0.005222073634590428,0.0052106949987985466,0.9940247938207128
2012-03-28,1,0.0007134751746295224,0.000716061550598994,-0.00791943710546016,0.0052106949987985466,0.9934310251015004
2012-03-30,1,0.0008464927167441597,0.0008718977142228702,-0.00791943710546016,0.004288740003496567,0.9937892398856721
2012-04-03,1,0.0008650567991433829,0.0009110455612349308,-0.00791943710546016,0.004450893149151271,0.9937698041690168
2012-04-05,1,0.0006311865337562337,0.0006313524613252598,-0.005304102188698854,0.004450893149151271,0.9938257006400019
2012-04-10,1,0.0002851369231179441,0.00032416953306555206,-0.003957218331013139,0.004450893149151271,0.9948896640102929
2012-04-12,1,0.00033330653887223797,0.0003776802568802974,-0.004989124477435724,0.0024004147656492983,0.9948420255049605
2012-04-16,1,0.0002740823210726328,0.0003351054831754282,-0.004989124477435724,0.0024004147656492983,0.9946531050596071
2012-04-18,1,0.00022229225288184173,0.00030483636773653,-0.004989124477435724,0.001273204661190436,0.9950035263697807
2012-04-20,0,-8.626590151154762e-05,5.819499235080951e-05,-0.006675176786140336,-0.00025278149199393403,0.9945371126624201
2012-04-24,-1,-0.00023941750216005823,-9.286519304936016e-05,-0.004989124477435724,0.001077350387146155,0.9951500064108714
2012-04-26,1,0.000375890818181827,0.0004232401855473548,-0.004382046257273501,0.0018058164067554813,0.9956349585936104
2012-04-30,1,0.00027268602265826395,0.0003256214862889426,-0.004382046257273501,0.0018058164067554813,0.995442207717846
2012-05-02,1,0.000577943229833146,0.0005895345299315837,-0.004989124477435724,0.0018058164067554813,0.9947695851272532
2012-05-04,1,9.442152393512041e-05,0.00015641130331975,-0.006675176786140336,0.0018058164067554813,0.9940748962792243
2012-05-08,-1,-0.0002600834801267889,-0.000137429847979547,-0.006675176786140336,0.0026025641034957397,0.9927267715128649
2012-05-10,-1,-0.0008499029424693727,-0.0006420930329641728,-0.0032816117745659446,0.0049510298868093335,0.9923795659874771
2012-05-14,-1,-0.0012458149296217763,-0.0009649994037354819,-0.005268737314611544,0.0051943638301441995,0.9918548969033931
2012-05-16,-1,-0.0011384477095096042,-0.0008981614808619702,-0.005268737314611544,0.006802805564724041,0.9910555054793232
2012-05-18,-1,-0.0015395679114728214,-0.0012633407129687922,-0.002750346474517004,0.006802805564724041,0.9916698249496282
2012-05-22,-1,-0.0014045680496453704,-0.001130447790482731,-0.002750346474517004,0.005201084815689699,0.9919657375744599
2012-05-24,-1,-0.001157800187707492,-0.0009175685465375444,-0.0032816117745659446,0.006802805564724041,0.9913659439911885
2012-05-29,-1,-0.00106478842848983,-0.0008462382517664631,-0.005272066959155688,0.005201084815689699,0.9911556885437794
2012-05-31,-1,-0.0009111639242423626,-0.0007099863832205503,-0.0028396482890494876,0.005857180173635294,0.9914121944435917
2012-06-04,-1,-0.0016584353344840344,-0.0013825982543367206,-0.0009282281961487593,0.006879238159360942,0.9911288723394435
2012-06-06,-1,-0.0008412857543282352,-0.0006619024170642395,-0.00012628873638972996,0.006879238159360942,0.9922852762801968
2012-06-08,-1,-0.000496425519744208,-0.0003631539758584292,-0.0013204323430609747,0.005560339479779872,0.9931625396065101
2012-06-12,-1,-0.0005126126724106724,-0.000399398224601144,-0.0013204323430609747,0.005560339479779872,0.9933199814663909
2012-06-14,-1,-0.00018675539028196114,-0.00010843593357137923,-0.0025255757192068173,0.005560339479779872,0.9934597593455922
2012-06-18,0,-1.634256634891999e-05,3.3915546233945774e-05,-0.0034682544946337407,0.005560339479779872,0.9934766318567725
2012-06-20,1,0.00012365115048070517,0.00015296454682196334,-0.0034682544946337407,0.006201371095975541,0.9930113117361509
2012-06-22,-1,-0.00012085393516285121,-6.221532163562329e-05,-0.004350733378359447,0.005560339479779872,0.9928488750952934
2012-06-26,-1,-0.0005032634762462592,-0.0004081348772828623,-0.004350733378359447,0.005560339479779872,0.9914336149910318
2012-06-28,-1,-4.939640972374369e-05,-1.655928392419778e-05,-0.004350733378359447,0.0085371105036081,0.990703451764062
2012-07-02,0,0.0,0.0,-0.006469518271174014,0.00617221199920893,0.9912297608483965
2012-07-05,1,0.0006388728991272216,0.0007039995323436736,-0.006469518271174014,0.003224196717553267,0.991424555988076
2012-07-09,1,0.0004598130288221996,0.0005086902309678228,-0.00615625102480109,0.004882958884330664,0.9913695125368368
2012-07-11,1,0.0002737899871301756,0.0002905880552754857,-0.0045765279409534995,0.006681080130951565,0.9914599749151009
2012-07-13,0,0.0,0.0,-0.0045765279409534995,0.004217265018547315,0.9918828855951836
2012-07-17,0,0.0,0.0,-0.0045765279409534995,0.004217265018547315,0.9920334333034563
2012-07-19,0,0.0,0.0,-0.0045765279409534995,0.0039761500176477855,0.9923332913357037
2012-07-23,0,0.0,0.0,-0.0021825757676117237,0.0039761500176477855,0.9934747085580582
2012-07-25,0,0.0,0.0,-0.0021825757676117237,0.0039761500176477855,0.9953053412586468
2012-07-27,0,0.0,0.0,-0.0030751864598761954,0.003196276230850373,0.9961283187108194
2012-07-31,1,3.262915535465788e-05,6.327496650927011e-05,-0.004565940774657182,0.003196276230850373,0.9959500188169751
2012-08-02,0,-1.202491040868116e-06,1.6677416082333785e-05,-0.004565940774657182,0.003196276230850373,0.995834924711834
2012-08-06,1,0.000259268721488165,0.0002868759181313946,-0.004565940774657182,0.0019689320096579737,0.9962998123343136
2012-08-08,1,7.629180693367265e-05,9.085747043348503e-05,-0.006049868144091697,0.0007892234003714491,0.9956480997416447
2012-08-10,1,0.0008971128785418147,0.001061550041552231,-0.006049868144091697,0.0007892234003714491,0.9949145436624235
2012-08-14,1,0.0008216995517345238,0.00095468772715954,-0.006049868144091697,0.0019689320096579737,0.9948128149764462
2012-08-16,1,0.0010520527904045785,0.0012426083328974991,-0.0061713360163312084,0.0019689320096579737,0.9937321593595081
2012-08-20,1,0.0009642712019188779,0.0011303383539181837,-0.006611349748934665,0.003921122917943269,0.9930130903131954
2012-08-22,1,0.0006063855148553075,0.0007031886649622267,-0.007070892815214365,0.006325733944133213,0.9919900349857906
2012-08-24,1,0.0006896281272354696,0.0008287027124966727,-0.009101810764167361,0.006325733944133213,0.9917314228125012
2012-08-28,-1,-9.99749173999356e-05,-9.475250594121553e-05,-0.007270155355598191,0.006325733944133213,0.9923260573718182
2012-08-30,-1,-0.000652839951044535,-0.0005728135219905753,-0.007111066312697261,0.006325733944133213,0.992293062038937
2012-09-04,-1,-0.0003753347108850594,-0.00035330236478912545,-0.007111066312697261,0.006325733944133213,0.9920339674240041
2012-09-06,-1,-0.000879818204532682,-0.0008010227941247703,-0.0058541747890279005,0.00689696709299551,0.9918776275483847
2012-09-10,-1,-5.066213811889833e-05,-5.329278609020067e-06,-0.0058541747890279005,0.00689696709299551,0.9923262750458244
2012-09-12,-1,-0.00010212481546389933,-8.462947138293477e-05,-0.009782851824957441,0.006477084494585195,0.9917041377774005
2012-09-14,-1,-8.108312493063644e-05,-7.219365193437993e-05,-0.007111066312697261,0.004044605383595088,0.9929653115566455
2012-09-18,-1,-0.00018481738805160608,-0.00018038999005112944,-0.0058541747890279005,0.006275005508448447,0.9930993883620328
2012-09-20,-1,-0.0004933226815094601,-0.0004657355682585677,-0.004448615210498462,0.00481162449665795,0.9942810327301648
2012-09-24,-1,-0.0006799989334778905,-0.0006387683177938627,-0.0058541747890279005,0.00481162449665795,0.9935155087259802
2012-09-26,-1,-0.0008430514455042076,-0.0007653010503530722,-0.006754526212428114,0.006275005508448447,0.9918290679687872
2012-09-28,-1,-0.0009382244250425145,-0.0008500545207302994,-0.006360478712965943,0.006275005508448447,0.9921136501238317
2012-10-02,-1,-0.0009725144904278899,-0.000856232074493635,-0.006360478712965943,0.006783223375913335,0.9918413815471762
2012-10-04,-1,-0.0005282609485019043,-0.00045200435059396954,-0.006330857739699644,0.004938768564804198,0.9928637076739685
2012-10-08,-1,-0.0002285254840128754,-0.00018173714757064728,-0.007879148851660345,0.003453954108669329,0.9929768138139873
2012-10-10,-1,-0.0015322260641671718,-0.0012880974884635528,-0.005633199139414369,0.003453954108669329,0.9934793543494824
2012-10-12,-1,-0.001408784546122956,-0.0011971035855550265,-0.005783945072248699,0.003453954108669329,0.9932958044645548
2012-10-16,-1,-0.0009205715529652765,-0.0007746676002125692,-0.0065012702710287775,0.0018408633579917563,0.9929811784141147
2012-10-18,-1,-0.00048630629556785745,-0.000400330822949843,-0.0065012702710287775,0.0012289599046021538,0.9921136134014209
2012-10-22,-1,-0.0017567291576865212,-0.0015047144490368883,-0.005633199139414369,0.0012289599046021538,0.9934033603979663
2012-10-24,-1,-0.0018111122524208816,-0.0015033520644319879,-0.00491696503287254,0.002012818466602077,0.9943543637384853
2012-10-26,-1,-0.0013396304047690998,-0.0011307663206251125,-0.005633199139414369,0.004267872911988509,0.993888383508031
2012-11-01,-1,-0.00041881153559143936,-0.0003582019260709556,-0.0057091714261603066,0.0031308232944014355,0.9936465098641243
2012-11-05,-1,-0.0007082266537261362,-0.0006046075022560418,-0.005861466376173288,0.007747234239325491,0.992839016999249
2012-11-07,-1,-0.0006225497082106304,-0.0005578722347710467,-0.005861466376173288,0.007747234239325491,0.992588636130231
2012-11-09,-1,-0.000825209510735718,-0.0007494333297687671,-0.005861466376173288,0.007747234239325491,0.9924396430901026
2012-11-13,-1,-0.0008410298678829422,-0.0007747439442478836,-0.004802168927137593,0.007747234239325491,0.9924908580983716
2012-11-15,-1,-0.0016124738147512382,-0.0014458234819257918,-0.004802168927137593,0.007747234239325491,0.9931902997840497
2012-11-19,-1,-0.0013753345144668634,-0.0012062251756934888,-0.004802168927137593,0.007747234239325491,0.9928601581332624
2012-11-21,-1,-0.0010409338535704515,-0.0009263957298913154,-0.0058693730113254985,0.007747234239325491,0.9923477959342268
2012-11-26,0,-1.0032839563293468e-05,3.688967748986566e-05,-0.0058693730113254985,0.007115951701934324,0.9929980476645385
2012-11-28,1,0.0003946966200430972,0.0005320646570349688,-0.0053476538709695196,0.006977753255951533,0.9931763172133072
2012-11-30,1,0.00046854560508992164,0.0005994800588088008,-0.005405403148441759,0.006977753255951533,0.9927143747670115
2012-12-04,1,0.000384913531467698,0.0004980443644973735,-0.004807628747454282,0.006977753255951533,0.9920805617643478
2012-12-06,1,0.0005103849095109591,0.0006553928969793375,-0.004533783059633608,0.006977753255951533,0.9925250273913202
2012-12-10,1,0.0008820037326389444,0.0010752303862225842,-0.004533783059633608,0.007115951701934324,0.9922572384447037
2012-12-12,1,0.0008391726491413057,0.0010319719538722932,-0.00407327859142931,0.008419992286766584,0.9915961796701116
2012-12-14,1,0.0003014340475730994,0.0003915474689045905,-0.0036504074843097148,0.01156063467675135,0.9911746024828932
2012-12-18,1,0.0009828903885709583,0.00112281108516306,-0.0036504074843097148,0.008419992286766584,0.992449537967834
2012-12-20,1,0.0013214474622894271,0.001540759204327924,-0.003050039712174225,0.007147589209484816,0.9927349649903372
2012-12-24,1,0.0010411168081958238,0.001212443456320466,-0.003050039712174225,0.01156063467675135,0.9918277078824191
2012-12-27,1,0.0005734060400925948,0.0006645810293606729,-0.00014178726895541826,0.01156063467675135,0.9920313372680908
2012-12-31,1,0.0005979143582799792,0.0007018826467023499,-0.002781160388780673,0.007147589209484816,0.9925542874154756
2013-01-03,1,0.0012814098607998464,0.0014795928966238963,-0.003050039712174225,0.00646787063944124,0.9928442982641129
2013-01-07,1,0.0013370472147094356,0.0015558379329366516,-0.0029579962145769795,0.009216467957683746,0.9925397814280299
2013-01-09,1,0.001582941714378241,0.001829632717503144,-0.0014578249086629803,0.009182054655655449,0.9927907898892119
2013-01-11,1,0.0020144445610051132,0.0023238751157653404,0.00035826983301591485,0.007461824237284374,0.9934455629479709
2013-01-15,1,0.002532905301903607,0.002908358217947494,-0.0014716780639766067,0.006096439800958734,0.993934665269396
2013-01-17,1,0.002685325822597312,0.0030734270425893918,-0.0014716780639766067,0.007461824237284374,0.9937080120044957
2013-01-22,1,0.002911490275770391,0.0033143081439440964,-0.003780527016018158,0.008820529009109086,0.9926460989035967
2013-01-24,1,0.003241561742542598,0.003655161321850245,-0.0038758538573662603,0.007461824237284374,0.9930279550495541
2013-01-28,1,0.002991622913084289,0.0033306595856644403,-0.006248694687982884,0.007461824237284374,0.9922572916550444
2013-01-30,1,0.0023379827823104167,0.002581411370935719,-0.0027787309858218617,0.008820529009109086,0.9927181767035284
2013-02-01,1,0.0018615252697321621,0.0020165369530789506,-0.001105970440128474,0.0077062364936615665,0.9941578090230494
2013-02-05,1,0.0025175554059619284,0.002787949584165516,-0.0005432823288562798,0.0077062364936615665,0.9941787866432262
2013-02-07,1,0.003044407452866746,0.003399573632186699,-0.0016980607217387408,0.004984213179530119,0.9943245115756344
2013-02-11,1,0.0031451041590511587,0.003514950207804497,-0.001871826778593409,0.004066560204492573,0.9942184006919518
2013-02-13,1,0.0029586465420754654,0.0032882430821725927,-0.0015976265427948373,0.005884569771199723,0.9943924785238687
2013-02-15,1,0.0031540770077060293,0.0034837330364718656,-0.0017956588893223103,0.004532338434637049,0.9942600780176333
2013-02-20,1,0.00313738368649412,0.0034430066679949018,-0.0019446256476118233,0.004066560204492573,0.994420218069935
2013-02-22,1,0.002697044342770974,0.0029282439319524923,-0.0019446256476118233,0.004532338434637049,0.9938278786518958
2013-02-26,1,0.002079626194123564,0.0022134589402072373,-0.0017956588893223103,0.0051323324755722525,0.9944087525590267
2013-02-28,1,0.00243004384329224,0.0026184971598765044,-0.0017701386356813867,0.0051323324755722525,0.9947959975133776
2013-03-04,1,0.002630058180623539,0.0028806399164465826,-0.0024255692138474842,0.0051323324755722525,0.993506034583381
2013-03-06,1,0.0032754315395722346,0.0036360848813189574,-0.0047004835447807996,0.004710088725430444,0.9934182961564432
2013-03-08,1,0.002552471380133193,0.002763091936831609,-0.0047004835447807996,0.004710088725430444,0.9933051720749055
2013-03-12,1,0.002401713997356517,0.0025809288701991997,-0.0047004835447807996,0.0051323324755722525,0.9930126197998458
2013-03-14,1,0.0030253436571329585,0.003318178829333513,-0.0047004835447807996,0.0042066068557442575,0.9927606967435992
2013-03-18,1,0.002946548019846945,0.0032351984417904856,-0.006641033018111526,0.004710088725430444,0.9917134274206189
2013-03-20,1,0.0017831838433131225,0.0018683476094807938,-0.006641033018111526,0.004710088725430444,0.9921666938566259
2013-03-22,1,0.002049077691958465,0.0021913272534845466,-0.004410881827871392,0.004710088725430444,0.9934661405760244
2013-03-26,1,0.0019130229986855098,0.0020282785548582536,-0.004410881827871392,0.004814951062777539,0.9933792279114667
2013-03-28,1,0.0023561341469974014,0.0025559441947206702,-0.004410881827871392,0.00450134482781978,0.992571154142672
2013-04-02,1,0.0014822525951862257,0.0015274580121699358,-0.003077183300883192,0.005957174251808863,0.9933079485072591
2013-04-04,1,0.0008930692693447263,0.0009183316240075407,-0.003077183300883192,0.006142976440244844,0.9929630016379928
2013-04-08,1,0.0004955896698756153,0.0006115508143793925,-0.0028451442540462423,0.007871847885643482,0.992393586692336
2013-04-10,1,0.0008368877238723512,0.0009359970165787672,-0.0028451442540462423,0.007871847885643482,0.9921134335040893
2013-04-12,1,0.0003431545579322689,0.0005267782358182529,-0.003395580107961656,0.007871847885643482,0.9918458776751681
2013-04-16,1,0.0005216599877673345,0.0006655180452780721,-0.002998470920889759,0.006781961884157483,0.993001941324699
2013-04-18,-1,-0.00027012511890884714,-2.6457521513139986e-05,-0.002998470920889759,0.006781961884157483,0.9927816272478773
2013-04-22,1,0.00047811711543422405,0.0005997119885145376,-0.002998470920889759,0.007126857038052672,0.99292179422252
2013-04-24,1,0.00034834350721980683,0.00048783235783053614,-0.0037930276249200524,0.007126857038052672,0.9928365847137025
2013-04-26,1,0.0009532680167344641,0.0010379027893107759,-0.005925408458336319,0.006142976440244844,0.9933545079467276
2013-04-30,1,0.0007122627870675074,0.0008223957315921965,-0.005925408458336319,0.0046330826604552315,0.9935596221767563
2013-05-02,1,0.00029313908320080474,0.0004670795870396523,-0.005369297885378512,0.004110090707046729,0.9941865479092008
2013-05-06,1,0.0011563476547809166,0.0012130029248301477,-0.005369297885378512,0.0029666375447745435,0.9945467611489675
2013-05-08,1,0.0014717166720623193,0.0015099374461162139,-0.005925408458336319,0.0015005986217755422,0.9945888503428026
2013-05-10,1,0.0005610426247374249,0.0007278966843039982,-0.005369297885378512,0.0023461452229746322,0.9945610893503584
2013-05-14,1,0.0012167044008957757,0.0012282533441446868,-0.005925408458336319,0.0007393710980721196,0.9940317160584571
2013-05-16,1,0.0005767032658702784,0.0006794799737549987,-0.005369297885378512,0.0008231074433315311,0.9941883169840506
2013-05-20,1,0.0005586398855601871,0.0006865715976605883,-0.005369297885378512,0.0029666375447745435,0.9939595019416716
2013-05-22,1,4.448913676110026e-06,0.00022100849770278835,-0.006149829432816667,0.0011923907293532076,0.9932164185090123
2013-05-24,-1,-0.0007513737415086974,-0.00044958976946416363,-0.00489392412690453,0.004587271713631983,0.9938111943227884
2013-05-29,-1,-0.0008547638205815785,-0.0005633387589861451,-0.00489392412690453,0.00642752434692951,0.9933087406808443
2013-05-31,-1,-0.001263469525127334,-0.0009177527663785278,-0.005313333814884052,0.00743812107934469,0.9928833129164644
2013-06-04,-1,-0.0011411592883920501,-0.0008280425493000126,-0.005541987701960098,0.00743812107934469,0.9926589890844704
2013-06-06,-1,-0.0013689136033388117,-0.0010539602573803528,-0.005089863060432845,0.007856132111420295,0.9921831982219564
2013-06-10,-1,-0.000701132911463604,-0.00045326725680595653,-0.005089863060432845,0.008437786147636746,0.9919105827273222
2013-06-12,-1,-0.0010201518650533596,-0.0007625079940222231,-0.004825940322928005,0.009307800605978467,0.9912390471648832
2013-06-14,-1,-0.00028627432620419304,-0.00019361376047893197,-0.005647794253246481,0.008437786147636746,0.9888554276795176
2013-06-18,1,0.0005167279871389175,0.0005504141117913063,-0.005647794253246481,0.007885887849307275,0.9891720433024763
2013-06-20,-1,-0.0002652574777479961,-0.00019861986948973849,-0.0024930743782817727,0.008437786147636746,0.9896150771851547
2013-06-24,-1,-0.0004823823973331674,-0.0003662225133170985,-0.005089863060432845,0.008437786147636746,0.9896699500748107
2013-06-26,-1,-0.00034821456044786884,-0.00024449968762751045,-0.005230770178057376,0.008157587456185502,0.9900414827006204
2013-06-28,-1,-0.0003519230494230948,-0.00025384260787422253,-0.005089863060432845,0.008157587456185502,0.990569757759166
2013-07-02,0,-2.1190677671300022e-05,2.0244403765538885e-05,-0.004754687830302469,0.008157587456185502,0.9906943488031641
2013-07-05,1,0.00039139374522881797,0.0004041455104531631,-0.0027038286625602065,0.008157587456185502,0.990991883455981
2013-07-09,1,0.0007772798406356209,0.0008275465807200569,-0.0027038286625602065,0.005725072603759196,0.99211106023639
2013-07-11,1,0.0011107466034138915,0.001227175739985989,-0.0027038286625602065,0.0031766343685096653,0.9927801148708966
2013-07-15,1,0.00029174812542063003,0.0002924585291660859,-0.0018107156179467342,0.0031766343685096653,0.995875440114684
2013-07-17,1,0.0005728496141837951,0.0006000673670606656,-0.0022929898377338667,0.0020365108514204863,0.9962381954622999
2013-07-19,1,0.000772743858624321,0.0008122669478652993,-0.0031027511678443807,0.001029997624342571,0.9960223283105288
2013-07-23,1,0.0006367880232722717,0.0006605442637592367,-0.0022929898377338667,0.0012459424188535357,0.996349640179416
2013-07-25,1,0.0004520211101152592,0.00046227079353532787,-0.0021602676040372464,0.002020920581027091,0.9962097485039617
2013-07-29,1,0.00044552968043004766,0.0004701994751250974,-0.0016306484122769306,0.0024501137279710934,0.9963082044474821
2013-07-31,1,0.00047707331577597184,0.0005036977012643402,-0.0023557729203067088,0.001389006801168203,0.9958165850094581
2013-08-02,1,0.0007401053536079507,0.0008044037485851194,-0.0023557729203067088,0.001029997624342571,0.9964111526570257
2013-08-06,1,0.0007554034861288981,0.0008365733950460362,-0.0023557729203067088,0.0024501137279710934,0.9960169877996224
2013-08-08,1,0.0008344778386829154,0.0009269542183168172,-0.0023557729203067088,0.0024501137279710934,0.9959945207723362
2013-08-12,1,0.0005149858536299977,0.0005325332704810235,-0.0017200030238797921,0.0033191306728089,0.9955913782814412
2013-08-14,1,0.0005753237613718522,0.0006283861832048959,-0.0015882473973533673,0.004308500672792952,0.9953781117968943
2013-08-16,1,0.00017906029342182962,0.00018721940657924512,-0.0008111159648570939,0.005046119134173755,0.9956358165849667
2013-08-20,1,0.00037863457681918344,0.0004137505302484923,-0.0008111159648570939,0.007078061408309503,0.995110987782272
2013-08-22,1,0.0002914441280094975,0.0003032317660346606,-0.0008111159648570939,0.007078061408309503,0.9952080426463409
2013-08-26,1,8.466761352539698e-05,0.00012550069977027608,-0.001546458432743739,0.007078061408309503,0.9951060605327908
2013-08-28,-1,-0.00041522933507007534,-0.000307474290408179,-0.0008111159648570939,0.007796994915112098,0.9953126751146597
2013-08-30,-1,-0.00012527654076461818,-7.327139237665425e-05,-0.000840863922667235,0.007796994915112098,0.9951250318361613
2013-09-04,0,-6.901603706306782e-06,4.38683351040426e-05,-0.0016774912707837907,0.007796994915112098,0.9952051390672617
2013-09-06,-1,-6.578686298942279e-05,-5.5366972437869e-07,-0.002062143971803194,0.008216242903480107,0.9942455064596573
2013-09-10,1,4.911702098933375e-06,7.809310451707243e-05,-0.003552903235391211,0.007796994915112098,0.9938709679604214
2013-09-12,1,0.00017661053288509586,0.0002140884687215038,-0.003552903235391211,0.008216242903480107,0.9933156007136623
2013-09-16,1,0.0002981755409127512,0.0003259507882690364,-0.004803784092778306,0.006076795445259976,0.9933455018891785
2013-09-18,1,0.0010712665074614318,0.0011729926280497182,-0.004803784092778306,0.006076795445259976,0.9933317653712088
2013-09-20,1,0.0009178340222259274,0.000994007455069935,-0.004803784092778306,0.00704284774967579,0.9930256534915323
2013-09-24,1,0.000775842160780384,0.0008273768154453476,-0.004803784092778306,0.008488123318017314,0.9928450020989688
2013-09-26,1,0.0011457601866297364,0.0012737850862508313,-0.004803784092778306,0.006941808080011971,0.9931992143544164
2013-09-30,1,0.0012970208631601064,0.0014671622730503427,-0.003068973013652931,0.010399317969686791,0.9920343842236395
2013-10-02,1,0.0011420710848390925,0.0012705333376339266,-0.0013106112110931936,0.010399317969686791,0.9922026019357366
2013-10-04,1,0.0011532005281084542,0.0012820764876445385,-0.0005265992348942043,0.009197941961883217,0.9931861007965735
2013-10-08,1,0.0003680475816655506,0.0003831735247935914,-0.0002289478583399458,0.011660229530010311,0.9932054271887129
2013-10-10,1,0.0009203230996752316,0.001017783835398937,-0.0003306109918666391,0.009197941961883217,0.9934891762779241
2013-10-14,1,0.000700214901000361,0.0007627556980506639,-0.0003306109918666391,0.010743158541097666,0.9932316737154239
2013-10-16,1,0.0007913794807209531,0.0008447570141665817,-0.0002289478583399458,0.010772871168635595,0.9930697389542016
2013-10-18,1,0.0010937728758611041,0.0011718171101592566,-0.0003306109918666391,0.008902155841424977,0.9938039408781879
2013-10-22,1,0.0009991081995235028,0.001053087517180544,-0.0004784552721860151,0.006922654172760046,0.9937610818317656
2013-10-24,1,0.0011198694978901418,0.0011877504436364973,-0.0013728461828975674,0.010102105969162868,0.9932637127288382
2013-10-28,1,0.001822345955350296,0.0019630684189673253,-0.0038463413818251714,0.006243653081656993,0.9940315562368848
2013-10-30,1,0.0018076052374957287,0.0019651409625409777,-0.0038463413818251714,0.008800567152142887,0.9938730148006865
2013-11-01,1,0.0016003606065855456,0.001709311466856291,-0.0038463413818251714,0.008800567152142887,0.9937767352168208
2013-11-05,1,0.002081054240562009,0.0022549404343877085,-0.004438155257112714,0.006180649395741538,0.9941262528587378
2013-11-07,1,0.0017010725182628594,0.0018437652234853713,-0.0021780827426465784,0.00800506220762764,0.9947794919888102
2013-11-11,1,0.0014007708227169924,0.0014602145253430068,-0.0023753540344090924,0.00604730885866547,0.9949753593521122
2013-11-13,1,0.0019358733504927059,0.0020575220889252526,-0.004533871102684332,0.002675099055777622,0.994986437080407
2013-11-15,1,0.0017848000264572134,0.0019013769137505145,-0.004533871102684332,0.005044130445637528,0.994889233138205
2013-11-19,1,0.0015981061289532716,0.0016798455198673002,-0.0023753540344090924,0.007516362211277892,0.9947945876780582
2013-11-21,1,0.001667882167383152,0.0017540967168446064,-0.0016119119527509814,0.005044130445637528,0.9955429903562082
2013-11-25,1,0.001635087908358209,0.0017293124065055382,-0.001491593060944132,0.00513139267578436,0.9959664377523098
2013-11-27,1,0.002142135562287936,0.002337826460965969,-0.001491593060944132,0.004397038724576979,0.9962432812052168
2013-12-02,1,0.0027595416533812167,0.003029420148476298,-0.001030779713722667,0.004397038724576979,0.9962881215141776
2013-12-04,1,0.0020716377708460583,0.0021953365938453093,-0.001030779713722667,0.004397038724576979,0.9958807633744386
2013-12-06,1,0.0024363244203244798,0.002627333087363087,-0.0016580240110770214,0.0034973303228468793,0.9953813258851637
2013-12-10,1,0.00233140077159811,0.0025361871841466706,-0.000954951892011464,0.0034973303228468793,0.9957846405250942
2013-12-12,1,0.0018239089259616571,0.0019409326685294582,-0.000954951892011464,0.00400255981765606,0.9952184545029437
2013-12-16,1,0.0018700229939795203,0.0019732905531170053,-0.000954951892011464,0.003411671070469628,0.9953072956189671
2013-12-18,1,0.002013387523078965,0.002120923567392116,-0.003055060179572214,0.0023185629139181258,0.9950448360968246
2013-12-20,1,0.0019116609227311026,0.0019812405610822956,-0.00559931186882206,0.003411671070469628,0.9942395758596498
2013-12-24,1,0.002371411798424976,0.0025133362157652417,-0.011204893487712605,0.0019349517997563036,0.9927856885153473
2013-12-27,1,0.0024146857735129396,0.002557457550250379,-0.012281061689580802,0.0022431845747391175,0.9919665216797351
2013-12-31,1,0.00197815294892836,0.0020765898375101257,-0.012281061689580802,0.003411671070469628,0.9917313957801152
2014-01-03,1,0.0010825355293799504,0.0010876934473570985,-0.012281061689580802,0.003411671070469628,0.9918620199852745
2014-01-07,1,0.0006197822042422491,0.000678073566871796,-0.01096580875297275,0.0031421975442145205,0.99256369866939
2014-01-09,1,0.00028703400136681885,0.00040828151264129435,-0.01096580875297275,0.004375787733028944,0.9919450491450635
2014-01-13,-1,-0.00037254490891911786,-0.00017583589501527397,-0.007684795814418894,0.005202767008109336,0.9922638442016483
2014-01-15,0,-8.851814248415235e-05,6.587486224302221e-05,-0.007684795814418894,0.0049200834932639674,0.9922790557629791
2014-01-17,-1,-0.00027311211625037646,-9.055001036086018e-05,-0.008436428151785844,0.005801779485209493,0.9921421671839745
2014-01-22,-1,-0.0012736863871788044,-0.0009430410235197731,-0.008436428151785844,0.005801779485209493,0.9922575775759078
2014-01-24,-1,-0.0022770809587038684,-0.0018247239498346295,-0.005984383602939753,0.005801779485209493,0.9930433839313615
2014-01-28,-1,-0.002253891122497371,-0.0018175342976943123,-0.005343855300721614,0.00524086242134548,0.993792203827071
2014-01-30,-1,-0.0023731849935603585,-0.0019245090901656107,-0.005343855300721614,0.00524086242134548,0.9937373674816503
2014-02-03,-1,-0.0028777162284970544,-0.0023914230533498347,-0.001903391023497849,0.005801779485209493,0.9935157373928781
2014-02-05,-1,-0.0027901805499726045,-0.002318717003111559,-0.001903391023497849,0.006747936737224181,0.9931849418509062
2014-02-07,-1,-0.002141139606227618,-0.0017555667506562735,-0.001903391023497849,0.005350426379607996,0.9938723772922858
2014-02-11,-1,-0.0014896929862082647,-0.0012079077107321617,-0.001903391023497849,0.00518463922442677,0.9948673967817655
2014-02-13,-1,-0.0014360195384833896,-0.0011606744753119905,-0.004568917819791527,0.004736405846803103,0.9942291037564867
2014-02-18,-1,-0.001665343965434426,-0.0013601186868167792,-0.0030530979600352764,0.004736405846803103,0.9941897659927791
2014-02-20,-1,-0.001675717778961721,-0.0013778075579931306,-0.0030530979600352764,0.004397594532971253,0.9948950297624032
2014-02-24,-1,-0.0019191541950106816,-0.0015865317959160609,-0.0030530979600352764,0.004486692881564379,0.9947490347978181
2014-02-26,-1,-0.0022674996495861835,-0.0018857735223639597,-0.001475699214814984,0.004486692881564379,0.9941931219500155
2014-02-28,-1,-0.002075911987454179,-0.0017144775582208327,-0.001475699214814984,0.004486692881564379,0.9942694466665423
2014-03-04,-1,-0.0024006228599754193,-0.0019502270528827307,-0.001475699214814984,0.0038416489952592834,0.9947903534407999
2014-03-06,-1,-0.0018026637174009153,-0.0014479160488576814,-0.001475699214814984,0.004486692881564379,0.9948757555132598
2014-03-10,-1,-0.0016911570556021405,-0.001336926126331889,-0.004446750052607719,0.003471175898060268,0.9951196830128178
2014-03-12,-1,-0.002137546974895633,-0.0016925125135997866,-0.004377900640165197,0.004351272726785767,0.9949101247495543
2014-03-14,-1,-0.002135368707300347,-0.0017595166068440145,-0.0038599369569525467,0.004351272726785767,0.9952020443549697
2014-03-18,-1,-0.0021415497867304997,-0.0017226568879641713,-0.0038599369569525467,0.003121796750689006,0.9959518253068993
2014-03-20,-1,-0.0015846373974550503,-0.0013156043770351895,-0.0033509770287285558,0.004549301424105496,0.9949093228154056
2014-03-24,-1,-0.00019465930447386202,-0.00014340181550919214,-0.0033509770287285558,0.004713890117837655,0.9948790725734786
2014-03-26,-1,-0.000797479786151437,-0.0006658685564467192,-0.0033509770287285558,0.004713890117837655,0.9949672485936084
2014-03-28,-1,-0.00043814750080935406,-0.0003500177754080788,-0.0038599369569525467,0.005828489959296635,0.9943304397787254
2014-04-01,-1,-0.00045912464755095377,-0.0003769190712449236,-0.0038599369569525467,0.005828489959296635,0.9939928346575878
2014-04-03,-1,-0.0003895058189788181,-0.0002969255578888841,-0.004035307336788151,0.004689859943461375,0.9942148921848719
2014-04-07,-1,-0.000687544030711926,-0.0005756523881260563,-0.004424361656020767,0.004689859943461375,0.9942149530831743
2014-04-09,-1,-1.3813901686754975e-05,-9.081186427119185e-06,-0.004424361656020767,0.005418839622004555,0.9935922687411844
2014-04-11,-1,-0.00039345205663263204,-0.00036113657125905907,-0.0034094338220070908,0.008041348843897686,0.9930811729703837
2014-04-15,-1,-0.000773176559641715,-0.0006957715374605358,-0.004115771089141931,0.008918103447359603,0.9924985129269611
2014-04-17,1,0.0002556005690491146,0.0003086174204910073,-0.004893520924001763,0.008702536730180035,0.9927080741237089
2014-04-22,1,0.0003387065475890935,0.00039072010153881224,-0.005875952960610375,0.007999002781751282,0.992743939990021
2014-04-24,1,0.0005028327303453579,0.0006202341762552147,-0.004893520924001763,0.008702536730180035,0.9925824729000149
2014-04-28,1,0.0004546787838135577,0.0005313571367201078,-0.004115771089141931,0.008957954494857033,0.9929270565772517
2014-04-30,1,0.0006903787220883795,0.0008344450287182178,-0.004115771089141931,0.008957954494857033,0.9930194728605062
2014-05-02,1,0.0009697343409336024,0.0011769099714001026,-0.0024435632835837157,0.008957954494857033,0.9933534893794737
2014-05-06,1,9.377462964646238e-05,0.0001443931038205053,-0.00240919157392061,0.008957954494857033,0.9931041057032085
2014-05-08,1,0.0005124484716354551,0.0006054119941499292,-0.00240919157392061,0.007999002781751282,0.9936904218430986
2014-05-12,1,0.0015916420488505765,0.0018500015615440688,-0.004481815228133609,0.006292333074823589,0.9944815219563494
2014-05-14,1,0.0017868790005828813,0.0020966707190853357,-0.004736670216474692,0.0047836660627756196,0.994019952183677
2014-05-16,1,0.0016190582758665133,0.0019029575490859768,-0.004099935271215877,0.0028154885610165792,0.9952071874061931
2014-05-20,1,0.0015264617419583377,0.001820177771051077,-0.002293355491502401,0.0047836660627756196,0.9951867797801848
2014-05-22,1,0.0018344498338639086,0.0021676809861780316,-0.004009570075041362,0.004258146436947543,0.9954507142033974
2014-05-27,1,0.002347734626677313,0.002757827969719226,-0.0041763479299469575,0.0020255846335916787,0.99509855238199
2014-05-29,1,0.002336901566081414,0.002711252365904398,-0.0041763479299469575,0.0020054650607684854,0.9950799572810245
2014-06-02,1,0.0022893616411276364,0.0026167270717611197,-0.0041763479299469575,0.0016750001320485883,0.9951064711289621
2014-06-04,1,0.0022727834632796087,0.002648977662235027,-0.0017200218841980414,0.0027468381583058065,0.9956677355154676
2014-06-06,1,0.002202917269289387,0.0025340519647014583,-0.004009570075041362,0.0024810770098075956,0.9955598175523069
2014-06-10,1,0.0020960206971051146,0.0024284730402753954,-0.003465971123180943,0.0024810770098075956,0.9958139446021241
2014-06-12,1,0.0012123990100917606,0.0014041074594379546,-0.001188387656059605,0.0034525713072117168,0.9965491447837678
2014-06-16,1,0.0011300094582287013,0.0012913827015015083,-0.001188387656059605,0.004903550850007389,0.9958209742998716
2014-06-18,1,0.0011261727003845229,0.0012300565005983462,-0.0034914420094246364,0.003467594290574325,0.995461960240938
2014-06-20,1,0.00084731755123288,0.0009016566377284993,-0.001188387656059605,0.004903550850007389,0.9951087138916227
2014-06-24,1,0.0005502116092827539,0.0005590227850143552,-0.0007000813415173213,0.004903550850007389,0.9951789958766774
2014-06-26,1,0.00029989963420813735,0.0003689674334685138,-0.0026203252807981987,0.004104628283545294,0.995132419120374
2014-06-30,1,0.00023825968995496425,0.0003213689068095708,-0.005286970866539602,0.004104628283545294,0.9928972734042173
2014-07-02,1,0.0007258122513851576,0.0007476393071556165,-0.0067813426073147,0.004104628283545294,0.9919004261174373
2014-07-07,1,0.0006854477193436381,0.0007148492834850964,-0.005907364238486665,0.004104628283545294,0.9922578756754348
2014-07-09,1,0.0006111182820870255,0.0006358115133677078,-0.008222169086382423,0.004104628283545294,0.9916574111976746
2014-07-11,1,0.00040253815671847807,0.0004070174765061864,-0.0073479985534348445,0.004266262239014834,0.9914957884596476
2014-07-15,1,0.0007003763750753867,0.0007170691746919622,-0.0073479985534348445,0.0026185364069143385,0.9920721074808571
2014-07-17,1,0.00016497099425929134,0.0002106625371977167,-0.006946631476745961,0.0026185364069143385,0.9927403418494457
2014-07-21,1,0.00037387078141810757,0.0004092320073681899,-0.006946631476745961,0.003663392746563802,0.9925986885211411
2014-07-23,1,0.0004833573300054789,0.0004993770457946781,-0.006946631476745961,0.005065704271370604,0.9922986555223761
2014-07-25,1,0.000405315849226299,0.0004139167970304336,-0.006946631476745961,0.005065704271370604,0.9921442227899439
2014-07-29,-1,-0.0009789383251105647,-0.0008222171649798721,-0.005895194791382072,0.005065704271370604,0.9940523959965311
2014-07-31,-1,-0.001396230389796231,-0.0012046663502517404,-0.005100355977617137,0.004002687932906166,0.9952172780101681
2014-08-04,-1,-0.0013858362615324243,-0.001192610368547297,-0.005100355977617137,0.00563753489096449,0.9950078460661392
2014-08-06,-1,-0.0022649323414128198,-0.001934877792957519,-0.0018335200839058718,0.00563753489096449,0.9948672655564256
2014-08-08,-1,-0.00196757322556658,-0.0016903554758608528,-0.0018335200839058718,0.005176044700515999,0.995379617753783
2014-08-12,-1,-0.001903419546776939,-0.001625956294494021,-0.004073212362628116,0.005176044700515999,0.99553014674072
2014-08-14,-1,-0.001940359088218081,-0.0016651986397754669,-0.0018335200839058718,0.005176044700515999,0.9954943770017639
2014-08-18,-1,-0.0015091252278941305,-0.0012760027513485691,-0.0040569017333630065,0.0036022891506153876,0.9962370688799381
2014-08-20,-1,-0.0010253202949772836,-0.0008575407047524167,-0.0040569017333630065,0.003329223995562473,0.9961288620422761
2014-08-22,-1,-0.001375935334293094,-0.0011666200408042351,-0.0025266332079685845,0.003329223995562473,0.9958040186688067
2014-08-26,-1,-0.0012708454123406408,-0.0010919491875116785,-0.0025266332079685845,0.0036022891506153876,0.9953341134559394
2014-08-28,-1,-0.0014720622248455737,-0.001252138653000914,-0.00440183119828302,0.004246343936608423,0.9941646907101254
2014-09-02,-1,-0.001190044453235113,-0.0010113821478536585,-0.00440183119828302,0.004246343936608423,0.9940418399951613
2014-09-04,-1,-0.0013535167654210767,-0.0011305303159884715,-0.005141565247097492,0.0036022891506153876,0.9936238765316544
2014-09-08,-1,-0.0015231337781697028,-0.0012703422593282295,-0.005092633359302164,0.004564469158121503,0.993085983828782
2014-09-10,-1,-0.0013601363491769353,-0.001161295746102982,-0.005377992321821399,0.008296896414304915,0.9914446370693479
2014-09-12,-1,-0.0010498672490169305,-0.0009023151270818946,-0.009534865771257735,0.008296896414304915,0.9906670136501389
2014-09-16,-1,-0.0011302974897901882,-0.0009682139877232633,-0.011960108670065537,0.009780126575245893,0.9899138954824231
2014-09-18,-1,-0.0006485120109720277,-0.0005370443498667243,-0.011960108670065537,0.008296896414304915,0.9899842457490986
2014-09-22,-1,-0.0010500834629876157,-0.0008964788697810098,-0.009273624832061162,0.009780126575245893,0.9893781354815371
2014-09-24,-1,-0.0010809828402642305,-0.0009239697706210175,-0.012176391965355832,0.010365223508032245,0.9880195577813625
2014-09-26,-1,-0.0015420625839913254,-0.0013115148484154095,-0.009273624832061162,0.012535889804517399,0.9884130121854915
2014-09-30,-1,-0.0009594137340004682,-0.0008224529648309499,-0.009273624832061162,0.014876771994788722,0.9877618789937817
2014-10-02,-1,-0.0008112973925868334,-0.0007323120464678857,-0.007952656930861349,0.014876771994788722,0.9880961093454808
2014-10-06,-1,-0.00019632988104807656,-0.0001940151401133275,-0.007952656930861349,0.014672109870494618,0.987989303906421
2014-10-08,-1,-0.00043216526143007863,-0.0003976655931447622,-0.003983208749590717,0.013807118995500776,0.9889444722150919
2014-10-10,-1,-0.0013611677022141824,-0.0012068384450745664,0.0009133532414044888,0.013807118995500776,0.9892123799698574
2014-10-14,-1,-0.0010631055715459082,-0.0009636563542504742,0.0009133532414044888,0.013807118995500776,0.9900496112161878
2014-10-16,-1,-0.0007527577318419711,-0.0007150256506958292,-4.4767850544247256e-05,0.013807118995500776,0.9905795798990543
2014-10-20,1,0.0002342788181642162,0.0003405219777675152,-0.002674773310526639,0.008638417693896137,0.9917084663032228
2014-10-22,1,0.0005874436236401246,0.0007424009928406233,-0.0028832687960502,0.006962265483909063,0.9935375454569485
2014-10-24,1,0.000925510458480065,0.001107844470148851,-0.0028832687960502,0.006962265483909063,0.9935519571019644
2014-10-28,1,0.001732399866191549,0.002032850142007287,-0.0028832687960502,0.0067243531992424626,0.9943496363716242
2014-10-30,1,0.0017320993905748767,0.0020198727565257524,-0.0028369655745571357,0.006962265483909063,0.9933787864546663
2014-11-03,1,0.0019898637824336063,0.002272997039218509,-0.0028369655745571357,0.006159760742555547,0.9939169334247506
2014-11-05,1,0.0025016196091938742,0.0028552963863391493,-0.0034469338330435167,0.005734766594101171,0.9940272271063524
2014-11-07,1,0.0029170087850563355,0.0033517948935467244,-0.0037918095258904555,0.005147211085341828,0.9936680506810095
2014-11-11,1,0.0029576346655280144,0.0033907956738858814,-0.0037918095258904555,0.004573627800072052,0.9937185601812609
2014-11-13,1,0.002509013407405129,0.0028669284074353293,-0.0037918095258904555,0.005030166360388125,0.9940603067039033
2014-11-17,1,0.002227662980546002,0.002562467799017141,-0.0037918095258904555,0.0052960353434182705,0.9942408403014278
2014-11-19,1,0.0019359358817135964,0.002230571433675185,-0.0022844521155254106,0.005734766594101171,0.9932203575151075
2014-11-21,1,0.0024559814010452225,0.0028322777812827458,-0.0022844521155254106,0.0052960353434182705,0.9932867583750177
2014-11-25,1,0.0023141190463397423,0.0026651291591957937,-0.0022844521155254106,0.0052960353434182705,0.9934457619259126
2014-11-28,1,0.0029871028433167282,0.003421126561734088,-0.004246075550484455,0.005030166360388125,0.9943995089976042
2014-12-02,1,0.0029904014397703314,0.0034147601061743135,-0.004626242638583697,0.004729437623057667,0.9938453970174325
2014-12-04,1,0.0032204839558714372,0.003703000688602619,-0.006980229523471322,0.004729437623057667,0.9925591489193017
2014-12-08,1,0.002896290539724993,0.003306340295236257,-0.006699360940804438,0.004779045709083148,0.9924368874526415
2014-12-10,1,0.0030168392575559656,0.0034649582004907574,-0.007163766223324294,0.00558878841839388,0.9915654997773508
2014-12-12,1,0.002989694699362195,0.0034368728029506943,-0.007163766223324294,0.005188843509012461,0.991912336489707
2014-12-16,1,0.002717525141733944,0.0031125528821935597,-0.006816960064868532,0.004376508546639832,0.9920255533445534
2014-12-18,1,0.002438036050223754,0.002709477429297637,-0.006602933612904659,0.005773496782689231,0.9930765033273279
2014-12-22,1,0.002329015627069308,0.002547340731504667,-0.006602933612904659,0.005773496782689231,0.9924711941078018
2014-12-24,1,0.0011471351091054108,0.0012524490429710348,-0.006816960064868532,0.005773496782689231,0.9874985384879542
2014-12-29,1,0.0009357140528155108,0.0009973806721921329,-0.007664732270929259,0.005504274590039722,0.9863986847879739
2014-12-31,1,0.0007165220272631423,0.0007473582811747693,-0.009166152503202902,0.009177967965638448,0.9857659840722126
2015-01-05,1,0.0002567498653439801,0.00028273869194027677,-0.006874484239624958,0.0092575624128011,0.9863677960397744
2015-01-07,1,0.0002027287086898509,0.00023997805674839723,-0.006874484239624958,0.009243858594851242,0.9866715077473387
2015-01-09,1,0.0004778429272674953,0.0004851739762189136,-0.006986981759152562,0.009177967965638448,0.987375644151268
2015-01-13,1,0.0005936851644524679,0.000625830598846175,-0.006986981759152562,0.009177967965638448,0.9871841324705664
2015-01-15,1,0.0003233620050963881,0.0003372308835286612,-0.006172768663253801,0.009177967965638448,0.987205553709597
2015-01-20,1,0.000536039333056791,0.0005423726861815514,-0.006172768663253801,0.006397078068805031,0.9877219147489357
2015-01-22,1,0.0008798230685278792,0.0009289130158960222,-0.008081039188261297,0.005259092099124127,0.9884144303260108
2015-01-26,-1,-0.0009142106629584536,-0.0007511514847294511,-0.003511093145327436,0.005596189465696804,0.993128366741244
2015-01-28,-1,-0.0014183375373040606,-0.001200069752784499,-0.0019191285220777582,0.005596189465696804,0.99428397215119
2015-01-30,-1,-0.0015121385410922835,-0.0012822427071666556,-0.0017272384765915174,0.005067275925162951,0.9954193304267868
2015-02-03,-1,-0.00129864480340651,-0.0010865399552964024,-0.002444105865175107,0.004049080850037844,0.9958656246146308
2015-02-05,-1,-0.0011116124784134119,-0.0009247386388890887,-0.002444105865175107,0.003177396795963456,0.9962101027618876
2015-02-09,-1,-0.0013147334442468624,-0.001102824926014691,-0.002277219802050946,0.003177396795963456,0.996072286954737
2015-02-11,-1,-0.001069744201788596,-0.0009004428619078196,-0.0036934308690014495,0.003177396795963456,0.9956336743285964
2015-02-13,-1,-0.0010789272128612503,-0.0008961525899356374,-0.005048928696790321,0.002664290727012177,0.9947353714852
2015-02-18,-1,-0.0009792939164018995,-0.0008065227973776197,-0.006822181090871611,0.002664290727012177,0.994556472679116
2015-02-20,-1,-0.0011887483464110265,-0.0009853566692413127,-0.004809668492082214,0.0030913688517255275,0.9948235350297603
2015-02-24,-1,-0.0010611795957469789,-0.0008792612891274366,-0.006301280388515788,0.0022213395386642713,0.9947664054134072
2015-02-26,-1,-0.0013147349589601627,-0.0010913071981603088,-0.007758397562676754,0.0022213395386642713,0.9937503178473804
2015-03-02,-1,-0.001146220129029498,-0.0009554666909378615,-0.007758397562676754,0.0030913688517255275,0.9934412743972904
2015-03-04,-1,-0.0014081496263600077,-0.0011852876657572915,-0.006822181090871611,0.0030913688517255275,0.9938444249707097
2015-03-06,-1,-0.0015728569909273299,-0.0013140422821126606,-0.006822181090871611,0.00351110412745236,0.9938223260935973
2015-03-10,-1,-0.0018252758198801348,-0.0015344594804914014,-0.006301280388515788,0.00351110412745236,0.9942807278280282
2015-03-12,-1,-0.0018606145861471773,-0.0015623380931900428,-0.004646559534240169,0.0015488224467859629,0.9949012703231332
2015-03-16,-1,-0.0014967676160165303,-0.0012617758142625935,-0.004646559534240169,0.0015488224467859629,0.9957784027664469
2015-03-18,-1,-0.001338769087415806,-0.0011324672947933588,-0.0043366970155533134,0.0007764459729937456,0.9961362172387821
2015-03-20,-1,-0.001131911981804458,-0.0009632908118737613,-0.005277812666572648,0.0007764459729937456,0.9949857305676078
2015-03-24,-1,-0.0010763085220627361,-0.0009300896769704174,-0.0043366970155533134,0.002113166118306863,0.9949173837628801
2015-03-26,-1,-0.0013627324263449203,-0.0011868804202978015,-0.0020872664420137923,0.002113166118306863,0.995950195905969
2015-03-30,-1,-0.0010314048694051896,-0.0009103124219430802,-0.003575989069399201,0.002113166118306863,0.9944127292104402
2015-04-01,-1,-0.000983600617986512,-0.0008814139753056985,-0.0024811142312501583,0.003916549485216543,0.9941007399765758
2015-04-06,-1,-0.000825313344690172,-0.0007478529990284995,-0.0024811142312501583,0.0043109756300313195,0.9938438921033512
2015-04-08,-1,-0.0007630907132590975,-0.0006968880275054873,-0.006666621969208384,0.0043109756300313195,0.992924733228315
2015-04-10,-1,-0.0007865973400409128,-0.0007134200246937764,-0.006666621969208384,0.004929956666652203,0.9924208224733949
2015-04-14,-1,-0.000865544082622868,-0.0007758736030709819,-0.005885275939332805,0.004929956666652203,0.9925878875250556
2015-04-16,-1,-0.0009484565493723767,-0.0008450090890448282,-0.005885275939332805,0.005878825736078714,0.9919801454535324
2015-04-20,-1,-0.0005801776820271623,-0.0005317350696756476,-0.005443835247900335,0.005878825736078714,0.99266269525437
2015-04-22,-1,-0.00046207712510467106,-0.0004270592630965258,-0.005443835247900335,0.005379023402804545,0.9929256275192839
2015-04-24,-1,-0.00022625818831928634,-0.0002140060874471072,-0.005696709178132733,0.005379023402804545,0.9926935201087437
2015-04-28,1,0.00018012875295705033,0.00025171686880187075,-0.005696709178132733,0.0043655882448858825,0.9941565946982901
2015-04-30,1,0.00018573713258034395,0.00026000251323646126,-0.006183728980945504,0.004042741942471867,0.993888115422698
2015-05-04,1,0.00030686655802891327,0.00039543333249629004,-0.006183728980945504,0.002960176422457781,0.994148186344452
2015-05-06,1,6.207221460998106e-05,0.00011849522112838663,-0.005443835247900335,0.004042741942471867,0.9944220366122283
2015-05-08,1,0.0002332402592107705,0.00031334477004924823,-0.005696709178132733,0.002960176422457781,0.9941610525015212
2015-05-12,1,0.00021078451093340905,0.0002887135401439922,-0.005570092169058846,0.004008477370630286,0.9939554501770113
2015-05-14,1,0.0004042326113231074,0.000517710318710486,-0.006183728980945504,0.004008477370630286,0.9941315658213516
2015-05-18,1,0.0006577873094428827,0.0008136530685067138,-0.006183728980945504,0.003920996643825256,0.9947348983883818
2015-05-20,1,0.0007198325567657355,0.000887794144218086,-0.006183728980945504,0.004008477370630286,0.9944336644040777
2015-05-22,1,0.000687849763471334,0.0008529086701974744,-0.005769169169423169,0.004415776282920407,0.9942334881314313
2015-05-27,1,0.000581119758301561,0.0007243110566687889,-0.006361309232115263,0.004415776282920407,0.9938142812953117
2015-05-29,1,0.00021576041766691506,0.00028983789351067917,-0.005108317632932248,0.0044517347842875825,0.9942100747383215
2015-06-02,1,0.00027998000219472686,0.00036463723727559713,-0.005720113547142519,0.0044517347842875825,0.9931285340892477
2015-06-04,1,0.0004486323340532454,0.0005633926658952266,-0.005720113547142519,0.004107926909972529,0.9938530908310883
2015-06-08,1,0.00041228006190299445,0.0005267978987279325,-0.005530921809001835,0.0044517347842875825,0.9939610047105508
2015-06-10,1,0.0005308175551689588,0.0006565113735428721,-0.005744678395412561,0.003962137268354264,0.9933457226553014
2015-06-12,1,0.0006201100775296896,0.0007708071864215752,-0.005530921809001835,0.0044714678856858205,0.9931112505817837
2015-06-16,1,0.0011922969360110272,0.0014739710221970685,-0.005744678395412561,0.0044714678856858205,0.9929293322323275
2015-06-18,1,0.0007442294607982325,0.0008780232200272823,-0.005744678395412561,0.003351286110107836,0.9932443072459529
2015-06-22,1,0.0003514878328117438,0.0003884671048156957,-0.005744678395412561,0.003263164845567187,0.9935435129448187
2015-06-24,-1,-0.0002549684669076128,-0.00021013568277789818,-0.005929163327587426,0.003263164845567187,0.9935217656980926
2015-06-26,1,2.2522758171419532e-05,3.602092300733312e-05,-0.007150639426015582,0.003263164845567187,0.993082084482835
2015-06-30,-1,-0.0005034341856924169,-0.00046689671585027365,-0.005929163327587426,0.004991495793917957,0.9911584137489301
2015-07-02,-1,-0.0005533029499950436,-0.0004982255128934926,-0.005929163327587426,0.008360696547253008,0.990584449576236
2015-07-07,-1,-0.00035216708264468983,-0.00032782482542425867,-0.0025654724977836095,0.005853987867563639,0.9911037796587491
2015-07-09,-1,-0.0006740733061021935,-0.000625575044276854,-0.0020415149056574786,0.005853987867563639,0.9917523146293735
2015-07-13,1,6.270224872452479e-05,0.00011952986830308422,-0.0033619987870011406,0.004192539538167334,0.9922901534997703
2015-07-15,-1,-0.00014265210129964665,-0.00012261752134085557,-0.0031869351645459946,0.004192539538167334,0.9923496698129957
2015-07-17,1,4.5177439348081114e-05,9.637027010397597e-05,-0.004429172102664112,0.005976090703771201,0.9916957064324282
2015-07-21,1,0.00010738932678789153,0.0001611301573028412,-0.004429172102664112,0.005976090703771201,0.991740227646333
2015-07-23,-1,-0.0003241704897694587,-0.00032365281080687223,-0.004285376436747276,0.005976090703771201,0.9918246332262559
2015-07-27,-1,-0.0009269451451414472,-0.0008403117313821843,-0.004522975972279042,0.005976090703771201,0.9901160969346288
2015-07-29,1,0.0007162836099148435,0.0008328538189814359,-0.0060985852985256175,0.0041213149612984445,0.9911770583709222
2015-07-31,1,0.0009085871355737708,0.00103466558244169,-0.006240620396130079,0.0031446691573705616,0.9902249203443486
2015-08-04,1,0.0010027693820722184,0.0011433665577664839,-0.010275767301862193,0.00197182079657609,0.988611379968773
2015-08-06,1,0.0009379293388884068,0.0010765825192429117,-0.010275767301862193,0.0034259210788468077,0.9882765330334443
2015-08-10,1,0.0010551182298320896,0.0012075398676065442,-0.011324098276094772,0.0034259210788468077,0.9869014363270242
2015-08-12,1,0.0009502525829659908,0.001088367311826628,-0.011324098276094772,0.0034259210788468077,0.9866735038086206
2015-08-14,1,0.0008035187881766256,0.0009086101760866711,-0.011324098276094772,0.002170665671123659,0.987346518602243
2015-08-18,1,0.0004617378018908411,0.0004862453360910084,-0.011324098276094772,0.006754026632981643,0.9856204297243281
2015-08-20,1,0.00013722164231976124,0.00014720777313075161,-0.012042881846120533,0.008012111248272018,0.9851631816438167
2015-08-24,-1,-0.0012923111349782378,-0.0011065290960327692,-0.010275767301862193,0.01411079932043186,0.9868817098305258
2015-08-26,-1,-0.0009565925155686716,-0.0008138026861746791,-0.009665770965492933,0.007428588526526943,0.988054994428387
2015-08-28,-1,-0.0004994364244900594,-0.00040800369663128374,-0.010387364526813353,0.007277544085138537,0.9881164029319683
2015-09-01,-1,-0.0013222756253574862,-0.0011354702807866604,-0.009125037514776873,0.009938928121004057,0.9890332207141186
2015-09-03,-1,-0.0009729122739217235,-0.0008240328276821474,-0.009125037514776873,0.008322443464901077,0.9894897626114234
2015-09-08,-1,-0.0007813715829150503,-0.0006480044581312491,-0.005529385756706165,0.008322443464901077,0.9904691233983718
2015-09-10,-1,-0.0008593460600610198,-0.0007331879206102465,-0.002406280941834835,0.00949571066396269,0.9899261946465988
2015-09-14,-1,-0.0007189691724152375,-0.000617074879325553,-0.0019302522990639849,0.00949571066396269,0.9896498078685062
2015-09-16,1,3.5321222223397496e-05,5.004351078584397e-05,-0.005580147286505034,0.008322443464901077,0.9910007597359669
2015-09-18,-1,-2.3117853436938994e-05,-1.2174388603424913e-05,-0.0019008210844779984,0.008992818092451569,0.9918594272920299
2015-09-22,1,2.416364342881269e-06,1.4072065217584043e-05,-0.0010173385174632313,0.008322443464901077,0.992806180109381
2015-09-24,-1,-9.759993249263462e-05,-8.651466226435115e-05,0.0008375420101449133,0.008992818092451569,0.9923852524206584
2015-09-28,-1,-0.0004458574676695951,-0.0003897456997441386,0.0008375420101449133,0.008322443464901077,0.9931651845616731
2015-09-30,1,6.245440810849603e-05,8.110395999746307e-05,-0.0019008210844779984,0.008018131634668683,0.992442044334529
2015-10-02,1,0.00017033520302785131,0.00019851291540907455,-0.004281879248063899,0.008035529236962963,0.99231712150656
2015-10-06,1,0.0006546259376411264,0.0007550484017164241,-0.004281879248063899,0.008035529236962963,0.992835699736863
2015-10-08,1,0.0011959097095499429,0.0013835254566762628,-0.004401521361211561,0.006781305357826907,0.993535762246629
2015-10-12,1,0.0013959369007029226,0.0016100424826094627,-0.004567572771534616,0.006843951950683001,0.9931117904552781
2015-10-14,1,0.001008738821535006,0.0011643950490733382,-0.004401521361211561,0.006843951950683001,0.9936138496814223
2015-10-16,1,0.001119753344593181,0.0012824213718737195,-0.004896976764276377,0.004980237530647487,0.9925135739538596
2015-10-20,1,0.0010490418195660844,0.0011800015581573575,-0.004896976764276377,0.006843951950683001,0.9920103850780805
2015-10-22,1,0.0014093739944240216,0.001588908962124204,-0.004896976764276377,0.00461544911338483,0.9924551386762208
2015-10-26,1,0.0014046608976285798,0.001590497148921235,-0.004670448524919497,0.00461544911338483,0.9925257762777903
2015-10-28,1,0.0005722675695723116,0.0006364875966708443,-0.004410401332948385,0.00461544911338483,0.9941339121257462
2015-10-30,1,0.0007539466651867312,0.0008563828158132679,-0.004670448524919497,0.00461544911338483,0.9938887899455094
2015-11-03,1,0.0009708023931815986,0.0010958432201092568,-0.005672416997952774,0.00461544911338483,0.9935016568948771
2015-11-05,1,0.0009281176565556471,0.0010499665273373269,-0.008327695355819398,0.005593541896245557,0.99289010770521
2015-11-09,1,0.000980042435957232,0.0011209208468438625,-0.008438491885732462,0.00461544911338483,0.9926003532905046
2015-11-11,1,0.0011164080751620445,0.0012742445058243322,-0.008438491885732462,0.004347083940468472,0.9923626392318577
2015-11-13,1,0.00026320540960867047,0.0002823739627496103,-0.008327586977940081,0.0044640715322069955,0.9923892533407035
2015-11-17,1,0.0005152870993540436,0.0005658619964974889,-0.008327586977940081,0.005593541896245557,0.9917447167457507
2015-11-19,1,0.0004151361859264038,0.0004157866523895139,-0.009919714555767609,0.0048220024266791665,0.9908740470123478
2015-11-23,1,0.0002726604265006874,0.0002866870669076873,-0.010567702061527478,0.007371214621376053,0.9900708687038311
2015-11-25,1,0.0002375911819414209,0.0002537758626651169,-0.010567702061527478,0.007371214621376053,0.9897807414205152
2015-11-30,-1,-0.00021488707185132673,-0.00012123194499484525,-0.009919714555767609,0.007937733434334075,0.9902371198119948
2015-12-02,1,0.00011460166488696539,0.00014621754684449815,-0.00908760864089571,0.005010842030998507,0.990548588527999
2015-12-04,0,-3.10721431791976e-05,2.6739611894838336e-05,-0.009474900870355957,0.005010842030998507,0.9903499635360875
2015-12-08,-1,-0.0005493718570875111,-0.00043426236447535065,-0.012044705897323853,0.005010842030998507,0.9898462793284355
2015-12-10,-1,-0.0006991871063328481,-0.0005708829148418162,-0.01335001199611496,0.005010842030998507,0.9894302888189939
2015-12-14,-1,-0.0016704744162380695,-0.001404790175598004,-0.01335001199611496,0.008044883723092295,0.9893643815565722
2015-12-16,-1,-0.001169467627437156,-0.0009484711522819509,-0.01335001199611496,0.0037057179015100006,0.9897708298310748
2015-12-18,-1,-0.0008903381130820787,-0.0007762655066746184,-0.01335001199611496,0.004072069625797783,0.9897406643352084
2015-12-22,-1,-0.0006332488022912158,-0.0005674575914160217,-0.01335001199611496,0.0046184507357076975,0.9900686054995329
2015-12-24,-1,-0.0007179004645341583,-0.0006464253127196094,-0.01335001199611496,0.006325386127696524,0.9894211136112114
2015-12-29,-1,-0.0006158724094382901,-0.0005550690554476957,-0.01335001199611496,0.0046184507357076975,0.9898383516046839
2015-12-31,-1,-0.0008085505838222355,-0.0007378430279197477,-0.01335001199611496,0.009349428784994935,0.9888020283053832
2016-01-05,-1,-0.000978507790820174,-0.000883168696453489,-0.012400037875784989,0.007398801655623283,0.9892333870216993
2016-01-07,-1,-0.0017810265052141771,-0.0015928972300908264,-0.006290184477539706,0.009349428784994935,0.9896015119752256
2016-01-11,-1,-0.0020045899168857698,-0.001793961960982038,-0.0018296918128167046,0.009494251512791374,0.9890105050919907
2016-01-13,-1,-0.002534725983934484,-0.0022439219268429386,-0.006290184477539706,0.009349428784994935,0.989790300842089
2016-01-15,-1,-0.003821049442125111,-0.0033055167252486117,-0.0018296918128167046,0.010605603748932674,0.9881731371769468
2016-01-20,-1,-0.0039053431034983647,-0.003399260768993561,-0.0033132742833564327,0.010605603748932674,0.9888978813502574
2016-01-22,-1,-0.0031176170382173447,-0.0027341642869422008,-0.0033132742833564327,0.010605603748932674,0.9895845551747069
2016-01-26,-1,-0.0034193269871495525,-0.0029524285819770473,-0.0041147759272309225,0.009494251512791374,0.9901040415955464
2016-01-28,-1,-0.003069678014328896,-0.002668197202574706,-0.004285315158084524,0.009494251512791374,0.9899822240137904
2016-02-01,-1,-0.0018869938910393486,-0.0016411189852773515,-0.00869243712029018,0.008993639748079346,0.9907511448030797
2016-02-03,-1,-0.0016334783434168412,-0.0014019627904613852,-0.00869243712029018,0.008993639748079346,0.9908153813440661
2016-02-05,-1,-0.001583771712284353,-0.0013609082500647832,-0.004285315158084524,0.008822012446578792,0.9907678544454112
2016-02-09,-1,-0.000319350590366816,-0.0002905833931213365,-0.00869243712029018,0.008648093158495577,0.9912123817065993
2016-02-11,-1,-0.00136110096884332,-0.0011863269204256907,-0.0038271720545639543,0.008822012446578792,0.9916831375594923
2016-02-16,-1,-0.0002177006339776462,-0.00017952957965465497,-0.0038271720545639543,0.008023783960895512,0.9932739314868657
2016-02-18,-1,-0.0007600256891187403,-0.0006431467163948611,-0.0014897525179101883,0.008648093158495577,0.9925428809558611
2016-02-22,-1,-0.0006261679013345711,-0.0005215116021675309,-0.0014897525179101883,0.008822012446578792,0.9922251637822829
2016-02-24,-1,-0.0007126531818770713,-0.0006196984766409857,-0.0005464695073433565,0.008822012446578792,0.9925468113497644
2016-02-26,-1,-0.0003884933333475372,-0.0003438460791442293,-0.0005464695073433565,0.008695475172320812,0.9928180503599575
2016-03-01,1,0.00022882302709978944,0.0002940182243011497,-0.0005464695073433565,0.008695475172320812,0.9938468255987511
2016-03-03,1,0.0008564021135447755,0.001036160339796876,-0.0029402876552328703,0.008113345066140074,0.994257821162427
2016-03-07,1,0.001460642952477523,0.0017371615295962745,-0.0034927885335464485,0.004807368613884859,0.9944251846654757
2016-03-09,1,0.0008148221391303394,0.0009827259268567633,-0.0029402876552328703,0.005737360836878232,0.9946758085223553
2016-03-11,1,0.0013074110437865964,0.0015576582417282355,-0.0034927885335464485,0.004807368613884859,0.9948735832159211
2016-03-15,1,0.0015776275835848491,0.0018744882090106206,-0.0034927885335464485,0.005737360836878232,0.9943882519812118
2016-03-17,1,0.002414834954130938,0.0028500021687019785,-0.003710606360056797,0.004594235627797206,0.9948043950920671
2016-03-21,1,0.0026802428196263817,0.0031446701148092155,-0.003710606360056797,0.005449099714942248,0.9949635177247234
2016-03-23,1,0.0023450438632929937,0.0027180120106340844,-0.004501484348485398,0.005449099714942248,0.9942250914414683
2016-03-28,1,0.0024006599596200144,0.0027858247351147773,-0.004501484348485398,0.005302077648345458,0.994197642025656
2016-03-30,1,0.0027534899826995966,0.00320788155005315,-0.004501484348485398,0.005302077648345458,0.994405181580998
2016-04-01,1,0.0024728769698809496,0.002884612322091066,-0.004836656902527693,0.005302077648345458,0.9941468463818973
2016-04-05,1,0.002180152822306743,0.0025498733999914413,-0.004325158103139039,0.005302077648345458,0.9943164793103872
2016-04-07,1,0.0023068917064284307,0.0027057782882582157,-0.004836656902527693,0.0045452282722649425,0.9936753418383011
2016-04-11,1,0.001879281503024328,0.002174217065551277,-0.004836656902527693,0.005206107910494102,0.993779115672777
2016-04-13,1,0.0024841757443085,0.0028802634253233153,-0.007055142139326344,0.005206107910494102,0.9931978438677205
2016-04-15,1,0.002626616396149674,0.0030571251269283905,-0.009830895527060412,0.005206107910494102,0.9924370714326434
2016-04-19,1,0.002867308639109567,0.0033203312616669257,-0.009830895527060412,0.002885826933021753,0.9918711724393044
2016-04-21,1,0.0023538075412604066,0.002736542236737324,-0.007183456469485689,0.002885826933021753,0.9930677214103193
2016-04-25,1,0.0022992429217772543,0.0026665897574261956,-0.007183456469485689,0.0021668032271400096,0.9931888882279603
2016-04-27,1,0.0027317417243111894,0.003161452863199275,-0.007183456469485689,0.0024134618722302884,0.9930934583417999
2016-04-29,1,0.0023277809570894895,0.0027024295948584955,-0.005742395200240646,0.0036467297948423313,0.9940168208464611
2016-05-03,1,0.0018030530828498019,0.002072039549470465,-0.005742395200240646,0.0036467297948423313,0.9944608190280486
2016-05-05,1,0.0010635373482975191,0.0012216915005786545,-0.0024894122432377727,0.0036467297948423313,0.9956719307155244
2016-05-09,1,0.00080775830943643,0.0008861261119133801,-0.0024894122432377727,0.0036467297948423313,0.9955339354438423
2016-05-11,1,0.0010623898300226294,0.0012189845759775525,-0.0005590590380976447,0.0036467297948423313,0.9962230124428227
2016-05-13,1,0.00019549184359035138,0.00019600705844236902,-0.0005590590380976447,0.0036467297948423313,0.9961539621968597
2016-05-17,1,0.0002836122441667492,0.00029304829491277065,-9.743077618230383e-05,0.0027903802234335575,0.9968562278441898
2016-05-19,1,0.00018816217266179506,0.00020231109651921953,0.0004852104122938605,0.0036467297948423313,0.9964091158663921
2016-05-23,1,0.00015631257051663662,0.00017021076212607203,0.0008211413806443482,0.00587191305882883,0.9959447973106139
2016-05-25,1,0.00019017572849918752,0.00022357196327085326,0.0004852104122938605,0.00587191305882883,0.9956217871425765
2016-05-27,1,0.00022494320962280427,0.00025983219735753254,-0.002526762806763041,0.00587191305882883,0.9943228553363919
2016-06-01,-1,-0.000466748883569281,-0.00030188263716219714,-0.0011444920052591388,0.007803177462785284,0.9930513346289144
2016-06-03,-1,-0.0006880031781649522,-0.00047981573810327205,-0.0011444920052591388,0.008137314501838668,0.9921479471513498
2016-06-07,-1,-0.0007189757492869657,-0.0004994020391955581,-0.004747674032410142,0.008137314501838668,0.9921959655780398
2016-06-09,-1,-0.0007064390021870869,-0.00046553012084993436,-0.004747674032410142,0.009220306045420271,0.9919131171803687
2016-06-13,-1,-0.0015327624487666792,-0.0011631536351541481,0.0008589543964364743,0.009220306045420271,0.9916455364956113
2016-06-15,-1,-0.0013797449848073696,-0.001041461108799884,0.0011127380091641788,0.009220306045420271,0.9912968645017209
2016-06-17,-1,-0.0009885634429455106,-0.0007081894432055286,-0.001931936895838718,0.009220306045420271,0.9919560443605088
2016-06-21,-1,-0.0006470307134748963,-0.0004033737114481536,-0.002812169666617479,0.007022838476224729,0.9928056585572254
2016-06-23,0,-1.7010721615808423e-05,0.00010841135627266495,-0.002812169666617479,0.006058120806274145,0.9932737500473373
2016-06-27,-1,-0.0008764166613215764,-0.0006661031713146409,-0.0014642409231174144,0.006058120806274145,0.9943934330312831
2016-06-29,-1,-0.00020122451131515998,-6.726112198478799e-05,-0.0023473416214381555,0.004488964854453224,0.99510056740666
2016-07-01,1,0.0006526614917789727,0.0006529446997758613,-0.0028207734492434206,0.002978162864152832,0.9955890703654272
2016-07-06,0,-6.647356056333007e-05,5.454842551998716e-05,-0.0028207734492434206,0.004326291296156052,0.9954563414409376
2016-07-08,1,0.0008750316232188434,0.0009166947599846763,-0.004170477341750328,0.004326291296156052,0.9954212032678765
2016-07-12,1,0.0008111353445818307,0.0008234652017049619,-0.004170477341750328,0.004341137193492796,0.9953786927729932
2016-07-14,1,0.001078983076835155,0.001130192089240215,-0.004170477341750328,0.002908520038960896,0.9953195127352517
2016-07-18,1,0.0006278248158271358,0.0006521238351992406,-0.004389700258951477,0.002908520038960896,0.9951956815504707
2016-07-20,1,0.0005257631157637396,0.0005566620320513018,-0.004389700258951477,0.004006146995466556,0.9951991649509543
2016-07-22,1,0.0005308872113577489,0.0005546862230634791,-0.0028058467015664003,0.0028182305677266675,0.9956265058542858
2016-07-26,1,0.0006351423423432565,0.0006394673221794359,-0.004389700258951477,0.0026797989568325253,0.9952838783381053
2016-07-28,1,0.0004219883564392385,0.00042270403726525846,-0.003702090210294332,0.0026797989568325253,0.9958513371586101
2016-08-01,-1,-0.00012655808408635797,-3.467729203607365e-05,-0.003494554431803837,0.0026797989568325253,0.9959693313757279
2016-08-03,1,9.465580528942081e-05,0.0001455629328484793,-0.002989499824670931,0.0022964964624399772,0.9964131826270575
2016-08-05,1,0.0002677683853193315,0.00029213815514241855,-0.0018039187766023571,0.0022964964624399772,0.9969185351204946
2016-08-09,1,0.0007676567989566373,0.0008395482138066709,-0.0018039187766023571,0.0021401030278011242,0.9972225188521977
2016-08-11,1,0.0012214713943464123,0.001373051600016674,-0.003494554431803837,0.0016271658993426978,0.996620591683095
2016-08-15,1,0.0009035189273299105,0.0010071754965266639,-0.003494554431803837,0.0019375379491934253,0.9961070860895774
2016-08-17,1,0.0009981459997857982,0.0011154104481917787,-0.003494554431803837,0.0018852880640403947,0.9961935654879297
2016-08-19,1,0.001099001560910631,0.001238802822126231,-0.003494554431803837,0.0018852880640403947,0.9960248456267208
2016-08-23,1,0.0007125726804906656,0.0007875601847715772,-0.0022477657683185317,0.0023952631603368366,0.9956029225358469
2016-08-25,1,0.0005073962846404712,0.0005373649005369998,-0.002409852602114963,0.0023952631603368366,0.9955548414851615
2016-08-29,1,0.0004402394035007932,0.0004597989477145053,-0.0023879108487837543,0.0024657379582800325,0.9951057968781383
2016-08-31,1,0.0004038917786123566,0.00041481248668394263,-0.004378898820233179,0.0024657379582800325,0.9944421193089955
2016-09-02,1,0.0006819203125986668,0.0007560128820030079,-0.004378898820233179,0.003961796688090376,0.9939002443318531
2016-09-07,1,0.0006230373088998134,0.0006879350214847364,-0.005210586148589431,0.006560160640540027,0.9934410660927488
2016-09-09,1,0.00031615154238304465,0.00036005101275130035,-0.0035895932615480617,0.006560160640540027,0.9941677662778671
2016-09-13,-1,-0.0001840362700583216,-0.0001387918829608089,-0.0032541929204857505,0.003299231318844161,0.9951478161954107
2016-09-15,-1,-0.00012650273368379532,-8.832942599803025e-05,-0.0035525703493104878,0.003299231318844161,0.9950379457904417
2016-09-19,1,0.00010232145806734209,0.00011078905955503576,-0.0037094129148071554,0.0031977443577202065,0.9949890147058913
2016-09-21,1,0.0005265870091831191,0.000568430413567004,-0.0037094129148071554,0.0009712380421315412,0.9959291185396786
2016-09-23,1,0.00027835081494331337,0.00028145366668096974,-0.0037094129148071554,0.0009712380421315412,0.9958040238761956
2016-09-27,1,5.478913946650523e-05,0.00011679805574550241,-0.0044409055030293805,0.0009712380421315412,0.9957149815142281
2016-09-29,-1,-0.00042650274149490057,-0.0003123607068028209,-0.0037094129148071554,0.001405439606139756,0.99606011537074
2016-10-03,-1,-0.00023494577137178954,-0.00014072668953272848,-0.0037094129148071554,0.0009712380421315412,0.9964210174755556
2016-10-05,-1,-0.0006238956760141859,-0.00045631729139410186,-0.0037094129148071554,0.0006526406690263728,0.9966543681860872
2016-10-07,-1,-0.0007100077232461051,-0.0005377340476543768,-0.00425468460711745,0.0009712380421315412,0.9962737103665048
2016-10-11,-1,-0.0007593499070167502,-0.0005836649584850097,-0.00425468460711745,0.0021874032134577815,0.994157118069536
2016-10-13,-1,-0.0009688842322392922,-0.0007639322035576357,-0.0039177960628888195,0.005564367523695362,0.9937252445432253
2016-10-17,-1,-0.0009029243221466234,-0.0007199045515591607,-0.0049159252655907185,0.006270455379564813,0.9929865812470834
2016-10-19,-1,-0.0008448752441584788,-0.000675474580745333,-0.0049159252655907185,0.006270455379564813,0.9927976276834628
2016-10-21,-1,-0.0011580740058051101,-0.0009491780505648791,-0.0038569279547440013,0.006305939829667367,0.9924217454152673
2016-10-25,-1,-0.00097685706969439,-0.0007905089855793809,-0.003330854623901204,0.005992352797412314,0.993004427222226
2016-10-27,-1,-0.0008277955054394492,-0.0006677772353271545,-0.0012750020669701043,0.005992352797412314,0.9928591772706722
2016-10-31,-1,-0.000763318633121176,-0.0006250371758620233,-0.0012750020669701043,0.005992352797412314,0.9925849618876701
2016-11-02,-1,-0.0012675437044510425,-0.0010508696186817225,-0.0012317089254125406,0.005992352797412314,0.9924653796982048
2016-11-04,-1,-0.0012518226130616623,-0.0010391682772879387,-0.0006294947616169561,0.005992352797412314,0.9928053283796805
2016-11-08,1,0.00034231866056783154,0.00035358218157727895,-0.0006294947616169561,0.00555458520046159,0.9948274924401969
2016-11-10,1,0.0008705478292165424,0.0009495581123000942,-0.0006294947616169561,0.005301762466240194,0.9951823636196385
2016-11-14,1,0.0008730630949715435,0.0009561278707204161,-0.00028123875548861124,0.005229887995663255,0.995953455101194
2016-11-16,1,0.0001878785515559683,0.000258505797062434,-0.00028123875548861124,0.005229887995663255,0.9948105507941282
2016-11-18,1,0.0009943309718301555,0.0010684836222317959,-0.0006294947616169561,0.005127582664213815,0.9943158320351292
2016-11-22,1,0.0014252035500277394,0.0015923451229766126,-0.001289338022294201,0.005035336306997057,0.9938800999943265
2016-11-25,1,0.0016934366513632762,0.0018817925358999544,-0.0029021238197054636,0.004477600027596648,0.9942092610176112
2016-11-29,1,0.0019546653097464606,0.0022081570137065755,-0.0029021238197054636,0.004407560308752036,0.9941381350296872
2016-12-01,1,0.0020555943300583465,0.0023344189729327335,-0.00286739629730033,0.003384036824921876,0.9940192789338517
2016-12-05,1,0.0022095030299724753,0.0025285280129863897,-0.00286739629730033,0.003986449394929542,0.9939817964562274
2016-12-07,1,0.0026291090202065787,0.002990480805670847,-0.00286739629730033,0.00323571063087196,0.9945953728848237
2016-12-09,1,0.0027725821698857305,0.0031442953686853636,-0.005946011628327989,0.0017912885077874686,0.9936894000957496
2016-12-13,1,0.0028163407717618607,0.003186203439974624,-0.005946011628327989,0.0017912885077874686,0.9935444766012226
2016-12-15,1,0.001954189600623886,0.002207533233453206,-0.003582631402278954,0.002068388306155875,0.9953362826348361
2016-12-19,1,0.0015067750850510822,0.0016694012142274381,-0.003582631402278954,0.002068388306155875,0.9959425030054998
2016-12-21,1,0.0010974370984040648,0.0011887661893840483,-0.003305137551826498,0.002068388306155875,0.9963331396876474
2016-12-23,1,0.0010346980797189403,0.001119649477822355,-0.003305137551826498,0.003132260527972805,0.9955866767139652
2016-12-28,1,0.0008234293824434505,0.0008871870643467779,-0.0025127610528409717,0.004388180353920847,0.9955459154714426
2016-12-30,1,0.0008158624713952133,0.0008893388697890853,-0.004626832785577184,0.004388180353920847,0.9920149212988177
2017-01-04,1,0.0009579762338955479,0.0010747633793804123,-0.005595012994570576,0.0036823176810140256,0.9902771589255001
2017-01-06,1,0.000834639046175795,0.0009159070279355282,-0.006353107601236057,0.006479319203058315,0.989089910376985
2017-01-10,1,0.0004614403480111756,0.0004983423768030423,-0.004762531443213207,0.006479319203058315,0.9894341235847962
2017-01-12,1,0.00047530861053996106,0.0005182791200262066,-0.004762531443213207,0.007876644029162907,0.9891690211123384
2017-01-17,1,0.0003173908585659509,0.0003188668267999601,-0.004762531443213207,0.008141431417199245,0.9886439401031228
2017-01-19,1,0.00030775852508748254,0.0003107050724193661,-0.005342414241184751,0.008141431417199245,0.9884948215300984
2017-01-23,1,0.0002693298321924738,0.000281542598957383,-0.004696819093946087,0.008141431417199245,0.9884864719795202
2017-01-25,1,0.0008532111223715675,0.0009187431500900974,-0.008485276168015272,0.005304761341392409,0.9882163221581334
2017-01-27,1,0.0011218226829470895,0.0012258195090546833,-0.008485276168015272,0.0058026132915084405,0.9880454061562004
2017-01-31,-1,-0.001328137656126225,-0.0011312129063129144,-0.005843947212551883,0.007819535420491984,0.9908454761250073
2017-02-02,-1,-0.002798649488857153,-0.002405238959359371,-0.005843947212551883,0.007819535420491984,0.991954434688934
2017-02-06,-1,-0.0026062157301956048,-0.0022253754999777726,-0.004506155353355073,0.0058026132915084405,0.9929690201407697
2017-02-08,-1,-0.0025362355886390164,-0.002166714631163455,-0.004506155353355073,0.0058026132915084405,0.9930045735558353
2017-02-10,-1,-0.0021750235486230917,-0.0018482869979347693,-0.004506155353355073,0.007258219596104853,0.9928942774073034
2017-02-14,-1,-0.0012377185486821159,-0.0010563594837540201,-0.005298554490208693,0.007258219596104853,0.9932320101782157
2017-02-16,-1,-0.0018163475978472314,-0.0015614919155847685,-0.004506155353355073,0.007258219596104853,0.9936290148778788
2017-02-21,-1,-0.0015159071459914706,-0.0013075993898550111,-0.005805932609070576,0.005665114045184698,0.993608634561574
2017-02-23,-1,-0.0025672265823678646,-0.002212304566927447,-0.005805932609070576,0.005665114045184698,0.9940459327731297
2017-02-27,-1,-0.0019138093515057636,-0.001648750774389566,-0.005805932609070576,0.0020175735484871445,0.9949083815452919
2017-03-01,-1,-0.0018493093526870277,-0.0015922001105009651,-0.00568297443707033,0.0020175735484871445,0.9951137819663947
2017-03-03,-1,-0.0021740718771731983,-0.0018745788308185954,-0.004671421631300228,0.00595641282029009,0.9946923864792717
2017-03-07,-1,-0.002290493795637855,-0.001975970191280411,-0.00568297443707033,0.00595641282029009,0.99443923794475
2017-03-09,-1,-0.002272062226104009,-0.0019544044691689267,-0.00568297443707033,0.00595641282029009,0.9945497133243176
2017-03-13,-1,-0.0018241290327930156,-0.001555280562141844,-0.005805932609070576,0.0039204944322680695,0.9941138468370341
2017-03-15,-1,-0.0017439853170673654,-0.0014847714159860876,-0.006763702646482087,0.0024328952122526825,0.9939905030582852
2017-03-17,-1,-0.0017798774291835425,-0.0015037977424443173,-0.006763702646482087,0.0031066506444015784,0.9935778513795942
2017-03-21,-1,-0.002130847581722627,-0.0018240781998451732,-0.006557460096062108,0.004079104559904814,0.993615045430644
2017-03-23,-1,-0.002312180008248177,-0.001988553219348396,-0.005833283996757724,0.00595641282029009,0.9931793977710941
2017-03-27,-1,-0.0026002708814589453,-0.0022393249906430546,-0.005099843682784351,0.007061064932027199,0.9923132189185577
2017-03-29,-1,-0.0023573728196584474,-0.0020132262125073844,-0.005099843682784351,0.007061064932027199,0.9923138317543108
2017-03-31,-1,-0.0020172480911646636,-0.0017119507752288315,-0.007603776382530056,0.005295195317443914,0.9923561004217493
2017-04-04,-1,-0.0013396931622108644,-0.0011860494611684157,-0.006557460096062108,0.0055770641527104385,0.9924166044772618
2017-04-06,-1,-0.0010430545250950983,-0.0009431469949069584,-0.006557460096062108,0.0055770641527104385,0.992277469466444
2017-04-10,-1,-0.0010927131102825502,-0.0009834592061805966,-0.006557460096062108,0.003739832553993877,0.9932163546862465
2017-04-12,-1,-0.0017471123679695336,-0.0015625252248758544,-0.007647175420725197,0.003739832553993877,0.9930529420304289
2017-04-17,-1,-0.001236953700194467,-0.0011318624782525927,-0.007647175420725197,0.003739832553993877,0.9932156920720949
2017-04-19,-1,-0.0011817676428839603,-0.0010931376233979649,-0.00868072652351623,0.003739832553993877,0.9927298496533465
2017-04-21,-1,-0.0004413183005136852,-0.0004153775624510907,-0.00868072652351623,0.0035865013348439488,0.9931923057650576
2017-04-25,1,6.285257021526445e-05,0.00015843649797134892,-0.00868072652351623,0.003553965436358537,0.9936733158849671
2017-04-27,1,0.0005395019300112212,0.000703020471867504,-0.00868072652351623,0.003680457613266124,0.9936117880384887
2017-05-01,1,9.040070601351623e-06,0.0001069535616229237,-0.003971689718087683,0.004028027279865705,0.9940999897391204
2017-05-03,1,0.0005698406424828489,0.0007742938045703108,-0.007593421022911703,0.00428286476868096,0.9934101572715174
2017-05-05,1,0.0008060825345230604,0.0010599794242769547,-0.007593421022911703,0.00428286476868096,0.9936426115072223
2017-05-09,1,0.0007255251243585649,0.0009804696005735183,-0.007111741427674724,0.00428286476868096,0.9934831125805439
2017-05-11,-1,-0.00017987816092965623,-8.45598710031052e-05,-0.00169981484643589,0.00428286476868096,0.9942856331071744
2017-05-15,1,0.00018267149063372996,0.0003267575957279491,-0.00169981484643589,0.005831129502930112,0.9936981446080262
2017-05-17,-1,-0.0005013262088957014,-0.00045509218847742544,-9.556163174889143e-05,0.008053211445376551,0.9938684660153784
2017-05-19,-1,-0.00026715056547984347,-0.00018665496472271495,-9.556163174889143e-05,0.008053211445376551,0.993996810338183
2017-05-23,0,-5.755845748551722e-05,4.2426233482073875e-05,-0.003920692878936526,0.008053211445376551,0.9937438116571031
2017-05-25,1,0.00043135443890307437,0.000590723199504529,-0.003920692878936526,0.008053211445376551,0.9940646464743568
2017-05-30,1,0.000808943830838881,0.0010289003777581153,-0.0043448936205997,0.0070214431219687255,0.9936548475847032
2017-06-01,1,0.0011402870846091593,0.0014098767649368482,-0.003920692878936526,0.004481603930170792,0.9945378754294439
2017-06-05,1,0.0010644949699498867,0.0013027513366019045,-0.003920692878936526,0.006877730834458472,0.9942896909109837
2017-06-07,1,0.0007672694238857797,0.0009679699877547493,-0.003001926393577288,0.006877730834458472,0.9942406419056155
2017-06-09,1,0.0009385142554943316,0.0011664998098758967,-0.003001926393577288,0.007522083280410148,0.9937783361340623
2017-06-13,1,0.001768501582248281,0.0021108435410944508,-0.003001926393577288,0.005084635572123353,0.9946518508686036
2017-06-15,1,0.0019339458847763558,0.002302255021824761,-0.0017007310417285657,0.005679729306473712,0.9946394045411681
2017-06-19,1,0.0024485431981675593,0.0029238376123876214,-0.0028891201543005335,0.005679729306473712,0.9941716992452823
2017-06-21,1,0.002223918470403024,0.0026893152633431583,-0.002020236251146835,0.006877730834458472,0.9945213841693523
2017-06-23,1,0.0014227422411432862,0.0016503374594369988,-0.0028891201543005335,0.005679729306473712,0.9947441156791917
2017-06-27,1,0.0006259573703316849,0.0006784781036144647,-0.0028891201543005335,0.00584660935928752,0.9948598841718748
2017-06-29,1,0.0007795491591170982,0.0008680098759817228,-0.0034425452830305608,0.007918975926944488,0.9923459565953143
2017-07-03,1,0.000992649624353325,0.0011092501829169366,-0.0034425452830305608,0.006693951323381635,0.9923381321304731
2017-07-06,1,0.0007592398229300736,0.0008644953396582155,-0.0021840380300150344,0.009629052213100139,0.9925417331159426
2017-07-10,1,0.001266563239295102,0.0014669155174092158,-0.0021840380300150344,0.006693951323381635,0.9928535522330196
2017-07-12,1,0.0010825545632187504,0.0012274126294651467,-0.0021840380300150344,0.006693951323381635,0.9928954207523253
2017-07-14,1,0.0016300045127372606,0.0018544490935408827,-0.0034425452830305608,0.00500067749135903,0.9926966926662247
2017-07-18,1,0.001067065251999772,0.0011667919433010513,-0.002178921153013629,0.006693951323381635,0.9919622985910879
2017-07-20,1,0.001481420447519217,0.001664283927299059,-0.0024476636202649038,0.005246037271931137,0.9916999610100374
2017-07-24,1,0.0013675674313234271,0.0015353949942168077,-0.0012399724652055802,0.005246037271931137,0.9917509928947861
2017-07-26,1,0.0011859045119227856,0.0013094915705096925,-0.0012399724652055802,0.005246037271931137,0.9917599289900197
2017-07-28,1,0.0003504100843191307,0.00035698384555709733,-0.0012399724652055802,0.0048343549637307115,0.9941625416515515
2017-08-01,1,0.0005003591583883248,0.0005300053594281789,-0.00022278722756455846,0.0048343549637307115,0.9939549902333289
2017-08-03,1,0.001129356771040591,0.001270175513211816,-0.0017121147091249355,0.004704218641269756,0.994355921867055
2017-08-07,1,0.0012368272212578378,0.00139472822972426,-0.002348224527455231,0.004657620354680165,0.9943755450155264
2017-08-09,1,0.001423675245981928,0.0016123235787104356,-0.002348224527455231,0.0047860052347937915,0.9941867668590346
2017-08-11,1,0.0008294781567229989,0.0009067495678455576,-0.0011645411666241414,0.005500896992691565,0.9944432952651674
2017-08-15,1,0.001426941168472079,0.0015641336738611339,-0.0011645411666241414,0.005500896992691565,0.9951587454829306
2017-08-17,1,0.0008248604760173741,0.0008624075586070843,-0.0008176085854690316,0.005013680481844104,0.995881421340185
2017-08-21,1,0.0012358594374910527,0.0013487476105058986,-0.001978381881243908,0.005013680481844104,0.9957155295049775
2017-08-23,1,0.0012902265455728397,0.0014318620069579946,-0.001978381881243908,0.005160648972395792,0.9959088506069204
2017-08-25,1,0.001060865072244815,0.0011572419509890122,-0.0013815441640159774,0.005343665345278467,0.9957907475318247
2017-08-29,1,0.001425658105437374,0.0015682453182316266,-0.002549347131715225,0.00498587043433408,0.9959365698318214
2017-08-31,1,0.0011734084220954076,0.0012738373044710117,-0.001354862916781247,0.006278932967231395,0.9957708957595761
2017-09-05,1,0.0005633228343461583,0.0005862680947979482,-0.001354862916781247,0.006278932967231395,0.9951186540276914
2017-09-07,1,0.0008430028329069568,0.0008603552806168575,-0.0031814119193149847,0.005852034445268067,0.9949098443784127
2017-09-11,1,0.0011076875168972117,0.0011487356020332413,-0.004714012583008244,0.004962835897327766,0.9949720373640623
2017-09-13,1,0.0014644293494536337,0.0015747922425153327,-0.004714012583008244,0.005852034445268067,0.9948556496363306
2017-09-15,1,0.0019076890375146105,0.00210253993262931,-0.0049462352503497654,0.005852034445268067,0.9943333431532078
