JNU-Tangyin/eata/results/Batch4_SP500/Batch4_SP500-ORLY.csv
Date,Action,Predicted_Q25,Predicted_Q75,Actual_Q25,Actual_Q75,RL_Reward
2010-12-14,0,0.0,0.0021330723595188103,-0.009177320457987387,0.004596561728641453,0.991059630451646
2010-12-16,1,0.002127689999025347,0.0023202471385663516,-0.009177320457987387,0.004596561728641453,0.9898741267883263
2010-12-20,1,0.0019086267801640305,0.0020557894555753775,-0.009177320457987387,0.005013090133448473,0.9897474992635725
2010-12-22,0,0.0,0.0,-0.008078412338853145,0.005296099434050156,0.9902174549426219
2010-12-27,0,0.0,0.0,-0.008078412338853145,0.005296099434050156,0.9902032737069525
2010-12-29,0,0.0,0.0,-0.008078412338853145,0.008424299759852817,0.9890393878846533
2010-12-31,0,0.0,0.0,-0.00815078156776031,0.008424299759852817,0.9884045628540022
2011-01-04,1,0.0014084563264158676,0.0014208620718158206,-0.00815078156776031,0.008424299759852817,0.9895398447456386
2011-01-06,0,0.0,0.0,-0.007202871273594834,0.011044042520029156,0.9895221845772442
2011-01-10,0,0.0,0.0,-0.007202871273594834,0.011044042520029156,0.9892826648550455
2011-01-12,1,0.0009288980029410576,0.0010190618055020508,-0.007202871273594834,0.009102632994516913,0.9898934575161173
2011-01-14,0,0.0,0.0,-0.006668897192338901,0.008424299759852817,0.9901021314823834
2011-01-19,-1,-0.0026757285690204853,-0.002163522642893178,-0.005545538018989124,0.008784760494558749,0.9895863967867576
2011-01-21,-1,-0.002183182782689734,-0.0017276448284389593,-0.007848649881234761,0.008617909006150842,0.9878843890990857
2011-01-25,-1,-0.002845305524736067,-0.002358047907026665,-0.006630498282072387,0.008617909006150842,0.9880051528200969
2011-01-27,-1,-0.001948063063099217,-0.001645373799729823,-0.006630498282072387,0.0068753566920674025,0.9885724992478544
2011-01-31,-1,-0.003606985343410546,-0.002886454448266232,-0.00583835683600011,0.0068753566920674025,0.9890625855409501
2011-02-02,-1,-0.0048985321802620455,-0.004014831014761605,-0.00442356791590867,0.010400708281228289,0.9881820683585775
2011-02-04,-1,-0.002840746058141947,-0.002236667585282628,-0.00583835683600011,0.0068753566920674025,0.9900830719684081
2011-02-08,-1,-0.0021740738748083546,-0.001668413754483329,-0.00583835683600011,0.007353373208725344,0.9901768375202715
2011-02-10,0,0.0,0.0,-0.00442356791590867,0.007353373208725344,0.990634356548337
2011-02-14,-1,-0.001272109283495279,-0.0010261824158855357,-0.005173279288559085,0.007353373208725344,0.9905719944328999
2011-02-16,-1,-0.0014774727541765563,-0.0011016772544534237,-0.005458487816756777,0.005673228913764571,0.990985070335944
2011-02-18,0,0.0,0.0,-0.004413908182919767,0.008110253016206758,0.9923992005906658
2011-02-23,0,0.0,0.0,-0.00416226255435954,0.01102750826992736,0.9925486086218631
2011-02-25,-1,-0.004223618577848634,-0.0035376991656130004,-0.00416226255435954,0.01102750826992736,0.9916557932843301
2011-03-01,0,0.0,0.0,-0.00416226255435954,0.01102750826992736,0.9918415110004061
2011-03-03,-1,-0.002845570624273543,-0.0023700278139882035,-0.004413908182919767,0.008054303142977818,0.991661549345235
2011-03-07,-1,-0.003756296196837169,-0.00317018465392364,-0.00416226255435954,0.008224990064732323,0.9916696117467305
2011-03-09,0,0.0,0.0,-0.004413908182919767,0.007909711836597133,0.9918333464056999
2011-03-11,-1,-0.003361103763056246,-0.0027938286878816565,-0.005468669153587159,0.007909711836597133,0.9914296032598755
2011-03-15,-1,-0.0036832067269071725,-0.003096168849056995,-0.004785430362789017,0.007909711836597133,0.9916121635518921
2011-03-17,-1,-0.0034903900561306486,-0.0029358559055844826,-0.005468669153587159,0.008657284659238824,0.9912079355554853
2011-03-21,-1,-0.002679841740676457,-0.002230268039617261,-0.005468669153587159,0.008468211964030822,0.991281924206917
2011-03-23,-1,-0.0010677255772684737,-0.0009005635395529237,-0.005468669153587159,0.008468211964030822,0.9905922541054972
2011-03-25,0,0.0,0.0,-0.005468669153587159,0.007933834460248118,0.9912695101182067
2011-03-29,0,0.0,0.0,-0.0047240940267008445,0.008286660386444615,0.9920574685372888
2011-03-31,0,0.0,0.0,-0.0038755184502967817,0.008286660386444615,0.9927600976893932
2011-04-04,0,0.0,0.0,-0.0036764393966951946,0.008299016098017632,0.9927909474169195
2011-04-06,1,0.00024782431427642265,0.0003446381077368569,-0.0026899365568793954,0.008284255402139644,0.993777399850908
2011-04-08,-1,-0.0005341839103002522,-0.0004989500609177467,-0.001907936543087779,0.008284255402139644,0.994327364819073
2011-04-12,-1,-0.0007904408860230803,-0.0007184930087704086,-0.0007607499709432865,0.008345513606967827,0.9936127339745089
2011-04-14,-1,-0.0005217916780264857,-0.000502661354519962,-0.0007607499709432865,0.008338298654052915,0.9941546296186159
2011-04-18,1,0.00017306966887488927,0.00025878307905183393,-0.001907936543087779,0.008284255402139644,0.9940751831096387
2011-04-20,1,0.001198460923722278,0.0014471796054930934,-0.002001388741536545,0.008284255402139644,0.9937160316794436
2011-04-25,1,0.0010646388653280472,0.0012822603422166594,-0.0032330596765427254,0.008338298654052915,0.9922800057029326
2011-04-27,1,0.0018129522222417387,0.002188390393099434,-0.0032330596765427254,0.008338298654052915,0.9927037823271196
2011-04-29,1,0.001959475974388696,0.002331298714893096,-0.0032330596765427254,0.007010770865089775,0.9928928671286216
2011-05-03,1,0.002371181551356418,0.002801510558678235,-0.005847423221581966,0.006695715059796111,0.9923794069458916
2011-05-05,0,0.0,0.0,-0.009964008599352182,0.006695715059796111,0.9918076220382489
2011-05-09,0,0.0,0.0,-0.009964008599352182,0.007393131238171923,0.9914461812643561
2011-05-11,0,0.0,0.0,-0.009964008599352182,0.006695715059796111,0.9912183955560627
2011-05-13,0,0.0,0.0,-0.009964008599352182,0.005941983249120797,0.9911325625298181
2011-05-17,1,0.0025092028327650734,0.0029693204609383965,-0.008874417890314467,0.007695839490497629,0.9920403316353312
2011-05-19,1,0.0017831892016020481,0.002124980045644898,-0.003588890673781221,0.00969262819670543,0.992393474003167
2011-05-23,0,0.0,0.0,-0.0013477515093185278,0.010287137926459647,0.9920785224426868
2011-05-25,0,0.0,0.0,-0.002118269339002239,0.012402506013589477,0.9915264776535696
2011-05-27,0,0.0,0.0,-0.004450991949821874,0.012402506013589477,0.9909200311731542
2011-06-01,1,0.0007142843733572542,0.0007800914852880331,-0.0037355064674668625,0.012402506013589477,0.9911987723974393
2011-06-03,1,0.0005496499250084994,0.0006099053323407049,-0.002118269339002239,0.013943489837113129,0.9905545518478531
2011-06-07,1,0.0010353278656048226,0.0011651523321580368,-0.0035223916899754042,0.013943489837113129,0.9907901887937266
2011-06-09,1,0.001351318151600188,0.0015311765090293109,-0.0035223916899754042,0.012402506013589477,0.9916717166855875
2011-06-13,1,0.0010951920838770906,0.0012419658210041373,-0.0035223916899754042,0.012402506013589477,0.9913351265691107
2011-06-15,1,0.0012894920639513342,0.0014601563383050097,-0.005191729250490498,0.012402506013589477,0.991077955881185
2011-06-17,1,0.0018404653605613285,0.0020386644105684555,-0.006822661092444591,0.009542411353387575,0.9912167843958061
2011-06-21,1,0.0031620995515084576,0.0035853104536144667,-0.007974652162684991,0.004123836606494907,0.9914590944632412
2011-06-23,1,0.003333142174875013,0.003737534443450005,-0.007974652162684991,0.003732562849913454,0.9921011376829318
2011-06-27,1,0.0025605038686508453,0.0028063043509411753,-0.00638491104815224,0.0027830354686206663,0.992824624431641
2011-06-29,1,0.0031071215049312453,0.00350638400155665,-0.009591091831818816,0.0014421695069032458,0.9909075211359718
2011-07-01,1,0.0037701107028305664,0.0042601637647738996,-0.010233485183995595,0.0003226235369455496,0.990090547095423
2011-07-06,1,0.0030297612871380327,0.0033714038083481456,-0.011373096316000402,0.0008706058180267378,0.9891002327943179
2011-07-08,1,0.002591420325792822,0.0028775461580314824,-0.013736806794535109,0.0012473309097747773,0.9876429169188828
2011-07-12,1,0.0022453382218208715,0.002507259030012424,-0.013736806794535109,0.0012473309097747773,0.9859499461363875
2011-07-14,1,0.0009519423710273542,0.0010022996977009594,-0.014179088821832941,0.0031004907904935482,0.9841141977229491
2011-07-18,1,0.00019697489847519592,0.00032995572386014093,-0.013809073814245568,0.011396319249502544,0.984171225037666
2011-07-20,1,0.00018905703366218737,0.00029105475122304634,-0.013809073814245568,0.011396319249502544,0.9842643114347821
2011-07-22,1,0.00013867417368605163,0.0002510891037729271,-0.013809073814245568,0.011396319249502544,0.9840261864959355
2011-07-26,1,0.000394314824674629,0.00043321891355915863,-0.013809073814245568,0.020262287651809065,0.9824834219676917
2011-07-28,-1,-0.0011721202529687198,-0.0009146682163010854,-0.013809073814245568,0.020262287651809065,0.9831006869624141
2011-08-01,-1,-0.0015524491922029363,-0.0012611027590664244,-0.007143638123468193,0.02049372025049232,0.9817537030857107
2011-08-03,-1,-0.0018714828167772863,-0.0015492181883734013,-0.00428981614794764,0.02049372025049232,0.9838980333429502
2011-08-05,-1,-0.0019733735369385163,-0.0016200893936373084,-0.0020706862352898297,0.017040785054305986,0.9852814935489583
2011-08-09,-1,-0.0012175099180079894,-0.0009520245656954569,-0.001332705926152422,0.017040785054305986,0.9862808567254537
2011-08-11,-1,-0.00139215790783878,-0.00112895946075185,-0.0014796472487000206,0.013682948575362877,0.9887879937997529
2011-08-15,-1,-0.00030012573985771897,-0.00018025574538113614,-0.002371230947170933,0.013682948575362877,0.9890939218786959
2011-08-17,1,0.000154917913022516,0.00020173963712546308,-0.002371230947170933,0.01697342060659416,0.987749799468357
2011-08-19,-1,-0.0002818236992630686,-0.00014621151681903504,-0.0014796472487000206,0.01697342060659416,0.9873711081057608
2011-08-23,1,0.0009167963529449827,0.0009362598903918432,-0.005077345385866855,0.013682948575362877,0.9879002016259375
2011-08-25,1,0.0008198805473825794,0.0008263866627914104,-0.005077345385866855,0.013682948575362877,0.9880619806950237
2011-08-29,1,0.0016763355681140087,0.0017911387049596797,-0.008143824191321248,0.01269426941993489,0.9890959586364708
2011-08-31,0,0.0,0.0,-0.009593229791052925,0.01269426941993489,0.9880472540998032
2011-09-02,1,0.000928421952674254,0.0009428221579237558,-0.012376975447180003,0.00926883477768669,0.9869721722495546
2011-09-07,1,0.0016882612688811534,0.0017619266957225137,-0.012376975447180003,0.007831843614897221,0.986831940519538
2011-09-09,1,0.0013418893191248834,0.0013940024371247631,-0.010901348465208755,0.008580706903357976,0.9873826364946814
2011-09-13,1,0.0019244028697138922,0.002088032018158047,-0.010901348465208755,0.008580706903357976,0.9875081149025896
2011-09-15,0,0.0,0.0,-0.012877519606000837,0.0073467695951807375,0.9878184394746903
2011-09-19,1,0.004931480578652192,0.005429245935229171,-0.01303532877771211,0.00566086658774324,0.9862821560325836
2011-09-21,1,0.0023391503649641734,0.002570265691983038,-0.011586672329410899,0.008259586840565266,0.9882446414651704
2011-09-23,1,0.002060884392717963,0.0022671791882915085,-0.010901348465208755,0.010079104115595974,0.988648633224624
2011-09-27,1,0.001733452252344387,0.0018979343431398507,-0.0065753586317736645,0.010079104115595974,0.9888013708857063
2011-09-29,1,0.0008644097220995778,0.0009017283858327714,-0.006405944826734225,0.011083941811412989,0.9852599024488417
2011-10-03,-1,-0.0007910029844256886,-0.0006893129189621259,-0.002714005637801445,0.011083941811412989,0.9866063374076949
2011-10-05,1,0.0004585750661807798,0.0005153898196162362,-0.0018030180636641514,0.010079104115595974,0.9885058561689749
2011-10-07,1,0.0003232645897033257,0.0003294753853433544,-0.002714005637801445,0.011083941811412989,0.988015876164434
2011-10-11,1,0.0006806688678773003,0.0006815632353050162,-0.002714005637801445,0.009497390741915338,0.9891744498055449
2011-10-13,1,0.000266989463416704,0.0003006212701941698,-0.0042352829310953796,0.009497390741915338,0.9897159177537845
2011-10-17,1,0.00045657606102510244,0.00045945903023482415,-0.0042352829310953796,0.009497390741915338,0.988983717381181
2011-10-19,1,0.0007963538944407519,0.0008396532528084481,-0.0048792559391884005,0.007286908299517283,0.9881486286268106
2011-10-21,1,0.0008853685613005151,0.0009311663052100562,-0.007486126287339271,0.00561632236222607,0.9881214458889025
2011-10-25,0,0.0,0.0,-0.007486126287339271,0.005117550520367832,0.9884164053623016
2011-10-27,0,0.0,0.0,-0.007486126287339271,0.005117550520367832,0.9917180950356194
2011-10-31,0,0.0,0.0,-0.007486126287339271,0.005117550520367832,0.9915031761479375
2011-11-02,0,0.0,0.0,-0.007486126287339271,0.006138198389021604,0.9906985834675107
2011-11-04,0,0.0,0.0,-0.007700717693872149,0.006138198389021604,0.9896443801643032
2011-11-08,0,0.0,0.0,-0.007700717693872149,0.006138198389021604,0.9895790988636012
2011-11-10,0,0.0,0.0,-0.007486126287339271,0.00867649212382252,0.9887930848807377
2011-11-14,0,0.0,0.0,-0.007486126287339271,0.006138198389021604,0.9895697193577129
2011-11-16,1,0.0022086148965608406,0.002477561003915593,-0.0067630602501667966,0.005020249199247754,0.9904270541176373
2011-11-18,1,0.0016800789875682052,0.0018810648773641568,-0.005791162738200855,0.007411491768377905,0.9902256753548421
2011-11-22,1,0.002000075833734782,0.0022896324164476444,-0.006748020493758591,0.01249637226189142,0.9889316549075314
2011-11-25,1,0.0018842104085928842,0.0021403867910497554,-0.006748020493758591,0.01318138856684156,0.9889981359080028
2011-11-29,1,0.0019174065817367078,0.002168004423165651,-0.007392861763225189,0.01318138856684156,0.9885089053730564
2011-12-01,1,0.0023397395181280183,0.0026188559207273587,-0.007731224517046426,0.006476289165516986,0.9884610318077505
2011-12-05,1,0.0026090586539447074,0.0028981901494215777,-0.007809272307630702,0.006476289165516986,0.9885211555833152
2011-12-07,1,0.0018263870798113653,0.0019557422414964052,-0.007809272307630702,0.012206297399265102,0.9882989328508258
2011-12-09,1,0.0023601500495782374,0.002541959427720227,-0.007809272307630702,0.008016286382238186,0.9891439310018079
2011-12-13,1,0.001379818104274889,0.0014338520204049924,-0.007392861763225189,0.008016286382238186,0.9902528441535212
2011-12-15,1,0.0012179754111262477,0.0012428721325102557,-0.007392861763225189,0.009378768640385116,0.990104144807276
2011-12-19,-1,-0.0007946419993921993,-0.0005756629944202446,-0.006974774093443264,0.01323056155258169,0.9895178237340408
2011-12-21,-1,-0.0008403377052283836,-0.0005764799062577372,-0.007809272307630702,0.009720190024823978,0.9893695988761465
2011-12-23,-1,-0.0009778631707814318,-0.0006757021037498719,-0.007363756330598764,0.008756326788589182,0.9897344588459148
2011-12-28,-1,-0.001351321150692172,-0.000997170508277459,-0.0068860784869084046,0.008756326788589182,0.9894999632512409
2011-12-30,-1,-0.0012896316381702045,-0.0009757098783683656,-0.0068860784869084046,0.008756326788589182,0.9896291647313517
2012-01-04,-1,-0.002694591551730588,-0.0021616113480549676,-0.0057353899428594065,0.007358669746094054,0.9907856813491809
2012-01-06,-1,-0.00206075974676398,-0.001648146701049297,-0.005443966017151275,0.007358669746094054,0.9907836869049584
2012-01-10,-1,-0.0016004182081697277,-0.0012411120822011976,-0.005443966017151275,0.008756326788589182,0.9904966809449851
2012-01-12,-1,-0.0011316391979941972,-0.0008258398977355689,-0.006011806709784009,0.009663913246988077,0.9901199628301718
2012-01-17,0,0.0,0.0,-0.006011806709784009,0.009663913246988077,0.9899318094737476
2012-01-19,0,0.0,0.0,-0.006666832829417083,0.00926103440403056,0.9904545659907618
2012-01-23,-1,-0.001325277217732904,-0.0010981720302023822,-0.005443966017151275,0.00926103440403056,0.9925396056398221
2012-01-25,0,0.0,0.0,-0.005443966017151275,0.009635103391016772,0.9921007764290388
2012-01-27,0,0.0,0.0,-0.005443966017151275,0.009635103391016772,0.9923613702943912
2012-01-31,0,0.0,0.0,-0.005443966017151275,0.01126516003838233,0.9915678279010891
2012-02-02,0,0.0,0.0,-0.0050857993554073826,0.013481826464299242,0.9910778985047205
2012-02-06,0,0.0,0.0,-0.005058435142563149,0.013828749190902477,0.9910151261438396
2012-02-08,0,0.0,0.0,-0.0033683819418888735,0.01126516003838233,0.9916337104650828
2012-02-10,0,0.0,0.0,-0.002972531067749403,0.010114143221452388,0.9922140574095869
2012-02-14,0,0.0,0.0,-0.0024936944664696423,0.00947103725350367,0.9927174978564811
2012-02-16,0,0.0,0.0,-0.0024936944664696423,0.0062688628740962945,0.9930270483240923
2012-02-21,0,0.0,0.0,-0.0024936944664696423,0.0062688628740962945,0.9926554698797388
2012-02-23,1,0.0006852019531719129,0.0007123794656676814,-0.0024936944664696423,0.005813472751595143,0.9934646862221702
2012-02-27,-1,-0.0012743050990159542,-0.0009265780534553604,-0.0023836843973936636,0.007027786127271712,0.9926704057597585
2012-02-29,0,0.0,0.0,-0.0028523897659550753,0.005813472751595143,0.993846565501702
2012-03-02,0,0.0,0.0,-0.0028523897659550753,0.005813472751595143,0.9943875056321074
2012-03-06,1,1.1445041853309077e-05,0.00011476089224749387,-0.0021540187879387895,0.007027786127271712,0.9943350304653527
2012-03-08,0,0.0,0.0,-0.0028523897659550753,0.005813472751595143,0.9942604751079345
2012-03-12,0,0.0,0.0,-0.0028523897659550753,0.0056020041213954465,0.9937008604650956
2012-03-14,1,0.001374330870225001,0.0015215112140066133,-0.0028523897659550753,0.00705615708955362,0.9923508997457297
2012-03-16,1,0.0006198417885753314,0.0008877491571285674,-0.002351775291971038,0.00705615708955362,0.9929448133427132
2012-03-20,1,0.0013447471613595046,0.0014436042046909604,-0.002351775291971038,0.008561457402430628,0.9922542730306557
2012-03-22,1,0.0019166245639426122,0.002129910718073908,-0.0028523897659550753,0.008561457402430628,0.9920340612530288
2012-03-26,1,0.002086468998605477,0.002308276812695923,-0.00434168031427414,0.008300341209705828,0.9920762609533867
2012-03-28,1,0.001954045770986615,0.0021056094531883545,-0.0026137620025106266,0.01015367717402225,0.9889824598047917
2012-03-30,1,0.0020898150236794972,0.0023232450902774,-0.003885300243071597,0.014965600717575023,0.9877428709574986
2012-04-03,1,0.0028182984331315965,0.003152003490364666,-0.003885300243071597,0.01149457291658155,0.9884134241248334
2012-04-05,0,0.0,0.0,-0.0053179848390868395,0.01149457291658155,0.9872019507318832
2012-04-10,0,0.0,0.0,-0.0053179848390868395,0.01149457291658155,0.9872783871524488
2012-04-12,0,0.0,0.0,-0.0053179848390868395,0.008801323515753422,0.9883707733385606
2012-04-16,1,0.002373327514770255,0.002444789650658521,-0.008162168081977453,0.008801323515753422,0.9868867821952205
2012-04-18,1,0.0028919508951289067,0.003021678829270638,-0.008162168081977453,0.007696982616392603,0.9873015664690663
2012-04-20,1,0.002273902145614934,0.002329526042665341,-0.01096187473887713,0.007696982616392603,0.9837066991759089
2012-04-24,1,0.00150359955482014,0.0015336105188822197,-0.008466835022551043,0.0094574834396919,0.9833014304696086
2012-04-26,1,0.00348250176570334,0.0037442850370664003,-0.008466835022551043,0.007696982616392603,0.9855551874015941
2012-04-30,1,0.004430162446461625,0.004845536825163502,-0.008466835022551043,0.0074453544857019955,0.9867466251900099
2012-05-02,1,0.0043757217522725055,0.004762589301093575,-0.011612928033915434,0.00697019136393654,0.9861142175551527
2012-05-04,1,0.0037466958202843686,0.00408978866582957,-0.011612928033915434,0.0074453544857019955,0.9859532215367632
2012-05-08,1,0.002433051713126949,0.0025437360430570293,-0.006192682176426391,0.00940889696649619,0.9854088941150047
2012-05-10,1,0.0026038950377342716,0.002714980100496118,-0.011284538102320494,0.00940889696649619,0.984640616372993
2012-05-14,1,0.0016814030718805772,0.0017014251594431899,-0.010502488214558283,0.010849133947204267,0.9844420828059244
2012-05-16,1,0.0022233932427106187,0.0023077673488755388,-0.011284538102320494,0.010849133947204267,0.9832636210376802
2012-05-18,1,0.0005401280847830239,0.0006530777418455864,-0.006088773645292947,0.013032177848873599,0.9861540932430025
2012-05-22,1,0.0009190605259551067,0.0010097968840250106,-0.009349746221044971,0.010849133947204267,0.9869914018897296
2012-05-24,1,0.0007958066593074329,0.0009380677581254835,-0.010972812508920161,0.00936865974846817,0.9863824037473101
2012-05-29,1,0.0006612424518528378,0.0008350995839088644,-0.013023900917001069,0.010849133947204267,0.9851066394090381
2012-05-31,1,0.0006448944227614911,0.000812647440681504,-0.016974380594523816,0.010849133947204267,0.980174476557975
2012-06-04,1,9.431591769393981e-05,0.0003058859295559617,-0.013365006508264443,0.013498759474618675,0.9798867692663633
2012-06-06,0,0.0,0.0,-0.013365006508264443,0.013498759474618675,0.9803329778654053
2012-06-08,0,0.0,0.0,-0.011642308031778476,0.013498759474618675,0.9812846159217626
2012-06-12,0,0.0,0.0,-0.010593474569398608,0.010055634186481546,0.982516537463423
2012-06-14,0,0.0,0.0,-0.008771754187158542,0.013498759474618675,0.9820329515510356
2012-06-18,1,0.004048668629910111,0.004302220984889406,-0.009776275365870817,0.013498759474618675,0.982049234530167
2012-06-20,1,0.0033893236264163863,0.003541021995920284,-0.00954789448611101,0.017261419788192477,0.9817444268600388
2012-06-22,0,0.0,0.0,-0.011322044182652414,0.017261419788192477,0.9808711077140332
2012-06-26,0,0.0,0.0,-0.011322044182652414,0.017261419788192477,0.981113200313418
2012-06-28,0,0.0,0.0,-0.009287010459419076,0.017261419788192477,0.9848979288148014
2012-07-02,0,0.0,0.0,-0.011322044182652414,0.010310713396650082,0.9863210874928804
2012-07-05,0,0.0,0.0,-0.011322044182652414,0.006530308397716927,0.9873534653067818
2012-07-09,1,0.003395861072912631,0.0035447429647451926,-0.011322044182652414,0.010308645126057042,0.986526602597985
2012-07-11,0,0.0,0.0,-0.011322044182652414,0.013098523463382614,0.9863744004065123
2012-07-13,0,0.0,0.0,-0.01229062252030424,0.006547752614788016,0.987228189355958
2012-07-17,0,0.0,0.0,-0.011507970440228435,0.004033040400000084,0.9884954058309164
2012-07-19,0,0.0,0.0,-0.011507970440228435,0.004033040400000084,0.9883004200186155
2012-07-23,0,0.0,0.0,-0.009072826229822637,0.005560732906068325,0.9890449873495706
2012-07-25,0,0.0,0.0,-0.007912983687837076,0.004033040400000084,0.9898794186081209
2012-07-27,0,0.0,0.0,-0.006449891318939314,0.005792568386910516,0.9908662148774657
2012-07-31,0,0.0,0.0,-0.005884755335343361,0.005792568386910516,0.9915215430889746
2012-08-02,1,0.0012260010220222458,0.0013045461446053082,-0.006204682130332473,0.005792568386910516,0.9911755049999402
2012-08-06,1,0.0016600193192698135,0.0016933980376135924,-0.007508354182990977,0.004110318893614148,0.9907881886135435
2012-08-08,1,0.0011429555491342005,0.0012607347737623711,-0.007508354182990977,0.004110318893614148,0.9913713494319132
2012-08-10,1,0.00026367336988393183,0.0004770446580886509,-0.0054943231505787124,0.005234859950448228,0.9915774608544438
2012-08-14,1,0.0003311512740204253,0.0005456083577664063,-0.0054943231505787124,0.006739495080165794,0.9916005203261606
2012-08-16,1,0.0012200747080095174,0.001301019771753853,-0.009122936708880114,0.005234859950448228,0.9895529020798354
2012-08-20,1,0.00042672823412012197,0.0006242529167925257,-0.007508354182990977,0.005234859950448228,0.9907370584513506
2012-08-22,0,-0.0001352891181881108,0.0001238423518324951,-0.0054943231505787124,0.007257426898855694,0.9897957629283897
2012-08-24,1,0.0008296752256198769,0.0009408285074610477,-0.0054943231505787124,0.006739495080165794,0.9900600795352774
2012-08-28,1,0.0002217780230746538,0.0004303591407928478,-0.0054943231505787124,0.006739495080165794,0.9901615557610629
2012-08-30,-1,-0.0010171679381894396,-0.0006332887303008563,-0.004083028568260088,0.006739495080165794,0.9907511060740039
2012-09-04,-1,-0.0011997246201417918,-0.0008439222030836602,-0.002817607634793636,0.006739495080165794,0.9912563685574448
2012-09-06,-1,-0.001164140316095366,-0.0008159749399413435,-0.0030902089342651137,0.007257426898855694,0.9899816104108411
2012-09-10,0,-0.0001663538457387008,3.1322259027428165e-05,-0.0034127941748181155,0.004833768489495541,0.9909476266214372
2012-09-12,0,-0.00020874054907900938,9.588943707632808e-06,-0.00633597918763749,0.0032230070209997527,0.9907542320069606
2012-09-14,-1,-0.0026821382644603995,-0.002143749123541913,-0.004470922903028006,0.0032230070209997527,0.9927359319123025
2012-09-18,-1,-0.0012538012466925459,-0.0009732535913341549,-0.006874698377443783,0.0026998142775888933,0.9926213825278264
2012-09-20,1,0.0007162094454858887,0.0007195595140652284,-0.0077616541287492905,0.0019650719835865704,0.9928330377512435
2012-09-24,0,0.0,0.0,-0.0077616541287492905,0.0019650719835865704,0.9928655877005922
2012-09-26,0,0.0,0.0,-0.009809494032542235,0.0019995735132184115,0.9911297284721187
2012-09-28,0,0.0,0.0,-0.009809494032542235,0.0026998142775888933,0.9897642420109701
2012-10-02,0,-4.796913878906474e-05,9.896417605585213e-05,-0.009809494032542235,0.009947560714573865,0.988060723905101
2012-10-04,1,0.00042437123754614085,0.0005533994591414908,-0.009809494032542235,0.0046199032562179365,0.9894021977430214
2012-10-08,1,0.000502689329347019,0.0006560622228309846,-0.010863820619645588,0.009947560714573865,0.9882211318181807
2012-10-10,0,0.0,0.0,-0.009809494032542235,0.009947560714573865,0.9883157013892707
2012-10-12,0,0.0,0.0,-0.009809494032542235,0.01528689194009138,0.9877313940872263
2012-10-16,0,0.0,0.0,-0.007692040501772241,0.01528689194009138,0.9874270649236837
2012-10-18,-1,-0.003628095835974478,-0.0031419345248336044,-0.0033537664273988726,0.01627203214709747,0.9863728195267172
2012-10-22,-1,-0.0038438635416688464,-0.003306128879809884,-0.0018356327133473038,0.01627203214709747,0.9864929501203276
2012-10-24,-1,-0.002336015486384969,-0.0017245961026401092,-0.0013606511485077365,0.01528689194009138,0.9885340033613802
2012-10-26,-1,-0.0029410825187303168,-0.002570760711436593,-0.0023102204073952443,0.014430545395838115,0.9892605273800683
2012-11-01,-1,-0.0016192219094552246,-0.001414794614823865,-0.0023102204073952443,0.01215937876057908,0.9911968858888831
2012-11-05,-1,-0.0010610015519896697,-0.0009450774863898851,-0.004619246138222833,0.01215937876057908,0.9911234173863486
2012-11-07,-1,-0.0012969607572075204,-0.0011245115024991225,-0.00564640748878774,0.011182905217995497,0.9917472794684793
2012-11-09,-1,-0.00025253190888368133,-0.00024773889433027884,-0.005965596297361707,0.011182905217995497,0.9918937393250516
2012-11-13,-1,-0.00033320712591621894,-0.0003094507774075052,-0.005081510795022273,0.011182905217995497,0.9918688533017562
2012-11-15,-1,-0.0008886587023834797,-0.0007418596649569752,-0.005965596297361707,0.010335171017084895,0.991530644406412
2012-11-19,-1,-0.0007359382174248199,-0.0005958616008075377,-0.005965596297361707,0.011182905217995497,0.9910777941220907
2012-11-21,1,0.0005207724969581534,0.0005676227083774352,-0.0068068953368198995,0.011182905217995497,0.9905266579872342
2012-11-26,1,0.0009786498835393591,0.0011731386690209658,-0.007764778244449393,0.010335171017084895,0.990092070505426
2012-11-28,1,0.0018877691093189207,0.0022769354369921637,-0.009280922776115691,0.005894930807252721,0.9897479049554883
2012-11-30,1,0.0018624931469253597,0.0022507126130478557,-0.009280922776115691,0.005894930807252721,0.9894201313333556
2012-12-04,1,0.001602350275060946,0.00198394082405648,-0.008967447178741848,0.006304561887510698,0.9900797398891376
2012-12-06,1,0.0012992251313067654,0.0017490572965580158,-0.00837949158182169,0.010691831944078283,0.989862046971029
2012-12-10,1,0.0012680147538371629,0.0017118715401369445,-0.010301683322365689,0.010691831944078283,0.9891930544784153
2012-12-12,1,0.002200862975993057,0.0027982815380148997,-0.010301683322365689,0.004622851438769864,0.9897985062172682
2012-12-14,0,-0.00012075814651321161,6.303993638003816e-05,-0.007785515381151388,0.007702989440724507,0.9909042154952832
2012-12-18,1,0.0006766004084612608,0.0009657431188151271,-0.00917033479795054,0.004622851438769864,0.9911141480619741
2012-12-20,1,0.0001253014005598679,0.00029507185568626224,-0.00917033479795054,0.005308281053059439,0.9909730414956456
2012-12-24,-1,-0.0010673057726215136,-0.0010622512240313507,-0.007785515381151388,0.012837769334686486,0.9901937806905191
2012-12-27,-1,-0.001751369938625372,-0.0016071430017916648,-0.006995706778337438,0.012837769334686486,0.9902957398861941
2012-12-31,-1,-0.0008091326526286376,-0.0008062623410538018,-0.0060574349781681615,0.007791194599527096,0.9911766815207174
2013-01-03,-1,-0.0003358335095121125,-0.0002598213031682385,-0.0060574349781681615,0.010628970163258424,0.9908177936981268
2013-01-07,-1,-0.0013723072860781422,-0.0012703826228062762,-0.0060574349781681615,0.008470112982964234,0.9917339690686217
2013-01-09,-1,-0.0020308568446862586,-0.0018558873279400758,-0.004548455597898549,0.010628970163258424,0.9882207801555315
2013-01-11,-1,-0.0009625054285987036,-0.000918510708809835,-0.00284896706609536,0.012837769334686486,0.9876259931361071
2013-01-15,-1,-0.00048452067755214276,-0.00040593251825745726,-0.004548455597898549,0.010628970163258424,0.9881650912900654
2013-01-17,-1,-0.0014490979223019441,-0.0013857165075300952,-0.003262662441263108,0.010628970163258424,0.9886910681102823
2013-01-22,-1,-0.0004937158634977431,-0.00040616296910187785,-0.004045257450145392,0.008772457055277443,0.988852701613511
2013-01-24,1,0.00010956316878188763,0.00027843752408074536,-0.005354589900815439,0.008226329289444343,0.9896810243604195
2013-01-28,0,-2.1893561779569033e-05,8.534674739696596e-05,-0.005747744538285817,0.008226329289444343,0.9893429032612381
2013-01-30,-1,-0.0007323087282903127,-0.0007086644035533267,-0.005477017923229055,0.008226329289444343,0.9891445465532662
2013-02-01,1,9.82495270036553e-06,8.806119643681084e-05,-0.005477017923229055,0.008226329289444343,0.9892528135067197
2013-02-05,1,0.0002513371774159442,0.000394733306081386,-0.005477017923229055,0.008608989208784118,0.9889667282014972
2013-02-07,1,0.0004640677783313956,0.000647155444029721,-0.004902833565606528,0.008564448525856628,0.9926730069853666
2013-02-11,1,0.00011257385384231424,0.00018192116936680938,-0.004902833565606528,0.008213082981869475,0.9932734715907421
2013-02-13,1,0.00011246778160733649,0.0001683916551153739,-0.004902833565606528,0.008213082981869475,0.9933022956468499
2013-02-15,1,0.00038549719917430823,0.0004276222054330941,-0.004902833565606528,0.008213082981869475,0.9932995694625771
2013-02-20,1,0.00037169453876060134,0.0004198465387723492,-0.004902833565606528,0.006375435399434985,0.9934468201204959
2013-02-22,1,0.0006419871941795509,0.0007203188257602508,-0.005113377881915716,0.005057062945951925,0.993966382616722
2013-02-26,1,0.0003441523075425158,0.0003668166685648793,-0.004216736428061956,0.005057062945951925,0.9943858128327239
2013-02-28,1,0.0004059982309845451,0.00044380249211590204,-0.004831345757677857,0.005021626580064063,0.9942829756417786
2013-03-04,1,0.00126588671374747,0.0014727999080264547,-0.004831345757677857,0.004296840210782487,0.9944349488042855
2013-03-06,1,0.001007014971880273,0.0011668683870144259,-0.004831345757677857,0.0033342371573670555,0.9948104639958141
2013-03-08,1,0.0011445575140180816,0.0012956213213429985,-0.006943071448900898,0.0031367549399173105,0.9945443028291397
2013-03-12,1,0.0005017130702460753,0.0005050160070707615,-0.007135457203528391,0.004296840210782487,0.9933158880725705
2013-03-14,-1,-0.0002119469453885447,-8.087025600344054e-05,-0.00724511834164323,0.004807875710868205,0.9931782625987998
2013-03-18,-1,-0.0005446736564464675,-0.0002945464430053194,-0.008172793456691998,0.0032938021998432277,0.9921328924981339
2013-03-20,-1,-0.0009456920124361253,-0.0006446777452790963,-0.008172793456691998,0.0032938021998432277,0.9920253974921316
2013-03-22,0,0.0,0.0,-0.008172793456691998,0.0033336959201511946,0.992207976614919
2013-03-26,0,0.0,0.0,-0.008172793456691998,0.005010935490063111,0.9913094251197976
2013-03-28,0,0.0,0.0,-0.00729492162219004,0.006032170769412131,0.9892823410474841
2013-04-02,0,0.0,0.0,-0.00729492162219004,0.006032170769412131,0.989464253651133
2013-04-04,0,0.0,0.0,-0.004311449996014986,0.006762513091669918,0.9896544846410265
2013-04-08,0,0.0,0.0,-0.002708612946599014,0.007612072107053656,0.9894365697941103
2013-04-10,0,0.0,0.0,-0.002708612946599014,0.005504518785628721,0.9901852012202635
2013-04-12,1,0.00015811595844206043,0.0001769051653447401,-0.0006165532041687486,0.00573871043932891,0.9905752388284002
2013-04-16,-1,-0.000873934376857898,-0.0007946537275031558,0.0002892646237665987,0.007612072107053656,0.9903740405178967
2013-04-18,-1,-0.001279091286326068,-0.001155656509932809,-0.00014734441513893017,0.007612072107053656,0.9903569588270024
2013-04-22,0,0.0,0.0,-0.0008868998956933331,0.007612072107053656,0.9910999775443725
2013-04-24,0,0.0,0.0,-0.001129300025617353,0.007606439265769855,0.99085639489052
2013-04-26,1,0.0019255888296718137,0.0021902156666748643,-0.0030975175228624176,0.00573871043932891,0.9935165510682068
2013-04-30,1,0.001881355011457142,0.0021121347759894735,-0.0029132288856605895,0.004863311476555069,0.9939118534289595
2013-05-02,1,0.0016347548352351358,0.0017843138644216617,-0.004303935031136235,0.004625433055592514,0.9932623883563952
2013-05-06,1,0.0019745844133337853,0.0021561419583671308,-0.005195462770017302,0.004625433055592514,0.9930884116266364
2013-05-08,1,0.002093521733082098,0.0023384249260351296,-0.005195462770017302,0.004863311476555069,0.9925570239470218
2013-05-10,1,0.0016642298260876077,0.0017886723023216532,-0.005195462770017302,0.0064002731906242834,0.9921988406387557
2013-05-14,1,0.002422144454632057,0.002694517030119208,-0.005232661237079571,0.002782514848728634,0.9924861188509658
2013-05-16,1,0.0019601038731342927,0.0021631292496077465,-0.004720420870959036,0.0064002731906242834,0.9928454388687168
2013-05-20,1,0.001600936371748341,0.001717555308737721,-0.004720420870959036,0.010567627651412472,0.9925407260326053
2013-05-22,1,0.0010910938803366675,0.001108401305455074,-0.004720420870959036,0.00601575782795514,0.9928050787407727
2013-05-24,1,0.0010759338804000609,0.0011084233605915773,-0.004720420870959036,0.005167681519993824,0.9931426800900555
2013-05-29,1,0.0010167056590064689,0.0010512588075274171,-0.005232661237079571,0.005167681519993824,0.99287300735598
2013-05-31,1,0.0005151396970967646,0.0005505670470909087,-0.004720420870959036,0.010669028551257145,0.9926165608688923
2013-06-04,1,0.00022721620494414269,0.0003339898466102711,-0.004720420870959036,0.01085492539629925,0.9921843609735772
2013-06-06,0,-2.7588690884080354e-05,0.00012391218358704254,-0.0016839458968438254,0.0102342320577904,0.9926651834409121
2013-06-10,1,0.0007230744970426236,0.0007584300111913272,-0.004720420870959036,0.0102342320577904,0.992517973243002
2013-06-12,-1,-0.0002872615823706488,-8.838483723167478e-05,-0.00024118532726028014,0.0102342320577904,0.9923579384918932
2013-06-14,0,0.0,0.0,-0.004413921881559256,0.008469529847798325,0.992556882945407
2013-06-18,0,0.0,0.0,-0.004413921881559256,0.007475476182188015,0.9930359360189921
2013-06-20,0,0.0,0.0,-0.003797974639175882,0.010511610369095228,0.9929040711983587
2013-06-24,1,0.0002753347508421209,0.00034885674013754146,-0.004413921881559256,0.010511610369095228,0.9921923681710044
2013-06-26,1,0.00023792626067853075,0.00028829751867251213,-0.004372199165883016,0.011132073368256315,0.990400762327106
2013-06-28,1,0.0006868632620852044,0.0006974594457039708,-0.004372199165883016,0.010511610369095228,0.9910699256194249
2013-07-02,1,0.00091574837292873,0.0009502742662503791,-0.003797974639175882,0.010133647080000653,0.9917833528726122
2013-07-05,0,0.0,0.0,-0.003797974639175882,0.010257666084164263,0.9911719291683455
2013-07-09,0,0.0,0.0,-0.003797974639175882,0.008520976780818326,0.9917033378887332
2013-07-11,0,0.0,0.0,-0.004372199165883016,0.008520976780818326,0.9913568248565069
2013-07-15,0,0.0,0.0,-0.0025860326629993597,0.009728944087047107,0.9913201041154104
2013-07-17,0,0.0,0.0,-0.003136848052008439,0.009728944087047107,0.9908473097095379
2013-07-19,0,0.0,0.0,-0.006442226769313428,0.0064586261819707174,0.990701961632464
2013-07-23,0,0.0,0.0,-0.006442226769313428,0.0064586261819707174,0.9905080144134271
2013-07-25,0,0.0,0.0,-0.008104431885850265,0.004911525890684588,0.9921831270773013
2013-07-29,0,0.0,0.0,-0.008104431885850265,0.0064586261819707174,0.9919131875721836
2013-07-31,1,0.001608205744963738,0.0017524171656554302,-0.00915824107392054,0.003430645394745988,0.9917452843082495
2013-08-02,1,0.0019469820758314647,0.0021172698137059886,-0.00915824107392054,0.003430645394745988,0.9922691873336461
2013-08-06,1,0.0015353690053721701,0.0016409648847837328,-0.00915824107392054,0.00515464414296455,0.992626649077436
2013-08-08,1,0.0014397699233869808,0.0015480446571305934,-0.009090531523177122,0.00515464414296455,0.992683381023964
2013-08-12,1,0.001322947320093921,0.0013993254100449367,-0.009090531523177122,0.007439721560625995,0.9920517302547794
2013-08-14,1,0.0012896518544380602,0.0013708479735610555,-0.005120688367891143,0.007520356362177498,0.9921970414084117
2013-08-16,1,0.0002515992649562268,0.00031837560176426827,-0.004084178007639503,0.007520356362177498,0.993209363671474
2013-08-20,1,0.0001639024489441792,0.000264053842741405,-0.0031247938158233787,0.007520356362177498,0.993674705429187
2013-08-22,1,0.00016760950211681383,0.00023857472057941054,-0.0031247938158233787,0.007520356362177498,0.9937915005075393
2013-08-26,1,0.00024956213619199127,0.0003338232682039563,-0.005356176447205895,0.0069403075035702365,0.9937520113888526
2013-08-28,-1,-0.0002801377382446475,-0.00013191145798757616,-0.004084178007639503,0.0071391964883309395,0.9938807387214639
2013-08-30,-1,-0.00015586026233953726,-3.443704320171939e-05,-0.004084178007639503,0.007021822378181047,0.9937799463636028
2013-09-04,0,-8.420792884326802e-06,0.00011345003622165064,-0.004171509473358573,0.007021822378181047,0.9940505911387678
2013-09-06,-1,-0.001022872018318566,-0.0007227473822413486,-0.004171509473358573,0.007141836707508865,0.9933947206750571
2013-09-10,-1,-0.0003920362540386493,-0.00015291920104015583,-0.005356176447205895,0.006760775464750483,0.9939432550933635
2013-09-12,-1,-0.00043469980727746306,-0.0001955921645610349,-0.006222370630658569,0.006761655537809792,0.9925089268262255
2013-09-16,-1,-0.0005354750113351661,-0.0003090994576209821,-0.006222370630658569,0.007256114094990156,0.9915128848680342
2013-09-18,1,0.0005531038362393152,0.0006321685097002922,-0.006222370630658569,0.007256114094990156,0.9909346493111761
2013-09-20,1,0.0008900178775927935,0.0009424897665605253,-0.006235087556882456,0.008466580850452163,0.989870016034765
2013-09-24,1,0.0004457780013421655,0.0005413534550851725,-0.004624574125776176,0.008466580850452163,0.9899539951186707
2013-09-26,1,0.0005357084143509079,0.0005821753942443228,-0.007563549826057276,0.008228735907483775,0.9870168319430822
2013-09-30,1,0.001493246255457647,0.0015056071614947212,-0.009940416644691885,0.008228735907483775,0.9863850215840306
2013-10-02,1,0.0012560504476900104,0.0012699812229964328,-0.009940416644691885,0.008228735907483775,0.9865418764509714
2013-10-04,1,0.0014757923977807919,0.0015279556565956408,-0.007563549826057276,0.006471207439534382,0.9874705760476098
2013-10-08,0,-4.852728205551434e-05,4.69718251283994e-05,-0.0027124908726008394,0.006471207439534382,0.9882593653064426
2013-10-10,1,0.0006182642965715877,0.0006486179951807726,-0.0027124908726008394,0.005927032035714201,0.9896961713730245
2013-10-14,1,0.001348365040406276,0.0013996675186280154,-0.0027124908726008394,0.004403842913172931,0.9904246023856536
2013-10-16,1,0.001984622683966454,0.0020601288824735075,-0.0027124908726008394,0.004403842913172931,0.991037405809477
2013-10-18,1,0.0020573444603092027,0.002122453752728931,-0.0012888257312295335,0.004221621234727346,0.9924134452377126
2013-10-22,1,0.0013408455133971432,0.001342214675102706,-0.0021328476732880046,0.00356806639007495,0.9919705939469304
2013-10-24,1,0.0006498042277811339,0.0007862562727309146,-0.0012888257312295335,0.0037529583963800454,0.9952918202191252
2013-10-28,1,0.0015947387903952745,0.0016459170207860216,-0.0012888257312295335,0.0037529583963800454,0.9959642148733796
2013-10-30,1,0.0017467094265505574,0.0018394753875300368,-0.0018825821171331854,0.0037529583963800454,0.9957419217421818
2013-11-01,1,0.0014410436162206972,0.0014650595560925807,-0.0032553292417547663,0.0037529583963800454,0.9956948347419686
2013-11-05,1,0.0015419794717586133,0.0015900400522606338,-0.0039086009489311,0.0037529583963800454,0.9942871099062651
2013-11-07,1,0.0006732027816191617,0.0006993385019421311,-0.0032553292417547663,0.004881290701260442,0.9931346195041113
2013-11-11,-1,-0.0005397307641512912,-0.0003025584262483953,-0.0039086009489311,0.004881290701260442,0.9927049343794656
2013-11-13,-1,-0.00047415836250722413,-0.0002407713249766647,-0.0039086009489311,0.003710083550097028,0.9931406941198018
2013-11-15,-1,-0.0005575795985693627,-0.00029685279076214403,-0.0039086009489311,0.005526583647081443,0.9923713368674246
2013-11-19,-1,-0.0008224269325042084,-0.0005526642646459924,-0.0032553292417547663,0.007229486213493573,0.9921374350122408
2013-11-21,-1,-0.000514648873093785,-0.0002957940199022022,-0.0032553292417547663,0.0062385484045908764,0.9923976658107887
2013-11-25,-1,-0.0003696558143867516,-0.0001860824815720255,-0.003330949122578527,0.00795541947160598,0.9922394243554901
2013-11-27,-1,-0.00045218586215139793,-0.0002691511818394813,-0.003330949122578527,0.00795541947160598,0.9922083095579938
2013-12-02,-1,-0.0004971519825948811,-0.00031373863832990124,-0.0033762618817369198,0.00795541947160598,0.9921772488487198
2013-12-04,-1,-0.0013025065995594224,-0.0010109072169788087,-0.0030535133366795825,0.00795541947160598,0.9933144524872508
2013-12-06,-1,-0.0006233844118647839,-0.00040275527595947085,-0.0030535133366795825,0.00795541947160598,0.993492101273044
2013-12-10,-1,-0.00041834080968911774,-0.00024655351215679136,-0.0030535133366795825,0.004661254726101047,0.9942587166257008
2013-12-12,-1,-0.0005177613316816597,-0.00033298277793064135,-0.0031942543288326643,0.0047017602938617415,0.9931284725648412
2013-12-16,1,0.0013188881692780493,0.0013284990763644813,-0.0031942543288326643,0.003848489019690184,0.9932017215658965
2013-12-18,1,0.001627303250445774,0.0016868332174874042,-0.0030535133366795825,0.004143343135580397,0.9936064803589285
2013-12-20,1,0.0015234116308196456,0.0015918156891847265,-0.0013044585592216049,0.004143343135580397,0.9938729516828047
2013-12-24,1,0.0020222729143883128,0.0021924197132893904,-0.0031942543288326643,0.003848489019690184,0.993113273821888
2013-12-27,1,0.001734388483002555,0.0018538555995626699,-0.0031942543288326643,0.003848489019690184,0.9929717670928503
2013-12-31,1,0.0014002856195697551,0.001450411671612605,-0.004303440208688241,0.004143343135580397,0.9917441371385067
2014-01-03,1,0.0015033528269528668,0.0015970579332752,-0.008112172293060101,0.004143343135580397,0.9912353963981066
2014-01-07,1,0.0021115332325095004,0.0022901794047069856,-0.008112172293060101,0.004143343135580397,0.9912854200663148
2014-01-09,1,0.0007898969899179334,0.0008525702819773589,-0.008112172293060101,0.013689435341318383,0.9864682125875899
2014-01-13,1,0.0004802412886326117,0.0005034964962425032,-0.006955901919093364,0.015435655894227067,0.9865058574216651
2014-01-15,1,0.0007483641036137975,0.0007927437519356116,-0.006955901919093364,0.013689435341318383,0.9869032776436264
2014-01-17,1,0.0011858831086749015,0.001300170614628239,-0.006955901919093364,0.013584436661246094,0.9870675551025905
2014-01-22,1,0.0010190949543750758,0.0010900726794055206,-0.008112172293060101,0.013584436661246094,0.9863966824487508
2014-01-24,1,0.0005293314801647957,0.000540347756533964,-0.003977459168651202,0.013584436661246094,0.9874897337413049
2014-01-28,1,0.0004874395932039543,0.0005008458125294751,-0.004275693792369623,0.013584436661246094,0.9872127556925554
2014-01-30,1,0.00034296191730742135,0.0003618919973261039,-0.0041186945692266745,0.010639998836057723,0.9881837530810682
2014-02-03,1,0.00037446460961516425,0.00038433398058820606,-0.003146223659998477,0.010639998836057723,0.9885570209557911
2014-02-05,1,0.0008813127860859942,0.0009599982859375561,-0.005141083383733909,0.007601460942341151,0.9893295168805999
2014-02-07,1,0.003135219043618309,0.003502299565001142,-0.005141083383733909,0.004901264824331431,0.9938916433594637
2014-02-11,1,0.0033005946617172327,0.0037006398685768983,-0.005141083383733909,0.0031957278459268635,0.9940428867318476
2014-02-13,1,0.0034061644547640365,0.0038040650158996134,-0.006043592809894605,0.002408790619078113,0.9931496740440287
2014-02-18,1,0.0033889988055668652,0.0037634424403060612,-0.006043592809894605,0.002408790619078113,0.993607029520853
2014-02-20,1,0.0033477845238663873,0.0037271673170490654,-0.006043592809894605,0.001973510731027345,0.9935062066978648
2014-02-24,1,0.0032461555236287243,0.003622838709207938,-0.006710854868977955,0.002408790619078113,0.9926405178111234
2014-02-26,1,0.0027875158396808387,0.0030938994706583654,-0.006043592809894605,0.002408790619078113,0.9936868815491521
2014-02-28,1,0.002571298823707609,0.0028432950284215447,-0.006398698832535697,0.003110253237094889,0.9931494242572536
2014-03-04,1,0.002338332446913001,0.002555560884223214,-0.006398698832535697,0.004551597680703576,0.9930932459685197
2014-03-06,1,0.002053250093704167,0.002238274305947597,-0.006208018030421564,0.004551597680703576,0.9934016604139626
2014-03-10,1,0.0023711693268076758,0.0026241814919373075,-0.008501707402977017,0.0034487490636622665,0.9913868124638807
2014-03-12,1,0.002341269557569351,0.002614781694338323,-0.007776172936901233,0.005831797885996227,0.9917917107082941
2014-03-14,1,0.0021634608309400835,0.002427778765067418,-0.007776172936901233,0.0047544012731716625,0.9917588170785567
2014-03-18,1,0.0021061055808995876,0.002357135392388534,-0.007776172936901233,0.005831797885996227,0.991558837964992
2014-03-20,1,0.00047626260785934595,0.0004805054937170771,-0.006208018030421564,0.007611857473686727,0.9914070735540013
2014-03-24,1,5.463215496636422e-05,0.00013647307257868508,-0.004124579620389699,0.007611857473686727,0.9923374599956941
2014-03-26,1,4.2736882447260804e-06,9.096277012692237e-05,-0.004124579620389699,0.007611857473686727,0.9921894118735811
2014-03-28,1,0.0002138339038482566,0.00027663138325112626,-0.003072382527367533,0.006736857843045792,0.9930598278287531
2014-04-01,1,0.00043907133793799033,0.0004778124061173483,-0.004124579620389699,0.007611857473686727,0.9925876707408942
2014-04-03,0,-9.610017355949447e-05,2.5172929644873623e-05,-0.004163969194264248,0.007611857473686727,0.9923185758423997
2014-04-07,-1,-0.0016704154163212463,-0.001378735458480994,-0.0037350220222267163,0.007611857473686727,0.9932795256876817
2014-04-09,-1,-0.001081321037005483,-0.0008712607441245779,-0.0046274649811742265,0.007006074510064896,0.9936570214543603
2014-04-11,-1,-0.0017879161047424622,-0.0015070458238482301,-0.003226881123004193,0.010171704906798154,0.9928981719529842
2014-04-15,-1,-0.0020444172656335184,-0.0016956772216369792,-0.006135831843802928,0.010171704906798154,0.9926132943373653
2014-04-17,-1,-0.0011162866788267457,-0.0008894091318039026,-0.007083907851614817,0.005769964137076778,0.9934259576963534
2014-04-22,-1,-0.0008125909407268976,-0.0006225644932693554,-0.007083907851614817,0.003973222600751932,0.9935748755889864
2014-04-24,-1,-0.0010754320162851417,-0.0008452871943845192,-0.007083907851614817,0.005769964137076778,0.9928866929231968
2014-04-28,-1,-0.0010217200042172236,-0.0007910621375631817,-0.008049247959678303,0.005567517348371842,0.992506540270581
2014-04-30,-1,-0.0021329836036384636,-0.0017086390977759727,-0.0071987480548876175,0.00391982448401776,0.9934423289664006
2014-05-02,-1,-0.0015410432541594955,-0.0012356250806876258,-0.0071987480548876175,0.005398095350182896,0.993116314269945
2014-05-06,-1,-0.0020670060898164287,-0.001704783505562016,-0.006659806823316067,0.007052990978861251,0.9925854072216276
2014-05-08,-1,-0.002326753876756587,-0.0019301178254133424,-0.003517378016477316,0.010153300358061845,0.9919927909881713
2014-05-12,-1,-0.0009914303506841607,-0.0007858891821286153,-0.0065922445631571205,0.005398095350182896,0.9933533261405114
2014-05-14,-1,-0.0014660559755563984,-0.0012287062094996362,-0.0056966135652678565,0.005398095350182896,0.9932799524667925
2014-05-16,-1,-0.0020228510841123542,-0.001706531900475957,-0.005621741560423488,0.005520847294889492,0.9933015037268657
2014-05-20,-1,-0.002179403090160236,-0.00184856169629335,-0.003909840326221586,0.007052990978861251,0.9926742605746811
2014-05-22,-1,-0.0016543326223788842,-0.0013798922083144705,-0.004129144518719498,0.005520847294889492,0.9934365751396976
2014-05-27,-1,-0.002069029220335166,-0.0017418962640647615,-0.004654075271342124,0.005520847294889492,0.9937278023208989
2014-05-29,-1,-0.002158027578485453,-0.0018247404953458393,-0.004654075271342124,0.005520847294889492,0.9935350161487092
2014-06-02,-1,-0.0009752074118270351,-0.0008318053307542888,-0.004654075271342124,0.004310769960020866,0.9939045564232671
2014-06-04,-1,-0.0005494033693970197,-0.0004491331251376584,-0.004654075271342124,0.004310769960020866,0.9943537921668117
2014-06-06,-1,-0.0005601085796935843,-0.0004210260878122904,-0.004654075271342124,0.003588102346300895,0.9947619296360442
2014-06-10,-1,-0.0005118830680002196,-0.00041568635609167293,-0.003880379819022794,0.005385422425831534,0.9938862418324449
2014-06-12,-1,-0.0010002294733667027,-0.0008785679265719845,-0.0031329392700949936,0.005385422425831534,0.993900474557005
2014-06-16,-1,-0.0009333558396763298,-0.0008274737254682688,-0.0031329392700949936,0.005717393857824065,0.9933901955370389
2014-06-18,-1,-0.001077231864693252,-0.0009095002984183258,-0.003880379819022794,0.0038927072563423874,0.9937264358113143
2014-06-20,-1,-0.0011804568556180524,-0.0009917994754178397,-0.00524119421156676,0.005200127090559674,0.9929496314733989
2014-06-24,-1,-0.0016618153094371993,-0.0014075574030110365,-0.004836647233654977,0.005200127090559674,0.9917199681074376
2014-06-26,-1,-0.0020051643658870587,-0.0017592981466158114,-0.004836647233654977,0.005717393857824065,0.9899789045265739
2014-06-30,-1,-0.0011668610687479806,-0.0010352317687910497,-0.009161299493818992,0.005308468948576511,0.9902329536974558
2014-07-02,0,-1.5349014231904885e-05,8.48221793686815e-05,-0.010911226990125587,0.005525979781766749,0.9891149251121607
2014-07-07,1,0.00025090061606881356,0.0004101485117646819,-0.010911226990125587,0.005019017332794678,0.9893326244602959
2014-07-09,1,0.0010906302169755527,0.0013861158304527596,-0.010911226990125587,0.0049488297494181795,0.9901649461067096
2014-07-11,1,0.0010952974597270519,0.0014165513621093328,-0.009161299493818992,0.005019017332794678,0.9893342690628008
2014-07-15,1,0.0011246827552199154,0.0014457936271303705,-0.008273834695027606,0.0049488297494181795,0.9899197768844118
2014-07-17,1,0.0007082777453586851,0.0009729693478202514,-0.007371955361395559,0.005019017332794678,0.9895502825019621
2014-07-21,1,0.00018783329619152035,0.0003472549914957312,-0.007371955361395559,0.006961560919638033,0.989393988195971
2014-07-23,-1,-0.0011776979881368168,-0.0011581510414326347,-0.00666440035857525,0.009104759538444892,0.9903630600146109
2014-07-25,-1,-0.0004947677222241161,-0.00041511491955146135,-0.00666440035857525,0.006577951690019245,0.9918015089641683
2014-07-29,-1,-0.0008369165808002556,-0.0008157308488138482,-0.00666440035857525,0.008373433695642729,0.9910138782951934
2014-07-31,-1,-0.0007112106393372193,-0.0006557426659247092,-0.005705640899935598,0.007567498521823256,0.9920153794163524
2014-08-04,-1,-0.0006119217960077242,-0.0005593081542613615,-0.005705640899935598,0.007567498521823256,0.9920274964870318
2014-08-06,-1,-0.0008255849269975188,-0.0008217954288538357,-0.004770865153483208,0.007567498521823256,0.9919052090705833
2014-08-08,-1,-0.00028523766813355156,-0.0002086228230790528,-0.0033485264114203306,0.007203113805150296,0.9933213023044053
2014-08-12,-1,-0.0005884596940351126,-0.0005732314050979249,-0.0033485264114203306,0.007203113805150296,0.9931014300197556
2014-08-14,-1,-0.0002845347615338377,-0.0002350789490961402,-0.0037609081305678494,0.006391116084205352,0.9938595902730558
2014-08-18,-1,-0.00026230568877773396,-0.00020689037221135372,-0.003205407433143365,0.006391116084205352,0.9946569872345493
2014-08-20,1,9.361940902313722e-05,0.00020879842347306575,-0.003205407433143365,0.004518711826152829,0.9948385633908476
2014-08-22,1,0.00033485808238613963,0.0005014842695974883,-0.004888220889291821,0.003627774852145221,0.9942259190764687
2014-08-26,1,0.00016909040975290668,0.0003062689018213895,-0.004163389444847265,0.003627774852145221,0.9948124919978412
2014-08-28,-1,-0.00033374078463817573,-0.00030626113797212824,-0.006525021766960965,0.003627774852145221,0.9940728824139168
2014-09-02,-1,-8.887549053820163e-05,-6.529750319117228e-05,-0.008749633001129967,0.0033023737675644113,0.9937456456502588
2014-09-04,-1,-0.00032982987138929505,-0.0002851921496536055,-0.008749633001129967,0.003717118632944402,0.9932914331254116
2014-09-08,-1,-9.992154188494741e-06,-8.415920205629706e-06,-0.008749633001129967,0.003717118632944402,0.9926987470939721
2014-09-10,-1,-0.00013343511939781366,-0.00011574290278635436,-0.008661188803574794,0.005730367136811472,0.9923653966770497
2014-09-12,-1,-0.00038361302819202384,-0.0003833287871739619,-0.008661188803574794,0.00803862405698054,0.9915235685291514
2014-09-16,-1,-0.0002542577115538521,-0.00023981373688884513,-0.008912485325601415,0.0063606252367165265,0.9908584698086851
2014-09-18,-1,-0.00011881990307528793,-7.602897704249824e-05,-0.008912485325601415,0.0063606252367165265,0.9908678786598619
2014-09-22,-1,-0.0007876262756813767,-0.0007468101564488932,-0.006751080540080951,0.010519244718982159,0.9900927996740672
2014-09-24,-1,-0.0006943964260693209,-0.0006550396701561832,-0.008874158028881574,0.011781402831681179,0.9889190089397002
2014-09-26,-1,-0.0010440239050288347,-0.0009581729876663896,-0.006751080540080951,0.015677743311676835,0.9860397035954385
2014-09-30,-1,-0.0012489186928664982,-0.001130330497091828,-0.004417645321777706,0.015677743311676835,0.9856899775868734
2014-10-02,-1,-0.0006477169364041454,-0.0006371757859358022,-0.00176463578552167,0.015677743311676835,0.9861015649538806
2014-10-06,-1,-0.0006820108437593307,-0.0006402145042718084,-0.0003526282082546988,0.013287063227219844,0.9866933532758823
2014-10-08,-1,-0.0008426823553094287,-0.0007600246583058198,0.001453721044909535,0.013287063227219844,0.9871097257025325
2014-10-10,-1,-0.0012839248582847266,-0.0011453521750883556,0.001453721044909535,0.01348568137066073,0.9875555628081283
2014-10-14,-1,-0.0015925416679787917,-0.001443713934069978,0.001453721044909535,0.01348568137066073,0.9879745466898382
2014-10-16,-1,-0.0015450467060964053,-0.0013866697669374945,0.003337940235004547,0.01348568137066073,0.9875395650499763
2014-10-20,-1,-0.0007330967561346858,-0.0006671726911333074,-0.0009343663413520073,0.009712305268980722,0.9887933604943435
2014-10-22,-1,-0.0001716059273828261,-0.00014729488268867656,-0.0006173147086473092,0.007622157889437454,0.9903064662644301
2014-10-24,1,0.0012833752430371629,0.0015242682917750345,-0.0006173147086473092,0.006344005445924911,0.9948375507280137
2014-10-28,1,0.001829584954384236,0.002166883080434666,-0.0024450959135258786,0.006344005445924911,0.994941259818749
2014-10-30,1,0.0019232946060495015,0.002255895750081319,-0.0024450959135258786,0.007286225373857422,0.9943554471878463
2014-11-03,1,0.0016129620803505091,0.0018631828019938083,-0.003602208546136746,0.007724686875185204,0.9935223108507417
2014-11-05,1,0.001990334348378281,0.0022824113534990684,-0.003602208546136746,0.008198337378740617,0.9926861149258467
2014-11-07,1,0.002473299351081327,0.0028505110965098886,-0.005599027976922739,0.007724686875185204,0.9926708133217212
2014-11-11,1,0.0022142141921393183,0.002562180356246717,-0.006816207587055684,0.008198337378740617,0.991154491777575
2014-11-13,1,0.002287877954419389,0.002622671814694542,-0.006816207587055684,0.007724686875185204,0.9912961033795519
2014-11-17,1,0.0014648845548901114,0.0016914437949631018,-0.005599027976922739,0.007724686875185204,0.992015143335275
2014-11-19,1,0.0017133106634128637,0.001988595356945036,-0.005599027976922739,0.008617111192596639,0.9917997816301795
2014-11-21,1,0.0019191583455718184,0.002235786776905452,-0.005599027976922739,0.009736104003254569,0.9912998779493353
2014-11-25,1,0.0019884815136510707,0.002318526139024909,-0.005352628367649247,0.009736104003254569,0.9916400305816867
2014-11-28,1,0.002846546925552708,0.0033263294624721338,-0.005352628367649247,0.008116381865883222,0.9919829497916525
2014-12-02,1,0.002903066506494984,0.0033766920065365687,-0.005968863615710774,0.007305224180564608,0.9919154954363638
2014-12-04,1,0.0033925878970813535,0.00392606708520197,-0.006911919750253982,0.005882392796878144,0.991604504551769
2014-12-08,1,0.002681826381833982,0.0030867770431151366,-0.005968863615710774,0.007305224180564608,0.9921517052610904
2014-12-10,1,0.002818113411493447,0.0032226538392981976,-0.005968863615710774,0.007305224180564608,0.9918430207314483
2014-12-12,1,0.0019842554362469855,0.0022094813979091285,-0.008563732965602752,0.007305224180564608,0.9907210888592539
2014-12-16,1,0.0022607485555412744,0.0025181191235103704,-0.008878793931328394,0.007305224180564608,0.9903346537276847
2014-12-18,1,0.0025757731225038876,0.0028511522040367077,-0.008878793931328394,0.008033525867203557,0.989347004029264
2014-12-22,1,0.002675059570855016,0.0029500316784234646,-0.008878793931328394,0.008033525867203557,0.9883498460579132
2014-12-24,1,0.0024830361099241493,0.0027354621888152643,-0.008878793931328394,0.008033525867203557,0.9886934743523189
2014-12-29,1,0.002514991634833976,0.0027566396231325186,-0.008878793931328394,0.007007793967055124,0.988781985215916
2014-12-31,1,0.002094994312128456,0.00230513114883619,-0.012330667846094219,0.007684115591320656,0.988138776260013
2015-01-05,1,0.001047247451583893,0.0011023751595297757,-0.008802009212268353,0.015630280047379902,0.9879045693555802
2015-01-07,1,0.0011377214784889216,0.0012261162076151948,-0.008802009212268353,0.015922808021701755,0.9844766302594152
2015-01-09,1,0.0004996618349221548,0.00052705725199927,-0.007900993649299762,0.015630280047379902,0.9858353963991054
2015-01-13,-1,-0.0008001535248008098,-0.0006333227668991252,-0.003964579539600629,0.015630280047379902,0.9865200808851667
2015-01-15,-1,-0.0014153648869444212,-0.0011783662254159898,-0.00441590554773985,0.015630280047379902,0.9867389714562999
2015-01-20,-1,-0.00040415745427043153,-0.00027345861941613554,-0.00441590554773985,0.006972862829624605,0.9885543551269693
2015-01-22,1,0.0003365418150609995,0.00036495992561350494,-0.004231328324889667,0.006457884227529877,0.9897408666779028
2015-01-26,1,0.0005921526466227513,0.0005928273843820193,-0.004356412444762681,0.006972862829624605,0.9893346286982923
2015-01-28,1,0.0006034827787234438,0.0006113871701998172,-0.004356412444762681,0.006972862829624605,0.9891303962951246
2015-01-30,-1,-0.00026863075992559945,-0.00018245120053973058,-0.004356412444762681,0.008424108488722715,0.9895313724400011
2015-02-03,1,0.0004519916628121192,0.00048253748763392993,-0.004759334682912941,0.0048962510693737315,0.9901116426939863
2015-02-05,1,0.0013037150250819261,0.0013482740067461549,-0.005148367989160464,0.0045742281885153765,0.9930902376278893
2015-02-09,1,0.0008813599704085823,0.0008903815729492292,-0.004759334682912941,0.0048962510693737315,0.9926249341118236
2015-02-11,1,0.0011336167312880484,0.0011531972782190935,-0.004759334682912941,0.00565787923106825,0.9915864201679006
2015-02-13,1,0.00014478701543703778,0.000293709847717779,-0.004345804703280697,0.00743225729334205,0.9908992130110392
2015-02-18,0,-3.083217635488854e-05,0.0001457107281726859,-0.0047106017792513406,0.00743225729334205,0.990621383430132
2015-02-20,-1,-0.00028648373915828083,-6.724031075057413e-05,-0.0047106017792513406,0.00743225729334205,0.990836854303662
2015-02-24,-1,-0.00038308936756594185,-0.00013683992587195726,-0.0038681107576286904,0.00565787923106825,0.9914142588398294
2015-02-26,-1,-0.00023793131433380913,-1.0276794989112878e-05,-0.005002169278175662,0.007149863636016426,0.9900857360858927
2015-03-02,1,0.00026318354942389923,0.00043221134230856116,-0.0038681107576286904,0.010857600658231811,0.9894458749095434
2015-03-04,-1,-0.0007941674572812515,-0.000504736854536138,-0.0044459953498742644,0.010857600658231811,0.9893610433590002
2015-03-06,-1,-0.002079670989096524,-0.0016152180143634664,-0.0037691484151874295,0.010857600658231811,0.9896461830673505
2015-03-10,-1,-0.003064307180790706,-0.0024422545460640903,-0.0015221523373714014,0.009479969251950502,0.9900382940972698
2015-03-12,-1,-0.0021212443994856386,-0.001611529657994364,-0.0015221523373714014,0.007426992581135778,0.9915598040119233
2015-03-16,-1,-0.000982610854212198,-0.000658653670582995,-0.0044459953498742644,0.003990704648463947,0.9928125210984096
2015-03-18,-1,-0.0010340331307228086,-0.0007067234751710802,-0.00456186623523094,0.003990704648463947,0.9928211769359421
2015-03-20,1,0.0001274034631845479,0.00025574425473702886,-0.0052566302816610885,0.007426992581135778,0.9919484623058137
2015-03-24,1,0.00022781058080602443,0.00032345398127198844,-0.0052566302816610885,0.007426992581135778,0.9920856331068348
2015-03-26,-1,-0.0007812567999417906,-0.0005922564768649434,-0.00456186623523094,0.007426992581135778,0.9910151775996706
2015-03-30,1,0.0002133492119759664,0.0002821618014489283,-0.0052566302816610885,0.004671254615692079,0.9917359573611003
2015-04-01,-1,-0.00037948678448732146,-0.0002544050908379771,-0.005633953614181577,0.004671254615692079,0.9908901498629008
2015-04-06,1,1.4375477701057324e-05,7.825433237179628e-05,-0.005633953614181577,0.005480547005650234,0.9899145205717779
2015-04-08,1,0.0003464591625657761,0.00036977264087572996,-0.008572950945440567,0.004671254615692079,0.9890941517193438
2015-04-10,1,0.0007597646966042294,0.0008083096972211977,-0.008572950945440567,0.005713120732350079,0.988622159237357
2015-04-14,-1,-0.0003779141706532352,-0.0002387413214321245,-0.007172293084293843,0.005713120732350079,0.9893481368100213
2015-04-16,-1,-0.0006485269110672671,-0.0004843070923962644,-0.007172293084293843,0.008146110815214656,0.9889683083762558
2015-04-20,-1,-0.0004438805047298985,-0.0003095764740786947,-0.004548834845668613,0.0060508870353662885,0.989495755724241
2015-04-22,-1,-0.0005920592411794707,-0.00043915055139089504,-0.007795921825463177,0.0060508870353662885,0.9891911882762056
2015-04-24,1,0.0008173447489165152,0.0008647036807916454,-0.007795921825463177,0.0060508870353662885,0.9912178617864081
2015-04-28,1,0.0003297489393034728,0.0003356255861972027,-0.007033562159805996,0.0060508870353662885,0.9919571830040916
2015-04-30,-1,-0.001004860385282828,-0.0008844566482377888,-0.0038607999619019347,0.0060508870353662885,0.9933030951488936
2015-05-04,-1,-0.0005673805034180543,-0.00047561605096727293,-0.0038607999619019347,0.0060508870353662885,0.993610722016753
2015-05-06,-1,-0.0010042605395825552,-0.0008747869105240106,-0.002773195159403625,0.0063901420858670285,0.9940305742369174
2015-05-08,-1,-0.00031069563251229964,-0.00027234035372990944,-0.002773195159403625,0.003965496691309654,0.9948030940296192
2015-05-12,-1,-0.0006659050358661929,-0.0005696947236841036,-0.002504408605724746,0.005582716059250559,0.9940892962469008
2015-05-14,1,9.497868650639678e-05,0.00011832747843078687,-0.002442018392317232,0.00505248379248803,0.9946431773763218
2015-05-18,1,0.0004909690743899199,0.0005789989362585773,-0.0036736293216793926,0.0051655688093216095,0.9940358053555405
2015-05-20,1,0.00010965916432738352,0.00013552475900401105,-0.002442018392317232,0.007284924063583363,0.9937322658013674
2015-05-22,1,0.000596311881985122,0.00070194922753774,-0.0016176189656364344,0.005370237135360009,0.9942812090227315
2015-05-27,1,5.8536620835155295e-05,6.294190582256755e-05,-0.0014857621372122995,0.005370237135360009,0.9939851714177382
2015-05-29,-1,-0.0010235460780973057,-0.0008620230217955412,-0.0003827099249110802,0.006157454063554062,0.9938256995092484
2015-06-02,-1,-0.00031279606060900404,-0.00022468733121014573,-0.0021320266067330297,0.005370237135360009,0.9935784691543113
2015-06-04,-1,-0.0009012231406478402,-0.0007097388733261841,-0.0013410912819169954,0.0056057200891627725,0.992989165606052
2015-06-08,-1,-0.00174180216931386,-0.0013928029493472556,-0.00020255373887822278,0.006748658931719237,0.9920410682050741
2015-06-10,-1,-0.0015511119887680167,-0.0011961248977125703,-0.0021320266067330297,0.005699324834725365,0.9923429189831903
2015-06-12,-1,-0.0010209312363216056,-0.0007767731100955595,-0.00020255373887822278,0.007991372924991653,0.9908068295954885
2015-06-16,-1,-0.0007858029940135515,-0.000593061862453712,-0.00020255373887822278,0.006748658931719237,0.9913072838750445
2015-06-18,-1,-0.0002003921564993052,-8.872154296335374e-05,-0.0013756064961301011,0.005716431337397689,0.9920015973663101
2015-06-22,-1,-0.00011317499481720893,-8.110390553066316e-06,-0.0020004983296069787,0.00642219162756769,0.9919043913675389
2015-06-24,-1,-0.0007603647023769626,-0.0005378655127645475,-0.0013756064961301011,0.00642219162756769,0.9920892789594189
2015-06-26,1,7.369994822895693e-05,0.00015489269005048478,-0.0020004983296069787,0.0056204137908186305,0.9921424672741489
2015-06-30,-1,-0.0002043649859795509,-0.00017027017930980906,-0.00023057801609422995,0.0056204137908186305,0.992974325096896
2015-07-02,1,0.00013867092101498476,0.00015215025394467089,-0.0013887490742993545,0.0056204137908186305,0.993084029352577
2015-07-07,1,0.0006635966808403143,0.0007372537657990513,-0.0013887490742993545,0.0056204137908186305,0.993245994325457
2015-07-09,1,0.00011535752795031228,0.00013229521286822076,-0.0013887490742993545,0.0056204137908186305,0.9930807132323595
2015-07-13,1,0.0010793176989199816,0.0011869556749417812,-0.0013887490742993545,0.0056204137908186305,0.9938833577962387
2015-07-15,1,0.0007325028371089194,0.0007948456756708942,-0.001282573382723707,0.0056204137908186305,0.9941974281967135
2015-07-17,1,0.0009860945739216319,0.001085094787345509,-0.0005552139896947125,0.006670017348718572,0.9932713234988014
2015-07-21,1,0.001198068066540966,0.0013395468712217484,-0.0003379484199754862,0.0056705398000245506,0.9936673214198707
2015-07-23,1,0.0014779796654080198,0.0016789959829780327,-0.0009634265886544704,0.007760837409213228,0.9925656260919289
2015-07-27,1,0.0009330325896348207,0.001007106609261983,-0.004272814773996379,0.007760837409213228,0.9890567814718826
2015-07-29,1,0.0007817123479462161,0.0007924751230612255,-0.004272814773996379,0.008221513518239014,0.9877120485622073
2015-07-31,1,0.000289237501237177,0.00036619059929136904,-0.003238501320766926,0.009257225563185886,0.9876642267045568
2015-08-04,1,0.0010960598317429934,0.0011650631640001859,-0.009142648842860708,0.009257225563185886,0.9862122525851651
2015-08-06,1,0.0011089686301954463,0.0012059053466902962,-0.007409712971231339,0.013309548181363361,0.9849233347359564
2015-08-10,1,0.001683369416860921,0.001845347262757604,-0.009538014288256473,0.01005589157017211,0.9844913601718975
2015-08-12,1,0.0015459256964556513,0.0016911891975629955,-0.009538014288256473,0.010403358369960203,0.9843832673380397
2015-08-14,1,0.0022373428652686916,0.002463364386330241,-0.009538014288256473,0.010403358369960203,0.9842795974058496
2015-08-18,1,0.0018098349818406302,0.0019418881748404925,-0.009538014288256473,0.01641595233866533,0.9830585442749097
2015-08-20,1,0.0018709869002926718,0.00206648289481461,-0.009538014288256473,0.01641595233866533,0.983062809131927
2015-08-24,-1,-0.0013621800796219052,-0.0011268758711954617,-0.007350776363930627,0.01641595233866533,0.9865685420603991
2015-08-26,-1,-0.00035903050251131314,-0.00024653844927616177,-0.007350776363930627,0.013454683175703998,0.9874931946122543
2015-08-28,0,-6.262491792717505e-05,3.953234752704127e-06,-0.007350776363930627,0.013454683175703998,0.9866350011390588
2015-09-01,-1,-0.0013577983167462004,-0.0011515693067922442,-0.007350776363930627,0.01658012518375094,0.9863962411344938
2015-09-03,-1,-0.0008214213330601795,-0.0006560182939283953,-0.007350776363930627,0.013454683175703998,0.9880074860509145
2015-09-08,-1,-0.0009596541866432678,-0.0007652309494023413,-0.006622005118511295,0.01218292278701482,0.9890152950466857
2015-09-10,-1,-0.0005564736888810762,-0.00041879826238564176,-0.007350776363930627,0.01218292278701482,0.9889774514509022
2015-09-14,-1,-0.0002560217682628755,-0.0001468762043723452,-0.007350776363930627,0.01218292278701482,0.9895693859488707
2015-09-16,1,0.0026500086819420433,0.0029545744074209283,-0.00888853633602357,0.007517858120841814,0.9891210704434705
2015-09-18,1,0.0015565390173893157,0.001685687687542822,-0.007814420136430519,0.010746954781823387,0.989542318256201
2015-09-22,1,0.0005489588864091791,0.0006180832617458188,-0.007353124388569453,0.010746954781823387,0.989508047597813
2015-09-24,1,0.0012849177032320763,0.0013411994615553802,-0.007353124388569453,0.011046044710193726,0.9893000445700352
2015-09-28,1,0.0004847070932271225,0.0005774965993257184,-0.0030302213490954644,0.0106923280211829,0.9903142635827163
2015-09-30,1,0.0012428044419853645,0.0012695259178424959,-0.0030302213490954644,0.010512137890990642,0.9914444267375533
2015-10-02,1,0.0003524032982817675,0.0004046779391825535,-0.0030302213490954644,0.011328009508935396,0.989243785068465
2015-10-06,1,0.0006052560654063632,0.0006177239867161347,-0.008067076588901856,0.011328009508935396,0.9888462285720219
2015-10-08,1,0.0006374968342035744,0.0006397714874784041,-0.00750028860894151,0.011328009508935396,0.989285050705451
2015-10-12,1,0.0008077223757264295,0.0008140908005594633,-0.008571404985537445,0.010512137890990642,0.9891681280075942
2015-10-14,-1,-0.0003716997640988758,-0.00025216964348860675,-0.005289769726473355,0.010512137890990642,0.9901703783598282
2015-10-16,1,0.0002708105108626777,0.0003333277048302943,-0.008571404985537445,0.009495086314920916,0.9895626545427885
2015-10-20,-1,-0.00032146631324210377,-0.00016048666052814682,-0.008571404985537445,0.010159244059276127,0.9886170524231008
2015-10-22,1,0.0004738724977955115,0.0005216797869535397,-0.008571404985537445,0.009903205568052308,0.9889774034202983
2015-10-26,1,0.0009590079512267621,0.0009603383127789902,-0.008571404985537445,0.006751772560126548,0.9892481856037049
2015-10-28,1,0.0008625630220327962,0.0008820561807639649,-0.008365589632282695,0.0042213426711752945,0.9899686997204766
2015-10-30,1,0.0023612410409572524,0.0025636008585886378,-0.008571404985537445,0.0035720335245866337,0.9910869807674019
2015-11-03,1,0.0016725882581807437,0.0017757676063391873,-0.006456662225670385,0.0035720335245866337,0.9917017711077252
2015-11-05,1,0.0017041282007382865,0.0018133547261546098,-0.009659211979811368,0.0034785135507710467,0.9892973019762665
2015-11-09,1,0.0014198288868922243,0.0015097233763449005,-0.00703866292000355,0.006094660209501474,0.9895711570139376
2015-11-11,1,0.0015454828312359134,0.0016571969429741928,-0.00703866292000355,0.0034785135507710467,0.9896501484514205
2015-11-13,1,4.362063693262228e-05,0.00013154010042735738,-0.006030239945770152,0.006094660209501474,0.990220898495396
2015-11-17,1,0.0009972957594797426,0.0010365259501587884,-0.006030239945770152,0.006094660209501474,0.9896792204979821
2015-11-19,1,0.0006648720113281504,0.0007338888143049046,-0.00915765426830718,0.0034785135507710467,0.9890943951780046
2015-11-23,1,0.0008828386943730815,0.0008924247103736196,-0.007878387428606479,0.0038473833310328316,0.9892285734673502
2015-11-25,1,0.0009721687880445502,0.0009910557291396777,-0.007878387428606479,0.0029825653574763475,0.9892557897558876
2015-11-30,1,2.421343302164272e-05,0.00014553464270414355,-0.006030239945770152,0.009497266053020575,0.9894877479597123
2015-12-02,1,0.00037392839780845907,0.0003958347287398545,-0.007878387428606479,0.009497266053020575,0.9888188842802678
2015-12-04,-1,-0.00032625989364326564,-0.0001956196031841622,-0.007878387428606479,0.0079748316173229,0.9897580842382442
2015-12-08,-1,-0.00031224193788503336,-0.00019198040277922297,-0.011950068017866564,0.0079748316173229,0.9889082003936862
2015-12-10,-1,-0.0006103383457475268,-0.00046122943503658587,-0.013691295402677724,0.009497266053020575,0.9875638056390087
2015-12-14,-1,-0.0012555375019764727,-0.0010322329402614105,-0.013691295402677724,0.009497266053020575,0.9870779143140391
2015-12-16,-1,-0.0005380348249512408,-0.00038692979408598224,-0.016286085359323188,0.0079748316173229,0.9876408643050275
2015-12-18,-1,-0.0012590757857016493,-0.0010379859525129443,-0.016286085359323188,0.009497266053020575,0.9877755209023257
2015-12-22,-1,-0.0011086804052038647,-0.0008947842596567567,-0.016286085359323188,0.009958571267880195,0.9876669697058397
2015-12-24,-1,-0.0009391721963182777,-0.0007678951513047387,-0.016286085359323188,0.012144226997646565,0.9856964009376458
2015-12-29,-1,-0.00048526674850214,-0.0003461511043702698,-0.016286085359323188,0.014284504678822554,0.9841570407017397
2015-12-31,-1,-0.0006919979610115036,-0.0005659631487310453,-0.01435357843093069,0.016952025166192493,0.9832889295846905
2016-01-05,-1,-0.001517315026568284,-0.0012908375883668812,-0.017600981393960193,0.016952025166192493,0.982866817089668
2016-01-07,-1,-0.0020265586656203404,-0.001798760388479374,-0.017600981393960193,0.016952025166192493,0.9820743115208589
2016-01-11,-1,-0.002342226396464131,-0.0020930583617109616,-0.017600981393960193,0.016952025166192493,0.9815353755504544
2016-01-13,-1,-0.002878923934599053,-0.0025412412818324355,-0.01435357843093069,0.016952025166192493,0.9810463180116096
2016-01-15,-1,-0.005298780887780243,-0.004518501965974935,-0.01153471165906884,0.016952025166192493,0.9797672278007937
2016-01-20,-1,-0.0038776458562638175,-0.0033073101649113267,-0.01153471165906884,0.016952025166192493,0.9813896799684865
2016-01-22,-1,-0.003271798721409807,-0.0027861989391486045,-0.01153471165906884,0.01755835808070089,0.9808695790038696
2016-01-26,-1,-0.0026201944978369836,-0.0021310468340738475,-0.01153471165906884,0.016875189565906865,0.9822360491440126
2016-01-28,-1,-0.0009894924542282078,-0.000740273934374765,-0.01216220654308734,0.014658006885317565,0.983443444191925
2016-02-01,1,0.0003312732381646679,0.00042866046083498576,-0.01216220654308734,0.013448431485677764,0.9824280188335842
2016-02-03,-1,-0.0013343684609984697,-0.0010622494024003651,-0.009837854710721327,0.013448431485677764,0.9838952143956464
2016-02-05,-1,-0.0029314809826314556,-0.002497416224452641,-0.009786064836773642,0.013448431485677764,0.9851265498034747
2016-02-09,-1,-0.003049179603028445,-0.002667879532404115,-0.006952163033295234,0.013448431485677764,0.9865965618574977
2016-02-11,-1,-0.001326199113232142,-0.0010983163546778325,-0.006952163033295234,0.013448431485677764,0.9880454060236714
2016-02-16,-1,-0.0004947489521637811,-0.00035095583209157096,-0.006952163033295234,0.012863378220837343,0.9891809953082632
2016-02-18,-1,-0.0006258451759264996,-0.0004898112958024808,-0.008722236069096103,0.012863378220837343,0.9890292370250415
2016-02-22,1,0.00011569336336709668,0.00018280873695807146,-0.008722236069096103,0.011196957381579244,0.9897333210021777
2016-02-24,1,0.0010407710828292576,0.0011216459159293002,-0.008722236069096103,0.011889066670727899,0.9895195636470674
2016-02-26,1,0.0010431934870331835,0.0011421016723790075,-0.006650455239380148,0.010917271122823391,0.9903173911679175
2016-03-01,1,0.0024213199612366223,0.002713005300762266,-0.006026809532692387,0.008021763581252783,0.9925265668388535
2016-03-03,1,0.0017247896621619407,0.0019189892931316664,-0.005340893860101022,0.010917271122823391,0.9922303165501148
2016-03-07,1,0.0011254840811633683,0.0012692402799658119,-0.005328091061140067,0.010917271122823391,0.9919965936553693
2016-03-09,1,0.0006746684082808743,0.0006801881823556477,-0.006038833177940729,0.008252466677635668,0.9918270875160143
2016-03-11,1,0.0021657355888083643,0.0024147407962162174,-0.006650455239380148,0.004396149830488655,0.992433055421983
2016-03-15,1,0.0017852977213070114,0.0019650086688374198,-0.006650455239380148,0.005327808640907179,0.9925996593612264
2016-03-17,1,0.0015937565990729744,0.0017864827985797547,-0.006038833177940729,0.005327808640907179,0.9930956594403685
2016-03-21,1,0.002238314041631157,0.0025624615492207807,-0.006038833177940729,0.006897094798603359,0.9924928816942782
2016-03-23,1,0.0031126457537537524,0.0035544287135568513,-0.006702171277593054,0.0049425468158335985,0.9922075321038852
2016-03-28,1,0.003913694257703689,0.004582828089704512,-0.006663762880710189,0.0049425468158335985,0.9926693504262003
2016-03-30,1,0.003991802686874893,0.004628699697120871,-0.006663762880710189,0.004507716654174522,0.9924899687990061
2016-04-01,1,0.004114984860947954,0.004779178075916022,-0.008649456238506867,0.0028706838040222045,0.9913859344737781
2016-04-05,1,0.002814751272948158,0.003273660004697745,-0.005035401310703682,0.005480706658376927,0.9929624515165717
2016-04-07,1,0.0027309966250408744,0.0031897576124656248,-0.005107897163309118,0.005480706658376927,0.9924393867368719
2016-04-11,1,0.00155227366025495,0.0017592047182732654,-0.0029596674887680343,0.006272887226421957,0.9927599620285554
2016-04-13,1,0.002384906014188476,0.0027612420399133215,-0.005107897163309118,0.006102787283613639,0.9916359137482654
2016-04-15,1,0.0024485395553614014,0.0028519517410813865,-0.010140939072232395,0.0064902215531876415,0.9902908637732191
2016-04-19,1,0.003133588704875492,0.0036203250468373385,-0.01521077654523829,0.0064902215531876415,0.9888105355834867
2016-04-21,1,0.0024557856461243956,0.0028505803127747004,-0.01138879071751063,0.0064902215531876415,0.9896703523109988
2016-04-25,1,0.0021877541281942105,0.002509583224607811,-0.014873326547696306,0.0064902215531876415,0.9888804658891273
2016-04-27,1,0.002332507761062005,0.002652584009849581,-0.014873326547696306,0.00910861340333397,0.9874268961024589
2016-04-29,1,0.0006466303202753694,0.0007163408061543238,-0.003877010261030654,0.00910861340333397,0.9886123971278127
2016-05-03,1,0.001386933935830166,0.0015540316372745166,-0.007468473314853157,0.0072526608219044405,0.989260514856496
2016-05-05,1,0.0004966576578846043,0.0005235951431214387,-0.007097575942705965,0.0072526608219044405,0.9892140593491321
2016-05-09,1,0.000588544184042867,0.0005935611986585484,-0.007097575942705965,0.006269339821416775,0.9894166362974298
2016-05-11,1,0.0003725634199963513,0.0003895377932298462,-0.0038876610802320907,0.006042420515305028,0.9904782619773937
2016-05-13,-1,-0.0009884254805635983,-0.0007942244315521897,-0.004696112455980076,0.005796656171835081,0.99176137201114
2016-05-17,-1,-0.0014418844940671843,-0.001212215200486306,-0.0036735134164705696,0.005350666914291749,0.9936205463899512
2016-05-19,-1,-0.0012819234378223477,-0.0010677185078048464,-0.0036735134164705696,0.004557698280647893,0.993859463756757
2016-05-23,-1,-0.0011471543070732419,-0.0009880738028475837,-0.003335375605777101,0.004714956826340448,0.9942867955953555
2016-05-25,1,2.0028129620262364e-05,8.193649800101132e-05,-0.003335375605777101,0.004683335069933563,0.9956069288547477
2016-05-27,-1,-0.00025482006923200316,-0.00011197634865884958,-0.003335375605777101,0.004683335069933563,0.9954190384483446
2016-06-01,-1,-0.0015562138175517271,-0.0011935249512838478,-0.0030026410921426584,0.00597278189659052,0.994524632140273
2016-06-03,-1,-0.002596669365125332,-0.0020887479140251344,-0.002603773076684442,0.006687075373785232,0.9937669446848167
2016-06-07,-1,-0.002737539502008187,-0.002197884748078998,-0.0011723118091937672,0.006687075373785232,0.9933104034145913
2016-06-09,-1,-0.003022749228596137,-0.0024074314856847487,-0.002702990394031544,0.007757871509993725,0.9925556018707454
2016-06-13,-1,-0.0031581931515694515,-0.002557832661503166,-0.002702990394031544,0.007757871509993725,0.9921625228410743
2016-06-15,-1,-0.0028769620611866246,-0.002330815213143443,-0.002702990394031544,0.007757871509993725,0.992113240008479
2016-06-17,-1,-0.0019802730567477695,-0.001623345586813136,-0.0040504798439205516,0.007757871509993725,0.9917085407437471
2016-06-21,-1,-0.0012233775069381864,-0.0010087580430958262,-0.0044550129959255065,0.007757871509993725,0.9920384168663031
2016-06-23,1,0.0001988690360450085,0.0002243851664654411,-0.006562281149497469,0.008621974548367365,0.9921302742431567
2016-06-27,-1,-0.0003996795664190174,-0.00025757223324616996,-0.006562281149497469,0.010015013079067289,0.9912825304905392
2016-06-29,-1,-0.000723231633157442,-0.0004501358390587623,-0.008025872117020941,0.010015013079067289,0.9897011654334202
2016-07-01,-1,-0.0014031331646191002,-0.0010003121829555742,-0.006562281149497469,0.0075247734450153295,0.9900648637592337
2016-07-06,1,0.00025399188361861633,0.00035486523703457204,-0.007056950677349593,0.0075247734450153295,0.9903188965345724
2016-07-08,1,0.0011635706036122921,0.0012193018506506384,-0.006390976936666348,0.006862562992433201,0.9910008629161928
2016-07-12,1,0.00020593292280685977,0.00028936801715806135,-0.005901972182752925,0.006862562992433201,0.9911551741458939
2016-07-14,1,0.0008589804350580834,0.000901237590407169,-0.005901972182752925,0.006862562992433201,0.9910191944431695
2016-07-18,1,0.0006539883232822617,0.000703381237209044,-0.004959977377776545,0.006862562992433201,0.9915470686781527
2016-07-20,1,0.0005285685010226441,0.0005544991173140094,-0.004959977377776545,0.006862562992433201,0.9915955338663668
2016-07-22,1,0.0011550463735478431,0.0013373497060498144,-0.004375420960468954,0.006295522933063796,0.9924623714072122
2016-07-26,1,0.001803970076052446,0.0020365473110216126,-0.004770523856172318,0.003652133230220239,0.9931191282665048
2016-07-28,1,0.002167243995614997,0.0023981925238787767,-0.004375420960468954,0.0017811807087015272,0.9953034146491532
2016-08-01,1,0.0022868912197348138,0.0025519370875152062,-0.004375420960468954,0.0017811807087015272,0.9945133359301569
2016-08-03,1,0.0024438014607999917,0.002785054737954716,-0.004375420960468954,0.003652133230220239,0.9944042752361022
2016-08-05,1,0.0027571559984080106,0.0031286691941579624,-0.004375420960468954,0.0019049420341661059,0.9942943030307801
2016-08-09,1,0.002012844755769522,0.0022566133431670037,-0.002903288755688162,0.0020623586503075155,0.9953464718748725
2016-08-11,1,0.002230143079073661,0.002514072200737495,-0.004375420960468954,0.0016474166695115804,0.9945643398166202
2016-08-15,1,0.0025054308642397244,0.00287628129085273,-0.0032378198175567405,0.0020623586503075155,0.9945242122307142
2016-08-17,1,0.0020822797715157296,0.002371813001656593,-0.0033796858523264216,0.0020623586503075155,0.9945485123754828
2016-08-19,1,0.0022354194015510175,0.0025681414952667056,-0.0053541746694379146,0.003042792448321222,0.9936284443852031
2016-08-23,1,0.002177617081177032,0.0025096118866152666,-0.0039175938526835,0.004349054295508134,0.9931840365875345
2016-08-25,1,0.0014758292660727668,0.0016593149993236007,-0.006555280887137554,0.006578617957246311,0.9927086725715979
2016-08-29,1,0.0009048988502592297,0.001002651414194158,-0.0037800545915596343,0.0072891023298500375,0.9936502531680013
2016-08-31,1,0.0007009111069474896,0.0007522467846277789,-0.006555280887137554,0.004696543754854639,0.9933078088941033
2016-09-02,1,0.0011033465047553413,0.0012241251444486015,-0.007483960875588473,0.0038343846773077014,0.9926776565445522
2016-09-07,1,0.0010286831948606479,0.001132843090051577,-0.007483960875588473,0.0038343846773077014,0.9924528079889203
2016-09-09,1,0.0008237744036899033,0.0009401732875991004,-0.00718945683808535,0.005541405261846784,0.992525773045948
2016-09-13,1,0.0005319952512603593,0.0005761849290663842,-0.00814863537831707,0.008687837181995166,0.991889941692446
2016-09-15,1,0.0002623087339750484,0.0002735345130538085,-0.00814863537831707,0.0092427299012316,0.991607558502324
2016-09-19,1,0.00035558719070766655,0.0003971157118886012,-0.006776839054713752,0.008687837181995166,0.9924206624241749
2016-09-21,1,8.322293472856691e-05,0.00015311960620195802,-0.006776839054713752,0.006694803890384726,0.9932338762530367
2016-09-23,1,0.0007739567534984549,0.0008284499340641546,-0.00814863537831707,0.006094894359627252,0.9932226170351772
2016-09-27,1,0.0007059155246068871,0.0007111480290456018,-0.00814863537831707,0.006094894359627252,0.992853838243568
2016-09-29,1,0.00016860275501653953,0.0002033786093008192,-0.00866469622697833,0.006094894359627252,0.9890052976415774
2016-10-03,-1,-0.0006857481678034116,-0.0005200403915542309,-0.00660890248778746,0.0067339559957413885,0.987587274991125
2016-10-05,-1,-0.0013255516255755682,-0.0010508484614180024,-0.006334496970811302,0.0067339559957413885,0.9876087490678725
2016-10-07,-1,-0.001705967541466556,-0.0013541769660003916,-0.005081879034344894,0.006094894359627252,0.988286702118225
2016-10-11,-1,-0.0018263594893154801,-0.0014651944967888355,-0.005081879034344894,0.004195989685066449,0.9889464098809586
2016-10-13,-1,-0.0015350395314919125,-0.00118451922291496,-0.005892812126763794,0.0035234635654326782,0.9887395146273976
2016-10-17,-1,-0.0007818473142822141,-0.0005970578490170278,-0.005892812126763794,0.0035234635654326782,0.9888592132640088
2016-10-19,-1,-0.0006086826340769901,-0.0004616430006856848,-0.005892812126763794,0.006325964980956871,0.9874180010561122
2016-10-21,-1,-0.001219330935936949,-0.0009829315608108496,-0.005892812126763794,0.004754319616860815,0.987319586330024
2016-10-25,-1,-0.0009896273493483858,-0.0007480228710817614,-0.005892812126763794,0.009193393286857832,0.986492412655027
2016-10-27,-1,-0.004860594346660805,-0.004171120207361557,-0.0026735150627010453,0.009193393286857832,0.9893459926850017
2016-10-31,-1,-0.002906797493332386,-0.002459764041082915,-0.003912305410575018,0.004829173169049743,0.9923220838413455
2016-11-02,-1,-0.0034296892369521693,-0.0029022713580814548,-0.00376679499871149,0.004829173169049743,0.9923035017740455
2016-11-04,-1,-0.0036247366628489462,-0.003078405148366529,-0.003735352686253645,0.007485189021126616,0.9913255668630273
2016-11-08,-1,-0.003934552340946138,-0.00334797420902756,-0.0026630342918817634,0.010943798763610449,0.9895584760381405
2016-11-10,-1,-0.003455959850820025,-0.0029292547817121755,-0.003640930077436647,0.007485189021126616,0.9897123799950356
2016-11-14,-1,-0.003256247004092659,-0.0027767843652131666,-0.003640930077436647,0.010943798763610449,0.9885445105815188
2016-11-16,-1,-0.0017053704783533358,-0.0014339730983488354,-0.004962642706905316,0.005591329222009217,0.9894247364627308
2016-11-18,-1,-0.0018038066996739627,-0.0015628983609860115,-0.003640930077436647,0.01033700533018777,0.9894600140859404
2016-11-22,-1,-0.0003745880292884301,-0.0003042981526607285,-0.003640930077436647,0.005200163040473422,0.9911887409389031
2016-11-25,1,0.00011303664220870242,0.00012248750168124175,-0.004962642706905316,0.005200163040473422,0.9911410941178236
2016-11-29,1,0.00017972343483068737,0.0002236793357640516,-0.004962642706905316,0.005200163040473422,0.9910789887696454
2016-12-01,-1,-0.0004994988864413861,-0.00042814896195240434,-0.005875107002418695,0.005200163040473422,0.9905313099241934
2016-12-05,1,0.00012206344846399549,0.00013541629574340353,-0.005875107002418695,0.005246636239338798,0.9906999063949739
2016-12-07,1,0.0009843801990097423,0.0010840799042899762,-0.005875107002418695,0.004547138344825011,0.9922214242318443
2016-12-09,-1,-0.000279995103316544,-0.00021834371729305746,-0.00484309339341934,0.005145274815596974,0.9926680119249214
2016-12-13,1,0.0005933812038665982,0.0006362606669190349,-0.00484309339341934,0.004547138344825011,0.994074493413359
2016-12-15,1,0.0005546538182777034,0.0006542066811212884,-0.00484309339341934,0.004547138344825011,0.9947589388399972
2016-12-19,1,0.0016692855100195018,0.001970214772996446,-0.008492204415470998,0.0037404179952055744,0.9941631822592956
2016-12-21,1,0.001995477820285801,0.002342102172398013,-0.008696328439774482,0.0027250138008609137,0.9923343261798877
2016-12-23,1,0.0015279551318725122,0.0017941584100121923,-0.008492204415470998,0.0037404179952055744,0.9923556915702514
2016-12-28,1,0.001476231533964666,0.0017642902223627258,-0.008492204415470998,0.0037404179952055744,0.992271583987057
2016-12-30,1,0.0009720448339615786,0.0011664586997357598,-0.007513587557605653,0.003401278964597145,0.9926423645363466
2017-01-04,1,0.0015563093040924705,0.0018397268977536738,-0.008492204415470998,0.0026119674573247707,0.9910677450102316
2017-01-06,1,0.001462320981123404,0.0017265643445118638,-0.008492204415470998,0.0039529422365037325,0.990526297965928
2017-01-10,1,0.001325452688993233,0.0015616012192797022,-0.00755946897952511,0.007815440853200581,0.9889843186500061
2017-01-12,1,0.001397997599663671,0.0016453081235803897,-0.009183656435558778,0.009230207913874794,0.9879803063643199
2017-01-17,1,0.0010113684561978867,0.0012037165343859327,-0.011018395822421357,0.009230207913874794,0.9878167840156331
2017-01-19,1,0.000483844985969379,0.0005994073593566196,-0.011018395822421357,0.009230207913874794,0.9882583041030235
2017-01-23,-1,-0.0012141405894146354,-0.001090782115960726,-0.008113276733854521,0.009230207913874794,0.9894902979081387
2017-01-25,-1,-0.0010033823757072944,-0.0009054888109832655,-0.008726024090737573,0.0058693667509650705,0.9898185358280459
2017-01-27,-1,-0.0010564461417958402,-0.0009727398215552638,-0.007406924864584708,0.009522710124657842,0.989916356816819
2017-01-31,-1,-0.0012005492129152258,-0.0011037952551143004,-0.0061613291016874416,0.01074888956465011,0.9896215031357524
2017-02-02,-1,-0.0023446693435132636,-0.002086258216029224,-0.005053066411312653,0.01074888956465011,0.9910494190543145
2017-02-06,-1,-0.0019714782682410583,-0.0017606427483009858,-0.005321030927945523,0.00619217012610894,0.9915088275808731
2017-02-08,-1,-4.93689505739687e-05,-4.753270354710892e-05,-0.0069652226515860526,0.004250811125625727,0.9934997429967242
2017-02-10,-1,-7.991731044481557e-05,-7.03329031312459e-05,-0.005321030927945523,0.004250811125625727,0.9936317710807926
2017-02-14,-1,-7.004527345138489e-05,-4.568015558996211e-05,-0.005321030927945523,0.004250811125625727,0.993423715985438
2017-02-16,-1,-0.00023673069684348525,-0.00021423233810886964,-0.002925218589773517,0.005250452366221304,0.993638245805318
2017-02-21,1,0.00026242250763875623,0.0003750413420303334,-0.005321030927945523,0.005250452366221304,0.9934038163814647
2017-02-23,-1,-0.0004973912408686798,-0.0004699051958682274,-0.004286059331851654,0.005250452366221304,0.9935980752357334
2017-02-27,-1,-0.0003438972439377909,-0.00031532583845009796,-0.005321030927945523,0.00392476236637079,0.9938227285040055
2017-03-01,1,5.4167390874977796e-05,6.454452872224018e-05,-0.005321030927945523,0.00392476236637079,0.9936172398234455
2017-03-03,-1,-1.7904579775106332e-05,-1.2407375282803526e-05,-0.007536706297254534,0.00392476236637079,0.9930355651602484
2017-03-07,-1,-0.00018720915322505588,-0.00016737266640892213,-0.008827381948805224,0.0038704072464656315,0.9909077878279714
2017-03-09,1,5.893615766816701e-05,0.0001040085300532441,-0.008827381948805224,0.0033699220005561316,0.9914079758720968
2017-03-13,1,0.0007273969114572035,0.0008543988711436255,-0.008827381948805224,0.0033699220005561316,0.9916401640178849
2017-03-15,1,0.00024767851244860003,0.00031216783737021274,-0.0075655110581458775,0.0016882918790911445,0.9923768682747571
2017-03-17,1,0.0005356212842394008,0.0006182786113502059,-0.0075655110581458775,0.00042372455726374247,0.9922546133750996
2017-03-21,1,0.00039233476339178467,0.0004944615146744576,-0.006837646357932625,0.004193692511890283,0.9921406403830025
2017-03-23,-1,-0.0018114249146997804,-0.0014466321052386342,-0.006837646357932625,0.007910720437682043,0.9914080125427035
2017-03-27,-1,-0.0009597299715350979,-0.0007866052933064895,-0.007190830722586552,0.008474875602749146,0.9900555883136795
2017-03-29,-1,-0.00039142736046493846,-0.0002725134647706842,-0.008827381948805224,0.007910720437682043,0.9892673704969089
2017-03-31,-1,-0.0013130394681172292,-0.0010734963070390055,-0.014158655756330407,0.007910720437682043,0.9873434239573039
2017-04-04,-1,-0.0037006343849890645,-0.0031681988835597363,-0.005157350565820838,0.008474875602749146,0.9883462861293729
2017-04-06,-1,-0.003482206401859567,-0.0030007089309882617,-0.005157350565820838,0.009473491509979594,0.9870291435327021
2017-04-10,-1,-0.0034081594601175773,-0.002933188964332765,-0.004760806764970919,0.009473491509979594,0.9866915482316375
2017-04-12,-1,-0.003054748386847477,-0.0026782772218887294,-0.004257413189944245,0.009473491509979594,0.986502010490769
2017-04-17,-1,-0.0032111146379856428,-0.0027881965532891555,-0.0034574506827333906,0.01046366614915874,0.9863844522388661
2017-04-19,-1,-0.0014953553593778104,-0.00134289431043005,-0.01429485802105189,0.009303386545996977,0.9863701234405062
2017-04-21,-1,-0.00026976929421640287,-0.00026574909757597765,-0.01429485802105189,0.007522476251409217,0.9872568632406846
2017-04-25,-1,-0.0005628408419221555,-0.0005253818041026416,-0.015240184062198577,0.0069764540208865885,0.9867697096367046
2017-04-27,-1,-0.0016959260212223981,-0.0015097416729077367,-0.011771494621465997,0.007522476251409217,0.9874912547025899
2017-05-01,-1,-0.00366573799965747,-0.003276236968675691,-0.003740365904392178,0.00827622878446321,0.9886900476674386
2017-05-03,-1,-0.0019329045344433217,-0.0018087760338062414,-0.0064086872390812285,0.00827622878446321,0.9885395215291972
2017-05-05,-1,-0.0016274903110314969,-0.0014813560592581798,-0.011771494621465997,0.0070035568207142615,0.9887061962262679
2017-05-09,-1,-0.000558514162765917,-0.0005287253742913716,-0.01432076929420226,0.00644505061440716,0.9883452665785804
2017-05-11,-1,-0.0007124963001164607,-0.0006936352370340049,-0.018599070089763733,0.007150738009015523,0.9875753971506732
2017-05-15,0,-2.9526888577931926e-05,8.017266952584659e-05,-0.018599070089763733,0.00676273918263603,0.9876973426493971
2017-05-17,-1,-0.000987795952271136,-0.0009823196271796868,-0.013197594886653155,0.00676273918263603,0.9894270926861396
2017-05-19,-1,-0.0006718138981727436,-0.0006374730815483601,-0.013197594886653155,0.002842915430657808,0.9892872477315833
2017-05-23,-1,-0.002373330439761499,-0.00219232273654278,-0.01834494614604021,0.002842915430657808,0.9896161964315772
2017-05-25,-1,-0.0017988270340948526,-0.0016754366173417825,-0.01834494614604021,0.00010442127210553325,0.990382703318226
2017-05-30,-1,-0.0007991682156577172,-0.0007748447880249769,-0.01834494614604021,0.00010442127210553325,0.9903667370389796
2017-06-01,-1,-0.0009334882257113,-0.0009241316268534798,-0.01834494614604021,-0.0006319668164114043,0.991018551639583
2017-06-05,-1,-0.0016376568482145857,-0.0015649725949630992,-0.012814981937173602,0.0017382922652844628,0.9912974486747181
2017-06-07,-1,-0.0024020223054782323,-0.002256505297142674,-0.013942257793400052,0.0017382922652844628,0.9869804825216084
2017-06-09,-1,-0.002721948002480818,-0.002525091482129187,-0.014108463748047011,0.0002924532744934248,0.9872840638011257
2017-06-13,-1,-0.0025480589386568677,-0.0023534894402577494,-0.014108463748047011,0.002731075426152919,0.9865212471559804
2017-06-15,-1,-0.0034358055856688863,-0.0030744399801126768,-0.014108463748047011,0.005936524868550565,0.9845758819137546
2017-06-19,-1,-0.0038063563963558755,-0.0034151035927516595,-0.014108463748047011,0.00847528671984936,0.9837600140992052
2017-06-21,-1,-0.005539207651911545,-0.004934751472915012,-0.004620179143821091,0.009891787047008969,0.9840797196815481
2017-06-23,-1,-0.005593807945764382,-0.004978237800160672,-0.00683259409253228,0.009891787047008969,0.9836109920084121
2017-06-27,-1,-0.005565894818258206,-0.004917775714111471,-0.00651934677766666,0.009891787047008969,0.9832566019534429
2017-06-29,-1,-0.005697827610470824,-0.005051915838477385,-0.004109007810440112,0.011372386918076396,0.9801525527435097
2017-07-03,-1,-0.003538358835571221,-0.003238219617611277,-0.004109007810440112,0.014149056022435729,0.9800098042701091
2017-07-06,-1,-0.007353972717119173,-0.006620990588235787,-0.00282719372984415,0.014149056022435729,0.981756057159146
2017-07-10,-1,-0.007857401111064366,-0.007062300740710821,-0.0026561647032503225,0.014149056022435729,0.9818872924507734
2017-07-12,-1,-0.006861601650030606,-0.006176314537483177,-0.002846141066623964,0.0115283470025347,0.9838685791982181
2017-07-14,-1,-0.004883864768954738,-0.00444955936221901,-0.004109007810440112,0.009891787047008969,0.9855205328239502
2017-07-18,-1,-0.004180630649925553,-0.0038195054137483133,-0.007231080363428691,0.00880766553954426,0.9866116477482775
2017-07-20,-1,-0.0033896084007612633,-0.0031398017876552815,-0.007231080363428691,0.009707237933838549,0.9858624054177533
2017-07-24,-1,-0.00363278847560389,-0.0033826132410110124,-0.007231080363428691,0.009707237933838549,0.986006969454849
2017-07-26,-1,-0.0028376824377882976,-0.002683361984021817,-0.010460940843253264,0.007546777187024177,0.9865246290394839
2017-07-28,-1,-0.00045534037667062464,-0.00031335177969098556,-0.010460940843253264,0.007546777187024177,0.9886864719889857
2017-08-01,1,0.0009227009531403192,0.0012514862447891007,-0.012598811341793132,0.0022312502235364525,0.9890606875921867
2017-08-03,1,0.001003626149930521,0.0013855711565312074,-0.010494817145291121,0.0020781539993767087,0.9895789361968689
2017-08-07,1,0.0008556372313332704,0.0011975046484820869,-0.010494817145291121,0.005583976552179845,0.9889395049793324
2017-08-09,1,0.0009434598645819,0.0013287455490027522,-0.010494817145291121,0.0066747296594762895,0.9885834323806019
2017-08-11,1,0.0002498029739047711,0.000525071214673532,-0.010494817145291121,0.005583976552179845,0.9894597696213496
2017-08-15,1,3.405585319654408e-05,0.0002964233521139349,-0.009518280302494188,0.010751810041407763,0.9873967217519966
2017-08-17,1,0.0008690703920376695,0.0012396287960348043,-0.009518280302494188,0.010406492025430054,0.9882106891527431
2017-08-21,1,0.0009293281928957717,0.0013545647425649916,-0.009518280302494188,0.010406492025430054,0.9873046306950795
2017-08-23,1,0.0004090222021814273,0.0007438233150853864,-0.007139115256205064,0.010406492025430054,0.9876254853598531
2017-08-25,1,0.0008062189378072125,0.0010931716933621585,-0.007139115256205064,0.013525425500084782,0.9863226946628099
2017-08-29,0,-1.5939146199222512e-05,0.00016071318405035866,-0.007139115256205064,0.013525425500084782,0.9866023144694783
2017-08-31,1,7.040513450197656e-06,0.00019639368919413785,-0.005286819660536225,0.013525425500084782,0.9871704714577916
2017-09-05,1,0.0007386710157058921,0.0010149895439808222,-0.006473804621196259,0.010406492025430054,0.9879664105038249
2017-09-07,1,0.0009191451612368289,0.0012316337950496604,-0.006473804621196259,0.008789265827178074,0.9881584169489939
2017-09-11,1,0.0007295215568835552,0.0010615318906671213,-0.005372767469145418,0.00954565368227645,0.9876734616497393
2017-09-13,1,0.003303044535918455,0.00403243155101048,-0.0067759921723737765,0.0075777812265678665,0.9890403795343661
2017-09-15,1,0.0037075951054091646,0.004490233460890479,-0.006801158621860734,0.0075777812265678665,0.9887751467815294
2017-09-19,1,0.0022260552172344785,0.0027648506709280008,-0.006740036863519491,0.008716688451997506,0.9902239222469281
2017-09-21,1,0.0010556044186282797,0.001312479453991714,-0.006801158621860734,0.008716688451997506,0.9895426034601776
2017-09-25,1,0.003581543083805167,0.004216903819227416,-0.0072733707853128975,0.00529826954304664,0.9908468507922591
2017-09-27,1,0.003946391392406788,0.0046795693970983505,-0.0072733707853128975,0.0038478160421229007,0.9904186911191387
2017-09-29,1,0.0047670037658795565,0.005658432779077183,-0.0072733707853128975,0.008716688451997506,0.9874427104711855
2017-10-03,1,0.004643913597861092,0.0055273042573063935,-0.011781960474874533,0.008716688451997506,0.9864335938185695
2017-10-05,1,0.004388311117119081,0.005257871494123014,-0.013706585008388743,0.01067098187139955,0.9852502142958542
2017-10-09,1,0.00313122287641309,0.0037538626492552313,-0.013706585008388743,0.01067098187139955,0.9853718495244702
2017-10-11,1,0.003493221883787905,0.004188069517374292,-0.013706585008388743,0.008822722282932466,0.985570232137756
2017-10-13,1,0.0029385934476291384,0.0034632738993689268,-0.013706585008388743,0.009101319359632475,0.98586422250589
2017-10-17,1,0.0036785868656573854,0.0043369862144470965,-0.013706585008388743,0.007557677627991661,0.986181315270634
