JNU-Tangyin/eata/results/Batch4_SP500/Batch4_SP500-FMBM.csv
Date,Action,Predicted_Q25,Predicted_Q75,Actual_Q25,Actual_Q75,RL_Reward
2010-12-13,0,0.0,0.0,0.0,0.0,0.9916633889190551
2010-12-15,1,0.002180908661626884,0.0026060968549879715,0.0,0.0,0.988813907451574
2010-12-17,0,0.0,0.0,0.0,0.0,0.9908828835298473
2010-12-21,0,0.0,0.0,0.0,0.0,0.9908828835298473
2010-12-23,-1,-0.0018173470882171605,-0.0018106159879598513,0.0,0.0,0.9932581570973791
2010-12-28,0,0.0,0.0,0.0,0.0,0.9939940194633237
2010-12-30,0,0.0,0.0,0.0,0.0,0.9931877577371391
2011-01-03,-1,-0.00040414905226127844,-0.00036710481584295053,0.0,0.0,0.9939145907069303
2011-01-05,-1,-0.002001437613631144,-0.00197179572256328,0.0,0.0,0.9927705357197971
2011-01-07,0,0.0,0.0,0.0,0.00018381020086480967,0.989519989905009
2011-01-11,0,0.0,0.0,0.0,0.00018381020086480967,0.989519989905009
2011-01-13,0,0.0,0.0,0.0,0.00018381020086480967,0.9854848576303583
2011-01-18,0,0.0,0.0,0.0,0.002305823259958084,0.983160952567913
2011-01-20,1,0.0003060126327873664,0.0003618395233486295,0.0,0.007115036888197045,0.9794648901570234
2011-01-24,1,0.00016837003466507755,0.0002060353602532344,0.0,0.0024032895187005095,0.9797130060238388
2011-01-26,1,0.00017393724518135155,0.00021458813826153697,-0.0005376296304905383,0.00018381020086480967,0.9784360666403602
2011-01-28,-1,-0.0012112446474678345,-0.0011564539075194793,0.0,0.0012971420550212279,0.9810165256965353
2011-02-01,0,0.0,0.0,-0.0005376296304905383,0.0012971420550212279,0.9804882724898866
2011-02-03,0,0.0,0.0,-0.0053303575178905785,0.000745711452426799,0.9797040942316965
2011-02-07,0,0.0,0.0,-0.006547668101977261,0.0,0.9843439667955614
2011-02-09,0,-0.00041777318430461587,0.0,-0.006547668101977261,0.0,0.9845294226515713
2011-02-11,-1,-0.00037887318957442967,-0.0003598347928979994,-0.0025562887166577144,0.0,0.9890762778954152
2011-02-15,-1,-0.00044684657604551834,-0.00041617704138303464,-0.0025562887166577144,0.0,0.9913716506114131
2011-02-17,1,0.00016727207108992062,0.0003730651048979495,-0.0005376296304905383,0.0,0.9951104901619444
2011-02-22,0,0.0,0.0,0.0,0.0,0.9953495974257683
2011-02-24,0,0.0,0.0,-0.0001892548988069253,0.0,0.9963775116098413
2011-02-28,1,0.0005616416616629665,0.0006098408621530439,-0.0001892548988069253,0.0,0.9960695327724459
2011-03-02,1,0.001044387592087331,0.0012084640778327574,0.0,0.0,0.9970827689077751
2011-03-04,0,0.0,0.0,0.0,0.0,0.99897905774209
2011-03-08,0,0.0,0.0,0.0,0.0,0.9991673881389881
2011-03-10,0,0.0,0.0,0.0,0.0,0.9991289912176888
2011-03-14,0,0.0,0.0,0.0,0.0,0.9991289912176888
2011-03-16,0,0.0,0.0,0.0,0.0,0.995420844913179
2011-03-18,1,0.0004625097507359779,0.0004866059166039481,0.0,0.0,0.9950493301857111
2011-03-22,-1,-4.235292092651959e-05,-3.600260461091858e-05,0.0,0.0,0.9907722685558612
2011-03-24,0,0.0,0.0,0.0,0.0,0.9906079137329218
2011-03-28,0,0.0,0.0,0.0,0.0,0.9906079137329218
2011-03-30,0,0.0,0.0,0.0,0.0,0.990077761686677
2011-04-01,0,0.0,0.0,0.0,0.0,0.9888374821129536
2011-04-05,0,0.0,0.0,0.0,0.0,0.9888374821129536
2011-04-07,0,0.0,0.0,0.0,0.0,0.9888750920797647
2011-04-11,0,0.0,0.0,0.0,0.002702709370362114,0.9860828421771545
2011-04-13,0,0.0,0.0,0.0,0.0,0.9897587220705344
2011-04-15,0,0.0,0.0,0.0,0.0,0.9897587220705344
2011-04-19,1,0.0005552978668189727,0.0007930960678285467,0.0,0.0,0.9940559658430467
2011-04-21,0,0.0,0.0,0.0,0.0,0.9925886868743108
2011-04-26,-1,-0.0002888805114495133,-0.00026341164193817424,0.0,0.0,0.992433922483869
2011-04-28,-1,-0.0002475253964802514,-0.00020700135074242567,0.0,0.0,0.9930005212847878
2011-05-02,-1,-0.00019721823042899797,-0.0001414177072909173,0.0,0.0,0.9942103584753548
2011-05-04,-1,-0.0001278587576206811,-6.025040249035111e-05,0.0,0.0,0.9942720892828394
2011-05-06,-1,-0.00016668893172862631,-0.00015558535334492317,0.0,0.0,0.9942084564620034
2011-05-10,-1,-0.00027964689571007364,-0.0002776849167219606,0.0,0.0,0.996189577217845
2011-05-12,1,0.00019173911549943962,0.00022950956620608102,-0.00019592924573780086,0.0,0.9959728358484179
2011-05-16,1,0.00023148870167126625,0.00026913799864423395,-0.00019592924573780086,0.0,0.9959373921056075
2011-05-18,-1,-0.00012283938791201625,-7.225498097748238e-05,-0.00019592924573780086,0.0,0.9961285771836867
2011-05-20,1,0.00017291342799004826,0.00026461446968711465,0.0,0.0,0.9987519228387389
2011-05-24,1,1.5907606331212918e-05,2.4185848810930536e-05,0.0,0.0,0.9989220296887691
2011-05-26,0,0.0,0.0,0.0,0.0,0.998939207121857
2011-05-31,0,0.0,0.0,0.0,0.0,0.995543149728064
2011-06-02,0,0.0,0.0,0.0,0.0,0.995543149728064
2011-06-06,0,0.0,0.0,0.0,0.0,0.995543149728064
2011-06-08,0,0.0,0.0,0.0,0.0,0.9963599941628059
2011-06-10,1,8.089799188210563e-05,8.348760031873085e-05,0.0,0.0,0.9964845872279545
2011-06-14,1,7.229215588042904e-05,7.33824083064848e-05,0.0,0.0,0.9964927992797198
2011-06-16,1,1.896293730702073e-05,2.6495429222295618e-05,0.0,0.0,0.9945947878272575
2011-06-20,1,9.135309738423645e-06,1.2617106134068957e-05,0.0,0.0,0.9925695832803171
2011-06-22,0,0.0,0.0,0.0,0.0,0.9925788840038621
2011-06-24,0,0.0,0.0,0.0,0.0,0.9876771466041996
2011-06-28,0,0.0,0.0,0.0,0.0,0.9893435326590421
2011-06-30,0,0.0,0.0,0.0,0.0,0.9885004580597215
2011-07-05,1,0.0570496821499942,0.06947182580015718,0.0,0.0,0.9415272539776327
2011-07-07,1,5.3522198187196994e-05,7.91269381279836e-05,0.0,0.0,0.9876426668991891
2011-07-11,1,0.0010715519583936917,0.0011237487944091038,0.0,0.0,0.9870481656429851
2011-07-13,1,0.0008701866221721268,0.0008948827315860474,0.0,0.0,0.9855434123696778
2011-07-15,1,0.00025265658837143174,0.0003076794530407432,0.0,0.0,0.9878141014414952
2011-07-19,1,5.17269904101476e-05,0.00014790518770445955,0.0,0.0,0.989611782873303
2011-07-21,1,0.0005224434021440652,0.0005802213132559401,0.0,0.0,0.9893338829872802
2011-07-25,-1,-0.0008956180984397114,-0.0007921215752766482,0.0,0.0,0.9934891366837397
2011-07-27,-1,-0.001191757997206486,-0.0010416278395420672,0.0,0.0,0.9950414684270704
2011-07-29,-1,-0.0012779289166584243,-0.0011200616998582064,0.0,0.0,0.9958406652734134
2011-08-02,-1,-0.0012472910325172118,-0.001093939207451474,0.0,0.0,0.9951162758925122
2011-08-04,-1,-0.001308451603161833,-0.0011475615071283784,0.0,0.0,0.9959245473341558
2011-08-08,-1,-0.001272391230682388,-0.0011262874711800751,0.0,0.0,0.9959366677451151
2011-08-10,-1,-0.0010688584453833318,-0.0009359312707614204,0.0,0.0,0.9975280382754326
2011-08-12,-1,-0.0010803337163862298,-0.0009468206972748972,0.0,0.0,0.9975215584007555
2011-08-16,0,0.0,0.0,0.0,0.0,0.9984258846309427
2011-08-18,0,0.0,0.0,0.0,0.0,0.9984258846309427
2011-08-22,0,0.0,0.0,0.0,0.0,0.994671703096369
2011-08-24,1,0.0009833599606832867,0.001024718945143621,0.0,0.0,0.9936793258555029
2011-08-26,1,0.0007681697456727618,0.0008355171054719372,0.0,0.0,0.9929115298039776
2011-08-30,1,0.00012436978119825175,0.0003738283432678822,0.0,0.0,0.9924383331717301
2011-09-01,1,0.00044684131014969977,0.00066515725579435,0.0,0.0,0.9921632933014307
2011-09-06,-1,-0.00040081251886513116,-0.00011929367744077245,0.0,0.0,0.9925297155871526
2011-09-08,-1,-0.000694084902714223,-0.0003713055217797874,0.0,0.0,0.9924509576610758
2011-09-12,-1,-0.0004308125974629975,-0.00021019603384904233,0.0,0.0,0.9907928924435124
2011-09-14,-1,-0.0006144971420660855,-0.0003695555068419594,0.0,0.0,0.9887224320423075
2011-09-16,-1,-0.0006982030599902443,-0.00044463884336852315,0.0,0.0,0.9886703675795387
2011-09-20,-1,-0.0011544742647060717,-0.0008498013592301263,0.0,0.0,0.9924573061605003
2011-09-22,1,0.00044639313388046206,0.0005283688734940636,0.0,0.0,0.9926013617335523
2011-09-26,1,0.0018996104357219192,0.0019926588094457773,0.0,0.0,0.9925641566059551
2011-09-28,1,0.0013652824768331986,0.0013939666960001108,0.0,0.0,0.9947353660903907
2011-09-30,1,0.0011672746181528467,0.0011736023624154864,0.0,0.0,0.994896792257051
2011-10-04,1,0.0009350736002953237,0.0009783392793150307,0.0,0.0,0.9950729959178717
2011-10-06,1,0.0007446114220541215,0.0008142451428228687,0.0,0.0,0.9948375908385988
2011-10-10,1,0.0001436128967412397,0.0002875069940908877,0.0,0.0,0.997170063756582
2011-10-12,1,0.0001788982039869759,0.0003467275980197592,0.0,0.0,0.9971575854269509
2011-10-14,1,8.995686124829114e-05,0.00025093429989215236,0.0,0.0,0.9949248631499603
2011-10-18,1,3.1196276527549385e-05,0.0001628937093732664,0.0,0.0,0.9895226950667197
2011-10-20,1,0.0009891529837895551,0.0010316188928766274,0.0,0.0,0.9874486594519175
2011-10-24,0,-0.00011018841182751393,3.391580609460017e-05,0.0,0.0,0.9846025566363401
2011-10-26,0,0.0,0.0,0.0,0.0,0.9845864433074247
2011-10-28,0,0.0,0.0,0.0,0.0,0.9845864433074247
2011-11-01,0,0.0,0.0,0.0,0.0,0.9845864433074247
2011-11-03,0,0.0,0.0,0.0,0.0,0.9841631770775274
2011-11-07,0,0.0,0.0,-0.0030864210356306796,0.0,0.9835656526948959
2011-11-09,0,0.0,0.0,-0.0018382422548675228,0.0,0.9850871480212741
2011-11-11,0,0.0,0.0,-0.0018382422548675228,0.0,0.9865139761541041
2011-11-15,0,0.0,0.0,0.0,0.0,0.9919169643835131
2011-11-17,0,0.0,0.0,0.0,0.0,0.9933099477765868
2011-11-21,0,0.0,0.0,0.0,0.0,0.996914286594339
2011-11-23,0,0.0,0.0,-0.0009058005442715998,0.0,0.996733620816698
2011-11-28,0,0.0,0.0,-0.0009058005442715998,0.0,0.9965523615016304
2011-11-30,0,0.0,0.0,-0.0036264960098123136,0.0,0.9963718268680392
2011-12-02,1,0.0009289893166945299,0.0011758965032593026,-0.0009058005442715998,0.0,0.9955566851615334
2011-12-06,1,0.0005587999018232002,0.0007382482000181037,0.0,0.0009090943769975142,0.9957528383321945
2011-12-08,1,0.0006215939374149991,0.0007988661681580148,0.0,0.0009090943769975142,0.9960860387737231
2011-12-12,1,0.0008355328506249529,0.0010497232615631915,0.0,0.0,0.9950523337894921
2011-12-14,-1,-0.00014940039209202137,-0.0001453223504740684,0.0,0.0,0.9956350729795406
2011-12-16,-1,-0.00023426687769289138,-0.00021255134973195897,0.0,0.0,0.9957155212244062
2011-12-20,-1,-0.0002729738761701899,-0.00024303268089701695,0.0,0.0,0.9953598590302944
2011-12-22,-1,-0.0002408255336675558,-0.00021514775037258563,0.0,0.0012822109684003653,0.9944800028672522
2011-12-27,-1,-0.00010828595043074634,-0.00010463742797834182,0.0,0.00018248593104127107,0.9947140174521044
2011-12-29,-1,-3.8601791374163356e-05,-3.310645162462496e-05,0.0,0.00018248593104127107,0.9944378821456603
2012-01-03,1,1.173987377473972e-05,2.770453747398866e-05,0.0,0.0,0.9955348954127693
2012-01-05,1,6.823756533520101e-06,2.1475816265787283e-05,0.0,0.0,0.9962437999245678
2012-01-09,1,0.0006365413956160755,0.0008162896057689875,-0.00017984308420749146,0.0,0.9911314762547633
2012-01-11,-1,-0.00015556854099753697,-0.00013478384489555708,0.0,0.00018248593104127107,0.9928121544682266
2012-01-13,1,0.0001121763770222503,0.00014922851492599909,-0.00017984308420749146,0.00018248593104127107,0.9923133242176578
2012-01-18,-1,-0.00014467060171713793,-0.00012356879012088718,-0.00017984308420749146,0.0007347531752765522,0.9918084153454756
2012-01-20,-1,-0.00011674732409265516,-9.898115122979933e-05,0.0,0.0007347531752765522,0.9921672894985418
2012-01-24,1,0.00029242139195308323,0.0003758380757147691,0.0,0.0,0.9930638359124102
2012-01-26,1,0.0005034112424607206,0.0006329463076111023,0.0,0.0,0.992949958916395
2012-01-30,-1,-0.00013913488063609653,-0.00011615601842915283,0.0,0.0,0.9931258974787307
2012-02-01,-1,-0.0005504676762011074,-0.0004799390891168727,0.0,0.0,0.9928709777921689
2012-02-03,-1,-0.00013900235883914318,-0.00011653868235064645,0.0,0.0016059984139464123,0.9928089769611395
2012-02-07,-1,-9.304518555589572e-05,-7.594374422382544e-05,0.0,0.0,0.9975780655112729
2012-02-09,-1,-0.00019630391184499444,-0.00016709465858391113,0.0,0.0,0.997861014437993
2012-02-13,-1,-0.00035878206388760276,-0.00030821994171943993,0.0,0.0,0.997886740082341
2012-02-15,-1,-0.0003112932860055961,-0.00026896428500835894,0.0,0.0,0.9927198506506223
2012-02-17,1,3.0223721732210412e-05,6.106795568456925e-05,0.0,0.0,0.9929239733009041
2012-02-22,-1,-0.0007218508051865163,-0.0006524221956004515,0.0,0.0,0.9921478617292734
2012-02-24,-1,-4.798192423861823e-05,-3.715805066031875e-05,0.0,0.0016059984139464123,0.9908809676128358
2012-02-28,-1,-4.5046319896757164e-05,-3.0874361007446914e-05,0.0,0.005989122836865151,0.9898795055114357
2012-03-01,-1,-2.6942111517335575e-05,-8.971143843689414e-06,0.0,0.005989122836865151,0.9885092729588875
2012-03-05,1,7.817249591512683e-05,0.00012507848841341717,0.0,0.00615616387486847,0.9863810756677822
2012-03-07,-1,-2.7945148226968335e-05,-9.332459259937309e-06,0.0,0.00615616387486847,0.985472821028663
2012-03-09,0,-9.700845205857917e-06,1.195156590157775e-05,-0.0017123352543991794,0.00615616387486847,0.9840764704196223
2012-03-13,-1,-2.5398736774813173e-05,-6.121070448508759e-06,-0.0017123352543991794,0.0110497847317566,0.9820043922125044
2012-03-15,0,0.0,0.0,-0.0017123352543991794,0.0110497847317566,0.9812171923614943
2012-03-19,0,0.0,0.0,-0.0017123352543991794,0.028620670581686,0.9758629348785207
2012-03-21,0,0.0,0.0,-0.0026454875612105487,0.028620670581686,0.9756852374731133
2012-03-23,1,0.001297478230390553,0.0014538998969020806,-0.0026454875612105487,0.01554243401241353,0.9770067761257019
2012-03-27,1,0.0013013740572877979,0.0014563429072530277,-0.0026454875612105487,0.004562829465011671,0.9783194573295684
2012-03-29,-1,-0.00022878294614734539,-0.00018816395087369812,0.0,0.004562829465011671,0.9800375115391576
2012-04-02,1,7.595207367414892e-05,8.505630833859491e-05,0.0,0.0005347460768288158,0.9825087227808201
2012-04-04,-1,-0.0002681364175223782,-0.00022419442025882317,0.0,0.0005347460768288158,0.97924796958065
2012-04-09,0,0.0,0.0,0.0,0.0005347460768288158,0.9807697596211123
2012-04-11,0,0.0,0.0,0.0,0.0005347460768288158,0.9796517694500265
2012-04-13,1,0.0003320930613658035,0.0003734685471862314,0.0,0.00015635129807660766,0.9858550608887543
2012-04-17,-1,-0.0003536893268526345,-0.000305053711772012,0.0,0.0,0.9912990182929396
2012-04-19,1,0.0027368986997068565,0.0030826137713872506,0.0,0.0,0.9897199257494729
2012-04-23,0,0.0,0.0,0.0,0.0,0.9907996686119578
2012-04-25,0,0.0,0.0,0.0,0.0,0.9888421473665859
2012-04-27,0,0.0,0.0,0.0,0.0,0.9863571746505525
2012-05-01,-1,-0.0011565491670471734,-0.0011110907602766991,-0.003593757748603821,0.0,0.9838083427791086
2012-05-03,-1,-0.0005576099907318508,-0.0005285242544214326,-0.003593757748603821,0.0,0.9872498691069863
2012-05-07,-1,-0.0007932348475241062,-0.0007859019233352401,-0.003593757748603821,0.0,0.9871280315762183
2012-05-09,1,0.0004158534418900842,0.00043073793168949557,-0.00015625357627868652,0.0,0.990739107990918
2012-05-11,0,0.0,0.0,0.0,0.0,0.9910558156223624
2012-05-15,1,0.0003100293524239749,0.000324480875143533,0.0,0.0,0.9908415482477809
2012-05-17,1,0.00021851162337598317,0.00024771569953112803,0.0,0.0,0.9909032648960423
2012-05-21,1,0.00024515503800996935,0.0002905832054914658,0.0,0.0,0.9920518349106141
2012-05-23,-1,-0.00013907395726424888,-6.319629418662822e-05,0.0,0.0,0.9942812489290899
2012-05-25,1,0.0007530710975190429,0.0007992371138484892,0.0,0.0,0.9961498416434429
2012-05-30,1,0.00016723971007359946,0.00018866446868607867,0.0,0.0,0.9988300623495834
2012-06-01,0,0.0,0.0,0.0,0.0,0.9999677214130525
2012-06-05,0,0.0,0.0,0.0,0.0,0.9999677214130525
2012-06-07,0,0.0,0.0,0.0,0.0,0.9998064668955701
2012-06-11,0,0.0,0.0,0.0,0.0,0.9966346419626997
2012-06-13,0,0.0,0.0,0.0,0.0,0.9966346419626997
2012-06-15,0,0.0,0.0,0.0,0.0,0.9960348312980354
2012-06-19,0,0.0,0.0,0.0,0.0,0.9923467271749351
2012-06-21,0,0.0,0.0,0.0,0.0,0.9923467271749351
2012-06-25,0,0.0,0.0,0.0,0.0,0.9923467271749351
2012-06-27,-1,-2.966780616991322e-05,-1.9951485791510608e-05,0.0,0.0,0.992325696223025
2012-06-29,-1,-0.0005754133989982523,-0.00046183506193917814,0.0,0.0,0.9918984697646247
2012-07-03,-1,-0.0006606546519343965,-0.0005588620575988233,0.0,0.0,0.9918166198554645
2012-07-06,-1,-0.0006257435333589411,-0.0005098956084514277,0.0,0.0,0.9920138332852368
2012-07-10,0,-4.337489726499963e-06,2.6468196752606535e-05,0.0,0.0,0.9924874342398905
2012-07-12,1,8.871877018929208e-05,0.00010634257586093399,0.0,0.0,0.9924218006712751
2012-07-16,-1,-0.000382063151613353,-0.00029284457481916417,0.0,0.0,0.9928115361811708
2012-07-18,-1,-0.0009378819710938156,-0.0008027704116345443,0.0,0.0,0.9930811009118747
2012-07-20,-1,-0.0009479821282145408,-0.0008106071624334366,0.0,0.0,0.9930733638898942
2012-07-24,-1,-0.0009503336490658243,-0.0008127077418322321,0.0,0.0,0.9930714128544766
2012-07-26,-1,-0.0009098678474669028,-0.0007799130363445744,0.0,0.0,0.9931031693316534
2012-07-30,-1,-0.0009059381219591607,-0.0007765677078631003,0.0,0.0,0.993106340478077
2012-08-01,-1,-0.000903319573221471,-0.0007740792183930415,0.0,0.0,0.9931085942468079
2012-08-03,-1,-0.0008881072897157156,-0.0007636280911092713,0.0,0.0,0.9931195147029017
2012-08-07,-1,-0.000594508190515972,-0.00046800556371220296,0.0,0.0,0.9965747766434939
2012-08-09,0,0.0,0.0,0.0,0.0,0.9969770436176654
2012-08-13,0,0.0,0.0,0.0,0.0,0.9970071653148425
2012-08-15,0,0.0,0.0,0.0,0.0,1.0
2012-08-17,0,0.0,0.0,0.0,0.0,0.9983896940418678
2012-08-21,-1,-0.0031744726331536352,-0.002962466194952593,0.0,0.0,0.9956655442402231
2012-08-23,-1,-0.0032566749438299766,-0.0030425806091919074,0.0,0.0,0.9939440722528795
2012-08-27,-1,-0.002751115661809206,-0.0026224002501870148,0.0,0.0,0.9931904870233662
2012-08-29,-1,-0.0025921752855976826,-0.002467476851784747,0.0,0.0,0.9928221405941131
2012-08-31,-1,-0.0022272222156250244,-0.002149182176075271,0.0,0.0,0.9930828847482073
2012-09-05,-1,-0.0018709295041385338,-0.0018244180579168364,0.0,0.0,0.9933457298249084
2012-09-07,1,0.0004899660796971719,0.0006392470680843295,0.0,0.0,0.991944555579798
2012-09-11,1,0.000573498045351023,0.0007419479140863208,0.0,0.0,0.9918959378855546
2012-09-13,1,0.0004367098868480197,0.0007408098951707157,0.0,0.0,0.9895276266784895
2012-09-17,1,0.00022145727473797146,0.0002700572217573378,0.0,0.0,0.9912270823024024
2012-09-19,0,0.0,0.0,0.0,0.0,0.9913558929930104
2012-09-21,0,0.0,0.0,0.0,0.0,0.9929965813474115
2012-09-25,0,0.0,0.0,0.0,0.0,0.9942673779560034
2012-09-27,0,0.0,0.0,0.0,0.0,0.9947602625823162
2012-10-01,0,0.0,0.0,0.0,0.0,0.9947602625823162
2012-10-03,0,0.0,0.0,0.0,0.0,0.9947602625823162
2012-10-05,0,0.0,0.0,0.0,0.0,0.9965279500915287
2012-10-09,-1,-0.0016078874814734316,-0.0015854816591792302,0.0,0.0,0.9856141609570814
2012-10-11,1,0.00035691511105678483,0.00035929543200282005,0.0,0.0,0.9880763739902525
2012-10-15,0,0.0,0.0,0.0,0.0,0.9883205419807896
2012-10-17,0,0.0,0.0,0.0,0.0,0.9883205419807896
2012-10-19,0,0.0,0.0,0.0,0.0,0.9883205419807896
2012-10-23,0,0.0,0.0,0.0,0.0,0.9868830444376834
2012-10-25,0,0.0,0.0,0.0,0.0,0.9868830444376834
2012-10-31,0,0.0,0.0,0.0,0.0,0.9867284747050091
2012-11-02,0,0.0,0.0,0.0,0.001287995925973238,0.9863263293012859
2012-11-06,1,0.0008265482625640155,0.0008924838056897016,0.0,0.001287995925973238,0.9867949902878023
2012-11-08,1,0.0004488607682764119,0.0004636461034004452,0.0,0.00016393817839075307,0.9967447808205986
2012-11-12,0,0.0,0.0,0.0,0.0,0.9967579938233673
2012-11-14,0,0.0,0.0,0.0,0.0,0.9967579938233673
2012-11-16,1,8.712065057847969e-05,0.00010139145455790788,0.0,0.0,0.9963862272516268
2012-11-20,0,0.0,0.0,0.0,0.0,0.9957932882927925
2012-11-23,1,0.0002506768676867688,0.0002545760576057607,0.0,0.0,0.9967551570019892
2012-11-27,1,0.0007010504050405037,0.0007627875787578754,0.0,0.0,0.9964373517249182
2012-11-29,1,0.00047642424242424185,0.0004925454545454538,-0.0016129093785440054,0.0,0.9956181828216419
2012-12-03,0,0.0,0.0,-0.0016129093785440054,0.0,0.9955336191307447
2012-12-05,-1,-0.0006601772744451661,-0.0005483315113675339,-0.006467398803133223,0.0,0.9946938947804841
2012-12-07,-1,-0.0007742073625047956,-0.0006408957319343695,-0.006467398803133223,0.0,0.9946624039653627
2012-12-11,0,0.0,0.0,-0.0016129093785440054,0.0,0.9941078485457515
2012-12-13,0,0.0,0.0,-0.0016129093785440054,0.0,0.9941078485457515
2012-12-17,0,0.0,0.0,0.0,0.0,0.9934768027083212
2012-12-19,0,0.0,0.0,0.0,0.0,0.9941181224332389
2012-12-21,-1,-0.00032703422674109923,-0.00032418541924325844,0.0,0.0,0.9940704842594287
2012-12-26,-1,-0.0002736501581372524,-0.0002632629691454363,0.0,0.0,0.9941120197705614
2012-12-28,-1,-0.00013456168093839473,-0.00010390966159299462,0.0,0.0,0.9953253915342631
2013-01-02,0,0.0,0.0,0.0,0.0,0.9958830369869022
2013-01-04,0,0.0,0.0,0.0,0.0,0.9961587334498743
2013-01-08,-1,-0.00026469579300421623,-0.00017710460587171063,0.0,0.00015625357627868652,0.9959391769682757
2013-01-10,-1,-7.11374438047435e-05,-5.749733480616061e-05,0.0,0.0,0.9978878625711248
2013-01-14,-1,-0.0003203037461674562,-0.0002782975648199924,0.0,0.0,0.9976801379457423
2013-01-16,-1,-0.00032312431482774085,-0.00028031906651668605,0.0,0.0,0.9986360435576787
2013-01-18,-1,-0.00069384798140965,-0.0006082062806406968,0.0,0.0,0.9983268933656537
2013-01-23,0,0.0,0.0,0.0,0.0,0.9976287969995112
2013-01-25,0,0.0,0.0,0.0,0.0,0.9976287969995112
2013-01-29,-1,-0.0005106655474946309,-0.00045603861021645536,0.0,0.0,0.9970509997732542
2013-01-31,0,0.0,0.0,0.0,0.001225407757817367,0.9944334076058738
2013-02-04,0,0.0,0.0,0.0,0.00015625357627868652,0.9948071866549794
2013-02-06,0,0.0,0.0,0.0,0.0,0.9948381146161597
2013-02-08,0,-0.00036836353476830366,0.0,0.0,0.0,0.9926545274577048
2013-02-12,-1,-0.00018240613386704833,-0.00017285995848717345,0.0,0.0,0.9926759979812004
2013-02-14,-1,-9.264204122778906e-05,-8.375990390822596e-05,0.0,0.0,0.9927552530562357
2013-02-19,0,0.0,0.0,0.0,0.0004409271934424884,0.9927457003057443
2013-02-21,0,0.0,0.0,0.0,0.0,0.9943179166872644
2013-02-25,0,0.0,0.0,0.0,0.0004409271934424884,0.9929852381140273
2013-02-27,0,0.0,0.0,0.0,0.0,0.993134474312181
2013-03-01,0,0.0,0.0,0.0,0.0,0.9951551842590176
2013-03-05,1,0.0008598519802693016,0.001162904081669683,0.0,0.0,0.992094380756644
2013-03-07,1,0.0009757852691844594,0.0012980750695421376,0.0,0.0,0.990279242689304
2013-03-11,1,0.0010867948666770685,0.0014271789096489743,0.0,0.0,0.9922095061711751
2013-03-13,1,0.0012119808390638413,0.001574833030659249,0.0,0.0,0.9921363806580648
2013-03-15,1,0.0013321282555161286,0.0017157507477871862,0.0,0.0,0.9920639446732683
2013-03-19,1,0.001444882235506451,0.0018471623994457639,0.0,0.0,0.9918980031141892
2013-03-21,0,0.0,0.0,0.0,0.0,0.9929264512780931
2013-03-25,0,0.0,0.0,0.0,0.0,0.9942589719553198
2013-03-27,-1,-0.0005574461415640224,-0.0005104921911686092,0.0,0.0,0.9932894960968114
2013-04-01,0,0.0,0.0,0.0,0.0,0.9936781576229249
2013-04-03,0,0.0,0.0,0.0,0.0,0.9959811236494455
2013-04-05,1,0.0007530666794337173,0.0007757966033765349,0.0,0.0,0.9971094386726054
2013-04-09,1,0.0006692640851409728,0.0006776729265328459,0.0,0.0,0.9971998849026493
2013-04-11,1,0.000580915946542176,0.0005866566761704621,0.0,0.0,0.997289073535598
2013-04-15,0,0.0,0.0,0.0,0.0,0.9935460131787168
2013-04-17,1,0.5725057910977254,0.5763527472518744,0.0,0.0,0.6354967220416368
2013-04-19,-1,-0.00041080339295907023,-0.00037591250842937066,-0.0007331266759218759,0.0,0.9919968604864564
2013-04-23,-1,-0.0003709605048632078,-0.0003410586951186644,-0.0007331266759218759,0.0,0.9906094453306005
2013-04-25,0,0.0,0.0,0.0,0.0,0.9913259089689803
2013-04-29,0,0.0,0.0,0.0,0.0,0.9913609076677634
2013-05-01,1,5.63146109788397e-05,5.897089595694408e-05,0.0,0.0,0.9914601942321583
2013-05-03,0,0.0,0.0,0.0,0.0,0.9915050314761917
2013-05-07,1,2.7391254488819675e-05,5.177794718202661e-05,0.0,0.0,0.9914784427208132
2013-05-09,1,4.256706737482134e-05,6.95631758583815e-05,0.0,0.0,0.9914659682323957
2013-05-13,0,0.0,0.0,0.0,0.0,0.9943966537763397
2013-05-15,0,0.0,0.0,0.0,0.0,0.9936701080187136
2013-05-17,0,0.0,0.0,0.0,0.0,0.9950433647516804
2013-05-21,0,0.0,0.0,0.0,0.0,0.9964598229446273
2013-05-23,0,0.0,0.0,0.0,0.0,0.9964598229446273
2013-05-28,0,0.0,0.0,0.0,0.0,0.9978408066578622
2013-05-30,0,0.0,0.0,0.0,0.0,0.9971198161928444
2013-06-03,-1,-0.07624342671410021,-0.07555745344350687,0.0,0.0,0.929426939126301
2013-06-05,0,0.0,0.0,0.0,0.0,0.9971198161928444
2013-06-07,0,0.0,0.0,0.0,0.0,0.9971198161928444
2013-06-11,0,0.0,0.0,0.0,0.0,0.9985421964948871
2013-06-13,0,0.0,0.0,0.0,0.0,0.9978798674848331
2013-06-17,0,0.0,0.0,0.0,0.0,0.9978798674848331
2013-06-19,1,0.00011544607640349012,0.00014727306448875866,0.0,0.0,0.9944957014924437
2013-06-21,0,0.0,0.0,0.0,0.0,0.9941696158059912
2013-06-25,0,0.0,0.0,0.0,0.0,0.9941696158059912
2013-06-27,0,0.0,0.0,0.0,0.0,0.994831357584778
2013-07-01,0,0.0,0.0,0.0,0.0,0.9935395073792557
2013-07-03,0,0.0,0.0,0.0,0.0,0.9935395073792557
2013-07-08,0,0.0,0.0,0.0,0.0,0.9921883562048583
2013-07-10,0,0.0,0.0,0.0,0.0,0.9921609956397874
2013-07-12,0,0.0,0.0,0.0,0.0,0.9935410487417363
2013-07-16,0,0.0,0.0,0.0,0.0,0.9935410487417363
2013-07-18,0,0.0,0.0,0.0,0.0,0.9968358210974821
2013-07-22,0,0.0,0.0,0.0,0.0,0.9972466015221324
2013-07-24,0,0.0,0.0,0.0,0.0,0.9972466015221324
2013-07-26,0,0.0,0.0,0.0,0.0,0.99730185589158
2013-07-30,0,0.0,0.0,0.0,0.0,0.9986035150220898
2013-08-01,-1,-0.0004416228812992929,-0.0003777293852637196,0.0,0.0,0.9981951493670356
2013-08-05,-1,-0.00015552922588613608,-0.00014643421153270102,0.0,0.0,0.999821256381339
2013-08-07,-1,-0.00012656816150416494,-0.00012130718790049849,0.0,0.0,0.9998760776839413
2013-08-09,-1,-0.00012413059936278485,-0.00011968595673084162,0.0,0.0,0.9998781065817699
2013-08-13,-1,-0.00010955495470586952,-0.00010725405857692308,0.0,0.0,0.999891607243622
2013-08-15,-1,-0.00010597265048622399,-0.0001032419440388522,0.0,0.0,0.9986579279617195
2013-08-19,-1,-7.372249823679072e-05,-7.051846338784042e-05,0.0,0.0,0.9985525587244912
2013-08-21,-1,-9.523335036939242e-05,-9.443845880139636e-05,0.0,0.0,0.9985339841509239
2013-08-23,-1,-0.000342984978612064,-0.0002901703312771762,0.0,0.0,0.998366965929926
2013-08-27,-1,-1.7398565872664622e-05,-4.6943401622285506e-06,0.0,0.0,0.9971256000431342
2013-08-29,0,-7.086285063058946e-06,7.46459396833017e-06,0.0,0.0,0.9948784890866279
2013-09-03,1,1.6524010105055376e-05,3.47406703136703e-05,0.0,0.0,0.9948597705577722
2013-09-05,1,2.814653252456446e-05,4.836980723341041e-05,0.0,0.0,0.9927343793787083
2013-09-09,1,3.240125650938489e-05,5.367554784471147e-05,0.0,0.0,0.9927302430561552
2013-09-11,1,4.448932154036604e-05,6.784333313506098e-05,0.0,0.0,0.9927188041763862
2013-09-13,-1,-3.271333967753419e-05,-1.908480524468813e-05,0.0,0.0,0.9932321749062573
2013-09-17,-1,-1.6847449491113313e-05,-2.294090822531098e-06,0.0,0.0,0.9926696399937668
2013-09-19,-1,-0.0002492908499899223,-0.00021650829407194217,0.0,0.0,0.991073914983966
2013-09-23,-1,-4.608741776136355e-05,-3.719756652453069e-05,0.0,0.0008828644312929568,0.990364381387354
2013-09-25,-1,-0.00013848507254608696,-0.0001360670642090627,0.0,0.0008828644312929568,0.9905163996194531
2013-09-27,-1,-0.00012424459159911662,-0.00012270180690509218,0.0,0.0008828644312929568,0.9920687181621518
2013-10-01,-1,-0.00010850272160992718,-0.00010846369970583817,-0.0007042146064865757,0.0008828644312929568,0.9911881789588355
2013-10-03,-1,-6.946187741114429e-05,-6.054922181937128e-05,0.0,0.0008828644312929568,0.993313915835164
2013-10-07,-1,-5.957929988240543e-05,-5.186646092791032e-05,-0.0007042146064865757,0.0008828644312929568,0.9928367284342221
2013-10-09,-1,-0.00022614845416886944,-0.0001914017466674061,-0.0029949889068477094,0.0008828644312929568,0.9926201129506981
2013-10-11,1,0.0021828814195134012,0.0025098077705282586,-0.0029949889068477094,0.0,0.9918787695385486
2013-10-15,1,0.0008851230514363188,0.00100409389218189,-0.0029949889068477094,0.0,0.9931988674142382
2013-10-17,1,0.0008100801533769451,0.0009145903255046428,-0.0029949889068477094,0.0,0.9945448460957396
2013-10-21,1,0.000987836605058624,0.0011111641201919749,-0.0017683665317094013,0.0,0.9951530095075479
2013-10-23,1,0.00037098506197883775,0.00041359520141928105,-0.0007380896800782162,0.0,0.9969205768105573
2013-10-25,1,0.0007691013956559841,0.0008629098829508201,-0.0007380896800782162,0.0,0.9971953388088357
2013-10-29,1,0.0006443425263513693,0.0007206092147267635,-0.0005905940976926413,0.0,0.9981943779626874
2013-10-31,1,0.0005713797956810873,0.000637205124626861,-0.0005905940976926413,0.0,0.9982634535670255
2013-11-04,1,0.00046775529558638266,0.0005288808790976038,-0.00014758306621258109,0.0,0.9987592992208909
2013-11-06,1,0.0003850040807844321,0.00043472953162884584,0.0,0.0,0.9989014581148684
2013-11-08,1,0.0005488836632473906,0.0006198974178321809,0.0,0.0,0.9981447662833045
2013-11-12,-1,-0.0005646354399822559,-0.0004965780424310028,0.0,0.0,0.997097017819917
2013-11-14,-1,-0.0005616081745255979,-0.0004940320610890305,0.0,0.0,0.9970997743311893
2013-11-18,-1,-0.0003008750675116745,-0.00026692459808349243,0.0,0.0,0.9972874813795664
2013-11-20,-1,-0.0002927842112762228,-0.00026008817846207146,0.0,0.0007374518408557885,0.996429071063083
2013-11-22,-1,-0.0002823436661472652,-0.00025118677156656257,0.0,0.0007374518408557885,0.9964364631952412
2013-11-26,-1,-0.00026519876588585367,-0.00023633646538154685,0.0,0.005352906407794948,0.9951873249968562
2013-11-29,-1,-0.0004932551426788073,-0.0004353114235130265,0.0,0.012637546112164673,0.9910143153369567
2013-12-03,-1,-0.000775610197780462,-0.0006771021329105665,0.0,0.012637546112164673,0.9894500781587006
2013-12-05,-1,-0.0007358141791417873,-0.0006426661112993536,0.0,0.012637546112164673,0.9896185289594976
2013-12-09,-1,-0.0004304632616107019,-0.00039058792298163125,0.0,0.00732388086581493,0.9882466199471248
2013-12-11,-1,-0.0011367307013105828,-0.0009706683059603537,0.0,0.00732388086581493,0.985168400896056
2013-12-13,-1,-0.00047165034680798435,-0.000404432600807242,0.0,0.012637546112164673,0.9838085585139739
2013-12-17,-1,-0.00045658816200748947,-0.0003891281588569671,-0.006578947368421052,0.012637546112164673,0.9822379850005547
2013-12-19,-1,-0.0004891896225281725,-0.00042662585610187757,-0.02784495536836757,0.012637546112164673,0.9787423286919694
2013-12-23,-1,-0.00040441456467343574,-0.0003518896418792515,-0.02784495536836757,0.01840301010727538,0.976873097155471
2013-12-26,-1,-0.0006544062709378632,-0.0005604841969589309,-0.0327277062969772,0.012885617909199351,0.9764210586288445
2013-12-30,-1,-0.00021233691586052735,-0.00017000099461777463,-0.0327277062969772,0.0013966534022465157,0.9804159299610671
2014-01-02,-1,-0.0011006666946528313,-0.0009541956511091045,-0.008403366507663962,0.0013966534022465157,0.9815933655413948
2014-01-06,-1,-0.0010812112212881802,-0.0009374883858406191,-0.008403366507663962,0.0013966534022465157,0.981601031280991
2014-01-08,-1,-0.0006970866831096795,-0.0005991040388128521,0.0,0.007699022586289521,0.9824834144146491
2014-01-10,-1,-0.0008503013844470969,-0.0007345961356054205,0.0,0.0,0.9858736923570363
2014-01-14,-1,-0.0011714747002336458,-0.0010191816078183845,0.0,0.0,0.9871232665226771
2014-01-16,-1,-0.0009348552156308162,-0.0008106797335046458,0.0,0.0,0.9878026851650522
2014-01-21,-1,-0.0014340377060286101,-0.0012494048549993235,0.0,0.0,0.9897903784923606
2014-01-23,-1,-0.0007825811147146534,-0.0006691989093889318,0.0,0.0,0.9906772101291729
2014-01-27,-1,-0.0002578156189679587,-0.0002047828549366136,0.0,0.0,0.9914355925234251
2014-01-29,-1,-0.00027409117925509977,-0.00021866119170397427,0.0,0.0,0.9914274944208542
2014-01-31,-1,-0.0002903864495106373,-0.00023255634662969655,0.0,0.0,0.9914193866368275
2014-02-04,-1,-0.0003065141311515282,-0.00024631780470937554,0.0,0.0,0.9914113566042103
2014-02-06,-1,-0.0005910058318228397,-0.0005156431634264088,0.0,0.0,0.992739846771425
2014-02-10,-1,-0.00033178236219731107,-0.00028993649757881135,0.0,0.0,0.9935058776445292
2014-02-12,-1,-0.0004067495759566506,-0.0003560509128424929,0.0,0.0,0.9927223493353737
2014-02-14,-1,-4.566792567038944e-05,-3.7322099683671656e-05,0.0,0.0,0.9939981511451497
2014-02-19,1,0.00019763320030353185,0.00024700671553289295,0.0,0.0,0.9952811697801892
2014-02-21,-1,-0.0006984306768711318,-0.0006014435164145035,0.0,0.0,0.9964087845534031
2014-02-25,-1,-0.00026563595351809896,-0.00021896713956578138,0.0,0.0,0.9957708554770228
2014-02-27,1,0.00014306740223538696,0.00018622816298653115,0.0,0.0001448468822309481,0.9957514593044249
2014-03-03,1,0.00016123129065375743,0.0002077136611162581,0.0,0.0001448468822309481,0.9957429311222727
2014-03-05,1,0.00017565380113211297,0.00022461118645156984,0.0,0.0001448468822309481,0.9957361363626761
2014-03-07,1,0.00025685215905152424,0.00032476611984022334,0.0,0.0006963681745877418,0.9906705908395841
2014-03-11,-1,-2.2790491331381224e-05,-2.0436516798742827e-05,0.0,0.0006963681745877418,0.9907727669069144
2014-03-13,-1,-0.00018169154640329928,-0.0001571590692405486,0.0,0.0006963681745877418,0.9898529158764638
2014-03-17,-1,-7.692391527151519e-05,-7.109812321222329e-05,0.0,0.0006963681745877418,0.9877899065987327
2014-03-19,1,0.00016329261396898844,0.00020960335774603144,0.0,0.0006963681745877418,0.9885672711180769
2014-03-21,-1,-0.00010444484423132301,-8.840177644167218e-05,0.0,0.0006963681745877418,0.9885787574566379
2014-03-25,-1,-0.0002701429789883109,-0.00024035150312515127,0.0,0.0,0.9884860382661907
2014-03-27,-1,-0.00019768384786643048,-0.00017472552103351574,0.0,0.0,0.9886603820140897
2014-03-31,-1,-0.0001715346205691214,-0.0001533849409920388,0.0,0.0,0.9886727246042413
2014-04-02,-1,-0.0001427433866197836,-0.00013086610936770583,0.0,0.0,0.9886857058318934
2014-04-04,-1,-0.00037572396730572484,-0.0003384852752005659,0.0,0.0,0.9935623031784813
2014-04-08,-1,-0.0004667794125789692,-0.000415248143704264,0.0,0.0,0.9922654788798915
2014-04-10,-1,-0.00042393698374390483,-0.0003776543124950653,0.0,0.0,0.9929674095305262
2014-04-14,-1,-0.00025390280607213425,-0.00022653608198414362,0.0,0.0,0.9952013713787772
2014-04-16,-1,-0.0002431364954180453,-0.00021731693587793592,0.0,0.0,0.9947930220908319
2014-04-21,-1,-0.00020752598374978494,-0.0001851916543488329,0.0,0.0,0.9944281544401171
2014-04-23,1,0.00029250323556242,0.00033315331448305444,0.0,0.0,0.9960605068551568
2014-04-25,-1,-0.00011088675023431793,-9.945324042285586e-05,0.0,0.0,0.9961856298055825
2014-04-29,-1,-1.6280612306267606e-05,-1.5046842460739871e-05,0.0,0.0,0.9961169472148876
2014-05-01,1,0.00018491161294774573,0.00020994250533963598,0.0,0.000694433848063151,0.9953544358261825
2014-05-05,-1,-0.00013557585912271194,-0.00011991220744323175,0.0,0.000694433848063151,0.9953441378220083
2014-05-07,1,9.788811044224416e-05,0.00011905825324537572,0.0,0.0,0.9958219936962861
2014-05-09,1,0.00017091392010122098,0.00019385631264095155,0.0,0.0,0.99694403040234
2014-05-13,-1,-0.00014257318329516052,-0.00012631901523940515,0.0,0.0,0.9961970514256181
2014-05-15,-1,-0.00016368879094812454,-0.00014402786179688176,0.0,0.0,0.996603774645383
2014-05-19,-1,-0.00016958706404674275,-0.00014925478667671615,0.0,0.000694433848063151,0.9961577534358574
2014-05-21,-1,-0.00016102239663771904,-0.0001431935253505328,0.0,0.0,0.9964576842383153
2014-05-23,1,7.811447261446477e-05,0.00011328353326643679,-0.0002777841356065538,0.0,0.9962205636581728
2014-05-28,-1,-0.00013736948335776633,-0.00012041431488445133,-0.0002777841356065538,0.0,0.996346330215052
2014-05-30,-1,-8.506098387343639e-05,-7.429839351171647e-05,-0.0002777841356065538,0.0,0.9970563053523315
2014-06-03,-1,-0.0001102470465727867,-8.71850090218946e-05,-0.0015277862548828125,0.0,0.9966450419645884
2014-06-05,-1,-0.00023287143148857667,-0.00018694977462731225,-0.0002777841356065538,0.0,0.9969812931086453
2014-06-09,-1,-2.157861321981813e-05,-1.544427433122515e-05,0.0,0.0,0.997113851486039
2014-06-11,-1,-0.0005113031768028771,-0.0004255800495671109,0.0,0.0,0.9973682158429796
2014-06-13,-1,-0.0006092064099303029,-0.0004934571576188255,0.0,0.0006963681745877418,0.9971895184257318
2014-06-17,1,0.00017896010012341746,0.00019380131978544504,0.0,0.0,0.9980761067169175
2014-06-19,-1,-0.00035319202150970206,-0.00026544514302884257,0.0,0.0002785313309892604,0.9980731579881793
2014-06-23,-1,-0.0005157512554357948,-0.0004079126501439795,0.0,0.0015339340135650157,0.9977774760833952
2014-06-25,-1,-0.0006088901490985544,-0.0004839307733884859,0.0,0.0028010776466117957,0.9948529323525773
2014-06-27,-1,-0.0006420643398838319,-0.0005124890250776132,0.0,0.0028010776466117957,0.9947548503398302
2014-07-01,-1,-0.00042976517057688327,-0.00036024478754494556,0.0,0.0028010776466117957,0.9950735772444909
2014-07-03,-1,-0.0004479817631419354,-0.00035826157269491543,0.0,0.0027952894734446527,0.9954930600077612
2014-07-08,-1,-0.0003836063719297114,-0.0003078362093101466,0.0,0.0028010776466117957,0.9953727093475628
2014-07-10,-1,-0.0007997543134928252,-0.0006431770634264372,0.0,0.0027952894734446527,0.9953270151716914
2014-07-14,-1,-0.0008083219515563197,-0.0006451589690256866,0.0,0.0018794694633929535,0.9953916519809407
2014-07-16,-1,-0.00027801299448119694,-0.00021421896337208356,0.0,0.0012293038072330208,0.9952138483403705
2014-07-18,-1,-0.0007872885077223729,-0.00062189684580426,0.0,0.00039370981426523966,0.9950304928761274
2014-07-22,-1,-0.0007816687926983986,-0.0006153949589712827,0.0,0.0,0.9954235167388376
2014-07-24,1,0.0010200595465652187,0.0010665627233686925,0.0,0.0,0.9969883555373629
2014-07-28,1,0.0009662053271410982,0.0010016995192050607,0.0,0.0,0.9968416676511843
2014-07-30,1,0.0007440878307793803,0.0007485579601714191,0.0,0.0,0.9964275293242651
2014-08-01,1,0.0006369555363354616,0.0006488595077378877,0.0,0.0,0.996511077037763
2014-08-05,1,0.000873279070540026,0.0009098050855825764,0.0,0.0,0.9957221567838392
2014-08-07,1,0.0007765562182542015,0.0007977651825760159,0.0,0.0,0.9957905283235998
2014-08-11,1,0.00026553003638733123,0.0003372516286149365,0.0,0.0,0.9962974871675045
2014-08-13,-1,-0.0002862172375266864,-0.00014689704875065624,0.0,0.0,0.9969955500720088
2014-08-15,1,0.0004594658894022923,0.00047667333924463666,0.0,0.0,0.9968204562122375
2014-08-19,1,0.00045589539454537375,0.0004758980565911941,0.0,0.0,0.996822713112743
2014-08-21,-1,-0.00018657714180717624,-0.00012777960366150057,0.0,0.0,0.9976933187640106
2014-08-25,-1,-4.499022294242823e-05,-1.59155808018133e-06,0.0,0.0,0.998081548475403
2014-08-27,1,0.0008705174657162228,0.0010908863205348655,0.0,0.0,0.9978744927433418
2014-08-29,1,0.0009195257283228969,0.00114790035164089,0.0,0.0,0.997833776017653
2014-09-03,1,0.0012992110346610707,0.0015695469684642751,0.0,0.0,0.9964223817793417
2014-09-05,1,0.0008325603311503422,0.0009797978819677123,0.0,0.0,0.9968823566362766
2014-09-09,1,0.0007381087538660766,0.0008686289920786188,0.0,0.0,0.9953386637455873
2014-09-11,1,0.0007411424043487894,0.0008721854960952017,0.0,0.0,0.9953361503535677
2014-09-15,1,0.00011854254385240928,0.0001297855619512167,0.0,0.0,0.9958548516696702
2014-09-17,1,8.82096903510353e-05,0.00010390308850023738,0.0,0.0,0.995877988561417
2014-09-19,1,0.00016858745507478538,0.0001752124624358632,0.0,0.0,0.9932962827517631
2014-09-23,1,0.00012630299752080265,0.00013703173879499864,0.0,0.0,0.9926676066793108
2014-09-25,-1,-8.108428958418084e-05,-4.527966758102656e-05,0.0,0.0,0.9918818872085453
2014-09-29,1,0.00019420944601862566,0.0002193973768121766,0.0,0.0,0.9917364400678311
2014-10-01,-1,-0.0008897284238248838,-0.0007578642835284392,0.0,0.0,0.9928804012118099
2014-10-03,-1,-0.0008909451699330338,-0.0007589027883549039,0.0,0.0,0.9928795452044907
2014-10-07,1,1.9876262477683683e-05,3.6895683820062375e-05,0.0,0.0,0.9951886324503004
2014-10-09,-1,-0.00012073547137863181,-7.737370371504376e-05,0.0,0.0,0.9933664846105587
2014-10-13,-1,-3.0172821071055298e-05,-3.986049617209049e-06,0.0,0.0,0.993409312409261
2014-10-15,-1,-5.322260885374063e-05,-2.3654015254172194e-05,0.0,0.0,0.9933977897579874
2014-10-17,1,0.0006482124904900806,0.0007096826850870382,0.0,0.0,0.9956954715917906
2014-10-21,1,0.0011106063216729765,0.0012505337395625068,0.0,0.0,0.9954688963964615
2014-10-23,1,0.0016090779016384059,0.001813302403822584,0.0,0.0,0.9962252830365932
2014-10-27,1,0.001280859132741767,0.0014171550428894023,0.0,0.0,0.9965343509986597
2014-10-29,1,0.0011995094527726623,0.0013210327328646632,0.0,0.0,0.9963348676138007
2014-10-31,1,0.0009685630007676063,0.0010343294421926179,0.0,0.0,0.996499889903789
2014-11-04,1,0.0009022576239730204,0.0009561647250793002,0.0,0.0,0.9965217414008142
2014-11-06,1,0.0002170103971666278,0.00023191295346724474,0.0,0.0,0.9988035451979062
2014-11-10,1,0.0001225430635226826,0.00015354348665104806,0.0,0.0,0.998348821465847
2014-11-12,0,-1.6501693299813728e-05,3.653235450763918e-05,0.0,0.0,0.9977825494763257
2014-11-14,-1,-7.012864293008428e-05,-9.216670833838228e-06,0.0,0.0,0.9977613309296443
2014-11-18,1,0.00019882416908923025,0.00023011510232732782,0.0,0.0,0.9982696906605113
2014-11-20,1,6.837892036363303e-05,0.00012645993495966496,0.0,0.0,0.997850555246156
2014-11-24,1,0.000126227288050618,0.00016992217538553593,0.0,0.0,0.9978074927961315
2014-11-26,0,-6.592228957955974e-05,2.044879042210695e-06,0.0,0.0,0.9981490085483755
2014-12-01,-1,-0.0001282267754422033,-5.030265272740856e-05,0.0,0.0,0.9981029790123342
2014-12-03,-1,-0.00014742689977068703,-6.875958737351376e-05,0.0,0.0,0.9980784081170134
2014-12-05,-1,-0.00016536400312910004,-8.623235729737487e-05,0.0,0.0,0.997911081515298
2014-12-09,-1,-0.0004684403430405147,-0.00035358032551814975,0.0,0.0,0.9981568655879459
2014-12-11,-1,-0.00016633328620719928,-8.760553380904399e-05,0.0,0.0,0.998045490067746
2014-12-15,1,0.00044030074174913306,0.0005063789709240278,0.0,0.0,0.9973402989088007
2014-12-17,1,0.00044839910733531044,0.0005169116284033141,0.0,0.0,0.9973344626698548
2014-12-19,1,0.0006372184924270628,0.0007259335149785032,0.0,0.0,0.9969640879232661
2014-12-23,1,0.0006208301981248044,0.000706737603414593,0.0,0.0,0.996410704020527
2014-12-26,1,0.0006234002527198318,0.0007122869221611773,0.0,0.0006426636902222742,0.9962293786010147
2014-12-30,1,0.0006105071022274107,0.0006971400757325571,0.0,0.0025318035932330113,0.9961794237365865
2015-01-02,1,0.0005576879958350768,0.0006334159602963421,0.0,0.0025318035932330113,0.9960985547132242
2015-01-06,1,0.0004654498425422451,0.0005142800827929152,0.0,0.0025318035932330113,0.9959817754085053
2015-01-08,1,0.00041875592404361337,0.00046115703894627005,-0.0002506322932180804,0.0025318035932330113,0.994929747188482
2015-01-12,1,0.000684470299147447,0.0007614828760953327,-0.0002506322932180804,0.0025318035932330113,0.9947541238845071
2015-01-14,1,0.0003323422343212707,0.0003451440374015316,0.0,0.0025318035932330113,0.9953745145681586
2015-01-16,1,0.00034852050183996114,0.00036672248510573823,-0.0013800280105462318,0.0025318035932330113,0.9945464334489468
2015-01-21,-1,-5.325944219948135e-05,-6.807034766048443e-06,-0.0013800280105462318,0.0006297133010035791,0.9953150276863374
2015-01-23,1,0.0001303679203328544,0.00015667680224674247,-0.0013800280105462318,0.0006297133010035791,0.9946619807065399
2015-01-27,1,0.0003261853115019869,0.0003381361828623983,-0.0013800280105462318,0.0,0.9947799954935321
2015-01-29,1,0.0003286385093481133,0.0003395691157008604,-0.0013800280105462318,0.0,0.9948783776697564
2015-02-02,1,0.00025700357924536826,0.0002570461222556998,-0.0002506322932180804,0.0,0.9950448930168001
2015-02-04,1,0.0002820492027870349,0.00028388499666560875,0.0,0.0,0.9953010351371436
2015-02-06,-1,-0.00011730722175227784,-7.131709583624898e-05,0.0,0.0,0.994134936303158
2015-02-10,1,0.00017656303963650515,0.0001829324366015145,0.0,0.0,0.9951560375147238
2015-02-12,1,0.00018177425209107683,0.0001851045575704244,0.0,0.0,0.995152670461704
2015-02-17,-1,-4.741902250516669e-05,-2.5295283091807613e-05,0.0,0.0,0.9921865855846913
2015-02-19,-1,-0.00015123151845726057,-0.00011303253722555928,0.0,0.0,0.9923489433209186
2015-02-23,1,4.9768447673725966e-05,6.507533372994725e-05,0.0,0.0,0.993633574112152
2015-02-25,-1,-0.0001078613687432918,-6.98508749249161e-05,0.0,0.0,0.9918137451855235
2015-02-27,-1,-0.00011844799463030768,-8.049321476042859e-05,0.0,0.0,0.9918289602143683
2015-03-03,0,-1.856296873866306e-05,3.6596350583880787e-07,0.0,0.0,0.9914148464674661
2015-03-05,-1,-3.5756094350697734e-05,-1.4292341755959183e-05,0.0,0.0,0.9914015692526229
2015-03-09,1,0.00024344447275168155,0.00025529867776385344,0.0,0.0,0.9931041538614676
2015-03-11,1,0.00021913920718884426,0.0002269727433834946,0.0,0.0,0.9931241660559841
2015-03-13,1,0.0002422995710302065,0.000264815762500851,0.0,0.0,0.993102843417785
2015-03-17,-1,-0.00011916459639239841,-0.00010015569789434813,0.0,0.0,0.9966062348801685
2015-03-19,-1,-8.143744984159468e-05,-8.060152716084599e-05,0.0,0.0,0.996482539986872
2015-03-23,0,-5.85348571869702e-06,2.129817994041352e-05,0.0,0.0007425676197555673,0.9963355235466398
2015-03-25,-1,-8.312148793356712e-05,-7.298353115064494e-05,0.0,0.0007425676197555673,0.9969686536402069
2015-03-27,1,8.964832135192675e-05,0.00013075841383395275,0.0,0.0033382674146854438,0.9959376014979088
2015-03-31,1,0.00010580983731311518,0.00014572921257226772,0.0,0.0033382674146854438,0.9958667296086898
2015-04-02,1,4.0800787349691794e-05,7.587470426123173e-05,0.0,0.0033382674146854438,0.9953378440669564
2015-04-07,1,2.69412941383936e-05,2.7980174211203334e-05,0.0,0.0033382674146854438,0.994078923755466
2015-04-09,1,2.0138094244705606e-05,2.240250548972468e-05,0.0,0.0033382674146854438,0.9940819061182576
2015-04-13,-1,-3.9136703049283056e-05,-1.8317930102381806e-05,0.0,0.00583170320299939,0.9902498511138492
2015-04-15,1,0.0002498833329820424,0.0002836980506519973,0.0,0.0033382674146854438,0.9902166471509287
2015-04-17,1,0.00012707110269579152,0.00013340238956477198,0.0,0.001110564555418742,0.9903908795225415
2015-04-21,1,0.00033512671997601657,0.000367217010783252,-0.0011363679712468524,0.0,0.9888943034800872
2015-04-23,1,0.000521444041711875,0.0005640084823768155,-0.0011363679712468524,0.0,0.9898115144467217
2015-04-27,1,0.0007722721060180581,0.0008462462139149855,-0.005692195912308431,0.0,0.9899119865738841
2015-04-29,1,0.0008689532205745155,0.0009540175125886013,-0.005692195912308431,0.0,0.9902906434788629
2015-05-01,1,0.0006703785289645411,0.0007272694151239691,-0.0011363679712468524,0.0,0.9906230670172
2015-05-05,1,5.663229570925462e-05,8.837381160925562e-05,0.0,0.0,0.9919252492439383
2015-05-07,1,0.00014371232254877745,0.00015664886962626635,0.0,0.000588226318359375,0.9886888352808495
2015-05-11,1,0.0009708721688695186,0.0010667364852600604,0.0,0.000588226318359375,0.9892732400782497
2015-05-13,1,0.0009245075661573397,0.0010067289682831283,0.0,0.0041801239818833255,0.9888199516994108
2015-05-15,1,0.0009648112847022859,0.0010621778900734647,0.0,0.0041801239818833255,0.9888077740281238
2015-05-19,1,0.00044971179016767233,0.00047737135976161284,0.0,0.0041801239818833255,0.9905728749713845
2015-05-21,1,0.00034407002958741556,0.00036169404894602,0.0,0.0041801239818833255,0.9865912262434356
2015-05-26,1,0.00012453439528488673,0.00013507668178996122,0.0,0.010024112858193381,0.9863078124966628
2015-05-28,1,8.981720227505606e-05,0.00010565154739530794,0.0,0.010024112858193381,0.9863196380005054
2015-06-01,1,0.00021498218415827853,0.0002151785838746684,0.0,0.006795663088391518,0.9862713038918752
2015-06-03,1,0.00041083896019286897,0.000435142481518948,-0.004449421754043518,0.0013392951035379132,0.9865903150925125
2015-06-05,1,0.0012749407406013411,0.0014271645852356662,-0.004449421754043518,0.0,0.9892307502898766
2015-06-09,1,0.001841031827598877,0.002058311847297107,-0.004449421754043518,0.0005580484962130642,0.9916057665161593
2015-06-11,1,0.002010332383110837,0.0022468503565471723,-0.004449421754043518,0.0,0.9923215477122498
2015-06-15,1,0.0018036075671534761,0.0020009812270304285,-0.004680385605324103,0.0,0.9916808265370199
2015-06-17,1,0.0018092378681381256,0.002012856708008441,-0.004680385605324103,0.0005580484962130642,0.9915435383840895
2015-06-19,1,0.0008131285509470396,0.0008864076889529305,-0.001111115349663589,0.0005580484962130642,0.9960800312069308
2015-06-23,1,0.0007662382502621589,0.0008335372038186018,-0.001111115349663589,0.0,0.996000767826463
2015-06-25,1,0.0007543169273930655,0.000813399987049349,-0.004449421754043518,0.0,0.9944137442538874
2015-06-29,1,0.0007499143935668591,0.0008088702207338421,-0.0011160757050527508,0.0005580484962130642,0.9939269079420129
2015-07-01,1,0.0004129332618241303,0.000416012991492888,0.0,0.0005580484962130642,0.994569501545749
2015-07-06,1,0.0005180262763230032,0.0005424526874050388,0.0,0.0005580484962130642,0.9945205827882483
2015-07-08,1,0.0005507989252138187,0.0005775078478308147,0.0,0.0,0.9947219642421073
2015-07-10,1,0.00036965472242317794,0.00037996259458774906,-0.0017605589659984678,0.0,0.9940405952615696
2015-07-14,1,4.256086394489796e-05,9.549076711974337e-05,0.0,0.0,0.9946940852996625
2015-07-16,1,0.0002819764871730456,0.0002933014287361572,0.0,0.0,0.9946539569550692
2015-07-20,1,0.00022599989309762328,0.00024550107381258074,-0.0017605589659984678,0.0,0.9942253634086746
2015-07-22,-1,-0.0001338494939329731,-7.14443227536781e-05,0.0,0.0005896136233630766,0.9953138732700142
2015-07-24,-1,-0.0006192002335549717,-0.0004991575168695012,0.0,0.0005896136233630766,0.9963072494935793
2015-07-28,-1,-0.00035425859870125,-0.00026409783015024946,0.0,0.0,0.9975063651481437
2015-07-30,1,8.730449407754913e-06,2.6628726687304735e-05,0.0,0.0,0.9976532172811859
2015-08-03,0,-1.158949354468868e-05,9.296352006111217e-06,0.0,0.0,0.9975458973905597
2015-08-05,-1,-3.1922706971105325e-05,-8.047346129430157e-06,0.0,0.0,0.9975389098908649
2015-08-07,-1,-0.001244810645171551,-0.00100435181092414,0.0,0.0,0.9975061471083284
2015-08-11,-1,-0.0011704265702190066,-0.0009374399615037447,0.0,0.0,0.9973335319604298
2015-08-13,-1,-0.0011388860970934305,-0.0009086148043118992,0.0,0.0,0.9966094029152975
2015-08-17,-1,-0.001025665091979028,-0.000834945842888696,0.0,0.0001191638357963708,0.9969870914307369
2015-08-19,-1,-0.0010245680620236163,-0.0008326674517732255,0.0,0.0,0.9971058082631853
2015-08-21,-1,-0.0010756000403710506,-0.000886052950609043,0.0,0.0001191070627784863,0.99728370010699
2015-08-25,-1,-0.0011103785828961434,-0.0009156956628589418,0.0,0.0001191070627784863,0.9972590398400859
2015-08-27,-1,-0.001258469509557505,-0.0010363909493560038,0.0,0.0001191070627784863,0.9971572866527272
2015-08-31,-1,-0.0012537114580153529,-0.001031006389999318,0.0,0.0,0.9972792625566137
2015-09-02,-1,-0.0012961214058577562,-0.001067153640768822,0.0,0.0001191070627784863,0.9970124596819362
2015-09-04,-1,-0.001233570261951257,-0.0010191784720666322,0.0,0.0001191070627784863,0.9969469016371738
2015-09-09,-1,-0.0013707843424554246,-0.0011285817955998677,0.0,0.0001191070627784863,0.9938877794206633
2015-09-11,-1,-0.0016441820918027552,-0.0013733257047089413,0.0,0.000111113654242661,0.9946043219162443
2015-09-15,-1,-0.001256398045766157,-0.0010582546628534664,0.0,0.000111113654242661,0.9911371665987365
2015-09-17,-1,-0.0010448461647225044,-0.000891341902748418,0.0,0.0004524480255064693,0.9873166943026997
2015-09-21,-1,-0.0008761291212647602,-0.0007544999451401537,0.0,0.000111113654242661,0.9874358393753891
2015-09-23,-1,-0.0010193814330371376,-0.0008693822844207573,0.0,0.000111113654242661,0.9873551797917921
2015-09-25,-1,-0.0012494242362568017,-0.0010462807997467713,-0.0015180314952023448,0.000111113654242661,0.9833931215861716
2015-09-29,-1,-0.0013005093406451068,-0.0010894012817061196,-0.0015180314952023448,0.001523821694510442,0.9828242485086579
2015-10-01,-1,-0.0003689391983720472,-0.0003280466755920709,-0.0015180314952023448,0.000111113654242661,0.9833910987836085
2015-10-05,-1,-0.0005131234335598463,-0.0004489409363610078,-0.0031421816376619063,0.000111113654242661,0.982703668111437
2015-10-07,1,0.0005256939274615273,0.0005897952014411877,-0.0031421816376619063,0.0,0.9860111187686638
2015-10-09,1,0.0002532183771630398,0.0002533757649512843,-0.0028089887640449437,0.0,0.9853368114446346
2015-10-13,1,0.000544911520168101,0.0005823810004595273,0.0,0.0,0.9889920016947696
2015-10-15,1,0.0011299642805760182,0.001223154412757879,0.0,0.0,0.9893175618751284
2015-10-19,1,0.0006977329404151288,0.0007506488552804131,0.0,0.0,0.9858273443320548
2015-10-21,1,0.0006986050408448162,0.0007558077496924084,0.0,0.002840909090909091,0.9837426791293313
2015-10-23,-1,-0.00015109995011337052,-0.00010783753272366984,0.0,0.015478562233631827,0.9864947256869607
2015-10-27,1,0.0004782189838618038,0.0005625273885934662,0.0,0.015478562233631827,0.9865156602885788
2015-10-29,1,0.0007911030287651619,0.0009557576513983411,0.0,0.015478562233631827,0.9864500355035544
2015-11-02,1,0.00036779144661528676,0.0004700705456698218,0.0,0.017751456802959413,0.9859408604513172
2015-11-04,1,0.0001837454665577606,0.00024384423252764498,0.0,0.017751456802959413,0.9859600254281473
2015-11-06,1,0.0003040146308128333,0.0003808742943255763,0.0,0.015478562233631827,0.9867985109894257
2015-11-10,1,0.00019388817664676321,0.00023192908521703403,0.0,0.015478562233631827,0.9853146507279501
2015-11-12,1,0.0006739889601611514,0.0007769428464015761,0.0,0.002631578947368421,0.9884866579154719
2015-11-16,1,0.00010389035249205353,0.00012950596089544527,0.0,0.002631578947368421,0.9925192733481886
2015-11-18,1,0.0008505356290425614,0.0009799254299975883,0.0,0.0,0.992584102632973
2015-11-20,1,0.0017300820797636132,0.0019761877226300217,0.0,0.0,0.9932615390355383
2015-11-24,1,0.001856513286206215,0.0021175809876201905,0.0,0.0,0.9934588500056134
2015-11-27,1,0.0018724609077677907,0.0021405894839731784,0.0,0.0,0.9934422454964922
2015-12-01,1,0.002004461966000819,0.002288424162871454,0.0,0.0,0.9946339885682999
2015-12-03,1,0.0018279768398751517,0.002071080204716616,0.0,0.0,0.9948288336509926
2015-12-07,1,0.0018356884529506638,0.002084437306825619,0.0,0.0,0.9948184080707914
2015-12-09,1,0.0012828892587371217,0.0014567109064416786,0.0,0.0,0.9968284686081175
2015-12-11,1,0.001057077122298889,0.0011765529244240267,0.0,0.0,0.9964164334912932
2015-12-15,1,0.0006728613555219434,0.0007095018907691961,0.0,0.0,0.9967942808971171
2015-12-17,1,0.00027934531491538355,0.00028189993786592284,0.0,0.0,0.9982777245878883
2015-12-21,1,0.00023735584573068968,0.0002407828915624044,0.0,0.0,0.9968501810819816
2015-12-23,1,0.00019473832779986,0.00020401065453328211,0.0,0.0,0.9968793527091077
2015-12-28,1,0.0001523430608543509,0.00016727133605603684,0.0,0.0,0.9958222171755212
2015-12-30,-1,-6.079923675582707e-05,-5.631810898718318e-06,0.0,0.0,0.9959109879950419
2016-01-04,0,-3.3408300487486336e-05,1.4336763215667985e-05,0.0,0.00033378602094216795,0.9950584662930297
2016-01-06,0,-2.8731177815046697e-05,1.5494431527221506e-05,0.0,0.00033378602094216795,0.9950585081252906
2016-01-08,-1,-0.00012721546526583914,-6.115119359608446e-05,-0.002358501680840294,0.0,0.9917653077688982
2016-01-12,-1,-0.00048440072172074275,-0.0003632115824027915,0.0,0.00033378602094216795,0.9882580927620778
2016-01-14,-1,-0.000582001381025735,-0.0004430220454915787,-0.002358501680840294,0.004347821940546489,0.9864501325987517
2016-01-19,-1,-0.0008504371696442886,-0.0006802613101457382,-0.002358501680840294,0.004347821940546489,0.9849889303569207
2016-01-21,-1,-0.0006556369909715416,-0.0005074295266055172,-0.00427350026764018,0.0,0.985547448259865
2016-01-25,-1,-0.0006806987946694425,-0.0005303175081374926,-0.00427350026764018,0.0005669064188122537,0.9854265254417556
2016-01-27,-1,-0.0002723762827195787,-0.00016769470309850528,-0.00427350026764018,0.0,0.9866767133039877
2016-01-29,-1,-0.000341010010421671,-0.00022624376714248137,-0.00427350026764018,0.0,0.9866496353720805
2016-02-02,1,2.196688612555756e-05,9.189878738593345e-05,-0.00427350026764018,0.0,0.9875704238821734
2016-02-04,-1,-0.00021737169891444553,-0.00010359870250431236,-0.00427350026764018,0.0,0.9875565257135599
2016-02-08,-1,-0.001819910151202672,-0.0015175805401883699,0.0,0.0,0.9897990742115813
2016-02-10,-1,-0.0001639454670813071,-5.2540287698180446e-05,0.0,0.0,0.9947853698930479
2016-02-12,-1,-0.00032622916621009244,-0.0001937978492185086,0.0,0.0,0.9948022578199217
2016-02-17,-1,-0.0012172682630997838,-0.000979380961422383,0.0,0.0,0.995653260848734
2016-02-19,-1,-0.0017090526846574143,-0.0014115794257671104,0.0,0.0005669064188122537,0.9945971299746871
2016-02-23,-1,-0.0016550201169662619,-0.0013655575960015605,0.0,0.0010822551928391362,0.9938725759935997
2016-02-25,-1,-0.0016438104794175303,-0.0013590065689595668,0.0,0.0010822551928391362,0.9938787216023938
2016-02-29,-1,-0.0017540793326656478,-0.0014499988891475862,0.0,0.0010822551928391362,0.993802813312982
2016-03-02,-1,-0.0006597229299445148,-0.0005615284634075935,0.0,0.0043779915937166465,0.9899911651935637
2016-03-04,-1,-0.0006189727374699902,-0.0005268464255247646,0.0,0.00551682846405625,0.9895994268032089
2016-03-08,-1,-0.00037305829921154313,-0.00032575077756402866,0.0,0.008562442150462559,0.9894470237214184
2016-03-10,1,2.082755686547758e-05,5.36119752562352e-05,0.0,0.008562442150462559,0.9896785352414862
2016-03-14,1,0.00046915699505802445,0.0005619652502485395,0.0,0.005369915996975944,0.9912575436651508
2016-03-16,1,0.00038076114174794576,0.0004623232068656897,0.0,0.005369915996975944,0.991695835515259
2016-03-18,1,0.00021050810971649642,0.0002174165391344874,0.0,0.0,0.9932048510865722
2016-03-22,1,8.621386961587993e-05,9.97087396353255e-05,0.0,0.0,0.9943228885373292
2016-03-24,1,5.852005369954205e-05,7.607810906578623e-05,0.0,0.0,0.9938270379397209
2016-03-29,-1,-0.0001340677170574904,-7.982065762959182e-05,0.0,0.0,0.9925485967854552
2016-03-31,1,0.00010050423234934307,0.00012818649789416787,0.0,0.0,0.9969073660593728
2016-04-04,1,0.000348144308152425,0.0003628199480816933,0.0,0.0,0.996130989234667
2016-04-06,1,0.0004541550267946669,0.0004813543813636254,0.0,0.0,0.9951325217717701
2016-04-08,1,0.0010520543044992444,0.0012194260231156709,0.0,0.0,0.994386551301455
2016-04-12,1,0.0004713966058724833,0.0004796601224823735,-0.0019318085964455485,0.0,0.9938096158394548
2016-04-14,1,0.000718578663013041,0.0008087188540661146,-0.006920158347300274,0.0,0.9926830607187588
2016-04-18,1,0.0009303455483284382,0.0010772317474457955,-0.006920158347300274,0.0,0.9922515113555563
2016-04-20,1,0.0010191461931101091,0.0011874255472914032,-0.006920158347300274,0.0015400371271084524,0.9913880130941667
2016-04-22,1,0.0008590857926542196,0.0010060549874811072,-0.006316765250101758,0.0015400371271084524,0.9919758888583589
2016-04-26,1,0.0012806705951961053,0.0014916747522832272,-0.006316765250101758,0.0015400371271084524,0.9925136208911991
2016-04-28,1,0.0013578629653875174,0.0015786007948087014,-0.006316765250101758,0.0,0.9926231913041704
2016-05-02,1,0.0010569909200138041,0.001237798886300611,-0.0015657778820514757,0.0,0.9938068406244079
2016-05-04,1,0.001140356025267544,0.0013034528155565278,-0.0015657778820514757,0.0,0.9950670150045703
2016-05-06,1,0.0009166967526261775,0.0010480464621701088,-0.0015657778820514757,0.0,0.9928242768217167
2016-05-10,-1,-0.0009619088560199282,-0.0008383305259121815,0.0,0.0021052711888363486,0.9902677405768879
2016-05-12,-1,-0.0005589837252844736,-0.0005109302076362228,0.0,0.0,0.9914278375731682
2016-05-16,-1,-0.0003842089694295646,-0.00035754299368815344,0.0,0.0005180392265665455,0.9913752089249511
2016-05-18,-1,-0.0006631784097823555,-0.0006048533675214029,-0.0005263077585320724,0.0,0.9916482690860975
2016-05-20,-1,-0.0006138231641892967,-0.000562233697685581,-0.003439968590980806,0.0,0.9913136824612547
2016-05-24,-1,-0.0007441008873436061,-0.0006785748015051458,-0.003439968590980806,0.0,0.9917780319868734
2016-05-26,-1,-0.0006950122320802674,-0.0006365098273586525,-0.007692848567473609,0.0,0.9896246949653378
2016-05-31,-1,-0.000641161817097255,-0.0005900374503377086,-0.008933304530626197,0.0,0.9877018026538088
2016-06-02,-1,-0.0006355675617646578,-0.0005832926291160094,-0.008933304530626197,0.0,0.9877035735292298
2016-06-06,-1,-0.00020553226028648412,-0.0001956819776672847,-0.007692848567473609,0.0,0.9895193433364742
2016-06-08,-1,-0.0002072075778509087,-0.00019539796891806667,-0.003439968590980806,0.0,0.9930869242323578
2016-06-10,-1,-8.827957631399909e-05,-4.911239578178609e-05,-0.003439968590980806,0.0,0.9931511685395454
2016-06-14,-1,-6.983316571576639e-05,-3.716733885139893e-05,-0.0005263077585320724,0.0,0.992567882325493
2016-06-16,1,0.00012959062790671643,0.00018984850901747032,0.0,0.0,0.9931044327476323
2016-06-20,1,0.0001308941067683829,0.00017303451482149142,0.0,0.0,0.9935213089839438
2016-06-22,1,0.0001459503591451407,0.0001906680246050876,0.0,0.0,0.9914985967936013
2016-06-24,-1,-0.00029558912453875644,-0.000269950424363992,0.0,0.0,0.993135334092984
2016-06-28,1,0.000302786319657506,0.0003529392296311339,0.0,0.0,0.995158421484702
2016-06-30,1,0.0006842962898501014,0.0008242718053966711,0.0,0.0,0.9948867615278534
2016-07-05,-1,-1.4198202773655714e-05,-1.1943993149687293e-05,0.0,0.0,0.996394983662728
2016-07-07,-1,-8.889743316900822e-05,-7.360122856072299e-05,0.0,0.0,0.9942792408796726
2016-07-11,1,0.00013791006353551483,0.0001816261534501051,0.0,0.0,0.9942416737367714
2016-07-13,1,0.00018787478848107013,0.00025939172385321444,0.0,0.0,0.994664601088411
2016-07-15,1,0.0001750150120190935,0.00024318195987384873,0.0,0.0,0.9936904855330829
2016-07-19,1,0.00024013319987920557,0.00031750359132108824,0.0,0.0025252525252525255,0.9926977669688719
2016-07-21,1,0.000212036302600375,0.00028684166322070906,0.0,0.0,0.9947189912236561
2016-07-25,-1,-0.00011356082844693753,-8.065000231740124e-05,0.0,0.0,0.9952343281153052
2016-07-27,0,-5.940410799288708e-05,9.20262280278017e-06,0.0,0.0025252525252525255,0.9938466343741764
2016-07-29,0,-3.1192127998492484e-05,2.5603590595938303e-05,0.0,0.0025252525252525255,0.9938600439921298
2016-08-02,0,-2.015743823786782e-05,1.929998148246295e-05,0.0,0.0025252525252525255,0.9938615194489775
2016-08-04,1,0.0003652829229557268,0.0004747893075524455,0.0,0.0,0.9952415014122947
2016-08-08,1,0.00010036269613606215,0.00014097519964771085,0.0,0.002403846153846154,0.9949346015869538
2016-08-10,-1,-0.00010934855918553568,-9.80221161082084e-05,0.0,0.0,0.9954803794461659
2016-08-12,-1,-0.0003043789181720555,-0.00029898839221854646,0.0,0.0,0.9963151044957865
2016-08-16,-1,-0.0006074085865794088,-0.0005703139870163442,0.0,0.0,0.9970548856784399
2016-08-18,-1,-0.000564766054804593,-0.0005291992934779207,0.0,0.0,0.9970922042611267
2016-08-22,-1,-0.0005138884601368146,-0.0004720878277439495,0.0,0.0,0.9971600789675479
2016-08-24,-1,-0.0009723521505056301,-0.0008731505777343475,0.0,0.0,0.9978898289411844
2016-08-26,-1,-0.00019628480270081033,-0.00017277634245370203,0.0,0.0,0.9979871663327389
2016-08-30,-1,-0.00018910867265196153,-0.00016660337798180962,-9.524027506510416e-05,0.0,0.9975265582134145
2016-09-01,-1,-0.00019126757216725738,-0.0001692985784471713,-9.524027506510416e-05,0.0,0.9972186349732979
2016-09-06,-1,-0.00017660814397308272,-0.00015650416555070505,-9.524027506510416e-05,0.0,0.997703061976704
2016-09-08,-1,-0.00029099783586196556,-0.00025800981592929073,-0.002585394820574784,0.0,0.9971566874020392
2016-09-12,-1,-0.0002710815638821676,-0.0002405469507777514,-0.002585394820574784,0.0,0.9971610940730807
2016-09-14,-1,-0.0002779487759711123,-0.000247843901535242,-0.002585394820574784,0.0,0.9967983533429664
2016-09-16,-1,-0.0002925292616006239,-0.0002618275456695773,-0.0025865900715960222,0.0,0.9968028509834683
2016-09-20,1,0.00012799242766353415,0.00014425737220702655,-0.0025865900715960222,0.0,0.9967364269069695
2016-09-22,-1,-0.0002452616679388077,-0.0002261186111974946,-0.00039881390425219876,0.0,0.9972108641331587
2016-09-26,-1,-0.0007346558486007286,-0.0006501936734787313,-9.960387181127979e-05,0.0,0.9949225372684489
2016-09-28,-1,-0.00021152699407776937,-0.00018826488634061966,0.0,0.0007763101300712568,0.9949174709400574
2016-09-30,-1,-0.00017028447247987777,-0.00015077658433056354,0.0,0.0024285534449986048,0.9950487623166561
2016-10-04,-1,-5.213819452539412e-05,-3.552415405298378e-05,0.0,0.0024285534449986048,0.9942182552711492
2016-10-06,-1,-7.21905075471745e-05,-6.423831420768928e-05,0.0,0.0024285534449986048,0.994372195310159
2016-10-10,-1,-0.00013560148517544458,-0.00012021443260432434,0.0,0.0024285534449986048,0.9920960018511009
2016-10-12,-1,-1.9466828591163516e-05,-4.230058603832526e-06,0.0,0.0019265499918617195,0.9924234694323192
2016-10-14,-1,-6.827167041179243e-05,-6.491115075686848e-05,0.0,0.0024940048993784066,0.9916175245536889
2016-10-18,-1,-5.804434811843911e-05,-5.3552344810574026e-05,0.0,0.006283317133394329,0.9907797091650404
2016-10-20,-1,-4.812546093250305e-05,-4.190753262439522e-05,0.0,0.011826145220595186,0.989216409451146
2016-10-24,-1,-0.0005307435938752528,-0.0004803398581606819,0.0,0.008672878117081624,0.9909266519193198
2016-10-26,-1,-0.0004448100925074893,-0.0004101686107817436,-0.0003846241877629207,0.0034357560646758314,0.9916833082122732
2016-10-28,-1,-0.0005534328943195006,-0.0005028291488805134,-0.0003846241877629207,0.004804306636745329,0.9916435313600338
2016-11-01,1,0.0008027873033300876,0.0008629765908715845,-0.0003846241877629207,0.004804306636745329,0.9920995372446058
2016-11-03,1,0.0005420705310482092,0.0005591092868100962,0.0,0.004804306636745329,0.9925052345249028
2016-11-07,-1,-0.0006784413179600805,-0.0005361588000565962,0.0,0.004804306636745329,0.9944752880703747
2016-11-09,-1,-0.0007970711470400304,-0.000630316281593336,0.0,0.00813652925942648,0.9935608859080635
2016-11-11,-1,-0.0005061313529334595,-0.00037088990834610716,0.0,0.0077110077570943,0.9943420665817215
2016-11-15,1,0.00010640242081918015,0.0001447398595377337,0.0,0.004785635915783841,0.9953155230446095
2016-11-17,-1,-0.0007058161794050838,-0.0005230998394859304,0.0,0.003784383361141845,0.9964370771149281
2016-11-21,-1,-0.0005784405866669102,-0.00040788952290766,0.0,0.003199036739437371,0.9968748074750489
2016-11-23,-1,-0.0004313793326188725,-0.0002949734954472627,0.0,0.003199036739437371,0.9968597138946733
2016-11-28,-1,-0.00021372841493185325,-0.00010014467878059503,0.0,0.0011270037261021809,0.9971655369057358
2016-11-30,-1,-0.0005581642923118128,-0.0004018852804262531,0.0,0.0024461948928449534,0.9971939451102958
2016-12-02,-1,-0.00032702103743268584,-0.0002208463783474002,0.0,0.003199036739437371,0.9956392965789482
2016-12-06,-1,-0.00038074390685594777,-0.0002678732305826127,0.0,0.003199036739437371,0.995518096325381
2016-12-08,0,-2.463923819612509e-05,4.858102484559058e-05,0.0,0.0016963923387667825,0.9965961567337687
2016-12-12,1,0.0005642288376907695,0.0006014864423042237,-0.00047027123028648153,0.0016963923387667825,0.996470313044637
2016-12-14,1,0.0004760517486489663,0.0004870311183007719,-0.00047027123028648153,0.0012246838365565236,0.9965674750411315
2016-12-16,1,0.0004213059850193445,0.0004228859886548278,-0.0013161552401154935,0.0012246838365565236,0.9965309587732549
2016-12-20,1,0.00023030903361205882,0.00025306578830446214,0.0,0.0016963923387667825,0.9963613354685105
2016-12-22,1,0.00022481883302222146,0.0002499635208670399,0.0,0.0017912480789840414,0.9962352105211519
2016-12-27,-1,-0.00048404841673294687,-0.0003327498274811464,0.0,0.0031893036161918047,0.9952627982600097
2016-12-29,-1,-0.0003867951684191905,-0.000244788479712578,-0.00028196133660967064,0.0028912953944697276,0.9952940399282413
2017-01-03,-1,-0.00025561756787958095,-0.00014264489089331646,0.0,0.0017912480789840414,0.9969416946689594
2017-01-05,1,9.580457384234851e-05,0.00013888811921349234,0.0,0.0039476572312824275,0.996507423531017
2017-01-09,1,0.00041786782671002264,0.0004408031824540338,-0.00028196133660967064,0.004997378128722797,0.9956502822155117
2017-01-11,1,0.00039590371419635675,0.00041488461751253207,0.0,0.004997378128722797,0.9956969768311185
2017-01-13,1,0.00035798199758666784,0.00037045046707635007,0.0,0.005884071216832598,0.9953798055986515
2017-01-18,1,0.0005349567587144009,0.0006143517905469845,0.0,0.005884071216832598,0.9953515196663844
2017-01-20,1,0.0007198337831723233,0.0008231005490998813,0.0,0.005884071216832598,0.9948497568445849
2017-01-24,1,0.000808700563566441,0.0009231644979447368,0.0,0.005884071216832598,0.9950193992100027
2017-01-26,1,0.0009731054350528687,0.0010968118839286792,0.0,0.004103353463556566,0.9959750043459062
2017-01-30,1,0.0010210495144899983,0.001161011392025589,0.0,0.005362554199182834,0.9959873019396928
2017-02-01,1,0.0010292965191100716,0.0011692334604428796,-0.0004401341349660371,0.005362554199182834,0.9956902130406191
2017-02-03,1,0.001234297071745428,0.001400030449847173,-0.0004401341349660371,0.004015612586808371,0.9960040806069421
2017-02-07,1,0.001268572172475668,0.0014374654366771816,-0.0004393773556089882,0.0035555945923560514,0.9966691713783782
2017-02-09,1,0.0012973188348342221,0.001468434323909684,-0.0017582662017930017,0.0035320239731126374,0.996520856806571
2017-02-13,1,0.0013788948380136353,0.001558715362525803,-0.0017620917901319975,0.003528908321534875,0.9964949240966708
2017-02-15,1,0.0012868875259048921,0.0014422492013248438,-0.0017667575409355445,0.0008818375672323565,0.9964711220191481
2017-02-17,1,0.0011525709193555454,0.001276936217199705,-0.0017620917901319975,0.0008818375672323565,0.9973287126876633
2017-02-22,1,0.0009808791779957657,0.001069546134255965,-0.0022053532156747087,0.0008818375672323565,0.9965306203947202
2017-02-24,1,0.0006262965882955934,0.0006509964732230829,-0.0022053532156747087,0.0008818375672323565,0.9966047379832995
2017-02-28,1,0.0006266854749109728,0.000648421231640704,-0.003521140239892201,0.0,0.9965333480502441
2017-03-02,1,0.0005068890922330563,0.0005148847112375114,-0.003521140239892201,0.0,0.9965941745972308
2017-03-06,1,0.0004759811463227084,0.0004884779555399676,-0.004066370597393627,0.0,0.9963806703568931
2017-03-08,1,0.00044433207958071184,0.0004565928418970333,-0.004066370597393627,0.0,0.9964813354562599
2017-03-10,1,0.00028712870705040156,0.0003200917199184366,-0.004066370597393627,0.00027273351495916195,0.9963326623565358
2017-03-14,1,0.0002115649197963522,0.00025540715923681105,-0.004684046434504917,0.0,0.9964805640771399
2017-03-16,1,9.821428204015491e-05,0.00015767478705210712,-0.004684046434504917,0.0,0.9966364094945135
2017-03-20,1,0.0007287142619403855,0.00079086932344138,-0.004684046434504917,0.0,0.9961634807220083
2017-03-22,1,0.00048827988970083936,0.0005356749928946626,-0.0007220209521897257,0.0017174845755800684,0.9969325799008475
2017-03-24,1,0.00045790508374963547,0.0005155687103907516,0.0,0.0017174845755800684,0.9973034895916063
2017-03-28,1,0.0001064047367772653,0.00011404535789449156,0.0,0.0017174845755800684,0.9977905925571421
2017-03-30,1,0.00013271265696060842,0.00014537787566732522,0.0,0.00027273351495916195,0.9977720806876877
2017-04-03,-1,-0.00042436658893647356,-0.0003214608939214536,0.0,0.0017174845755800684,0.9975141551168821
2017-04-05,-1,-0.0004496940383274674,-0.0003420530929000363,0.0,0.0008992840307025826,0.9975537051933759
2017-04-07,-1,-0.00024842724881801926,-0.00018253859342438506,0.0,0.0,0.9980303704386126
2017-04-11,-1,-0.00021435981579716928,-0.00015989629081495372,0.0,0.0022434008342732624,0.9978840312533239
2017-04-13,-1,-0.0003767963698654805,-0.0002897679757805868,0.0,0.0035683333219528822,0.9975966447383332
2017-04-18,-1,-0.00020718840224077226,-0.00014598657539068133,0.0,0.002233799900654113,0.9979244564263405
2017-04-20,-1,-0.00014034596579942768,-8.536057378430483e-05,0.0,0.0,0.998326250512906
2017-04-24,-1,-5.111560130093491e-05,-1.6265637906099953e-05,0.0,0.00044803893452355993,0.9981987671359323
2017-04-26,-1,-0.00018385923067276285,-0.00012466717018991033,0.0,0.00044803893452355993,0.998121186550868
2017-04-28,-1,-0.00036327341065751386,-0.00027744906714914153,0.0,0.003549216911330137,0.997802319104761
2017-05-02,-1,-0.00021358423744089817,-0.0001506512419506325,0.0,0.003549216911330137,0.9975726451826902
2017-05-04,-1,-7.268705195578947e-05,-4.128256148700498e-05,0.0,0.003549216911330137,0.9975885206311776
2017-05-08,-1,-9.142073646385716e-05,-5.877201569124999e-05,0.0,0.003549216911330137,0.9974830475272815
2017-05-10,1,1.065050929116633e-05,3.0187325390810393e-05,0.0,0.003549216911330137,0.9973874528693036
2017-05-12,1,3.467794910375833e-05,5.2061499478638634e-05,0.0,0.0034816769147466885,0.9974716037724044
2017-05-16,-1,-7.826629748127991e-05,-4.3688301297453234e-05,0.0,0.0034816769147466885,0.9976059063143712
2017-05-18,-1,-8.240113554586681e-05,-4.860816043715245e-05,0.0,0.0034816769147466885,0.9974412318536002
2017-05-22,-1,-0.0001333640751262743,-8.773398189082225e-05,0.0,0.0034335091059247173,0.9975900724289185
2017-05-24,-1,-0.00012489956296739198,-8.084221719334601e-05,0.0,0.0034335091059247173,0.9975950011498856
2017-05-26,0,-2.0512712497897686e-05,2.51965139287653e-05,0.0,0.00043253585699977047,0.9979366410267869
2017-05-31,1,0.00025498148779103195,0.0002687078421062537,0.0,0.000517236775365369,0.9983300089015992
2017-06-02,1,0.00018915280410128701,0.00021293898290178928,0.0,0.0023259718044331265,0.9980776200970967
2017-06-06,1,0.00021484380824195732,0.0002370801463634247,0.0,0.000517236775365369,0.9982158163544163
2017-06-08,1,0.00036503611847160986,0.0003715867335112739,0.0,0.0,0.9985306566855462
2017-06-12,1,0.00025320278767221544,0.00027573471504540464,0.0,0.0,0.9985980058208543
2017-06-14,1,0.00032009232657045043,0.0003265638801566128,0.0,0.0,0.9985573961646182
2017-06-16,1,0.00024993756192276433,0.00026075149597653386,0.0,0.0004280756485801684,0.9986253283034222
2017-06-20,1,0.00025847448829383236,0.00027225625516531614,0.0,0.0004280756485801684,0.9985364193470431
2017-06-22,1,0.00024431854909561624,0.00025453855677647855,-0.0004266146617958319,0.0004280756485801684,0.9984577500185189
2017-06-26,1,0.00017664776440000024,0.0001774538930016317,0.0,0.0023259718044331265,0.9974253867504143
2017-06-28,1,0.00043237659264760725,0.00047156979095500486,0.0,0.003315177071006072,0.9966270959332022
2017-06-30,1,0.0005521691895240627,0.0006076454145069721,0.0,0.0022902503852625395,0.9962279771118098
2017-07-05,1,0.000618862381816266,0.0006853564148322012,-0.0004266146617958319,0.0022902503852625395,0.995801787556886
2017-07-07,1,0.0006747705312114909,0.0007580848036320164,-0.0004266146617958319,0.003315177071006072,0.9954624801907428
2017-07-11,1,0.0006600061487465447,0.0007452077408590207,-0.0004266146617958319,0.003315177071006072,0.9952246497959553
2017-07-13,1,0.0006248035118322713,0.0007045465389482181,-0.0004266146617958319,0.003315177071006072,0.9952333315681549
2017-07-17,-1,-0.00040107753412529804,-0.0003895311248427265,-0.0017071878918878964,0.004542359107179069,0.9940517184588082
2017-07-19,-1,-0.00036026639814330916,-0.0003545438536780842,-0.00202978971328232,0.004583342870076498,0.9938360436410982
2017-07-21,-1,-0.00032368891916774944,-0.00032270575303697697,-0.0019936336692502514,0.004583342870076498,0.9938498700112862
2017-07-25,-1,-0.00030554211201065255,-0.0003029584068497579,-0.0019936336692502514,0.0022902503852625395,0.9952050673784639
2017-07-27,-1,-0.0008298386781655424,-0.0007721277377456554,-0.003814045604158347,0.0004901917091046537,0.9954773889344516
2017-07-31,-1,-0.0035674139815968023,-0.003193771976963025,-0.003814045604158347,0.0,0.9948856956671698
2017-08-02,-1,-0.0035794466025424847,-0.003209200944506078,-0.0019936336692502514,0.0,0.9949293965821804
2017-08-04,-1,-0.0034569565625265884,-0.0031056240183830186,-0.003503774977396072,0.0,0.9954983957624907
2017-08-08,-1,-0.0033156980609147105,-0.002985742509655184,-0.0019936336692502514,0.0,0.9953001070271712
2017-08-10,-1,-0.0031572085378242286,-0.0028499273291860386,-0.0019936336692502514,0.0008333365122477214,0.9948807090584879
2017-08-14,-1,-0.0030001739396111234,-0.002715356329556145,-0.00041529189182304443,0.0,0.9960187318633573
2017-08-16,-1,-0.002993349919783077,-0.002704892141444929,0.0,0.0,0.9960426842514349
2017-08-18,-1,-0.0029112548444265056,-0.0026362309406133995,0.0,0.0,0.9960915910742217
2017-08-22,-1,-0.002833061623171654,-0.002570363009203551,0.0,0.0004166603088378906,0.9958080959090089
2017-08-24,-1,-0.0028946159984987127,-0.0026284336575200387,0.0,0.0,0.9960979301316475
2017-08-28,-1,-0.002789330701065157,-0.002539982547989883,0.0,0.00041390095858792543,0.9962983135014071
2017-08-30,-1,-0.002645839244351622,-0.002416949432776858,0.0,0.0016583631846016668,0.9957593536031959
2017-09-01,-1,-0.002493920473869131,-0.002287205133317355,0.0,0.0016583631846016668,0.9959561809482247
2017-09-06,-1,-0.002339971290182807,-0.0021563765268850328,0.0,0.00041390095858792543,0.995649998477761
2017-09-08,-1,-0.002254316325199985,-0.002081481490212794,0.0,0.0,0.9962207024728901
2017-09-12,-1,-0.0020964275436486804,-0.0019463135073430305,0.0,0.0,0.9963493447775245
2017-09-14,-1,-0.0019296228597828573,-0.001803982097557907,0.0,0.0,0.996485031163687
2017-09-18,-1,-0.0017764640787046896,-0.001672151414735225,0.0,0.0016563060684819388,0.9962303739121664
2017-09-20,-1,-0.0016294853302278804,-0.001545886621039587,0.0,0.00041390095858792543,0.9965987447216563
2017-09-22,-1,-0.001478282881950145,-0.0014171729345954394,0.0,0.0016556038343517017,0.9955607298997927
2017-09-26,-1,-0.0012973211502704275,-0.0012597267908278803,0.0,0.0016563060684819388,0.9952922390856693
2017-09-28,-1,-0.0011384988188778153,-0.0011242645104643802,0.0,0.00041390095858792543,0.9960600003671991
2017-10-02,-1,-0.0010273412938659409,-0.0010242333056244641,0.0,0.0016563060684819388,0.9951386466869966
2017-10-04,-1,-0.0010669752282323876,-0.001065566514565725,0.0,0.0016563060684819388,0.9958608624363211
2017-10-06,-1,-0.0009345597120061166,-0.0009112031614367116,0.0,0.0020374633993427934,0.9958336047546219
2017-10-10,-1,-0.0007950675009322875,-0.0007478075466740179,0.0,0.0034635660503761845,0.9949519943925649
2017-10-12,-1,-0.0006524221178212664,-0.0005819945475306902,0.0,0.0034635660503761845,0.9950917158609818
2017-10-16,-1,-0.0005233758909229775,-0.0004302857982795296,0.0,0.0020353566969520823,0.9951872432665891
2017-10-18,-1,-0.0006878330999832105,-0.0006413735093795407,0.0,0.004804218569100888,0.9937998682880637
2017-10-20,-1,-0.0006209006873906744,-0.0005645019977702334,0.0,0.001986004437586361,0.9948738397902823
2017-10-24,-1,-0.0006660476385118533,-0.0006104008983564022,0.0,0.001986004437586361,0.9949084284644004
2017-10-26,-1,-0.0005380457375090805,-0.0004606267601500637,0.0,0.001986004437586361,0.9949981822579264
2017-10-30,-1,-0.0005582792098939105,-0.00048033798451187465,0.0,0.001986004437586361,0.9956288848153976
2017-11-01,-1,-0.0003660788391425835,-0.0002797455175534144,0.0,0.008159045528261303,0.9935877037757885
2017-11-03,-1,-0.0002649027064773125,-0.00016212256856219922,0.0,0.010008563966013788,0.9930961277145236
2017-11-07,-1,-0.00014661143444851628,-5.8421682439400524e-05,-7.750636847444282e-05,0.008159045528261303,0.9934719119590512
2017-11-09,1,0.0011564363178192723,0.0012670592045392682,-7.750636847444282e-05,0.008159045528261303,0.9930581958867979
2017-11-13,1,0.0006972642156943569,0.0007556974296079607,-7.750636847444282e-05,0.010008563966013788,0.9910415866991058
2017-11-15,1,0.0004695855860179638,0.0005021789628566222,-7.750636847444282e-05,0.008159045528261303,0.9921371748729391
2017-11-17,-1,-0.0003374887835155444,-0.00031906888556269906,0.0,0.008159045528261303,0.9923075032161941
2017-11-21,-1,-0.00038366308350572975,-0.0003600608110244058,-7.750636847444282e-05,0.0020161159118894903,0.9920087735173396
2017-11-24,1,0.00046846976512079154,0.0005009466725618304,-0.0016945129539452728,0.0020161159118894903,0.9912303480442018
2017-11-28,1,0.000533234548856371,0.0005740592152026853,-0.0014619938485219443,0.0,0.9915545166114863
2017-11-30,1,0.0010166414137805797,0.0011182364884640677,-0.0014619938485219443,0.0,0.9932579273687798
2017-12-04,1,0.001111027892543577,0.0012234758495161533,-0.008009169951362935,0.0,0.9925853880442729
2017-12-06,1,0.0009734223532345445,0.001065400766112908,-0.0014619938485219443,0.0,0.9933538211488766
2017-12-08,1,0.0009014841884126641,0.0009804031100312,-0.0014619938485219443,0.0007575641978870739,0.9932697142866558
2017-12-12,1,0.0009155473854790269,0.000992878155288304,0.0,0.0,0.9958170152192761
2017-12-14,-1,-0.0006221641639506467,-0.0005747063008796154,0.0,0.0007518682264743891,0.9960970754189473
2017-12-18,-1,-0.0007238462750927318,-0.0006518624878859385,0.0,0.0007518682264743891,0.9960415047427754
2017-12-20,1,0.0005911624088241146,0.0006636932928067894,0.0,0.0007518682264743891,0.9969475059399894
2017-12-22,1,0.0002266933341339456,0.0002385729959452533,0.0,0.0007518682264743891,0.9973402422283466
2017-12-27,1,0.0002411110989312404,0.00025749146702502216,0.0,0.003013168877310241,0.9966062784351458
2017-12-29,1,0.00021966568131465193,0.00022940439670733156,0.0,0.0018712541308149907,0.9966895744861705
2018-01-03,1,0.000408876930208948,0.0004425736574684978,0.0,0.00037312863478020054,0.9976221851426028
2018-01-05,1,0.000183652051695715,0.0001868358019255087,0.0,0.0,0.9978620982909193
2018-01-09,1,0.0002097439874406965,0.0002144598555521691,0.0,0.0,0.9980507815938524
2018-01-11,1,0.0001868280761087039,0.00018758841657529925,0.0,0.0,0.9975446467778415
2018-01-16,1,0.0002287762903670988,0.00023197428065241475,0.0,0.0,0.9974387161947705
2018-01-18,1,0.0001907207613682767,0.00019612397058225422,0.0,0.0,0.997109614730243
2018-01-22,1,9.832584676363563e-05,0.0001200106049489784,0.0,0.00037312863478020054,0.9962850959406554
2018-01-24,1,0.00011575369309685268,0.00014112079335765694,0.0,0.00037312863478020054,0.9967980835857356
2018-01-26,1,5.087421725710315e-05,7.1371787546014e-05,0.0,0.00037312863478020054,0.9964093374532261
2018-01-30,1,7.781746800928698e-05,0.0001037703298627069,0.0,0.0,0.9964603336390372
2018-02-01,1,3.9085587170984004e-05,6.400174801490207e-05,0.0,0.0,0.9966359001469444
2018-02-05,1,6.6292332138088945e-06,3.636290317165171e-05,0.0,7.266221722171619e-05,0.9966448297288673
2018-02-07,0,-2.5870705901103068e-05,8.599736730764086e-06,0.0,7.266221722171619e-05,0.9966458226004224
2018-02-09,-1,-0.00016652849811954384,-0.00011396870233801621,0.0,0.0013543618477174686,0.9954916163472989
2018-02-13,0,-6.92626312019321e-06,7.24582840838396e-06,0.0,7.266221722171619e-05,0.9944254840151804
2018-02-15,-1,-7.387380780201757e-05,-3.934274020153557e-05,0.0,0.0,0.9947665137283633
2018-02-20,1,3.3960418086761006e-05,5.589861402480678e-05,0.0,0.0,0.9956608864191
2018-02-22,1,0.00015328646284572394,0.00015645935860914302,0.0,0.0,0.9955796057251216
2018-02-26,1,0.0002503541577260827,0.00025554912277889343,0.0,0.0,0.9963953462794919
2018-02-28,1,6.474322516222225e-05,9.729477418640533e-05,0.0,0.0,0.9965221394035576
2018-03-02,0,-7.578833801118293e-06,3.47209276758994e-05,0.0,0.0,0.9967101568404902
2018-03-06,-1,-4.8377904964197005e-05,-6.352447001772453e-09,0.0,0.0,0.9967153995503043
2018-03-08,-1,-8.999155789009443e-05,-3.6458621889301674e-05,0.0,0.0,0.9959686778908149
2018-03-12,1,0.00020141557554704943,0.00021904377567858062,0.0,0.0,0.9974184775231799
2018-03-14,-1,-0.00010390171727521366,-4.9961074756700835e-05,0.0,0.0,0.9978544309822238
2018-03-16,0,-7.224562354838752e-06,1.098028091275199e-05,0.0,0.0,0.9979154254898663
2018-03-20,1,6.569738553773596e-06,3.1354192469146115e-05,0.0,0.0,0.996589976286506
2018-03-22,0,-7.32212198693784e-06,3.911807307572948e-05,0.0,0.0,0.9950376873014486
2018-03-26,1,2.2147126408355954e-05,6.746610408149532e-05,0.0,0.0,0.9949632800817386
2018-03-28,1,1.221858087154399e-05,5.446246022519516e-05,0.0,0.0,0.9942102592091576
2018-04-02,1,2.463890592410986e-05,6.725709795702575e-05,0.0,0.007391494693348192,0.9932420330507555
2018-04-04,1,2.1628399992947554e-07,3.613195205781377e-05,0.0,0.007391494693348192,0.9930443215062299
2018-04-06,-1,-0.00019331554790929573,-0.00018915533129201415,0.0,0.007391494693348192,0.9930887673139872
2018-04-10,-1,-0.00011429851186408311,-9.416184319450824e-05,-0.004173993508576791,0.007391494693348192,0.9921454377964959
2018-04-12,-1,-0.0003307450492200443,-0.00032149094644173446,-0.004173993508576791,0.0017556180527769818,0.9930025367880794
2018-04-16,-1,-0.00026925040058973837,-0.00026834320338485436,-0.004173993508576791,0.007391494693348192,0.9921805954085829
2018-04-18,0,-1.2180669771803105e-05,1.884074789840277e-05,-0.003154321082507687,0.007391494693348192,0.9935802594112935
2018-04-20,-1,-4.594134574490506e-05,-1.7137323662845137e-05,-0.003154321082507687,0.0017556180527769818,0.9948515667610143
2018-04-24,-1,-0.000365017934045764,-0.00035282051864330067,-0.003154321082507687,0.0021246405350172468,0.9940951723873535
2018-04-26,-1,-0.0006099769360096844,-0.0005418278527949299,-0.003154321082507687,0.007261626836387109,0.9939828961529941
2018-04-30,-1,-0.0007794357568670955,-0.0006686963085253818,-0.003154321082507687,0.0,0.9949187147649989
2018-05-02,-1,-0.00040851221107590153,-0.0003652543284495633,-0.0007042146064865757,0.0,0.995188661550816
2018-05-04,-1,-0.0004965848062469791,-0.0004436511047201643,-0.0007042146064865757,0.0,0.9957040199946237
2018-05-08,-1,-0.0002493158887181186,-0.00021449397865606055,0.0,0.0,0.9946295587307776
2018-05-10,1,0.00025637347008178546,0.00029022202760097655,0.0,0.0017123287671232876,0.9926921922620613
2018-05-14,1,0.00021577140020685167,0.00024614294361542525,0.0,0.0,0.9935230189892253
2018-05-16,1,2.4864191429889394e-05,3.5335834810306996e-05,0.0,0.0017123287671232876,0.9923747613949195
2018-05-18,1,7.045250162772278e-05,8.386737904460214e-05,0.0,0.010025259889758692,0.9903971424147867
2018-05-22,1,6.583573918244028e-05,7.862869983582478e-05,0.0,0.0017123287671232876,0.9913510126910978
2018-05-24,1,6.774522487337773e-05,8.07434728592979e-05,0.0,0.0,0.9910410929051969
2018-05-29,-1,-0.00027516742876299157,-0.00021923885691344986,0.0,0.0,0.9909253472445869
2018-05-31,1,4.813479154688001e-05,6.056500082313144e-05,0.0,0.0,0.9902996084754818
2018-06-04,1,3.451580266101577e-05,4.606324237132925e-05,-0.00032467037052303163,0.0,0.9902439129313108
2018-06-06,-1,-0.0007946296046570257,-0.0007092647778581243,-0.00032467037052303163,0.0,0.9920732032589621
2018-06-08,-1,-0.0007284363188920649,-0.0006548424787962945,0.0,0.0,0.9940650731911582
2018-06-12,-1,-0.0002681622024314335,-0.0002490012307038639,-0.00032467037052303163,0.0,0.9942662379013482
2018-06-14,-1,-0.0003676307456372444,-0.00033559387593309165,-0.00032467037052303163,0.0,0.9954941851199013
2018-06-18,-1,-0.0004127124828830885,-0.00036942913339152775,0.0,0.0,0.9976980980737103
2018-06-20,-1,-0.0002829271442422664,-0.0002627091805706236,0.0,0.0,0.9977609936891233
2018-06-22,-1,-0.00018396808657873058,-0.00017563800172335728,0.0,0.0,0.9977674184374883
2018-06-26,-1,-0.00010063186140735432,-0.00010059787869762698,-0.00032467037052303163,0.0,0.9977556761842622
2018-06-28,-1,-0.0002047458241410628,-0.00018870350934055533,-0.00032467037052303163,0.0,0.9978142747438968
2018-07-02,1,0.00013822915788471409,0.00015654878495398674,-0.00032467037052303163,0.0,0.9939046380144215
2018-07-05,-1,-0.00034491746741086373,-0.0002997885873676075,-0.00032467037052303163,0.0,0.9938760679538354
2018-07-09,1,9.78971078274058e-05,0.00010508483731444361,-0.00032467037052303163,0.0,0.9939924015948844
2018-07-11,1,0.00012573645811957167,0.00013958171250955665,-0.0003328844079655757,0.0,0.9933798642783345
2018-07-13,-1,-9.796023989279853e-05,-9.516931312060649e-05,-0.0003328844079655757,0.0,0.9934497624639216
2018-07-17,-1,-0.00014325219474124507,-0.00013300667862262226,-0.0003328844079655757,0.0,0.992124538639264
2018-07-19,-1,-6.77298635331857e-05,-5.847667682204094e-05,-0.0003328844079655757,0.0,0.9921610789657614
2018-07-23,-1,-0.00011794394006373502,-0.00011471333088523882,0.0,0.0,0.9932742302232994
2018-07-25,-1,-0.00023946453837934124,-0.00022822199018191495,0.0,0.0,0.9913547942089093
2018-07-27,1,0.00015446202035682133,0.00019435988583108295,0.0,0.0,0.992035158312571
2018-07-31,0,-5.371558298679524e-06,1.4173080311660284e-05,0.0,0.0,0.9960794249583246
2018-08-02,-1,-1.6460404236387834e-05,-5.219042097285102e-06,0.0,0.0,0.9957297363814398
2018-08-06,-1,-0.0001421586963450367,-0.00014141875421831197,0.0,0.0,0.9956360673027053
2018-08-08,1,0.00028921462817712044,0.000360495641350434,0.0,0.0,0.9961424482512657
2018-08-10,1,0.00011333282633502453,0.00016222304388411013,0.0,0.0,0.9962867686895118
2018-08-14,-1,-0.00017611764689268243,-0.00016439348162435797,0.0,0.0,0.9975725229222075
2018-08-16,0,-3.183048799072197e-05,1.5252236483550267e-06,0.0,0.0,0.9976444144052755
2018-08-20,1,0.0002901138680919444,0.0003654835851538479,0.0,0.0,0.9969191649957698
2018-08-22,1,0.0003090916727301481,0.00038766874339667796,0.0,0.0,0.9988384653175485
2018-08-24,1,0.0003265327129825711,0.0004092130125969853,0.0,0.0,0.9988190182979461
2018-08-28,1,0.0002927874317134475,0.00036461458683500667,0.0,0.0,0.9983102014147016
2018-08-30,1,0.0003639951034125597,0.000445908337702757,0.0,0.0,0.9985844461672124
2018-09-04,1,0.00025926265909299634,0.0003149887922895936,0.0,0.0,0.9980097899194637
2018-09-06,1,0.0002444001410316143,0.0002964533751424913,0.0,0.0,0.9980264227615026
2018-09-10,1,0.00028322335907534355,0.0003458096054342551,-0.00027218912425083097,0.0,0.9972816147368316
2018-09-12,1,0.00023323974363921948,0.0002840421488276746,-0.00027218912425083097,0.0,0.9973371900001408
2018-09-14,1,0.00020707351341666964,0.00024940178154268084,-7.141658238002232e-05,0.0,0.9974073774825818
2018-09-18,1,0.0002844021067770537,0.00034116235596624617,-7.141658238002232e-05,0.0,0.9973886913071577
2018-09-20,1,0.0002433578674462887,0.000289275589495702,-7.141658238002232e-05,0.0,0.9974349165976327
2018-09-24,1,0.00025772940596854307,0.0003070079113602442,-7.141658238002232e-05,0.0,0.9974189471665854
2018-09-26,1,0.00035464303840835806,0.00041548791083839286,-7.141658238002232e-05,0.0,0.9969904101534202
2018-09-28,1,0.0003986551430899228,0.0004720954608788735,-0.0012394356884942912,0.0,0.9967366624032485
2018-10-02,1,0.0004898892240659643,0.0005773043407965399,-0.0012394356884942912,0.0,0.996963800650826
2018-10-04,1,0.00046927361085571386,0.0005487013379736567,-0.004790345384465223,0.0,0.9958715789895537
2018-10-08,1,0.0005050383346478034,0.0005885904233615222,-0.0012394356884942912,0.0,0.996537091453912
2018-10-10,1,0.000373350973813538,0.0004392182384814104,-0.0012394356884942912,0.0,0.9953336015086555
2018-10-12,1,0.0004456290310063395,0.0005140109167080828,-0.0021281102882780524,0.0,0.9952038177963085
2018-10-16,1,0.0004369806767348165,0.0005045878789260742,-0.0014705657958984375,0.0,0.9954758541823868
2018-10-18,1,0.00043153999746849516,0.0004982052954015688,-0.0014705657958984375,0.0,0.9954790547412861
2018-10-22,1,0.000498247502359192,0.000573470925258334,-0.0019129435507498965,0.0,0.9952792015721267
2018-10-24,1,0.0005019234962414874,0.0005772747200249941,-0.003455243552832429,0.0,0.9949097183500559
2018-10-26,1,0.0005079299028601485,0.0005836222167355024,-0.0019129435507498965,0.0,0.9951091586195622
2018-10-30,1,0.0005155210243163275,0.0005474858466228463,-0.0014811334105754872,0.0003681828861335926,0.9953717253330419
2018-11-01,1,0.0005511977200873203,0.0005980772270876779,-0.0014705657958984375,0.0,0.9964703900352411
2018-11-05,1,0.0005921979524352983,0.0006270114615397821,-0.0014705657958984375,0.0003681828861335926,0.9957563288105367
2018-11-07,1,0.0003682422896471457,0.00037682616691823707,-0.0014705657958984375,0.0,0.9972090374725973
2018-11-09,1,0.00019471893752775343,0.00020875315233216056,-0.0014811334105754872,0.0,0.9952321663817036
2018-11-13,-1,-0.00027576746041998746,-0.0002689610859573373,-0.00037820906365165915,0.0,0.9953299990771608
2018-11-15,-1,-0.0002404052996523245,-0.00023882735560115515,-0.00037820906365165915,0.0,0.995344176053312
2018-11-19,-1,-0.00040457400941176514,-0.00038583172730659207,-0.00037820906365165915,0.0,0.9938884644700755
2018-11-21,-1,-0.0007314844254187612,-0.0006796506625143707,0.0,0.0,0.994271681316978
2018-11-26,-1,-0.0006523781346867261,-0.0006104738437684035,-0.00037820906365165915,0.0,0.9934087278944986
2018-11-28,-1,-0.0005862440540409673,-0.000554513438800669,0.0,0.0,0.9935262088448715
2018-11-30,1,0.000435348325168339,0.00045557210926250324,0.0,0.0,0.9934597297498299
2018-12-04,1,0.00023902907556021957,0.0002443403565980227,0.0,0.0,0.9943634071460963
2018-12-07,1,0.0001960660376791581,0.0002076420781837751,0.0,0.0,0.9944027916111718
2018-12-11,1,0.00042477700348478726,0.00044031465754270575,0.0,0.0,0.9963924621753074
2018-12-13,1,0.0006045472692003818,0.0006461424755249564,0.0,0.0,0.9962010884475454
2018-12-17,1,0.0009907785945651292,0.001089619003016279,0.0,0.0,0.9957895506003163
2018-12-19,1,0.0009962085564821864,0.001099673049164886,0.0,0.0,0.997033804110286
2018-12-21,1,0.0013244208137996425,0.0014543458731290794,0.0,0.0,0.9974399784343425
2018-12-26,1,0.0010747385525842353,0.0011650108178911885,0.0,0.0,0.9986237909980723
2018-12-28,1,0.0009997493662990743,0.0010773244892278602,0.0,0.0,0.9986862869805656
2019-01-02,1,0.0009348911112926049,0.0010301808497835347,0.0,0.0,0.9987343200555219
2019-01-04,1,0.0008206257776840796,0.0008823683847654007,0.0,0.0,0.9988325554203956
2019-01-08,-1,-0.0014533957253862904,-0.001408526358220573,0.0,0.0,0.998073447692682
2019-01-10,-1,-0.001274499098305438,-0.0012558050716310128,0.0,0.0,0.9958600080738338
2019-01-14,-1,-0.0008528185929708094,-0.0008470530764565169,0.0,0.0,0.9962719637994168
2019-01-16,-1,-0.0019414400363735548,-0.00184431593239121,0.0,0.0,0.9919729422319288
2019-01-18,-1,-0.0014927107184258882,-0.0014538836473221438,0.0,0.0,0.992578162205931
2019-01-23,-1,-0.0012539044442649078,-0.0012487385942260708,0.0,0.0,0.9928783671194852
2019-01-25,-1,-0.0014717454270273555,-0.0014687096571222907,0.0,0.0,0.9902052643538977
2019-01-29,-1,-0.0012762806195462221,-0.0012462290436237276,0.0,0.0,0.9904102058553573
2019-01-31,-1,-0.0010839179298279332,-0.0010207751430355886,0.0,0.0,0.990615168995373
2019-02-04,-1,-0.0008914498402065468,-0.0007952206261315957,0.0,0.0,0.9892650437864348
2019-02-06,-1,-0.0006619208270311929,-0.0005394656495558043,0.0,0.001107839975189253,0.989126762478788
2019-02-08,1,0.0009831903292751903,0.001326881729521014,0.0,0.0,0.9914252646526955
2019-02-12,1,0.000739543556946803,0.0009914283701558074,0.0,0.001107839975189253,0.9869806834957301
2019-02-14,1,0.0019387622004699025,0.002323350314345806,0.0,0.0,0.9874881959297857
2019-02-19,1,0.0020631980622516574,0.0024657503591570752,0.0,0.0,0.9872352017825988
2019-02-21,1,0.0020013281460253803,0.0023850937329078434,0.0,0.0,0.9872789077788414
2019-02-25,1,0.0030130011019547636,0.003531762484687756,-0.004311857638648989,0.0,0.9877991720809065
2019-02-27,1,0.002914873062051215,0.0034056652219481183,-0.004311857638648989,0.0,0.9878815229249789
2019-03-01,1,0.002905305992311723,0.00339445864988867,-0.004311857638648989,0.0,0.9879045832933835
2019-03-05,1,0.002149584898821711,0.0025245950406744292,-0.004311857638648989,0.0,0.9873998590795268
2019-03-07,1,0.002345640678671864,0.0027483476766991767,-0.00842674852488052,0.0,0.9867493283005961
2019-03-11,1,0.0023361578461412996,0.0027369953990842187,-0.00842674852488052,0.0,0.9867570981199832
2019-03-13,1,0.0018711478043720799,0.002202594077432026,-0.004316084150284352,0.0,0.9913965332586362
2019-03-15,1,0.0010632712769625145,0.0012890443486755327,-0.00306321148841472,0.0,0.9939972584466653
2019-03-19,1,0.0010326126818376406,0.0012557197364101865,-0.004316084150284352,0.0,0.9936414173288086
2019-03-21,1,0.0008238010101813904,0.0009949069207878356,-0.004316084150284352,0.0,0.993817188943357
2019-03-25,1,0.0004491947088343227,0.0005668202705009562,-0.0007668595000125206,0.0,0.9929504327127718
2019-03-27,1,0.0003769464466833555,0.0004742893981860842,-0.0010102135472429786,0.0,0.9929956357033484
2019-03-29,1,0.00018155621419804668,0.0002283283622521985,-0.003494842993290587,0.0,0.991990085991535
2019-04-02,1,0.0007549026334587118,0.0008771893289005478,-0.003494842993290587,0.0,0.9939225049012379
2019-04-04,1,0.0008123366350019593,0.0009736742582940889,-0.003494842993290587,0.0,0.9939365959172493
2019-04-08,1,0.0008308153608194032,0.0009953882837658713,-0.003494842993290587,0.0,0.9939213190172844
2019-04-10,1,0.0007795908089433296,0.0009365121784548899,-0.0014376185404834832,0.0,0.9941149439798247
2019-04-12,1,0.0004922445769459519,0.0006016616729165088,-0.0014376185404834832,0.0,0.9943520633283803
2019-04-16,1,0.0005899116480737446,0.0007196279604244874,-8.111801574348599e-05,0.0,0.9948031829571305
2019-04-18,1,0.0003772835409155234,0.00045288949402930785,-0.005582793479759075,0.0,0.9923330312712811
2019-04-23,-1,-0.0003862468954803353,-0.00036338518872468034,-0.0014376185404834832,0.0,0.9944930199744643
2019-04-25,-1,-0.0003561562530655732,-0.0003378926139516864,-0.0011942644932530252,0.0,0.9944719584495881
2019-04-29,-1,-5.845731553703399e-05,-3.8832450887078545e-05,-0.001371740811465651,0.0,0.9955329865183321
2019-05-01,1,8.696918851062605e-05,0.0001437934663537884,-0.001371740811465651,0.0,0.9957576022127023
2019-05-03,-1,-0.0001373814931841629,-0.00010904377231243522,-8.695851201596468e-05,0.0,0.9964867950495313
2019-05-07,-1,-0.0006087889795854895,-0.0005366724816336281,-8.695851201596468e-05,0.0,0.9962543487905591
2019-05-09,-1,-0.0005905652466126408,-0.0005211225009888422,-8.695851201596468e-05,0.0,0.9962635113302436
2019-05-13,-1,-0.0005726836633743558,-0.0005058747551103907,-0.0005220068570042072,0.0,0.9962953104410753
2019-05-15,-1,-0.0008925574968611112,-0.0007597846534241546,-0.0005220068570042072,0.0,0.9960059303427278
2019-05-17,-1,-0.001980033657990019,-0.0017103676915827474,-8.695851201596468e-05,0.0,0.9973733674890417
2019-05-21,-1,-0.002198768471424993,-0.0018857400263912834,-8.695851201596468e-05,0.0,0.9972759727947264
2019-05-23,-1,-0.0021733536885428163,-0.0018638221147705776,-8.695851201596468e-05,0.0,0.9968826694216791
2019-05-28,-1,-0.0022639853152257145,-0.0019442377116536114,0.0,0.0,0.9968517091168576
2019-05-30,-1,-0.002412539451827344,-0.002075847934205956,0.0,0.0,0.9969849194533925
2019-06-03,-1,-0.0023900307405616676,-0.0020567601659029606,0.0,0.0,0.9964738505851353
2019-06-05,-1,-0.0023707818235537584,-0.0020403293448991266,-0.0005220068570042072,0.0,0.9959595056653833
2019-06-07,-1,-0.0022896386878747776,-0.00197062781055308,-0.0005220068570042072,0.002179997323932712,0.9957495067227211
2019-06-11,-1,-0.0022987369456775346,-0.0019791648046562885,0.0,0.002179997323932712,0.9956745263649108
2019-06-13,-1,-0.0021154849434787595,-0.001825321605426755,0.0,0.002179997323932712,0.9956121526075418
2019-06-17,-1,-0.0019489618881732684,-0.0016803247645551813,-0.00042734390650040063,0.0004363101664479285,0.9955048130862787
2019-06-19,-1,-0.0019301271899840006,-0.0016642489970140392,-0.00042734390650040063,0.0014867543963675907,0.995444873463592
2019-06-21,-1,-0.0018131974324573485,-0.0015601985295014245,-0.002994366973900351,0.0014867543963675907,0.9941924524865956
2019-06-25,-1,-0.0017053614958572492,-0.0014675031517044663,-0.008603238866396763,0.0014867543963675907,0.9932562012532962
2019-06-27,-1,-0.0017665853532572917,-0.001520991878657002,-0.008791336748952026,0.002179997323932712,0.9920093061844275
2019-07-01,-1,-0.0016965793728641052,-0.0014601372015920662,-0.008791336748952026,0.002179997323932712,0.9919316844110799
2019-07-03,-1,-0.001650750488663475,-0.0014612819948954998,-0.008791336748952026,0.004349318253607614,0.9913208832696472
2019-07-08,-1,-0.001470329678518545,-0.0013034683693811846,-0.009067852813117545,0.0073697345457487,0.9904052657615311
2019-07-10,-1,-0.0004430466542054971,-0.0004363310163672534,-0.011085162066794711,0.008777721600329967,0.9888109127222623
2019-07-12,-1,-0.0002672324149383535,-0.00024888478436794077,-0.01580410291772446,0.008777721600329967,0.987486987127774
2019-07-16,-1,-0.00034948166535021016,-0.0003439245982518803,-0.01533385926643304,0.009559298561566155,0.9866755822945809
2019-07-18,0,-1.9424612737216823e-06,2.3007151666618885e-05,-0.01533385926643304,0.009559298561566155,0.9857848019024167
2019-07-22,-1,-0.0015987461571417936,-0.0015944629884325626,-0.014409824122272074,0.008777721600329967,0.9875049129504951
2019-07-24,-1,-0.00175413062608445,-0.0017525591321245395,-0.010883208665845556,0.008777721600329967,0.9882071761587038
2019-07-26,-1,-0.0017037780392613255,-0.0017019517241860943,-0.013159639382641582,0.006972704120205781,0.9888967266576512
2019-07-30,-1,-0.001821992318420077,-0.001815182313564554,-0.013159639382641582,0.007104900895630961,0.9880068589466457
2019-08-01,-1,-0.0016050072607142075,-0.0015917731313167573,-0.010481548925030507,0.005212189142674392,0.9889920002965934
2019-08-05,-1,-0.0015778996282445753,-0.0015582111590597043,-0.010476496778674765,0.0012028049460048435,0.9901901946073598
2019-08-07,-1,-0.0015399651409423293,-0.0015146191931860466,-0.010476496778674765,0.0,0.9913152253760534
2019-08-09,-1,-0.0014541125013065926,-0.0014410189013465578,-0.009280893042575285,0.0,0.9927820725796098
2019-08-13,-1,-0.001377968660647524,-0.0013770856473057354,-0.009280893042575285,0.0,0.9942340172458769
