JNU-Tangyin/eata/results/Batch4_SP500/Batch4_SP500-RIBT.csv
Date,Action,Predicted_Q25,Predicted_Q75,Actual_Q25,Actual_Q75,RL_Reward
2010-12-14,0,0.0,0.0,-0.01,0.04513888888888889,0.9685522446139602
2010-12-16,0,0.0,0.0,0.0,0.04513888888888889,0.9690215185974185
2010-12-20,1,0.00404959001075741,0.004107097309690548,0.0,0.04513888888888889,0.9693664832941508
2010-12-22,1,0.0037995761002261497,0.00382986614079017,0.0,0.05637254901960784,0.9689048272658473
2010-12-27,-1,-0.005139313364860964,-0.0038343531706494017,0.0,0.05637254901960784,0.9660067284687572
2010-12-29,-1,-0.00285217320572254,-0.0020335197769938843,0.0,0.05637254901960784,0.9661796715373928
2010-12-31,-1,-0.003204386968392965,-0.002095376819575256,0.0,0.04513888888888889,0.9672544425895513
2011-01-04,-1,-0.003881112872682758,-0.002672800076676727,-0.008064516129032258,0.04513888888888889,0.9644603950510445
2011-01-06,1,0.0029310103108657736,0.0033691375732336753,-0.008064516129032258,0.03678571428571428,0.9707755020462645
2011-01-10,1,0.0072307002929833004,0.007535739795000378,0.0,0.03479064039408867,0.9742842866747073
2011-01-12,1,0.010332951485786526,0.011283074177022819,0.0,0.034482758620689655,0.9748717460302819
2011-01-14,1,0.009059549204170899,0.009550228289480631,-0.007575757575757576,0.034482758620689655,0.9708170243341894
2011-01-19,0,0.0,0.0,-0.007575757575757576,0.03362068965517241,0.9768891364378638
2011-01-21,1,0.013342798443041693,0.0143200306542123,-0.007575757575757576,0.03362068965517241,0.9707617098573449
2011-01-25,1,0.012364395298616637,0.013177192235137762,-0.006578947368421052,0.028890959925442685,0.9716069917431455
2011-01-27,1,0.009925396879995378,0.010376173375026318,-0.006578947368421052,0.028890959925442685,0.9727442301751097
2011-01-31,1,0.01036163343981649,0.010830126579539554,-0.026493598862019914,0.027214714714714715,0.9716230025776167
2011-02-02,1,0.006189578764409204,0.006299111250143091,-0.006578947368421052,0.027777777777777776,0.9730502343693712
2011-02-04,1,0.006790069032591231,0.00686229936535695,-0.026493598862019914,0.027214714714714715,0.971208243577371
2011-02-08,1,0.007330118294646951,0.007374018416603665,-0.026493598862019914,0.006756756756756757,0.9719293927283994
2011-02-10,1,0.006841849074177076,0.006928070242176651,-0.02702702702702703,0.006756756756756757,0.9693103109272737
2011-02-14,1,0.011201272981853246,0.01189782457846764,-0.026493598862019914,0.0,0.9723532064637666
2011-02-16,1,0.008428459876412275,0.008517949749297087,-0.02702702702702703,0.006756756756756757,0.9669638223749181
2011-02-18,0,0.0,0.0,-0.033783783783783786,0.0,0.9726977808043443
2011-02-23,0,0.0,0.0,-0.033783783783783786,0.006944444444444444,0.9724644138691597
2011-02-25,0,0.0,0.0,-0.033783783783783786,0.027777777777777776,0.9708792391795231
2011-03-01,0,0.0,0.0,-0.03494208494208494,0.006944444444444444,0.9729727672848932
2011-03-03,1,0.007795631751813095,0.00786644030496107,-0.007142857142857143,0.028409090909090908,0.9689714698955586
2011-03-07,1,0.003949430908170356,0.004369479773415282,-0.007142857142857143,0.028409090909090908,0.9684836499916557
2011-03-09,1,0.0006412615162592694,0.0016595389765752021,-0.0361344537815126,0.028409090909090908,0.9651821619610444
2011-03-11,0,-0.0009256139910185971,0.00011136732867798827,-0.007142857142857143,0.030539772727272728,0.966266538876066
2011-03-15,-1,-0.001752536132330507,-0.0006036353379854464,-0.03142857142857143,0.030539772727272728,0.964245574689286
2011-03-17,0,-0.0009272998195836058,0.00015258511021844093,-0.03142857142857143,0.030539772727272728,0.9683804843867659
2011-03-21,-1,-0.003332886787543252,-0.0019419033437599394,-0.007142857142857143,0.028645833333333332,0.9715456322790016
2011-03-23,1,0.0001261560396958795,0.0009087664045792417,-0.03142857142857143,0.006944444444444444,0.9690810692700035
2011-03-25,1,0.0042161400860569204,0.004389783562659395,-0.0431578947368421,0.0,0.9626102226670636
2011-03-29,1,0.007232458964486009,0.00794062004954215,-0.04887218045112782,0.006944444444444444,0.9562195815093382
2011-03-31,1,0.01062576077531814,0.011782718104759808,-0.05065789473684211,0.0,0.9542225850114892
2011-04-04,1,0.006942986013080729,0.007713410755035578,-0.04821428571428571,0.0,0.9594994428874307
2011-04-06,1,3.967285356050801e-05,0.0003733296278984025,-0.0419047619047619,0.010416666666666666,0.9656758013603521
2011-04-08,1,0.0003349378800462223,0.0007530965447300759,-0.0419047619047619,0.043154761904761904,0.9607042769430648
2011-04-12,-1,-0.00349117387400326,-0.0025004766581645087,-0.04821428571428571,0.043154761904761904,0.9570308552461038
2011-04-14,-1,-0.003949619218554655,-0.002889214448946458,-0.05065789473684211,0.011904761904761904,0.954895831472568
2011-04-18,-1,-0.002786303068774788,-0.001976605968737664,-0.05065789473684211,0.011904761904761904,0.9548713626462262
2011-04-20,-1,-0.007947169661944545,-0.0065304912158236795,-0.04821428571428571,0.04821428571428571,0.9563180649196033
2011-04-25,-1,-0.016697758573210767,-0.014144295800708133,-0.043154761904761904,0.04821428571428571,0.956963244850135
2011-04-27,-1,-0.014238066493971947,-0.011972126111473462,-0.010416666666666666,0.047619047619047616,0.963196412118114
2011-04-29,0,0.0,0.0,-0.010416666666666666,0.047619047619047616,0.9664586383357984
2011-05-03,0,0.0,0.0,-0.04261363636363636,0.047619047619047616,0.9646742980324224
2011-05-05,-1,-0.013034950208453697,-0.010813172986639273,-0.04261363636363636,0.047619047619047616,0.9611626193725008
2011-05-09,-1,-0.004636047261144789,-0.0035087303267951207,-0.04887218045112782,0.0,0.9644348057974674
2011-05-11,-1,-0.012303290452256633,-0.010155020345320197,-0.04599567099567099,0.0,0.9668895916841431
2011-05-13,-1,-0.018600865696261078,-0.015740757199392517,-0.011363636363636364,0.011904761904761904,0.9644695749565613
2011-05-17,-1,-0.020298353367113383,-0.017112426641531998,-0.011363636363636364,0.047619047619047616,0.9613020208584259
2011-05-19,0,0.0,0.0,-0.011363636363636364,0.011904761904761904,0.9711937100695056
2011-05-23,0,0.0,0.0,-0.04724880382775119,0.0,0.9709573723019053
2011-05-25,-1,-0.00976421761903099,-0.008292578404985313,-0.05263157894736842,0.011904761904761904,0.9615014686630319
2011-05-27,-1,-0.009522627269519666,-0.007987984857319809,-0.05263157894736842,0.05138888888888889,0.9597617442379484
2011-06-01,0,0.0,0.0,-0.05263157894736842,0.05138888888888889,0.9641456129233605
2011-06-03,0,0.0,0.0,-0.05263157894736842,0.05555555555555555,0.9611626057371416
2011-06-07,0,0.0,0.0,-0.013157894736842105,0.05555555555555555,0.965445751692052
2011-06-09,0,0.0,0.0,-0.05263157894736842,0.05555555555555555,0.9629991111637461
2011-06-13,0,-0.0087269934758098,0.0,-0.013157894736842105,0.05555555555555555,0.9697207364014984
2011-06-15,-1,-0.010396297661369538,-0.009331702421953601,-0.013157894736842105,0.013888888888888888,0.9664196350841805
2011-06-17,-1,-0.00985090940531162,-0.008867910134547186,-0.05263157894736842,0.05555555555555555,0.962219831493647
2011-06-21,0,0.0,0.0,-0.05263157894736842,0.05555555555555555,0.965157266558085
2011-06-23,0,0.0,0.0,-0.013157894736842105,0.05555555555555555,0.9700104275286757
2011-06-27,0,0.0,0.0,-0.05263157894736842,0.0,0.9727857579078582
2011-06-29,-1,-0.009157829304999787,-0.008299565599560388,-0.0533625730994152,0.0,0.9695585662828058
2011-07-01,-1,-0.008323001207222422,-0.0076495274916716875,-0.013157894736842105,0.0,0.9743801294813517
2011-07-06,-1,-0.005684271511930841,-0.005339732339169103,-0.013157894736842105,0.0,0.9780826923313267
2011-07-08,-1,-0.005769933385770949,-0.005528913639988811,-0.013888888888888888,0.0,0.9775061799526032
2011-07-12,-1,-0.005061399024493413,-0.004893276622207562,-0.05555555555555555,0.0,0.9688059312147821
2011-07-14,-1,-0.00243641480500949,-0.0020309164597563465,-0.05555555555555555,0.0,0.9637044689004314
2011-07-18,-1,-0.002232022193196617,-0.0017140705854147978,-0.05637254901960784,0.0,0.9660483784228053
2011-07-20,-1,-0.0028833058976018584,-0.0024376336153460517,-0.05637254901960784,0.0,0.963492888521248
2011-07-22,-1,-0.000912218103270209,-0.0001464808908445644,-0.05637254901960784,0.014705882352941176,0.9615186493504813
2011-07-26,-1,-0.002371006262838861,-0.001828645884580259,-0.058823529411764705,0.014705882352941176,0.958350482695831
2011-07-28,-1,-0.00540540191559895,-0.005346285505743244,-0.05637254901960784,0.014705882352941176,0.959442055033526
2011-08-01,-1,-0.0054358059235762425,-0.0053685675787723845,-0.05637254901960784,0.014705882352941176,0.9594356606523339
2011-08-03,-1,-0.005729866329800314,-0.005669356630403525,-0.05637254901960784,0.014705882352941176,0.9593234216764389
2011-08-05,-1,-0.007123744192969968,-0.0068914119049292835,-0.013888888888888888,0.014705882352941176,0.9611361661040895
2011-08-09,-1,-0.007334180313598419,-0.007131172168360197,-0.013888888888888888,0.014705882352941176,0.9646684342440913
2011-08-11,-1,-0.0075211628729219895,-0.007281547665592073,0.0,0.0,0.9703605870055053
2011-08-15,-1,-0.007947830097753395,-0.007726907703084798,0.0,0.0,0.9703044978638825
2011-08-17,-1,-0.0034210304650014126,-0.002925269896156998,0.0,0.0,0.9746146625488397
2011-08-19,-1,-0.0017683986100052096,-0.0010752334839216433,-0.013888888888888888,0.0,0.9754773884828418
2011-08-23,-1,-0.002263598587355892,-0.0014730780781970812,0.0,0.0,0.9803167228143491
2011-08-25,-1,-0.003225519169332631,-0.0026224397884492203,-0.014705882352941176,0.0,0.9740274522457536
2011-08-29,-1,-0.0035236123808206395,-0.0031649154244495423,-0.014705882352941176,0.0,0.9703620889572625
2011-08-31,-1,-0.002713505364600039,-0.0022128953291932364,-0.014705882352941176,0.015625,0.9676982991665783
2011-09-02,-1,-0.003941279847815421,-0.003551940826133357,-0.0625,0.015625,0.9617772579679205
2011-09-07,-1,-0.0032920792548201674,-0.0028232462972269073,-0.0625,0.0,0.9629914232203841
2011-09-09,-1,-0.002506649927501452,-0.001958642299943175,-0.0625,0.06666666666666667,0.9555855717605569
2011-09-13,-1,-0.003559266113910083,-0.003283373609683861,-0.0625,0.06666666666666667,0.948910032390364
2011-09-15,-1,-0.004692553525354813,-0.004636125086067343,-0.06354166666666666,0.06666666666666667,0.9429359207808584
2011-09-19,-1,-0.0039066445723435015,-0.0038585117589113372,-0.06666666666666667,0.06785714285714285,0.9399318170334277
2011-09-21,-1,-0.004641462944299202,-0.004517516562497663,-0.06666666666666667,0.06785714285714285,0.9356213181082772
2011-09-23,-1,-0.006241594137489525,-0.00598642050136643,-0.06354166666666666,0.06785714285714285,0.9349504215355673
2011-09-27,-1,-0.0034770639999148474,-0.0033196603594798655,-0.06354166666666666,0.06666666666666667,0.9363771704122515
2011-09-29,0,-0.000502811720568781,0.0002801819503772678,-0.06354166666666666,0.06354166666666666,0.9398775104054685
2011-10-03,-1,-0.004359192054311459,-0.004304923398221491,-0.058823529411764705,0.06354166666666666,0.9391422576160503
2011-10-05,-1,-0.007893171708210096,-0.007306197611886824,-0.058823529411764705,0.06354166666666666,0.9388033710723185
2011-10-07,-1,-0.00408757468557722,-0.0039669631292672865,-0.059742647058823525,0.0625,0.9412408734136416
2011-10-11,-1,-0.0023215535624660274,-0.0021793595031944614,-0.06354166666666666,0.059742647058823525,0.9443607740349304
2011-10-13,-1,-0.0010043715723922332,-0.0006138988915391685,-0.059742647058823525,0.059742647058823525,0.9499240049216437
2011-10-17,0,-3.0409479630277457e-05,0.0004941173549111652,-0.058823529411764705,0.059742647058823525,0.9557756781423805
2011-10-19,-1,-0.0020068783514290626,-0.0017073381100967079,-0.059742647058823525,0.059742647058823525,0.957452890220652
2011-10-21,-1,-0.0006086526619780246,-0.00017823197150253732,-0.059742647058823525,0.0,0.9635119479488498
2011-10-25,-1,-0.0013509800986483112,-0.0010202581734106242,-0.06354166666666666,0.015625,0.9589612005486338
2011-10-27,-1,-0.002639107831958288,-0.002627950124469558,-0.06354166666666666,0.015625,0.9584213025849553
2011-10-31,0,0.0,0.0,-0.06666666666666667,0.0,0.961443221363057
2011-11-02,0,0.0,0.0,-0.06354166666666666,0.016666666666666666,0.9625109902096238
2011-11-04,0,0.0,0.0,-0.06666666666666667,0.0,0.9651929502024076
2011-11-08,0,0.0,0.0,0.0,0.0,0.9716685649202733
2011-11-10,0,0.0,0.0,-0.016666666666666666,0.0,0.9705803928539685
2011-11-14,1,0.0017456414266942323,0.0018817572860695163,-0.06785714285714285,0.0,0.9638382960475618
2011-11-16,1,0.0010488363630905282,0.0012169070493814166,-0.017857142857142856,0.0,0.96739871699009
2011-11-18,1,0.00028022011069872837,0.00028770002158389103,-0.017857142857142856,0.019230769230769232,0.9605189298941741
2011-11-22,1,0.00034796997482902886,0.0003718888564296963,-0.017857142857142856,0.0,0.9640165259155865
2011-11-25,1,0.0015436403612784306,0.0018519438769868239,-0.07142857142857142,0.0,0.9559805735927343
2011-11-29,1,0.00018729216662685636,0.00026855986241729147,-0.07142857142857142,0.0,0.9599974000624686
2011-12-01,1,0.0028392039534731977,0.003269494189236726,-0.07142857142857142,0.0,0.9617821455933597
2011-12-05,1,0.001085252579907072,0.0012917407793559725,-0.017857142857142856,0.019230769230769232,0.9583120663896866
2011-12-07,1,0.0010647819122181076,0.0012817103891254538,-0.07142857142857142,0.019230769230769232,0.9550541033615936
2011-12-09,-1,-0.0014855052512059608,-0.001312784219284575,-0.017857142857142856,0.019230769230769232,0.9595165575709369
2011-12-13,-1,-0.00019000884408354725,-0.00012889169032637596,0.0,0.0,0.9689079987472865
2011-12-15,-1,-0.00016190908093935834,-0.00014686435082060894,-0.017857142857142856,0.0,0.9653142692660593
2011-12-19,1,0.003940020895964749,0.004415693067058631,-0.017857142857142856,0.0,0.9698379020037299
2011-12-21,1,0.002027435318948798,0.002252074506294539,-0.017857142857142856,0.0,0.9655174263194676
2011-12-23,-1,-0.0020142233720951913,-0.0017495688885909993,0.0,0.0,0.9692959125169115
2011-12-28,-1,-0.002486860967393841,-0.002099572032688829,0.0,0.0728021978021978,0.9621404650614152
2011-12-30,-1,-0.003163141435240466,-0.0027276573880239976,0.0,0.0728021978021978,0.9589549364660175
2012-01-04,1,0.0020475371440043166,0.0023024137759475906,-0.06785714285714285,0.0,0.9595771177407322
2012-01-06,-1,-0.00016187280941817596,-4.427085631720362e-05,-0.016666666666666666,0.017857142857142856,0.959798150480647
2012-01-10,1,0.0016259195045180415,0.0019256821821318428,-0.06785714285714285,0.0728021978021978,0.9519537213773911
2012-01-12,1,0.002983023079251624,0.003595670999636252,-0.06785714285714285,0.0728021978021978,0.9515306248866523
2012-01-17,1,5.6005528486602086e-05,0.00012331472326505016,-0.016666666666666666,0.0728021978021978,0.9559741475098349
2012-01-19,1,1.811043419966708e-05,8.801167654421665e-05,-0.016666666666666666,0.07852564102564102,0.9522028523463054
2012-01-23,1,3.078597115077899e-05,0.00010333221396417909,0.0,0.0728021978021978,0.9613455423429891
2012-01-25,1,0.002091103549815138,0.002436195371136509,0.0,0.017857142857142856,0.9642802716575717
2012-01-27,1,0.005250155932781175,0.0060094762335098344,0.0,0.0,0.9686480050780601
2012-01-31,1,0.003009446352153929,0.0034726128951107936,0.0,0.0,0.9732921174114665
2012-02-02,0,-1.2797214097138746e-05,4.47231765354319e-05,0.0,0.0,0.9758604961823213
2012-02-06,1,0.00047321709265488843,0.00048524207479042807,0.0,0.0,0.9798882439126568
2012-02-08,1,0.0014096709835147109,0.0016447218773035087,0.0,0.0,0.983253631298765
2012-02-10,1,0.0013635468421487414,0.0016475503517259466,0.0,0.0,0.983280985767183
2012-02-14,1,0.001400431859253981,0.0016916649875989504,0.0,0.0,0.9832554528262971
2012-02-16,1,0.0016533088991561354,0.001806715936389634,0.0,0.0,0.9869584127637101
2012-02-21,1,0.002620274318293131,0.0030163180172521923,0.0,0.0,0.9861557816143189
2012-02-23,1,0.003488423962317948,0.004098896366038985,0.0,0.0,0.9854369816584306
2012-02-27,1,0.001955986950391961,0.0021598136394180073,0.0,0.0,0.9867122667809181
2012-02-29,1,0.0008520523550869084,0.0008932178091793932,0.0,0.0,0.9876062500172501
2012-03-02,1,0.00346428136216982,0.004018834569151246,0.0,0.0,0.9928927735480517
2012-03-06,1,0.003361471229730059,0.0039033281295413128,0.0,0.0,0.9898825739989401
2012-03-08,1,0.006582493995716076,0.007574468978335408,0.0,0.0,0.9869951566428907
2012-03-12,1,0.005656248626706971,0.006479003832876293,0.0,0.0,0.9843926721643981
2012-03-14,1,0.004074160658855735,0.004541114666410732,0.0,0.0,0.9858954164052947
2012-03-16,1,0.005411388948329102,0.00622313696942569,0.0,0.0,0.981525385848759
2012-03-20,1,0.004543884123755232,0.005121042851704039,0.0,0.0,0.9739784003573086
2012-03-22,1,0.004075544575491575,0.004584302755955932,0.0,0.0,0.9742947944718501
2012-03-26,1,0.004522996837415352,0.005202330290825766,0.0,0.0,0.9703493437428506
2012-03-28,1,0.0033246925854290158,0.0037082475823450997,-0.016666666666666666,0.0,0.9672485703897735
2012-03-30,1,0.003409987445601651,0.0038361023300840453,-0.016666666666666666,0.0,0.9633191388625303
2012-04-03,1,0.0027520307977151313,0.0028975033580345587,-0.016666666666666666,0.0,0.9667307851038603
2012-04-05,1,0.002065990900343987,0.002273272659707218,-0.017857142857142856,0.0,0.9663961873932903
2012-04-10,1,0.0016671964818356104,0.0019404327744154705,0.0,0.0,0.9659283569415209
2012-04-12,1,0.0008914203311042369,0.0009797527639805901,0.0,0.0,0.9663564783409407
2012-04-16,1,0.002359589362848421,0.00263873510947272,0.0,0.0,0.9688875219230516
2012-04-18,1,0.002381843947479292,0.002658344849778843,0.0,0.0,0.9725411920933765
2012-04-20,1,0.002953196924920665,0.0033293705104364465,-0.019230769230769232,0.0,0.9630494101645534
2012-04-24,-1,-0.0004775064976074472,-0.00034680022763378614,-0.020833333333333332,0.0,0.9637822907919661
2012-04-26,-1,-0.0006948528113413273,-0.0006366931418077016,0.0,0.0,0.9627998692342126
2012-04-30,1,0.0006484706745575382,0.0006513672463077258,0.0,0.0,0.9669624823264731
2012-05-02,1,0.0005533960760174552,0.000564578486056519,0.0,0.0,0.9624233849713635
2012-05-04,-1,-0.002858947073983405,-0.002384465301978403,0.0,0.0,0.9606529493670831
2012-05-08,-1,-0.0011359000296939608,-0.0008625770101988503,0.0,0.0,0.9657100723852402
2012-05-10,-1,-0.0012481093596327015,-0.000958044722307079,-0.025,0.0,0.9611345638483717
2012-05-14,1,0.0010297088970355876,0.0012266838168151282,-0.025,0.0,0.9563790097887934
2012-05-16,-1,-0.0017148452426645228,-0.0015067383294295618,-0.025,0.0,0.9562759568594856
2012-05-18,-1,-0.003919182403601772,-0.003287390778420053,-0.025,0.0,0.9555184638114568
2012-05-22,-1,-0.007136071477434874,-0.006142919565051889,0.0,0.025,0.9536077806593433
2012-05-24,-1,-0.004969789847326902,-0.004230671589628962,-0.025,0.0,0.9551022130948289
2012-05-29,-1,-0.002946603787352912,-0.002612069388612771,-0.025,0.0,0.9557875473803227
2012-05-31,-1,-0.0021574359016964693,-0.0018430700300204844,-0.025,0.0,0.9561362597767038
2012-06-04,-1,-0.004211299796240152,-0.0036588187384635875,0.0,0.0,0.9595318068075639
2012-06-06,-1,-0.004145287038110049,-0.0036027993941622725,0.0,0.0,0.9595624150510585
2012-06-08,-1,-0.007635861431298824,-0.006586896659292735,0.0,0.0,0.9618192377493066
2012-06-12,-1,-0.005456043994762721,-0.004662330390693643,0.0,0.0,0.9677465729312386
2012-06-14,-1,-0.007237929168486797,-0.00625879755803198,0.0,0.0,0.9659846184313398
2012-06-18,-1,-0.006597170846289878,-0.00574968884648229,0.0,0.0,0.975161335376758
2012-06-20,-1,-0.0018756125682411035,-0.001752345500677388,0.0,0.0,0.9836514624296273
2012-06-22,-1,-0.0039883902598773216,-0.003577195970511032,0.0,0.0,0.9819677391428498
2012-06-26,-1,-0.007345998347917746,-0.006344012811803367,0.0,0.0,0.9746015840355783
2012-06-28,-1,-0.003095253033742213,-0.00272045055636541,0.0,0.0,0.9827241165179423
2012-07-02,-1,-0.003853088538385654,-0.0034299834936753577,0.0,0.0,0.982091491038752
2012-07-05,-1,-0.003699385725116363,-0.0032988520089487746,0.0,0.0,0.9822129547263924
2012-07-09,-1,-0.003555276524845217,-0.003176180085985871,0.0,0.0,0.9823267185207454
2012-07-11,-1,-0.0023883798250380673,-0.0022536070429323503,0.0,0.0,0.9741001199162441
2012-07-13,-1,-0.0010732345102105667,-0.0010381756816477956,0.0,0.0,0.9749158223912773
2012-07-17,-1,-0.001745319342472284,-0.0016976313493449018,0.0,0.0,0.9744762906433156
2012-07-19,-1,-0.000233622471835983,-0.0001099250160102839,0.0,0.0,0.9708159166035907
2012-07-23,-1,-0.0035527414083558416,-0.0032801816603368786,0.0,0.0,0.9734080852614917
2012-07-25,-1,-0.0008599000752599655,-0.0008054988497019355,0.0,0.0,0.9798462411112637
2012-07-27,-1,-0.0007046313929705504,-0.0006232724185725833,0.0,0.0,0.9799666132087246
2012-07-31,1,0.0002576072414970788,0.0005386483567180697,0.0,0.0,0.9800748711639253
2012-08-02,1,0.00044710178211978635,0.0007601272317045599,0.0,0.0,0.9799003328662772
2012-08-06,0,0.0,0.0,0.0,0.0,0.9803921568627451
2012-08-08,0,0.0,0.0,0.0,0.0,0.9900990099009901
2012-08-10,0,0.0,0.0,0.0,0.0,0.9950248756218907
2012-08-14,0,0.0,0.0,0.0,0.0,0.9852216748768474
2012-08-16,-1,-0.0022262905239535924,-0.002129505092248116,0.0,0.0,0.9881906967614883
2012-08-20,0,0.0,0.0,0.0,0.0,0.9900990099009901
2012-08-22,0,0.0,0.0,0.0,0.0,0.9852216748768474
2012-08-24,0,0.0,0.0,0.0,0.0,0.9756097560975611
2012-08-28,0,0.0,0.0,0.0,0.0,0.970873786407767
2012-08-30,0,0.0,0.0,0.0,0.0,0.9661835748792271
2012-09-04,-1,-0.0011301345256679981,-0.0010695385433040102,0.0,0.0,0.9655869721419045
2012-09-06,1,0.00022944982321632004,0.0006189117084882739,-0.025,0.0,0.9568248833619859
2012-09-10,-1,-0.0004606326314176776,-0.0001902398264557693,-0.025,0.0,0.9568865354608035
2012-09-12,1,0.00048270228545982266,0.0009118020734628228,0.0,0.0,0.9658355968099823
2012-09-14,-1,-0.001498756014371359,-0.001490484657928204,0.0,0.0,0.9607126310573261
2012-09-18,-1,-0.002762009575957163,-0.002502412544266618,0.0,0.0,0.9601611072676548
2012-09-20,-1,-0.003856867695382465,-0.003599794725178589,0.0,0.0,0.9638174932156747
2012-09-24,-1,-0.003529224197548214,-0.003350347662026453,0.0,0.0,0.9683186132475455
2012-09-26,-1,-0.009695208643612311,-0.008594790816355766,0.0,0.0,0.9679413395421456
2012-09-28,-1,-0.003861676941447982,-0.003663343751826629,0.0,0.0,0.9724160325774733
2012-10-02,-1,-0.0030249316272461966,-0.002823941621169164,0.0,0.0,0.9687092695151859
2012-10-04,-1,-0.003115177104495284,-0.002968400062825116,0.0,0.0,0.9686115419780297
2012-10-08,-1,-0.004106618618347717,-0.0037181597630607725,0.0,0.0,0.968001445471855
2012-10-10,-1,-0.004595821489499739,-0.0040910776403327905,0.0,0.0,0.9676990533282263
2012-10-12,-1,-0.0021217043046643405,-0.0017325617307629528,0.0,0.0,0.9742145154024282
2012-10-16,-1,-0.0008746026961059849,-0.0007885898488987745,0.0,0.0,0.9749924385916325
2012-10-18,-1,-0.0004614637620460176,-0.0004512143643102945,0.0,0.0,0.9658880353604083
2012-10-22,1,0.0032472585392949883,0.003873838959602913,0.0,0.0,0.9640187736238826
2012-10-24,1,0.00241987030787951,0.0027817504236062433,0.0,0.0,0.9602102417109545
2012-10-26,1,0.005076918347765319,0.005784989956223939,0.0,0.0,0.9628238252535413
2012-11-01,1,0.0015084753121264827,0.0015962320829712878,0.0,0.0,0.9698727535978986
2012-11-05,1,0.003129750142763399,0.003590234343636229,0.0,0.0,0.9778987603073357
2012-11-07,0,0.0,0.0,0.0,0.0,0.9756097560975611
2012-11-09,0,0.0,0.0,0.0,0.0,0.9661835748792271
2012-11-13,1,0.0009345465732592903,0.000938159386832068,0.0,0.0,0.9655729993822824
2012-11-15,-1,-0.0014590958823419461,-0.0009996191102911907,0.0,0.0,0.9656397905756899
2012-11-19,-1,-0.0006631330727651177,-0.00028962806140749075,0.0,0.0,0.9753878341554596
2012-11-21,-1,-0.0020028440760973794,-0.001616297644381449,0.0,0.0,0.9790728884821276
2012-11-26,1,0.0008263008130186671,0.0008863754696465649,0.0,0.0,0.9844799716802074
2012-11-28,1,0.0006343372520068215,0.0007225685572346957,0.0,0.0,0.9846378918174428
2012-11-30,1,0.0004544435112946802,0.000573370310329004,0.0,0.0,0.9799592228491308
2012-12-04,1,0.0002601006714583056,0.0004073433342132864,0.0,0.0,0.9753822503359058
2012-12-06,0,-2.3107370979896265e-05,4.6520525884719406e-05,0.0,0.0,0.9756032741544083
2012-12-10,0,-1.1181016296619788e-05,6.02289836673854e-05,0.0,0.0,0.9803782218482998
2012-12-12,1,1.760621655901503e-05,9.270218022174043e-05,0.0,0.0,0.9803630267607165
2012-12-14,-1,-0.0013337475775964706,-0.001120233269504696,0.0,0.0,0.9748473954174566
2012-12-18,1,0.0003937699425731175,0.0005494898248567389,0.0,0.0,0.9659144791090153
2012-12-20,1,0.00047923442510640183,0.0006530688547020295,-0.025,0.0,0.9566804234197884
2012-12-24,1,0.0005805693804165058,0.0007753207629771847,-0.025,0.025,0.9521432820110859
2012-12-27,1,0.0006240927009194401,0.0008233320232206632,-0.025,0.1,0.9476863846259337
2012-12-31,-1,-0.0023216185857325724,-0.0021621273782218005,-0.022727272727272728,0.1,0.9428594778791362
2013-01-03,-1,-0.001407123433358278,-0.0011523452532992207,-0.09090909090909091,0.1,0.9394168530329104
2013-01-07,-1,-0.001456484593164383,-0.0013428151651567089,-0.022727272727272728,0.1,0.9436224603277628
2013-01-09,1,0.0013142599920144796,0.0015557729052456627,-0.022727272727272728,0.1,0.9439254105454984
2013-01-11,1,0.00036154884540272976,0.00037159151799265083,-0.09090909090909091,0.1,0.9357122601919181
2013-01-15,-1,-0.0014708078403133941,-0.0012675814482871525,-0.09090909090909091,0.1,0.9357691353927495
2013-01-17,-1,-0.0015016281378418164,-0.0012938835450687592,-0.022727272727272728,0.1,0.9444665996272115
2013-01-22,0,0.0,0.0,0.0,0.1,0.9540329575021683
2013-01-24,0,0.0,0.0,-0.022727272727272728,0.1,0.9495036685369012
2013-01-28,1,0.0006677461462501706,0.0007464385864353815,-0.09090909090909091,0.025,0.9492130203166298
2013-01-30,1,1.961121082233696e-05,2.766850464262365e-05,-0.022727272727272728,0.0,0.9581776226486511
2013-02-01,1,0.0001940314889279751,0.00020601349351811245,0.0,0.0,0.9622722991449237
2013-02-05,1,0.0009734931356332451,0.001147568992036334,-0.022727272727272728,0.0,0.9572413758695876
2013-02-07,1,0.002345469312812111,0.002688107704637946,-0.022727272727272728,0.0,0.9608356752008163
2013-02-11,1,0.0020323635010777224,0.002283812059274982,0.0,0.0,0.9697211533578202
2013-02-13,1,0.0008776088915693984,0.0009748337992569191,0.0,0.0,0.9749225018241291
2013-02-15,0,-6.511076176233822e-05,2.7217351795702548e-05,0.0,0.0,0.9756037900591309
2013-02-20,-1,-0.0006096424864171051,-0.0005135480325045117,0.0,0.0,0.9752602581139126
2013-02-22,-1,-0.0009521407329731665,-0.0007037304735434322,0.0,0.0,0.9846248066926042
2013-02-26,-1,-0.0025433298618946737,-0.00216244216223872,0.0,0.0,0.988064664349231
2013-02-28,-1,-0.0024513892048144185,-0.0020714568820218112,0.0,0.0,0.9881449410439092
2013-03-04,-1,-0.0009546581865598585,-0.0007577648234337988,0.0,0.0,0.9894645151995878
2013-03-06,-1,-0.0017913165551749527,-0.0014736880595190467,0.0,0.0,0.9838283323851557
2013-03-08,-1,-0.0017406307705166084,-0.001435389242295001,0.0,0.0,0.9792280536551782
2013-03-12,-1,-0.0004200056673769664,-0.00037455842913932194,0.0,0.0,0.9800950395304996
2013-03-14,-1,-0.0007825647681574221,-0.0006646608830707767,0.0,0.0,0.9750803107223853
2013-03-18,0,0.0,0.0,0.0,0.0,0.970873786407767
2013-03-20,1,0.00044159456809317365,0.00046334789160734326,0.0,0.0,0.9705808304258112
2013-03-22,1,0.00042545567465837483,0.0004444199165371082,0.0,0.0,0.9659041942721805
2013-03-26,0,0.0,0.0,-0.025,0.0,0.9569377990430623
2013-03-28,0,0.0,0.0,-0.025,0.025,0.9523809523809523
2013-04-02,0,0.0,0.0,-0.025,0.025,0.9523809523809523
2013-04-04,0,0.0,0.0,-0.025,0.0,0.9615384615384615
2013-04-08,1,0.0016288870388417231,0.0017420166783844008,0.0,0.0,0.960639557584375
2013-04-10,1,0.0010321874062562007,0.0010393697345627184,0.0,0.0,0.9609664574982592
2013-04-12,1,0.0031050629937297474,0.0033600765482674775,-0.025,0.0,0.959513935264867
2013-04-16,1,0.0019364549292105553,0.002084965700346649,0.0,0.0,0.9649085588775261
2013-04-18,1,0.0013551890660194353,0.001410944060684644,0.0,0.0,0.9652945891310271
2013-04-22,1,0.0005221115137040346,0.0005458998588042396,0.0,0.0,0.9705275825526188
2013-04-24,1,0.0006830565441958714,0.0007070010650836415,0.0,0.0,0.9704214635893671
2013-04-26,1,0.003177162934739142,0.0034712000171533545,0.0,0.0,0.9687594441939457
2013-04-30,1,0.000502706831155046,0.0005919373091179067,0.0,0.0,0.9752680087616337
2013-05-02,-1,-0.0007638958864675568,-0.0004298572432944721,0.0,0.0,0.9752156645786432
2013-05-06,1,0.0024121371448771263,0.002466272623862232,0.0,0.0,0.9785299695688133
2013-05-08,1,0.0021341263533298563,0.0021403474464503254,0.0,0.0,0.9787526398845086
2013-05-10,1,7.273619417767644e-05,0.00025903158267731466,0.0,0.0,0.9755468327390298
2013-05-14,0,-4.5503831609922866e-05,0.00014705638986154746,0.0,0.0,0.9708699362388624
2013-05-16,1,0.0006891109130541585,0.0008022783875965122,0.0,0.0,0.9704106181603984
2013-05-20,1,0.00046281656472446295,0.0006048776854024613,0.0,0.0,0.961286626525956
2013-05-22,1,0.00012075477247237756,0.00032562142943710177,0.0,0.0,0.9660890744290266
2013-05-24,1,0.0010094629354391374,0.0011959491138839626,0.0,0.0,0.9700762230809818
2013-05-29,1,0.002159683884741454,0.0022290913517088087,0.0,0.0,0.969234219257483
2013-05-31,-1,-0.0007971330053547837,-0.0003577598885520514,0.0,0.0,0.9706867468494604
2013-06-04,1,0.0012118768948837478,0.001291696430419882,0.0,0.0,0.969944988154079
2013-06-06,0,-0.0002874022940374389,1.2293565342518594e-05,0.0,0.0,0.9708716435839392
2013-06-10,0,-0.0002021296682866707,0.0001693767583881801,0.0,0.0,0.9803389267479361
2013-06-12,-1,-0.0018908082625472224,-0.0013390454778812657,0.0,0.0,0.9794488668842062
2013-06-14,-1,-0.002543853316817622,-0.001928389951931687,0.0,0.0,0.9790482865620341
2013-06-18,-1,-0.0011681947531619614,-0.0008054512518904113,0.0,0.0,0.9893929868490492
2013-06-20,-1,-0.0017873083077678247,-0.0014719278022487358,0.0,0.0,0.9840157096853485
2013-06-24,-1,-0.0014079833804321066,-0.001183361398164287,0.0,0.0,0.9842578024044332
2013-06-26,-1,-0.001234929024463302,-0.0010395546470383789,0.0,0.0,0.9795539898082545
2013-06-28,-1,-0.002429991274396302,-0.0022525281356053106,0.0,0.0,0.9786273816325748
2013-07-02,-1,-0.0010042024512253854,-0.0009036995037407374,0.0,0.0,0.9796774551525269
2013-07-05,-1,-0.0007715150548376203,-0.0006085187131465643,0.0,0.0,0.9798915187674503
2013-07-09,-1,-0.0015834158669487106,-0.0015499381251009615,0.0,0.0,0.9791950444132816
2013-07-11,-1,-0.0036604600050416866,-0.0033985464466745646,0.0,0.0,0.9773734512369986
2013-07-15,-1,-0.0033675716995105027,-0.0031485129250193597,0.0,0.0,0.9776027951988372
2013-07-17,-1,-0.002877769517181625,-0.0027098194667615934,0.0,0.0,0.9779973864028141
2013-07-19,-1,-0.003910866197197839,-0.00352786232473562,0.0,0.0,0.9820200693933526
2013-07-23,-1,-0.003706200581903581,-0.003353092946906403,0.0,0.0,0.9821818739171111
2013-07-25,-1,-0.00034396568451959585,-0.00015405664581452433,0.0,0.0,0.9850226137969156
2013-07-29,-1,-0.0014769772631321614,-0.0014120927128442743,0.0,0.0,0.9792944502793632
2013-07-31,-1,-0.0012722095054277882,-0.0012322982271586774,0.0,0.0,0.9746643402872555
2013-08-02,-1,-0.0011522263862805537,-0.0011345784206704523,0.0,0.0,0.9747430639225747
2013-08-06,-1,-0.000997729283834228,-0.0009918466286308607,0.0,0.0,0.9748539202235944
2013-08-08,1,0.0012739349930221298,0.0015789711912217637,0.0,0.0,0.9745796813376931
2013-08-12,1,0.0013394507336043629,0.0016557005625628405,0.0,0.0,0.9745276600760361
2013-08-14,1,0.001405729739957918,0.0017333759591491337,0.0,0.0,0.9744750279920189
2013-08-16,-1,-0.0006350488504690151,-0.0005723687041889566,0.0,0.0,0.9799395681381812
2013-08-20,-1,-0.0004876289609019489,-0.0004046840167915005,0.0,0.0,0.9706004677915542
2013-08-22,1,0.0005422678064578338,0.0006355084247628006,0.0,0.0,0.9705089561333379
2013-08-26,1,0.0007101596989819761,0.0010510210863460736,0.0,0.0,0.9703792520272322
2013-08-28,1,0.0017227383158759909,0.0020941408344188027,0.0,0.0,0.9742255188284953
2013-08-30,1,0.0017815385744749054,0.0021630859009565467,0.0,0.0,0.9741788474092707
2013-09-04,1,0.002958579725363001,0.0036225433665171194,0.0,0.0,0.9732297151387935
2013-09-06,1,8.498196007505622e-05,0.00025494588022516806,0.0,0.0,0.9755399427952701
2013-09-10,1,0.0001984111912113483,0.0003830347086456002,0.0,0.0,0.9660788045236631
2013-09-12,-1,-0.0006808147552938045,-0.0006359332869150797,0.0,0.0,0.9657647831731665
2013-09-16,-1,-0.0005617789253608852,-0.0005314297653328588,0.0,0.0,0.9612447830192455
2013-09-18,1,0.0003490767548731485,0.0005311204422269397,0.0,0.0,0.9659943527505457
2013-09-20,1,0.001142843481877927,0.0013393505059112356,0.0,0.0,0.9701052169955459
2013-09-24,-1,-0.00040912824091963117,-0.00040286186721751635,0.0,0.0,0.9753018378639491
2013-09-26,1,0.0005495078518430365,0.0007745031927551453,0.0,0.0,0.9704940590496034
2013-09-30,1,0.0006277367340188337,0.0008616813522311059,0.0,0.0,0.970441797850452
2013-10-02,-1,-0.00015030787368376034,-0.00011692908839682007,0.0,0.0,0.9661046311859478
2013-10-04,1,0.0013044405821675052,0.0015287335329474384,0.0,0.0,0.9699966401153233
2013-10-08,1,0.0012840038072525922,0.0015047827424362957,0.0,0.0,0.9745888786954078
2013-10-10,1,0.001284003807252594,0.0015047827424362976,0.0,0.0,0.9745888786954078
2013-10-14,-1,-8.38327399877893e-05,-5.0796430600009255e-05,0.0,0.0,0.9803464149014947
2013-10-16,1,0.0016159972717844804,0.0019368773821854955,0.0,0.0,0.9837032774216805
2013-10-18,1,0.001645878623057701,0.001971810757364601,0.0,0.0,0.9836755433416875
2013-10-22,1,0.0016789887134653425,0.0020106139854893937,0.0,0.0,0.9796297500655601
2013-10-24,1,0.0006625149220438406,0.0008649050100782051,0.0,0.0,0.9821751148005886
2013-10-28,1,0.0005679458453228501,0.0007611224365859999,0.0,0.0,0.9775724618260512
2013-10-30,1,0.0018936524436831922,0.0022686510456205,0.0,0.0,0.9812361929822503
2013-11-01,1,0.0011451306649640815,0.0013420309602972724,0.0,0.0,0.9767483863552078
2013-11-05,1,2.856145056503396e-05,8.568435169510296e-05,-0.020833333333333332,0.0,0.9729423756484432
2013-11-07,1,0.0003208398739873986,0.00043801053105310504,-0.03958333333333333,0.0,0.9669088652252198
2013-11-11,-1,-0.00053260906090609,-0.000454465646564656,-0.08377659574468085,0.0,0.9623286062751334
2013-11-13,-1,-0.0005680438043804381,-0.0004847014701470147,-0.08377659574468085,0.0,0.9585289773977952
2013-11-15,-1,-0.0005907344734473453,-0.0005040630063006305,-0.08781968622394154,0.0,0.9540057671376894
2013-11-19,-1,-0.0021997010576057605,-0.001925051867686769,-0.08781968622394154,0.0,0.9551825469559418
2013-11-21,-1,-0.0008394059405940585,-0.0007248928892889283,-0.08781968622394154,0.0,0.9572984831731046
2013-11-25,-1,-0.0021508125215413893,-0.0018846074195044888,-0.08648989898989898,0.0,0.9603385879908233
2013-11-27,-1,-0.002203508725297203,-0.0019320413064015645,-0.08648989898989898,0.008858091731714804,0.9553129403507987
2013-12-02,-1,-0.004941373780082803,-0.00426055242752157,-0.05112177286392603,0.0021881712500211423,0.9586421216190524
2013-12-04,-1,-0.008642542760647513,-0.007532189390021966,-0.03000900753161094,0.015453296703296704,0.9622906857362661
2013-12-06,-1,-0.007029024181748491,-0.0061113474264924295,-0.03000900753161094,0.015453296703296704,0.9641720150110875
2013-12-10,-1,-0.009282262478976013,-0.008101274783194843,-0.02659153885217395,0.015453296703296704,0.9682582877620344
2013-12-12,-1,-0.010771497004702014,-0.009422804280565121,-0.02659153885217395,0.015453296703296704,0.9709000904261588
2013-12-16,-1,-0.010903492215851025,-0.009643864312164466,-0.018462005272081493,0.04402927936906787,0.9668182405237303
2013-12-18,-1,-0.012347314442093594,-0.010931922211974948,-0.012529366114442983,0.04402927936906787,0.9672056314693859
2013-12-20,-1,-0.011968822641887335,-0.010609980439446973,-0.01023471653823432,0.04402927936906787,0.9666046402164853
2013-12-24,-1,-0.011066274927900554,-0.009825710096705471,-0.018462005272081493,0.04402927936906787,0.9653012718591011
2013-12-27,-1,-0.008615860536073381,-0.00767321106445043,-0.02833486480990062,0.028662476523635037,0.967660611737847
2013-12-31,-1,-0.007628244076045298,-0.0069058570203352765,-0.01898010287531484,0.028662476523635037,0.9680782435765928
2014-01-03,-1,-0.005338261180805626,-0.004896286736360706,-0.02833486480990062,0.010212581634013063,0.9700841583551948
2014-01-07,-1,-0.004254063067697331,-0.003948663389844866,-0.02278314870385676,0.006613063315239465,0.9727167736620425
2014-01-09,-1,-0.0058614280382227844,-0.005282855230015673,-0.02278314870385676,0.010212581634013063,0.9724581765828653
2014-01-13,-1,-0.0065532821928266215,-0.005904139095003301,-0.02568127887502156,0.017328592096670706,0.9695919790088263
2014-01-15,-1,-0.0015719225105736115,-0.0015330222014793562,-0.02568127887502156,0.010212581634013063,0.9742995669067022
2014-01-17,-1,-0.002541609216436318,-0.0023778733681355533,-0.03071487884764527,0.01706841637067426,0.9731188152761822
2014-01-22,-1,-0.0009021950703347568,-0.000762925942846138,-0.03071487884764527,0.009437177406825361,0.9728484624465048
2014-01-24,-1,-0.0026851782694066496,-0.0026077675278971236,-0.01982298236054291,0.009437177406825361,0.9757507766226498
2014-01-28,-1,-0.0030036765266169916,-0.0029021214880795886,-0.017902638220981804,0.009437177406825361,0.978153000104987
2014-01-30,-1,-0.004233694291004145,-0.003908476310546267,-0.017902638220981804,0.009437177406825361,0.9789472965793041
2014-02-03,-1,-0.005359556760978548,-0.004912650045433007,-0.016220147761065562,0.017219020914443398,0.980422988623973
2014-02-05,-1,-0.005232178260281264,-0.004810307198670555,-0.0154378690212924,0.017219020914443398,0.9808048753668078
2014-02-07,-1,-0.004458897580003786,-0.004138237663881446,-0.0154378690212924,0.008773615484860846,0.9815406668684956
2014-02-11,-1,-0.0044195559530605805,-0.004132438368489099,-0.0154378690212924,0.007725850085706662,0.9839481386900244
2014-02-13,-1,-0.0020975335888240364,-0.001968290857028266,-0.011605991237198257,0.007725850085706662,0.9861512646224426
2014-02-18,-1,-0.0032004217038096865,-0.003097608869481169,-0.010183426551201552,0.007725850085706662,0.9843720564876143
2014-02-20,-1,-0.0029790049903607734,-0.0029084828010170084,-0.010183426551201552,0.007725850085706662,0.9846597578206431
2014-02-24,-1,-0.004018402900847275,-0.0038513968704291116,-0.010183426551201552,0.007725850085706662,0.9812842238476034
2014-02-26,-1,-0.0028812221249540975,-0.0028559631927616773,-0.011292680085199458,0.00615400625538459,0.9809007465560152
2014-02-28,-1,-0.0017048253832243627,-0.001411058947608405,-0.01659031938193058,0.007725850085706662,0.978325972642842
2014-03-04,-1,-0.0009166521016147303,-0.0004134901349260032,-0.02962325601196748,0.0046138322197724485,0.9775981019275392
2014-03-06,0,-0.0005035029634451117,7.184375912116614e-05,-0.02962325601196748,0.012924528933861722,0.9762385938685373
2014-03-10,-1,-0.0015031189310655319,-0.0012279634226290267,-0.03189028608220876,0.01534165713852757,0.9728301987361955
2014-03-12,0,-0.00020470479158281579,0.0003781373672721985,-0.02962325601196748,0.01534165713852757,0.9736027692146415
2014-03-14,1,0.0005563630111702915,0.0012587591928459275,-0.02962325601196748,0.005616081452087225,0.9732697534015033
2014-03-18,1,0.002645809010174634,0.0036303851130468586,-0.02962325601196748,0.01587217377406892,0.9723743448495258
2014-03-20,1,0.001393397671653761,0.0021103923828391644,-0.02962325601196748,0.019605447777374573,0.971719606950399
2014-03-24,-1,-0.0011425862143765726,-0.0007685396639653273,-0.02057236494025236,0.023187149350250225,0.972807022746659
2014-03-26,0,-0.00047023378797449254,0.0002118224750138351,-0.023314609071883787,0.023187149350250225,0.9720159149263388
2014-03-28,0,-0.00030255946468053276,0.0004199280781391648,-0.023314609071883787,0.020841340398870988,0.973404596870053
2014-04-01,-1,-0.002110501687081515,-0.0017236007302772651,-0.02057236494025236,0.020841340398870988,0.97474948005604
2014-04-03,0,-0.00048467181001832487,0.00016023899906822381,-0.02057236494025236,0.02117646161247702,0.9734106970089627
2014-04-07,0,-0.00029117306901679275,0.00040967719421721935,-0.018896817944043787,0.02117646161247702,0.9736851599669444
2014-04-09,0,-0.00028787460722763886,0.0004330555542104231,-0.018896817944043787,0.024427224977097532,0.9733520344498764
2014-04-11,0,-0.00014236616216772077,0.0006216719155523421,-0.018505568027918924,0.0341432888258792,0.9713198684993501
2014-04-15,1,0.0016634127812534473,0.002582302874050359,-0.018505568027918924,0.03841325378131327,0.9694743837071556
2014-04-17,1,0.0035116109971613566,0.004822970358783033,-0.019667127895625813,0.054857865927443426,0.9633353915969067
2014-04-22,1,0.005389305400307308,0.006949934281976334,-0.01538497575115581,0.054857865927443426,0.9633970682215927
2014-04-24,1,0.00397046177843143,0.005371688771678529,-0.012560805676722579,0.054857865927443426,0.9614386734583275
2014-04-28,1,0.0019244152424327306,0.0029048078686647414,-0.004771315091269022,0.06439217804959231,0.95804296749988
2014-04-30,-1,-0.0010208370713136118,-0.0008163517881537972,-0.012560805676722579,0.06439217804959231,0.9550335624851147
2014-05-02,1,0.002838854448053377,0.0037009264051986236,-0.014914496427286041,0.05542023755533997,0.9580845554083925
2014-05-06,1,0.002819320052490879,0.003491128370387584,-0.015997838047863325,0.05046678631579392,0.9562721189503348
2014-05-08,1,0.0024814257607331425,0.002957692085470152,-0.019836668831506213,0.05046678631579392,0.954576977276835
2014-05-12,1,0.001983006341325538,0.0022037424005095217,-0.019836668831506213,0.03794644285456925,0.9560459648050418
2014-05-14,1,0.005024863090847217,0.005521140310413708,-0.019836668831506213,0.04323769876529526,0.9582014003155972
2014-05-16,1,0.00511952054305451,0.005611231770406214,-0.019836668831506213,0.03711159036186933,0.9609588916011279
2014-05-20,1,0.008165692337804953,0.009108454423370068,-0.03631241166186373,0.03060204923718368,0.9610086678694411
2014-05-22,1,0.009192009442306056,0.01047151205975016,-0.03631241166186373,0.029555427698115134,0.96030226751153
2014-05-27,1,0.010741301957558553,0.012120484596461322,-0.03631241166186373,0.026814909169211438,0.9615749972099323
2014-05-29,1,0.012090326787800915,0.01380907706717842,-0.03631241166186373,0.026814909169211438,0.9624059929978294
2014-06-02,1,0.011725844361032023,0.013453141457809913,-0.03631241166186373,0.026814909169211438,0.9643837907523121
2014-06-04,1,0.007521158157024968,0.008631733228712475,-0.029196549784361033,0.028522425044029635,0.969793009570762
2014-06-06,1,0.0064497081379206265,0.007327858687778514,-0.020951035984481756,0.028522425044029635,0.9707357313274075
2014-06-10,1,0.009919686267288005,0.011552376075526026,-0.020951035984481756,0.017257022625973832,0.9702562144380427
2014-06-12,1,0.012550501871400808,0.01452324107973151,-0.02668833671071782,0.011963168352182035,0.970524146525491
2014-06-16,1,0.011171525892975827,0.012985607768691856,-0.02668833671071782,0.011374674194580938,0.9751596221240216
2014-06-18,1,0.006123991715622161,0.0070588371697687165,-0.014535300803301135,0.011963168352182035,0.9814863573699993
2014-06-20,1,0.0035807407567250643,0.004115141880866663,-0.009093363128767726,0.011374674194580938,0.9876959426819713
2014-06-24,1,0.0026553531858281897,0.003045705406292151,-0.009093363128767726,0.011374674194580938,0.9881706501336217
2014-06-26,1,0.0018125334746645113,0.0019612595379136766,-0.009093363128767726,0.008672073764490888,0.9884203953597116
2014-06-30,1,0.0017399502599648605,0.0018512784636687176,-0.013729759360720923,0.007770779041672617,0.9881153054386324
2014-07-02,1,0.0027974956650618707,0.0030797833674275593,-0.013729759360720923,0.007770779041672617,0.9888229097593907
2014-07-07,1,0.0018632733253791482,0.0020130648864077495,-0.013729759360720923,0.007770779041672617,0.9886074244884488
2014-07-09,1,0.002311402795423544,0.002584337750460234,-0.016760718763653506,0.007722068555450797,0.9880921079843866
2014-07-11,1,0.001702327924105841,0.001881261964710178,-0.011508514536695973,0.0076849507157240714,0.9891342204561342
2014-07-15,1,0.0008277219086828414,0.0008695395862529044,-0.010379038081163569,0.004828136181973906,0.989735892269768
2014-07-17,0,-6.764112109486158e-05,9.280433445868963e-05,-0.011669276596785898,0.004828136181973906,0.9858930050665387
2014-07-21,1,0.0006692821536287446,0.0007040851595121659,-0.011669276596785898,0.006653710184068728,0.9845110800829987
2014-07-23,0,-7.298461368821868e-05,7.968966414808351e-05,-0.010379038081163569,0.006668693972244717,0.9836804000212416
2014-07-25,1,0.0004518648267298677,0.000513707516846415,-0.010379038081163569,0.008656208211691042,0.9814578171951567
2014-07-29,-1,-0.00038005247176526083,-0.00021031324002062014,-0.010272418108952583,0.00950549874850245,0.9821526903754911
2014-07-31,1,4.1586130428130784e-05,0.00017765683538910972,-0.010272418108952583,0.03159477401214982,0.9772091485157424
2014-08-04,-1,-0.0013287411894822151,-0.0010109897908505846,-0.010272418108952583,0.04225772532585377,0.9698824189132821
2014-08-06,-1,-0.0021696797261604012,-0.0017734857913051564,-0.010272418108952583,0.04225772532585377,0.9675995789159798
2014-08-08,-1,-0.001308252727547761,-0.0011188014535317814,-0.005630599761860201,0.04225772532585377,0.9663861475786832
2014-08-12,-1,-0.002389313646460802,-0.0020408069935791027,-0.0010142026675180585,0.04225772532585377,0.9658262982499587
2014-08-14,-1,-0.004589091022005131,-0.003786575583872266,0.0013966267136923407,0.03235559480010415,0.9693039143766308
2014-08-18,-1,-0.004378126250283213,-0.0035331909507438893,-0.0010142026675180585,0.03235559480010415,0.9703442703923092
2014-08-20,-1,-0.003928950837924515,-0.0030952776096605703,0.0013966267136923407,0.03444616567281984,0.9691623239733912
2014-08-22,-1,-0.0032458564253813778,-0.0024190873357654054,-0.003968268985800733,0.021033561248615384,0.9705920024926893
2014-08-26,-1,-0.0024434694419965116,-0.0017638026778795098,-0.003968268985800733,0.029236784044299684,0.969251269112586
2014-08-28,1,0.0008911342295958749,0.001234645178429786,-0.017265423382745265,0.017131442645702995,0.9742347824180635
2014-09-02,-1,-0.0006208410156441524,-4.756098711936551e-05,-0.015017982360122509,0.012850741596085749,0.9818150598718878
2014-09-04,-1,-0.0038013225995286765,-0.0028042382809365953,-0.015017982360122509,0.012850741596085749,0.9813810040745168
2014-09-08,-1,-0.0012351874818821319,-0.0006657982048887555,-0.015017982360122509,0.01217976385377556,0.9828279284709336
2014-09-10,-1,-0.0022820489003409082,-0.0015789344641122748,-0.015017982360122509,0.01217976385377556,0.9798977934067413
2014-09-12,-1,-0.0011318076701986861,-0.0006662342795828505,-0.015331917547160344,0.01217976385377556,0.9795340033656766
2014-09-16,-1,-0.0029405438833656175,-0.0021559102213386406,-0.014837596228108313,0.01484095601398042,0.9796246659316517
2014-09-18,-1,-0.0017821303172113625,-0.001051365478126912,-0.017905711766401263,0.01217976385377556,0.9793852480467249
2014-09-22,-1,-0.0032547428655872904,-0.0023393489080332374,-0.014837596228108313,0.01484095601398042,0.9790385962505876
2014-09-24,0,-0.0004335060704690507,3.102703058339377e-05,-0.014837596228108313,0.009994839184554452,0.980359344110569
2014-09-26,-1,-0.0012453454135803687,-0.00075825665794161,-0.011887235039084924,0.009994839184554452,0.98103037164584
2014-09-30,0,-0.00018499131870307892,0.0001382031982286564,-0.011887235039084924,0.0050828678319756624,0.9814191014531083
2014-10-02,-1,-0.002194998691166859,-0.0016969961310074342,-0.011887235039084924,0.008656117926904152,0.9831183136381062
2014-10-06,1,0.0009127361570803053,0.0010128506622115747,-0.012388800585987432,0.0050828678319756624,0.982138834966839
2014-10-08,-1,-0.0013319788564750286,-0.0011791349564708935,-0.01542395582948217,0.0050828678319756624,0.9842968743079619
2014-10-10,-1,-0.0002311571277688291,-9.833489299211509e-05,-0.01325148391058117,0.0050828678319756624,0.9839784905457154
2014-10-14,1,0.00013978670694910628,0.00030169748622075666,-0.01325148391058117,0.0050828678319756624,0.9841706024132089
2014-10-16,1,0.0007499312669037412,0.001157588449665128,-0.01325148391058117,0.0050828678319756624,0.9858180682819707
2014-10-20,1,0.0021393617758178633,0.0027433691148542752,-0.01325148391058117,0.00697466084496659,0.9857169369594841
2014-10-22,1,0.0013638115288200458,0.001824430968589788,-0.016449219139364344,0.00697466084496659,0.9844653400675517
2014-10-24,-1,-0.0009006117665046657,-0.0008776724276431122,-0.01341192857159991,0.007444149943919986,0.983284133249815
2014-10-28,-1,-0.0007612899278620813,-0.0007484817589348035,-0.016327845680457996,0.007444149943919986,0.9827305544835078
2014-10-30,-1,-0.0003215312755608543,-0.0002194439050702421,-0.016327845680457996,0.003677059713565579,0.9836320763305259
2014-11-03,1,0.0006052129813470762,0.0009749446719686998,-0.016709068963267622,0.003677059713565579,0.9819501479870649
2014-11-05,-1,-0.001078539415527526,-0.0010079205065224995,-0.01592707329038964,0.003677059713565579,0.9835523071490814
2014-11-07,-1,-0.0027857667532973276,-0.0025211096971271057,-0.01592707329038964,0.007444149943919986,0.9836567510332653
2014-11-11,-1,-0.004298251337034466,-0.0037795837058660956,-0.01592707329038964,0.01614925025431479,0.9827402476358318
2014-11-13,-1,-0.0045668543962620965,-0.003983920029821926,-0.01592707329038964,0.01524840726433696,0.9821393053946235
2014-11-17,-1,-0.003207421419290038,-0.0028026455973135895,-0.01592707329038964,0.011549352171697579,0.9833409308471265
2014-11-19,-1,-0.004553750082641588,-0.004005945313281012,-0.01351750968458884,0.01524840726433696,0.9842210925794277
2014-11-21,-1,-0.0019096271839843314,-0.0017141798678610336,-0.01351750968458884,0.01524840726433696,0.9843970899036524
2014-11-25,-1,-0.002913663907020172,-0.0025691384091568272,-0.010968907631811502,0.01524840726433696,0.9842242992331096
2014-11-28,-1,-0.0034363042583618023,-0.0030307075797994533,-0.010968907631811502,0.01524840726433696,0.9832191514827099
2014-12-02,-1,-0.005035653464525848,-0.004425927321866776,-0.0061498201339168735,0.01524840726433696,0.9843452414604571
2014-12-04,-1,-0.006086700155004083,-0.005328063580917293,-0.0025830128723848982,0.01524840726433696,0.9842269291394891
2014-12-08,-1,-0.005338274171571402,-0.004682899957434565,-0.003174415597303531,0.012833603275282157,0.9852735610796903
2014-12-10,-1,-0.003999564581488181,-0.0035184409718593723,-0.0061498201339168735,0.01076394166749976,0.9857744992521781
2014-12-12,-1,-0.004640057110328593,-0.00407631471044442,-0.0061498201339168735,0.010159751258468103,0.9863542519473129
2014-12-16,-1,-0.0042224509847701985,-0.0037196122161725345,-0.008005947158450214,0.010587834959662961,0.985871616531486
2014-12-18,-1,-0.00391133903345512,-0.003422472820426066,-0.008005947158450214,0.00961748801969962,0.9866761134680944
2014-12-22,-1,-0.0016035604265852228,-0.0014154832898357907,-0.008005947158450214,0.00719987635507251,0.9893617975291515
2014-12-24,-1,-0.0015817826508960722,-0.0013565374918022032,-0.010387107765040583,0.004893123152312727,0.9884298964252011
2014-12-29,-1,-0.002656664638769109,-0.0022589326103268506,-0.010387107765040583,0.004893123152312727,0.9895415917195448
2014-12-31,-1,-0.0031779279768330763,-0.0027011615578475656,-0.010387107765040583,0.005688915639914864,0.9878348936642084
2015-01-05,-1,-0.00372695976780752,-0.003154667093023627,-0.012399962837052391,0.005688915639914864,0.9871700065754979
2015-01-07,-1,-0.003606760941242347,-0.00306539860637581,-0.012399962837052391,0.007466220894914255,0.987051993158831
2015-01-09,-1,-0.0025409065162296466,-0.002174715624860023,-0.012399962837052391,0.007466220894914255,0.9871048899208805
2015-01-13,-1,-0.0030870142476000393,-0.002709071972864503,-0.012399962837052391,0.007466220894914255,0.9877743999936792
2015-01-15,-1,-0.0016111991917986514,-0.001484353925787364,-0.012399962837052391,0.007317255568850933,0.9885377417903275
2015-01-20,-1,-0.001224449293427909,-0.001161024925355425,-0.012399962837052391,0.007466220894914255,0.9862122608281144
2015-01-22,1,0.0008305509882955788,0.0012048703083182763,-0.012399962837052391,0.007412487976371356,0.9862808705334718
2015-01-26,0,-0.00015984775943931869,0.0001808163440933017,-0.010223657134216302,0.007412487976371356,0.9881664556203634
2015-01-28,-1,-0.0014215351635530455,-0.0013691155990015191,-0.010171979779501183,0.005671004667067231,0.9884182267220027
2015-01-30,1,0.0007754876763713893,0.0012011212725447026,-0.010171979779501183,0.0054568113300072895,0.988377622714355
2015-02-03,1,0.0002706085363453738,0.0006000829939494003,-0.007874434784082639,0.008464939123593803,0.9882310213679912
2015-02-05,1,0.0009245034583135652,0.00135937824942546,-0.007874434784082639,0.015249844015955374,0.9860423591106267
2015-02-09,1,0.001571752125653733,0.002093228588103771,-0.007874434784082639,0.008464939123593803,0.9853641037898212
2015-02-11,1,0.0027358722618983475,0.003554130974292479,-0.007237903930236528,0.013677169894836026,0.985296553830555
2015-02-13,1,0.0018691229003310744,0.0025238518653929085,-0.007237903930236528,0.019986178406329047,0.984190671335358
2015-02-18,1,0.004243979351448256,0.005320946732653268,-0.007147284750943027,0.018435841648134787,0.9860241748544101
2015-02-20,1,0.0035417695812248913,0.00444687849485342,-0.007173668295014972,0.018435841648134787,0.9848097983926422
2015-02-24,1,0.004404540657784539,0.0054848095768238354,-0.011732978425329225,0.018435841648134787,0.9832020215792772
2015-02-26,1,0.002687803265431008,0.0033792892624709236,-0.013287136003080405,0.018435841648134787,0.981830202699072
2015-03-02,1,0.004085558440933918,0.004999803948751891,-0.013757382412980875,0.013547946624131568,0.9824062851773513
2015-03-04,1,0.003208080462014802,0.0038687518881491165,-0.019432562466367397,0.013003620886492415,0.9790508714411847
2015-03-06,1,0.005162191370744576,0.006040881909499496,-0.023868506369620974,0.007921071718832686,0.9789495482307454
2015-03-10,1,0.0033659132944313017,0.004035379488263574,-0.019432562466367397,0.013003620886492415,0.9775537372571758
2015-03-12,1,0.0036824475246369772,0.004314868160589918,-0.019432562466367397,0.01159955500175447,0.976871367150254
2015-03-16,1,0.004532768322771582,0.005373091875380208,-0.01765841851762368,0.01098332874087597,0.9779297317844776
2015-03-18,1,0.004945550966578411,0.005798010152198703,-0.01765841851762368,0.01098332874087597,0.9768318424473074
2015-03-20,1,0.0036644149367644164,0.004277514133012348,-0.01765841851762368,0.011346928686450666,0.9737681117681297
2015-03-24,1,0.002799840618599886,0.003314608682631826,-0.018802882106389144,0.011346928686450666,0.9742232169557502
2015-03-26,1,0.0012551497928874385,0.0015553900232957813,-0.018802882106389144,0.014659149198782024,0.9736975348489629
2015-03-30,1,0.00016504358587690333,0.0002752082770892044,-0.02291607935405688,0.014659149198782024,0.9726106619813777
2015-04-01,-1,-0.004262238026506398,-0.00374713146997167,-0.018802882106389144,0.014659149198782024,0.9760049321967078
2015-04-06,-1,-0.005342783828623077,-0.004671096749183619,-0.015756447006607315,0.014659149198782024,0.9775368189189111
2015-04-08,-1,-0.0007764607574314034,-0.0006334568425012408,-0.018802882106389144,0.011046634809987774,0.9788435862405807
2015-04-10,-1,-0.0009151930119852118,-0.0007611260492523227,-0.017103045450194577,0.010416919550577596,0.9800871458965247
2015-04-14,-1,-0.00046183714218262493,-0.0004291085179166598,-0.02179644523242133,0.010416919550577596,0.9790415168865579
2015-04-16,-1,-0.0014758239590591943,-0.0012253849285896324,-0.02291607935405688,0.004581584942944563,0.9791429362866325
2015-04-20,0,-5.1162006257515226e-05,8.751445455527267e-07,-0.02179644523242133,0.00066139081241246,0.9828992678937927
2015-04-22,-1,-0.0009627798120669059,-0.0008625383789203568,-0.020319125690033628,0.00066139081241246,0.9812841023286746
2015-04-24,-1,-0.0007205298994056035,-0.0006182799789105568,-0.020319125690033628,0.0,0.9825770137088753
2015-04-28,-1,-0.00272335018667185,-0.0022957826242280695,-0.020319125690033628,0.0,0.9835579125482954
2015-04-30,-1,-0.003912204568579211,-0.0032985435536920776,-0.020623569154915738,0.00066139081241246,0.9825435991066384
2015-05-04,-1,-0.003595364195031949,-0.003046479303858784,-0.020623569154915738,0.00066139081241246,0.9819128818449888
2015-05-06,-1,-0.0028343633983730796,-0.002436555170366273,-0.020044415020279496,0.00066139081241246,0.9851578976845131
2015-05-08,-1,-0.0031441286423828712,-0.002675276958889485,-0.020044415020279496,-0.0036569316292908026,0.984500879046813
2015-05-12,-1,-0.004383182734133465,-0.0037841404849494114,-0.016113329653579485,-0.0015308641674207687,0.9864138843208187
2015-05-14,-1,-0.00538077174315858,-0.004696451664044919,-0.012800142499058404,0.004505114633940154,0.985976820115035
2015-05-18,-1,-0.004978273220160079,-0.004454327678721428,-0.011528849713790531,0.00990638457333598,0.985746827467862
2015-05-20,-1,-0.002151935326631115,-0.0019941039355227336,-0.011528849713790531,0.009729072628656335,0.9876382426323301
2015-05-22,-1,-0.00358941222965554,-0.003239505808434058,-0.006818318045137094,0.009729072628656335,0.9888736013870918
2015-05-27,-1,-0.004682492703895366,-0.004193291363846071,-0.006818318045137094,0.01173805019667944,0.9873349650528381
2015-05-29,-1,-0.0044470255222178855,-0.003979927471660025,-0.006818318045137094,0.009729072628656335,0.9886902453378236
2015-06-02,-1,-0.00515448861674921,-0.004602717757139018,-0.006037851986240981,0.009729072628656335,0.9887048458042031
2015-06-04,-1,-0.004578492390233321,-0.004127149235031972,-0.009609245080520502,0.009449934790408182,0.9878095620305788
2015-06-08,-1,-0.005101941093930293,-0.004522531566224393,-0.006822623902408023,0.004398938931703443,0.9888230447043214
2015-06-10,-1,-0.004912861414641792,-0.0043812856341984025,-0.01016059222505079,0.004598168141687472,0.9871562721514576
2015-06-12,-1,-0.0033983532992267456,-0.0030521275237616677,-0.012727951074896864,0.004598168141687472,0.9863575722348423
2015-06-16,-1,-0.00263879859650444,-0.0024012877181103518,-0.012727951074896864,0.004598168141687472,0.9842746603405108
2015-06-18,-1,-0.002627125013622632,-0.002327720330278905,-0.015892049636944343,0.0007374518408557885,0.9837197501908347
2015-06-22,-1,-0.002830054915245927,-0.002497603524644708,-0.015892049636944343,0.006281553864209355,0.9819200456599891
2015-06-24,-1,-0.0018996038719790078,-0.0017398589933382224,-0.015892049636944343,0.003016217100084497,0.9828300845962149
2015-06-26,-1,-0.0026561660415730104,-0.0023969440746381887,-0.021447193715971376,0.006281553864209355,0.9790477331204006
2015-06-30,-1,-0.0025506318689565714,-0.0023253273054860708,-0.022012115794381705,0.006281553864209355,0.9784731096246111
2015-07-02,-1,-0.003543661224106421,-0.0032327835048816538,-0.014481661133223304,0.006281553864209355,0.9805080434439621
2015-07-07,-1,-0.0037662675355016116,-0.003424425531717326,-0.022416380801995636,0.006281553864209355,0.9788958762556783
2015-07-09,-1,-0.005038532583621977,-0.004529485229984439,-0.02476692854240401,0.0038699691316579606,0.9774336520419459
2015-07-13,-1,-0.0027119513051094574,-0.0025395157927860902,-0.02818602584452595,0.0038699691316579606,0.9725426455613162
2015-07-15,-1,-0.0011728292115650327,-0.0011720153569629308,-0.035874703665714144,0.0,0.9727168459558494
2015-07-17,-1,-0.0019687770463448196,-0.0018703246999915366,-0.03655783145150163,0.0038699691316579606,0.9685189427013985
2015-07-21,-1,-0.0007787176143166822,-0.0007685858183071164,-0.03893719402907435,0.0,0.9668117983413448
2015-07-23,-1,-0.0012258028464623301,-0.001215193563335115,-0.03893719402907435,0.0,0.9677871011991307
2015-07-27,-1,-0.0005438968238040279,-0.0004504661738948103,-0.044106400868274165,0.0,0.9689444140891527
2015-07-29,-1,-0.00023429493107531701,-3.9630923794326e-05,-0.04995710968025208,0.0,0.9676301287296616
2015-07-31,-1,-0.000663207563854203,-0.0005835571180469723,-0.04995710968025208,0.0010775697287996973,0.9662504578180163
2015-08-04,-1,-0.0010825568199039454,-0.0010198130725159226,-0.05241992066485443,0.006804134351847993,0.9614835004464728
2015-08-06,-1,-0.0024731567716297235,-0.0023674728562292705,-0.04995710968025208,0.018067224922595382,0.9627241393730694
2015-08-10,-1,-0.0011446769982746859,-0.001057874129301078,-0.048439614830764484,0.014795904256859735,0.9665255816102603
2015-08-12,-1,-0.001896903241016496,-0.0018844451328502271,-0.048439614830764484,0.019597835707787767,0.9669135582016508
2015-08-14,-1,-0.0017652236206076764,-0.0017493499382754407,-0.036638322333472285,0.014795904256859735,0.9714605486583766
2015-08-18,-1,-0.002864078240234057,-0.0026846625924296158,-0.029625308406481123,0.019597835707787767,0.9728130952870401
2015-08-20,-1,-0.0034505655290651537,-0.0031943009577096856,-0.03278685449048126,0.029474090273195808,0.9690132500581415
2015-08-24,-1,-0.006064464004722429,-0.005424737437739888,-0.029625308406481123,0.029474090273195808,0.971309670218351
2015-08-26,-1,-0.006760529724180814,-0.006025480819502202,-0.029625308406481123,0.029788816851572794,0.9676633552685915
2015-08-28,-1,-0.003817230850569812,-0.0035276557485958227,-0.03278685449048126,0.029474090273195808,0.9677716825243109
2015-09-01,-1,-0.003081039005424499,-0.0028860102288760063,-0.03278685449048126,0.019597835707787767,0.9712316432332524
2015-09-03,-1,-0.0029842325102040603,-0.002804022714414764,-0.03871180183802857,0.007168060384260275,0.9677657270321881
2015-09-08,-1,-0.0037022373492861162,-0.003474298362016007,-0.0336262817545912,0.010501673618197021,0.9650625934663363
2015-09-10,-1,-0.0027441941232281613,-0.0026227148620448153,-0.0336262817545912,0.026895004914489148,0.9616558044289557
2015-09-14,-1,-0.0032004980302110034,-0.0030203136241312998,-0.03435263198343626,0.026895004914489148,0.9619891632635523
2015-09-16,-1,-0.001983697442279116,-0.0019638376416967833,-0.03871180183802857,0.012731441520206284,0.9606939713226922
2015-09-18,-1,-0.001257363674726117,-0.0011942652195257382,-0.03871180183802857,0.009302881571142318,0.9636467315631932
2015-09-22,-1,-0.0014158381924819568,-0.0013845401061094434,-0.03871180183802857,0.009302881571142318,0.9633639463902764
2015-09-24,-1,-0.0012167525320564226,-0.0011435976630715158,-0.03435263198343626,0.009302881571142318,0.9677278179885594
2015-09-28,-1,-0.0019103920059023588,-0.0018963860880358819,-0.0369198702745438,0.009302881571142318,0.9670771432935557
2015-09-30,-1,-0.003239668981408747,-0.003084150498939696,-0.029080980427015044,0.009302881571142318,0.9704781000903232
2015-10-02,-1,-0.006125102566655749,-0.0056011660417088025,-0.02532111655486105,0.00951446465169454,0.9737432262074909
2015-10-06,-1,-0.004685226892882061,-0.00429934390328283,-0.024045261435303264,0.009302881571142318,0.9789085397247717
2015-10-08,-1,-0.0027339436236237095,-0.0025541567007718253,-0.024045261435303264,0.005937934515249082,0.9801593768660282
2015-10-12,-1,-0.002623034117030827,-0.0025284510706344945,-0.024045261435303264,0.009302881571142318,0.9749924895957127
2015-10-14,-1,-0.003648433682773918,-0.0034102399264026055,-0.02165917194222597,0.00951446465169454,0.976570239107183
2015-10-16,-1,-0.004133188293749286,-0.003816571544750901,-0.02165917194222597,0.006062166681175324,0.9754357000615236
2015-10-20,-1,-0.004534904226965041,-0.004190354527002026,-0.02481435573448122,0.006062166681175324,0.9741671096652847
2015-10-22,-1,-0.0047832588310176396,-0.004392184460207432,-0.026442312582945167,0.00120771099559725,0.9734915328112215
2015-10-26,-1,-0.005567361833884628,-0.005097532224063121,-0.02481435573448122,0.0014285768781389509,0.975699637933452
2015-10-28,-1,-0.005503097772866688,-0.005058718281308002,-0.02481435573448122,0.0077579439649998775,0.9706962992337042
2015-10-30,-1,-0.0050196965667150695,-0.004633289764831995,-0.021956790989845015,0.006678084301760053,0.9725050175924177
2015-11-03,-1,-0.004794049143505701,-0.004485072124069232,-0.021956790989845015,0.0095694146693728,0.972311072701031
2015-11-05,-1,-0.003553233205250185,-0.0034133329327315273,-0.01994861731156692,0.0095694146693728,0.9733662675619602
2015-11-09,-1,-0.0016611629931541456,-0.001532221022056118,-0.018264823082089224,0.0095694146693728,0.9780904410644121
2015-11-11,-1,-0.0014646871266690488,-0.0013012262493891334,-0.01994861731156692,0.0095694146693728,0.9773837348395792
2015-11-13,-1,-0.002632017247608709,-0.0025975014363494348,-0.017206623604189925,0.009592506028834802,0.9796166253886722
2015-11-17,-1,-0.003722775683474559,-0.0036146675134365114,-0.010663547594268317,0.009592506028834802,0.9816524070261561
2015-11-19,-1,-0.004696110024782463,-0.004483214437739954,-0.009478708972682893,0.009592506028834802,0.9832119817504575
2015-11-23,-1,-0.005067598107397102,-0.004775257812006723,-0.009478708972682893,0.009592506028834802,0.9835184030113701
2015-11-25,-1,-0.002459177728903448,-0.002441377242694209,-0.009478708972682893,0.009592506028834802,0.9880673503188533
2015-11-30,-1,-0.0025190535945520936,-0.0025069766198065695,-0.01522975336479075,0.009592506028834802,0.9839643819907324
2015-12-02,-1,-0.0018707232607548213,-0.0017239716265739606,-0.018483301831077995,0.009673505613027884,0.9801885852519867
2015-12-04,0,-0.0003026583442673986,0.00012773710589572486,-0.018483301831077995,0.009832517359294681,0.9800977295495137
2015-12-08,-1,-0.0004245541823703399,-5.895961408687242e-05,-0.022166558215145918,0.009832517359294681,0.9748632846700602
2015-12-10,0,-0.00024173145569745418,0.00024347093975019083,-0.022166558215145918,0.009832517359294681,0.973719472235616
2015-12-14,0,-3.55505137631816e-05,0.0004212372078789999,-0.03546334640568505,0.0060857210741876435,0.9703584521355024
2015-12-16,1,0.0005281986213804171,0.0011027227689508327,-0.03546334640568505,0.0060857210741876435,0.9697148116406692
2015-12-18,1,0.00046421050106945465,0.001012249096860036,-0.041666634556419044,0.0060857210741876435,0.967280148894614
2015-12-22,1,0.0002533423912189038,0.0007824308503056676,-0.041666634556419044,0.009832517359294681,0.9636080917630228
2015-12-24,1,0.0004123213962405085,0.0009282057181848134,-0.041666634556419044,0.002551005761457837,0.9626743225114546
2015-12-29,-1,-0.0027107800800795804,-0.002702966383739366,-0.03546334640568505,0.002551005761457837,0.9676346712371602
2015-12-31,-1,-0.0012696955547295274,-0.0010067585398053605,-0.0272041151828447,0.002551005761457837,0.9704033850419955
2016-01-05,-1,-0.0004716016635996997,-0.0001517410408816215,-0.03672597753350029,0.0,0.9691306168622669
2016-01-07,1,0.0013778204630803526,0.002031807158560058,-0.0272041151828447,-0.003846168518066269,0.9738007208840492
2016-01-11,-1,-0.0007275524090455667,-0.00038562574702946184,-0.022207432237886012,0.0,0.9764047455387203
2016-01-13,-1,-0.002798860504386751,-0.00276776172397809,-0.02078304716160042,0.0,0.9768674314964525
2016-01-15,-1,-0.004152977688906703,-0.003940614601129645,-0.022207432237886012,0.0,0.976686486720189
2016-01-20,-1,-0.006864255174008936,-0.006298367572339618,-0.022207432237886012,0.0,0.974862497118271
2016-01-22,-1,-0.002971003931264666,-0.0029174723131907073,-0.02589285033089771,0.0,0.9772330369356327
2016-01-26,-1,-0.0031093029673743525,-0.003102673552798911,-0.028612459196166888,0.0,0.9754288184223588
2016-01-28,-1,-0.0032482962661441956,-0.0032480647804350006,-0.03147235923070528,0.0,0.973794987706071
2016-02-01,-1,-0.0021683600170387196,-0.0020790177761543715,-0.03147235923070528,0.0,0.973138441690735
2016-02-03,-1,-0.0031113296496830794,-0.003110992147341638,-0.03147235923070528,0.004032273570407619,0.9681265882160297
2016-02-05,-1,-0.003362368901203232,-0.003280550427159552,-0.03147235923070528,0.01624045649489501,0.96640379913682
2016-02-09,-1,-0.0012346156877012827,-0.0009748167801653302,-0.03147235923070528,0.009937807997863228,0.9670831035281385
2016-02-11,-1,-0.002145800602114457,-0.0019607107604095006,-0.028612459196166888,0.009937807997863228,0.9691769488116719
2016-02-16,-1,-0.0026929273190377263,-0.00257802154007147,-0.025435544604238594,0.018145211839528858,0.9683062759703447
2016-02-18,-1,-0.004957810023944289,-0.004835323220621674,-0.025435544604238594,0.018145211839528858,0.9717614285427707
2016-02-22,-1,-0.006748636192415327,-0.006381853120969843,-0.026489407895961166,0.024343504533732883,0.9660799255793739
2016-02-24,-1,-0.008862941007957412,-0.008142348236516066,-0.026489407895961166,0.024844997420087646,0.9645031807436645
2016-02-26,-1,-0.011428384754869902,-0.010248995214410613,-0.026489407895961166,0.024844997420087646,0.9627439436160373
2016-03-01,-1,-0.00936133048468101,-0.008530677915420802,-0.026489407895961166,0.02544644486387173,0.9629385307563149
2016-03-03,-1,-0.007408557719549967,-0.006942575465516326,-0.024814437550185742,0.02544644486387173,0.9686755518892618
2016-03-07,-1,-0.00641912104418582,-0.0060478887101795085,-0.024814437550185742,0.024395177358560984,0.9708726530860959
2016-03-09,-1,-0.0056946649711286665,-0.0053678404913157255,-0.024814437550185742,0.02544644486387173,0.9707924773577735
2016-03-11,-1,-0.006741721519676279,-0.006295026464153123,-0.024814437550185742,0.026785731771771088,0.9640407748411849
2016-03-15,-1,-0.006854849476788272,-0.0064066470469431,-0.019679625905633023,0.028784942709921178,0.9613288676277301
2016-03-17,-1,-0.007658061082353451,-0.007109306184744259,-0.018157885807702556,0.028784942709921178,0.960879002085202
2016-03-21,-1,-0.007027593525776109,-0.00649665994873649,-0.018157885807702556,0.026785731771771088,0.967274110975219
2016-03-23,-1,-0.0072370951559879975,-0.0066912694469642275,-0.01090772488515805,0.026785731771771088,0.9689563038686915
2016-03-28,-1,-0.008281222439372776,-0.007653603438994058,-0.01090772488515805,0.026785731771771088,0.9711843628955898
2016-03-30,-1,-0.007395686654479245,-0.0068432213473577355,-0.018157885807702556,0.026785731771771088,0.9721177586267946
2016-04-01,-1,-0.006490548188244926,-0.006110521757601942,-0.02171141270404283,0.016900504976624642,0.9715371439727339
2016-04-05,-1,-0.005081143521982217,-0.004984577690852099,-0.02171141270404283,0.028592700299705533,0.9663933991112327
2016-04-07,-1,-0.004212843547286571,-0.004188579507848759,-0.027078647507569893,0.03911565000982544,0.964240674720011
2016-04-11,0,-0.0002375943322577101,0.0001968604480966495,-0.027078647507569893,0.009215333183332099,0.9721374045702822
2016-04-13,1,0.0018650956072496386,0.002505873124784351,-0.035778520287907324,0.007110425470553452,0.9717809193904968
2016-04-15,1,0.0010213396772558165,0.0014583594262629414,-0.035778520287907324,0.0075350283818837425,0.9712207653095538
2016-04-19,1,0.0005052734848341074,0.0008666719199067318,-0.035778520287907324,0.014317377309648695,0.9705532805474661
2016-04-21,1,0.003452530284662411,0.004386769139606031,-0.035778520287907324,0.013559779517659758,0.9708597428977448
2016-04-25,1,0.002268885501261219,0.0030632123403805884,-0.029761885445584096,0.013559779517659758,0.9722616168277904
2016-04-27,1,0.0017237343521094438,0.002451034187522521,-0.02382924277737896,0.018835606148194357,0.9713033450071834
2016-04-29,1,0.00031141725051503995,0.00091739124929845,-0.013445479863916338,0.018835606148194357,0.9749195414199826
2016-05-03,1,0.0038495999470237996,0.004952444810269262,-0.013445479863916338,0.03632321827480624,0.9756196010225907
2016-05-05,1,0.003978974287232255,0.005036726446404412,-0.013445479863916338,0.018835606148194357,0.9778443181306921
2016-05-09,1,0.004156297372834589,0.005278509683619134,-0.013378365576223716,0.018835606148194357,0.9778910256320426
2016-05-11,1,0.001941310110284272,0.002780786977065994,-0.008227008708181896,0.02298468350252332,0.9813192696431349
2016-05-13,1,0.003702587160568454,0.004782882456228172,-0.012539544965169928,0.015081642499812439,0.982493500463828
2016-05-17,1,0.004623708221316214,0.005793233336783731,-0.012539544965169928,0.015081642499812439,0.9806900238583647
2016-05-19,1,0.0060495660715107254,0.007460501348328676,-0.012539544965169928,0.009875218468940756,0.9803693698470743
2016-05-23,1,0.0038370939421307235,0.004773292135249007,-0.007932707549787006,0.02298468350252332,0.978957597707902
2016-05-25,1,0.00482001050193275,0.005934833714530747,-0.012539544965169928,0.009875218468940756,0.9779277462138792
2016-05-27,1,0.005939304955083624,0.0072890893093776115,-0.015554261998361652,0.026168019435251575,0.9715888093014965
2016-06-01,1,0.008999530143235908,0.010803123438662663,-0.019295860739315256,0.00480767996353535,0.9694232658272984
2016-06-03,1,0.00740531217758451,0.008903648867026649,-0.019295860739315256,0.00480767996353535,0.969318393962929
2016-06-07,1,0.005723266722235623,0.006849063220557066,-0.019295860739315256,0.023857008379046647,0.9698200431072306
2016-06-09,1,0.005932912549391717,0.007065152632905321,-0.030078752925923703,0.014180776712565563,0.9633417555094597
2016-06-13,1,0.0045005689249869515,0.005329914584949701,-0.030078752925923703,0.054394291723160494,0.9580960288032084
2016-06-15,1,0.007266452776036552,0.008591430597879323,-0.03836400098448363,0.043078329917986255,0.9565347587682973
2016-06-17,1,0.006957491242676189,0.008201224018088404,-0.03836400098448363,0.043078329917986255,0.9558600872163473
2016-06-21,1,0.007253074325923466,0.008504100060577554,-0.048265801111319964,0.03817033291595895,0.9555993287476534
2016-06-23,1,0.006295383578717639,0.00747102662782333,-0.048265801111319964,0.05243664986618683,0.9543830766277425
2016-06-27,1,0.0052133273971007085,0.006161905543234083,-0.02628871057780354,0.042425782632328365,0.9590221688605424
2016-06-29,1,0.006511089815835614,0.007604294275055254,-0.048265801111319964,0.03817033291595895,0.9590476368366454
2016-07-01,1,0.0059152382496460215,0.007005904503969331,-0.03075478159779894,0.03817033291595895,0.961709509693081
2016-07-06,1,0.005906390033718759,0.006876696015818207,-0.03075478159779894,0.03503621332988202,0.9612585113177528
2016-07-08,1,0.0018354749508028114,0.0022137168241676344,-0.014300969535612582,0.03503621332988202,0.9673921748823829
2016-07-12,1,0.004038242836228171,0.004561451354066874,-0.014300969535612582,0.015005258426012715,0.9735757623762868
2016-07-14,1,0.0026541850961252387,0.002920744396950581,-0.019240518389989372,0.013055785238699331,0.976514831249487
2016-07-18,1,0.0014935125664064484,0.001511161730464752,-0.014554134310835309,0.015005258426012715,0.9769515270654904
2016-07-20,-1,-0.0007903731216901219,-0.000498650786931003,-0.012387112138901488,0.02141313016940847,0.9776996796261269
2016-07-22,1,0.0020665472375998384,0.0021005449739930583,-0.014554134310835309,0.008345233983950352,0.9797833183255714
2016-07-26,1,0.0014084096674597821,0.0015072633527542273,-0.014554134310835309,0.015005258426012715,0.9799019244859319
2016-07-28,-1,-0.0005918621247067496,-0.000312437558608956,-0.012759271485267083,0.015005258426012715,0.9799890032480152
2016-08-01,1,0.000179593770096569,0.00032590098983153234,-0.014615424238952878,0.010114858251182222,0.9782569296627198
2016-08-03,1,8.163242424979967e-05,0.0002985062347871906,-0.015714278675260998,0.008867910064448242,0.9788461198010475
2016-08-05,1,2.3153684660052326e-05,0.0002492077790248972,-0.021493509998408215,0.008867910064448242,0.9740068750159833
2016-08-09,-1,-0.0010877959722405705,-0.0006726760761331997,-0.02652274828469729,0.008867910064448242,0.9721886061077398
2016-08-11,-1,-0.002093050177919554,-0.0015984842488862064,-0.022559498144608857,0.009057936335882335,0.9736393517462638
2016-08-15,-1,-0.0018484658922267164,-0.0013328042626858075,-0.02334660486646576,0.00705630897590501,0.974163593186792
2016-08-17,-1,-0.0012226691966262051,-0.0007033675446471554,-0.02870249115952521,0.006682471132108356,0.9751561419339893
2016-08-19,-1,-0.002941439935056953,-0.002236200113164991,-0.02870249115952521,0.00705630897590501,0.9728326126754849
2016-08-23,-1,-0.0025162705830067632,-0.0018472884954948859,-0.032661032280461376,-0.0036474110056097637,0.9709512266107687
2016-08-25,-1,-0.005464933627692603,-0.0044282444386021524,-0.02870249115952521,0.007535599853054089,0.9704026884729229
2016-08-29,-1,-0.006676733411366537,-0.005498192553603037,-0.02334660486646576,0.009925730153027293,0.9715283792782053
2016-08-31,-1,-0.003619705069727991,-0.0030389231571642675,-0.02870249115952521,0.011659691515771843,0.9663285093115768
2016-09-02,-1,-0.0006522289846446604,-0.0005398616374144042,-0.02870249115952521,0.011659691515771843,0.9672962675873751
2016-09-07,-1,-0.0020173207029773104,-0.0017381980514813067,-0.023880108427182415,0.02162699787705033,0.9666436129056332
2016-09-09,-1,-0.0023034486427981607,-0.0019666955930990517,-0.03496501012126453,0.02162699787705033,0.9640880717254807
2016-09-13,-1,-0.0023731802057686924,-0.0020797149640317566,-0.05141916166663224,0.02162699787705033,0.9624733683289034
2016-09-15,-1,-0.0041707282603267,-0.003606403577909983,-0.05141916166663224,0.03648972458221254,0.9596895433811994
2016-09-19,-1,-0.004559638962219479,-0.003915310225973544,-0.05152809456696635,0.024540704393205392,0.961629112382713
2016-09-21,-1,-0.007226153188661719,-0.006182790031141275,-0.024048771275569123,0.0336220813904723,0.9616555280702487
2016-09-23,-1,-0.002653630293093299,-0.0022786285466004203,-0.05152809456696635,0.031955406776519625,0.9622753966215506
2016-09-27,-1,-0.0019255314723997537,-0.0016534235963383396,-0.05152809456696635,0.031955406776519625,0.9623274269834643
2016-09-29,-1,-0.0015730742553231696,-0.0013287583805559429,-0.04505675476116637,0.026469020576602095,0.964977348484539
2016-10-03,-1,-0.0036897658712364344,-0.0031126451806341112,-0.028225761174409753,0.03233330249786363,0.9655263407266481
2016-10-05,-1,-0.002444064672410943,-0.002057709115918305,-0.04505675476116637,0.03162207376107773,0.964041192102594
2016-10-07,-1,-0.003002107936853941,-0.002590350223747254,-0.028988161018303305,0.03162207376107773,0.9669330649846531
2016-10-11,-1,-0.0038791462207335104,-0.0033926280488238555,-0.028988161018303305,0.03162207376107773,0.9672827269913663
2016-10-13,-1,-0.0022238223854421984,-0.0019063896340670455,-0.028988161018303305,0.026594985817050096,0.9677369041374044
2016-10-17,-1,-0.0036345182355563147,-0.003169350705357699,-0.025210020729193535,0.026594985817050096,0.9703376880376895
2016-10-19,-1,-0.0030946403089848647,-0.002700120289482382,-0.025373036686318916,0.02523216569580538,0.9704598035868606
2016-10-21,-1,-0.0028750920403258396,-0.0026088966268155225,-0.02947720888967945,0.013016538976296364,0.9708458557469566
2016-10-25,-1,-0.0037441995913709827,-0.003343914495773752,-0.038926772865795475,0.013016538976296364,0.9703151870545663
2016-10-27,-1,-0.004154188906172644,-0.003697665429486295,-0.03211539010324385,0.0022727359424938257,0.9719119854281834
2016-10-31,-1,-0.0019928400969661552,-0.0018055606274930236,-0.039621989108985164,0.0,0.970178618802272
2016-11-02,-1,-0.004088126023154436,-0.003646596257010095,-0.034340665206832335,0.0,0.9737925068837486
2016-11-04,-1,-0.002993020902298316,-0.00274832517765066,-0.039621989108985164,0.0022727359424938257,0.9691746113531045
2016-11-08,-1,-0.003638460028612939,-0.003331596940530076,-0.039621989108985164,0.0,0.9674961861167571
2016-11-10,-1,-0.00146269290962897,-0.0014489737739542435,-0.039621989108985164,0.005681812640064139,0.961930054903215
2016-11-14,-1,-0.0028058833646890566,-0.0025824485398858264,-0.039621989108985164,0.019318163271778006,0.9612107955826065
2016-11-16,-1,-0.0029846583786258306,-0.0027301681676979096,-0.04809336755106339,0.019318163271778006,0.9567678285281855
2016-11-18,-1,-0.004491344989366772,-0.004149884298255363,-0.035931141055705565,0.02418829960435583,0.9593965162978798
2016-11-22,-1,-0.00609491159870984,-0.005518027476743439,-0.03810583866231272,0.02418829960435583,0.958401896930947
2016-11-25,-1,-0.006296391514227916,-0.0057670231276296755,-0.03810583866231272,0.02418829960435583,0.9573200743580897
2016-11-29,-1,-0.009639722170817044,-0.008546390440012104,-0.03574974067761154,0.020987920194089058,0.9614568751351731
2016-12-01,-1,-0.008140067693468995,-0.007451368211786195,-0.03810583866231272,0.02418829960435583,0.9537243416229543
2016-12-05,-1,-0.01002077277944555,-0.009098632551280964,-0.03574974067761154,0.028640128363519247,0.9556129391658447
2016-12-07,-1,-0.012293158245495466,-0.011114320034357054,-0.022660797150651266,0.028640128363519247,0.9580538660104624
2016-12-09,-1,-0.007649181591327346,-0.006933156517078197,-0.03810583866231272,0.020102021546226895,0.9624771507380832
2016-12-13,-1,-0.0051572291059654935,-0.004890870856127325,-0.03810583866231272,0.028640128363519247,0.9599395531666964
2016-12-15,-1,-0.006316003756475817,-0.005910305338915874,-0.024585476705761375,0.02244896923818833,0.96581985052537
2016-12-19,-1,-0.006866366721124862,-0.00630274422630339,-0.024585476705761375,0.020102021546226895,0.9673770895173058
2016-12-21,-1,-0.008270684460908725,-0.007576737148209198,-0.013029178501998882,0.020102021546226895,0.9687171121073939
2016-12-23,-1,-0.006454133571559824,-0.006038326583945136,-0.022883465116496533,0.014564512674241024,0.962216538803262
2016-12-28,-1,-0.005170992739721521,-0.004910185756219333,-0.022883465116496533,0.022836527788986576,0.9618568326673446
2016-12-30,-1,-0.004803431107257306,-0.004592416667652265,-0.022883465116496533,0.020514435713344107,0.9669937986639869
2017-01-04,-1,-0.004108609234896024,-0.00394138868778273,-0.03126041258322798,0.00510203585134164,0.9677728178023356
2017-01-06,-1,-0.003260952942665452,-0.0032456806053436757,-0.03126041258322798,0.023437464299302487,0.9633505903019184
2017-01-10,-1,-0.005699426565253083,-0.005503378737477915,-0.020050486123460685,0.023437464299302487,0.9679288142776168
2017-01-12,-1,-0.003432410941457073,-0.003424683336028457,-0.022883465116496533,0.012755053135715014,0.9682009151993066
2017-01-17,-1,-0.002984189835398541,-0.00288028278255226,-0.022731949525655493,0.020514435713344107,0.9669041553081589
2017-01-19,-1,-0.0037087860990711184,-0.0036287096449929427,-0.024036296445841675,0.020514435713344107,0.9658583472300107
2017-01-23,-1,-0.004891729668198987,-0.004645963625972317,-0.02436885370598869,0.020514435713344107,0.9626727059158444
2017-01-25,-1,-0.004391613168657009,-0.004215806325929122,-0.02240188791742516,0.020514435713344107,0.9697567048104677
2017-01-27,-1,-0.0026286642036679906,-0.0024874436830854187,-0.02240188791742516,0.02155610159356044,0.9698726948954093
2017-01-31,-1,-0.004146161332260126,-0.004048146476989257,-0.02240188791742516,0.02499997615814209,0.9703081841862573
2017-02-02,-1,-0.004393552246585875,-0.004275154848831378,-0.02240188791742516,0.02499997615814209,0.9683512123000847
2017-02-06,-1,-0.0018985384704453912,-0.00172753929750309,-0.02240188791742516,0.013903011323908898,0.9722093167697035
2017-02-08,-1,-0.0023563069009325008,-0.00229612079727861,-0.02470293133051152,0.02499997615814209,0.9710279253926599
2017-02-10,-1,-0.0039725850546975736,-0.0038359015659417688,-0.02240188791742516,0.02532893898084235,0.9737853547929711
2017-02-14,-1,-0.0035123054659217333,-0.0033565773955363007,-0.02470293133051152,0.02499997615814209,0.9743525730046215
2017-02-16,-1,-0.0023798638505859587,-0.002247691327635799,-0.02470293133051152,0.02499997615814209,0.9747487517549663
2017-02-21,-1,-0.0039362842623348986,-0.003912051696650962,-0.015965967067557853,0.02532893898084235,0.9763888287655422
2017-02-23,-1,-0.003203510132782045,-0.00306750158283655,-0.013029721280898993,0.026315827448943133,0.9768350566299244
2017-02-27,-1,-0.002733211538991894,-0.0026013670101751214,-0.013029721280898993,0.026315827448943133,0.9772470993296833
2017-03-01,-1,-0.0017991442811150365,-0.0014673945069327119,-0.012862171290870859,0.015838162703526018,0.9803646139739876
2017-03-03,-1,-0.003703935094303021,-0.0036717773109708964,-0.012351429693720967,0.026315827448943133,0.9802822780367404
2017-03-07,-1,-0.003414810508072333,-0.0034006277504844127,-0.012862171290870859,0.015838162703526018,0.9791804665127808
2017-03-09,-1,-0.0017437447914185852,-0.0013489681872181887,-0.012351429693720967,0.015356761143643961,0.9804674139117195
2017-03-13,-1,-0.0014670828106636627,-0.0011301427158826054,-0.012862171290870859,0.015356761143643961,0.9789787552754183
2017-03-15,-1,-0.0018899513256671566,-0.0015539390226013024,-0.012393039571207399,0.015356761143643961,0.9794982418995545
2017-03-17,-1,-0.0027425431042442504,-0.0025388114472132944,-0.011632700129791198,0.015356761143643961,0.9799932233283701
2017-03-21,-1,-0.0012261578550952657,-0.0008346494992131246,-0.011835622684463872,0.012232778513783063,0.9828085180431023
2017-03-23,1,4.578174624875631e-06,0.000559855114059754,-0.011835622684463872,0.012232778513783063,0.9838276247073888
2017-03-27,1,0.0016533654211269254,0.0025844635369402917,-0.011835622684463872,0.01176967213305892,0.98348935050103
2017-03-29,1,0.000944963970509875,0.0016265209588434753,-0.011835622684463872,0.014673283873392668,0.9819048772516478
2017-03-31,1,0.002199611657550657,0.0030601890975287035,-0.014717991480881078,0.011627839925551307,0.9830977876711121
2017-04-04,1,0.001130649327447076,0.0018041190828275776,-0.011835622684463872,0.011627839925551307,0.9853043437467149
2017-04-06,1,0.0031208083743514965,0.004231165397092983,-0.011561828206471628,0.01152768271087832,0.9851268975716763
2017-04-10,1,0.0037096248415447778,0.0048514765282454825,-0.011527628220662743,0.002873574243163498,0.9874011657796518
2017-04-12,1,0.0037184603927530886,0.004865906659561136,-0.011396306438354374,0.01152768271087832,0.9872825859318174
2017-04-17,1,0.002417813806229043,0.0032088625019092085,-0.011527628220662743,0.011662067634449555,0.9835438520042452
2017-04-19,1,0.001821564145168758,0.00247297831266742,-0.011527628220662743,0.011662067634449555,0.9831297607565948
2017-04-21,1,0.002165191133221796,0.00281978811729516,-0.011527628220662743,0.011764750761144301,0.9821858669043213
2017-04-25,1,0.001157201163055253,0.0016198569665413199,-0.011527628220662743,0.011764750761144301,0.9818013162506372
2017-04-27,1,0.002139066285077095,0.0026870085078727884,-0.01440277575349571,0.011764750761144301,0.9817242020584673
2017-05-01,1,0.000911476480009234,0.0012157413889040708,-0.01440277575349571,0.011764750761144301,0.9813999731817641
2017-05-03,1,0.0001744636601157789,0.00022287666300291556,-0.01440277575349571,0.011764750761144301,0.9824292250953828
2017-05-05,1,0.0021913980930166536,0.00279459267382773,-0.01440277575349571,0.014637510756723243,0.9816777161000794
2017-05-09,1,0.0017335983019112604,0.0022411695411824373,-0.022727250560256557,0.014637510756723243,0.9811940296629591
2017-05-11,1,0.0021784627681755557,0.00266458503942911,-0.022727250560256557,0.011662067634449555,0.9828524998469337
2017-05-15,1,0.0019350680328749893,0.002404751289140288,-0.005681812640064139,0.014637510756723243,0.9848416855793047
2017-05-17,1,0.0005772504554979866,0.0007629263753789014,-0.002747263112025755,0.022480598457959744,0.9847201495120137
2017-05-19,1,0.0021158144301526996,0.00256108441605928,-0.013923601976141405,0.02234846341215887,0.9833394052917295
2017-05-23,1,0.001588362625691649,0.0019800967050870076,-0.013797339593442174,0.022727250560256557,0.9831144201805806
2017-05-25,1,0.00143115669045062,0.0017756931265149988,-0.011019577710236338,0.022535810239376616,0.9837259350908363
2017-05-30,1,0.001693842199892233,0.002120222829977178,-0.002747263112025755,0.022535810239376616,0.9843190649941914
2017-06-01,1,0.0017116079672034957,0.002134919733469595,-0.002747263112025755,0.022535810239376616,0.9834661651647912
2017-06-05,1,0.0010105303550747625,0.001181456142908953,-0.002747263112025755,0.022284649971865553,0.9842204658530965
2017-06-07,1,0.0017005941645652956,0.0020849077740229286,-0.010479177784324927,0.022284649971865553,0.982914348671746
2017-06-09,1,0.0016602040293437748,0.0020268412791836976,-0.010479177784324927,0.022727250560256557,0.9791555313288276
2017-06-13,1,0.0027558983927645614,0.0032608961161972455,-0.011019577710236338,0.022284649971865553,0.9777592294534901
2017-06-15,1,0.002531255905562243,0.0029557388372051475,-0.010842335101482158,0.022727250560256557,0.9735406590398146
2017-06-19,1,0.002046308505396441,0.0024035228804394496,-0.010842335101482158,0.02746209423883084,0.9671599856598434
2017-06-21,1,0.002678766811590798,0.0031634432147375595,-0.0104200969147402,0.033375854142314886,0.9674948258066006
2017-06-23,1,0.0021894128627589224,0.0025386314835061383,-0.010003075511517832,0.033375854142314886,0.9677697803611044
2017-06-27,1,0.0023176518510912942,0.002642565603060794,-0.010003075511517832,0.033375854142314886,0.9674364798394224
2017-06-29,1,0.0036790590809798523,0.004302362203340558,-0.010003075511517832,0.03954284159459241,0.9666001431769587
2017-07-03,1,0.004065724881434038,0.004730000481359497,-0.0104200969147402,0.03954284159459241,0.9651161721289604
2017-07-06,1,0.0020545142629632414,0.002339462189213524,-0.009756837913723965,0.03954284159459241,0.9660225586698438
2017-07-10,1,0.004522275899365884,0.005192781234360575,-0.01011395286319247,0.022504536365330917,0.9684756578968874
2017-07-12,1,0.0022894007107770813,0.002618515281076369,-0.009756837913723965,0.022504536365330917,0.9705516674994403
2017-07-14,1,0.003891876410371091,0.004288551492219359,-0.012098663443888614,0.019325088672890324,0.9736375948685331
2017-07-18,1,0.003919282362903306,0.0043021865736559,-0.009756837913723965,0.019325088672890324,0.9803684885783889
2017-07-20,1,0.004592537775120046,0.005090858993291638,-0.009638691141347126,0.019093411485724354,0.9814621699908745
2017-07-24,1,0.004867042928092327,0.005399294785485674,-0.009638691141347126,0.01904760088239397,0.9814836832326422
2017-07-26,1,0.004152044613770006,0.004457748073157726,-0.009546716877795017,0.01878057869000989,0.9820810778527338
2017-07-28,1,0.0049165834347021375,0.005352506768753444,-0.009456459897829846,0.018691571292548528,0.9833462374668924
2017-08-01,1,0.004450663130183132,0.00480883054955147,-0.009456459897829846,0.01856176822126304,0.9839209451526488
2017-08-03,1,0.0050386616931265005,0.005518462149447888,-0.011772509523403476,0.011638997790580287,0.9837430725586738
2017-08-07,1,0.003941218089447533,0.004189443929525012,-0.00932543227631887,0.011638997790580287,0.9845794457947705
2017-08-09,1,0.002494586463512073,0.002501785536944536,-0.009280906083267159,0.011638997790580287,0.9850841617646345
2017-08-11,1,0.002359514308225538,0.0024264099949482514,-0.009259294417005213,0.011638997790580287,0.9851154109417337
2017-08-15,1,0.0040329500260803805,0.00436591929977371,-0.009345741082052994,0.0023364575526238834,0.9851829415337789
2017-08-17,1,0.0033915629055632753,0.003637189100105175,-0.009345741082052994,0.018518500530834543,0.984819354421873
2017-08-21,1,0.0038178171842475775,0.00412278535113306,-0.009345741082052994,0.018518500530834543,0.9838336806069006
2017-08-23,1,0.003853302248745237,0.004206943581756582,-0.009345741082052994,0.0186058518619844,0.9809065865234303
2017-08-25,1,0.0034790221030447663,0.003730185286988495,-0.01163893094424834,0.0186058518619844,0.9802729017490027
2017-08-29,1,0.003069620336277019,0.0032665555871598654,-0.009345741082052994,0.018867905855433964,0.9801171974143739
2017-08-31,1,0.0027774192820403756,0.0029568252330966667,-0.009280906083267159,0.020969115544640548,0.979302046914588
2017-09-05,1,0.0027105554231695683,0.0028475231094937715,-0.00833645815869695,0.020969115544640548,0.9802614499192651
2017-09-07,1,0.0017170981188020665,0.001718980592910046,-0.00781392802198301,0.020969115544640548,0.9804427432555395
2017-09-11,1,0.002734037588990929,0.0028404004290780056,-0.00833645815869695,0.0186058518619844,0.9821508023648359
2017-09-13,1,0.001865790961350677,0.0018862212973223302,-0.0019379734641961478,0.0186058518619844,0.9838763477247366
2017-09-15,1,0.0021889367379178894,0.0022127756892758345,-0.00781392802198301,0.010522300457109626,0.983556620113236
2017-09-19,1,0.003451953335321933,0.0037139364703416603,-0.01532639043614808,0.007767089633796883,0.9826487130874035
2017-09-21,1,0.004863036659457511,0.0052581186127043465,-0.01532639043614808,0.007767089633796883,0.9823783635997636
2017-09-25,1,0.0042425116360148354,0.004577278579079133,-0.009816831230081969,0.007767089633796883,0.9833272579573449
2017-09-27,1,0.004201146842761188,0.004484836083748325,-0.009722286450003533,0.007812455180101626,0.9845916877706574
2017-09-29,1,0.00487923321301568,0.005218541367048403,-0.01532639043614808,0.007812455180101626,0.9848023120752348
2017-10-03,1,0.005334464357505259,0.005786415958315451,-0.015794558924383497,0.007827852860894755,0.983184279485113
2017-10-05,1,0.004537381004524113,0.00480936370832182,-0.015794558924383497,0.007889649998247043,0.9841539615046904
2017-10-09,1,0.0035605941559072795,0.003654468269165402,-0.010215015366718821,0.00796848349757811,0.9842244403657392
2017-10-11,1,0.003859746156856848,0.004051482591840291,-0.016166651248931886,0.008080919019122147,0.9834229319357299
2017-10-13,1,0.0023319421602448916,0.0024043869443871367,-0.016166651248931886,0.008080919019122147,0.9831204224423896
2017-10-17,1,0.00045483304901602233,0.0007552231408375777,-0.010048348858997875,0.008163629805465712,0.984262739680345
2017-10-19,1,0.002094040861958181,0.002230440748073042,-0.017813927430557625,0.008163629805465712,0.9825938077305908
2017-10-23,1,0.0014209113540172564,0.0016586678612228005,-0.017813927430557625,0.008163629805465712,0.9814940370983872
2017-10-25,1,0.0023392403619424997,0.002437918563149701,-0.017813927430557625,0.008163629805465712,0.9811526738630751
2017-10-27,1,0.0009868050617235365,0.0012951896735139336,-0.015999984741210938,0.008163629805465712,0.9821070282601521
2017-10-31,0,-0.0002237773708580759,0.00023988372223562198,-0.01581100872086371,0.008163629805465712,0.9837872773768628
2017-11-02,1,0.00040226188801831665,0.0007180800820708593,-0.01581100872086371,0.010263348155446194,0.9808534118269724
2017-11-06,1,0.00048346079559207975,0.00079832963896701,-0.01581100872086371,0.009957706301886122,0.9809861951326887
2017-11-08,-1,-0.0005821944855441978,-0.00010534557743389233,-0.010034588319924638,0.01537654138256646,0.9804349487546835
2017-11-10,-1,-0.001006039156484409,-0.0004617092629823948,-0.00808088072082991,0.014473670353432062,0.9815828206436533
2017-11-14,-1,-0.0017089213150816426,-0.0010878869039655905,-0.008016140446082079,0.01537654138256646,0.9818224076357216
2017-11-16,0,-0.0002644531948049133,0.00016451687328022284,-0.008016140446082079,0.01537654138256646,0.9855293520368746
2017-11-20,-1,-0.0012896845931647625,-0.0007527845613015435,-0.0016666730244954723,0.017539828943256043,0.9849623200466133
2017-11-22,-1,-0.0009669681345230571,-0.0004893662129784784,-0.0016666730244954723,0.016522943080582088,0.9852903653076939
2017-11-27,-1,-0.002396038463753619,-0.0016507433529695608,-0.0016339931409001427,0.02097903403730293,0.9835898452984901
2017-11-29,-1,-0.001405604839724761,-0.0008870633608437908,-0.0065686524471959004,0.02097903403730293,0.982527007799813
2017-12-01,-1,-0.0009168109169585361,-0.00031489225261535766,-0.0065686524471959004,0.016522943080582088,0.9853198142981344
2017-12-05,1,0.0019576435203407594,0.002022643796123497,-0.006666692097981889,0.01595903400567234,0.9859754552565212
2017-12-07,1,0.003269453517280196,0.003307169455008767,-0.008289489661887792,0.01595903400567234,0.9855825060073141
2017-12-11,1,0.0038099959424832165,0.003962501985365752,-0.008289489661887792,0.015518721045602821,0.9857187969462176
2017-12-13,1,0.004615016033873055,0.004918797804750842,-0.013224113348853945,0.013293065943963067,0.9841448783802431
2017-12-15,1,0.004370741534289688,0.004651457104313338,-0.00839148227681551,0.00839153093366908,0.9853999971286975
2017-12-19,1,0.004950774073295422,0.0053609268102798625,-0.013224113348853945,0.006814379269627616,0.9856688209349913
2017-12-21,1,0.004260041193334391,0.004550261098657832,-0.013613217473086303,0.006779857429765288,0.9846030074742377
2017-12-26,1,0.00498769647806372,0.005372191817187062,-0.013613217473086303,0.00672275587914766,0.9855120519178359
2017-12-28,1,0.003449178639767722,0.0036116249833151037,-0.013613217473086303,0.006779857429765288,0.9869268079568221
2018-01-02,1,0.003228739052732616,0.0032959548776021817,-0.013613217473086303,0.001677858792448619,0.9869577777069243
2018-01-04,1,0.0024694332704207856,0.002543823912357519,-0.013613217473086303,0.0,0.9877324209962317
2018-01-08,1,0.0037148113813716362,0.0039055436549615776,-0.009060839486739414,0.0017123189243598807,0.9886261853101554
2018-01-10,1,0.0035925523136395078,0.0037364488320723328,-0.009060839486739414,0.0017123189243598807,0.9886140735605082
2018-01-12,1,0.0021134984735280502,0.002137358032480747,-0.007233894981834031,0.006922677870753362,0.9914087981802026
2018-01-17,1,0.0013384003172038853,0.00147871893326661,-0.007233894981834031,0.007104839453522915,0.9918707623855976
2018-01-19,1,0.0008825901917859823,0.0010519326322835504,-0.007080210898703835,0.007104839453522915,0.9929088667698379
2018-01-23,-1,-0.0009693926376243011,-0.0005442367018524076,0.0,0.007209022209127241,0.9932378684805607
2018-01-25,-1,-0.001911362677826991,-0.0013316497875563,0.0,0.0074074356644243215,0.991914398544689
2018-01-29,-1,-0.002505591686144639,-0.001862385210139408,0.0,0.007209022209127241,0.9922341688947023
2018-01-31,-1,-0.0037103690837128494,-0.0028626911828824836,0.0,0.007209022209127241,0.9912933769395763
2018-02-02,-1,-0.0030700586304503886,-0.002352480661656119,0.0,0.007209022209127241,0.9913182359732918
2018-02-06,-1,-0.0034038139284530465,-0.002565959308821023,0.0,0.006945472976246024,0.9915906529605226
2018-02-08,-1,-0.002364626828180837,-0.0017005723752804092,0.0,0.0068965780323950576,0.9921365252702706
2018-02-12,-1,-0.0013365990828274178,-0.0008674015242839826,0.0,0.006861101281178407,0.9923102515497245
2018-02-14,1,0.0005762775230686635,0.000681128511030057,-0.0017123352543991794,0.006861101281178407,0.9862718749339457
2018-02-16,-1,-0.0005236556799331685,-0.00022193633846198126,-0.008515380876164418,0.006861101281178407,0.9822514562351901
2018-02-21,1,0.0011281268947215298,0.0011932472743275218,-0.008515380876164418,0.006861101281178407,0.9799359542615995
2018-02-23,1,0.0028083150670096604,0.0030619017140213365,-0.008515380876164418,0.006861101281178407,0.979214717436322
2018-02-27,1,0.0020445542125272307,0.0022078518392926244,0.0,0.0068965780323950576,0.9795733705098781
2018-03-01,1,0.0016703548881844281,0.0017222453167237747,-0.0031847103773069733,0.008398236899540433,0.9785002168392731
2018-03-05,1,0.0015804504498703972,0.0015960402260604125,-0.0031847103773069733,0.008398236899540433,0.978475504104506
2018-03-07,1,0.0010828240389677782,0.001133822570582981,0.0,0.012903213500976562,0.9776320366942679
2018-03-09,1,0.0008316548306473851,0.0009737779153975237,-0.0061069072833682,0.012903213500976562,0.9774958161594044
2018-03-13,0,-0.00018830164248317505,0.000185408712714067,-0.007687588381562964,0.012903213500976562,0.9774789253484836
2018-03-15,1,0.0017184704311136775,0.001719484300071264,-0.0061069072833682,0.008327863720511875,0.9838184856719795
2018-03-19,-1,-0.002628657801934735,-0.0021017645622753937,-0.0015243960944477197,0.012903213500976562,0.9837989564409874
2018-03-21,1,0.0012865538720756263,0.0013117760739268962,-0.0061069072833682,0.008293341880649547,0.9877210232961172
2018-03-23,1,0.0025572230075105147,0.0026534743400885006,-0.007687588381562964,0.006339171005726924,0.9882707213926064
2018-03-27,1,0.002297470626728159,0.002302094238417957,-0.007894141911507085,0.006329077632166622,0.9883463310705671
2018-03-29,1,0.001970563682637632,0.00202535318684632,-0.0062037271767482055,0.006329077632166622,0.9893683999327454
2018-04-03,1,0.002105432271840996,0.0021409323012904304,-0.0062037271767482055,0.0062992686471415715,0.9894373442348059
2018-04-05,1,0.0031102580660812354,0.0031706539563383434,-0.007894141911507085,0.0062598509610934045,0.989752481261638
2018-04-09,1,0.002273365494471568,0.0023329741215097864,-0.012384291164231282,0.0062992686471415715,0.9881018769692698
2018-04-11,1,0.000871916968024483,0.0011451743508689638,-0.007932707549787006,0.006349363117556114,0.9883257087767262
2018-04-13,1,0.0018971682551642403,0.0019741158531178375,-0.012559701436610258,0.006420574058837451,0.9867675947637407
2018-04-17,1,0.0004411904322850931,0.0007686625237821579,-0.012519642223823596,0.006420574058837451,0.9889912088154031
2018-04-19,0,-2.4705285166447396e-05,0.0003493098311986209,-0.01261866387086791,0.009646408099167367,0.9859085067602311
2018-04-23,-1,-0.0012486901192056193,-0.0007233325981980938,-0.01246145667076329,0.009646408099167367,0.9864399294309708
2018-04-25,-1,-0.0021068908215200388,-0.0014541172659320633,-0.01246145667076329,0.009646408099167367,0.9860460705023281
2018-04-27,0,-0.0002099507853183406,6.865858208049056e-05,-0.01246145667076329,0.009615344643828795,0.9865083517447374
