JNU-Tangyin/eata/results/Batch4_SP500/Batch4_SP500-MAR.csv
Date,Action,Predicted_Q25,Predicted_Q75,Actual_Q25,Actual_Q75,RL_Reward
2010-12-14,0,0.0,0.0,-0.0068823738090605545,0.006024898851939629,0.9924018076339355
2010-12-16,0,0.0,0.0,-0.004900742875982961,0.0080587807209824,0.992076667020559
2010-12-20,0,0.0,0.0,-0.007050881916694127,0.002768124264639314,0.9923640908236607
2010-12-22,0,0.0,0.0,-0.009030572690076013,0.002768124264639314,0.9914985518917068
2010-12-27,1,0.003278391178221711,0.003599495053983649,-0.010129902180251822,0.005784634093304108,0.9902461785001548
2010-12-29,1,0.002830765814676437,0.003058531799091392,-0.010129902180251822,0.008185987933091535,0.98978123048088
2010-12-31,1,0.0027452644291254833,0.002921290711359603,-0.01197475883259045,0.01017908055226032,0.9872450354681277
2011-01-04,1,0.0016076242100180943,0.0016436760867307783,-0.010129902180251822,0.010296795500807688,0.9875671611526001
2011-01-06,1,0.0011531579607082293,0.0012385600169548966,-0.008587674073259985,0.00852163192478477,0.9885934925106691
2011-01-10,0,0.0,0.0,-0.008587674073259985,0.00852163192478477,0.9888864983652637
2011-01-12,0,0.0,0.0,-0.008587674073259985,0.00852163192478477,0.9888048760057976
2011-01-14,1,1.4767872238229942e-05,0.0002713507396010478,-0.008587674073259985,0.008493455692778292,0.988382647477317
2011-01-19,-1,-0.0012400618878129965,-0.000819718948184395,-0.005382349734258965,0.011240537194788867,0.9894122503697208
2011-01-21,-1,-0.002380314873131976,-0.0018099757942125119,-0.005275703273511744,0.011240537194788867,0.9900183971168633
2011-01-25,0,0.0,0.0,-0.005382349734258965,0.00847239226574545,0.9874694945983489
2011-01-27,0,0.0,0.0,-0.005275703273511744,0.00847239226574545,0.9871339618523204
2011-01-31,-1,-0.0010777794392436474,-0.0007640328324702635,-0.005275703273511744,0.005218129429300647,0.9889866160530488
2011-02-02,-1,-0.0004956348975569346,-0.00025918383306104556,-0.005275703273511744,0.005218129429300647,0.9890093033223905
2011-02-04,-1,-0.0004107614250457844,-0.00021233411205827878,-0.006659846611317323,0.005218129429300647,0.9882179806932309
2011-02-08,-1,-0.0012317870776351572,-0.0008928145187104652,-0.006659846611317323,0.00847239226574545,0.9869975819553061
2011-02-10,-1,-0.0004903770787774314,-0.0002936257199034442,-0.012561703836851979,0.007617563753891171,0.9860075305414219
2011-02-14,0,0.0,0.0,-0.014279620180876609,0.004933186592015887,0.9866688604484666
2011-02-16,0,0.0,0.0,-0.014279620180876609,0.0041518458504976995,0.98648996438728
2011-02-18,0,0.0,0.0,-0.014279620180876609,0.009092412132941052,0.9851227498193545
2011-02-23,0,0.0,0.0,-0.012444357769791995,0.009092412132941052,0.98596234854671
2011-02-25,-1,-0.0021097044444835823,-0.0016848402420998499,-0.012444357769791995,0.00790408263229467,0.9867584693197556
2011-03-01,-1,-0.00255224028300662,-0.002128088556396199,-0.012444357769791995,0.01246114054377929,0.9845149520914218
2011-03-03,0,0.0,0.0,-0.012444357769791995,0.00790408263229467,0.9851942264456109
2011-03-07,-1,-0.0033783418164357983,-0.0028120758880557217,-0.009696615315091478,0.00790408263229467,0.9859978679182974
2011-03-09,-1,-0.002274723880543299,-0.0018410710163914313,-0.009696615315091478,0.006557705217994719,0.9870570706096111
2011-03-11,-1,-0.003510075868117646,-0.002911192451171632,-0.012444357769791995,0.006557705217994719,0.9872743461222788
2011-03-15,-1,-0.003925698275454605,-0.0033003389371592173,-0.011532637510552614,0.006557705217994719,0.9870795475600038
2011-03-17,-1,-0.0035158938959231494,-0.0029943794281463796,-0.008053388515388085,0.006557705217994719,0.98779428996915
2011-03-21,-1,-0.0019467802053327562,-0.0016283977351827924,-0.008053388515388085,0.0045758922682131,0.9883241195878346
2011-03-23,0,0.0,0.0,-0.005345078820685926,0.0058687244331527486,0.9897549236097887
2011-03-25,0,0.0,0.0,-0.008053388515388085,0.0058687244331527486,0.9890216953149318
2011-03-29,-1,-0.003798450049912706,-0.0032642653065540666,-0.005551530878022042,0.002775389299661698,0.9931843295824115
2011-03-31,-1,-0.0030291260992882096,-0.0026561561396215875,-0.004869796682276527,0.005280600658290834,0.9928969541085485
2011-04-04,-1,-0.003862177676936536,-0.0033506778599058287,-0.005071873835377972,0.006238439676563351,0.9925831223657371
2011-04-06,-1,-0.0031424293371751363,-0.0027434447140818954,-0.005576718181162525,0.006238439676563351,0.9922951969952376
2011-04-08,-1,-0.004458413404932582,-0.003864365195298237,-0.0048621620500301655,0.008544892687197598,0.9916335797112388
2011-04-12,-1,-0.004968600249746127,-0.004296050664905529,-0.0048621620500301655,0.01086853399114415,0.9900445299890893
2011-04-14,-1,-0.00460739910714622,-0.0040337325135485075,-0.0048621620500301655,0.01086853399114415,0.9895251172791111
2011-04-18,-1,-0.003685612614078948,-0.003197390662358795,-0.005071873835377972,0.008544892687197598,0.9903846889524152
2011-04-20,-1,-0.002759920607094915,-0.002417440328682012,-0.005071873835377972,0.013374754022375663,0.989395107208757
2011-04-25,0,0.0,0.0,-0.005071873835377972,0.009104162666558408,0.9897898816420067
2011-04-27,0,0.0,0.0,-0.0048621620500301655,0.009104162666558408,0.9896118099738358
2011-04-29,0,0.0,0.0,-0.002703200186230019,0.013374754022375663,0.9887049222036026
2011-05-03,-1,-0.0011102977875055175,-0.001028410242649015,-0.003205127929191458,0.013374754022375663,0.9876499915066422
2011-05-05,-1,-0.0004555040068326495,-0.0004215269565065897,-0.006093120812479827,0.008919543945493952,0.9874254561135707
2011-05-09,1,0.00034092258740090457,0.00046069606040407136,-0.017924568813823503,0.006196889412356268,0.9878206585695954
2011-05-11,0,0.0,0.0,-0.017924568813823503,0.005789271336320185,0.9886146272878636
2011-05-13,1,0.0004365316635629023,0.000699202099953861,-0.01931865816531011,0.005326704846885153,0.9879020430537484
2011-05-17,0,-0.0001245428799778656,4.9783451379536146e-05,-0.02150237178723117,0.005789271336320185,0.9860948078557553
2011-05-19,0,0.0,0.0,-0.02150237178723117,0.0022924939993915483,0.9872437277587879
2011-05-23,0,0.0,0.0,-0.01861312894016797,0.005326704846885153,0.9865900440553905
2011-05-25,0,0.0,0.0,-0.01861312894016797,0.0014290107940969836,0.9868690934322948
2011-05-27,0,0.0,0.0,-0.01861312894016797,-0.0002415369595048754,0.987823280359126
2011-06-01,0,0.0,0.0,-0.012013003980590194,0.0021949106780852524,0.986501352943848
2011-06-03,0,0.0,0.0,-0.00866336771506655,0.004638204359290887,0.9856324655587714
2011-06-07,0,0.0,0.0,-0.006542178231552162,0.004638204359290887,0.9863220110750922
2011-06-09,0,0.0,0.0,-0.006542178231552162,0.01225685008700386,0.985886571492981
2011-06-13,-1,-0.43218001955333535,-0.42477859999945355,-0.006542178231552162,0.01349023977398597,0.6978384475019032
2011-06-15,0,0.0,0.0,-0.006542178231552162,0.008917399379215173,0.9848693061270183
2011-06-17,0,0.0,0.0,-0.008663093605408132,0.008917399379215173,0.9840280423680074
2011-06-21,0,0.0,0.0,-0.008663093605408132,0.008136999606371334,0.9855171889696973
2011-06-23,-1,-0.0005506861322446047,-0.0005004625152621449,-0.008663093605408132,0.008917399379215173,0.9845480898385411
2011-06-27,-1,-0.00047601435852113246,-0.0003971531151392775,-0.010120052176664073,0.008917399379215173,0.9840016259316557
2011-06-29,1,0.00032378847854959566,0.0005101260595928231,-0.015921467093375774,0.008136999606371334,0.9844211140788288
2011-07-01,0,0.0,0.0,-0.015921467093375774,0.00727014317962963,0.9855284115136113
2011-07-06,1,0.0018601033490554333,0.0022711367928515526,-0.019067392085830522,0.0077681465229139865,0.9821700860571776
2011-07-08,1,0.002696441722966201,0.0032585216208828173,-0.019837840034929662,0.00727014317962963,0.9807144765575199
2011-07-12,0,0.0,0.0,-0.02144724748955092,0.00727014317962963,0.9777824810450008
2011-07-14,0,0.0,0.0,-0.02144724748955092,0.00727014317962963,0.9765341020006423
2011-07-18,0,0.0,0.0,-0.02125072058828113,0.009974966201730454,0.976666677813763
2011-07-20,1,0.00043758426463176293,0.0006017967336052427,-0.02125072058828113,0.014358582523026454,0.9759264943650456
2011-07-22,1,0.0003791328482741504,0.0004997393096999231,-0.031444298116317194,0.007673447342671854,0.9725099193579163
2011-07-26,1,6.359106953776812e-05,0.00017682100396185793,-0.031444298116317194,0.01529441433957578,0.9715192025532996
2011-07-28,-1,-0.0013826759093655964,-0.001291536888877441,-0.04277057873789801,0.021445143842086546,0.9697673369429829
2011-08-01,-1,-0.001298507646365674,-0.0012694018085492504,-0.04277057873789801,0.02358536068309014,0.9674275507115913
2011-08-03,-1,-0.002358927596202195,-0.0021688697979083483,-0.02559444570629192,0.023034460367658126,0.9701947623089331
2011-08-05,-1,-0.004204411019012111,-0.0037750671846519274,-0.02559444570629192,0.023034460367658126,0.9701014152210176
2011-08-09,-1,-0.0051938554009542245,-0.004645346944902866,-0.02199579598792026,0.02620591803634828,0.9714045539883797
2011-08-11,0,0.0,0.0,-0.026601929199005933,0.01529441433957578,0.9736146794294444
2011-08-15,0,0.0,0.0,-0.026601929199005933,0.02023882197231485,0.972500263909417
2011-08-17,-1,-0.0033477411309875116,-0.0030711233479363493,-0.026601929199005933,0.03888364161279837,0.9708784565599122
2011-08-19,-1,-0.006939608787691686,-0.006179335183166075,-0.020174072761988016,0.03888364161279837,0.9731106438853869
2011-08-23,-1,-0.00534877480359818,-0.004774033108972812,-0.026601929199005933,0.02359219091566018,0.9745501194016045
2011-08-25,0,0.0,0.0,-0.026601929199005933,0.015038129458067567,0.9763821918546813
2011-08-29,0,0.0,0.0,-0.026601929199005933,0.0188355854526401,0.9773010744561619
2011-08-31,0,0.0,0.0,-0.026601929199005933,0.02112544021953679,0.975046966968837
2011-09-02,0,0.0,0.0,-0.02776163466268959,0.02112544021953679,0.9740709433620102
2011-09-07,0,0.0,0.0,-0.02776163466268959,0.028407732610864874,0.9737123493309267
2011-09-09,0,0.0,0.0,-0.021522308701222133,0.028407732610864874,0.9744297229352549
2011-09-13,0,0.0,0.0,-0.021522308701222133,0.028407732610864874,0.9737044118291461
2011-09-15,0,0.0,0.0,-0.021522308701222133,0.028407732610864874,0.9747225567990053
2011-09-19,0,0.0,0.0,-0.024217734811969704,0.028407732610864874,0.9732966962056642
2011-09-21,0,0.0,0.0,-0.022533377947142313,0.03248012910740229,0.9719759747438714
2011-09-23,0,0.0,0.0,-0.021522308701222133,0.03248012910740229,0.9724702906111173
2011-09-27,0,0.0,0.0,-0.022533377947142313,0.03248012910740229,0.9721981796370083
2011-09-29,0,0.0,0.0,-0.021552162967979904,0.033383941280457796,0.9715119250140043
2011-10-03,0,0.0,0.0,-0.01701049953775126,0.033383941280457796,0.973172163440734
2011-10-05,0,-4.4533847572086926e-05,0.00011848926686705205,-0.021552162967979904,0.02799959915389815,0.9741864338905166
2011-10-07,-1,-0.00016205079950007227,-4.393071956003121e-05,-0.019397988104465434,0.02799959915389815,0.9742122651901457
2011-10-11,1,0.0017273587405258982,0.0021673289864938107,-0.019397988104465434,0.027342412873700872,0.9769935880685777
2011-10-13,1,0.002282416785346038,0.002761934489634038,-0.022775676279192685,0.023955364588191048,0.9764292358617281
2011-10-17,1,0.0019276380857555164,0.002377681732307557,-0.019397988104465434,0.027342412873700872,0.976422454356165
2011-10-19,1,0.003004507733956876,0.0036638861173805214,-0.018707035277509124,0.023955364588191048,0.9782858970061439
2011-10-21,1,0.0036334058904994365,0.004331101071346438,-0.018707035277509124,0.02066483773552332,0.9788679535542877
2011-10-25,1,0.003564419216475689,0.004224211322683448,-0.018707035277509124,0.0153101752693722,0.9796210785165842
2011-10-27,1,0.0051802061770788825,0.006022603242308111,-0.020554104335549325,0.008620511418662559,0.9800043316174264
2011-10-31,1,0.0015807731027879743,0.0020918665529588033,-0.018707035277509124,0.013644546602599226,0.9818101094332187
2011-11-02,1,0.0018008062263332196,0.0023101113522889048,-0.015254407777361792,0.013644546602599226,0.9821631996712615
2011-11-04,1,0.001966251206836061,0.0024809149959328135,-0.007563556149093646,0.013103089686058094,0.9831723056205465
2011-11-08,1,0.002270140360650162,0.002827030530703828,-0.014547119920777254,0.013103089686058094,0.9821915588463899
2011-11-10,1,0.001844470309341601,0.002398041985054171,-0.014547119920777254,0.013644546602599226,0.982151939938422
2011-11-14,1,0.002948243444802568,0.003430445869495048,-0.016585171707755506,0.013103089686058094,0.982676377263842
2011-11-16,1,0.0023389763369444454,0.002728606090636077,-0.01638806648161821,0.013103089686058094,0.9828011680376121
2011-11-18,1,0.003078380587287154,0.0036214829707332317,-0.019292524621544595,0.011572936841486105,0.9820515482474591
2011-11-22,1,0.003520967677789006,0.0042009881433723315,-0.01638806648161821,0.012664832957468852,0.9823953500235636
2011-11-25,1,0.002757718543886752,0.0035414129085460867,-0.012015229301316235,0.013583103788544248,0.9836080482065997
2011-11-29,1,0.004362854024986984,0.005182139807816547,-0.01638806648161821,0.012664832957468852,0.9840914934979654
2011-12-01,1,0.005370476751668126,0.0063080170164109255,-0.01638806648161821,0.011482348414380106,0.9858806400710847
2011-12-05,1,0.005530362619396871,0.006426752894667223,-0.01638806648161821,0.013311338507226253,0.9848721458998566
2011-12-07,1,0.004694614128188593,0.005460316668619507,-0.01128506253363128,0.01555862627298308,0.985148709621218
2011-12-09,1,0.004443549243061257,0.005177919144537135,-0.004734822064027357,0.01555862627298308,0.9866182549456404
2011-12-13,1,0.003805145178349874,0.004504613671091326,0.0031758558055830608,0.01586874739837009,0.9872800369745098
2011-12-15,1,0.002839039756146949,0.003367270150803213,0.003833118239172943,0.01586874739837009,0.9872803733299698
2011-12-19,1,0.0018656686141772134,0.002189706505261981,0.0074638774946734435,0.01765977962337073,0.9866980358235918
2011-12-21,1,0.0024576849300624606,0.002813653760791083,0.003833118239172943,0.01586874739837009,0.9883629806734411
2011-12-23,1,0.0026693929890343757,0.0029870168707957345,0.002954409204640177,0.01586874739837009,0.9892223447193076
2011-12-28,1,0.0013513695673589917,0.0014076987283540504,0.0021526651912270284,0.01586874739837009,0.9892277284651084
2011-12-30,1,0.0006920415936191209,0.0007693372646773675,0.0017356486497163309,0.01586874739837009,0.988891409936779
2012-01-04,1,0.0016393493198487126,0.0016678592510152293,0.0008539090438509917,0.014279407308551602,0.9904136170013526
2012-01-06,1,0.003017812497162512,0.0033154178313740596,0.000415176941026767,0.014279407308551602,0.9914270508814861
2012-01-10,1,0.004195412880842214,0.004607263568490028,0.0004148680958994803,0.00935989623953054,0.9921835975574856
2012-01-12,1,0.0028078428620894455,0.002821166832211717,-0.002472879567082229,0.005469122295723405,0.9927592993713923
2012-01-17,1,0.003523733602468251,0.003738330932499861,-0.002472879567082229,0.006193342166369815,0.9918176296730395
2012-01-19,1,0.00358704255174416,0.003768616745273671,-0.004963202451016525,0.003450993999422486,0.9921139450132055
2012-01-23,1,0.004349587518756987,0.004725639182736323,-0.0066174951552688925,0.002942445571149845,0.9908515171807288
2012-01-25,1,0.0053986941580335375,0.005963243947740058,-0.0066174951552688925,0.0027333483422209096,0.9897860954054319
2012-01-27,1,0.003094930379021807,0.0032287475631574496,-0.004963202451016525,0.003846094484576113,0.9919841449615758
2012-01-31,0,0.0,0.0,-0.004222165840061682,0.0052109559734224925,0.9915183430998125
2012-02-02,0,0.0,0.0,-0.004222165840061682,0.0052109559734224925,0.9918898650626629
2012-02-06,0,0.0,0.0,-0.005530182522733937,0.0052109559734224925,0.9924243148629447
2012-02-08,0,0.0,0.0,-0.005530182522733937,0.0068569663988986475,0.9912037152962538
2012-02-10,0,0.0,0.0,-0.0037697378823412214,0.009847393392195376,0.9907360055807559
2012-02-14,0,0.0,0.0,-0.002116576141117779,0.01273284687515066,0.9909537230295944
2012-02-16,0,0.0,0.0,-0.002116576141117779,0.01273284687515066,0.9913203372735847
2012-02-21,0,0.0,0.0,-0.002116576141117779,0.01273284687515066,0.9916887402892599
2012-02-23,0,0.0,0.0,-0.002116576141117779,0.01273284687515066,0.9915263677252573
2012-02-27,0,0.0,0.0,-0.002116576141117779,0.01364480584048381,0.991197435667421
2012-02-29,1,0.0010311301908192238,0.001082106564065727,-0.0024813705432075554,0.010043787942554918,0.9912900396988277
2012-03-02,1,0.0005015876973776124,0.000677104182980499,-0.004929256587267328,0.007019940278185228,0.9912785056465439
2012-03-06,1,0.0008448684533227267,0.0009481856879787226,-0.0024813705432075554,0.0066223403516881794,0.99151477607846
2012-03-08,1,0.002060201913918959,0.002309380862284775,-0.004929256587267328,0.005778420204517904,0.9915559558007732
2012-03-12,1,0.0026665048635370206,0.00283960112440762,-0.008450779892989988,0.005159696538420238,0.9905664188004085
2012-03-14,1,0.0030990680630989787,0.003348010279069192,-0.008450779892989988,0.005724260663862508,0.990417234198422
2012-03-16,0,0.0,0.0,-0.008450779892989988,0.005724260663862508,0.9908905989510058
2012-03-20,0,0.0,0.0,-0.007109263595929965,0.006213761610726296,0.9906420594884165
2012-03-22,0,0.0,0.0,-0.008450779892989988,0.006459861729721992,0.9883948883500739
2012-03-26,0,0.0,0.0,-0.010213164658513733,0.005724260663862508,0.9889443762041048
2012-03-28,1,0.002239853483954411,0.0024336626753075656,-0.008263404156007445,0.009540840033225825,0.988038398732394
2012-03-30,1,0.002121677049054501,0.0022753961852528706,-0.008263404156007445,0.009540840033225825,0.9877628735817535
2012-04-03,1,0.0022153517691213074,0.0023822866130422805,-0.008263404156007445,0.014764821725530756,0.9872468496004533
2012-04-05,1,0.0012574498830145442,0.001335702212315435,-0.008263404156007445,0.014764821725530756,0.9871876386271417
2012-04-10,1,0.00040383014347941735,0.0004150037351207882,-0.0076967251844378805,0.014764821725530756,0.9883707213979613
2012-04-12,1,0.0007809232943337814,0.0007847628921952236,-0.0076967251844378805,0.010536676997999653,0.9892696053346344
2012-04-16,1,0.0006530492151856691,0.0006756034149572327,-0.010302029778021245,0.010536676997999653,0.9887615735413277
2012-04-18,1,0.0007663304339218264,0.000788370379786991,-0.011338654803703666,0.009103140027854964,0.9886198808026833
2012-04-20,1,0.0001548797318592509,0.0002787740510917862,-0.011338654803703666,0.008692857449111647,0.9892070762931783
2012-04-24,1,4.3963376822025405e-05,0.0001674209897453448,-0.011338654803703666,0.009103140027854964,0.9881131558088476
2012-04-26,1,0.00177352741608029,0.0018662877738466529,-0.011338654803703666,0.007654099383186615,0.9891564718684821
2012-04-30,1,0.0014579070801300344,0.0015419275035277438,-0.00683983333805255,0.008692857449111647,0.9893606360172961
2012-05-02,1,0.0015508832892562124,0.001591680754782087,-0.011981512982233822,0.007771921788075677,0.9887179019851429
2012-05-04,1,0.0003615271719983403,0.0005369284010397218,-0.011981512982233822,0.007771921788075677,0.986733771305939
2012-05-08,-1,-0.0009061086714431013,-0.0005087429432240307,-0.0068589841479459466,0.009570089357925662,0.9856496202927102
2012-05-10,-1,-0.0012017484466878945,-0.0007144354738725764,-0.0068589841479459466,0.009399643265697259,0.9858464698762576
2012-05-14,-1,-0.002520336150918424,-0.001850289219212744,-0.0068589841479459466,0.01058691763019563,0.9845738687893895
2012-05-16,-1,-0.0021215747640742164,-0.0015345628415103613,-0.007382567990279944,0.0114616446789512,0.9840481887811893
2012-05-18,-1,-0.003233375048582426,-0.002551881408953038,-0.003661250003599499,0.0114616446789512,0.9845465301620097
2012-05-22,-1,-0.002843758379693587,-0.0021569028942469365,-0.0012958898091933184,0.0114616446789512,0.9843473460837897
2012-05-24,-1,-0.0026759710434651556,-0.0020000146917793318,-0.006821894119382883,0.0114616446789512,0.983705463484232
2012-05-29,-1,-0.0012596295300707893,-0.0007911098198421151,-0.016029194335145616,0.01064114270851829,0.9837946892016094
2012-05-31,-1,-0.0011453928719009094,-0.0007749580305511687,-0.014661813468300672,0.010477674097560095,0.9841932286921075
2012-06-04,-1,-0.002592140370426721,-0.002113738044749832,-0.0037330253631490244,0.012239668949539012,0.9841302411162784
2012-06-06,-1,-0.0008922334341769135,-0.0006551202997877924,-0.0037330253631490244,0.009206640192043704,0.9860138026018703
2012-06-08,-1,-0.0009274152167975282,-0.0006720037621581067,-0.011909005862175776,0.009206640192043704,0.9857444459080726
2012-06-12,-1,-0.0008144141676328199,-0.0006211669398612159,-0.011909005862175776,0.008496989271740234,0.9867034170725182
2012-06-14,-1,-0.0009892772521623752,-0.0007877835057772881,-0.012437518549226447,0.008496989271740234,0.9841703603417976
2012-06-18,-1,-0.0002448984589272965,-0.0001427824241448103,-0.012437518549226447,0.00784527323756124,0.9842199285598044
2012-06-20,1,0.00041919191387068905,0.0004750480159430874,-0.012437518549226447,0.00784527323756124,0.9851914703929264
2012-06-22,-1,-0.000646361193604713,-0.00046063174695993995,-0.012911444290318017,0.00784527323756124,0.9849733413804492
2012-06-26,-1,-0.0009668584096098843,-0.0007654068034929789,-0.012911444290318017,0.008518166730830654,0.9848995359599148
2012-06-28,-1,-0.0007179976810246149,-0.0005786381186633595,-0.01132554946951489,0.016062302270501795,0.9838602583884686
2012-07-02,1,0.0005114445431453726,0.0005201297023291717,-0.01132554946951489,0.01065160702372532,0.9852932135622204
2012-07-05,1,0.00042085536232713084,0.00044757689346954015,-0.01132554946951489,0.01065160702372532,0.9855570743624463
2012-07-09,-1,-0.0005482764593103055,-0.00037838974668300533,-0.010878834567785385,0.016062302270501795,0.9847481894265889
2012-07-11,-1,-0.001544507357468011,-0.00124446197269609,-0.010878834567785385,0.016975695415720603,0.9838511897853816
2012-07-13,-1,-0.0030800943750944297,-0.0025763503176102105,-0.009682455205941631,0.016062302270501795,0.9873587205262583
2012-07-17,-1,-0.002780310713504061,-0.002308962031147951,-0.009682455205941631,0.010656272300702912,0.9880530421567679
2012-07-19,-1,-0.0019578347850118917,-0.0016044838373362514,-0.009682455205941631,0.011730584996583434,0.9873561249657427
2012-07-23,-1,-0.0030636398475278213,-0.002591330330644802,-0.00782984499625171,0.011730584996583434,0.9879839904552508
2012-07-25,-1,-0.0032357679788102447,-0.0027653961046254,-0.007813572376941856,0.009853990005937799,0.9889075079636215
2012-07-27,-1,-0.00181056376173803,-0.0015077442294924644,-0.007813572376941856,0.001893498439670111,0.9912538312603959
2012-07-31,-1,-0.001720799108845901,-0.0014669119162968387,-0.005822474462520928,0.004246463925839206,0.9910444120582719
2012-08-02,-1,-0.001431776724520259,-0.0012467631653038766,-0.005822474462520928,0.00704187068528917,0.9905364491677499
2012-08-06,-1,-7.849400029333279e-05,-6.5835388588376e-05,-0.004858450423696706,0.004383871848378348,0.9921050117165239
2012-08-08,-1,-0.0002878308424550641,-0.0002632289738965243,-0.0045586981059087895,0.004383871848378348,0.9922042577333665
2012-08-10,-1,-0.0007237828341355013,-0.0006200669455266689,-0.0045586981059087895,0.00704187068528917,0.9915112270491456
2012-08-14,-1,-0.000944457404768669,-0.0008189230026823817,-0.0034270330654241113,0.009217417509154554,0.9910898352846312
2012-08-16,1,0.0006363072382977208,0.0007375850472317938,-0.0034270330654241113,0.009758110672697586,0.9902106569969945
2012-08-20,1,0.0001757704921856063,0.00018414466027836905,-0.0034270330654241113,0.009758110672697586,0.990425604936995
2012-08-22,0,0.0,0.0,-0.0037608608080286514,0.009758110672697586,0.9905482998229395
2012-08-24,0,0.0,0.0,-0.004402957409030858,0.009758110672697586,0.9902646421488275
2012-08-28,0,0.0,0.0,-0.005423638106644162,0.009217417509154554,0.9894343582037066
2012-08-30,0,0.0,0.0,-0.006547287482171749,0.010773773580869603,0.9886508941974582
2012-09-04,0,0.0,0.0,-0.008070730844689296,0.010773773580869603,0.9883092478760592
2012-09-06,0,0.0,0.0,-0.008070730844689296,0.009515346480745387,0.9898300397138244
2012-09-10,1,0.0009355349396800931,0.0010405289530130823,-0.008070730844689296,0.009515346480745387,0.9894649435158456
2012-09-12,0,0.0,0.0,-0.008070730844689296,0.0012406324953076343,0.9899518825400192
2012-09-14,0,0.0,0.0,-0.008070730844689296,-0.0017500278308434278,0.9922277237717286
2012-09-18,0,0.0,0.0,-0.007385318106659407,0.0021393898162167875,0.9919188842369255
2012-09-20,1,0.003007648323617799,0.0033857811922224377,-0.007385318106659407,0.00426930469917715,0.9908785882789566
2012-09-24,1,0.0029066174104565093,0.003317514608408203,-0.007603295704128611,0.009402043763963542,0.9896464601917843
2012-09-26,1,0.0016603919691152752,0.0018672694590898275,-0.009575353050761218,0.009402043763963542,0.9895390421996945
2012-09-28,1,0.0014939099895371964,0.001654171159884161,-0.007603295704128611,0.009402043763963542,0.9904533610174588
2012-10-02,1,0.001228371000761423,0.0013745077612911795,-0.0077306588239548675,0.009582736881343095,0.9901511835785575
2012-10-04,1,0.0012146521738887958,0.0013301212951950967,-0.007787434557748943,0.009406760410920506,0.9901339935810052
2012-10-08,1,0.0009658180214296199,0.0010432942470183768,-0.007787434557748943,0.0049968943440361095,0.9903894156940509
2012-10-10,-1,-0.0001969038422081287,-4.674838055172847e-05,-0.00997519924767555,0.007863102723784208,0.9897451660920977
2012-10-12,1,0.00011670248948212461,0.0001746151052981084,-0.00997519924767555,0.007863102723784208,0.9893861813853569
2012-10-16,1,0.0008878267785411433,0.0009494719024623601,-0.014216870195801791,0.002820474500359405,0.9886216298172464
2012-10-18,1,0.0011561993508168564,0.001281648746040469,-0.014216870195801791,0.007872607478827983,0.9870035428214436
2012-10-22,1,0.00030093583781556514,0.00030144231611366434,-0.013168580363752303,0.00450346693846773,0.9885040418459166
2012-10-24,-1,-0.0022838647929012165,-0.0019148136417137126,-0.010685537206131863,0.007872607478827983,0.9897086015461696
2012-10-26,-1,-0.0012675618887361025,-0.001087803583439608,-0.010685537206131863,0.007872607478827983,0.9892526414993686
2012-11-01,0,0.0,0.0,-0.010721460001582889,0.007872607478827983,0.9874938887132407
2012-11-05,0,0.0,0.0,-0.01202672159418793,0.007872607478827983,0.9868903961823091
2012-11-07,0,0.0,0.0,-0.010278590278783514,0.007872607478827983,0.9874513442727337
2012-11-09,0,0.0,0.0,-0.009469176478418367,0.006385582580250234,0.9885387515187464
2012-11-13,0,0.0,0.0,-0.009469176478418367,0.006560034091078733,0.9886519977169386
2012-11-15,0,0.0,0.0,-0.008584407505413446,0.010051575567595087,0.9889988369053728
2012-11-19,0,0.0,0.0,-0.008584407505413446,0.012485658843790116,0.9891478780564971
2012-11-21,0,0.0,0.0,-0.007576252558129402,0.012708282402299997,0.989152555990763
2012-11-26,-1,-0.0016675815371384826,-0.0014731990681927953,-0.007444899082251586,0.012708282402299997,0.9897772374656523
2012-11-28,0,0.0,0.0,-0.00770299312193185,0.007304413550846003,0.989885922495793
2012-11-30,0,0.0,0.0,-0.00770299312193185,0.007304413550846003,0.9907249038987382
2012-12-04,0,0.0,0.0,-0.0073460258427652456,0.012708282402299997,0.9893662558381104
2012-12-06,-1,-0.00185034310328209,-0.0015842872952898436,-0.006063729564370627,0.012708282402299997,0.9892541168345539
2012-12-10,-1,-0.0014537816782207488,-0.00125299421675185,-0.006063729564370627,0.012708282402299997,0.9895096555055842
2012-12-12,-1,-0.0008904568906587764,-0.0007751654904901397,-0.006063729564370627,0.012708282402299997,0.9897789640886856
2012-12-14,-1,-0.0014402699212502867,-0.001195231968563169,-0.005410486676981937,0.011416614846875832,0.9901479384176824
2012-12-18,-1,-0.0005963813833067096,-0.0004323778794119534,-0.006063729564370627,0.008769393624911494,0.9910189096538111
2012-12-20,1,0.00038480550211875803,0.0004044513723123978,-0.006063729564370627,0.0054711305181921535,0.9916861574191654
2012-12-24,-1,-0.0005958138546247416,-0.0004715508311069547,-0.004042975064736115,0.0054711305181921535,0.992238346154046
2012-12-27,-1,-0.0006075436064841215,-0.00048438117449855914,-0.003655431924093537,0.011224109010786694,0.9915383321262226
2012-12-31,1,0.0003020339479922789,0.00031901304489840025,-0.003011752821633751,0.008769393624911494,0.9928611016358595
2013-01-03,1,0.0014432760715436211,0.0016081825640189623,-0.003655431924093537,0.004432104567740362,0.9944924142031863
2013-01-07,1,0.0011393716095102538,0.0012517893845311258,-0.003655431924093537,0.005333002041508372,0.9941113212169468
2013-01-09,1,0.0008070830630559961,0.0008555224919820208,-0.003890059145498127,0.008591061664839311,0.9932652608880903
2013-01-11,1,0.0013736805038098104,0.001570420499161853,-0.003890059145498127,0.011224109010786694,0.9928434125761246
2013-01-15,1,0.0014134126667608234,0.0015806149867641191,-0.004138961007553838,0.008712658146369403,0.9931121885971347
2013-01-17,1,0.0013157546120090649,0.0014633598160947276,-0.0027166976011728035,0.006514997112259716,0.9939820116684499
2013-01-22,1,0.0011692859632891593,0.0012786415122575424,-0.004616497433653303,0.006514997112259716,0.9921934134129297
2013-01-24,1,0.0008605232100332455,0.0009376967918793273,-0.004773064392162302,0.00792218680334071,0.9914957778012491
2013-01-28,1,0.001960426615426611,0.0021964017510650163,-0.006230654972409377,0.0049200306200282064,0.9914618075863395
2013-01-30,1,0.0017368408301927808,0.001942572248926677,-0.006230654972409377,0.006514997112259716,0.9907288539618982
2013-02-01,1,0.0024578661606043366,0.0028269080794003885,-0.009438272894471016,0.0049200306200282064,0.9907015763145872
2013-02-05,1,0.001993476368703391,0.002285269903128848,-0.006142873226240334,0.006234671796610958,0.991142144987729
2013-02-07,1,0.002711830419852049,0.003125993779646867,-0.006142873226240334,0.006234671796610958,0.9910451589339289
2013-02-11,1,0.004062057565532505,0.00475636537623097,-0.007183586853652575,0.003893666346283225,0.9903585523123122
2013-02-13,1,0.0035531577940996093,0.004142808628607194,-0.007183586853652575,0.005245157229153372,0.990978660119805
2013-02-15,1,0.003696051801723887,0.004309924990402444,-0.009438272894471016,0.005245157229153372,0.9902365493322116
2013-02-20,1,0.002303333856899321,0.002692195680435905,-0.007038960779818746,0.006137953336391446,0.9916194786593431
2013-02-22,1,0.0017739317637467922,0.002042910684689405,-0.007038960779818746,0.0058471200739575145,0.991946779891537
2013-02-26,1,0.0010587587019449604,0.0012343988471553813,-0.00330917623696936,0.006137953336391446,0.9912817804554844
2013-02-28,1,0.0015901725210503716,0.0018185253724513563,-0.00330917623696936,0.006972508015709322,0.9913656809826581
2013-03-04,1,0.0015538926508417024,0.001793975085021278,-0.0046780521857102755,0.006972508015709322,0.9909163053488794
2013-03-06,1,0.0015998130193703279,0.0018422909997225843,-0.007038960779818746,0.007485841351969707,0.9904343504753349
2013-03-08,1,0.0021388109870771497,0.002428377253989779,-0.009077750267808077,0.007485841351969707,0.9900551065035362
2013-03-12,1,0.0017005517607386106,0.0019202236944599767,-0.009077750267808077,0.008337920633245531,0.9899827174140361
2013-03-14,1,0.0022735922886626043,0.002600600110803404,-0.009077750267808077,0.009095742981045228,0.9899388930562333
2013-03-18,1,0.001825683966315694,0.0020920872896371817,-0.009077750267808077,0.010002238684502536,0.9872727784953094
2013-03-20,1,0.0015016323804460626,0.0016926021986962234,-0.010270032763834636,0.009095742981045228,0.9869162597063927
2013-03-22,1,0.0006677142279318068,0.0006692345522691825,-0.008608903483051236,0.01027805368809446,0.9868548910905222
2013-03-26,1,0.0021494591853482782,0.0023667318863128464,-0.01065526607555155,0.01027805368809446,0.9879562580597736
2013-03-28,1,0.0024167074028180035,0.0026708107971458355,-0.01065526607555155,0.009095742981045228,0.9885321339869596
2013-04-02,1,0.0015415171456509915,0.0016586957426244925,-0.008462322335454566,0.01027805368809446,0.9878798975517712
2013-04-04,1,0.0011290508287046669,0.001159198574974286,-0.008462322335454566,0.01027805368809446,0.9876126749735111
2013-04-08,1,0.0009188667424811876,0.0009325148960586497,-0.0032058518060471214,0.009095742981045228,0.9888699297280203
2013-04-10,1,0.0008751821624877433,0.000920242846313856,-0.0032058518060471214,0.00924559634224943,0.9890595474175118
2013-04-12,1,0.0006357434482685497,0.0007476674581482739,-0.006428876411668774,0.010727613771707065,0.9885535323021379
2013-04-16,1,0.0007193710182352249,0.0007683523921690889,-0.006416963086994113,0.008849565751920755,0.9911913107771567
2013-04-18,-1,-0.0005611240747071326,-0.0003266151042928136,-0.0027554101195074476,0.008849565751920755,0.9913255430052902
2013-04-22,-1,-0.00039880026825800385,-0.00017303235261042626,-0.006416963086994113,0.008849565751920755,0.990998200427849
2013-04-24,0,-0.00016559685556194925,6.071643962381266e-06,-0.006416963086994113,0.007791315713998343,0.9912317581696917
2013-04-26,1,0.00021727062946735951,0.000315085066780547,-0.006416963086994113,0.007791315713998343,0.991154948289543
2013-04-30,1,0.00099561134721865,0.0010330619374167341,-0.007914657732219691,0.007791315713998343,0.9913057732254807
2013-05-02,1,0.0007185727504027379,0.0007903345735117368,-0.007914657732219691,0.005257271669984541,0.9915919389106483
2013-05-06,1,0.00044758444694538777,0.0005511910687861579,-0.00934434123554342,0.005282982577503623,0.989564637059095
2013-05-08,1,0.0007350183817029964,0.0008075814990066875,-0.00934434123554342,0.005282982577503623,0.9892910286796965
2013-05-10,1,0.0011181059932692554,0.0011426559508366774,-0.00934434123554342,0.005282982577503623,0.9893745761665373
2013-05-14,1,0.0013565393653445093,0.0014181343025070326,-0.01285308126277326,0.004497080070762386,0.9889256564757307
2013-05-16,1,0.0008309437995813274,0.0008355961158131996,-0.00934434123554342,0.006080888414616673,0.9889606043442366
2013-05-20,1,0.00047507103715578,0.0005533776082942935,-0.00883943302192699,0.004497080070762386,0.989730747644271
2013-05-22,0,-4.1964118780486444e-05,0.00010250947935778906,-0.010347968077186132,0.004497080070762386,0.9886033200824514
2013-05-24,1,8.134234097070163e-05,0.00019845985003020698,-0.010347968077186132,0.004497080070762386,0.9885605115228046
2013-05-29,1,0.00038489211859170987,0.0004109215757507861,-0.008290620478042457,0.004497080070762386,0.989092834489109
2013-05-31,1,1.9215744100759116e-05,9.484361723856614e-05,-0.006538031017194024,0.006471669472442167,0.988859339783152
2013-06-04,-1,-0.0012327467258586762,-0.0010038935057399,-0.005768762441478252,0.006030876927600097,0.9912317174472645
2013-06-06,-1,-0.0007392205168568466,-0.0005652375237013999,-0.005768762441478252,0.006030876927600097,0.9904618103427121
2013-06-10,-1,-0.0004081454861363785,-0.00028232985658262596,-0.005768762441478252,0.004883665924557421,0.9909608340855331
2013-06-12,-1,-0.0010618870798978237,-0.0008614135052185365,-0.002791796946318899,0.006404103815114425,0.9913484422343749
2013-06-14,-1,-0.0009912227585670975,-0.0007971118074646824,-0.0032033374206503463,0.004904546088562282,0.9917367048703795
2013-06-18,-1,-0.0011498185696146,-0.0009233059094211182,-0.003599702528408795,0.004904546088562282,0.9918844111284546
2013-06-20,-1,-0.001949486533585136,-0.0016745693576805806,-0.0032033374206503463,0.006404103815114425,0.992564975023555
2013-06-24,-1,-0.002176115228513328,-0.0018726113699966385,-0.0035968565270220287,0.006404103815114425,0.9921720670029243
2013-06-26,0,0.0,0.0,-0.003606827621547946,0.006404103815114425,0.9919420906465519
2013-06-28,0,0.0,0.0,-0.004529260824132062,0.006404103815114425,0.9922471958318975
2013-07-02,0,0.0,0.0,-0.004529260824132062,0.008244462968486015,0.9916874839797419
2013-07-05,0,0.0,0.0,-0.004529260824132062,0.008244462968486015,0.9921101904692078
2013-07-09,0,0.0,0.0,-0.007774082257009592,0.00691910584084688,0.9916525049094587
2013-07-11,1,0.5086173779745984,0.5227972936174532,-0.009629762655035996,0.009966615424320134,0.6594243731811152
2013-07-15,-1,-0.0003317766245432536,-0.00022815709609620477,-0.009867513491976192,0.009966615424320134,0.9906127845336101
2013-07-17,-1,-0.0007001175195218713,-0.0005426077045431029,-0.009867513491976192,0.01090798290327493,0.9901222638362747
2013-07-19,0,0.0,0.0,-0.011710517981976698,0.009966615424320134,0.9904163492158443
2013-07-23,0,0.0,0.0,-0.00835810597915796,0.009966615424320134,0.9907824333541194
2013-07-25,0,0.0,0.0,-0.00623782166127279,0.009966615424320134,0.990118195634934
2013-07-29,-1,-0.0013384003106409284,-0.0010982039596258045,-0.005320438349803299,0.005886176623208048,0.9910399780776054
2013-07-31,-1,-0.0004562749323207505,-0.0003549159605752985,-0.007914730194122513,0.0006056253299835603,0.9903216448374673
2013-08-02,1,2.6261519167881725e-05,8.468943982760737e-05,-0.007914730194122513,-0.0023595134711220118,0.990677675422814
2013-08-06,-1,-0.0003871152866150215,-0.00029665951355415537,-0.0065146338976213155,0.0038059355965255025,0.9905373319323303
2013-08-08,-1,-0.0008071751165066958,-0.0006445936363673587,-0.005461973071367857,0.0018981601294759639,0.9918373747800934
2013-08-12,-1,-0.0014068495653878587,-0.001175725503294677,-0.004711126467176694,0.008521948156783392,0.9915627224580759
2013-08-14,-1,-0.0012446992657107437,-0.0010223198713821956,-0.005341618697835792,0.008521948156783392,0.9903216655749001
2013-08-16,-1,-0.001113778978883179,-0.0009645050150676621,-0.004238492644873515,0.008521948156783392,0.990272278767524
2013-08-20,-1,-0.0008922276324442081,-0.0008092352546544656,-0.00393058264918671,0.010834625199051841,0.989702382278738
2013-08-22,-1,-0.00013860715124722867,-0.00011303898945225855,-0.0057225732459411285,0.008521948156783392,0.9910528958715572
2013-08-26,-1,-0.0003202091026770124,-0.0002657284289429982,-0.0057225732459411285,0.008521948156783392,0.991063043678149
2013-08-28,-1,-0.001226424303985937,-0.0010669694445115756,-0.004322633815812943,0.008521948156783392,0.9918113970548531
2013-08-30,-1,-0.0009997153497770183,-0.0008951204647982321,-0.005559139867391194,0.008521948156783392,0.9913798720471763
2013-09-04,1,9.876895396354583e-05,0.00015381106990223548,-0.005559139867391194,0.007462685983113469,0.9919557114706193
2013-09-06,-1,-0.0003927722480744561,-0.0003561629298743611,-0.005559139867391194,0.008384478213194692,0.9916900656552118
2013-09-10,0,-5.8467574971916115e-06,2.3402091143738828e-05,-0.007288881725299512,0.0061345490118419966,0.9916709147511403
2013-09-12,1,0.001031664242181715,0.0011584237954522505,-0.006226716091354803,0.0061345490118419966,0.9925037382019072
2013-09-16,1,0.001410231133237304,0.0015909286321855206,-0.006321806787643758,0.0058926017966051325,0.9922587070567047
2013-09-18,1,0.0018974694234843836,0.002146341342103141,-0.006321806787643758,0.006352183799511822,0.9918490392643401
2013-09-20,1,0.002191172931317014,0.0025563184964182742,-0.0060514418385251185,0.007582105082704011,0.9924002373027804
2013-09-24,1,0.0020210013045020296,0.0023532382786747444,-0.0060514418385251185,0.00769512781358268,0.9921094064819324
2013-09-26,1,0.0020163000869588997,0.002359864424665563,-0.006318712577417538,0.008692993371764251,0.9910291459833653
2013-09-30,1,0.0015384703632313563,0.0018362029950112146,-0.0060514418385251185,0.008692993371764251,0.9914201792243967
2013-10-02,1,0.0020705674877887926,0.002461261598758712,-0.006318712577417538,0.008692993371764251,0.9910900726483949
2013-10-04,1,0.0021847198910188727,0.002590470192560513,-0.006318712577417538,0.012167279464567988,0.9902582442022859
2013-10-08,1,0.001146767823287024,0.001382725529780022,-0.0037880934305717386,0.012167279464567988,0.9909717284905026
2013-10-10,1,0.0016066703695642823,0.0019126870352397965,-0.0038197903293347235,0.011167022849259217,0.9907429843070028
2013-10-14,1,0.0014469718453939786,0.0017065686798416833,-0.0027785192822516514,0.012167279464567988,0.990593152969669
2013-10-16,1,0.0021318943548150095,0.002481800200659275,-0.0027785192822516514,0.011167022849259217,0.9912469286464347
2013-10-18,1,0.002307991932506085,0.0026600736938729766,-0.0027785192822516514,0.011167022849259217,0.9914586114566415
2013-10-22,1,0.002421592894977326,0.002772541305385746,-0.003991970371938189,0.010906463570927232,0.9911368642069799
2013-10-24,1,0.0019554497697543845,0.0021561660304178234,-0.0027785192822516514,0.010906463570927232,0.9917803151880877
2013-10-28,1,0.0017415070837558037,0.0019385826115659267,-0.0018942842152090459,0.010906463570927232,0.9920484354654852
2013-10-30,1,0.001938367362043778,0.002180701457124009,-0.0018942842152090459,0.010964036183070463,0.9922521010250757
2013-11-01,1,0.002566824066512129,0.0028465889992086496,-0.0036078710488683698,0.006383821199692199,0.9929512709527275
2013-11-05,1,0.0026445143233536856,0.002938866116524908,-0.005519309463309244,0.005966948738593391,0.992484452764917
2013-11-07,1,0.0022283250742570595,0.0024644045180725795,-0.005519309463309244,0.005966948738593391,0.9931128146111879
2013-11-11,1,0.001811511385657053,0.0018798559580878774,-0.005519309463309244,0.005961916300064283,0.9936055794367948
2013-11-13,1,0.0018669335837575656,0.0019203379386518163,-0.006214685351455416,0.002830765108354817,0.9932477381646193
2013-11-15,1,0.0022073342690357304,0.002334068001373433,-0.006214685351455416,0.00814519535635853,0.9923713725787823
2013-11-19,1,0.0019785672608821888,0.002110683663981268,-0.0055269049898673435,0.011323238727010826,0.9920479924419712
2013-11-21,1,0.0021233323203629063,0.002261114990333792,-0.0055269049898673435,0.009549676444769365,0.9921752788204603
2013-11-25,1,0.00236648187027587,0.002588292283300278,-0.005301387255134691,0.009549676444769365,0.9923909158154253
2013-11-27,1,0.0025381886709683167,0.0027953520566427166,-0.0036773247824586214,0.00831112571675052,0.9928579114977009
2013-12-02,1,0.002278508466241798,0.0025124541645535556,-0.0027768334513644365,0.00831112571675052,0.993222118419387
2013-12-04,1,0.0016000329311436662,0.0017108364923442716,-0.0036773247824586214,0.00831112571675052,0.993010813397562
2013-12-06,1,0.001633619005631581,0.0017347697455056808,-0.0033778322045407987,0.007373162859309354,0.9935633021661927
2013-12-10,1,0.0018486748841185757,0.0019894827781528146,-0.0033778322045407987,0.00831112571675052,0.993331278413613
2013-12-12,1,0.0011082431245461684,0.0011169115765569404,-0.0033778322045407987,0.00831112571675052,0.9930533795185364
2013-12-16,1,0.0015302571910274535,0.0015843752390578498,-0.0033778322045407987,0.00831112571675052,0.9932271984572209
2013-12-18,1,0.0020122935035234322,0.0021305297822758547,-0.0029205373865715356,0.00831112571675052,0.9940139405474744
2013-12-20,1,0.002281259921491986,0.0024568953580362297,-0.0027058663193169825,0.007630766806374265,0.9943955104749715
2013-12-24,1,0.002717947436683198,0.0029827016379428014,-0.004666171752386162,0.0070734556904742795,0.993190528512482
2013-12-27,1,0.0023428398263706384,0.0025198221481700033,-0.006724418059321511,0.008026020779655014,0.9921222051383374
2013-12-31,1,0.0023920918438763007,0.0025600482991640396,-0.008615753985512817,0.00932222303842699,0.991168441361864
2014-01-03,1,0.001474689889007293,0.0014811630586184826,-0.010948664798591187,0.00932222303842699,0.9899523337884271
2014-01-07,1,0.0014394192257186269,0.0014460813846107765,-0.010948664798591187,0.00967626331359599,0.9897479454261452
2014-01-09,1,0.0011610063729949912,0.001225889875966505,-0.010948664798591187,0.010069050770943935,0.9891356115962051
2014-01-13,1,0.0005783343946670938,0.000730377697534017,-0.004289369159799553,0.010069050770943935,0.9895219267313794
2014-01-15,1,0.001835361605877169,0.001902228872926673,-0.004289369159799553,0.009409677370472061,0.990148516421247
2014-01-17,1,0.002155416207778526,0.0022472750889526985,-0.004920565154443452,0.009409677370472061,0.9893714560492379
2014-01-22,1,0.0017578639913459547,0.0017812574926399079,-0.004920565154443452,0.009409677370472061,0.9894350088021148
2014-01-24,1,0.00040365446045410836,0.0006026318540542526,-0.0010726456591677144,0.011370647741809632,0.98927348088385
2014-01-28,1,0.0005942106132461039,0.0007386118635166832,-0.0010726456591677144,0.010069050770943935,0.989904399853987
2014-01-30,0,-0.00011692869633914106,0.0001303348772558272,-0.00035336460857451007,0.010069050770943935,0.990308323559783
2014-02-03,-1,-0.0015263458617753136,-0.001157120784231718,0.0016265328042591033,0.010285835673391634,0.9900932119376681
2014-02-05,-1,-0.0006803170869331567,-0.00045808624136853444,0.002106409636597729,0.010893680004308234,0.990338347211566
2014-02-07,1,0.0004415593340210131,0.0005184052008380457,0.0006346978760563726,0.009481939004621295,0.9915323895596379
2014-02-11,1,0.0009005196703989274,0.0009017729797783945,-0.0012830443240490143,0.009481939004621295,0.9918363630920426
2014-02-13,1,0.0007467140421098413,0.0007937613225700004,-0.002730033629162812,0.008427801633120935,0.9918676057132325
2014-02-18,1,0.0016079301434983964,0.001657326894947525,-0.0008308147841109346,0.007435178213171349,0.9932607823918884
2014-02-20,1,0.0015972026886512506,0.0016316945139365495,-0.00367880039011038,0.007435178213171349,0.9929427915529604
2014-02-24,1,0.0020526250002345066,0.002109272399809973,-0.00367880039011038,0.006975681141165852,0.9931515781769034
2014-02-26,1,0.001976828194507339,0.0020316824340815024,-0.0029488317504595346,0.006432596283782312,0.993689025340737
2014-02-28,1,0.0022369624778887597,0.0023205419994675935,-0.00367880039011038,0.006059462132283462,0.9928649009665056
2014-03-04,1,0.0012559733705012524,0.001352169745726384,-0.0029488317504595346,0.007330634176500203,0.9930844315094651
2014-03-06,1,0.001731400641666853,0.0017617897030857066,-0.00367880039011038,0.006059462132283462,0.9932223435223011
2014-03-10,1,0.0012323614099636118,0.0013325536513137926,-0.00367880039011038,0.006059462132283462,0.9931547770763682
2014-03-12,1,0.001325767572682279,0.0013855850086563178,-0.00367880039011038,0.007330634176500203,0.9927726148725465
2014-03-14,1,0.0012661274871898693,0.001332056514010035,-0.00367880039011038,0.007330634176500203,0.9918993286261595
2014-03-18,1,0.0014970061220238506,0.0015217483528579341,-0.00367880039011038,0.010913831452017072,0.9916595907441931
2014-03-20,1,0.0015204371600498405,0.001523436160630382,-0.000723637665593136,0.010913831452017072,0.9921345146057177
2014-03-24,1,0.0020011720136405074,0.0020354058758437553,-0.00022369624785596522,0.010913831452017072,0.9926659927851695
2014-03-26,1,0.0020754154901524427,0.002112578414528112,-0.00022369624785596522,0.010913831452017072,0.9925726954928665
2014-03-28,1,0.0024857244907066168,0.00264380184985567,-0.0017205498868651248,0.008121504944276789,0.9922254381439211
2014-04-01,1,0.003280863762008306,0.003541123857066488,-0.0017205498868651248,0.00840938729596826,0.9915590130914177
2014-04-03,1,0.002541720332430056,0.002675830788773815,-0.00022369624785596522,0.010930245970332871,0.9916379412984899
2014-04-07,1,0.002140757015147873,0.0022438009955938,-0.0011596272138118487,0.010930245970332871,0.9914268442159843
2014-04-09,1,0.002825392778345779,0.003027287528222471,-0.00361190004871885,0.009592815027868858,0.9915532405160374
2014-04-11,1,0.001795198911616876,0.0018696642799501883,-0.0010217822853481199,0.010930245970332871,0.9921071020010875
2014-04-15,1,0.0018393518100982146,0.0018792918471095983,-0.004070972966202161,0.009592815027868858,0.9919074249595075
2014-04-17,1,0.00197716516298057,0.0020543483096382045,-0.005172095415638307,0.009592815027868858,0.9910800258543926
2014-04-22,1,0.0021661845511748,0.0022483067526416246,-0.005172095415638307,0.007811782051808666,0.9915617967227794
2014-04-24,1,0.0023910611253037135,0.0025116368893586113,-0.005172095415638307,0.007743298909940051,0.9915137197000318
2014-04-28,1,0.0007817000790515862,0.0008856987950954379,-0.00361190004871885,0.008687618170815902,0.9925707231105817
2014-04-30,1,0.0017055773644598306,0.0017318575659855916,-0.00361190004871885,0.007564870907306469,0.9932137818876826
2014-05-02,1,0.0024259521299171607,0.0024821332561906027,-0.00361190004871885,0.005440078206801238,0.9931592986480956
2014-05-06,1,0.0015791758616689163,0.0016245016700110301,-0.0015255666274702259,0.005440078206801238,0.9940553396881021
2014-05-08,1,0.0009019120606881418,0.0010582249233271439,-0.0009339123614129504,0.00854846736907014,0.9935260120740987
2014-05-12,1,0.0021343051174320363,0.002159978173086769,-0.0014512363781317332,0.007564870907306469,0.9942802407310724
2014-05-14,1,0.001838014228564834,0.0018597278432550316,-0.0014512363781317332,0.007564870907306469,0.9938247841665928
2014-05-16,1,0.0015932030325258514,0.0016024709951094683,-0.0011789112999013216,0.005710288196981125,0.9944753990886218
2014-05-20,1,0.0018894073222960833,0.0019407076435563103,-0.0011789112999013216,0.008889549815801253,0.993757790117976
2014-05-22,1,0.0016582204360504164,0.001672675577923076,-0.000894133591294047,0.008889549815801253,0.993832670801073
2014-05-27,1,0.002099950422765646,0.002187771852037938,-0.0011789112999013216,0.008889549815801253,0.9939907201712663
2014-05-29,1,0.002419272497141463,0.002506965674293507,-0.0014512363781317332,0.008706887127258044,0.9945086576288854
2014-06-02,1,0.0026853781243784073,0.00279962433013135,-0.001331900067775023,0.0051371071125923175,0.9951950892007742
2014-06-04,1,0.0026665873339051047,0.0027823308121720436,-0.001331900067775023,0.008844576481617183,0.9947220678586542
2014-06-06,1,0.002922689059327323,0.0030568462887795053,-0.001331900067775023,0.005753592118248656,0.9952744804501451
2014-06-10,1,0.002938364132973874,0.003118518932003006,-0.001444163495948715,0.007983503172284016,0.9946219538414117
2014-06-12,1,0.002298107366435197,0.002424295998542131,-0.00040201398064193956,0.007983503172284016,0.9951518432072782
2014-06-16,1,0.0023941383513950724,0.0025448094098162732,-0.0007070449468082364,0.007983503172284016,0.9949493900361691
2014-06-18,1,0.002509118918215051,0.0026004287826779187,-0.0034693441888733797,0.00464265215408579,0.9944078541927818
2014-06-20,1,0.0024045443405789004,0.0024703563924911,-0.0034693441888733797,0.0054718759777328645,0.9933659620282086
2014-06-24,1,0.0019892334261250345,0.0020159773840243266,-0.002769758249969637,0.007983503172284016,0.9927646795353929
2014-06-26,1,0.0008717298390355131,0.001127845392950266,-0.004302219829177257,0.006009555898328223,0.9926241868670185
2014-06-30,1,0.0007611139290110931,0.0010236258216728437,-0.00562459650734898,0.006009555898328223,0.9921088755656968
2014-07-02,1,0.0018683436522233384,0.0019511434255869093,-0.006975836383639573,0.0049004257736506365,0.9919895960143362
2014-07-07,1,0.002002123755163804,0.0020609752666140404,-0.006975836383639573,0.005423359375041541,0.9913778850880426
2014-07-09,1,0.001564072120794878,0.0016690382782110593,-0.006975836383639573,0.0048145056346820155,0.9912619279704944
2014-07-11,1,0.0015869146340270837,0.0016398522323326115,-0.006342581985602755,0.005423359375041541,0.9910205462158629
2014-07-15,1,0.001425031150189025,0.001486936679925605,-0.006342581985602755,0.0068082864478060025,0.9908362274192057
2014-07-17,1,0.0009452719974307343,0.0010110864434600027,-0.004737420016048577,0.011175298899365214,0.9910706622781515
2014-07-21,1,0.0016605086341285077,0.001672029423134126,-0.004737420016048577,0.010725669252361634,0.9920475012345356
2014-07-23,1,0.0024934637846939986,0.002638108045847487,-0.004737420016048577,0.007876965554254154,0.9926102157833189
2014-07-25,1,0.0021506954414543455,0.0022184323028437754,-0.004204704296547438,0.007876965554254154,0.9928960451926595
2014-07-29,1,0.0018264411234602744,0.0018742630353598155,-0.0027581909764127642,0.007876965554254154,0.9934018387893511
2014-07-31,1,0.0008745779277391684,0.0009663087006096459,-0.0014928455384491308,0.007876965554254154,0.9939302887289129
2014-08-04,1,0.0013531695958610749,0.0014017337944169646,-0.0014928455384491308,0.006250071226956572,0.9946135991698718
2014-08-06,1,0.0001324771263898762,0.0003353147651786875,0.00036070257270517703,0.007623818401196421,0.994806853055318
2014-08-08,1,0.0004077125430767842,0.0005658941115261073,0.0013058066497550892,0.0070669324407011975,0.9953179646966062
2014-08-12,1,0.0003700903805880459,0.0005563055797942482,0.00036070257270517703,0.006250071226956572,0.9957911857614834
2014-08-14,1,0.0016884731152050129,0.0016911189648692575,0.00014485309521621058,0.00596169788903696,0.9963223536691804
2014-08-18,1,0.0018292457080788837,0.001853811270731169,0.00014485309521621058,0.006033765960650149,0.9962426610735811
2014-08-20,1,0.0019953841700420362,0.00202914081197148,0.00014485309521621058,0.006418016641781927,0.9959980947684307
2014-08-22,1,0.0022720539181428565,0.0023891765577596044,-0.00029262594408769,0.006418016641781927,0.9955615740502662
2014-08-26,1,0.0022407841161710606,0.002330299675269776,-0.0020929836993602473,0.006827533076616897,0.9949014930664908
2014-08-28,1,0.0016665447295878446,0.0016852107078734317,-0.003711578867831853,0.006827533076616897,0.9942871245467471
2014-09-02,1,0.0019388863264638572,0.001982203299490114,-0.004976900581816151,0.006827533076616897,0.9938323267382555
2014-09-04,1,0.001657840968831887,0.00169551879592332,-0.008434674104839618,0.004817287629691043,0.9920594444744956
2014-09-08,1,0.0019160240094679836,0.0019325793324563433,-0.009957757936080426,0.006217686509861816,0.9906813043440211
2014-09-10,1,0.0015850232064727515,0.00161501277609387,-0.011019977456925248,0.006217686509861816,0.9900388807603829
2014-09-12,1,0.0015225361732056969,0.0015412570576463025,-0.013127276997228349,0.0036474001978857922,0.9888957549660525
2014-09-16,1,0.0017525892320523584,0.0017723921776401429,-0.016156812934282765,0.0037839056761641158,0.9869860601613085
2014-09-18,1,0.0015207651528124518,0.0015870171682523509,-0.016156812934282765,0.0026408323543751907,0.9870732540947477
2014-09-22,1,0.001600504476551596,0.0016093862984792905,-0.016156812934282765,0.007341785429386751,0.9846853548966965
2014-09-24,1,0.0017718765368817675,0.0018042814079923847,-0.016156812934282765,0.010517164429445924,0.9844371318519242
2014-09-26,1,0.0007319122423757727,0.000863206254310806,-0.016156812934282765,0.012828711900963878,0.9848037266300932
2014-09-30,0,-1.623236149972092e-05,0.00021296912044383289,-0.016156812934282765,0.015364615736822143,0.9837249527546338
2014-10-02,-1,-0.0014641797434424009,-0.0011006143010321703,-0.007023337584738292,0.021680343181075656,0.9827422511095827
2014-10-06,-1,-0.0017110529367128373,-0.0012736203689272857,-0.0038659800768674106,0.021680343181075656,0.983989299846112
2014-10-08,-1,-0.0027058125645693758,-0.0021418805174696015,-0.0038659800768674106,0.021680343181075656,0.9837639124513199
2014-10-10,-1,-0.004320394095306521,-0.00358283893197295,0.00010964049069876202,0.021680343181075656,0.9838415027454486
2014-10-14,-1,-0.005149023748218422,-0.004306222789842752,0.0005316265506073018,0.021680343181075656,0.9838349731080762
2014-10-16,-1,-0.004743859005896411,-0.003970946614442633,0.0017206753617848565,0.021680343181075656,0.9837550175029449
2014-10-20,-1,-0.001503967164994503,-0.0011482608911919782,0.00010964049069876202,0.014009289320595057,0.9891687373025815
2014-10-22,-1,-0.00040138430460731937,-0.00019969006323817477,-0.001993627413417253,0.012925485010739531,0.990321063993598
2014-10-24,1,5.647772706124577e-05,0.00020247287452435304,-0.0030576515588940536,0.011164664218262508,0.9907090364972594
2014-10-28,1,0.0018360762763301808,0.0019416617228558198,-0.0030576515588940536,0.008236795080997533,0.9921126391471937
2014-10-30,1,0.0036727477054509074,0.004007138699663819,-0.0030576515588940536,0.0061774582467373955,0.9936209752988019
2014-11-03,1,0.0029151277243816168,0.0030952446714110665,-0.003839099193712006,0.0061774582467373955,0.992971021581949
2014-11-05,1,0.002294114091712437,0.002389390976691021,-0.0026646965337887006,0.007909087651629228,0.9934458369123809
2014-11-07,1,0.0028675625063747877,0.003083895975249021,-0.0026646965337887006,0.009236712834072977,0.9928785306800965
2014-11-11,1,0.003556958143158,0.0038728151159661264,-0.006631064655194897,0.00651076416442921,0.9921495995717591
2014-11-13,1,0.0037388292215995056,0.004072349854461224,-0.007421107767455236,0.0027830200732750707,0.9916269990178349
2014-11-17,1,0.003161702515261486,0.00342603234273048,-0.007421107767455236,0.00651076416442921,0.9914807395042938
2014-11-19,1,0.002647628791592592,0.0028374534246731684,-0.006773706472317549,0.008188946301648233,0.9920335758974215
2014-11-21,1,0.002638307156298398,0.0028636819062943905,-0.0038818604592140244,0.009319838785327364,0.9919774755719267
2014-11-25,1,0.003131908463155438,0.0034318458334130966,-0.0038818604592140244,0.008188946301648233,0.9921633685130811
2014-11-28,1,0.0036807142185387044,0.004027828349135963,-0.0038818604592140244,0.0065100334183205745,0.9927302253979567
2014-12-02,1,0.002712077527733379,0.002909707593238859,-0.0045485060244133515,0.0065100334183205745,0.993043642626579
2014-12-04,1,0.00273364118464923,0.0029237255627066645,-0.008352628357581054,0.005224712460798948,0.9917918362047132
2014-12-08,1,0.0025218659505854813,0.0026167603657187752,-0.010167466861956492,0.005224712460798948,0.9907430277568846
2014-12-10,1,0.0020695836981078886,0.002153523286199338,-0.0051571143400148175,0.0065100334183205745,0.9902872629087489
2014-12-12,1,0.0019937521875594186,0.0021124205318194156,-0.007182887233718482,0.0065100334183205745,0.9899516354096639
2014-12-16,1,0.0015651943011568653,0.0016167461263126009,-0.007182887233718482,0.005224712460798948,0.9903450873647012
2014-12-18,1,0.0017062973459131764,0.0017453205418633626,-0.007182887233718482,0.004493702005596011,0.9904012060163448
2014-12-22,1,0.0017209367581090618,0.0017211484680515125,-0.007182887233718482,0.004493702005596011,0.9895224139440264
2014-12-24,1,0.0018516384102242518,0.0019041212071664573,-0.007182887233718482,0.005133636804320992,0.9891892643890449
2014-12-29,1,0.0014493409661241038,0.0015003228893046105,-0.010253018684698025,0.0017032105026125342,0.9879072674493707
2014-12-31,1,0.0007904233299310787,0.0009129724232485296,-0.010556268375479034,0.0034646303975304766,0.987192845313534
2015-01-05,-1,-0.0004948690131964659,-0.0002332117746640512,-0.010253018684698025,0.00714728212249117,0.9877248502294574
2015-01-07,1,0.0003902745867706385,0.0004989091121358489,-0.009302907227913685,0.004436689883491789,0.9886516441995244
2015-01-09,1,0.0015904842685744232,0.0016289155622118518,-0.010556268375479034,0.003054827114814694,0.9883467983257364
2015-01-13,1,0.0010208619806098109,0.0010284656385081679,-0.01039394780118282,0.004436689883491789,0.986792418024598
2015-01-15,1,0.00014148948389833412,0.00025838672441001205,-0.009302907227913685,0.00714728212249117,0.9864459857081527
2015-01-20,1,0.0003027336161060749,0.0003884387470242264,-0.009302907227913685,0.014644001547252553,0.9856199381377713
2015-01-22,1,0.00123248541004958,0.0012561855904626978,-0.009302907227913685,0.013757583566438757,0.9860021342017685
2015-01-26,1,0.0016193415779581764,0.001701825141892183,-0.009302907227913685,0.008671189945152325,0.9859757045117571
2015-01-28,1,0.0006654415650161139,0.0006793466935042917,-0.004480042032920607,0.012895938683348032,0.9871496955390322
2015-01-30,-1,-0.00047459836608965296,-0.0003388757203448531,-0.002829543557117045,0.020397967783955247,0.98780445534284
2015-02-03,1,0.0004649877650568105,0.0005013725381529361,-0.008580146321240817,0.012895938683348032,0.9881656865555379
2015-02-05,-1,-0.00016302956968027542,-4.6082844443769274e-05,-0.00859342366062965,0.012895938683348032,0.987898521959199
2015-02-09,-1,-0.0012658289448180481,-0.0010322891527410082,-0.004364656394014507,0.013896712147774371,0.9880975895853847
2015-02-11,1,0.0009343795871956237,0.0009967821691681347,-0.004364656394014507,0.013896712147774371,0.9895976144374266
2015-02-13,1,0.001651537638281785,0.0017813342078644785,-0.008503003213204966,0.013126829016499024,0.9896645090775078
2015-02-18,1,0.0023215147220275274,0.0025280261432324954,-0.008786087043633095,0.01077556060573508,0.9894978541249715
2015-02-20,1,0.002652502399134215,0.002875052415985773,-0.008786087043633095,0.01077556060573508,0.9896644447904623
2015-02-24,1,0.001947961970225543,0.0020458330680539153,-0.009504310797526437,0.01077556060573508,0.9891645117935051
2015-02-26,1,0.001251732229802399,0.0013412895096046875,-0.011277974010062466,0.010369834612251843,0.9877971814364637
2015-03-02,1,0.0019258278489975899,0.0019297806158985837,-0.011277974010062466,0.009662303604823664,0.9883504844391392
2015-03-04,1,0.0004333070153534148,0.0006533154864847191,-0.013051859295285198,0.009662303604823664,0.988866966347112
2015-03-06,-1,-0.001598760333837861,-0.001055859748000191,-0.009665825432930535,0.009662303604823664,0.9897154168298892
2015-03-10,-1,-0.002454677319813881,-0.0017686159597790246,-0.009665825432930535,0.009662303604823664,0.9896799444303885
2015-03-12,-1,-0.0019057374951587773,-0.0012910142518467325,-0.009665825432930535,0.008706006497043228,0.9906088318144732
2015-03-16,-1,-0.00036047354115213595,-4.340257529720213e-05,-0.012026979354545976,0.004337225675181577,0.9913818439274363
2015-03-18,0,-0.00025093914750570247,1.933305857178486e-05,-0.007235255128178063,0.002797150845213505,0.9920023819061432
2015-03-20,1,0.00014888459667933957,0.00035541990770449777,-0.011272037147215908,0.002797150845213505,0.990857993840742
2015-03-24,0,-2.098719464751136e-05,0.0001365276229060378,-0.007044643568907032,0.005085915747113326,0.99153665091268
2015-03-26,1,0.0003228236528698683,0.00034717016570681486,-0.004263549707749221,0.006250377451400046,0.9928297308711729
2015-03-30,1,0.0005838053252115911,0.0005843057949536275,-0.005709995909516987,0.0044883074832670995,0.992954345824063
2015-04-01,-1,-0.00024613814128810596,-0.00012984089411289255,-0.005709995909516987,0.006250377451400046,0.9900178427517613
2015-04-06,-1,-0.0001802000402054086,-8.477804808095521e-05,-0.005709995909516987,0.007392462111976304,0.9893551783411828
2015-04-08,1,0.00015348679434436398,0.0001782892088130983,-0.005709995909516987,0.007148520983590976,0.9888711186758699
2015-04-10,1,0.00037477484252510857,0.00039632619052221076,-0.005709995909516987,0.008043463152323932,0.9875678206743302
2015-04-14,-1,-0.0002997181433710118,-0.00022067548903035477,-0.006063265042501433,0.008043463152323932,0.9876095904149432
2015-04-16,-1,-0.000837517949374978,-0.0006790018853158873,-0.006303921814120652,0.009454663322448131,0.9866007324597362
2015-04-20,-1,-0.00045372398700182105,-0.0003301331781407895,-0.005823053874257768,0.008043463152323932,0.9880436889992569
2015-04-22,1,0.00017292618624585793,0.00020353642284666858,-0.005823053874257768,0.007148520983590976,0.9882956792112471
2015-04-24,1,0.0008829635757131641,0.0009800280371783888,-0.005823053874257768,0.005009229932719125,0.9883943822163208
2015-04-28,1,0.00038478256404580525,0.0003857728879314995,-0.006303921814120652,0.006618898446548264,0.9876765596440396
2015-04-30,0,-2.531063268538939e-05,1.5502034612567168e-05,-0.006303921814120652,0.004615688740255678,0.9907859738937681
2015-05-04,1,0.0003642560831630687,0.0003922316720519921,-0.006303921814120652,0.004534272721818744,0.9912080673301369
2015-05-06,-1,-0.0006927537038371738,-0.0005628127781113742,-0.006303921814120652,0.004534272721818744,0.9921548900694112
2015-05-08,-1,-0.00028401025281757646,-0.00018532106263862216,-0.007074150639238469,0.003998186786629835,0.9924761939599281
2015-05-12,-1,-0.0009315109306378487,-0.0007461318144263444,-0.004562848295012339,0.004228790092775866,0.9930378302016187
2015-05-14,-1,-9.304245007321795e-05,-2.6599919050446268e-05,-0.005117580066222988,0.003998186786629835,0.9938602322513309
2015-05-18,1,0.00039174625810674133,0.0004047565259938648,-0.005117580066222988,0.0015578255332669155,0.993619743503724
2015-05-20,1,9.688773850767206e-05,0.00012348396095579757,-0.0050531344852143495,0.004780667697024231,0.993199200728925
2015-05-22,1,3.313001065259124e-05,5.332095476207555e-05,-0.006965113619557787,0.004780667697024231,0.9930327458138807
2015-05-27,-1,-0.000649393008092775,-0.0005274145188341713,-0.006965113619557787,0.004003989800463602,0.9933877505479488
2015-05-29,-1,-0.0017893402587015406,-0.0014848444812897402,-0.004712032564702583,0.004003989800463602,0.9940318366503089
2015-06-02,-1,-0.0014337217448945796,-0.0011864722168745173,-0.006965113619557787,0.004003989800463602,0.9926481457513899
2015-06-04,-1,-0.0008230784878571535,-0.0006951392919385169,-0.004712032564702583,0.004003989800463602,0.9931263439914925
2015-06-08,-1,-0.0017725245144361286,-0.0015079486605994936,-0.004712032564702583,0.004780667697024231,0.993048295827178
2015-06-10,-1,-0.0019572469030185785,-0.0016461291599237124,-0.0065321730143256766,0.004106894833322265,0.9923083256090895
2015-06-12,-1,-0.0022026816979305005,-0.0018654736979374443,-0.004712032564702583,0.0077051144131413596,0.9907311300894734
2015-06-16,-1,-0.0016026810647125622,-0.0013791861251131162,-0.004712032564702583,0.0077051144131413596,0.9907255170358432
2015-06-18,-1,-0.0007889356722035321,-0.0006787016501912887,-0.0065321730143256766,0.0077051144131413596,0.9908104621660071
2015-06-22,-1,-0.0014526381998402824,-0.0012183244260940919,-0.006670354730770874,0.0077051144131413596,0.9905078361283898
2015-06-24,-1,-0.002635522044874332,-0.0022174061000618537,-0.006670354730770874,0.0077051144131413596,0.9896002271619064
2015-06-26,-1,-0.0023531586335962876,-0.002006780306502564,-0.00728180005696457,0.0077051144131413596,0.9893308301533389
2015-06-30,-1,-0.0032514534595917506,-0.002781862432791702,-0.006670354730770874,0.009878814960044533,0.9885998321587699
2015-07-02,-1,-0.003499197146911305,-0.0029600412304714952,-0.00728180005696457,0.009878814960044533,0.9864100748154421
2015-07-07,-1,-0.0023080870875951493,-0.0019805666714308905,-0.00728180005696457,0.0055653063429422864,0.9874800805163667
2015-07-09,-1,-0.0022475494713086555,-0.001971949260296718,-0.00728180005696457,0.0055653063429422864,0.9873827205372835
2015-07-13,-1,-0.0006121659009097561,-0.000566297995799723,-0.00728180005696457,0.0047819218436429695,0.9883376674806262
2015-07-15,-1,-0.00011256666731196372,-6.422229147626615e-05,-0.00728180005696457,0.0047819218436429695,0.9882460761724838
2015-07-17,-1,-7.870800831876888e-05,-3.915754318539325e-05,-0.006678302393032469,0.003516952058357816,0.9888198642366737
2015-07-21,-1,-0.0002472371505277336,-0.0002079716678287897,-0.006587500595348618,0.0047819218436429695,0.9885736799854474
2015-07-23,-1,-0.0005985849174713752,-0.0005701966114066555,-0.0067894671622086514,0.003990755917296427,0.9887028502025063
2015-07-27,-1,-0.001178770722063769,-0.0011134282401952637,-0.008151061145370628,0.003990755917296427,0.9868685353393215
2015-07-29,-1,-0.00011145234738340667,-8.545005900188642e-05,-0.008151061145370628,0.0021648176522544513,0.9862573436736669
2015-07-31,-1,-0.0015817222464535247,-0.0014320695930389062,-0.0067894671622086514,0.006304873911037426,0.9879744599440389
2015-08-04,-1,-0.0013713862043076602,-0.0012752108110219247,-0.010391733374152057,0.006304873911037426,0.9865744666855488
2015-08-06,-1,-0.0015111055367510178,-0.0014090270218465586,-0.008151061145370628,0.008749758942903139,0.9862399231125953
2015-08-10,-1,-0.0008162589563482434,-0.0007919243672997769,-0.010391733374152057,0.008749758942903139,0.9850000663444021
2015-08-12,-1,-0.0006699136261723786,-0.0006606038509504553,-0.013333097021698754,0.015170559234686059,0.9837822100877481
2015-08-14,-1,-0.0009993401360080569,-0.0009461708764618954,-0.013333097021698754,0.015170559234686059,0.9835792988455044
2015-08-18,-1,-0.0009879847200724209,-0.00091295552112059,-0.013333097021698754,0.01147223945741206,0.9838303783745881
2015-08-20,-1,-0.0015532521436927445,-0.0014287093989748317,-0.013333097021698754,0.01147223945741206,0.9833733699139781
2015-08-24,-1,-0.002694762186862722,-0.0024222998700088915,-0.013333097021698754,0.01147223945741206,0.9835718699695636
2015-08-26,-1,-0.001415740890804009,-0.0012943755444239017,-0.013333097021698754,0.008372158705740677,0.9856382199360316
2015-08-28,-1,-0.0008063413399193547,-0.0007568682125736034,-0.015326706970373031,0.007647596262424145,0.9850159710988357
2015-09-01,-1,-0.0015104043735633898,-0.0013837071306181353,-0.0119676464932156,0.008372158705740677,0.9840354979164406
2015-09-03,-1,-0.0009868134728636408,-0.0009106263853275065,-0.0119676464932156,0.01147223945741206,0.9831556533657142
2015-09-08,-1,-0.0006051400974479291,-0.0005658500653356398,-0.011194649582654679,0.01147223945741206,0.9840998515161075
2015-09-10,-1,-0.0003664226305056921,-0.00035584982133794415,-0.010464566755213466,0.01845788729083364,0.9825492528291325
2015-09-14,1,5.3912502212237056e-05,0.0001420250598448475,-0.010464566755213466,0.01845788729083364,0.9830452654212584
2015-09-16,1,0.00021760392238649376,0.0003471148357925324,-0.012447906388545718,0.01845788729083364,0.9824760453725879
2015-09-18,-1,-0.0007307183190368695,-0.0007291318483619907,-0.012135512316317956,0.01845788729083364,0.983429015040254
2015-09-22,-1,-0.0014547700777802872,-0.001358586098657992,-0.011194649582654679,0.01958603633566336,0.9839722787101804
2015-09-24,-1,-0.0011662424028591168,-0.00111426399423712,-0.012135512316317956,0.022434863013409426,0.9819298194229177
2015-09-28,-1,-0.0020824342225111356,-0.0018998509876661219,-0.012135512316317956,0.022434863013409426,0.981860532278355
2015-09-30,-1,-0.0009242071617314005,-0.0009072673831855661,-0.013593299841138093,0.01958603633566336,0.9829802998001803
2015-10-02,1,0.00010192713006759572,0.00020508032724726,-0.013593299841138093,0.018057968260531142,0.9851274650365343
2015-10-06,1,0.0005516549278753663,0.0007428219900388998,-0.013593299841138093,0.01755110346778307,0.9856743937422644
2015-10-08,1,0.0022477833052937483,0.0026771291469561494,-0.013593299841138093,0.008900677218957013,0.9879480364466215
2015-10-12,1,0.0021391518452620476,0.0025449166698556553,-0.013593299841138093,0.008900677218957013,0.9874572078197146
2015-10-14,1,0.0013905708339160042,0.0016903248974887881,-0.012372263168701615,0.009282859606349423,0.9880758984133525
2015-10-16,1,0.0011761370604456947,0.00143251558019438,-0.012805861562059257,0.009150259415494686,0.9872929499003308
2015-10-20,1,0.0014259772938645756,0.0016972441845108958,-0.01312813393001461,0.009150259415494686,0.9872399532406637
2015-10-22,1,0.002228581271794865,0.0026161117506622133,-0.012564387451712752,0.005744470134284164,0.9891247217776954
2015-10-26,1,0.002191802633092373,0.0025769597370547005,-0.012112657941849037,0.004207655362251355,0.9906256373603046
2015-10-28,1,0.0019802833743718376,0.0023053105185145218,-0.012112657941849037,0.004207655362251355,0.9907134458662078
2015-10-30,1,0.001978336606274902,0.002308056398509809,-0.012112657941849037,0.004207655362251355,0.990148445461925
2015-11-03,1,0.0018236778312727135,0.0021199318208323463,-0.012112657941849037,0.004207655362251355,0.9897901307573277
2015-11-05,1,0.001809603031949557,0.002104820288894872,-0.012564387451712752,0.006038252394440083,0.9865965992545327
2015-11-09,1,0.001711732824199387,0.0020205495856140173,-0.01312813393001461,0.006038252394440083,0.9862483158305888
2015-11-11,1,0.0015719464157970754,0.0018573703733984308,-0.014568303355834963,0.0034923532001778154,0.986218233889355
2015-11-13,1,0.0004434649524301626,0.0005503944177587695,-0.014568303355834963,0.0034923532001778154,0.9869642881189288
2015-11-17,1,0.0004139697644366155,0.000510807173035103,-0.010883998908562667,0.0034923532001778154,0.9877629646003545
2015-11-19,1,8.747760822647384e-05,0.00011070632255150889,-0.017522480854046743,0.0029169992409731303,0.9868429347641728
2015-11-23,1,0.00011501254364774534,0.0001505947839374885,-0.017522480854046743,0.004341991430061046,0.9845707674846279
2015-11-25,1,6.79137764481698e-05,0.00011188428941161013,-0.014656165730332725,0.00362963230068037,0.9858075133691211
2015-11-30,-1,-0.0005192099331538531,-0.0004679053708389994,-0.014656165730332725,0.00362963230068037,0.986324362183779
2015-12-02,1,0.0003545367988393337,0.0004713348205320084,-0.015011989610470731,0.0029169992409731303,0.9864095858243871
2015-12-04,1,0.0002902949338293531,0.00040911273120554256,-0.015011989610470731,0.0029169992409731303,0.988634210514978
2015-12-08,-1,-0.00010442433619581244,-2.522215645774068e-05,-0.017675616796921187,0.0029169992409731303,0.9869277850498918
2015-12-10,-1,-0.0007291057443748274,-0.0007074145254438237,-0.015011989610470731,0.0037230458904911994,0.9871491387670284
2015-12-14,-1,-0.0018092948643025314,-0.0016285759533039323,-0.015011989610470731,0.005968609991990191,0.9844132713866017
2015-12-16,-1,-0.001637997631025445,-0.0014672165100732314,-0.01751710786066685,0.00589175350755679,0.983798292261252
2015-12-18,-1,-0.0017216245245449987,-0.001603352509588578,-0.019605637659925707,0.007883805056706713,0.9829515298307168
2015-12-22,-1,-0.0011650496196624067,-0.001033857030517282,-0.019605637659925707,0.00938998847600375,0.9834140430180928
2015-12-24,-1,-0.001099547574095857,-0.0009689593083640744,-0.020925841201215538,0.013210511001107744,0.9804575825700711
2015-12-29,-1,-0.0014025083003425614,-0.0012105720757204863,-0.023876697299664948,0.013210511001107744,0.9786002547245286
2015-12-31,-1,-0.001716287679850252,-0.0015226392035705702,-0.023876697299664948,0.014661092065130691,0.9777365700359195
2016-01-05,-1,-0.0023635141979925518,-0.0020908890811465455,-0.024759594126086106,0.014661092065130691,0.9769677390301676
2016-01-07,-1,-0.00418027639451432,-0.003690311960564024,-0.019982503776043513,0.019331028834222833,0.9777030023839103
2016-01-11,-1,-0.0032430997535918514,-0.002877384129822332,-0.019982503776043513,0.02226335330085362,0.9776156983772625
2016-01-13,-1,-0.005130544264664655,-0.004498904739508038,-0.019605637659925707,0.02226335330085362,0.9803618814481042
2016-01-15,-1,-0.006860611669627807,-0.005950473240130767,-0.013559509969676134,0.02290532570990552,0.978200284171186
2016-01-20,-1,-0.005473564746960095,-0.004808337598840496,-0.013894689078464709,0.02300668586778706,0.9781231990963395
2016-01-22,-1,-0.003386346460224152,-0.0030059947694743394,-0.013894689078464709,0.02226335330085362,0.9792989754539116
2016-01-26,-1,-0.0042402229230422426,-0.0037084001246688934,-0.010006368684027728,0.02036838243586504,0.9814743098082134
2016-01-28,-1,-0.005124827023053099,-0.004539918154839586,-0.0035935767577960458,0.02036838243586504,0.9816123108394624
2016-02-01,-1,-0.003381444006987656,-0.003037014654621692,-0.0035935767577960458,0.019147400819811682,0.9835496348694066
2016-02-03,-1,-0.004352622524234276,-0.0038969860059104543,-0.002183532177324992,0.019147400819811682,0.9850151299619866
2016-02-05,-1,-0.0035771730918139426,-0.0032337540627666783,-0.0016328698439127976,0.017063613042739876,0.9860770063540635
2016-02-09,-1,-0.0029864781731318143,-0.002712880080882399,-0.0016328698439127976,0.013001755693141579,0.9870697711967182
2016-02-11,-1,-0.003270651522593863,-0.0028981078362474507,-0.002183532177324992,0.01437236438743681,0.9868025709706687
2016-02-16,-1,-0.0017424834806023604,-0.0015125144931459715,-0.003479942685445937,0.012313916286639704,0.9886013798744956
2016-02-18,-1,-0.0017360198820776597,-0.001510709024311024,-0.002183532177324992,0.011805273168444316,0.9899673025103038
2016-02-22,-1,-0.00135083736244833,-0.001121941146620846,-0.003479942685445937,0.01154820544463402,0.9901171282312704
2016-02-24,-1,-0.0006123188624125669,-0.0005202714104314019,-0.007794586373840091,0.011530996072531729,0.9893341367425242
2016-02-26,1,0.0007574392344338857,0.0009215302908383914,-0.009827495920224213,0.011530996072531729,0.9878639889280446
2016-03-01,1,0.0012152995473905513,0.0014517118442674663,-0.009827495920224213,0.011846690908789124,0.9874354127012361
2016-03-03,1,0.0021308288583311843,0.002601849790438693,-0.012264571521161196,0.011846690908789124,0.9847143287201512
2016-03-07,1,0.0023860950276937054,0.00287918663741851,-0.012264571521161196,0.011846690908789124,0.9838623240823713
2016-03-09,1,0.0016490094826041534,0.001998262844083288,-0.011541440295259784,0.011846690908789124,0.9842083259282339
2016-03-11,1,0.001758708083272772,0.0021169004604393946,-0.011541440295259784,0.011846690908789124,0.9843226052095291
2016-03-15,1,0.0026266248801011076,0.0031260374204091683,-0.011541440295259784,0.00914352314297081,0.986009388011298
2016-03-17,1,0.0036360558508624122,0.00431773502242694,-0.011541440295259784,0.005482916846953705,0.9863935567567303
2016-03-21,1,0.003815250913594544,0.004516431397439573,-0.009784710435540349,0.00436902540524719,0.9873134232364225
2016-03-23,1,0.002740486529233605,0.003298440492426947,-0.008119861616045672,0.004780521016403571,0.9895427882269135
2016-03-28,1,0.003479588635206151,0.004136549329749383,-0.008119861616045672,0.004780521016403571,0.990525193235805
2016-03-30,1,0.0036094014595022825,0.004284710275922656,-0.006155110388894997,0.004780521016403571,0.9903090382842853
2016-04-01,1,0.0020179887352365614,0.0024852226705993448,-0.001174784439212287,0.006997880595468476,0.9928566174373318
2016-04-05,1,0.0014313929412208724,0.0018055301675067752,0.0006276861683470964,0.006997880595468476,0.9936446864323656
2016-04-07,1,0.00133900856613951,0.0016968081264949278,0.0005079020084706614,0.006997880595468476,0.9935684800679092
2016-04-11,1,0.001498771993477675,0.001818837938756813,-0.0007154142258955674,0.004592999209554971,0.9943274085471243
2016-04-13,1,0.0017161643285858843,0.0020652613366771667,-0.0008663752455376995,0.005742481939789872,0.9924739012722401
2016-04-15,1,0.001839696394022698,0.002203408629408989,-0.007298775925954203,0.005742481939789872,0.9908756031561048
2016-04-19,1,0.0018123417362950784,0.0021707870034884886,-0.00808715202104492,0.006997880595468476,0.9904175719725363
2016-04-21,1,0.001944410953898075,0.0023125130471001966,-0.012754092600189929,0.006997880595468476,0.9887113241202501
2016-04-25,1,0.001321736071034621,0.0015882247605506327,-0.011548871815930206,0.002680894096412222,0.9902296336915765
2016-04-27,1,0.0021850684838932433,0.0025851573673940044,-0.011548871815930206,0.007935772187403564,0.990284487319435
2016-04-29,1,0.002705751904367556,0.003165630427929709,-0.011548871815930206,0.002608244502767517,0.9897522368629132
2016-05-03,1,0.0023782011031280702,0.002759405303590811,-0.011548871815930206,0.008757317646697462,0.9891415071391872
2016-05-05,1,0.0017705600663058874,0.00203869238917421,-0.01006614162254865,0.011682505846436972,0.9887796485177158
2016-05-09,1,0.0012902802460600191,0.0014485522865581091,-0.01006614162254865,0.011682505846436972,0.9884657293368987
2016-05-11,1,0.0013286825502397228,0.0015085271761197297,-0.008385975863375738,0.008757317646697462,0.99004426932277
2016-05-13,0,-4.351378849955359e-05,4.89726521680768e-06,-0.007961835971437256,0.008757317646697462,0.9909290428446831
2016-05-17,1,0.000882565063502246,0.0010354994242134622,-0.008176638002331982,0.005866101636148781,0.990954319309799
2016-05-19,1,3.1974614772955514e-05,8.004987363513988e-05,-0.007353060971002088,0.008757317646697462,0.9920987703083395
2016-05-23,1,1.5569383125096237e-05,6.253409847453397e-05,-0.007353060971002088,0.011754143743216991,0.9910907372253235
2016-05-25,1,0.0002227139992881686,0.00025600051549066094,-0.007353060971002088,0.011934115745490814,0.9911749210157677
2016-05-27,-1,-9.12034385402046e-05,-5.276454928635777e-05,-0.007961835971437256,0.007254509629064923,0.986606781098444
2016-06-01,-1,-0.000786706846159942,-0.0005833875698447393,-0.007961835971437256,0.014490598943411436,0.9848694208933889
2016-06-03,-1,-0.00011530834901977706,-1.6308462551268535e-05,-0.007961835971437256,0.01828711534367815,0.9839515904696513
2016-06-07,-1,-0.00126698529991883,-0.000972161545372087,-0.008176638002331982,0.01828711534367815,0.9834068947310505
2016-06-09,-1,-0.0017032731986593543,-0.0013295257995570575,-0.008176638002331982,0.020161730863965093,0.9822627927610483
2016-06-13,-1,-0.0022039090959806284,-0.0017835702790964536,-0.0019317156822055768,0.020161730863965093,0.9816693961112015
2016-06-15,-1,-0.001581392832819585,-0.0012953889979477455,-0.0019317156822055768,0.020161730863965093,0.9815545327333611
2016-06-17,-1,-0.0014375547085317,-0.0011578182995892112,-0.002324328949995762,0.020161730863965093,0.9820466168965636
2016-06-21,-1,-0.0017379802400935888,-0.0013625874949932742,-0.003659319497936106,0.01828711534367815,0.9828829069845997
2016-06-23,-1,-0.0007585651413687194,-0.0005396603845701183,-0.003659319497936106,0.017196392052135738,0.983184627362387
2016-06-27,-1,-0.004654750952972198,-0.003933716814543171,0.001177554475354928,0.017196392052135738,0.986263655186767
2016-06-29,-1,-0.0028104575107227832,-0.0023193647076379573,-0.0034443127269838266,0.012004714386002285,0.9890706225760343
2016-07-01,-1,-0.0014273639529316278,-0.0011157758095011279,-0.003659319497936106,0.007804270264867112,0.9913302617782548
2016-07-06,-1,-0.001294782179063205,-0.0010117682529713363,-0.003659319497936106,0.007804270264867112,0.9915004139343424
2016-07-08,1,0.00033032679817774626,0.0003507329986680379,-0.003659319497936106,0.007641204379815292,0.9922980844322709
2016-07-12,1,0.0008241209928192626,0.00085542284346561,-0.004771795658733866,0.007017984396673684,0.9926940915014527
2016-07-14,1,0.0008525274889690532,0.0009299602769358655,-0.003659319497936106,0.007017984396673684,0.9935860747909129
2016-07-18,1,0.0008085454728439542,0.0008845221348302032,-0.0035550160314562393,0.007641204379815292,0.9931353771798188
2016-07-20,1,0.0008055469988439058,0.0009054934196846893,-0.0022488213627130426,0.007641204379815292,0.9933729325747337
2016-07-22,1,0.0013246522035050357,0.0015092868765375967,-0.0022488213627130426,0.007743127312199747,0.9934599891492916
2016-07-26,1,0.0014801161714181339,0.0016782593148730774,-0.003531746201159338,0.007743127312199747,0.993078414331466
2016-07-28,1,0.001573823596028191,0.0018021586616355067,-0.003531746201159338,0.007090245783118113,0.9937460143033001
2016-08-01,1,0.0012453013809636366,0.0014077044282957635,-0.0025408556537388576,0.007090245783118113,0.9938404773823167
2016-08-03,1,0.001301473083893024,0.0014766621832193805,-0.004584048662348846,0.004615664889469586,0.9934395149664136
2016-08-05,1,0.002188948969082917,0.002516606589493627,-0.004584048662348846,0.0032051406910427824,0.9935710817928128
2016-08-09,1,0.0021008057787054017,0.0024469730025431548,-0.004584048662348846,0.0034663824939139823,0.9936088060239741
2016-08-11,1,0.002298323579453226,0.0026822924091510062,-0.00923182989256854,0.0033317254987463483,0.9911842323595238
2016-08-15,1,0.002149648037685795,0.0024531628574236304,-0.00923182989256854,0.0033317254987463483,0.9904680924251661
2016-08-17,1,0.002653617473308137,0.003068347193631379,-0.00923182989256854,0.0039903424658596824,0.9900036891994772
2016-08-19,1,0.003072450057204755,0.0035469765827921265,-0.00923182989256854,0.002194191882418533,0.9895453746202546
2016-08-23,1,0.0018678106104236167,0.002064913949431521,-0.00871647654457999,0.0039903424658596824,0.9897659115806793
2016-08-25,1,0.0013923674655218813,0.0014841142025691094,-0.00906010842133368,0.003106196882182218,0.9893424121618952
2016-08-29,1,0.0012333993262110667,0.0012894747425629468,-0.010762160960776469,0.0015918886916483955,0.9886176867052734
2016-08-31,1,0.0007738782631717399,0.0008138286375345456,-0.006632943653177363,0.0032504024310172214,0.9896187233311033
2016-09-02,1,0.0006701463946529792,0.0007091005613809214,-0.006632943653177363,0.0036765672240370254,0.9897848025476186
2016-09-07,1,0.0004405317662797914,0.0004558598261947752,-0.005659602689710633,0.0038012308264103703,0.9901040352317402
2016-09-09,-1,-0.0013323941084441714,-0.0011348937172904155,-0.005500607356316965,0.0038012308264103703,0.9922152105770503
2016-09-13,-1,-0.0005201978680077549,-0.00042798083905985757,-0.005500607356316965,0.0035017181306073145,0.9929180606195648
2016-09-15,-1,-0.00047867559789176346,-0.00035861589250002317,-0.005500607356316965,0.003918640560998597,0.9930787302450768
2016-09-19,-1,-0.0004786101135068922,-0.00040142519108633215,-0.005500607356316965,0.003918640560998597,0.993171529189043
2016-09-21,1,0.0007889299952729262,0.0009091541535246495,-0.005500607356316965,0.003918640560998597,0.9938271235508231
2016-09-23,1,6.169834900175892e-06,2.3154275413364446e-05,-0.005150715167133144,0.003918640560998597,0.9943211651021246
2016-09-27,-1,-0.0009529206704691124,-0.0008360360479471691,-0.004376817583939603,0.003918640560998597,0.9948967668827884
2016-09-29,-1,-0.0009463085417124053,-0.0008272971867475693,-0.005150715167133144,0.00361183199332195,0.9947950090767308
2016-10-03,-1,-0.0007876423525989872,-0.0006833968164864795,-0.005150715167133144,0.004718989588534178,0.9937674712414765
2016-10-05,-1,-0.0014050939839052893,-0.001177440286004647,-0.0054933464693108685,0.003918640560998597,0.993902139848587
2016-10-07,-1,-0.0014565092442593794,-0.0012329721160525486,-0.004276012718288493,0.0053528929551241704,0.9931808742763166
2016-10-11,-1,-0.0023976734389938156,-0.002009149190451981,-0.002856632183145611,0.008898064182109526,0.9911443823679408
2016-10-13,-1,-0.002200612364491982,-0.0018275919385973998,-0.004276012718288493,0.012610081319512328,0.9907583936676576
2016-10-17,-1,-0.0020074280570873244,-0.0016899945099520257,-0.002856632183145611,0.013827946721389456,0.9885552461484615
2016-10-19,-1,-0.0014997607813251686,-0.001241092187164813,-0.002856632183145611,0.012839646585301739,0.9892332573933381
2016-10-21,-1,-0.001704010216090388,-0.0014425924362019022,-0.0019819157765182996,0.012839646585301739,0.9894582339736289
2016-10-25,-1,-0.0013807683832658636,-0.0011802103274072737,-0.0014172444119712087,0.012839646585301739,0.9892605592395209
2016-10-27,-1,-0.0017635183069094383,-0.001499834152014973,-0.0006287281729003454,0.012839646585301739,0.9890645168264831
2016-10-31,-1,-0.0008303375208079931,-0.0006732039399336821,-0.0014172444119712087,0.012540833462954155,0.9899468557646283
2016-11-02,-1,-0.001446388291754822,-0.0011827775749950623,-0.0014172444119712087,0.01323134647575626,0.9892352955415888
2016-11-04,-1,-0.000944772724933772,-0.0007319368602265973,-0.002394029083710944,0.013620203151714937,0.9888745550878837
2016-11-08,1,0.0009133078253179405,0.0009387924417528352,-0.002394029083710944,0.013324381506762205,0.989794346353254
2016-11-10,1,0.0013314103629694974,0.001443313825694585,-0.002394029083710944,0.01323134647575626,0.9907259258971561
2016-11-14,1,0.0033418092445208474,0.0037498778969026402,-0.002394029083710944,0.008734388675463011,0.9933275434158001
2016-11-16,1,0.001226769993576741,0.001350821803455206,-0.004193506762958536,0.008734388675463011,0.9928396360587525
2016-11-18,1,0.002013641882208272,0.002105260779164814,-0.004409555336047391,0.01323134647575626,0.9917549196315408
2016-11-22,1,0.0030083610156830184,0.00332016379102655,-0.004409555336047391,0.01323134647575626,0.9920116356867406
2016-11-25,1,0.0031294135177259534,0.0034537329367899387,-0.005205504978968726,0.01323134647575626,0.9912895137927311
2016-11-29,1,0.003819796725852585,0.004292229912904386,-0.005205504978968726,0.00768000623209221,0.9914749803366683
2016-12-01,1,0.0043784717770164495,0.004962908337754795,-0.006007974940452333,0.004944517405974122,0.9913185263304937
2016-12-05,1,0.0045853254525891965,0.00516686169072543,-0.005205504978968726,0.004393145314849212,0.9920007933843189
2016-12-07,1,0.005669239772878215,0.006384962277599138,-0.005787929363493184,0.004301788730275524,0.9917315356566407
2016-12-09,1,0.0051673188343875215,0.005792680506177582,-0.005787929363493184,0.004301788730275524,0.992171177026285
2016-12-13,1,0.0055842149619237565,0.00629175608210159,-0.007021084968505179,0.0031959843607040554,0.9908429090592136
2016-12-15,1,0.005566928628296159,0.006285315433534519,-0.007021084968505179,0.0031959843607040554,0.990927185559838
2016-12-19,1,0.005437697564269402,0.006127679117467795,-0.004618190195827712,0.004814231462569585,0.9920221595144182
2016-12-21,1,0.005156131499462856,0.005791284950228492,-0.004618190195827712,0.004814231462569585,0.9920651434383614
2016-12-23,1,0.004666757625966933,0.005233777501518012,-0.00333229499351834,0.006650464443098616,0.9926893981987531
2016-12-28,1,0.004524547616067871,0.005107415217447377,-0.0024193544380965485,0.006650464443098616,0.9934474065930504
2016-12-30,1,0.0038663518475319982,0.0043315361972374785,-0.00333229499351834,0.006650464443098616,0.9932298207583888
2017-01-04,1,0.003655518240212031,0.0040938990872523276,-0.00333229499351834,0.006650464443098616,0.9934514472571283
2017-01-06,1,0.0036959094419221133,0.004156738262023772,-0.0021174525144251072,0.007934255993026799,0.9936510091181247
2017-01-10,1,0.0034422136985218735,0.003867949174635727,-0.0016841768046403117,0.007934255993026799,0.9941172594688521
2017-01-12,1,0.0035395096288556396,0.004000445526012574,-0.0016841768046403117,0.006688691885493154,0.9947761769534288
2017-01-17,1,0.003427381405401324,0.0038443828197839112,-0.0005023490676190946,0.006688691885493154,0.9949536168289403
2017-01-19,1,0.004147406562077,0.004650858539691192,-0.000581158829541035,0.005979836661822168,0.9947868636735827
2017-01-23,1,0.003929945907253665,0.004399737325518498,-0.001084370391382731,0.005979836661822168,0.9941317118192526
2017-01-25,1,0.0037766602629426614,0.0041696012988121,-0.0036217118970390603,0.005193520513416894,0.9937492191013648
2017-01-27,1,0.0036687894700967597,0.004028423515790664,-0.0036217118970390603,0.005193520513416894,0.9937419129717507
2017-01-31,1,0.0027343984757185035,0.002945682802252324,-0.002121317796560543,0.005979836661822168,0.9939980058002481
2017-02-02,1,0.0014847783816259361,0.0015213155283263077,-0.004253195357461135,0.005979836661822168,0.9931623919326321
2017-02-06,1,0.0020363556320782553,0.00209686602148348,-0.00558832243238192,0.005193520513416894,0.9930507056874815
2017-02-08,1,0.0023008941375984543,0.002411588871844655,-0.00558832243238192,0.004431472858091964,0.9930296313650199
2017-02-10,1,0.001875866459007474,0.0018939529807954073,-0.00558832243238192,0.0043700007264933045,0.9933399534938733
2017-02-14,1,0.0026349840618516878,0.0027946514439947355,-0.006868525439406101,0.0037560509753908886,0.9924769327575745
2017-02-16,1,0.0025771792246567365,0.0026675123134112704,-0.006868525439406101,0.0031975460610042467,0.9933381205013405
2017-02-21,1,0.0012665358918912152,0.0013784842698228075,-0.00558832243238192,0.004034024815709957,0.994240911032417
2017-02-23,1,0.0005850960362739309,0.0007906844864935447,-0.0020095753232781833,0.004733981302259555,0.9927300749488546
2017-02-27,1,0.0005828763728651617,0.0007902606617838516,-0.003962108103830497,0.004733981302259555,0.9925585843575984
2017-03-01,1,0.000716271418736261,0.0009164474609439465,-0.0015768985676260098,0.004733981302259555,0.9930144971158654
2017-03-03,-1,-0.00041311157104381626,-6.21061856884874e-05,-0.0008364193328733384,0.004733981302259555,0.9934239170296157
2017-03-07,-1,-0.0011763305420989813,-0.0007090875029104461,-0.0014492544214085852,0.004733981302259555,0.9926393611787712
2017-03-09,-1,-0.001195444751825301,-0.0007348858519437486,-0.0031464989095260497,0.004733981302259555,0.9925722300115671
2017-03-13,-1,-0.0013211157571536012,-0.0008234501277482496,-0.0038622021233465464,0.004155824549594626,0.9928185532889545
2017-03-15,-1,-0.0009447258896567658,-0.0005058289630538216,-0.0031464989095260497,0.0038894659418417955,0.9936881399439192
2017-03-17,-1,-0.001324963965417835,-0.0008100820361061176,-0.0031464989095260497,0.0040640798257524004,0.9937348741330443
2017-03-21,-1,-0.001308606639654442,-0.0007880802009789306,-0.0038622021233465464,0.003838267632452909,0.9939534718306398
2017-03-23,0,-8.170982616976402e-05,0.0003157089830344037,-0.0038622021233465464,0.003757710393733282,0.9952481757470784
2017-03-27,1,0.00012711270066153657,0.0004594798300809693,-0.003640444715630784,0.003964261264860864,0.9944763237242105
2017-03-29,1,0.00021494726382737688,0.0005585540516870162,-0.005024217158953469,0.003964261264860864,0.994003123166755
2017-03-31,1,6.114273039245911e-05,0.00040191086899127196,-0.005576395071681915,0.006083742245626316,0.9929961979098528
2017-04-04,1,0.00013457613496730076,0.0004094540231593673,-0.003804147425733039,0.011259429561799877,0.9930441296739532
2017-04-06,-1,-0.0003137904730349994,-5.8668871862216105e-06,-0.00244329113908648,0.011259429561799877,0.9932753484599681
2017-04-10,1,0.0002799447598383042,0.0004145686350569828,-0.00244329113908648,0.011587631245808562,0.9901768375598028
2017-04-12,1,0.00034652719748715793,0.00043533236696376837,-0.003442359346433898,0.011587631245808562,0.9899432196774371
2017-04-17,1,0.00016774137758589626,0.00028909650792870124,-0.003715954551712233,0.012711825574704915,0.9893188510135191
2017-04-19,1,2.9035269635313435e-05,0.0001626587118535667,-0.003715954551712233,0.012711825574704915,0.9887052920723395
2017-04-21,1,0.00031834070090612103,0.0004118645245504473,-0.003715954551712233,0.011587631245808562,0.9892227272613752
2017-04-25,1,0.0009190474872320221,0.0009379613041798493,-0.003715954551712233,0.012618189534966105,0.9890823274998131
2017-04-27,1,0.0012308841428138716,0.001257134407960112,-0.0017502449962977446,0.012210689340638748,0.989937092829148
2017-05-01,1,0.0013106379586930185,0.0013597250738010738,-0.0012247979304090629,0.008461050649792858,0.9910014301531658
2017-05-03,1,0.0019887402137094817,0.0021818490742420457,-0.0012247979304090629,0.008786075734327947,0.9913407443990075
2017-05-05,1,0.0018497513487602732,0.002012063138532643,-0.002022207213929042,0.010222456969732775,0.9899931788425772
2017-05-09,1,0.003380187544016132,0.003753784203393846,-0.002022207213929042,0.008786075734327947,0.9922363770250026
2017-05-11,1,0.0032794550340866794,0.0036319867824928945,-0.002022207213929042,0.008786075734327947,0.9911753381191322
2017-05-15,1,0.003710083459999791,0.004119951507602353,-0.0019768917288254914,0.008786075734327947,0.9910415909372043
2017-05-17,1,0.0030673171075573614,0.0033840890370571,-0.0006595846894232303,0.008786075734327947,0.9919254807261149
2017-05-19,1,0.002926661233875051,0.0032038753612635184,-0.0016954120736625185,0.010222456969732775,0.9911672675010136
2017-05-23,1,0.003285902884342148,0.0035898571474799095,-0.002572847505691967,0.008122074992013601,0.9909731316461079
2017-05-25,1,0.0032371684393397914,0.00351240007977609,-0.0025829147472954677,0.008122074992013601,0.9907415715794767
2017-05-30,1,0.0030044599108258164,0.003233603858588486,-0.006669445214843118,0.008122074992013601,0.9892963290441432
2017-06-01,1,0.0033426336347382834,0.0036018786877111747,-0.016567113169300356,0.0032241527811374543,0.9883959618578105
2017-06-05,1,0.002901414010114036,0.0030850984282976297,-0.006669445214843118,0.0013377769018222815,0.9897012384911492
2017-06-07,1,0.001878608558338829,0.0019187482577777456,-0.006319010792341191,0.0032241527811374543,0.9906198209576298
2017-06-09,1,0.0009761354678956504,0.0010434687266967144,-0.0025829147472954677,0.007265322880267077,0.9919523426763395
2017-06-13,1,0.001620284286271357,0.0016678319944416055,-0.002294723597730161,0.004446726391936955,0.9927373419985557
2017-06-15,1,0.0016346306314238392,0.001673970710074921,-0.002294723597730161,0.003056750239082367,0.9929183317131709
2017-06-19,1,0.0019632315278540827,0.0020641075154717247,-0.0020715392992301613,0.003570399142931396,0.9933014105443527
2017-06-21,1,0.0014187334876021571,0.001449327787705869,-0.0014353868692595236,0.003570399142931396,0.9943507848119367
2017-06-23,1,0.0009130436644878905,0.0009761965745079432,-0.0012772396040663372,0.0037892129077726523,0.9942724316165107
2017-06-27,-1,-0.00020547370622208988,-3.889562936913965e-06,-0.0003935528608992883,0.0037892129077726523,0.9953684496705759
2017-06-29,-1,-0.0003764620562148067,-0.00017060246061293566,-0.0003935528608992883,0.0037892129077726523,0.9957791245710251
2017-07-03,-1,-0.00041176747355255703,-0.00021010710626191166,0.0001004670411968139,0.0065662143279741104,0.9950103465339122
2017-07-06,-1,-0.0006706549907028078,-0.0004376032574051938,0.0001004670411968139,0.0048992345360662284,0.9952907685182022
2017-07-10,-1,-0.00020267159635527741,-3.9835407011884266e-05,0.0001004670411968139,0.0068664092839145945,0.9948582323990892
2017-07-12,1,1.6184294366763474e-05,0.00011349128198985374,-0.001084392940854794,0.0068664092839145945,0.9926985009549391
2017-07-14,-1,-0.0003030091770857426,-0.0001415053092754949,-0.002750674052887592,0.0068664092839145945,0.9919053747711812
2017-07-18,-1,-0.00034332661027230743,-0.00015943480940772592,-0.002750674052887592,0.007111651884196466,0.9919043774891874
2017-07-20,-1,-0.000298401127755427,-0.00012205902056743344,-0.00908925484344914,0.007111651884196466,0.9908998476902996
2017-07-24,-1,-0.00017572839508325365,-2.03647164921527e-05,-0.00908925484344914,0.00842448362489743,0.9905425901310615
2017-07-26,-1,-0.000554356718179263,-0.00032383972453860926,-0.015444047469357177,0.009241205717834393,0.9885274148651022
2017-07-28,-1,-0.0007508231270778969,-0.000484274505171461,-0.015444047469357177,0.00842448362489743,0.9887695045599854
2017-08-01,-1,-0.00041460703328123204,-0.00018504481620278015,-0.015444047469357177,0.006831222889802946,0.9893984597176961
2017-08-03,-1,-0.0008526847425855579,-0.0005729918935874287,-0.007432649805018458,0.008005473898498582,0.9885608423817877
2017-08-07,0,-0.0001927453781999977,2.2543501264683276e-06,-0.014830727974731313,0.004158388475595781,0.9888970468272833
2017-08-09,-1,-0.0015491395742726745,-0.0011987347865539434,-0.004769458857317997,0.004158388475595781,0.990860362706262
2017-08-11,-1,-0.0020949830089213076,-0.00168671195207936,-0.004711247890058584,0.008005473898498582,0.989987702424229
2017-08-15,-1,-0.001078086176262844,-0.0008523862846818516,-0.004711247890058584,0.010933783613075737,0.9897645337641472
2017-08-17,-1,-0.001855433975975867,-0.0015364879028240022,-0.004711247890058584,0.010933783613075737,0.9902142777746741
2017-08-21,-1,-0.001292496544820997,-0.0010585123875464044,-0.004711247890058584,0.012722248801956002,0.9900372625395537
2017-08-23,-1,-0.0010504926136549325,-0.0008361156478611721,-0.0038425093900493314,0.008228219412698506,0.9920894372035681
2017-08-25,-1,-0.0013460053827092965,-0.0010717915108920594,-0.0017255079426621795,0.009783190789539282,0.9918796027380476
2017-08-29,-1,-0.0016779139758516055,-0.0013519881586784666,-0.0017255079426621795,0.009783190789539282,0.991514680083538
2017-08-31,-1,-0.0009940462411715985,-0.0007336873539678685,-0.0017255079426621795,0.009783190789539282,0.9925816735085827
2017-09-05,-1,-0.0013355054359009127,-0.0010417527523107646,-0.0017255079426621795,0.009783190789539282,0.9926489528162726
2017-09-07,-1,-0.0015512599546413813,-0.0012313940094833904,-0.0017255079426621795,0.012485197703529727,0.9914022433505613
2017-09-11,-1,-0.0009747139371467955,-0.0007099373736335628,-0.0017255079426621795,0.00900503733142995,0.9923577145372672
2017-09-13,-1,-0.00034362307288715436,-0.00016237137098868066,-0.0017255079426621795,0.00900503733142995,0.9929595503896033
2017-09-15,-1,-0.0004591458550605228,-0.0002909067568705403,0.001177036767836684,0.00900503733142995,0.9930306691201111
2017-09-19,1,0.0001840643384809795,0.000261581336170052,5.010282195262825e-05,0.006496076108710712,0.9939745627554766
2017-09-21,1,9.665547482744273e-05,0.00018863337429693623,-0.0004531755603554142,0.006996122543604078,0.993595559441744
2017-09-25,1,0.0005674686661968362,0.0005872783608023944,-0.001953739168075783,0.005845535290849932,0.9941068549246502
2017-09-27,1,0.0003416962709042508,0.00038987812806657023,-0.001953739168075783,0.006996122543604078,0.9936986741161341
2017-09-29,1,0.0017423208278141654,0.0019499835460744625,-0.001953739168075783,0.006996122543604078,0.9938809923181489
2017-10-03,1,0.001496493934489695,0.0016746774410037316,-0.0019079880959941026,0.008311902970471515,0.9938951975641466
2017-10-05,1,0.0020984894630587253,0.0023752432171551215,-0.0019079880959941026,0.006784175201365776,0.9949532067759684
2017-10-09,1,0.0021439454662601594,0.002390457952778327,-0.0019079880959941026,0.006784175201365776,0.9946397451553535
2017-10-11,1,0.0025154097541938876,0.002819263786500376,-0.003372886633772285,0.005854894046708419,0.9942033380125701
2017-10-13,1,0.003037678555764342,0.003452713153297476,-0.00416380021781181,0.006784175201365776,0.9932779433943731
2017-10-17,1,0.0030862733987770236,0.003521869455743432,-0.00416380021781181,0.008810433177010569,0.9926602943155312
2017-10-19,1,0.0031581392940488924,0.00360442126466891,-0.00416380021781181,0.011458502462986155,0.9920391663449806
2017-10-23,1,0.003432072826389227,0.003944888370684878,-0.00416380021781181,0.011458502462986155,0.9920774683646717
