JNU-Tangyin/eata/results/Batch4_SP500/Batch4_SP500-CPRT.csv
Date,Action,Predicted_Q25,Predicted_Q75,Actual_Q25,Actual_Q75,RL_Reward
2010-12-14,0,0.0,0.0,-0.0016711675199256248,0.001809195319633256,0.995539814218838
2010-12-16,1,0.0017811675280541043,0.0019281118617966806,-0.0016711675199256248,0.0016057417713407623,0.9977257607200257
2010-12-20,0,0.0,0.0,-0.0016711675199256248,0.0016057417713407623,0.9954571013457894
2010-12-22,0,0.0,0.0,-0.0020012247021456327,0.0018071832383035156,0.9940414231256037
2010-12-27,0,0.0,0.0,-0.002619628677888414,0.0016044273177717066,0.9933073590981591
2010-12-29,0,0.0,0.0,-0.0033982344970636975,0.002337993763881818,0.991466545311701
2010-12-31,-1,-0.0014765292548716748,-0.001362699549572494,-0.003605895806054701,0.0038195578308860426,0.9908916876059517
2011-01-04,0,0.0,0.0,-0.0053035130689416884,0.0038195578308860426,0.9900279248113101
2011-01-06,0,0.0,0.0,-0.0053035130689416884,0.00592322916113089,0.9894420534535526
2011-01-10,0,0.0,0.0,-0.0053035130689416884,0.009389848164903286,0.9888433241478745
2011-01-12,0,0.0,0.0,-0.0053035130689416884,0.009389848164903286,0.9887427413837565
2011-01-14,0,0.0,0.0,-0.0053035130689416884,0.009389848164903286,0.9887195802275451
2011-01-19,1,0.0005405360638669938,0.000563137051569713,-0.007995312326796221,0.007112363154099076,0.990800887493404
2011-01-21,0,-0.00011556047933152728,8.69453395427746e-05,-0.007995312326796221,0.006800339059100404,0.9918635090598922
2011-01-25,1,3.446031891365985e-05,0.00014133113696105943,-0.008010260192785869,0.006800339059100404,0.9913106750771122
2011-01-27,0,0.0,0.0,-0.0024318430698597,0.008279595505585666,0.9919508532925415
2011-01-31,0,0.0,0.0,-0.0024318430698597,0.009049419889891944,0.9904480463307993
2011-02-02,0,0.0,0.0,-1.6348518202106456e-06,0.008279595505585666,0.9909357370217495
2011-02-04,0,0.0,0.0,-0.008098991544762863,0.0075179205658421665,0.9908190825767138
2011-02-08,0,0.0,0.0,-0.008098991544762863,0.008279595505585666,0.9904126216264117
2011-02-10,0,0.0,0.0,-0.008754832498883747,0.008279595505585666,0.9894765443960541
2011-02-14,0,0.0,0.0,-0.009579393081323901,0.008279595505585666,0.9888794570965184
2011-02-16,1,0.0029920109185748727,0.003248804801908718,-0.010171904789740054,0.0087860479713338,0.9890313779355967
2011-02-18,1,0.003269251859774438,0.0035968082907569723,-0.010171904789740054,0.009206561270556685,0.9889299993804966
2011-02-23,1,0.0016744434609693075,0.0017651761086868393,-0.008098991544762863,0.009206561270556685,0.9900095782131261
2011-02-25,1,0.002012608601982196,0.0021118655882861083,-0.008098991544762863,0.008650048728994494,0.9905896499100859
2011-03-01,1,0.001540033709361655,0.0016206792371786418,-0.006087739993147611,0.008650048728994494,0.9912843279510429
2011-03-03,1,0.002038471750606772,0.0022039814365655912,-0.006087739993147611,0.008650048728994494,0.9915559143079605
2011-03-07,1,0.0013243159241197434,0.0014208558606709448,0.00033534335679361076,0.00902631330234341,0.9916773171737647
2011-03-09,1,0.002111521412724453,0.0022958133843542423,-0.0007789232416169076,0.008439649846916196,0.9926187459589674
2011-03-11,1,0.0007645280181893459,0.0007753272659764838,0.00011417779987515182,0.008439649846916196,0.9932839034444648
2011-03-15,1,0.0005381263696629508,0.0005909390529197418,0.00011417779987515182,0.008650048728994494,0.9935628819572647
2011-03-17,1,0.00025303368099868475,0.0003435178179134513,0.00011417779987515182,0.008439649846916196,0.9939879855583533
2011-03-21,1,0.0005082344536562083,0.0006083267554423922,-0.001244795199690043,0.007752824085340649,0.9937792269826979
2011-03-23,1,0.000684954564357959,0.0007826348350251232,-0.0014143453628526238,0.008439649846916196,0.9936744130750257
2011-03-25,1,0.001460626440426335,0.0014698791982373038,-0.002306415913724038,0.00700531849991573,0.9939180709318959
2011-03-29,1,0.0017826375836537342,0.0018292911183420627,-0.0014143453628526238,0.006190582751885303,0.9952901367303698
2011-03-31,1,0.002229984869301657,0.0023647407586444005,-0.0014143453628526238,0.006190582751885303,0.9946042924864464
2011-04-04,1,0.0027932043585905007,0.0029936196445755708,-0.002306415913724038,0.006190582751885303,0.994336692022767
2011-04-06,1,0.0030589773589581506,0.003331797592496245,-0.0025105307939760936,0.006190582751885303,0.9941575373243785
2011-04-08,1,0.0023184655975163216,0.0024365259846660936,-0.002306415913724038,0.006190582751885303,0.9945930919978263
2011-04-12,1,0.0024394469045845826,0.002579919009525838,-0.0025105307939760936,0.006190582751885303,0.9943608666303609
2011-04-14,1,0.0028117249539718198,0.0030432545069164945,-0.00271123858518274,0.006444630062553745,0.9938345426547754
2011-04-18,1,0.002209346175168962,0.0023577264063770163,-0.00271123858518274,0.00503388823710963,0.9944273791087449
2011-04-20,1,0.0029396569162913142,0.003229699860025032,-0.00271123858518274,0.00503388823710963,0.994176334277939
2011-04-25,1,0.0023718369747024065,0.0025478935008089003,-0.004257121172327307,0.00503388823710963,0.9940088219491194
2011-04-27,1,0.0001287702355228324,0.0004217889115618514,-0.004257121172327307,0.00503388823710963,0.9941000017067578
2011-04-29,1,0.0008466199107239371,0.0010462882510643315,-0.004257121172327307,0.00503388823710963,0.9947809700674265
2011-05-03,1,0.00012530311759196893,0.0004269031904870767,-0.004257121172327307,0.005088846676819147,0.9941364736279841
2011-05-05,1,0.0005934940793375285,0.0007941004298288254,-0.005893421369708231,0.005088846676819147,0.9919410458533493
2011-05-09,1,0.0010689770443912403,0.0011938244403544495,-0.005893421369708231,0.008415149754397434,0.9912578145717515
2011-05-11,0,0.0,0.0,-0.005601976658004539,0.008415149754397434,0.9913312957493424
2011-05-13,0,0.0,0.0,-0.006285940856870849,0.005728638827163116,0.991117178988264
2011-05-17,1,0.000654144534836885,0.0006722375288774886,-0.005601976658004539,0.008415149754397434,0.9906814072399057
2011-05-19,1,0.000534348835789339,0.0005792687254581849,-0.005601976658004539,0.007813029986255444,0.9909785642617965
2011-05-23,1,0.00057323150253218,0.0005842278446930888,-0.005396556181437601,0.008502848771440799,0.9905631337413291
2011-05-25,0,0.0,0.0,-0.005396556181437601,0.010562106638850993,0.9899788107998287
2011-05-27,0,0.0,0.0,-0.007028396768816917,0.010670523595860478,0.9894244138396195
2011-06-01,1,0.000491717084087675,0.0006311233075493301,-0.005396556181437601,0.010670523595860478,0.9902010915959222
2011-06-03,-1,-0.0013711938647609034,-0.0010057065578981089,-0.0035513692644361288,0.011393619491144227,0.9912508920901081
2011-06-07,-1,-0.0013597592375277883,-0.0009923020101698992,-0.0019561721339008934,0.011393619491144227,0.9918022416473037
2011-06-09,-1,-0.0012162046688780049,-0.0008673090530034263,-0.0019561721339008934,0.011239320121262676,0.9918271752489485
2011-06-13,-1,-0.0008500401775864731,-0.0006115840586165735,-0.0036815734023556055,0.011239320121262676,0.9918736284435345
2011-06-15,-1,-0.0001697086827395645,-4.2279949574546916e-05,-0.005879351910465375,0.010643362860346813,0.9919527044046431
2011-06-17,-1,-0.000413092556429979,-0.00021935876410269486,-0.0075798667680050495,0.010643362860346813,0.9918340252104884
2011-06-21,-1,-0.0001834791568061551,-2.1185888151073094e-05,-0.0075798667680050495,0.010254846735017892,0.992181160103182
2011-06-23,-1,-0.0001922065732980192,-9.699270285794454e-06,-0.0075798667680050495,0.008873457239310099,0.9922625346025679
2011-06-27,-1,-0.00020419920345328922,-3.1713618146514714e-05,-0.00827495332787493,0.006579967180980298,0.9922861592245301
2011-06-29,1,0.0004366925268957699,0.0005190085542644471,-0.009029583012216786,0.005276606056639838,0.9917262801069251
2011-07-01,1,0.0012786365982901944,0.0013202563322233926,-0.009029583012216786,-0.0002398483528463218,0.9918907339360811
2011-07-06,1,0.0012289811571568573,0.001263154084743905,-0.010069350376958924,-0.0004451082265594739,0.9908268547378569
2011-07-08,1,0.001339998236776939,0.0013994287660514947,-0.01363356882803312,-0.0016607633698041645,0.9890329724021503
2011-07-12,0,0.0,0.0,-0.01363356882803312,-0.0004451082265594739,0.9856299182698546
2011-07-14,0,0.0,0.0,-0.015679653782562926,0.0030338353855758073,0.9825129269480497
2011-07-18,0,0.0,0.0,-0.015679653782562926,0.005276606056639838,0.9824402795487158
2011-07-20,0,0.0,0.0,-0.015679653782562926,0.005276606056639838,0.982626146573252
2011-07-22,0,0.0,0.0,-0.019670702133934046,0.0016978974724089517,0.9811148498543828
2011-07-26,-1,-0.0006118659755239462,-0.0005015926164240387,-0.019670702133934046,0.0033191786918199675,0.9807997852862168
2011-07-28,-1,-0.0016976631764213613,-0.0013911705164217102,-0.018797403299690096,0.008029948010805334,0.9804097903568463
2011-08-01,-1,-0.001627753415264182,-0.0013555535113582255,-0.018797403299690096,0.016370866953446937,0.9781824277646958
2011-08-03,-1,-0.002558932114557548,-0.0021493840433389564,-0.015388554171148275,0.016370866953446937,0.9780557286626065
2011-08-05,-1,-0.0038590929284504838,-0.003292005241726155,-0.016427974846396045,0.016370866953446937,0.9780649024678145
2011-08-09,-1,-0.004538425968544463,-0.0038900358044505886,-0.006425069967979139,0.016370866953446937,0.981457334131446
2011-08-11,-1,-0.0038106950444101425,-0.003266908343763129,-0.01384625241018185,0.014389428717576555,0.9842760419223227
2011-08-15,-1,-0.0033244886954147132,-0.002848786889503155,-0.01384625241018185,0.014389428717576555,0.9844625863563629
2011-08-17,-1,-0.002889030934539992,-0.0024830395392606663,-0.016427974846396045,0.01595618003532888,0.9830592714676837
2011-08-19,-1,-0.0036147539615743038,-0.003149269348729275,-0.016427974846396045,0.01595618003532888,0.9836547285778761
2011-08-23,-1,-0.002626530897620267,-0.002289465011239554,-0.01765129528422847,0.014389428717576555,0.982354175226658
2011-08-25,-1,-0.0024069760893781524,-0.0021158368154737687,-0.017368649520771294,0.012910987862143841,0.9824494523729876
2011-08-29,-1,-0.0010896152517190414,-0.0009560630749932799,-0.017368649520771294,0.011813055217990514,0.9825528410349094
2011-08-31,-1,-0.0005542475934762257,-0.0004798990125164692,-0.017368649520771294,0.011813055217990514,0.981505594563561
2011-09-02,-1,-0.0014236046172700508,-0.0012576729353297267,-0.017368649520771294,0.011813055217990514,0.9813943950783908
2011-09-07,-1,-0.0006520939565631944,-0.0005824330325474448,-0.017368649520771294,0.014452150939377125,0.9798314638971156
2011-09-09,-1,-0.001668716016890649,-0.001470823519823402,-0.01648644298813319,0.017045980568335242,0.9802236543352011
2011-09-13,-1,-0.0011825629201556186,-0.0010529332459265112,-0.01648644298813319,0.021311479088799004,0.9789810225293938
2011-09-15,-1,-0.0012846983696984584,-0.0011393919345787753,-0.01597608337367955,0.018568993647897592,0.9801054699164827
2011-09-19,-1,-0.0016563938151362226,-0.0014710801680652994,-0.01597608337367955,0.018568993647897592,0.9796065493822134
2011-09-21,0,0.0,0.0,-0.01189612015009892,0.018641684582730682,0.9818735163382437
2011-09-23,0,0.0,0.0,-0.010332576588315616,0.0228786917840821,0.9817973012764664
2011-09-27,0,0.0,0.0,-0.01189612015009892,0.018393896631942887,0.9822060730166096
2011-09-29,0,0.0,0.0,-0.010332576588315616,0.018393896631942887,0.9825692478973808
2011-10-03,0,0.0,0.0,-0.010209203482264095,0.018393896631942887,0.9834196040521495
2011-10-05,-1,-0.0024377607308749133,-0.00234518798394131,-0.010621501671998877,0.01690886996332599,0.9832849334091975
2011-10-07,0,0.0,0.0,-0.010209203482264095,0.018357476963201873,0.9838491816402561
2011-10-11,0,0.0,0.0,-0.010971834503682271,0.01690886996332599,0.9845334225473124
2011-10-13,-1,-0.0024254249383215787,-0.002304845754393766,-0.013527219953898797,0.016347754431037472,0.9825363561890241
2011-10-17,-1,-0.0022884031675209507,-0.002190186464877079,-0.011107737464544937,0.01777788917265529,0.9825773662007098
2011-10-19,-1,-0.001998942525663599,-0.0019425069035535715,-0.013252203742503422,0.01714408270553368,0.9823987280888719
2011-10-21,0,0.0,0.0,-0.013252203742503422,0.015747493431516466,0.9840252442310523
2011-10-25,1,0.0017775540104141953,0.002079026387242156,-0.013252203742503422,0.014000219034471566,0.9848584297379617
2011-10-27,0,0.0,0.0,-0.013252203742503422,0.011981863151027877,0.9855791037430944
2011-10-31,0,0.0,0.0,-0.012248879869383503,0.01377567453799862,0.9856338609685364
2011-11-02,0,0.0,0.0,-0.0110597133153771,0.01377567453799862,0.9863691748072212
2011-11-04,0,0.0,0.0,-0.0110597133153771,0.012051105608272723,0.9869626080696826
2011-11-08,0,0.0,0.0,-0.007426025755222606,0.011511893157627802,0.9877420733667857
2011-11-10,0,0.0,0.0,-0.007426025755222606,0.012365764557798396,0.9888903346012293
2011-11-14,0,0.0,0.0,-0.006945342819462169,0.011353902453573098,0.9899715913547527
2011-11-16,0,0.0,0.0,-0.005959085544863799,0.010621684561910876,0.9908954815168101
2011-11-18,0,0.0,0.0,-0.005959085544863799,0.011034216131413454,0.9903588403622401
2011-11-22,0,0.0,0.0,-0.0026856008236850965,0.011353902453573098,0.9904061283706209
2011-11-25,0,0.0,0.0,-0.0005521117315423576,0.011353902453573098,0.9904703882920277
2011-11-29,0,0.0,0.0,-0.002335830611407657,0.010540370583557612,0.9916079472851032
2011-12-01,0,0.0,0.0,-0.002335830611407657,0.010206876915582365,0.993099812765061
2011-12-05,0,0.0,0.0,-0.004673194429434585,0.006838411894582543,0.9922023816509009
2011-12-07,0,0.0,0.0,-0.0030677518793997753,0.006838411894582543,0.9923907280102922
2011-12-09,0,0.0,0.0,-0.002335830611407657,0.010206876915582365,0.9925423316613696
2011-12-13,1,0.003423265985492251,0.00399962238919112,-0.001646769198605596,0.010206876915582365,0.9937744464005988
2011-12-15,1,0.0032996864709494813,0.003821434270696417,-0.001143205198815308,0.006838411894582543,0.9941479602210571
2011-12-19,1,0.0030921058600969194,0.003545694848971904,-0.00041427161990851825,0.0059651879422429254,0.9945249679545322
2011-12-21,1,0.003556878523952621,0.004053686126397951,-0.001143205198815308,0.005522365389565628,0.9947406610115627
2011-12-23,1,0.003558179312283781,0.004013182751964918,-0.001143205198815308,0.0043469462430653204,0.9947921647219854
2011-12-28,1,0.0025847131162847403,0.002824078474427491,-0.002023643378907031,0.0043469462430653204,0.993950701574752
2011-12-30,1,0.0023947923033544464,0.002535685533753123,-0.004528906241422366,0.0036504850185541506,0.9934986470357013
2012-01-04,1,0.0014363705180521786,0.0014803638793259878,-0.0037335306305110155,0.004646434971523322,0.9943401521732577
2012-01-06,1,0.0016881812652864464,0.0017837222758689266,-0.004528906241422366,0.004646434971523322,0.9938321270500234
2012-01-10,1,0.0024133396810055016,0.002613019165182204,-0.004528906241422366,0.0019940023249872896,0.9942340415237173
2012-01-12,1,0.0016735329139710646,0.0016896659157037803,-0.007005967620818571,0.0019940023249872896,0.9939607619670526
2012-01-17,1,0.0020407086253794874,0.002156575417428144,-0.007915599413734702,0.001146675055425706,0.9933380799470789
2012-01-19,1,0.001967293205755943,0.0020656210770850308,-0.007915599413734702,0.001146675055425706,0.9929359090338536
2012-01-23,0,0.0,0.0,-0.007915599413734702,0.001146675055425706,0.9935772953428889
2012-01-25,0,0.0,0.0,-0.007915599413734702,0.0008508086932157992,0.9934723478672618
2012-01-27,1,0.0016696582882163467,0.0016981277917628656,-0.007566596611445306,0.001968789033337967,0.9928400382783786
2012-01-31,0,0.0,0.0,-0.007566596611445306,0.0035952547608357486,0.9895157546840607
2012-02-02,0,0.0,0.0,-0.00772857621970718,0.0035952547608357486,0.9890025161532773
2012-02-06,0,0.0,0.0,-0.00772857621970718,0.0035952547608357486,0.9891035511773935
2012-02-08,1,0.0003440068020460273,0.0004989883861813019,-0.00772857621970718,0.008201301631273543,0.9883049859372839
2012-02-10,-1,-0.0006884173452868141,-0.0003690889981693597,-0.00430536945942042,0.009258120883682656,0.9882794521448499
2012-02-14,-1,-0.0032333501917540175,-0.0024583578626491765,-0.0018551641801974102,0.010481416544481231,0.9866488141398396
2012-02-16,-1,-0.0029910558396257034,-0.0022282433289651186,-0.0018551641801974102,0.009258120883682656,0.9873186374102813
2012-02-21,0,0.0,0.0,-0.002509791214990703,0.009258120883682656,0.9881340584985017
2012-02-23,0,0.0,0.0,-0.0016120698862040653,0.009258120883682656,0.9885233469998186
2012-02-27,0,0.0,0.0,-0.0011975412557885888,0.010481416544481231,0.9890358702546519
2012-02-29,0,0.0,0.0,-0.0026939600520030295,0.009258120883682656,0.9928338128034899
2012-03-02,0,0.0,0.0,-0.004159058266103825,0.007562815136421666,0.993791207605314
2012-03-06,1,0.0008734773124961354,0.0008785066160427546,-0.0026939600520030295,0.007562815136421666,0.9943151262133689
2012-03-08,0,0.0,0.0,-0.005151403922176374,0.0027528111081527593,0.9941904115660538
2012-03-12,0,0.0,0.0,-0.006562254118061256,0.0018484461552357389,0.9933279885321724
2012-03-14,1,0.001868502432929538,0.001971223510153975,-0.006562254118061256,0.0023717392517324807,0.9917961938776422
2012-03-16,1,0.0021181233922022433,0.00229255782361086,-0.006562254118061256,0.0023717392517324807,0.991113236186275
2012-03-20,1,0.0017410547560544947,0.0018421445725183747,-0.006562254118061256,0.009758852917434904,0.9908975147549535
2012-03-22,1,0.002201105334349838,0.0024260906952736448,-0.0070256611151835605,0.009758852917434904,0.990209102729188
2012-03-26,1,0.0019761917163392158,0.002133714258860442,-0.007695467823938202,0.007706205778101673,0.9899008569834001
2012-03-28,1,0.0015704721552033066,0.001651988635448691,-0.007057580389362709,0.008881365981370955,0.990391129592395
2012-03-30,1,0.0015013948929624267,0.0016042954377990034,-0.007908752696062886,0.008881365981370955,0.9906289956935329
2012-04-03,1,0.0014446916549349228,0.0015334508949849425,-0.007908752696062886,0.008881365981370955,0.9905517231765283
2012-04-05,1,0.0003143690717883122,0.0004144980826811612,-0.0067143300983670525,0.008881365981370955,0.9909497275749944
2012-04-10,-1,-0.0006065061017692048,-0.00040601547785386945,-0.001611069765941997,0.008881365981370955,0.9918349056133472
2012-04-12,0,0.0,0.0,-0.0065326079787877845,0.007210586314783244,0.9936923494355083
2012-04-16,0,0.0,0.0,-0.006979316843426442,0.006649187328744253,0.9930818736427179
2012-04-18,0,0.0,0.0,-0.006979316843426442,0.005587208633561709,0.9933007599635131
2012-04-20,0,0.0,0.0,-0.00754449226276965,0.004473766160815152,0.9929705704718454
2012-04-24,0,0.0,0.0,-0.006979316843426442,0.006654668574804723,0.991572765336973
2012-04-26,0,0.0,0.0,-0.006979316843426442,0.007474037548252786,0.9913119186143593
2012-04-30,0,0.0,0.0,-0.00665535426158456,0.008286216072560188,0.991160751857128
2012-05-02,0,0.0,0.0,-0.006979316843426442,0.00859698324386287,0.9902250552017446
2012-05-04,0,0.0,0.0,-0.009439034136091975,0.00859698324386287,0.9876102148740998
2012-05-08,0,0.0,0.0,-0.01410705078106915,0.00859698324386287,0.9871052297202059
2012-05-10,0,0.0,0.0,-0.01410705078106915,0.00859698324386287,0.9871611610186993
2012-05-14,0,0.0,0.0,-0.014019568056935338,0.00859698324386287,0.9876509411975855
2012-05-16,0,0.0,0.0,-0.014985277643723883,0.008286216072560188,0.9869177512845212
2012-05-18,-1,-0.0008340687624370886,-0.0006856053565967644,-0.01472282947132245,0.00859698324386287,0.9868805689550556
2012-05-22,1,0.0003722564187325015,0.0003920637810484196,-0.01472282947132245,0.008286216072560188,0.9876465379235849
2012-05-24,0,0.0,0.0,-0.01532776007793206,-0.002459435914668953,0.987417741846656
2012-05-29,0,0.0,0.0,-0.016005439673721217,-0.002459435914668953,0.9872348781041989
2012-05-31,0,0.0,0.0,-0.015362287269118846,-0.0005522286370940781,0.9878190054444075
2012-06-04,0,0.0,0.0,-0.014019568056935338,0.0037016682226702945,0.9891145618297097
2012-06-06,0,0.0,0.0,-0.008763246664072136,0.00863062435534329,0.9897403498892157
2012-06-08,-1,-0.0038224903416563235,-0.003340764125390523,-0.01164980995925847,0.00863062435534329,0.9898580029308429
2012-06-12,0,0.0,0.0,-0.007782300879133272,0.009959908987938368,0.9894706774230408
2012-06-14,0,0.0,0.0,-0.006327288983020247,0.009959908987938368,0.9907771369051184
2012-06-18,0,0.0,0.0,-0.006327288983020247,0.007887276139070048,0.9916774586987674
2012-06-20,-1,-0.0043979834032861955,-0.003728825152980189,-0.004372527503310302,0.007887276139070048,0.9904931742031654
2012-06-22,-1,-0.005874698023908718,-0.005008608924795608,-0.006498411697104078,0.007887276139070048,0.9902612905166833
2012-06-26,-1,-0.0064873243182615534,-0.005566291714007481,-0.006498411697104078,0.007887276139070048,0.9904311645338021
2012-06-28,0,0.0,0.0,-0.006498411697104078,0.011061350255859883,0.9902291351796108
2012-07-02,0,0.0,0.0,-0.00853688144889755,0.0070886000677874254,0.9910616207700258
2012-07-05,-1,-0.003450709965766792,-0.0029836763681891304,-0.00853688144889755,0.004546843772061029,0.991875263718275
2012-07-09,-1,-0.004168333359886152,-0.0036027149699812896,-0.007583551600991131,0.007531694945319118,0.991049320979228
2012-07-11,-1,-0.0036804678262974165,-0.003194337422296815,-0.007583551600991131,0.014106432063899749,0.9899213733999613
2012-07-13,-1,-0.0036927004657260716,-0.003194289503565268,-0.007583551600991131,0.014106432063899749,0.9893576625850109
2012-07-17,-1,-0.003871280694954063,-0.003360200669700569,-0.0062738558194893,0.014106432063899749,0.9892943859664305
2012-07-19,-1,-0.0035725095473004113,-0.0030656074789211685,-0.0062738558194893,0.014106432063899749,0.9888525483461273
2012-07-23,-1,-0.002592715055067631,-0.002258835894684703,-0.004965879502632381,0.014106432063899749,0.9895580394250517
2012-07-25,-1,-0.003049927018788201,-0.0026654894581299056,-0.003102173013508922,0.014106432063899749,0.9897747915540762
2012-07-27,-1,-0.0018736705563196796,-0.0016088400109136151,-0.003542393047982588,0.010985747809118731,0.9915849342041679
2012-07-31,-1,-0.002270964870260068,-0.0020036245820762035,-0.0023277544291366967,0.01215977247790007,0.9915140147943672
2012-08-02,-1,-0.0022461860973438737,-0.002016247211757841,-0.0016709136926756404,0.01215977247790007,0.9912971389584437
2012-08-06,0,0.0,0.0,-0.001248939347081609,0.01215977247790007,0.991144156328396
2012-08-08,0,0.0,0.0,-0.0019214251764666321,0.009198238811747595,0.992029267174018
2012-08-10,0,0.0,0.0,-0.003102173013508922,0.007383809993070933,0.9918543268917223
2012-08-14,1,0.0009591212763840417,0.0011831321976529406,-0.0019214251764666321,0.009198238811747595,0.991597774537447
2012-08-16,1,0.0025192323324807185,0.002981142539167668,-0.0032500270606527844,0.006565173677217218,0.9928679683185044
2012-08-20,1,0.0022027781225392737,0.002596185285654495,-0.0032500270606527844,0.006565173677217218,0.992928823336993
2012-08-22,1,0.0020856846693767237,0.002436670425196653,-0.003907055065994335,0.0069991648352716734,0.992324397254602
2012-08-24,1,0.002038396521402004,0.002383175849914443,-0.003389766341813893,0.0069991648352716734,0.9923418593398519
2012-08-28,1,0.002049909807560548,0.0023441863893641124,-0.003389766341813893,0.0069991648352716734,0.9920259085694032
2012-08-30,0,0.0,0.0,-0.002727569524397187,0.0068044420550222974,0.9924203834786226
2012-09-04,0,0.0,0.0,-0.003534579806726106,0.0029099132250646866,0.9939602469018287
2012-09-06,0,0.0,0.0,-0.002727569524397187,0.0029099132250646866,0.9941911671162195
2012-09-10,0,0.0,0.0,-0.002727569524397187,0.00098827532084336,0.9948339072368841
2012-09-12,1,0.012515670701460466,0.014591937657489182,-0.0038021556799572387,-0.0009936568200035534,0.984763975017647
2012-09-14,0,0.0,0.0,-0.0038536956968357006,-0.0007403229190289062,0.9951589638568703
2012-09-18,0,0.0,0.0,-0.0038536956968357006,-0.00036047540897383567,0.9951007076300852
2012-09-20,0,0.0,0.0,-0.003268563627630719,0.0010288652849550568,0.9951638906084742
2012-09-24,1,0.0046286045348791485,0.005354613828405197,-0.005832208890722628,0.0010288652849550568,0.9919009574480137
2012-09-26,1,0.004806223871577816,0.005516155325093935,-0.005832208890722628,0.0010288652849550568,0.9921864350808387
2012-09-28,1,0.004807247223053514,0.005541213125571249,-0.005832208890722628,0.002043918316669938,0.9922691338070665
2012-10-02,1,0.0040523918319484474,0.0046659953827183544,-0.0041774793944225255,0.005325502115096296,0.9900716797162261
2012-10-04,1,0.0038091965621354475,0.004346239024120338,-0.006868310293717045,0.003413680187175263,0.9884520402629805
2012-10-08,1,0.0038891464034789356,0.004476513603094258,-0.007866539348400153,0.007424128532559172,0.9880738583742211
2012-10-10,1,0.0025431632949677106,0.002890615176756871,-0.005832208890722628,0.011830336124322587,0.9882699190684707
2012-10-12,1,0.00318496639818492,0.0037244732133034203,-0.0045079523087030405,0.011830336124322587,0.9885888161174174
2012-10-16,1,0.003697442333188074,0.004349973694344092,-0.007866539348400153,0.011830336124322587,0.9873807857765932
2012-10-18,1,0.004631314024853832,0.005411815080583596,-0.007866539348400153,0.011830336124322587,0.9876436304067477
2012-10-22,0,0.0,0.0,-0.004932288575965964,0.012065377568819561,0.9871419355829296
2012-10-24,0,0.0,0.0,-0.0085294206606838,0.012065377568819561,0.9858725321558451
2012-10-26,0,0.0,0.0,-0.0085294206606838,0.01205264598763169,0.9861932390467538
2012-11-01,0,0.0,0.0,-0.0085294206606838,0.009669685250247962,0.9899423035021852
2012-11-05,0,0.0,0.0,-0.003214756794015166,0.009669685250247962,0.9912287622037037
2012-11-07,0,0.0,0.0,-0.003214756794015166,0.00876121320075262,0.9917951149589868
2012-11-09,0,0.0,0.0,-0.00124853130863708,0.006999551164415871,0.9929395083032663
2012-11-13,0,0.0,0.0,-0.0037461943146885213,0.0059900112625653175,0.9929504834351454
2012-11-15,0,0.0,0.001196940402364133,-0.00124853130863708,0.00876121320075262,0.9938404222876012
2012-11-19,0,0.0,0.0,-0.00124853130863708,0.008123705826853393,0.9936744338968478
2012-11-21,1,0.002334841294315202,0.0023701926978736292,-0.003737887251483314,0.004978420805684251,0.9942622506440946
2012-11-26,1,0.002389234769901905,0.0025057326637292193,-0.005228575140880285,0.004463704247165348,0.9948767326016968
2012-11-28,0,0.0,0.0,-0.005917644004679534,0.004463704247165348,0.9946386584795017
2012-11-30,0,0.0,0.0,-0.0060194283072494085,0.004463704247165348,0.9937211913537396
2012-12-04,1,0.0017979473561181994,0.0018020547302323353,-0.00649315440305874,0.004467013264188637,0.9918831169813263
2012-12-06,1,0.0012733609000259167,0.0013408240289293973,-0.0060194283072494085,0.007937813578339871,0.9916881806094624
2012-12-10,1,0.0010181357112740517,0.0011436848271535473,-0.00649315440305874,0.008364144416425343,0.9906314437823242
2012-12-12,1,0.0012237595330024781,0.0012826125762083126,-0.00649315440305874,0.010094227011527016,0.9898434533287921
2012-12-14,1,0.0005906486766390127,0.000775667198559911,-0.006237643874580364,0.008827052852720854,0.9902131271960013
2012-12-18,1,8.379372006135806e-05,0.0003826609389947106,-0.0076167882287288295,0.008823113400904104,0.9899358141685877
2012-12-20,1,0.0006088664341227009,0.0007856071238756196,-0.0076167882287288295,0.008823113400904104,0.990021556125962
2012-12-24,-1,-0.0011549346108712857,-0.0007121125611539905,-0.003217171928869565,0.008966398381965309,0.9899949440396842
2012-12-27,-1,-0.0021405727087369358,-0.001549885788335867,0.0018550356563278962,0.013236475254028462,0.987953375268177
2012-12-31,-1,-0.0019452140704838829,-0.0014038891755093212,0.0012993572853982295,0.012061623479183456,0.9890547314496891
2013-01-03,0,0.0,0.0,0.0012993572853982295,0.012061623479183456,0.9884633331243046
2013-01-07,0,0.0,0.0,-0.0021773384102067974,0.015371423671318961,0.9878487312149176
2013-01-09,0,0.0,0.0,-0.0021773384102067974,0.011118856256561003,0.9882319299699147
2013-01-11,0,0.0,0.0,-0.00340099647211319,0.0070050257939709756,0.9892919335011418
2013-01-15,0,0.0,0.0,-0.004421830619505886,0.006750324558204464,0.9892707079715426
2013-01-17,0,0.0,0.0,-0.00340099647211319,0.008738962212235687,0.9891428248289316
2013-01-22,1,0.0018202934000410085,0.001894713957571855,-0.004798167511970497,0.008738962212235687,0.9879655968251065
2013-01-24,1,0.0023974415711462823,0.0025804630688809906,-0.006000654161606365,0.006840215848181822,0.9873869991207876
2013-01-28,1,0.003739771129986382,0.004093922425605515,-0.006000654161606365,0.003714448587103817,0.9883905335037206
2013-01-30,1,0.004134220509368338,0.004638058201218867,-0.007465056623134747,0.005945659596241344,0.9864128743174192
2013-02-01,1,0.005411081183334036,0.006006904739266341,-0.010899694956427172,0.003714448587103817,0.9875222976282269
2013-02-05,1,0.005074296759688785,0.005611493885651543,-0.010899694956427172,0.003439560820943698,0.9887525700492897
2013-02-07,1,0.004382059396570045,0.004858585645354397,-0.010899694956427172,0.003439560820943698,0.9873706466241111
2013-02-11,1,0.004353921883610711,0.004802555811622363,-0.010899694956427172,0.004771221951930384,0.9871285920925208
2013-02-13,1,0.004033172185216873,0.0044234601431768095,-0.010899694956427172,0.006838732668876712,0.985382899841025
2013-02-15,1,0.004105988983891771,0.0044826996504202235,-0.010899694956427172,0.005068912976142173,0.9856465081395855
2013-02-20,1,0.0027803673425637757,0.00295320771114279,-0.006654361493015269,0.006838732668876712,0.9873417650113984
2013-02-22,1,0.0024922752168981548,0.002642325117924362,-0.006654361493015269,0.007093709532709758,0.9870314345631213
2013-02-26,1,0.002322211590223045,0.002428654462031085,-0.006654361493015269,0.006937459567853318,0.9873201269914514
2013-02-28,1,0.0016156301881512071,0.0016270364962992722,-0.004516070415641236,0.005652133320023883,0.9893481639846323
2013-03-04,1,0.0005392645129057031,0.0006780608602141901,-0.006241761801717378,0.005652133320023883,0.9892881450058204
2013-03-06,1,0.0003191239966210853,0.0005039456675147666,-0.00809349579922464,0.006937459567853318,0.988560261574819
2013-03-08,-1,-0.0021743366084166485,-0.0016620062110753358,-0.004455379648671748,0.006937459567853318,0.990482993888246
2013-03-12,-1,-0.0020339518222646214,-0.0015201449503789595,-0.004063714466661743,0.006937459567853318,0.9902326668693446
2013-03-14,0,-0.000119958779536424,0.0001702367219646898,-0.006231604854222193,0.004176075443171874,0.9930867794270379
2013-03-18,1,0.00018915050730280156,0.0004120791801790832,-0.007650425265441191,0.0058029435406193024,0.9909938899239781
2013-03-20,0,-0.00020392919099115534,9.928632477838309e-05,-0.011841275983534152,0.003345520837869188,0.9900550284157004
2013-03-22,-1,-0.0008238436831376162,-0.00044606155711831414,-0.008686457835712317,0.006145810325325074,0.989690795545313
2013-03-26,-1,-0.0006907584037679287,-0.0003364848999913142,-0.008686457835712317,0.00969411256644816,0.9887031630832954
2013-03-28,1,0.0012774451299441025,0.0013122500045727394,-0.008686457835712317,0.012520854255612173,0.987962626526261
2013-04-02,-1,-0.0003218563017045456,-9.55366614938327e-05,-0.003931633886158692,0.012520854255612173,0.988188403643161
2013-04-04,-1,-0.000778056670579691,-0.0004963058075828295,-0.002213438401854004,0.012520854255612173,0.9890636235814708
2013-04-08,-1,-0.00048420983361359383,-0.00027108509774286655,-0.0009527003565905083,0.012520854255612173,0.9892592212552916
2013-04-10,1,0.000319075900481755,0.0004359749434230721,-0.0033041226988667857,0.010495170669503546,0.990107249248848
2013-04-12,-1,-0.0008522527770703218,-0.0005518237383617284,-0.0001465020300157316,0.012520854255612173,0.9890797688293391
2013-04-16,-1,-0.0007971654003794047,-0.0005329388930366131,0.00021196954795782728,0.012520854255612173,0.990124527791863
2013-04-18,-1,-0.0020768110966519152,-0.0017100684383460061,0.0004943141898095125,0.012520854255612173,0.9903321657414937
2013-04-22,-1,-0.0009007803736451183,-0.0006431247441789416,0.00021196954795782728,0.011697982238180247,0.989959161426393
2013-04-24,-1,-0.00019573562745897892,-2.245051170581599e-05,-0.0009413622142234173,0.010220879997026236,0.9909806451695696
2013-04-26,1,0.0003942850827152303,0.0004872796175626072,-0.0009413622142234173,0.009328236723580883,0.9915104178411852
2013-04-30,1,0.0010258452281923223,0.0010393205643932954,-0.004588626541907097,0.009033071651793326,0.9912020022692491
2013-05-02,1,0.0007796424843383221,0.0008458765305162106,-0.007455779797874223,0.009033071651793326,0.9879076033611606
2013-05-06,1,0.0008801950805744591,0.0009370753539066743,-0.007455779797874223,0.011801087193743513,0.985734086681513
2013-05-08,1,0.0004214467550651954,0.0005629661700995845,-0.00938875010710116,0.011801087193743513,0.9846471423420006
2013-05-10,1,0.0009911080555748857,0.001118461531048473,-0.011718837308894094,0.007150888290697155,0.9824143885155578
2013-05-14,1,0.002158737682213019,0.0021803158763677452,-0.021793342851451836,0.0016280446244499752,0.9806620582695018
2013-05-16,1,0.0015095896759661788,0.0015796787046427558,-0.021793342851451836,0.0024524808326651703,0.9804851964951707
2013-05-20,0,0.0,0.0,-0.014392737953031073,0.0069153242622881,0.9828276553222768
2013-05-22,0,0.0,0.0,-0.016752654758722035,0.0069153242622881,0.9823672099254599
2013-05-24,1,0.0001396782854006871,0.000305599700286387,-0.021793342851451836,0.000754549797796733,0.9811542874203664
2013-05-29,1,0.00022473717695675955,0.0003655717368630744,-0.021793342851451836,0.004214026454915608,0.9818896975729524
2013-05-31,0,-9.511704799935176e-05,6.377785869383907e-05,-0.016752654758722035,0.0070923450686661855,0.9847057649364763
2013-06-04,1,0.0005409673142364788,0.0006298906423786845,-0.016752654758722035,0.0070923450686661855,0.9858779040987058
2013-06-06,0,0.0,0.0,-0.011087055609155782,0.010961631750273983,0.9864819980133461
2013-06-10,0,0.0,0.0,-0.0074921675498216805,0.010961631750273983,0.9893777616178185
2013-06-12,0,0.0,0.0,-0.005288711444116098,0.010961631750273983,0.9906600849816651
2013-06-14,0,0.0,0.0,-0.001931001241627496,0.010391410036094898,0.9911773909270423
2013-06-18,0,0.0,0.0,-0.007474791168262366,0.008191429130972521,0.9900338184150957
2013-06-20,1,0.0005546489913304997,0.0006027883046310313,-0.0033009600215930203,0.008191429130972521,0.9909598946738846
2013-06-24,-1,-0.0008034777688143734,-0.0005895092384398573,-0.0007812303059209637,0.008191429130972521,0.9916508210179978
2013-06-26,1,0.0007851635776728205,0.0008852065914220129,-0.0026091107983777103,0.008191429130972521,0.9923084849984826
2013-06-28,1,0.001549561890327699,0.001790852544443398,-0.0042175464910517236,0.0057928943729139044,0.9926678399499886
2013-07-02,1,0.0019111642967729178,0.0021723434769478325,-0.0042175464910517236,0.0057928943729139044,0.9928502200989028
2013-07-05,1,0.0024032574917517303,0.0027194533336699304,-0.0042175464910517236,0.0057928943729139044,0.9926806585985607
2013-07-09,1,0.0024632532831768816,0.002778488863542583,-0.005080917685109497,0.0057928943729139044,0.9918092155218016
2013-07-11,1,0.0027067371324635903,0.003086907158878411,-0.005080917685109497,0.0057928943729139044,0.9918542759472166
2013-07-15,1,0.0023457652323131744,0.0025994696628984623,-0.005080917685109497,0.0056920068974853875,0.9918708022888238
2013-07-17,1,0.0023004779454590314,0.0025122244442452877,-0.004967843136618863,0.005290297804483842,0.9938805069800827
2013-07-19,1,0.0019281730448012725,0.002090570373314354,-0.004967843136618863,0.005290297804483842,0.9934408985274333
2013-07-23,1,0.0016821792212559773,0.0017891626214244622,-0.004967843136618863,0.0056920068974853875,0.9934789512001595
2013-07-25,1,0.0010190919538158162,0.0010412961883389678,-0.005205331461272429,0.007034048885576518,0.9930237191836263
2013-07-29,1,0.0006361357328319612,0.0007091504815055847,-0.005205331461272429,0.007034048885576518,0.9930119887311171
2013-07-31,0,-0.00010399299298019852,0.00014496249012659437,-0.006097429069584951,0.0056920068974853875,0.9927420430614112
2013-08-02,1,0.0007269654040544676,0.0008682422133455352,-0.008201095677746855,0.003850090062098125,0.9929440894142444
2013-08-06,1,0.0012774862822671235,0.0013283753167988356,-0.006097429069584951,0.0056920068974853875,0.9931251473610201
2013-08-08,1,0.0012913631038290437,0.0013528837694441848,-0.005205331461272429,0.0056920068974853875,0.9932470633470768
2013-08-12,1,0.0016724084891861055,0.0017788776145180553,-0.005205331461272429,0.008361892727146093,0.9921266579109129
2013-08-14,1,0.001221214861501624,0.0012488584648241785,-0.004413662550902619,0.008361892727146093,0.9922740572080974
2013-08-16,1,0.0005187623046493937,0.0005698709225773933,-0.003930138126064965,0.008361892727146093,0.9931618293004546
2013-08-20,1,0.0006694403505376512,0.0007099462591092568,-0.004227060740307983,0.008905769204684489,0.9928529505244093
2013-08-22,1,0.00036476725392829744,0.0004808827673654138,-0.004227060740307983,0.008905769204684489,0.9926523609914741
2013-08-26,0,-0.00017689391078786517,6.672910077523426e-06,-0.004227060740307983,0.011232667920077141,0.9918663884043466
2013-08-28,-1,-0.0011168735745203297,-0.0008106771836104455,-0.004227060740307983,0.011232667920077141,0.9883337164685968
2013-08-30,-1,-0.0011863132188894582,-0.0009069874348930405,-0.003930138126064965,0.012402789007361904,0.9876428464383754
2013-09-04,-1,-0.0010819833898307553,-0.0008230760703870927,-0.003930138126064965,0.015041718177828001,0.9860590397703719
2013-09-06,-1,-0.0010593203278927983,-0.0007803456589582339,-0.002995229523000289,0.015041718177828001,0.9867916682112249
2013-09-10,-1,-0.0005410305524373707,-0.0002453131928634336,-0.005386153216453472,0.01078004220520426,0.987018368093424
2013-09-12,0,-1.6664373115921408e-05,0.00014442577072485297,-0.005386153216453472,0.011464377458108802,0.986508785877948
2013-09-16,1,0.0003819520952096159,0.0004460616530730729,-0.005386153216453472,0.011464377458108802,0.9858722284008516
2013-09-18,1,0.0008056643675422541,0.0008138184072468106,-0.007371295153507985,0.011126548264465356,0.9857171159590676
2013-09-20,1,0.0013207143341848887,0.001431228500704289,-0.004117794035641959,0.009342665773463365,0.9864670869087615
2013-09-24,1,0.001641541717611318,0.0017958351306998424,-0.003515414006547479,0.009057472912125043,0.9869604674092535
2013-09-26,1,0.0015721888932239908,0.0017164840977877693,-0.003515414006547479,0.009057472912125043,0.9908907569962573
2013-09-30,1,0.0021734328938969208,0.0023801138652955367,-0.003515414006547479,0.007309954907847003,0.9918885556564272
2013-10-02,1,0.004048117847692498,0.004544223747782529,-0.006329612694510831,0.004929071742349494,0.99250916274673
2013-10-04,1,0.004283292637534928,0.004859360476016834,-0.007796130375730903,0.004929071742349494,0.9920585708222633
2013-10-08,1,0.003155856216214974,0.0035672998829063465,-0.005359458857030286,0.005215345990761628,0.9932901660579019
2013-10-10,1,0.00386684169534623,0.004393752792348649,-0.007796130375730903,0.005215345990761628,0.9923839631255421
2013-10-14,1,0.004076335823127308,0.004582010281387808,-0.007796130375730903,0.004712159234931009,0.9922983230095089
2013-10-16,1,0.003657685078028417,0.004133812443658923,-0.005359458857030286,0.004712159234931009,0.9931957633605806
2013-10-18,1,0.0037564898710067017,0.004230033181441436,-0.005359458857030286,0.006903726640136467,0.9924900696933597
2013-10-22,1,0.003044674194580265,0.0033386393340050727,-0.007796130375730903,0.006903726640136467,0.9919432964977011
2013-10-24,1,0.003158443846177396,0.0035432716396623784,-0.004026373886060976,0.00753845676708305,0.9923318146248578
2013-10-28,1,0.00264217040244578,0.002890377632624749,-0.007707790496015059,0.00753845676708305,0.9918118248638377
2013-10-30,1,0.0012922955629058896,0.0014066838118208594,-0.004026373886060976,0.009768429101976922,0.9898048561850217
2013-11-01,-1,-0.0002046184236487646,-4.571878420100051e-05,-0.0010360203044278635,0.009857767244099355,0.9893251561193035
2013-11-05,-1,-0.0005248219768769113,-0.00034873181181211625,0.0007984279535846042,0.013425645228673077,0.989232150446399
2013-11-07,-1,-0.0005627434695422284,-0.00042693395090392103,0.0007984279535846042,0.013845058827748252,0.9896474118397374
2013-11-11,-1,-0.0008550148426188307,-0.0006412012083305025,-0.0025075767537712313,0.013845058827748252,0.9896650596703086
2013-11-13,-1,-0.0016814115709477867,-0.001312873032720642,-0.003508916963710056,0.013845058827748252,0.9896036097753677
2013-11-15,-1,-0.0004556952274969516,-0.00024412511256289605,-0.003508916963710056,0.011114704610305653,0.9905252615037777
2013-11-19,-1,-0.0003560393126526457,-0.00017209386547065533,-0.002874519904067006,0.011130607006631583,0.9910689052999901
2013-11-21,1,0.0003276394008842826,0.0003985908552382511,-0.003508916963710056,0.011130607006631583,0.9909356427306963
2013-11-25,1,0.000201780410123976,0.0002572033878622088,-0.002874519904067006,0.011130607006631583,0.9910151971368256
2013-11-27,1,0.0022806311377084583,0.002499282858358807,-0.002874519904067006,0.008482678578370402,0.9938696917784172
2013-12-02,1,0.002382734489053261,0.0026102026838245784,-0.002874519904067006,0.008303277783011227,0.9940946978782351
2013-12-04,1,0.003149363788968973,0.003495777641048273,-0.003508916963710056,0.006642928813396561,0.9939748457541651
2013-12-06,1,0.0034964640213042105,0.003908794398693938,-0.002874519904067006,0.004086378759860501,0.9945011949656601
2013-12-10,1,0.002673326999679323,0.0029573580729575404,-0.002999101377674478,0.004086378759860501,0.994976129038155
2013-12-12,1,0.002310327155265666,0.0025448921003794183,-0.002999101377674478,0.006308875369952246,0.994626911110142
2013-12-16,1,0.00257813405519553,0.0028328352474101736,-0.003580759376552174,0.006308875369952246,0.9943446678557109
2013-12-18,1,0.002747693052887366,0.003005476057324364,-0.00394182912049019,0.0029604218449644625,0.9944866328477697
2013-12-20,1,0.0024713546077562254,0.0027081944052378248,-0.003580759376552174,0.006308875369952246,0.9948735328081242
2013-12-24,1,0.003155486348056755,0.0035255797048378726,-0.005253807222379283,0.0048827968571344155,0.9925591449127747
2013-12-27,1,0.0029864149260766856,0.0032987697092061183,-0.005253807222379283,0.0025543972289603168,0.9923475966471589
2013-12-31,1,0.0031797688050465398,0.0035057021557086516,-0.0066345219002219066,0.002151666301210173,0.9917232146569963
2014-01-03,1,0.002826551965651891,0.0031301168706620378,-0.00781643602518996,0.002151666301210173,0.9896319823502787
2014-01-07,1,0.002659887767605189,0.0029189476617238444,-0.008832654049747578,0.005090801521939807,0.9883186385748413
2014-01-09,1,0.0018107856671315012,0.0019057743863869943,-0.008832654049747578,0.00851519911697717,0.9881947091751316
2014-01-13,1,0.0015347555540868398,0.001603496426295821,-0.00781643602518996,0.009071036439954808,0.9883850613989272
2014-01-15,1,0.0017253262966391999,0.0018258894114073119,-0.00781643602518996,0.00892697913521399,0.9888178730343231
2014-01-17,1,0.001199491193252888,0.0012095685813117976,-0.010388744177131568,0.00892697913521399,0.987816193674257
2014-01-22,1,0.0011716708520799887,0.001206410593309577,-0.010388744177131568,0.009145783396094289,0.987802283026356
2014-01-24,-1,-0.0013067365767903307,-0.0009499329532359547,-0.00781643602518996,0.011748424496529148,0.9883442357551114
2014-01-28,-1,-0.001446278374895927,-0.0010856617057115605,-0.00781643602518996,0.011748424496529148,0.9879072157127854
2014-01-30,-1,-0.0014710048536775693,-0.001108555578859736,-0.00506348489338788,0.013488041665080686,0.987309274464647
2014-02-03,-1,-0.003301753993556165,-0.002787443524519709,-0.0003970370423869374,0.013488041665080686,0.988074451692874
2014-02-05,-1,-0.0027919046917466734,-0.002336718146358709,0.0010368440777080324,0.013110595410777203,0.9893483833359223
2014-02-07,-1,-0.001909229080967566,-0.0015490096794016702,0.0004073966172481303,0.010895795046902166,0.9909891310062378
2014-02-11,-1,-0.0010566320396936234,-0.0008050073669295131,-0.001679147715122749,0.008513050017856238,0.9919135940956596
2014-02-13,-1,-0.0007513255508758631,-0.0005461475234091347,-0.0050344650363988944,0.008513050017856238,0.991435208043661
2014-02-18,-1,-0.0017802602597363167,-0.0014725443603931937,-0.0006273269138465304,0.009651846849695663,0.9912544625665446
2014-02-20,-1,-0.0017116475196024316,-0.0013418302008001773,-0.0008945610760556744,0.008687978266889041,0.9921704323635427
2014-02-24,1,4.834015026836759e-05,0.0001587345908445482,-0.0018883646102229538,0.008071033215093207,0.992756235827209
2014-02-26,1,0.0009613815938180931,0.001031831535127386,-0.0026807051191976715,0.006260752838586674,0.9918385732771817
2014-02-28,1,0.0016297997483627653,0.0017812810049198553,-0.0026807051191976715,0.006260752838586674,0.9921819664579076
2014-03-04,1,0.0009952700889244573,0.0010054241875832935,-0.0008945610760556744,0.006260752838586674,0.9925581604457518
2014-03-06,1,0.001345677100575959,0.0013962886211984506,-0.0008945610760556744,0.00864587177023597,0.992139360329419
2014-03-10,1,0.0015427832408760529,0.0016484356861367492,-0.0066317409426995865,0.00864587177023597,0.9910663918094381
2014-03-12,1,0.0005827844152796312,0.000630195426351212,-0.001975255045865525,0.00934443644699521,0.990693834861582
2014-03-14,-1,-0.00038930732523786125,-0.00022626691392531133,-0.0061333406411490255,0.00934443644699521,0.9894226569843358
2014-03-18,1,0.0005990761658670582,0.0006520286507942955,-0.0061333406411490255,0.008224706245286966,0.9901404633654887
2014-03-20,1,0.00015354677926211502,0.0002763724320553318,-0.0061333406411490255,0.011793890460246157,0.9889408667865599
2014-03-24,1,0.00011480501628319338,0.00023093972591421437,-0.0027917452323677015,0.009817655352201438,0.9901924502944979
2014-03-26,-1,-0.0010835652543944837,-0.0007991094920474294,-0.0027917452323677015,0.009817655352201438,0.9907328715039452
2014-03-28,-1,-0.0008822812184360675,-0.000597203954203586,-0.005185153685658841,0.008224706245286966,0.9909146283692352
2014-04-01,-1,-0.0006358424794729683,-0.0003489230370707321,-0.005185153685658841,0.008224706245286966,0.9911687999175763
2014-04-03,-1,-0.0006010033190746631,-0.0002815319818181227,-0.005185153685658841,0.008475717881367747,0.9911709861497314
2014-04-07,-1,-0.0014868882730900961,-0.001081553061192255,-0.0033872126480320804,0.008475717881367747,0.9912846432683596
2014-04-09,-1,-0.0006088297863203174,-0.00030597394831564624,-0.0034007644886841866,0.0032890567660153617,0.9926304403805888
2014-04-11,-1,-0.0019611670464272754,-0.0015567506294130195,-0.0013936740391515127,0.00693824770141086,0.9933058773809099
2014-04-15,-1,-0.0020780841297793782,-0.001656230153564451,-0.0031512315316239536,0.00693824770141086,0.9924803786667722
2014-04-17,-1,-0.000757831953209768,-0.0005067948890016844,-0.005459372414118518,0.004971498161405377,0.9936716230254119
2014-04-22,-1,-0.001244378055079443,-0.0009066543442625703,-0.006222957061471279,0.005666200438119179,0.9921887797494827
2014-04-24,-1,-0.0004325590155807266,-0.000313150962239818,-0.005459372414118518,0.00588352148324138,0.9922664538979978
2014-04-28,-1,-0.0003413788866875893,-0.00023931850914410847,-0.002979880968193111,0.007142197840156829,0.9920793359028146
2014-04-30,1,0.0005756949402053685,0.0006294655683213032,-0.008154543383543753,0.00588352148324138,0.9903802619904839
2014-05-02,1,0.00043960007590524883,0.0005544715170625303,-0.008154543383543753,0.00588352148324138,0.9904329201152416
2014-05-06,-1,-0.0005175757020611834,-0.0004856785020669103,-0.00700461642994182,0.007337060412520299,0.9900001869365432
2014-05-08,-1,-0.0006722418734941292,-0.0005991933446220515,-0.00700461642994182,0.011289704163247434,0.9891744940035425
2014-05-12,1,0.00039100619509549147,0.0004813462335905727,-0.007264852269481791,0.007337060412520299,0.9899708078134309
2014-05-14,-1,-0.00038920514297964055,-0.00037399501786260095,-0.007264852269481791,0.007337060412520299,0.9902147475766336
2014-05-16,-1,-0.0005552766590179205,-0.0005311713797652379,-0.007264852269481791,0.007337060412520299,0.9904867820594517
2014-05-20,-1,-0.00018398512596287146,-0.0001368170705698324,-0.005984444727287125,0.007231876815188387,0.9915685596205432
2014-05-22,1,0.00048243753461751145,0.0006341836000423547,-0.007724215374909853,0.0051414985498204405,0.9908855221035625
2014-05-27,1,0.0013286605599048072,0.001619582866119503,-0.007724215374909853,0.0024905024638778458,0.991299247839611
2014-05-29,1,0.00033765026443856615,0.00047414424847237805,-0.005984444727287125,0.003678231766556151,0.9934424353382095
2014-06-02,1,0.0008975879496874482,0.0011140979786206564,-0.005984444727287125,0.004551557664428583,0.9930803604239906
2014-06-04,1,0.0008629162955260279,0.001051379668485065,-0.005984444727287125,0.004551557664428583,0.9932360907695378
2014-06-06,1,0.001266806407371193,0.0014902290467212382,-0.005984444727287125,0.00438016159280583,0.9936171036505128
2014-06-10,1,0.001182110601062859,0.001408246340449037,-0.005835895072204293,0.00438016159280583,0.9938090133816113
2014-06-12,1,0.0002560345776653445,0.00033548210202167,-0.004021549877507917,0.00438016159280583,0.9935527537257597
2014-06-16,1,0.000708193321151768,0.0008849167204608585,-0.005450851938938562,0.004908146880585176,0.9932355511885196
2014-06-18,1,0.00016924588736829744,0.00017394313961584333,-0.007750680185244941,0.00438016159280583,0.9924579340871678
2014-06-20,-1,-0.0013155309996741014,-0.0011273899825536967,-0.0063632379771235625,0.004908146880585176,0.9928450240794897
2014-06-24,-1,-0.0014390282070628605,-0.0012241903012957275,-0.0063632379771235625,0.00523267251783319,0.9927115670019944
2014-06-26,-1,-0.0027085996346974534,-0.0022449372854637367,-0.008537385298064139,0.004844926021378428,0.9922574519153327
2014-06-30,-1,-0.0013414786391531077,-0.0010606545671815802,-0.010507719225561214,0.003969924876138485,0.9926737917552093
2014-07-02,-1,-0.0009684661302822292,-0.0007789884504923219,-0.011552951621987424,0.0034390968757419607,0.992622970111783
2014-07-07,-1,-0.0005789243876783858,-0.00048263319755094045,-0.011552951621987424,0.0033389019876128075,0.992863913153713
2014-07-09,-1,-0.00011930974423703109,-8.34131858375495e-05,-0.011552951621987424,0.0034001325368086185,0.9927345945241699
2014-07-11,-1,-0.002028278250052239,-0.001697368015945798,-0.008841051875750858,0.0040781000885544896,0.9932060417377491
2014-07-15,-1,-0.001545130045585694,-0.0013081863619928981,-0.008841051875750858,0.0034001325368086185,0.9934453497585332
2014-07-17,-1,-0.0020314031063018794,-0.0018021507064755527,-0.006594059144942839,0.0034001325368086185,0.9941949960509199
2014-07-21,-1,-0.0015647487465043697,-0.0013915679838697253,-0.005643773864781132,0.004054380225728569,0.9943008403242776
2014-07-23,-1,-0.0006366152008055194,-0.000624720881150744,-0.005643773864781132,0.0034001325368086185,0.9945078993429995
2014-07-25,-1,-0.0009703884892268621,-0.0009203314685812826,-0.004174474870860147,0.0027992716471184897,0.9949227484648927
2014-07-29,-1,-0.0016790337543248464,-0.0015629076211001944,-0.004174474870860147,0.0037401965306733493,0.9948649198584996
2014-07-31,-1,-0.0025773972557938995,-0.0023611532601454256,-0.0011890946373263743,0.004331640308987588,0.9949239199219497
2014-08-04,-1,-0.002684347491831319,-0.0024243603223301226,-0.0011890946373263743,0.004536175535478902,0.9947915243303884
2014-08-06,-1,-0.0029175608517805034,-0.002581089297009954,-0.004174474870860147,0.004152174751706301,0.9942656550776667
2014-08-08,-1,-0.002413077848268095,-0.0021765728737895918,-0.004174474870860147,0.003245909161385995,0.9944649873404326
2014-08-12,-1,-0.002515202972342171,-0.002266992846821324,-0.0018405975323941245,0.004152174751706301,0.9940796772875714
2014-08-14,-1,-0.0024890833329537154,-0.002243141616869467,-0.004286809300234397,0.004152174751706301,0.9938544304903169
2014-08-18,-1,-0.002164172858417116,-0.0019052146703803633,-0.004286809300234397,0.003686937012591351,0.9942542111334478
2014-08-20,-1,-0.0015165137185788082,-0.0013621032235340588,-0.004286809300234397,0.004152174751706301,0.9941249841816997
2014-08-22,-1,-0.0011731523395124472,-0.0010985587162228134,-0.008075760513785423,0.004152174751706301,0.9936031199979339
2014-08-26,-1,-0.0007267472251651574,-0.0006845826543298975,-0.009058230804911298,0.003686937012591351,0.991478964325084
2014-08-28,-1,-0.0007163224267511636,-0.0006787344831878564,-0.009058230804911298,0.003113556051291157,0.9914218948295053
2014-09-02,1,8.35445073800631e-05,0.00020468585569087132,-0.009058230804911298,0.003113556051291157,0.9908092863636765
2014-09-04,-1,-0.002172635273342117,-0.0019645203119869024,-0.008075760513785423,0.004745939757927073,0.9916503102015408
2014-09-08,-1,-0.002284783524629853,-0.0020659422134770627,-0.0072415250185535835,0.006849449781907317,0.9917122666985796
2014-09-10,-1,-0.001009102674749852,-0.0009777297031457071,-0.008666499828393355,0.006849449781907317,0.9908437274679541
2014-09-12,-1,-0.0014489100412218782,-0.0013646829689268045,-0.008626059037581301,0.006849449781907317,0.9907724440555484
2014-09-16,-1,-0.001246124626402828,-0.0011605121014266928,-0.010937690809403837,0.006849449781907317,0.9892658578149932
2014-09-18,-1,-0.0008874536154943877,-0.0008444165893920426,-0.010937690809403837,0.006849449781907317,0.9889280872275875
2014-09-22,-1,-0.0014522031877547388,-0.0013636351198703682,-0.007860453332844778,0.008404858404654034,0.9887956769820788
2014-09-24,-1,-0.002131051971825519,-0.0019891422061547553,-0.004859938014538134,0.00963061042097959,0.9903573582910562
2014-09-26,-1,-0.0027505975221258456,-0.002513171764309296,-0.004047153434592099,0.013038198304805635,0.989411486201096
2014-09-30,-1,-0.0025254518029934523,-0.0023124971261993424,-0.004047153434592099,0.014774421581734701,0.9883074898008273
2014-10-02,-1,-0.0016227963249431398,-0.001554236951411912,-0.004211312345866284,0.015251372201186284,0.9882202527219363
2014-10-06,-1,-0.0019342248880303455,-0.0017709909499949296,-0.004211312345866284,0.015251372201186284,0.9885690580395589
2014-10-08,-1,-0.002034215859895273,-0.0018636274285472245,-0.004052427349424655,0.015251372201186284,0.9893072847029509
2014-10-10,-1,-0.002286687092711423,-0.00209413293201352,-0.0021170473385235416,0.015251372201186284,0.9886743906919164
2014-10-14,-1,-0.002463240950603194,-0.0022829473041051864,-0.0021170473385235416,0.014679156520923605,0.990112074047319
2014-10-16,-1,-0.0012362618803865545,-0.0012318234176054007,-0.0026190506201692284,0.013686589650850971,0.9913627911272477
2014-10-20,-1,-0.0015137918990684716,-0.0014213814951830298,-0.0026190506201692284,0.011063664171934924,0.9923518819679958
2014-10-22,-1,-0.0004165494749823681,-0.00033996939876384494,-0.0036471880394955136,0.009563006191744416,0.9927884196672276
2014-10-24,1,0.00046402284059745495,0.0006652073527142037,-0.0036471880394955136,0.006288627673616791,0.9934069650686365
2014-10-28,1,0.001311025062838856,0.0016748646744615403,-0.0026190506201692284,0.006697666472287575,0.9927148548122848
2014-10-30,1,0.0014763624044067157,0.0018717900852493717,-0.002567462220168888,0.00559241551620894,0.9932970362335098
2014-11-03,1,0.0010591448899560769,0.0013576641318891157,-0.002567462220168888,0.00559241551620894,0.9932435500935594
2014-11-05,1,0.0013862374918125766,0.0017369684939114063,-0.002117529244999003,0.005801617034648385,0.9928037261636603
2014-11-07,1,0.002427807037113149,0.0029535616027160493,-0.002567462220168888,0.005801617034648385,0.9926988828826143
2014-11-11,1,0.002019793673326057,0.002419888775227424,-0.002567462220168888,0.005585474937037493,0.9922965946675902
2014-11-13,1,0.0017831342966993105,0.0021505851629244456,-0.0035277577458200917,0.005585474937037493,0.9919101801889447
2014-11-17,1,0.0018375690399092682,0.0022228324326778303,-0.00484521393603753,0.005585474937037493,0.9912976357245985
2014-11-19,1,0.002346824655239578,0.0028552025203610895,-0.004355588474916853,0.006218176202980433,0.9909776085100601
2014-11-21,1,0.0025846860246896896,0.0031206821743155182,-0.004355588474916853,0.006218176202980433,0.990671951395717
2014-11-25,1,0.004159051779768207,0.004905701535710847,-0.004355588474916853,0.005585474937037493,0.9924825663455806
2014-11-28,1,0.004397853283980593,0.005194253538373673,-0.004355588474916853,0.006185247478874388,0.9922713251680615
2014-12-02,1,0.0038193526662628676,0.004494654085796128,-0.004952965673393728,0.006185247478874388,0.9919657221571617
2014-12-04,1,0.00507170077756314,0.005917819330508719,-0.006300525713787299,0.002736357030457048,0.9912795533349931
2014-12-08,1,0.004651755319581069,0.00536482242905483,-0.008581133074916945,0.0026177444358935413,0.9915248751172109
2014-12-10,1,0.003870485117725719,0.004491860584047183,-0.006300525713787299,0.0031902906575623615,0.9926102483849022
2014-12-12,1,0.0033151486055512346,0.0038742024235663896,-0.005993240689225334,0.0031902906575623615,0.9927977996464067
2014-12-16,1,0.002379888948874743,0.002790166379844262,-0.006276184554968545,0.0031902906575623615,0.9932678651166053
2014-12-18,1,0.0027646889516111405,0.0031719081543392664,-0.006276184554968545,0.0018397169728064206,0.9935628932577691
2014-12-22,1,0.0020808328927763107,0.0023323442281009557,-0.006276184554968545,0.0031902906575623615,0.9923715310819912
2014-12-24,1,0.0023920914390726782,0.0026837857053724997,-0.006276184554968545,0.0076857399347788034,0.9917180871921911
2014-12-29,1,0.002541798103714118,0.0028662743194112442,-0.009253532738717407,0.00447177807022789,0.9912535256295886
2014-12-31,1,0.0018170136655292991,0.0020391064194358603,-0.008764925114005557,0.007075282236435021,0.9915560848369172
2015-01-05,1,0.0013152686932862635,0.0014580409005891673,-0.006178640554036517,0.009964361189279219,0.9907683806651926
2015-01-07,1,0.0007468817449113735,0.0008188103553624312,-0.006178640554036517,0.009964361189279219,0.9903099981577027
2015-01-09,1,0.0012330954076814268,0.0014093717325230177,-0.006178640554036517,0.00896711687032911,0.9908231899400991
2015-01-13,1,0.0004857940980351989,0.000575561295122501,-0.004188963709701314,0.00896711687032911,0.9914795969834486
2015-01-15,-1,-0.00018942798155102545,-0.00018636739061828468,-0.00034626678969293054,0.00896711687032911,0.9916017384090142
2015-01-20,-1,-9.646393830163444e-05,-7.754669321142368e-05,-0.0013468008929646553,0.00896711687032911,0.9913142013787828
2015-01-22,1,0.0015299512648868224,0.0017716355573560946,-0.0031193479035628528,0.0069239544507232196,0.9937228855070693
2015-01-26,1,0.0021799519305441754,0.0025175131147964973,-0.004161607956501795,0.00511643779398651,0.9937413391828192
2015-01-28,1,0.0017298640643123434,0.0019444591333554065,-0.0034786910363598456,0.00618239796267672,0.993086285530747
2015-01-30,1,0.001565551421851297,0.0017332624563114155,-0.0034786910363598456,0.0065633354621249095,0.992243537896366
2015-02-03,1,0.002985265800657111,0.0033606182403052125,-0.007199455898656297,0.004584018116792811,0.9921454797580196
2015-02-05,1,0.002297230610537453,0.0025486443137862913,-0.00537368456527567,0.0033086524111601463,0.9932270655587664
2015-02-09,1,0.002677845122225039,0.0030073356843280333,-0.007199455898656297,0.002326022533127155,0.9922962756491499
2015-02-11,1,0.002878200154403489,0.0032473177945227206,-0.007199455898656297,0.003066793960479491,0.9918936533331767
2015-02-13,1,0.00265273340995829,0.002935424459158848,-0.007199455898656297,0.002485156162382438,0.9915010715861657
2015-02-18,1,0.0007162893083382652,0.0007784658452169994,-0.009228566215027125,0.002485156162382438,0.9918539217509995
2015-02-20,1,0.0002960763210388812,0.0004353570173567416,-0.009228566215027125,0.005534787275240188,0.9916831893296709
2015-02-24,-1,-0.0002881038871159065,-8.634566919574422e-05,-0.007477478702444812,0.005534787275240188,0.9920908952974682
2015-02-26,1,0.0007472844151766784,0.0008226969780127887,-0.007477478702444812,0.0036141648968669284,0.9919998185469062
2015-03-02,1,0.0008286537777568695,0.000891758684028295,-0.006117586996612196,0.004951959110350974,0.9925826561054949
2015-03-04,-1,-0.0007366536293432617,-0.00047233965655901647,-0.001669206079481193,0.004951959110350974,0.9937675112561792
2015-03-06,-1,-0.001263005335303986,-0.0009094532007159694,-0.001669206079481193,0.009128349623962792,0.9929055753736655
2015-03-10,-1,-0.0031273817047241096,-0.002496347873852477,-0.001669206079481193,0.009128349623962792,0.992057195827608
2015-03-12,-1,-0.0020291334140743146,-0.0015498092534775366,-0.002777570279857534,0.007239947348300779,0.9934137163948771
2015-03-16,-1,-0.0012608446779703891,-0.0009189173556045006,-0.004944470046940904,0.004586737788714963,0.9940396580739495
2015-03-18,-1,-0.0015708954848693668,-0.00122127719040217,-0.004944470046940904,0.005907569293080614,0.9937918084592344
2015-03-20,-1,-0.0006029152474174249,-0.0003939845945658255,-0.00565684493441242,0.005907569293080614,0.9932347618715356
2015-03-24,-1,-0.0008650008527005394,-0.0006433149003445215,-0.004944470046940904,0.005907569293080614,0.9933722849026293
2015-03-26,-1,-0.0017717505579765954,-0.001469050597046297,-0.004603200192299432,0.005907569293080614,0.9942074077053751
2015-03-30,-1,-0.0011488814263427784,-0.0009154979496716022,-0.004944470046940904,0.0036049052046504644,0.994698844815304
2015-04-01,-1,-0.0010166332654580471,-0.0008067295060186256,-0.006529742059189943,0.0036049052046504644,0.9934997114929928
2015-04-06,1,0.0002545271096443656,0.00029163095798116865,-0.006529742059189943,0.004421333534705228,0.9932066442913601
2015-04-08,1,0.00022739848879680915,0.00025712687954612657,-0.0068840468753121505,0.000810333157743515,0.9926528512045772
2015-04-10,-1,-0.0002712006153752542,-0.00016776469350807046,-0.0068840468753121505,0.00229225545344965,0.9930468015656811
2015-04-14,-1,-0.0007501271270867611,-0.0005837533003274577,-0.0068840468753121505,0.003357447812619335,0.9932830440014349
2015-04-16,-1,-0.0008775521134136347,-0.0006945492123772078,-0.006579522193803085,0.003357447812619335,0.9930497372797997
2015-04-20,-1,-0.0011069638281717583,-0.0009112707094189999,-0.004833859050000677,0.003357447812619335,0.9937302717569659
2015-04-22,-1,-0.00052764709633963,-0.00047589738903214816,-0.004833859050000677,0.003357447812619335,0.9937721842577718
2015-04-24,-1,-0.0005118725034158238,-0.0004642677782147966,-0.00376567980599162,0.0028962729794638365,0.9939286632294385
2015-04-28,-1,-0.001388089126935551,-0.001233625294415747,-0.00376567980599162,0.0037469266600884585,0.9938259787273089
2015-04-30,-1,-0.002665047512828028,-0.0025126898114860036,-0.0031112679539359134,0.0051009506405545295,0.9929493959415389
2015-05-04,-1,-0.002044347419151489,-0.0019824389290539423,-0.00376567980599162,0.0033724892723872297,0.9930695307464702
2015-05-06,-1,-0.003362028371674389,-0.003082405769169501,-0.0026735112785985864,0.005231948606015247,0.9917013183572556
2015-05-08,-1,-0.0038557138101162373,-0.0035185191107467186,-0.0037483752107539043,0.005536105148621056,0.9913473401387224
2015-05-12,-1,-0.0039635719510505586,-0.003580570563024675,-0.0037483752107539043,0.005536105148621056,0.9912007300032557
2015-05-14,-1,-0.002735880999222033,-0.0025451329062488185,-0.0030757187322952096,0.00511727975783622,0.9920734998440857
2015-05-18,-1,-0.0023140205736997014,-0.0021748169883326843,-0.002663584270855876,0.00511727975783622,0.9922954067348749
2015-05-20,-1,-0.0020957485355085625,-0.0019979420893148315,-0.003977677209266101,0.005536105148621056,0.9916262972747996
2015-05-22,-1,-0.0018356328162845025,-0.0017808087950927404,-0.004181788130833364,0.005536105148621056,0.9917071509567148
2015-05-27,-1,-0.0020577653353464308,-0.0019476501709736233,-0.004174775524632502,0.00511727975783622,0.9920961087975478
2015-05-29,1,0.0001253071927233522,0.00027521897699424736,-0.003133828698408253,0.00511727975783622,0.9943151379692546
2015-06-02,-1,-0.0004641377944183468,-0.0004212379366879648,-0.003133828698408253,0.00511727975783622,0.9941816553429227
2015-06-04,1,0.00025812426846632294,0.000405152213275354,-0.0031493126035497315,0.0036726208249594538,0.9958029805911076
2015-06-08,-1,-0.0003248284854051049,-0.00030400039835391313,-0.0030709530262663246,0.0046426902776487075,0.9954713949701665
2015-06-10,-1,-0.00029189128239584387,-0.0002726937295769457,-0.0031493126035497315,0.0046426902776487075,0.9947431250235212
2015-06-12,-1,-0.00016888854073850726,-0.00016269731582200196,-0.0031493126035497315,0.005516347608270423,0.9942664217401161
2015-06-16,1,0.00038203063067154304,0.0005342420053630374,-0.0031493126035497315,0.006704085394723053,0.9942752541193227
2015-06-18,1,0.00048747230074570327,0.00067552218848863,-0.0009841585925277447,0.005996393460314598,0.9948327596638631
2015-06-22,1,0.00015844485733160858,0.00027063223476450025,-0.0009841585925277447,0.005996393460314598,0.993955949754436
2015-06-24,0,-2.7450864275545923e-05,6.497187538183867e-05,-0.0009841585925277447,0.005996393460314598,0.9937986851346288
2015-06-26,1,0.0005235088218989143,0.0007465769694237192,-0.004846853055469679,0.005996393460314598,0.9930511742842615
2015-06-30,1,0.0001456077407605946,0.0003114251577425734,-0.003514701906160692,0.006953236261279919,0.9926636154909202
2015-07-02,1,0.0003545650962627813,0.0005603177438153699,-0.003908229793338889,0.006953236261279919,0.9926832419095144
2015-07-07,1,0.0009013648601730994,0.001188079084606589,-0.003908229793338889,0.005996393460314598,0.993282838119545
2015-07-09,1,6.682165509138197e-05,0.0002619935154132997,-0.003908229793338889,0.005996393460314598,0.993482482310147
2015-07-13,1,0.000666150578977639,0.0009392294277553229,-0.003908229793338889,0.005996393460314598,0.9937873129559103
2015-07-15,1,0.0010918383038283413,0.0014277910692841486,-0.005190760350725493,0.0048707528201249375,0.9937287663958032
2015-07-17,1,0.0011483831405584106,0.0014801984289792055,-0.005190760350725493,0.0048707528201249375,0.9935864362589777
2015-07-21,1,0.001218112409787323,0.001459402648792118,-0.005190760350725493,0.005920182893692456,0.9938167439995372
2015-07-23,1,0.0013596049882364115,0.001628188206673916,-0.006816601029998298,0.005920182893692456,0.992561388712707
2015-07-27,0,-3.367902106274026e-05,2.9534875889263956e-05,-0.008296521021774049,0.005920182893692456,0.9906973850469944
2015-07-29,1,0.0002554598678548447,0.0003844747933619677,-0.008296521021774049,0.004844176798932658,0.9908510360334563
2015-07-31,-1,-6.0437477276522466e-05,-9.14429964206533e-06,-0.008296521021774049,0.008182397952394416,0.9899243554001498
2015-08-04,1,0.00030098388013251076,0.00043180657193168557,-0.010305319770837512,0.008182397952394416,0.9885352407552188
2015-08-06,1,0.00047316638172853156,0.0006039658232975789,-0.008423052693124444,0.009408536556290887,0.987382215700235
2015-08-10,1,0.0007964943578501733,0.0009461206858142825,-0.008423052693124444,0.009549365566368777,0.9873775695724155
2015-08-12,1,0.00046917430547098796,0.0006051147077124328,-0.010771814847384483,0.009549365566368777,0.9873669002546114
2015-08-14,1,0.0006719517780687301,0.0008212819216337432,-0.010771814847384483,0.008306273827768034,0.9871514404549236
2015-08-18,1,0.00044233677069998873,0.0005059868794004318,-0.010771814847384483,0.009201056920278217,0.9870988707999627
2015-08-20,-1,-0.0007614753146900533,-0.0007064786451145501,-0.010249615909263285,0.009201056920278217,0.987808532049816
2015-08-24,1,0.00011307504508874868,0.0001644393835745767,-0.0057096450488098496,0.010488966981291994,0.9890299387046132
2015-08-26,1,0.0011505083063076365,0.0013626092991473973,-0.008607115569397864,0.008205813960550899,0.9891243099280208
2015-08-28,1,0.0016343814822331727,0.0019150013071170082,-0.010249615909263285,0.005591427211207622,0.9885234629986484
2015-09-01,1,0.0007059227250770199,0.000852868920209306,-0.010249615909263285,0.005591427211207622,0.9895249352358273
2015-09-03,1,0.001380790694424707,0.0016014291271723513,-0.010249615909263285,0.009854544507885813,0.9898099498554903
2015-09-08,1,0.0020393911820640797,0.0023215299468379485,-0.010249615909263285,0.009854544507885813,0.9889447485352912
2015-09-10,1,0.00150217140020136,0.0017055219312021588,-0.008607115569397864,0.009854544507885813,0.9894999222784808
2015-09-14,1,0.000908162330207292,0.0010175742738139193,-0.007756766646504244,0.009854544507885813,0.9899664036013688
2015-09-16,1,0.001456343313374489,0.0016358407364464485,-0.008342105852874638,0.006703701641868573,0.9897761863824646
2015-09-18,1,0.0006260635761959626,0.0006468145271269838,-0.007756766646504244,0.00959050628336029,0.9903396037263299
2015-09-22,-1,-0.0007803368216426552,-0.0005866231098439952,-0.006629030924370444,0.00894323684840412,0.9911712732366441
2015-09-24,-1,-0.001046008134528791,-0.0008333478430356517,-0.0027184550757524233,0.00894323684840412,0.9915424905266307
2015-09-28,-1,-0.0018541721698401576,-0.001497809479748546,-0.0018142060085676428,0.008298292762230989,0.9921545907486109
2015-09-30,-1,-0.002527113582905284,-0.002093995952029126,-0.00021516490247913174,0.00894323684840412,0.9912457582204697
2015-10-02,-1,-0.0013572407221695707,-0.0010668700418385367,-0.00021516490247913174,0.006753034982402084,0.9931296403917032
2015-10-06,-1,-0.0007334965795008314,-0.0005222483588967358,-0.00021516490247913174,0.006753034982402084,0.9939350681943848
2015-10-08,-1,-0.0004910389846539819,-0.00031798928197429615,-0.00021460746180913983,0.008298292762230989,0.9937098943163982
2015-10-12,-1,-0.0005644416973507973,-0.0003760730375539855,-0.00018850512133978636,0.008298292762230989,0.9938615016977662
2015-10-14,-1,-0.0012636621542249445,-0.0009903824337207656,-0.00018850512133978636,0.008298292762230989,0.9936404236827238
2015-10-16,-1,-0.0010051248445733002,-0.0007492873402183469,-0.0033277283090892913,0.006753034982402084,0.9933011120523472
2015-10-20,1,0.00026877471259998927,0.0002699822185863147,-0.0033277283090892913,0.004171147097078913,0.9939246100585283
2015-10-22,1,0.00020313511485468513,0.00023156058195047664,-0.0033277283090892913,0.006167688813562837,0.9931870734885195
2015-10-26,1,0.0012354813198185491,0.0013688457507253853,-0.0033277283090892913,0.006985742067549497,0.9933396623607597
2015-10-28,1,0.0010473251169253943,0.0011264905413999051,-0.002029652472688404,0.01146981473782879,0.9914736014470105
2015-10-30,1,0.001229835749767037,0.0013435898508157417,-0.0033277283090892913,0.01146981473782879,0.9913347595673815
2015-11-03,1,0.0014924484565630735,0.0016417316541033466,-0.0029734851761660432,0.006985742067549497,0.9918194210870487
2015-11-05,1,0.0019756526395915677,0.002200703367529637,-0.003609414488886638,0.005235618013618335,0.9916015500017026
2015-11-09,1,0.0018433856419604881,0.002044868429648707,-0.003609414488886638,0.005235618013618335,0.9915282839216455
2015-11-11,1,0.0012803796670479571,0.0013992037622241626,-0.0030585591860304412,0.005235618013618335,0.9920384587004072
2015-11-13,1,0.00045564002158374347,0.0004602369884143112,-0.002788889345671093,0.005235618013618335,0.9923054739354216
2015-11-17,1,0.0006575248907569715,0.0006797030659271993,-0.002788889345671093,0.006665175363619186,0.9920943678947214
2015-11-19,1,0.0011540035474372457,0.001227229122307167,-0.00414791212086194,0.0033365648678010205,0.9921095914345118
2015-11-23,1,0.0016813233645806833,0.001821257302912484,-0.00414791212086194,0.005353192209088861,0.9919135324891457
2015-11-25,1,0.001987547511097325,0.002195523391735327,-0.005539868772916122,0.0024142868205208304,0.9938426962449347
2015-11-30,1,0.0014601781250019878,0.001563179567923607,-0.004646264446248771,0.0034141861169707712,0.9938579079930574
2015-12-02,1,0.0014889190180814547,0.0016347009862714332,-0.007279280184106695,0.0034141861169707712,0.9931064541905963
2015-12-04,1,0.0015777521766651217,0.0017609638797946334,-0.007279280184106695,0.002275899399622948,0.9933286640285308
2015-12-08,1,0.001551675586635716,0.0017482774765549228,-0.010440119164259775,0.002275899399622948,0.9906959791312834
2015-12-10,1,0.0011267463764604907,0.0012230579960757827,-0.015114377266458635,0.002275899399622948,0.9901862246416071
2015-12-14,1,0.0006509076235765691,0.0006780924609065039,-0.015757008666390532,0.002275899399622948,0.9900282555401838
2015-12-16,1,0.0006281342853224489,0.0006421444763165278,-0.016496206253637284,0.002275899399622948,0.9886592515145919
2015-12-18,1,0.0005647781933936553,0.0005669433003964733,-0.016496206253637284,0.002275899399622948,0.9885808368369965
2015-12-22,1,0.0011322306656697833,0.001203282274142538,-0.016496206253637284,0.0019160685425049996,0.9875260073535913
2015-12-24,1,0.000786588080926651,0.0008359345938251446,-0.01771605802016439,0.0019160685425049996,0.9866200208530786
2015-12-29,1,0.0011425264782705877,0.0012305645654216374,-0.018094734756658886,0.0013195479651736252,0.9854773750865181
2015-12-31,1,0.0007480465665762256,0.0008130405405455143,-0.01777883068402631,0.002148343456585916,0.9863194063458912
2016-01-05,1,0.00033624910245004774,0.0003501778557811387,-0.01777883068402631,0.0040004065895369,0.9859002387863827
2016-01-07,-1,-0.0008829681997305956,-0.0007432277932744977,-0.016390904896093093,0.007165854114511999,0.9862625386971056
2016-01-11,-1,-0.001254271573170156,-0.0010700833973205633,-0.014018080342717733,0.00895668254754842,0.985650201498254
2016-01-13,-1,-0.0023133751445059136,-0.0019484266231280382,-0.012327049523485893,0.00895668254754842,0.9861316473092154
2016-01-15,-1,-0.003605069574215236,-0.0029980574660555728,-0.006418966616193719,0.01722537760413609,0.9858344072806338
2016-01-20,-1,-0.003846750485244866,-0.0032474995354367627,-0.004419930568801219,0.01722537760413609,0.9854125823940975
2016-01-22,-1,-0.0018330359943257062,-0.001517774866902545,-0.0008148544439574484,0.01274389406783939,0.9869843793725999
2016-01-26,-1,-0.002501778277020803,-0.002080226782713287,-0.0008148544439574484,0.01274389406783939,0.9871957834535539
2016-01-28,-1,-0.0026195751473535992,-0.0022341472599036708,0.000817360438138514,0.01722537760413609,0.9862020203371898
2016-02-01,-1,-0.0016547911708177472,-0.0014091807448714886,-0.0008148544439574484,0.017559334957496862,0.9842261528960607
2016-02-03,-1,-0.0020445524522988406,-0.0017439574779558272,0.002430684553652368,0.017559334957496862,0.9842153812272593
2016-02-05,-1,-0.0026410093423370087,-0.0022487078769586966,0.002430684553652368,0.01722537760413609,0.9857333228180187
2016-02-09,-1,-0.0009973253837512411,-0.0008341223987715686,-0.0008148544439574484,0.01274389406783939,0.9872335927149647
2016-02-11,-1,-0.0012610135729987262,-0.0010468718359565202,-0.0021866533569143754,0.01274389406783939,0.987092301856175
2016-02-16,-1,-0.00037228599688884093,-0.00025504635502431326,-0.0021866533569143754,0.010878002963612183,0.9890044653565112
2016-02-18,-1,-0.000900039794140555,-0.000684071137764039,-0.0021870395796136175,0.010878002963612183,0.9888503759791705
2016-02-22,-1,-0.0007348940184624904,-0.0005142073338454293,-0.005040516547795233,0.011172526578443823,0.9881818155264727
2016-02-24,-1,-0.0005063488801270597,-0.00027237930236945933,-0.005412945754560905,0.010878002963612183,0.9888751407223861
2016-02-26,1,0.0007733475137581276,0.0007832271549638007,-0.006177086801607763,0.008203938333171495,0.9907080990724755
2016-03-01,1,0.0018029530477798469,0.0019451335750879173,-0.005382896357810817,0.008203938333171495,0.9925198996795559
2016-03-03,1,0.0021651085068806458,0.0023702634691008862,-0.006177086801607763,0.008374888752403453,0.9914512912986744
2016-03-07,1,0.002246601072993636,0.0024580518006445122,-0.006181098072488119,0.008374888752403453,0.9910526925105543
2016-03-09,1,0.002018532138502599,0.0021613403291099904,-0.006392721580312942,0.008205692262159668,0.9908352393610801
2016-03-11,1,0.002212924860169773,0.002398708108675481,-0.006392721580312942,0.009436258121486773,0.9908918371484648
2016-03-15,1,0.002425072067305812,0.0026653622292400177,-0.006392721580312942,0.010628911101004125,0.9898545998278208
2016-03-17,1,0.002582135816805912,0.002848912361138053,-0.006392721580312942,0.009794057922685187,0.990471470802052
2016-03-21,1,0.003368990802288404,0.0037617369996419967,-0.006181098072488119,0.009436258121486773,0.99150333655965
2016-03-23,1,0.002787290995644213,0.00310573651656134,-0.00467017372850796,0.009436258121486773,0.991509076222438
2016-03-28,1,0.0025325432432881127,0.0028257988480486877,-0.0021085771340575037,0.009436258121486773,0.9918804290341349
2016-03-30,1,0.0036951531334011387,0.004157386855257401,-0.0021085771340575037,0.008877352554533355,0.992719445482154
2016-04-01,1,0.0036286953581134334,0.0041062360474493536,-0.00035470189165321883,0.008369012177846503,0.993952099778452
2016-04-05,1,0.002896519250232195,0.003272663610057748,0.0003503116167598131,0.008369012177846503,0.9943797278865032
2016-04-07,1,0.0025146219561211418,0.0028041713577845045,0.0004724818022370039,0.007509934813291511,0.9950265489227665
2016-04-11,1,0.0024456777960295316,0.0026813294388432756,0.0003503116167598131,0.007429466620922882,0.9948015560290498
2016-04-13,1,0.003551211309176098,0.003943761191817806,-0.00035470189165321883,0.00679295063697207,0.99505709257548
2016-04-15,1,0.0038299447089455737,0.004299430717701806,-0.0027166357470666037,0.00679295063697207,0.9942416931057254
2016-04-19,1,0.0039619232729734,0.004492967521461456,-0.004225084777595743,0.007429466620922882,0.9933310462828389
2016-04-21,1,0.004253353384377258,0.004833003291435967,-0.004225084777595743,0.005345609949703752,0.9934354852898813
2016-04-25,1,0.004124070462908396,0.004673682822318165,-0.004225084777595743,0.007429466620922882,0.9928809869143594
2016-04-27,1,0.004299068541276736,0.004855099372050242,-0.004225084777595743,0.007429466620922882,0.9920916039122473
2016-04-29,1,0.003997759291907134,0.004511473134077618,-0.004225084777595743,0.012350652518254618,0.9874771191561551
2016-05-03,1,0.003643245055075713,0.004089785738306626,-0.003086183573427872,0.013665712831892038,0.9874699298576403
2016-05-05,1,0.003886626509594645,0.004353785048067736,-0.004225084777595743,0.013665712831892038,0.9867095564043754
2016-05-09,1,0.003700143419867765,0.004115185334647545,-0.004055468591757627,0.013665712831892038,0.9871297540224323
2016-05-11,1,0.003856392043926489,0.004306756532627709,-0.0029708233059852944,0.013665712831892038,0.9878120888729442
2016-05-13,1,0.002987091219774079,0.003287437725805911,-0.0029708233059852944,0.013665712831892038,0.9873250072439104
2016-05-17,1,0.0034687190817133395,0.003863999387990519,-0.0029708233059852944,0.008746231916281466,0.9881904207795755
2016-05-19,1,0.002860123670009768,0.0031454579190388758,-0.0029708233059852944,0.008746231916281466,0.9885013949365632
2016-05-23,1,0.003483748145190577,0.0038765075742170493,-0.003039426363772511,0.008302039178944934,0.9887497187890746
2016-05-25,1,0.003368198204302732,0.0036991943840071024,-0.0030640135639225,0.008302039178944934,0.9889158536993544
2016-05-27,1,0.00549486915418851,0.006108281699005506,-0.003721688919149427,0.006008256666377375,0.9899422570055053
2016-06-01,1,0.004848459266368261,0.0052642484819937305,-0.003721688919149427,0.006008256666377375,0.9897638550573646
2016-06-03,1,0.003977151126926983,0.0042402994836203255,-0.003115578238302975,0.006874098905838717,0.9900466772236997
2016-06-07,1,0.0037113158527596266,0.003898667388379428,-0.003115578238302975,0.006874098905838717,0.9897688812529933
2016-06-09,1,0.0034759932366844764,0.0036061883518466995,-0.003721688919149427,0.007879814427746119,0.9887779279283545
2016-06-13,1,0.002071306538969014,0.0021542260918781327,-0.003115578238302975,0.007879814427746119,0.9903041700026108
2016-06-15,1,0.0023094397775851876,0.0023368587118648013,-0.003721688919149427,0.008126383367503851,0.9897291614790056
2016-06-17,1,0.0017814145333879925,0.0018768436647358297,-0.004145407669466334,0.008126383367503851,0.9897194431314787
2016-06-21,1,0.0011708844268759205,0.0013924866700534824,-0.004000228359768996,0.00681554696869169,0.9901556126871551
2016-06-23,1,0.0013292971856350352,0.0015302313683300344,-0.0032167593124381626,0.00681554696869169,0.9902622515377868
2016-06-27,-1,-0.000805030801300753,-0.0003320390804048411,-0.0017190532561586055,0.007579706391950829,0.9925274755897358
2016-06-29,0,-1.2618828176222093e-05,0.0003703089735115708,-0.0026445899757290008,0.007579706391950829,0.9929076829543534
2016-07-01,1,0.0009526932704342225,0.0011774042524241614,-0.0026445899757290008,0.007579706391950829,0.9931539597776504
2016-07-06,1,0.0007529059220507834,0.001010079587142328,-0.007087105141190161,0.007579706391950829,0.9919724466174393
2016-07-08,1,0.0013396333333717952,0.0014846073601026924,-0.005097122093903041,0.007579706391950829,0.9922871383205922
2016-07-12,1,0.0011289279709373145,0.0013048948735420534,-0.007359757487767276,0.007579706391950829,0.9917982975729704
2016-07-14,1,0.0010360787683229096,0.001215140062205661,-0.005384931163873097,0.00937812749504894,0.991868780059943
2016-07-18,1,0.000903211112968315,0.0010894865592149861,-0.004620889113850565,0.00937812749504894,0.9920717489655551
2016-07-20,1,0.0014415557451963872,0.0015115618809085874,-0.004620889113850565,0.00937812749504894,0.9918294777751987
2016-07-22,1,0.002047408517590946,0.0020848707134979477,-0.004620889113850565,0.00937812749504894,0.9916266012953784
2016-07-26,1,0.0021693965056318156,0.002235092413779445,-0.0027023683965791442,0.010605288987250511,0.991782678558121
2016-07-28,1,0.0018094384766659242,0.0018210317236765962,-0.004768250982185053,0.00918028074145557,0.9923724085537118
2016-08-01,1,0.0021876000989273017,0.0022469493795331057,-0.0059715314731984236,0.005667163676294227,0.9925173969939421
2016-08-03,1,0.001346095510054162,0.001391199500196423,-0.004768250982185053,0.005667163676294227,0.9931745798319793
2016-08-05,1,0.001826367899023953,0.001833179763479105,-0.004768250982185053,0.005455582009594247,0.9935015031986021
2016-08-09,1,0.0013041754647850291,0.0013532252835383822,-0.004768250982185053,0.005455582009594247,0.9935771849289937
2016-08-11,1,0.0015329173395845763,0.0015348531192990694,-0.007498677128795723,0.004173544326227543,0.9930368536501379
2016-08-15,1,0.0010802698159072483,0.0011717999456638518,-0.009897395396482612,0.005282993871473799,0.9922784150248937
2016-08-17,1,0.000956205275693176,0.0010804459406046876,-0.009897395396482612,0.005282993871473799,0.9922452772790192
2016-08-19,1,0.0019099042013625144,0.0019443334381350325,-0.009897395396482612,0.005282993871473799,0.9919470391793146
2016-08-23,1,0.0025928955388160447,0.0026403521138239627,-0.009897395396482612,0.008787520350395915,0.989857548433071
2016-08-25,1,0.0007175418517645272,0.0008498488038660462,-0.010577987123766744,0.009514471354133129,0.9894215121023968
2016-08-29,1,0.00019783324333544816,0.0004039188643844612,-0.008189685183497733,0.009514471354133129,0.9894557198066107
2016-08-31,0,-0.00022105595543839567,2.454095759086704e-05,-0.008189685183497733,0.009514471354133129,0.9892159312837616
2016-09-02,1,0.0004883561342812719,0.0006105541910057676,-0.008189685183497733,0.010554394072915545,0.9889484949921253
2016-09-07,1,5.395789334723287e-06,0.0001880920185985894,-0.008766330426130122,0.010554394072915545,0.9890731069017197
2016-09-09,-1,-0.0007143062971079903,-0.00045279863342844665,-0.005577021359989003,0.010554394072915545,0.9897468773034136
2016-09-13,-1,-0.001185221195415321,-0.0008529515457159633,-0.005577021359989003,0.012048396716262543,0.989641398839364
2016-09-15,-1,-0.0009822485071668673,-0.0006710278104518084,-0.005577021359989003,0.010939773769399424,0.9896416075433908
2016-09-19,-1,-0.0006421450296352307,-0.0003842963282303845,-0.005314011375634828,0.00925636511680163,0.9904361316125626
2016-09-21,1,0.0009321904558418165,0.0010086940030449637,-0.005314011375634828,0.006575676050433349,0.9926729751701544
2016-09-23,1,0.0009131583355019947,0.0010104334905325762,-0.007478396792292306,0.005771470023557554,0.9933965774650593
2016-09-27,1,0.0009065290843952775,0.0009958675148631592,-0.007826379858206677,0.004204514734672663,0.9935419570513464
2016-09-29,1,0.00018321508232995625,0.00035307355342019674,-0.008372116537434127,0.004204514734672663,0.9934502657569956
2016-10-03,1,0.0005876874724145692,0.0007119250949580711,-0.008372116537434127,0.0032980137300544264,0.9932830275490316
2016-10-05,0,-0.00010274390761310954,0.00013160337743404766,-0.00900069113633299,0.0032980137300544264,0.9933017443028512
2016-10-07,0,-0.00016492270404829662,6.576536487595797e-05,-0.009294446866224042,0.0035213411154461304,0.9922838657109475
2016-10-11,-1,-0.0004807749883952552,-0.00019341308507186267,-0.00900069113633299,0.005044786381012946,0.991906312076126
2016-10-13,0,-0.00023156138227413425,9.397878344280194e-06,-0.00900069113633299,0.005044786381012946,0.9916357722728942
2016-10-17,0,-9.279645570288637e-05,0.00012396910188371764,-0.00900069113633299,0.01276686884654938,0.9899680204554288
2016-10-19,1,0.0014317912606254825,0.001535029547290275,-0.00900069113633299,0.01276686884654938,0.9895132324059422
2016-10-21,1,0.0010058165551343166,0.0010672339545996488,-0.00900069113633299,0.015092434243390285,0.9893109936657838
2016-10-25,1,0.00043416388592438745,0.00046460925900375746,-0.009356312674946583,0.015092434243390285,0.9875439817954205
2016-10-27,-1,-0.000257568127386228,-0.00017858951722666115,-0.0017025807408708724,0.015092434243390285,0.9878332894881237
2016-10-31,1,0.00042789914809524194,0.0004523473203237598,-0.003151727523282119,0.014651196842967354,0.9882760360179637
2016-11-02,-1,-0.0005076030687916085,-0.00038100237309906333,-0.0007861814667825194,0.014651196842967354,0.9885043284152661
2016-11-04,-1,-0.0012640030698047053,-0.0010457349197788995,-0.0007861814667825194,0.014651196842967354,0.9891676174744954
2016-11-08,-1,-0.0002945681434766095,-0.00017731903831039875,-0.0007861814667825194,0.014651196842967354,0.9899730423786508
2016-11-10,1,0.0003755915819124365,0.0004109696745032057,-0.004053296476745532,0.012193703747921697,0.9904494652577024
2016-11-14,1,0.0014516100435550648,0.0015505489856089151,-0.004053296476745532,0.007276233306106491,0.9917288801041294
2016-11-16,1,0.00026976675776686413,0.00040296977887253785,-0.004053296476745532,0.0050909502989729336,0.9918594070912953
2016-11-18,1,0.0008243905198299,0.0008375936088413256,-0.0039290505142078646,0.004136866052212615,0.9928528402055506
2016-11-22,-1,-0.0006768589460650389,-0.000524035308994254,-0.0039290505142078646,0.0050909502989729336,0.9941649067872319
2016-11-25,-1,-0.00011362443443133519,-2.4003153327938542e-05,-0.005023404741025134,0.004136866052212615,0.9941395437004601
2016-11-29,0,-1.414217734563159e-05,5.053855213958035e-05,-0.005023404741025134,0.0050909502989729336,0.9938009226250131
2016-12-01,1,7.240165461748876e-05,0.0001235133743848599,-0.005023404741025134,0.0050909502989729336,0.9938579715032843
2016-12-05,-1,-0.00012352898815328262,-4.216037058485264e-05,-0.0039290505142078646,0.007276233306106491,0.9933765607912209
2016-12-07,1,0.0005756208427361744,0.00059093741924386,-0.0039290505142078646,0.005989080544021589,0.9942702707377031
2016-12-09,1,0.00016864621315329254,0.0002286326815969213,-0.002652453279485803,0.005989080544021589,0.9945384973776469
2016-12-13,1,0.0008590577793600225,0.0009063686247965137,-0.003249934464635261,0.005122058622717329,0.9943137625333405
2016-12-15,1,0.0008289453497739301,0.0008767622628390752,-0.005023404741025134,0.00626621503151203,0.9933250340836842
2016-12-19,1,0.000587047658902678,0.0005979224467221178,-0.0032669026262965536,0.00626621503151203,0.9933782617578674
2016-12-21,1,0.0010402562295372436,0.0011470928299154518,-0.004035105565341512,0.006097995036549165,0.9933856384202526
2016-12-23,0,-4.221490378858661e-05,4.483592913530262e-05,-0.0025147668808985814,0.007776151730510398,0.9932430792331656
2016-12-28,1,0.0003192032935489861,0.0003317873143662599,-0.0025147668808985814,0.006097995036549165,0.9935128112492465
2016-12-30,-1,-0.00012692790033553718,-3.8702663470217076e-05,-0.002819199227928037,0.006097995036549165,0.9934339230892478
2017-01-04,1,0.0006035614215105776,0.0006091674883022249,-0.00607097721856353,0.004247397231051564,0.9932597598932925
2017-01-06,1,0.0007276519939903811,0.0007516279657793925,-0.00607097721856353,0.004908250857661813,0.9927604264451337
2017-01-10,1,0.0008027004839160452,0.000848654583838144,-0.00607097721856353,0.006652952281791826,0.992541430897609
2017-01-12,1,0.0011182062494468883,0.0012405881541401598,-0.003843295489459776,0.006652952281791826,0.9927470098381123
2017-01-17,1,0.0010201640630349267,0.0011597831232750054,-0.0026875030694607813,0.006652952281791826,0.9934387144048541
2017-01-19,1,0.0006729008166592347,0.0007342553032469544,-0.0021120643102257664,0.009152966541019514,0.9926552621691773
2017-01-23,1,0.00031962102415579235,0.0003271220915757521,-0.0021120643102257664,0.009712523481338161,0.9917067120805799
2017-01-25,1,0.0007486497525400084,0.0007569651324713646,-0.003843295489459776,0.009712523481338161,0.9904383967293346
2017-01-27,1,0.00062660974382459,0.000628610923323122,-0.003843295489459776,0.009712523481338161,0.9902202347923252
2017-01-31,1,0.00012655514780555863,0.00020215828169458768,-0.00561682555737961,0.011162973378646496,0.9894347567285083
2017-02-02,-1,-0.0011430569097973327,-0.0008821150877750872,-0.0005585547717985018,0.011162973378646496,0.9895320282388461
2017-02-06,-1,-0.0008317122961127482,-0.0005946303480451938,-0.0005495641012369602,0.009712523481338161,0.9903132748861019
2017-02-08,-1,-0.0003043206916145719,-0.00014384303927280706,-0.0017730026560658545,0.009712523481338161,0.9910150541327987
2017-02-10,1,0.00028021326558256047,0.0003577454554542803,-0.0017730026560658545,0.009152966541019514,0.9918156810683407
2017-02-14,1,0.0016423442794411905,0.0017875072194270206,-0.0022285689547005207,0.009731268742350587,0.9918465257457051
2017-02-16,1,0.002276384742498232,0.00252969920757146,-0.0022285689547005207,0.006861940985707876,0.9925542257645971
2017-02-21,1,0.002419125725783422,0.002687858861987648,-0.0022285689547005207,0.005319673673288607,0.993210961551884
2017-02-23,1,0.0015697008700585424,0.0016857908769455142,-0.0012375140972369165,0.005319673673288607,0.9951470732208283
2017-02-27,1,0.0017776936728190339,0.0019490046237559875,-0.0011086142638770257,0.005319673673288607,0.9953180288765812
2017-03-01,1,0.0018430753978013197,0.0020035318908945498,-0.0011086142638770257,0.0050697312638562685,0.9960230726031929
2017-03-03,1,0.0019751008091924635,0.0021469477949723134,-0.0016972408516114374,0.003953370706057914,0.9957430727857814
2017-03-07,1,0.002095145677289416,0.0022905062892235413,-0.0025548942879962543,0.003953370706057914,0.9940661181645813
2017-03-09,1,0.001971187350702436,0.0021542794390754915,-0.0031109088575611093,0.0050697312638562685,0.993935265214091
2017-03-13,1,0.0019434843160393504,0.00212000094591295,-0.0038158838164382017,0.005248339918122917,0.9933949921095129
2017-03-15,1,0.0022749831668984945,0.0025087702079912328,-0.0048770823206082895,0.0050697312638562685,0.9935129684253231
2017-03-17,1,0.002046885129702044,0.002209638088490557,-0.005632838941169084,0.005248339918122917,0.9928728932754937
2017-03-21,1,0.0012157350240862967,0.001241229069682845,-0.0048770823206082895,0.005406505410266505,0.9935402980959118
2017-03-23,1,0.0009370684081831982,0.0009903455203722309,-0.0048770823206082895,0.005406505410266505,0.9936163323854588
2017-03-27,1,0.001485348311508093,0.0015246036106191076,-0.0048770823206082895,0.005613849070348685,0.9933280269395753
2017-03-29,1,0.0010619597543373525,0.001105301634078104,-0.0048770823206082895,0.0059330249931508535,0.9933019176853612
2017-03-31,1,0.0002812504299728964,0.00045110070693700325,-0.006629214756262925,0.0059330249931508535,0.9928031609555019
2017-04-04,-1,-0.00034451973716014797,-0.0001415667004186612,-0.005632838941169084,0.0059330249931508535,0.9936894191821879
2017-04-06,0,-0.00013194168327692707,1.6289737292471602e-05,-0.005632838941169084,0.006399545188917555,0.9935746432684259
2017-04-10,1,0.0004811195684941399,0.000504100143514714,-0.005179014797033841,0.0059330249931508535,0.9938384261783828
2017-04-12,1,0.00035387782345233903,0.0003739384403609645,-0.006498686322010165,0.0059330249931508535,0.9935842400236796
2017-04-17,1,0.0004929289917779649,0.0004948038683715553,-0.005643497108445464,0.005490897130247016,0.9941115556914608
2017-04-19,-1,-0.0005085554430381947,-0.0003403886737406639,-0.007990694235917615,0.004661361860736929,0.993284037756561
2017-04-21,1,0.00020948199007368815,0.00027771986087754595,-0.007990694235917615,0.004565406400652082,0.9933243537942356
2017-04-25,1,0.0007749944077646816,0.0007948960072183701,-0.007990694235917615,0.004565406400652082,0.9930199043006145
2017-04-27,1,0.0010088404768243471,0.001020879431547973,-0.007990694235917615,0.004565406400652082,0.9909670505993564
2017-05-01,1,0.0003082280779855834,0.0004101286337764969,-0.005837764022841686,0.004565406400652082,0.9912408602463489
2017-05-03,1,0.00017281483357076138,0.00024513892813341485,-0.004958707363977681,0.008622231167560898,0.9904867058468552
2017-05-05,1,0.00033479396013687246,0.0004136424244104108,-0.005837764022841686,0.006540381319307251,0.9902382964034553
2017-05-09,1,0.00025587169628142083,0.0003216354679787032,-0.007990694235917615,0.006785637076121595,0.9899014264273198
2017-05-11,-1,-0.0005027546108610117,-0.00034490950370294975,-0.0034544860205390146,0.009186927613319767,0.9902492857199789
2017-05-15,-1,-0.0006112157918885918,-0.0004298310845069575,-0.0034544860205390146,0.009186927613319767,0.9900627989973887
2017-05-17,-1,-0.0015456234879768918,-0.0012657030589310631,-0.0023850447582444497,0.009186927613319767,0.9912055075307342
2017-05-19,-1,-0.0017011632984799967,-0.0013759548039927064,-0.0034544860205390146,0.009977538636121611,0.9907145321629955
2017-05-23,-1,-0.0009404508933281685,-0.0007026170129636962,-0.006239574351864434,0.006610640244769346,0.9911091851924012
2017-05-25,1,0.0005827880916453472,0.0006504070936145118,-0.006239574351864434,0.008728849032502995,0.9923456320334209
2017-05-30,1,0.0003164496787259229,0.0003866970062263971,-0.005577472486134544,0.008728849032502995,0.9927846710222012
2017-06-01,1,0.0012034342376849357,0.0012444535249992155,-0.005577472486134544,0.006195889144445899,0.9934707510298926
2017-06-05,1,0.0005442585667064977,0.0005919340122277411,-0.0037315577504124483,0.0076733168978423355,0.9938663932194962
2017-06-07,1,0.00028244625549084604,0.000359590594534696,-0.005468707678590253,0.0076733168978423355,0.9924746194467484
2017-06-09,1,0.00048785166897957505,0.0005510510336217097,-0.005468707678590253,0.0076733168978423355,0.9919376863984163
2017-06-13,1,0.000590410913156565,0.0006471268436145647,-0.005468707678590253,0.008483635804971957,0.9916803526952147
2017-06-15,1,0.0002400854525906437,0.00034511699008195064,-0.005468707678590253,0.008483635804971957,0.991750855337275
2017-06-19,1,0.0007453383769490225,0.0007548024664234866,-0.004741715004287192,0.00762303268305027,0.9924456762688003
2017-06-21,-1,-0.00030399217701228016,-0.0001486807836620738,-0.0031817478240702118,0.008483635804971957,0.9928765479307402
2017-06-23,1,0.00013174826164737835,0.0002505679844866315,-0.0031817478240702118,0.007574918519016734,0.9933013196876934
2017-06-27,-1,-0.000709582983620683,-0.0004516249585749865,-0.0031817478240702118,0.007574918519016734,0.9931884807745132
2017-06-29,-1,-0.00037163297523398016,-0.00017694653252424116,-0.001042550079002947,0.005843322351315022,0.9934077449329236
2017-07-03,1,0.0002088977192765707,0.00031903143624137934,-0.0035347470225072833,0.0050533419377071405,0.9931778419708556
2017-07-06,-1,-0.0008218734354427923,-0.0006217803395056362,-0.0035347470225072833,0.0050533419377071405,0.9940856819151745
2017-07-10,-1,-0.00025021153489369994,-0.00012643458324155816,-0.0037373327971859387,0.0050533419377071405,0.9945357528783465
2017-07-12,1,0.000567192996351668,0.0005752030234556289,-0.005755303460128744,0.0050533419377071405,0.9933523871583528
2017-07-14,1,0.0006700736520498476,0.0006913090378308765,-0.007112134509214656,0.0050533419377071405,0.9929466157737105
2017-07-18,1,2.100307777198643e-05,8.389037582387941e-05,-0.007112134509214656,0.008302664045908176,0.9913835878314303
2017-07-20,1,0.0005294471180749556,0.0005312095800307443,-0.007112134509214656,0.005870953693222104,0.9914602021543519
2017-07-24,1,0.0009957311426620334,0.0010653958348639594,-0.007112134509214656,0.0050533419377071405,0.9916402353121201
2017-07-26,1,0.0009720488321725816,0.0010534919176485313,-0.00774751658720831,0.005613249178640032,0.9911592168390077
2017-07-28,1,0.0011928579793994269,0.0013072944762367229,-0.00774751658720831,0.005613249178640032,0.9911344214074017
2017-08-01,1,0.000782654850480613,0.0008334011179924232,-0.00774751658720831,0.005309323363726133,0.9916021303116646
2017-08-03,0,-3.658974429128779e-05,1.2147941252060293e-05,-0.006876665460532704,0.008703926021112342,0.9908581867187045
2017-08-07,1,0.00024261540595432385,0.0002468300477654041,-0.00515313278314996,0.007529550502161959,0.9913147845126601
2017-08-09,1,0.0008102465021339903,0.000894722373036285,-0.00515313278314996,0.005309323363726133,0.9924436024947038
2017-08-11,1,3.8574757219458537e-05,7.835305598245146e-05,-0.004194783194871182,0.007339551565535816,0.992493142312444
2017-08-15,1,0.001444637232910268,0.001610702912831017,-0.00515313278314996,0.006937845985791294,0.9929055296821803
2017-08-17,1,0.0015486045523527747,0.0017481914074013508,-0.0052104389016679725,0.006937845985791294,0.99286329788239
2017-08-21,1,0.0014381753621903217,0.001630821812380813,-0.007374737526587434,0.007339551565535816,0.9922109326272008
2017-08-23,1,0.00116542324759977,0.0012532487088121355,-0.0052104389016679725,0.008409759000243173,0.9909824716337273
2017-08-25,1,0.00046178159862880134,0.0005292778644743419,-0.0052104389016679725,0.009060066983622873,0.9907056640562257
2017-08-29,1,4.719449252826505e-05,0.00016616746390972037,-0.0032264452914125595,0.010542842582420458,0.9904980457016193
2017-08-31,1,0.0015572184602879202,0.0016205934285070083,-0.0052104389016679725,0.007944744962784115,0.9918102812431678
2017-09-05,1,0.0010347808294408002,0.0010610267006390362,-0.0038413659949640385,0.007944744962784115,0.9918979940707479
2017-09-07,1,0.0005438616246607347,0.0006265784793524544,-0.0017728011010089426,0.009060066983622873,0.9917409512645889
2017-09-11,1,0.0009219944993164595,0.0009615148826565228,-0.0017728011010089426,0.009060066983622873,0.9922863045757992
2017-09-13,1,0.001365821751270744,0.001392267232656338,0.000836154416494535,0.008054249073512428,0.9929650424836668
2017-09-15,1,0.0013423430198330098,0.0014075028473656244,0.002176126223416827,0.008054249073512428,0.9930539916455162
2017-09-19,1,0.0015859080319921845,0.0017034254377004741,0.002176126223416827,0.007618616441396011,0.9939965617282045
2017-09-21,1,0.00043687787743185814,0.0005047569876105443,0.0015539722023970653,0.006511706956983511,0.9952959679974814
2017-09-25,1,0.00032770028520224555,0.0004324102343713774,0.0015539722023970653,0.005904431323138285,0.9952246769960214
2017-09-27,1,0.0012494839731566458,0.0012767658572694386,7.018138808043112e-05,0.00491203834150855,0.995754252183541
2017-09-29,1,0.0006107450777210392,0.0006830534084612204,7.018138808043112e-05,0.00491203834150855,0.9958555946975928
2017-10-03,1,0.0004980132365474964,0.0006153649300365881,7.018138808043112e-05,0.005056639256937137,0.9956777159820298
2017-10-05,1,0.001016093873606104,0.00107411856334755,-0.000620604954157367,0.005056639256937137,0.9949729828265362
2017-10-09,1,0.0005980280986626267,0.0007515979663489376,-0.0016489126422145769,0.005056639256937137,0.9946959413737247
2017-10-11,1,0.0010183173452547965,0.001117851635733217,-0.003153895431993535,0.004463358368075792,0.9943795889564477
2017-10-13,1,0.0019132033799704675,0.0019649620121331276,-0.005863610389781054,0.004261711263713019,0.9940311420430351
2017-10-17,1,0.0028086445332712413,0.003088445577186995,-0.005863610389781054,0.004261711263713019,0.9938111604123644
2017-10-19,1,0.002726411055540801,0.0030047535371340757,-0.005863610389781054,0.004261711263713019,0.9938987392166428
2017-10-23,1,0.0024761560801518172,0.002754122643114624,-0.005863610389781054,0.004463358368075792,0.9930267021892196
2017-10-25,1,0.002206187717368715,0.0023792383103768346,-0.003153895431993535,0.006576959654688649,0.9886367044437309
2017-10-27,1,0.0016305402277114584,0.0018006803713814963,-0.005863610389781054,0.007887758968878028,0.9864119847823134
2017-10-31,1,0.0021237452753154083,0.002361764075749873,-0.005863610389781054,0.008787147249376319,0.9863771570064639
2017-11-02,1,0.0024276808152520124,0.002710147243974334,-0.003911183919673656,0.008787147249376319,0.9864762239128975
2017-11-06,1,0.0019511619834104692,0.00215643802349609,-0.0012175664764661385,0.011137724045514375,0.986492941091947
2017-11-08,1,0.0015479069844561123,0.0017027377822151973,-0.0010954867954383076,0.011551827509348144,0.986618901863147
2017-11-10,1,0.0009758728486153837,0.0010032775280019288,-0.0006899029924072767,0.011551827509348144,0.9870925645927906
