JNU-Tangyin/eata/results/Batch4_SP500/Batch4_SP500-IP.csv
Date,Action,Predicted_Q25,Predicted_Q75,Actual_Q25,Actual_Q75,RL_Reward
2010-12-14,0,0.0,0.0,0.000278216654810999,0.011731412272775443,0.9901093592000056
2010-12-16,1,0.0012463177847017127,0.0014489075992906919,0.0007403615687692249,0.011731412272775443,0.9923757856381276
2010-12-20,1,0.005402385417408884,0.006143152064436703,-0.0024160844546320896,0.005255711928798457,0.9920193457684264
2010-12-22,1,0.007521559723437264,0.00865528946942397,-0.006500512625984659,0.004204252842198714,0.9895630166277403
2010-12-27,0,0.0,0.0,-0.006500512625984659,0.0065408873993627464,0.9898356219509148
2010-12-29,0,0.0,0.0,-0.006500512625984659,0.010654438312294866,0.9891344198873021
2010-12-31,0,0.0,0.0,-0.007158595296317919,0.01304043820632977,0.9872843310701135
2011-01-04,0,0.0,0.0,-0.006804610028904143,0.01304043820632977,0.9875685647648379
2011-01-06,0,0.0,0.0,-0.00645951394532714,0.011464676283018763,0.988349515116792
2011-01-10,0,0.0,0.0,-0.00645951394532714,0.012814591693480001,0.9879684148490189
2011-01-12,1,0.0037645053231940145,0.004120910644952943,-0.006804610028904143,0.010579156141344942,0.9883457125798027
2011-01-14,1,0.0031087223946298626,0.0033443529663191034,-0.00645951394532714,0.012695947895497339,0.9880979340333599
2011-01-19,1,0.001947405665199863,0.0019515707735558378,-0.004370923429006878,0.012695947895497339,0.9886787343957762
2011-01-21,1,0.00013474407332343062,0.00026789357910731137,-0.004370923429006878,0.010579156141344942,0.9882405618353507
2011-01-25,1,0.0012504913081634718,0.0014391095675707357,-0.0071813367588207866,0.009584039214753903,0.9869987159368414
2011-01-27,1,0.002321244003652006,0.0023475552145721078,-0.0071813367588207866,0.011242179286785706,0.9862602596123325
2011-01-31,1,0.000539467536099822,0.0008601038625572676,-0.008689524644381117,0.009805046929900824,0.9861059066479372
2011-02-02,1,0.0016602237602472403,0.0017802546296552468,-0.008689524644381117,0.009805046929900824,0.9863535956383535
2011-02-04,1,0.0011927000877042689,0.0013666051868723604,-0.012414866897037097,0.009805046929900824,0.9849879471356738
2011-02-08,1,0.0017249133246788051,0.0018374705549144268,-0.012414866897037097,0.009348278779420136,0.9850574889839949
2011-02-10,1,0.0008896519057706672,0.0009237747499404398,-0.01768708830748412,0.009805046929900824,0.98395126698889
2011-02-14,1,0.0004914549907777874,0.0005815898708542077,-0.01768708830748412,0.009348278779420136,0.9843942452341945
2011-02-16,1,0.0006502961406662426,0.000718010653526868,-0.01768708830748412,0.009751001535601711,0.9833483795707596
2011-02-18,-1,-0.002236420525315583,-0.0017696008371085798,-0.012414866897037097,0.011080908940692972,0.9848537687192537
2011-02-23,-1,-0.004027447465656205,-0.003373167092088767,-0.010687115602224347,0.011080908940692972,0.986717542149741
2011-02-25,-1,-0.003425753157855393,-0.0027930082394007055,-0.010687115602224347,0.011991978638607466,0.9867517387187329
2011-03-01,-1,-0.004881222792041742,-0.00416064907996147,-0.006624435962366964,0.015074142801453864,0.9858141233490837
2011-03-03,-1,-0.003835906264873638,-0.0031824454948423606,-0.006624435962366964,0.015583340630429349,0.9849290586843
2011-03-07,-1,-0.0050117518358386605,-0.004268508777160437,-0.005712887287628952,0.015583340630429349,0.9849445996083748
2011-03-09,-1,-0.004400215598220941,-0.003754190980053634,-0.006624435962366964,0.018533048716782387,0.9842775944029598
2011-03-11,-1,-0.004202885921817272,-0.003655005676766148,-0.006858143622298821,0.018533048716782387,0.9858696025483651
2011-03-15,-1,-0.004992795331437636,-0.004317497066533303,-0.007099549849832295,0.018533048716782387,0.9846835317923347
2011-03-17,-1,-0.0042036800134694075,-0.003626729178920969,-0.007099549849832295,0.015583340630429349,0.9850912446749643
2011-03-21,-1,-0.0029218863338528406,-0.002516051608986527,-0.008399490935755309,0.015583340630429349,0.9845538338199323
2011-03-23,-1,-0.0032974071256322594,-0.002838477564370983,-0.007099549849832295,0.015583340630429349,0.9837200056265979
2011-03-25,-1,-0.0011861100455978937,-0.0010380624884408834,-0.008495726607721198,0.014624857650124374,0.9847051307592889
2011-03-29,1,0.001853881220220306,0.002094190004563672,-0.008495726607721198,0.014624857650124374,0.9862074737338974
2011-03-31,1,0.003938001297660439,0.004500904312891995,-0.008495726607721198,0.013672872926083341,0.9869689298307648
2011-04-04,1,0.003016554768761867,0.0033546186117592532,-0.007660787015893281,0.01509558515454284,0.9852913236677091
2011-04-06,1,0.0037474170051356786,0.004232192941170323,-0.008490699185033505,0.013672872926083341,0.9853473570129495
2011-04-08,1,0.0020577550438075983,0.002205031934757114,-0.008490699185033505,0.014175071238194564,0.9851935211135866
2011-04-12,-1,-0.0004891800471039447,-0.00025282800454627555,-0.00778486637963795,0.01509558515454284,0.9852438211932828
2011-04-14,1,0.00039992934750864527,0.0005143949981011853,-0.009125623220500907,0.014702471022824279,0.9842593715225744
2011-04-18,-1,-0.00038796482019262126,-0.00015631965730449515,-0.008081508330290504,0.013898155750676867,0.9862263035906478
2011-04-20,1,0.0007839825553980627,0.0008537480125671593,-0.008081508330290504,0.0142153846089778,0.9866506989333932
2011-04-25,0,-0.00017195891821407297,2.6252528293162084e-05,-0.009125623220500907,0.0142153846089778,0.985199515027453
2011-04-27,1,0.0012053694027906589,0.0012344085308220415,-0.009125623220500907,0.013898155750676867,0.9859591808314153
2011-04-29,1,0.00228743958937874,0.0025016538376570105,-0.009125623220500907,0.011555912348618051,0.986527003254678
2011-05-03,1,0.00228523333406993,0.002496921237925236,-0.010893583067268885,0.010219665666575268,0.9870471419631571
2011-05-05,1,0.001493306330642924,0.0016281250500111547,-0.009283507778304488,0.010219665666575268,0.9874589363904794
2011-05-09,1,0.002155927985754086,0.00234799412710579,-0.009283507778304488,0.007344777943608969,0.9880389693216087
2011-05-11,1,0.0020547919413172427,0.0020931246389112347,-0.01207211333539884,0.007344777943608969,0.9869818584708175
2011-05-13,1,0.0006423507261991278,0.0007880384485639345,-0.017088821929359004,0.007344777943608969,0.9862132388306489
2011-05-17,1,0.0011537696254901796,0.0011709472029296586,-0.02661218340155226,0.008983537729414274,0.9846288129429331
2011-05-19,1,0.0016927248608639375,0.0017485116861230036,-0.02661218340155226,0.007344777943608969,0.9842917333544372
2011-05-23,-1,-0.0008583367184009416,-0.000615638544453481,-0.01836667355273205,0.010219665666575268,0.983089192749294
2011-05-25,-1,-0.0004554854095891411,-0.00025775590313064983,-0.01836667355273205,0.010219665666575268,0.9831518567008368
2011-05-27,1,0.0005758981543830574,0.0006264042762227385,-0.01836667355273205,0.010242170401582405,0.9829524365219531
2011-06-01,-1,-0.0007842869891738967,-0.0005794784235997223,-0.014612693660680826,0.008200498737028513,0.9848899673036435
2011-06-03,-1,-0.0011577609531171762,-0.0009247329552460171,-0.009745682316114678,0.013723508929535451,0.9833238589866743
2011-06-07,-1,-0.00021171264853697968,-0.00020307202843125396,-0.017961681888280144,0.013723508929535451,0.9823346553898344
2011-06-09,-1,-0.00041145810141431235,-0.00039123308013640386,-0.011335201175581556,0.014145664650430507,0.9833905283716714
2011-06-13,-1,-0.0034266757856556912,-0.003012706406532671,-0.009951069951220927,0.014145664650430507,0.9850887135584736
2011-06-15,-1,-0.0050406548747313935,-0.004358508697220047,-0.009951069951220927,0.014145664650430507,0.9856223514625175
2011-06-17,-1,-0.004969531827291295,-0.004373430921738384,-0.009951069951220927,0.014145664650430507,0.9849989921838234
2011-06-21,-1,-0.0020610768358418005,-0.0018478885563789338,-0.009951069951220927,0.012413309652837911,0.9881265943981277
2011-06-23,-1,-0.001951939393145991,-0.0017319280652733672,-0.009951069951220927,0.014083634036274176,0.9871045127106036
2011-06-27,-1,-0.001296032820824394,-0.0011791316881144707,-0.009951069951220927,0.013293288052032509,0.9878300369819165
2011-06-29,-1,-0.0014546475054651588,-0.001304447266230218,-0.010409275956067015,0.016785599848014296,0.9858654132458755
2011-07-01,1,0.0010135677498254534,0.0012050158721475567,-0.010598844424244087,0.010842081553581292,0.9865044943038976
2011-07-06,0,-2.2907216227721766e-05,6.90072482448993e-06,-0.010598844424244087,0.010842081553581292,0.9861608479171985
2011-07-08,1,0.0002593583620913186,0.00035340080124501833,-0.012900787087867014,0.007657150184388003,0.9824860094412382
2011-07-12,-1,-0.00037369290266830904,-0.00033791145437454335,-0.020674159207817535,0.010842081553581292,0.9760708618496637
2011-07-14,-1,-0.0013339569483013579,-0.0011607827663339494,-0.025535447413602377,0.011985508614189778,0.9735726553507101
2011-07-18,-1,-0.0024248211664858518,-0.0020928959304176665,-0.025535447413602377,0.0180666170648058,0.9737261273189789
2011-07-20,-1,-0.0004048721893387058,-0.0003702004122519009,-0.025535447413602377,0.008117060459661646,0.974097504743359
2011-07-22,1,7.730632755776603e-05,0.00026028198932295625,-0.02614361870889451,0.0014518814549197157,0.9709612445427436
2011-07-26,0,0.0,0.0,-0.02614361870889451,0.008117060459661646,0.9683012535779407
2011-07-28,1,7.694241827648716e-05,0.00018057901826019565,-0.02614361870889451,0.00885534699293884,0.9677187309423253
2011-08-01,-1,-0.001136277416670899,-0.000873341972998748,-0.021402077676838084,0.028851753096960038,0.9662998162648199
2011-08-03,-1,-0.0024937841435572466,-0.0020591258507041592,-0.017141481649415907,0.028851753096960038,0.9672895346707994
2011-08-05,0,0.0,0.0,-0.021402077676838084,0.028851753096960038,0.9690992783072966
2011-08-09,0,0.0,0.0,-0.017141481649415907,0.028851753096960038,0.9719083394822512
2011-08-11,0,0.0,0.0,-0.02231955189702478,0.02451111007618576,0.9725811767778844
2011-08-15,-1,-0.005030734530603062,-0.004286770764926184,-0.02231955189702478,0.02645667494126981,0.9721147357382036
2011-08-17,-1,-0.004542557923362909,-0.003913247998591887,-0.02231955189702478,0.03289783159015471,0.9702815938492806
2011-08-19,-1,-0.006357859421965638,-0.00561555355254866,-0.014902149075071444,0.03289783159015471,0.9731191573216058
2011-08-23,-1,-0.003560993069095842,-0.003186317775614643,-0.02231955189702478,0.02645667494126981,0.973909979616455
2011-08-25,-1,-0.003847795021469742,-0.0034264864372099933,-0.02969484086534837,0.01703181546341656,0.9736783848549504
2011-08-29,-1,-0.0009706245866922595,-0.0009065988415913396,-0.02969484086534837,0.014945656756369361,0.9748053250646506
2011-08-31,-1,-0.0010205273112185856,-0.0009254221378268638,-0.030945559519644363,0.014945656756369361,0.9720306398591858
2011-09-02,-1,-0.003804230117459749,-0.0033301058355412047,-0.032102952340632075,0.014945656756369361,0.9724166706064905
2011-09-07,1,0.00037178719443237574,0.0004286934503512607,-0.032102952340632075,0.018061058456552974,0.9736459044111248
2011-09-09,-1,-0.002061079145073804,-0.0018134767015224591,-0.019926548905620203,0.01979211526580062,0.9752782272284957
2011-09-13,-1,-0.0003217538080554143,-0.0003168481474711934,-0.019926548905620203,0.01979211526580062,0.974874063513351
2011-09-15,1,0.0005066601882904149,0.0005878501883407681,-0.019926548905620203,0.018378615834698013,0.9759163148447263
2011-09-19,1,0.0006394477254865975,0.0007755966638229193,-0.028197578382617453,0.018378615834698013,0.974677946463748
2011-09-21,-1,-0.0008388949592483973,-0.0008315863113070767,-0.021497930894767,0.020042106403485527,0.9747457015788974
2011-09-23,-1,-0.0010206426128842308,-0.0009662190889577047,-0.01849037571072898,0.020042106403485527,0.976749947483458
2011-09-27,0,-9.634846347533998e-05,4.0402810886309905e-05,-0.01849037571072898,0.020042106403485527,0.9768199561132968
2011-09-29,-1,-0.0014935677958618316,-0.0014740469387902796,-0.017944593339290743,0.026214268720474176,0.9750729603411536
2011-10-03,-1,-0.003351632106824801,-0.0031679930358104944,-0.008111248265311432,0.026214268720474176,0.9754035811334867
2011-10-05,-1,-0.0010956737039884124,-0.0010775726092812708,-0.017944593339290743,0.018378615834698013,0.9771006442936939
2011-10-07,-1,-0.0015749010305512235,-0.0015357489555074618,-0.008111248265311432,0.02197377042716635,0.9762508552331938
2011-10-11,1,0.0003825839335164351,0.0006304585352437593,-0.008111248265311432,0.01945735015147625,0.9782003898524287
2011-10-13,1,0.00020688769492281932,0.00034341991945574486,-0.018468387335673006,0.018824202105918238,0.9764639123682244
2011-10-17,-1,-0.00037438957117355565,-0.0002877733395530555,-0.018468387335673006,0.020311124053096735,0.9764033157187005
2011-10-19,1,0.00036460139829952063,0.0005814198924437056,-0.008111248265311432,0.018280050227365067,0.9788798523351389
2011-10-21,1,0.00087521498509726,0.0011184653491170754,-0.009304055783543734,0.018280050227365067,0.9792090210766099
2011-10-25,1,0.0010384838206859452,0.0012928034189733928,-0.019954441201767828,0.013936446741235,0.9790900042456773
2011-10-27,1,0.004335392054862699,0.005012086175354314,-0.025618743241844252,0.012252621731667301,0.9808597551997792
2011-10-31,1,0.002278855503970746,0.002665442716506843,-0.019954441201767828,0.013936446741235,0.9822725121356143
2011-11-02,1,0.001263692032229825,0.0014062974326539686,-0.018656489233503014,0.0144320873902945,0.980133193185151
2011-11-04,1,0.0025629567959430132,0.00284284433009551,-0.018656489233503014,0.014030916659750323,0.9803829546724117
2011-11-08,1,0.002579562763453182,0.002819585411286738,-0.018656489233503014,0.010850370545819629,0.9806632972390021
2011-11-10,1,0.002789273805779963,0.00322898614283491,-0.018656489233503014,0.014030916659750323,0.9806785033682155
2011-11-14,1,0.0025420894743548163,0.0029508060924749216,-0.01831703354760835,0.010850370545819629,0.9808839530299762
2011-11-16,1,0.0023959536382249964,0.002776678147568139,-0.01831703354760835,0.010850370545819629,0.9809718962832759
2011-11-18,1,0.0024914301391505494,0.0029080170894821987,-0.01831703354760835,0.010850370545819629,0.9804007704622217
2011-11-22,0,0.0,0.0,-0.016031165470697953,0.014141504720223264,0.9803191907798097
2011-11-25,0,0.0,0.0,-0.015310170615108075,0.01287297711122365,0.9819157375296956
2011-11-29,0,0.0,0.0,-0.015310170615108075,0.009858241447143515,0.9828677555569872
2011-12-01,0,0.0,0.0,-0.006843129944895119,0.009858241447143515,0.9863741480270894
2011-12-05,1,0.0017190215935435193,0.002262245877315095,-0.006843129944895119,0.009500312348186584,0.9883682019160719
2011-12-07,1,0.0013948258725471811,0.0018834349257818162,-0.0020318566802871047,0.011610028675333188,0.9879235250761846
2011-12-09,1,0.0015562788284325666,0.0021109221538622262,-6.236781938681775e-05,0.010152379648087672,0.9901981103738093
2011-12-13,1,0.0011986683526069048,0.0017502553609294493,0.0032429354995845297,0.011610028675333188,0.9906984823752625
2011-12-15,1,0.0015832582304613674,0.0021866219568933212,0.002813886836103662,0.011610028675333188,0.9906690900478041
2011-12-19,1,0.0015726077910503768,0.0021733450657338313,0.004303679927585012,0.01179856042739135,0.9908973856795217
2011-12-21,1,0.002371322711714097,0.0030428884169425297,0.0003564282579399178,0.011610028675333188,0.9918645841277964
2011-12-23,0,0.0,0.0,-0.0020318566802871047,0.01179856042739135,0.9889016983242529
2011-12-28,0,0.0,0.0,-0.0031130803334783715,0.01179856042739135,0.9888703974662761
2011-12-30,0,0.0,0.0,-0.0031130803334783715,0.01179856042739135,0.9892516509970997
2012-01-04,1,0.0028831519542169256,0.0031282160855553285,-0.0031130803334783715,0.011326060390875543,0.99031387841212
2012-01-06,1,0.003976009586221728,0.004405528463909193,-0.0062794897672160685,0.00794511452083065,0.9905580271998866
2012-01-10,1,0.004116849727425539,0.0045515129358089,-0.008067346262246998,0.007758176574054948,0.9894908086688796
2012-01-12,0,0.0,0.0,-0.008067346262246998,0.008739883791951682,0.9893397302791094
2012-01-17,0,0.0,0.0,-0.006017288582870977,0.011357464159679984,0.9881795999488602
2012-01-19,0,0.0,0.0,-0.006698576067550468,0.008871891517645471,0.9877701002839141
2012-01-23,1,0.0019844563915410686,0.00221944100097301,-0.006318990064182326,0.008871891517645471,0.9889730810896717
2012-01-25,0,0.0,0.0,-0.006189244024004852,0.007758176574054948,0.9906991915032752
2012-01-27,0,0.0,0.0,-0.005370149544682023,0.008871891517645471,0.9896985295888965
2012-01-31,0,0.0,0.0,-0.005370149544682023,0.015543028654183373,0.9881782465923136
2012-02-02,0,0.0,0.0,-0.005370149544682023,0.015543028654183373,0.988244832998903
2012-02-06,0,0.0,0.0,-0.005370149544682023,0.015543028654183373,0.9885402950057051
2012-02-08,0,0.0,0.0,-0.0046850552442728255,0.015543028654183373,0.9881192708085417
2012-02-10,1,0.0014056145400504335,0.0015501583396461164,-0.0046850552442728255,0.014970559233830128,0.989110930750418
2012-02-14,0,0.0,0.0,-0.006189244024004852,0.014970559233830128,0.9890434241762679
2012-02-16,0,0.0,0.0,-0.006732411048112339,0.012687697499529221,0.9897869717661227
2012-02-21,0,0.0,0.0,-0.004822862238916164,0.012687697499529221,0.9899682767660001
2012-02-23,0,0.0,0.0,-0.005498687856815,0.012687697499529221,0.9891071005609381
2012-02-27,0,0.0,0.0,-0.005498687856815,0.012687697499529221,0.9893440400165785
2012-02-29,1,0.0009205119323373472,0.0009491244005917396,-0.010169729314719392,0.008013416659643662,0.9895231630372098
2012-03-02,0,0.0,0.0,-0.010169729314719392,0.007401360186879087,0.9897632405032
2012-03-06,0,0.0,0.0,-0.0077731508217983285,0.007401360186879087,0.990076663346677
2012-03-08,0,0.0,0.0,-0.006651660822440392,0.006604689995797058,0.9908231838886202
2012-03-12,0,0.0,0.0,-0.011716838793114324,0.00460592045844083,0.9881169602726405
2012-03-14,0,0.0,0.0,-0.00778499609306275,0.00460592045844083,0.9891178473067154
2012-03-16,0,0.0,0.0,-0.007465532582579465,0.0035714867490093385,0.9893322678935879
2012-03-20,0,0.0,0.0,-0.007465532582579465,0.005074881752088387,0.9889180357730765
2012-03-22,0,0.0,0.0,-0.006651660822440392,0.0035714867490093385,0.9900870244021653
2012-03-26,0,0.0,0.0,-0.007465532582579465,0.0024646128423888043,0.9895256418208946
2012-03-28,0,0.0,0.0,-0.005689954047880109,0.0065501086693329795,0.9896634240230305
2012-03-30,0,0.0,0.0,-0.0071688606461353145,0.004063229054757536,0.9892281375280907
2012-04-03,0,0.0,0.0,-0.0071688606461353145,0.004063229054757536,0.989355316069165
2012-04-05,0,0.0,0.0,-0.016314968694313845,0.0037124894644055516,0.9880674084457352
2012-04-10,0,0.0,0.0,-0.00882708110184538,0.0037124894644055516,0.9905000765935883
2012-04-12,1,0.8574665560155632,0.8891344012123377,-0.009288905231995898,0.002767157746470782,0.5329407279460633
2012-04-16,0,0.0,0.0,-0.011566348599155386,0.002767157746470782,0.990443527455484
2012-04-18,0,0.0,0.0,-0.016200475041947104,0.002767157746470782,0.9895820727585244
2012-04-20,0,0.0,0.0,-0.017058233533208584,0.0030036855098036054,0.9875402845813072
2012-04-24,0,0.0,0.0,-0.016200475041947104,0.0030036855098036054,0.9872419896971157
2012-04-26,0,0.0,0.0,-0.016200475041947104,0.002767157746470782,0.9881255287160375
2012-04-30,0,0.0,0.0,-0.012085396475755374,0.0028079410765849706,0.9875223738449747
2012-05-02,0,0.0,0.0,-0.017058233533208584,0.0017418063166885337,0.9865809914640359
2012-05-04,-1,-0.0032369633729992693,-0.0026033670218908655,-0.0127677726360468,0.0017418063166885337,0.9874225337617438
2012-05-08,-1,-0.004751558449802684,-0.0038818679593940206,-0.0127677726360468,0.0048319808330633185,0.9854041432193514
2012-05-10,-1,-0.005404467484522314,-0.004458560702718097,-0.0127677726360468,0.0048319808330633185,0.985113403555116
2012-05-14,-1,-0.006435011761646375,-0.005344967006183918,-0.013879427689679813,0.007061343636904175,0.9839345111392271
2012-05-16,-1,-0.006287778955693936,-0.005300233770685302,-0.013248809874697825,0.00714744046511015,0.9843140643539467
2012-05-18,0,0.0,0.0,-0.010693407394157025,0.010055479544307359,0.9857436874108245
2012-05-22,0,0.0,0.0,-0.010693407394157025,0.010055479544307359,0.9861777491998481
2012-05-24,0,0.0,0.0,-0.013248809874697825,0.011352632584586665,0.9847697164135
2012-05-29,0,0.0,0.0,-0.019498506650427933,0.010055479544307359,0.9842677674529007
2012-05-31,-1,-0.006907574355351189,-0.005939985864856983,-0.013248809874697825,0.010055479544307359,0.9845257156468914
2012-06-04,0,0.0,0.0,-0.009000135626034808,0.011352632584586665,0.985149587939109
2012-06-06,0,0.0,0.0,-0.009000135626034808,0.011352632584586665,0.9863853364851035
2012-06-08,0,0.0,0.0,-0.011182317565254687,0.011352632584586665,0.9855595553314238
2012-06-12,0,0.0,0.0,-0.010481396625455074,0.011352632584586665,0.9850280709392997
2012-06-14,-1,-0.004561725716854459,-0.003959101402104445,-0.009000135626034808,0.01435838773975626,0.9842296603818389
2012-06-18,0,0.0,0.0,-0.009000135626034808,0.02162124443181876,0.9832624786456795
2012-06-20,0,0.0,0.0,-0.007273888137897173,0.015852476515005317,0.9838881817455212
2012-06-22,0,0.0,0.0,-0.007090268109624549,0.015852476515005317,0.9850660866028152
2012-06-26,0,0.0,0.0,-0.00648219277941469,0.015852476515005317,0.9859674774483791
2012-06-28,0,0.0,0.0,-0.005521606942603649,0.024560847377598765,0.9836970962578504
2012-07-02,0,0.0,0.0,-0.00648219277941469,0.02162124443181876,0.9847530135452747
2012-07-05,-1,-0.002428508437981104,-0.002138271484931697,-0.011692837052630219,0.016410207974816092,0.9850230932160087
2012-07-09,-1,-0.0024091149784419012,-0.002165349779728764,-0.009799363489062664,0.021507124721477477,0.9843882256275659
2012-07-11,-1,-0.0006937955028055174,-0.0006924023944854263,-0.009799363489062664,0.015814436611558222,0.9857610185306256
2012-07-13,0,-2.095570884872824e-05,3.311590053271625e-05,-0.009799363489062664,0.013361187221636185,0.9871052810946441
2012-07-17,1,0.0009535708463450383,0.0011237036897374477,-0.009799363489062664,0.013361187221636185,0.9873181595742079
2012-07-19,1,0.002163238148587962,0.0025687510340837846,-0.009799363489062664,0.013763593216866885,0.9874237959727579
2012-07-23,1,0.0019230849075409233,0.0023325132922995605,-0.009346183735087561,0.013763593216866885,0.9876706953718314
2012-07-25,1,0.0014515512242278988,0.0018184706343346286,-0.0032956082494311955,0.013763593216866885,0.9888332096621818
2012-07-27,1,0.0030587969328888676,0.0036184346614484093,-0.009346183735087561,0.007837442551635463,0.9904678060125943
2012-07-31,1,0.002458213091049144,0.0029451418223972988,-0.004761896380507604,0.007837442551635463,0.9910018566099251
2012-08-02,0,0.0,0.0,-0.0028242986278651755,0.011618116517760417,0.9903201851767075
2012-08-06,0,0.0,0.0,-0.004761896380507604,0.007837442551635463,0.9906560414238081
2012-08-08,1,0.00202682619093582,0.0024173255953423263,-0.0028242986278651755,0.007837442551635463,0.9904277385580014
2012-08-10,1,0.0017726195452562464,0.0021127523412701283,-0.004761896380507604,0.01205352770117075,0.987709179243705
2012-08-14,1,0.004064661303007772,0.004776583334572685,-0.008678363890007248,0.01205352770117075,0.9879082943525747
2012-08-16,1,0.0051048605217348265,0.006000067685690294,-0.008678363890007248,0.01205352770117075,0.9870022777253725
2012-08-20,1,0.004231913912042004,0.00495395164788375,-0.00943173400475008,0.01205352770117075,0.9856906281963017
2012-08-22,1,0.004433386075529231,0.005191575623312921,-0.00943173400475008,0.015313765333441786,0.9851520816975335
2012-08-24,1,0.004462433490124609,0.0052268675367907955,-0.007261223475325096,0.01760740363561427,0.9840720794442153
2012-08-28,0,0.0,0.0,-0.00943173400475008,0.01760740363561427,0.9831334950138781
2012-08-30,0,0.0,0.0,-0.007261223475325096,0.01760740363561427,0.9835292818391855
2012-09-04,0,0.0,0.0,-0.0063974716042496825,0.01760740363561427,0.9839023022229619
2012-09-06,0,0.0,0.0,-0.0063974716042496825,0.01673094725349341,0.9851738091860609
2012-09-10,0,0.0,0.0,-0.005099236110235579,0.014999540055230923,0.9877446769594577
2012-09-12,1,0.003488104465016491,0.004060835755791005,-0.005099236110235579,0.010185270536670569,0.9886698884857907
2012-09-14,1,0.003612575157433207,0.0041969161994323545,-0.005099236110235579,0.010185270536670569,0.9885355027182231
2012-09-18,1,0.002820358127080025,0.003344263984741907,-0.004479275430996229,0.016345988332801212,0.9894391319049145
2012-09-20,1,0.0031877485839748023,0.0037382416683960098,-0.005099236110235579,0.01643631759987288,0.9884657345522355
2012-09-24,1,0.004725136940759489,0.0054810032773151916,-0.006619195297034091,0.010185270536670569,0.9897491438529291
2012-09-26,0,0.0,0.0,-0.008417630908044503,0.010185270536670569,0.9890081023733664
2012-09-28,0,0.0,0.0,-0.011110403101443388,0.009413235246649485,0.9879623530693891
2012-10-02,0,0.0,0.0,-0.011110403101443388,0.012565149426444905,0.9866775159182958
2012-10-04,0,0.0,0.0,-0.016205059325728542,0.012565149426444905,0.9852767767331116
2012-10-08,0,0.0,0.0,-0.01810914294637476,0.012565149426444905,0.9845269314282721
2012-10-10,0,0.0,0.0,-0.01810914294637476,0.012565149426444905,0.9837496598734452
2012-10-12,1,0.0014430263252289803,0.0015171650118051539,-0.01810914294637476,0.010884168732404175,0.9843659571163941
2012-10-16,1,0.002275748643930817,0.002452320512874915,-0.018469901105727056,0.005976007889357731,0.9846928707000598
2012-10-18,1,0.0024077877154931905,0.0026092315280014386,-0.018469901105727056,0.007983822081169805,0.9838548062521673
2012-10-22,1,0.001623737680794297,0.0016885219694982964,-0.016251412472390234,0.007983822081169805,0.9847017799636498
2012-10-24,0,0.0,0.0,-0.01440543046546287,0.010884168732404175,0.9852196452103392
2012-10-26,0,0.0,0.0,-0.009994580904657751,0.012737743627640822,0.986153168894118
2012-11-01,0,0.0,0.0,-0.009994580904657751,0.010400025923394772,0.9871569091475043
2012-11-05,0,0.0,0.0,-0.008712914607885074,0.010400025923394772,0.9880623204616749
2012-11-07,0,0.0,0.0,-0.007010691190583762,0.010400025923394772,0.9889213101696647
2012-11-09,0,0.0,0.0,-0.006167308082519056,0.008607373745867564,0.9896430921909768
2012-11-13,0,0.0,0.0,-0.00493450198670959,0.012406977255796824,0.9889263973555998
2012-11-15,-1,-0.001546780697771584,-0.0011344784204345652,-0.00444848774877427,0.01305838126766518,0.9889371934418649
2012-11-19,-1,-0.0004830987349449772,-0.00012219088901498825,-0.00444848774877427,0.010506905136736225,0.9908768568193033
2012-11-21,-1,-0.0013743418170239507,-0.000908673055674206,-0.002352100308312853,0.012803195992809529,0.9901863284344944
2012-11-26,0,-0.0003034045419900872,3.1188785016655982e-06,-0.0023880573259565776,0.010506905136736225,0.9912083225331048
2012-11-28,1,0.0006746187637232051,0.0008579415139287004,-0.0024618370753603405,0.008607373745867564,0.9921159229563719
2012-11-30,0,-0.0003350421258549738,4.700522089224452e-06,-0.0028399802603644875,0.00882450841649035,0.9906848285249326
2012-12-04,-1,-0.0007941394847349374,-0.0004345446819417982,-0.0016898834171748768,0.012447553363222508,0.9907734426660959
2012-12-06,-1,-0.0004989294259665971,-0.00022174596167657136,-0.0011376469743024985,0.012996318923146115,0.9904881214124921
2012-12-10,1,0.00032000425951878416,0.00045780789038240834,-0.0018176692765863678,0.012996318923146115,0.9905900152537621
2012-12-12,1,0.0011883473010936094,0.001201756155590433,-0.0022256943853384186,0.01134123100191245,0.9914690930721839
2012-12-14,1,0.001105198841860754,0.0011661645302176954,-0.0022256943853384186,0.012996318923146115,0.9913482197292591
2012-12-18,1,0.0013317054726659076,0.0014060814152811367,-0.0035095718927665833,0.012996318923146115,0.9908299660411537
2012-12-20,1,0.0024622302200496605,0.002615269647336544,-0.0035095718927665833,0.00783560766296964,0.9914282334735696
2012-12-24,1,0.0016513842142924264,0.0016549847175510494,-0.0022256943853384186,0.00783560766296964,0.9916809052136211
2012-12-27,1,0.0014057945685270069,0.0014403480722410356,-0.0035095718927665833,0.00783560766296964,0.9914446735178439
2012-12-31,1,0.001986710486897156,0.0020379010315289656,-0.0036137583677177277,0.005008991018919901,0.992962152705841
2013-01-03,1,0.0017505582130587745,0.0017511441822752928,-0.005166143228645095,0.005008991018919901,0.9923666959507023
2013-01-07,1,0.0018867258985758298,0.001916317985189334,-0.005275103361095708,0.005008991018919901,0.9919889855265178
2013-01-09,1,0.0018065105752504702,0.0018721664690010832,-0.005840011401068495,0.005008991018919901,0.9918247949480138
2013-01-11,1,0.001992926528031251,0.0021214483758363995,-0.005840011401068495,0.007532153531243585,0.9913491749937133
2013-01-15,1,0.0024200745251026605,0.0026064771849384077,-0.006408531254361987,0.005008991018919901,0.99155881159633
2013-01-17,1,0.002749929689943994,0.0029688762438935495,-0.006408531254361987,0.005008991018919901,0.992684970780223
2013-01-22,1,0.0025013799737211573,0.0026697648284015104,-0.007286760161554368,0.00361451807113088,0.9902106999152807
2013-01-24,1,0.002361361156738857,0.0024907598593338636,-0.007286760161554368,0.009307760031148086,0.9871101627809835
2013-01-28,1,0.0022277714502103516,0.0022948052597188276,-0.007286760161554368,0.011983866880241384,0.9852275802338386
2013-01-30,1,0.001753605359520348,0.0017623301547256313,-0.007286760161554368,0.0175434267308634,0.984402731860526
2013-02-01,1,0.0027720341485682333,0.002971366392485759,-0.006408531254361987,0.011983866880241384,0.9854748413177455
2013-02-05,1,0.0027554293479877916,0.002903735605279303,-0.006408531254361987,0.01648755739739277,0.9851323975358425
2013-02-07,1,0.0022775704603796056,0.0023729593408204266,-0.004386978151268969,0.01648755739739277,0.9855164994704825
2013-02-11,1,0.0021260949413169582,0.0022103911809401456,-0.004386978151268969,0.01648755739739277,0.9854652207742367
2013-02-13,1,0.0010168225325497815,0.0011205513838590422,-0.002222385006437713,0.01648755739739277,0.9851464304870713
2013-02-15,1,0.001715956450426575,0.0017355121120378547,-0.005976266001362551,0.01648755739739277,0.9849786161837705
2013-02-20,1,0.0010046455821722633,0.0010163259352379372,-0.005399889656759502,0.01648755739739277,0.9862031220836468
2013-02-22,1,0.0033879297003740565,0.0036710619731675385,-0.006858333553898019,0.012318162996193505,0.9891930774808197
2013-02-26,1,0.003015775895353603,0.003255215065088635,-0.005399889656759502,0.012318162996193505,0.9908490991475477
2013-02-28,1,0.003478085626705225,0.003746289408433929,-0.005399889656759502,0.012318162996193505,0.9911848694944588
2013-03-04,1,0.004030899546655043,0.004390958848132101,-0.005825650485176753,0.014448790787489249,0.98932095824831
2013-03-06,1,0.005171137209061502,0.0056988513971180385,-0.006858333553898019,0.009561006325888662,0.9880553439688246
2013-03-08,1,0.005273925148129478,0.00577506844938416,-0.009920136750716171,0.010200977876419073,0.9867364295103869
2013-03-12,1,0.004618105445611774,0.005026312421684432,-0.006858333553898019,0.010200977876419073,0.9877365149097159
2013-03-14,1,0.0048869196648344,0.00540717272071191,-0.005825650485176753,0.011416180516791437,0.9880436834689474
2013-03-18,0,0.0,0.0,-0.006770806013850424,0.014448790787489249,0.9833068450805793
2013-03-20,0,0.0,0.0,-0.012994695656775324,0.011626893656495954,0.981865252504536
2013-03-22,0,0.0,0.0,-0.007344564012339635,0.017430478710307798,0.9805625155467583
2013-03-26,0,0.0,0.0,-0.007344564012339635,0.0181556269943786,0.979931462930532
2013-03-28,0,0.0,0.0,-0.01998643541706041,0.016259530730334898,0.9791146778069757
2013-04-02,1,0.0031012174974635455,0.003250434775379481,-0.01998643541706041,0.016259530730334898,0.9805455958464407
2013-04-04,0,0.0,0.0,-0.023079190589302464,0.016259530730334898,0.9795402790255918
2013-04-08,0,0.0,0.0,-0.023079190589302464,0.016259530730334898,0.9794080867675061
2013-04-10,0,0.0,0.0,-0.023079190589302464,0.016259530730334898,0.9789362724410232
2013-04-12,0,0.0,0.0,-0.023079190589302464,0.016259530730334898,0.9790289018940522
2013-04-16,0,0.0,0.0,-0.01998643541706041,0.016259530730334898,0.9823273750841462
2013-04-18,0,0.0,0.0,-0.011455807335068829,0.016259530730334898,0.9832651342029385
2013-04-22,0,0.0,0.0,-0.015171907462351239,0.01568356753556466,0.9841598144283755
2013-04-24,0,0.0,0.0,-0.02002714896915591,0.01418860628717572,0.9840246131611021
2013-04-26,0,0.0,0.0,-0.010190080419070945,0.014860004338444428,0.985293766088388
2013-04-30,1,0.00023751425225144443,0.0005614059635448208,-0.015550879096768461,0.014860004338444428,0.9847605099076452
2013-05-02,-1,-0.0012568095101407252,-0.0007478203884926328,-0.010190080419070945,0.014860004338444428,0.9866495132444586
2013-05-06,0,-0.00023859158540428995,0.00012985960185331671,-0.01033485375974268,0.013952239651739359,0.9879282772410323
2013-05-08,1,0.0003279713364846206,0.0005599557641537388,-0.014059782486610599,0.014860004338444428,0.9868210758751785
2013-05-10,1,0.00020055712298285477,0.0004454170236125748,-0.014059782486610599,0.014860004338444428,0.9865987503995954
2013-05-14,1,0.0016482402839523248,0.0016991853685598003,-0.01601168491754019,0.009702258673960365,0.9862349671939576
2013-05-16,1,0.0008712717613145061,0.0009948976887965164,-0.014059782486610599,0.013651466320902726,0.986134405103786
2013-05-20,1,0.0005355920586184063,0.0007093259986520568,-0.010488455699999923,0.013651466320902726,0.9864234029974044
2013-05-22,0,-0.00014208154123289234,0.000106942883771923,-0.010488455699999923,0.013651466320902726,0.986340751273475
2013-05-24,1,1.69362222000001e-05,0.00019093647856299522,-0.015255027759825752,0.002851728072777712,0.9855715496865439
2013-05-29,1,0.00029202189543092125,0.000449391269626666,-0.014618414239290504,0.010676199732259539,0.9858942088170779
2013-05-31,-1,-0.000274226307298018,-6.733117474391542e-05,-0.010586281631908098,0.010676199732259539,0.9861465100387675
2013-06-04,-1,-0.0008807356963500574,-0.0005740054299280926,-0.008429635910640675,0.014252090127249269,0.9853357369992152
2013-06-06,-1,-0.0012069810355430461,-0.0008347137766910083,-0.0058426055651821,0.013430072271081353,0.9867336529228684
2013-06-10,-1,-0.0006681085504666706,-0.0003750041828128075,-0.0058426055651821,0.012446951852871842,0.9867563743382122
2013-06-12,-1,-0.0015437920761117033,-0.001181446863929855,-0.0058426055651821,0.014930057258714578,0.9865725165149393
2013-06-14,-1,-0.00065532044888852,-0.0004096718090135263,-0.005476164275260781,0.012446951852871842,0.9880816667143247
2013-06-18,-1,-0.0002486339856355831,-5.5766799967147274e-05,-0.00630818086234092,0.011992819936432385,0.9885137018046716
2013-06-20,-1,-0.0012798623219150342,-0.000934845855361422,-0.003653143804421664,0.011992819936432385,0.9897654504131032
2013-06-24,-1,-0.0023516500428635324,-0.0018852486239090383,-0.003653143804421664,0.011992819936432385,0.9900841632388714
2013-06-26,-1,-0.0014512944602855084,-0.0011187231759093295,-0.003653143804421664,0.011992819936432385,0.9883251946934558
2013-06-28,-1,-0.0019861873936820144,-0.0016398522687562527,-0.006563367132627047,0.011992819936432385,0.9876563550009413
2013-07-02,-1,-0.001270552748306439,-0.0009803942418251817,-0.007387295335696483,0.006913358523395261,0.9890832204265906
2013-07-05,-1,-0.0009327985892709751,-0.0006806585673403196,-0.007387295335696483,0.006913358523395261,0.9885353640722012
2013-07-09,-1,-0.0008498577447286622,-0.0005868357925020123,-0.009473264483858003,0.006124860947815556,0.9881460789142698
2013-07-11,-1,-0.00029243764394696866,-0.00010659242635497181,-0.008371524317108688,0.0031824251947968818,0.9893608346220798
2013-07-15,-1,-0.0010583957342769415,-0.0007020488121531539,-0.008371524317108688,0.002768642054238768,0.9898856937230303
2013-07-17,0,-5.9707645076916515e-05,6.517511979515768e-05,-0.007033791472740613,0.002768642054238768,0.9896659118873404
2013-07-19,-1,-0.0003176498338323152,-0.00015256527113927955,-0.008371524317108688,0.004883511526141215,0.9877882062585907
2013-07-23,0,0.0,0.0,-0.008371524317108688,0.0051115801125942,0.9873088282130218
2013-07-25,1,0.001743243998733884,0.0018927430425566489,-0.010569791502336391,0.0016665188070314548,0.9892714732486074
2013-07-29,1,0.0013738514604510533,0.0015278476336307266,-0.008371524317108688,0.00516570024228185,0.9903780770688736
2013-07-31,0,0.0,0.0,-0.00950927991346878,0.007431463152827097,0.9898587144159327
2013-08-02,0,0.0,0.0,-0.011200144279912318,0.007431463152827097,0.9899115320491255
2013-08-06,1,0.0006609744881347795,0.0007099059438890954,-0.006920508509069289,0.007431463152827097,0.9905607317012336
2013-08-08,1,0.00035453296779692795,0.00035940829613847157,-0.004921666830567724,0.007431463152827097,0.9904452518085416
2013-08-12,1,0.0005569007928684125,0.0005779295155355057,-0.004921666830567724,0.008657171918186803,0.9892992501866392
2013-08-14,1,0.0007386267296308966,0.0007617825837058311,-0.011200144279912318,0.007431463152827097,0.9889221226902025
2013-08-16,1,0.0004739654827900033,0.0004866093016884566,-0.004921666830567724,0.008657171918186803,0.9898302031281294
2013-08-20,1,0.00024053268373771627,0.0002529558862645649,-0.004921666830567724,0.008657171918186803,0.9896582711199203
2013-08-22,1,0.00028941778642427676,0.0003616618130733245,-0.0038088374089892945,0.008657171918186803,0.9901251184325025
2013-08-26,1,0.00022701321344552908,0.00023640923830798872,-0.006934018011342248,0.00790200496023481,0.9900061092925043
2013-08-28,1,0.0003347356490364774,0.0003792687409200953,-0.006172861997800943,0.00801872306987225,0.9903047129617424
2013-08-30,1,0.0004932217450654579,0.0005721893244029128,-0.008942024816507892,0.005868427700688735,0.9888969572855432
2013-09-04,1,0.0009819506227050512,0.0011418665721690674,-0.014225203718651547,0.005983908148966878,0.9881317432929166
2013-09-06,1,0.0009738878021786157,0.001116882332934518,-0.014740004984964486,0.004509708173788946,0.9874016544071504
2013-09-10,1,0.0007953848779068428,0.0008121219758355205,-0.014740004984964486,0.00030077686358661465,0.9880861879912475
2013-09-12,1,0.0008459876547792692,0.0009563037383308585,-0.014225203718651547,0.0028523279796245924,0.9881364596452331
2013-09-16,1,0.001946363044243478,0.002248143453489277,-0.014225203718651547,0.0026798929789921496,0.9877545383457726
2013-09-18,1,0.000571168379105379,0.0006113467440578974,-0.014225203718651547,0.00906737997594369,0.9884977189319835
2013-09-20,1,0.0004884361700968695,0.0005388311024822616,-0.014225203718651547,0.00906737997594369,0.9884092175994826
2013-09-24,-1,-0.0011368568981406485,-0.0008961119147717309,-0.014317751629893693,0.00906737997594369,0.9881022026712655
2013-09-26,-1,-0.00025681949118124464,-0.00017504642529181014,-0.014317751629893693,0.00906737997594369,0.9882550189992224
2013-09-30,-1,-0.001630367986132054,-0.001425799386079698,-0.011426367602832558,0.010196961500152995,0.9894503212891346
2013-10-02,-1,-0.0019756216086405636,-0.0017164540858902212,-0.011426367602832558,0.00906737997594369,0.9901107494557363
2013-10-04,-1,-0.001810583400467602,-0.0016362183629221104,-0.005323749538076236,0.00906737997594369,0.990186246629915
2013-10-08,-1,-0.0025196355284141467,-0.002235532124993469,-0.005323749538076236,0.00906737997594369,0.9882364391396868
2013-10-10,-1,-0.001446716468839288,-0.0012938721525463446,-0.008496707600878036,0.008526070851426919,0.9895911110271329
2013-10-14,-1,-0.0009651236283721729,-0.0008354088756302556,-0.008496707600878036,0.008526070851426919,0.9892475928368899
2013-10-16,-1,-0.0009694420185912325,-0.0008600628677028841,-0.004425480508813265,0.007997309263672838,0.9902638935180561
2013-10-18,-1,-0.0006695400490982228,-0.0005899201262459378,-0.004425480508813265,0.010237226899928351,0.9897510923239861
2013-10-22,-1,-0.0016809705048459363,-0.0014583003033381372,-0.003898597626446555,0.010237226899928351,0.9906415071408806
2013-10-24,-1,-0.0015698916203670675,-0.0013389437307639472,-0.003782634706750419,0.010237226899928351,0.9896905706350777
2013-10-28,-1,-0.0017526878643667268,-0.0014836309701527785,-0.0021513005225926264,0.008722592430941221,0.9905039110366077
2013-10-30,-1,-0.001974443939470819,-0.0016982600922761505,-0.0021513005225926264,0.008722592430941221,0.9907556299525253
2013-11-01,-1,-0.0022910441935428804,-0.0019207198461867515,-0.0021513005225926264,0.008722592430941221,0.9911473605331791
2013-11-05,-1,-0.0027593787697790823,-0.002384516341743064,-0.003422250895288469,0.005273797361047686,0.9927035161000914
2013-11-07,-1,-0.002811483310653721,-0.0024556886419705415,-0.0017744073366855679,0.008407009869616587,0.9921879584573999
2013-11-11,-1,-0.0025359872367884126,-0.0021452909782922617,-0.0017744073366855679,0.00489799483331701,0.9935169972882831
2013-11-13,-1,-0.0029540241091037473,-0.0024685815802373092,-0.002337417661142394,0.00489799483331701,0.9930486204233174
2013-11-15,-1,-0.001691741527482418,-0.0014011027215091454,-0.002337417661142394,0.00489799483331701,0.9922839475651559
2013-11-19,-1,-0.001953184192245838,-0.0016372088360749764,-0.0012391861379232334,0.008069062332672131,0.9910453337795714
2013-11-21,0,-1.940220525408371e-05,1.916518602179272e-05,-0.004441828861632618,0.00489799483331701,0.992206958878379
2013-11-25,1,0.0002354757382215886,0.00024706486413027956,-0.004441828861632618,0.008069062332672131,0.9916361348680521
2013-11-27,1,0.00028159923123856036,0.00032065974186414514,-0.004451103731358651,0.008069062332672131,0.9915563446590898
2013-12-02,1,0.0005967713238632288,0.0007079835238390348,-0.004451103731358651,0.008069062332672131,0.9917860265374779
2013-12-04,1,0.0003063269000829865,0.0004018585318450933,-0.0037818466166064948,0.008069062332672131,0.9921629942547802
2013-12-06,1,0.0004671986616858796,0.00056918714113754,-0.0037818466166064948,0.008560149330233996,0.9919828152558597
2013-12-10,1,0.0007577547549378227,0.0008974211030256523,-0.0037818466166064948,0.006105628725518252,0.9921946079693064
2013-12-12,-1,-4.797319487204194e-06,-1.4783011824255199e-06,-0.004219045667484872,0.006105628725518252,0.9917965053024356
2013-12-16,1,0.0027766534579505334,0.0032942417296904767,-0.004219045667484872,0.00413506234533172,0.993089639479777
2013-12-18,1,0.0029306736389453575,0.003402643168706549,-0.004890175919425916,0.002970838477143866,0.9933517088488946
2013-12-20,1,0.001943444958746851,0.0022649167526237308,-0.004219045667484872,0.002970838477143866,0.9942951246896348
2013-12-24,1,0.0029015167556230093,0.0033960016892318886,-0.0054557258551128085,0.001376700310677846,0.9917376253681255
2013-12-27,1,0.002381769746401448,0.0027598543453199913,-0.0054557258551128085,0.002970838477143866,0.9921236285905437
2013-12-31,1,0.002233535839984561,0.0025787502064592463,-0.0054557258551128085,0.004029016345851027,0.9916455181734386
2014-01-03,1,0.0020101868980819944,0.0023372944001648233,-0.006347056881250648,0.005329228996880844,0.9899282668855486
2014-01-07,1,0.002590899355316331,0.003026637300574079,-0.006347056881250648,0.005329228996880844,0.9891615321984079
2014-01-09,1,0.0025787110180893343,0.0029780723687068975,-0.006347056881250648,0.008682560718519423,0.9889629006650811
2014-01-13,1,0.0013690340690061084,0.0015707152015439936,-0.005269164811156902,0.009875791238361908,0.9891786302048851
2014-01-15,1,0.0015601539245979124,0.0017532369639865777,-0.005269164811156902,0.008682560718519423,0.9892667437539436
2014-01-17,1,0.0014562313569675904,0.0016668898929014222,-0.003785089459673341,0.008682560718519423,0.9898554164228214
2014-01-22,1,0.0009559767076173022,0.001093838377165008,-0.0008450981057190636,0.010184527377300048,0.9891972039046119
2014-01-24,-1,-0.0005778671028508066,-0.0005238596692492118,-0.0006058583835622645,0.010184527377300048,0.9902070158492329
2014-01-28,1,0.0002465774291946386,0.00032371408688666714,-0.001674667553749149,0.010184527377300048,0.9909832801492711
2014-01-30,1,0.0010148114782487045,0.0011996878285809678,-0.003969196147552915,0.00837506489209435,0.9919916215624116
2014-02-03,1,0.0006202079256300001,0.0007923225709961841,-0.003969196147552915,0.00837506489209435,0.9927517014253247
2014-02-05,1,0.0011154631443266766,0.0013105299229523068,-0.003969196147552915,0.007138534733690019,0.9936619197962232
2014-02-07,1,0.0016797990840121157,0.0020015039354371223,-0.004563253476423703,0.006777982939546003,0.9937532335657162
2014-02-11,1,0.0019523192936246204,0.002270108204083108,-0.005521067291769317,0.004003472334430247,0.993490526143032
2014-02-13,1,0.0021976520028752613,0.002525912581409658,-0.006261172646096205,0.0010214777435094045,0.9925666069136319
2014-02-18,1,0.0017983313437343914,0.0020442627602648396,-0.006261172646096205,0.0005163534568470268,0.992282816704465
2014-02-20,1,0.0022062160264414753,0.002520584171160613,-0.005754220297297868,-0.0005073929345457038,0.9926237015180955
2014-02-24,1,0.0008321988183882483,0.0008703035858991911,-0.005754220297297868,0.0005163534568470268,0.9935448820766046
2014-02-26,1,0.0007775478842562194,0.0007866453170432564,-0.006261172646096205,0.0005163534568470268,0.992054986786817
2014-02-28,1,0.00017348444516555373,0.00027018174273447444,-0.006261172646096205,0.004472955070856577,0.9917347946960628
2014-03-04,-1,-0.000751225826603184,-0.0005135840029378092,-0.005754220297297868,0.002398786782890466,0.9935052706866725
2014-03-06,-1,-0.00032996358320660596,-0.00018762124886786865,-0.005169858764854566,0.0025167154157522314,0.99287513685971
2014-03-10,1,1.0009233755751089e-05,7.1897702248522e-05,-0.005544623374254619,0.0025167154157522314,0.9920710042241582
2014-03-12,-1,-0.0010085812319775324,-0.0008039517958161704,-0.005095121229126783,0.00549065200405609,0.992210563849219
2014-03-14,-1,-0.0015415226776580215,-0.0012938615651062423,-0.005095121229126783,0.00549065200405609,0.9922009998272618
2014-03-18,-1,-0.002353253318258179,-0.001971389388654597,-0.00525907316707385,0.00549065200405609,0.9921987180589088
2014-03-20,-1,-0.0023551133780952177,-0.001994165406877453,-0.00525907316707385,0.008575562459956807,0.9914589520541262
2014-03-24,-1,-0.0022892476557510055,-0.0019317089515595365,-0.00525907316707385,0.01005795933180457,0.9911540456189307
2014-03-26,-1,-0.0030849730633732858,-0.002612502421133716,-0.005095121229126783,0.006123687195346387,0.9926480373357546
2014-03-28,-1,-0.002156736103224032,-0.001812517029157142,-0.00525907316707385,0.006123687195346387,0.9927033608763488
2014-04-01,-1,-0.002884186695378619,-0.002394484684541496,-0.00600020026781475,0.010547832814190843,0.9916546014909253
2014-04-03,-1,-0.002571609378977757,-0.0021039851137004835,-0.008673307484005124,0.006123687195346387,0.9921073940434716
2014-04-07,-1,-0.0025136751912184494,-0.002110669468669594,-0.00600020026781475,0.006123687195346387,0.9926208183313149
2014-04-09,-1,-0.0021358251069912466,-0.0017801506639837676,-0.00600020026781475,0.006123687195346387,0.9927422025882909
2014-04-11,-1,-0.0026252694865297795,-0.002247456146143498,-0.0022248739928851804,0.010356912164657324,0.9923541701257094
2014-04-15,-1,-0.002783142960143113,-0.00237179872272593,-0.0022248739928851804,0.010356912164657324,0.9925050770092335
2014-04-17,-1,-0.0015962141228166079,-0.0013909935170275016,-0.004970369816850264,0.006123687195346387,0.9933225389017031
2014-04-22,-1,-0.0010208454145061638,-0.0008821620186205508,-0.0054228280020148355,0.004996337411115628,0.9935717746072112
2014-04-24,-1,-0.0011870858460015848,-0.0010213712818505595,-0.0054228280020148355,0.004996337411115628,0.9932890824880274
2014-04-28,-1,-0.0007812179694513322,-0.0006649799977766972,-0.004970369816850264,0.004241565216689932,0.9942412184573763
2014-04-30,-1,-0.0009538497767055843,-0.0007939189485280885,-0.0037916660564244497,0.003929190513051966,0.9953746283455027
2014-05-02,-1,-0.0014233595150432282,-0.0012209267459403722,-0.0037916660564244497,0.004241565216689932,0.994646006406227
2014-05-06,-1,-0.0012629158321784107,-0.0010948846621085598,-0.004970369816850264,0.004996337411115628,0.9937482864780792
2014-05-08,-1,-0.0010315367870608336,-0.0008668830181940834,-0.004970369816850264,0.004996337411115628,0.9940340624888094
2014-05-12,1,0.0005392199078362179,0.0006528915122860017,-0.004970369816850264,0.005800868575439088,0.9944947162922264
2014-05-14,1,0.0007340971351253075,0.0009201754721828655,-0.0054228280020148355,0.005800868575439088,0.9943954189058944
2014-05-16,0,-3.188878936590038e-06,3.2095380146731514e-05,-0.0019496636190289034,0.005923836960208687,0.994403237151957
2014-05-20,1,0.00026449041765152213,0.00036877595473336285,-0.0008445700883131156,0.005923836960208687,0.9948026759853098
2014-05-22,1,0.000348120464806621,0.00046006263208265804,-4.336477960185394e-06,0.005923836960208687,0.9950376406739422
2014-05-27,1,0.0004266192997649926,0.0005512212138151151,-0.0011351426017105937,0.005923836960208687,0.9948129348400334
2014-05-29,1,0.0004188503646439483,0.0005285640564746709,-0.0011351426017105937,0.005923836960208687,0.9947193085162535
2014-06-02,1,0.0007830311555912847,0.0009585430065811752,-0.00010119398242601144,0.0061814524331908925,0.9945083506568693
2014-06-04,1,0.0010802518614903864,0.0013096960068372542,-0.00010119398242601144,0.0061814524331908925,0.9947944257929359
2014-06-06,1,0.000981254250715433,0.0011488585570765923,-0.0011351426017105937,0.0061814524331908925,0.9941976646500827
2014-06-10,1,0.0016578591201658593,0.0019446749744247533,-0.002792650588356469,0.006299519564774198,0.9935465523774898
2014-06-12,1,0.0011793098470423086,0.001381699297502746,-0.0010097582278251326,0.006299519564774198,0.9936988127444681
2014-06-16,1,0.0012365304507988687,0.001421660895885793,-0.002269828247122326,0.005907657122011186,0.9936591960840008
2014-06-18,1,0.0006663371330396636,0.0006933193933258742,-0.006484827862216493,0.006273311107871474,0.9928237838886415
2014-06-20,1,0.0009171045443863558,0.0010012283319656532,-0.008043407819378451,0.006273311107871474,0.9913989605498879
2014-06-24,1,0.0009582814748035602,0.0010841437729458858,-0.008555714963427222,0.006658041270599466,0.98978633973972
2014-06-26,1,0.000664141875269246,0.0007117607792167783,-0.010009003931079175,0.007117359021419253,0.9864385184406796
2014-06-30,1,0.0018573520803258112,0.0020929994230704852,-0.01228505247465957,0.006658041270599466,0.986821640061411
2014-07-02,1,0.0018984557637988701,0.0021550713156807243,-0.013485371518041526,0.006027164357286275,0.9860370137658595
2014-07-07,1,0.0020715883609840327,0.00238584487228043,-0.013485371518041526,0.006027164357286275,0.9865285113003452
2014-07-09,1,0.0024570713187715143,0.002844137197087612,-0.013485371518041526,0.005553137807898905,0.987158159283362
2014-07-11,1,0.002552156988354898,0.002952178431367661,-0.013485371518041526,0.005754693960035728,0.9863908815477402
2014-07-15,1,0.00239307022092763,0.0027789944561952854,-0.013485371518041526,0.005754693960035728,0.9865116262812771
2014-07-17,1,0.002005075131667873,0.00231831570017999,-0.014542378742139499,0.0062042179647219566,0.9858921782444044
2014-07-21,1,0.001457589678049113,0.0017041804829857044,-0.013427136885338642,0.007179360742840453,0.9867700029940127
2014-07-23,1,0.0012798915827094946,0.0014980271409492773,-0.011315400808197314,0.004528572363202952,0.9882364563200463
2014-07-25,1,0.0024008084421267787,0.002746599595191826,-0.01067734326221281,0.004528572363202952,0.990149046972344
2014-07-29,1,0.001666246538992657,0.0019095692642862416,-0.010540527886106607,0.007179360742840453,0.9911025103240547
2014-07-31,1,0.0006959863385254585,0.0008006401043564125,-0.006564645199372414,0.007284223607802204,0.9922436381913691
2014-08-04,1,0.0006188905401723183,0.0006809238517281863,-0.006564645199372414,0.006797459001293969,0.9924850503700344
2014-08-06,1,0.00014655104609914758,0.00018062225859292384,-0.006564645199372414,0.008151650683309107,0.9920922344220882
2014-08-08,1,0.0001318697715220245,0.0001824779739503839,-0.005310792067694133,0.007376449979107487,0.9925045625530808
2014-08-12,-1,-0.00024927526582153907,-0.00014170478004079285,-0.006428151524012425,0.007376449979107487,0.9921398120417413
2014-08-14,-1,-0.0002142243883410008,-0.00011026138965163811,-0.006428151524012425,0.007376449979107487,0.9912212356302614
2014-08-18,-1,-0.0006662435314543086,-0.0004903457649236315,-0.006428151524012425,0.007376449979107487,0.9913531109308261
2014-08-20,-1,-0.0007892380809211265,-0.0006260466306034509,-0.006248188805162981,0.008372549876362413,0.9909759668577225
2014-08-22,-1,-0.0007805244169711045,-0.0006180829568208054,-0.004172339103089699,0.007234355165340695,0.9918069319847862
2014-08-26,0,-2.7907615758404527e-05,2.4306053206184014e-05,-0.006248188805162981,0.0048344210057761,0.9920692059771982
2014-08-28,-1,-0.00015383517641570383,-5.701105256020563e-05,-0.010031857700037596,0.005166454304861076,0.9913939433188733
2014-09-02,1,8.029232767874678e-05,0.000136124460223873,-0.010031857700037596,0.005123187706195624,0.9910218137760033
2014-09-04,-1,-0.00022337704702354486,-9.084352304747904e-05,-0.010866190156011575,0.0011725255778098588,0.9909004498373749
2014-09-08,-1,-0.00022475563786814175,-8.631564498135576e-05,-0.010866190156011575,0.0011725255778098588,0.9900389798851572
2014-09-10,-1,-0.0005409343620360133,-0.0003807096313418816,-0.01032239635153544,0.005123187706195624,0.9894334358174189
2014-09-12,1,0.0006296655883294959,0.0006327856008217256,-0.010866190156011575,0.0011725255778098588,0.9898404428898988
2014-09-16,0,-9.362931867429585e-06,7.524671423278845e-05,-0.010866190156011575,0.000867563368068865,0.9899152028315944
2014-09-18,1,6.553124400947584e-05,0.00013080397321531926,-0.010866190156011575,0.005155438737152322,0.9898225732487932
2014-09-22,1,0.00014444541158283576,0.0001991506388032385,-0.010866190156011575,0.009322381898900176,0.9877035835767248
2014-09-24,-1,-0.0006942299831158765,-0.0005035146764933785,-0.012010784241849152,0.010662365871673277,0.9861259084291157
2014-09-26,-1,-0.0010565736681999872,-0.0008193990831689144,-0.010400919907841522,0.01214526427789921,0.9862544287771635
2014-09-30,-1,-0.0011769973372501344,-0.0009529914306225707,-0.012010784241849152,0.01472107428596109,0.9849346809302744
2014-10-02,-1,-0.0015971951812826792,-0.0013546608708696131,-0.01317815064574486,0.01709697418036655,0.9840731389779364
2014-10-06,-1,-0.0012373678524205622,-0.0010258646291918731,-0.01317815064574486,0.01472107428596109,0.9851951173232183
2014-10-08,-1,-0.001037121743340555,-0.0008293781880429087,-0.01317815064574486,0.01472107428596109,0.9845022578263798
2014-10-10,-1,-0.0025135186094279475,-0.002130875012965069,-0.004291704446490406,0.01472107428596109,0.9850905815033661
2014-10-14,-1,-0.0031680038834102833,-0.002711622206235713,-0.00018636423386207725,0.015342803710252055,0.9845160179272094
2014-10-16,-1,-0.0023009666101703095,-0.0019496634975095322,-0.00018636423386207725,0.015342803710252055,0.9849041251754431
2014-10-20,-1,-0.00041795605391673743,-0.0002899353327824992,-0.0016047137372612627,0.014320618812913175,0.9876121440470212
2014-10-22,-1,-0.00018803152918320698,-9.585166991171734e-05,-0.0016047137372612627,0.012825323393112865,0.9893239908600661
2014-10-24,1,0.0006455019613194061,0.0006595913610862121,-0.00446180278160573,0.00911352621396708,0.9898054270225011
2014-10-28,1,0.0006832944071186554,0.0007204837426245804,-0.002720346091947082,0.007722398984073888,0.9913395096719816
2014-10-30,1,0.0013598414639071658,0.001509377286381191,-0.002720346091947082,0.007722398984073888,0.9923183884739516
2014-11-03,1,0.0011609716869415744,0.0012641505721101912,-0.00446180278160573,0.00812245717005847,0.9908067597944097
2014-11-05,1,0.0023360315325473002,0.002608950498885549,-0.0029996647308526882,0.00812245717005847,0.9926170763831117
2014-11-07,1,0.002623689612224169,0.0029436403619656276,-0.0055636904137428365,0.00812245717005847,0.992367887964392
2014-11-11,1,0.0029877031417282172,0.003356513338687585,-0.0074084350962984,0.00812245717005847,0.9921006266631668
2014-11-13,1,0.0034444953711826954,0.003851723706896521,-0.01059483669621095,0.006049055969617523,0.9910979246631615
2014-11-17,1,0.0033745742557505605,0.003774940872651028,-0.01059483669621095,0.0054426738623959735,0.9907384922258806
2014-11-19,1,0.003654794181598456,0.004160463914586016,-0.00955622613135532,0.008487279277107854,0.9903730047813167
2014-11-21,1,0.0029892658386604207,0.0033917203216412254,-0.007071415905022671,0.008487279277107854,0.9910064707230507
2014-11-25,1,0.0030875054923313098,0.0034943383282277593,-0.007530317502562627,0.008487279277107854,0.9905229762702374
2014-11-28,1,0.0031138364091791654,0.0035386569855690355,-0.0065084527591836834,0.007844253222874631,0.9912641631005189
2014-12-02,1,0.0033023650139310714,0.003756126695913212,-0.0065084527591836834,0.006059492660554406,0.991997045640613
2014-12-04,1,0.0035713590531970705,0.004042813858555662,-0.007530317502562627,0.003407611000747625,0.9907471652218903
2014-12-08,1,0.0032531470464132995,0.0036651649480002086,-0.009865343056293305,0.0023564514919330436,0.990353378153341
2014-12-10,1,0.0027580844785768327,0.003054751718061785,-0.007530317502562627,0.0023564514919330436,0.9897346977434426
2014-12-12,1,0.0015969213911811158,0.0017267748524583653,-0.006501053221592168,0.002790900009217747,0.9916720463746451
2014-12-16,1,0.0017974061991000692,0.002029667810507645,-0.005942776348840662,0.002790900009217747,0.9923424290175407
2014-12-18,1,0.0023387034734635294,0.0025949602847555116,-0.005942776348840662,0.002775000694291348,0.9929478817832329
2014-12-22,1,0.001703102736436533,0.0018174693933095832,-0.005942776348840662,0.003779870378504093,0.9927040768983498
2014-12-24,1,0.0016570965228269834,0.0017798124416433681,-0.005942776348840662,0.003779870378504093,0.9919554106566307
2014-12-29,1,0.0014759158452800148,0.0015726731611089865,-0.011597258128778752,0.003779870378504093,0.9905724611827504
2014-12-31,1,0.0010567902174160222,0.0011077150604125409,-0.01203372253600294,0.0065975248663675354,0.990257019393435
2015-01-05,1,0.00016150296419520252,0.00023655170003357244,-0.0072384782305519564,0.007429296749934003,0.9903972972541987
2015-01-07,-1,-0.0003873278388981962,-0.0002466490037983605,-0.0020138335270866816,0.010911252364641067,0.9898824783792545
2015-01-09,1,0.00033698112551071107,0.0004071760412185097,-0.005945427382526943,0.010053513620345407,0.9913759789445634
2015-01-13,1,0.0001229170748755302,0.00024354568732055628,-0.005945427382526943,0.010911252364641067,0.9903022573557791
2015-01-15,1,2.3400560550504044e-05,0.0001582880068004219,-0.005945427382526943,0.011347431172135908,0.9888497666722529
2015-01-20,1,0.0008351925990018642,0.0008520318573227791,-0.006547110305811436,0.010911252364641067,0.9891976206912932
2015-01-22,1,0.0014082851020376214,0.0014763410201348998,-0.0077296715682133145,0.011347431172135908,0.9890491858530492
2015-01-26,1,0.001016664242895188,0.0010340874102420933,-0.0077296715682133145,0.011347431172135908,0.9896394041421104
2015-01-28,1,6.831440350332644e-05,0.0001554295636971739,-0.005156474601264468,0.011347431172135908,0.9909011831084961
2015-01-30,-1,-0.00024638510933126,-0.00012705186729852465,-0.005156474601264468,0.011347431172135908,0.991192714362864
2015-02-03,1,0.000262253529594102,0.00034655486354142663,-0.00614841599114621,0.010383807762603134,0.9915195570865571
2015-02-05,1,0.0013660827475328791,0.001469252833334993,-0.006850316078213178,0.0028022003202041322,0.9912865313531699
2015-02-09,1,0.0004620805929273688,0.0005047303627913637,-0.006850316078213178,0.0028022003202041322,0.9914684983837564
2015-02-11,1,0.0010944270639295906,0.0011281301177850788,-0.006850316078213178,0.0028022003202041322,0.9915334443616021
2015-02-13,1,0.0019177508882878781,0.00205455782635944,-0.006850316078213178,0.0013006419496359124,0.9923459388173905
2015-02-18,1,0.0017388727181534927,0.001831030486255506,-0.006850316078213178,0.0013006419496359124,0.9925034892326612
2015-02-20,1,0.0016468477406748664,0.0017086934599760202,-0.006850316078213178,0.0013006419496359124,0.9917803763609532
2015-02-24,1,0.0006095323777520797,0.0007016237350377691,-0.006850316078213178,0.0013006419496359124,0.9923295203895998
2015-02-26,0,-5.400222350801932e-05,0.0001558381569822687,-0.008143448446483771,0.0033577606060119537,0.9917915457071474
2015-03-02,1,0.0002616033025745874,0.0004211601794182379,-0.008143448446483771,0.004343218040242515,0.99159054791572
2015-03-04,0,-0.00010310236573588948,7.828070627590724e-05,-0.010952725775529151,0.00524151045746072,0.9915771591450921
2015-03-06,-1,-0.0016787670251723682,-0.0012452905685529868,-0.007596844372711052,0.00524151045746072,0.9923511305178399
2015-03-10,-1,-0.0028673610911771974,-0.0022613958360503147,-0.006341480426524876,0.00614068701112339,0.9922447572991685
2015-03-12,-1,-0.0019846102227607243,-0.0015234342381589445,-0.006341480426524876,0.00614068701112339,0.9914276182618951
2015-03-16,-1,-0.0012969449272625922,-0.0009946633408454222,-0.010761188119960786,0.00614068701112339,0.9906750030527649
2015-03-18,-1,-0.0009451656189909544,-0.0006871956514693461,-0.010761188119960786,0.00524151045746072,0.9908527356817345
2015-03-20,-1,-0.0005564207881699536,-0.0003757064096684045,-0.010761188119960786,0.00524151045746072,0.9914142327390948
2015-03-24,-1,-0.0012996338071018664,-0.0010197643817697693,-0.010761188119960786,0.006722279402085697,0.9897440194905145
2015-03-26,-1,-0.001125429922236814,-0.0008985329060145138,-0.007596844372711052,0.009701479594994573,0.9897374411033408
2015-03-30,-1,-0.0007468240512643766,-0.0005522116118721379,-0.007596844372711052,0.00621240986092606,0.990199024849617
2015-04-01,-1,-0.000349791489821977,-0.00025252552221964055,-0.006762491513278217,0.009701479594994573,0.9898943754603922
2015-04-06,-1,-0.0006541552585638666,-0.000530908546459889,-0.00671479227000769,0.009701479594994573,0.9898903712648014
2015-04-08,-1,-0.0002691804688952904,-0.0002063033392618159,-0.00825812954166228,0.010200957466893899,0.9872400725393989
2015-04-10,1,0.0011863581281779158,0.0013477683439877789,-0.00825812954166228,0.009542566435528681,0.988107141956101
2015-04-14,1,0.0003086057976375798,0.00035228453015648394,-0.00671479227000769,0.009542566435528681,0.9882603517443669
2015-04-16,-1,-3.2056465686839255e-05,-1.493446294205389e-05,-0.00671479227000769,0.010200957466893899,0.9871392068238757
2015-04-20,-1,-0.0002761631769981339,-0.00020953341848362755,-0.0065228656604489265,0.009542566435528681,0.9875762804790854
2015-04-22,-1,-0.001036651479716461,-0.0008925332587515166,-0.0065228656604489265,0.008687335340459316,0.9895153571969169
2015-04-24,-1,-0.0006157458624930766,-0.0005171645197184836,-0.0065228656604489265,0.007397201765810412,0.9903217857940894
2015-04-28,-1,-0.0006844469097959396,-0.0005875728531082965,-0.0066672944796010505,0.007679853793932497,0.98985629870743
2015-04-30,-1,-0.0002634511579384415,-0.00023557485242852127,-0.0066672944796010505,0.007143125479123829,0.9898770955921209
2015-05-04,-1,-0.0003885830223834182,-0.0003425243220352638,-0.00804587820154234,0.007143125479123829,0.9898156069981363
2015-05-06,-1,-0.00140240231881984,-0.0012353690669920604,-0.0066672944796010505,0.006689962280220346,0.9930112833251782
2015-05-08,-1,-0.00157124573553731,-0.0013441076571261649,-0.00804587820154234,0.002668571984387468,0.9931828911470713
2015-05-12,-1,-0.002029673856845883,-0.0017313718073155042,-0.0066672944796010505,0.002668571984387468,0.9935495059967494
2015-05-14,-1,-0.00040649478552160466,-0.00034705061539014445,-0.007255038785111386,0.0006352619377396736,0.9938749984913215
2015-05-18,-1,-0.00037759481679608083,-0.0003204226700220825,-0.008550298604076209,9.775469380040322e-05,0.9939622303877342
2015-05-20,-1,-0.000696593974266254,-0.0006016585544339347,-0.008550298604076209,0.0016151512481711859,0.9938349783554304
2015-05-22,-1,-0.0006895986529879042,-0.0006023380146508814,-0.011026900316438092,0.0020585791045324604,0.9924464748531351
2015-05-27,-1,-0.0009589228147332696,-0.0008195057828118981,-0.008654382067145232,0.001515800710807614,0.992887560549898
2015-05-29,-1,-0.0018672753173056564,-0.0015953030824305261,-0.008654382067145232,0.001515800710807614,0.9932027745135527
2015-06-02,-1,-0.002436716089683418,-0.002079697777309577,-0.008654382067145232,0.001515800710807614,0.9934049651330654
2015-06-04,-1,-0.0018979565381069983,-0.0016412316910736648,-0.011354096997291337,0.0020585791045324604,0.9918640446072833
2015-06-08,-1,-0.002211470740910688,-0.0019265194498355922,-0.008654382067145232,0.0034981212970673255,0.9919334963831451
2015-06-10,-1,-0.0018567025712263041,-0.0016149989332866765,-0.011354096997291337,0.0020585791045324604,0.9912638840653154
2015-06-12,-1,-0.0014641014781226949,-0.001292563363886836,-0.011354096997291337,0.0034981212970673255,0.9907447781293639
2015-06-16,-1,-0.0014029468109299202,-0.0012625063195507958,-0.01117437372233921,0.0034981212970673255,0.9907543818476039
2015-06-18,-1,-0.001315053023899877,-0.0011735254920877628,-0.01117437372233921,0.0032000696849766096,0.9899368732906338
2015-06-22,-1,-0.0026117693364403564,-0.002280849202632869,-0.01117437372233921,0.007015991551574988,0.9902756879345778
2015-06-24,-1,-0.003062778861402999,-0.0026687555795693683,-0.01117437372233921,0.009215131803148117,0.9897179843455297
2015-06-26,-1,-0.003095017970428986,-0.002733547346924665,-0.01117437372233921,0.009215131803148117,0.9893152877856821
2015-06-30,-1,-0.0028302844229772424,-0.0025312340135148206,-0.011202342599873951,0.01580927911012121,0.9865503007473224
2015-07-02,-1,-0.0028356070842780723,-0.0025188566675729595,-0.010101842794832085,0.011404237250006909,0.9869660500697783
2015-07-07,-1,-0.002152105931289288,-0.0019519762233600282,-0.011078651619123043,0.011404237250006909,0.9869266690577704
2015-07-09,-1,-0.0024008388171928062,-0.00222113584602572,-0.010928622769631767,0.011404237250006909,0.9871960624514563
2015-07-13,-1,-0.001421284436616206,-0.0013646906578308807,-0.010928622769631767,0.009653027532625738,0.9877320152621727
2015-07-15,-1,-0.0015235391597861123,-0.0014691753740540925,-0.010928622769631767,0.009653027532625738,0.9875018335639645
2015-07-17,-1,-0.0014063055033691715,-0.0013437723004135643,-0.010928622769631767,0.00940713400644576,0.9881545108263377
2015-07-21,-1,-0.00100133012893802,-0.0009878594276735574,-0.010928622769631767,0.00940713400644576,0.9882814951762439
2015-07-23,-1,-0.0005246684001447,-0.00046054218971279597,-0.011767109483569859,0.008666685341800488,0.9876533247837971
2015-07-27,-1,-0.0015841344583770566,-0.0015258459368762026,-0.012889449944596064,0.008666685341800488,0.984680251730705
2015-07-29,-1,-0.0013138786678304126,-0.0012374606521407447,-0.012889449944596064,0.008666685341800488,0.9846759550014341
2015-07-31,-1,-0.0012094297328864522,-0.001120208291003112,-0.012889449944596064,0.00940713400644576,0.9836093644908542
2015-08-04,-1,-0.001077444841683539,-0.001031597463858353,-0.016569208508037284,0.00940713400644576,0.9820092803879253
2015-08-06,-1,-0.0011271299040076829,-0.0010611780728225831,-0.016569208508037284,0.00940713400644576,0.9823027596610836
2015-08-10,-1,-0.000397440016579636,-0.0003479645055529275,-0.016569208508037284,0.010401087875539151,0.9810442055085276
2015-08-12,-1,-0.00039159589134334083,-0.00033484377350208837,-0.021481662186048113,0.010401087875539151,0.9806307604178507
2015-08-14,-1,-0.0006341002006337767,-0.00063312333466769,-0.021481662186048113,0.008577436491520709,0.9810850714792738
2015-08-18,-1,-0.0006801500320183099,-0.0006705843927315483,-0.021481662186048113,0.004776164046981913,0.9819334282590028
2015-08-20,-1,-0.0010959869803646263,-0.001064568070005426,-0.015649875793599975,0.004776164046981913,0.9827456632740815
2015-08-24,-1,-0.0027464118772831565,-0.0025186222306259162,-0.012356045900712107,0.004776164046981913,0.9865269987966712
2015-08-26,-1,-0.002688149810841394,-0.002453773428268362,-0.011001469737938576,0.0030196319514540246,0.9891105019060162
2015-08-28,-1,-0.001420148236971742,-0.0013516556445338237,-0.012356045900712107,-0.0030164130898476843,0.9890424331659876
2015-09-01,-1,-0.0020487257952433234,-0.001967460499178915,-0.009897882513253846,-0.0008153007823630456,0.9908865647663277
2015-09-03,-1,-0.0022727618538974192,-0.0021160377070872666,-0.009897882513253846,-0.0008153007823630456,0.9900772237230914
2015-09-08,-1,-0.0014641439019148239,-0.0014057220776233406,-0.008713741874009237,0.0025558574940538308,0.9903550873271227
2015-09-10,-1,-0.002212385689202988,-0.002078473857970552,-0.007977103571436847,0.010783898273360959,0.9900081868280682
2015-09-14,-1,-0.0023983248457188633,-0.0022128235398735405,-0.008713741874009237,0.011985770054434039,0.9862122417632683
2015-09-16,-1,-0.0020826783340045793,-0.001966022736610164,-0.007977103571436847,0.011985770054434039,0.9863931164300538
2015-09-18,-1,-0.002573384795154155,-0.0023933536987060986,-0.006389547525267231,0.011985770054434039,0.9867893945630858
2015-09-22,-1,-0.002815227947245641,-0.002618866060442334,-0.006389547525267231,0.011985770054434039,0.986903999247571
2015-09-24,-1,-0.0027407480182465548,-0.002546951253006128,-0.003248847218096952,0.014829841932264706,0.9854148383164817
2015-09-28,-1,-0.0039084751285225604,-0.003560596630715484,-0.0018650827499711827,0.016111325460853386,0.9846291006987529
2015-09-30,-1,-0.0033311280741571496,-0.003050382893780905,-0.0027126297277231524,0.0202234814344867,0.9841122303639436
2015-10-02,-1,-0.001995716619484876,-0.001866505412546363,-0.007284018660419013,0.0202234814344867,0.985113265720555
2015-10-06,-1,-0.001341845641357486,-0.0013388219196768694,-0.009259015148895497,0.017789032394208724,0.9849351636449477
2015-10-08,-1,-0.0002165766637165798,-6.036027798808554e-05,-0.010529835625277824,0.005705252330440399,0.9857780485166004
2015-10-12,0,-5.482874311038479e-05,0.00010288111133739946,-0.010344119485421901,0.004463080463564636,0.9886327135104581
2015-10-14,0,-7.905011351423219e-05,7.661965780997543e-05,-0.010344119485421901,0.009647874251021052,0.988202439565319
2015-10-16,1,0.00020584088229346398,0.0004036467565389485,-0.010529835625277824,0.009647874251021052,0.9857109824261092
2015-10-20,-1,-0.00035918343575090244,-0.00026055988952264705,-0.010344119485421901,0.009647874251021052,0.9863169478199325
2015-10-22,1,0.0006751155692250336,0.0008977930999886724,-0.010344119485421901,0.009647874251021052,0.9863802761953553
2015-10-26,1,0.0007150017193749127,0.0009551898017299698,-0.010344119485421901,0.00585824150675456,0.987958872477746
2015-10-28,1,0.0013006187502343693,0.001598378053278082,-0.007645720105927814,0.00585824150675456,0.9883132475166181
2015-10-30,1,0.0003879659115661433,0.0005872467443106072,-0.00531013984496262,0.005987513271157311,0.9898196459822315
2015-11-03,1,0.000527270306581566,0.0007491367551227841,-0.007318666342699491,0.004914061703723889,0.989194513865363
2015-11-05,1,0.0002883591535169283,0.00047770127903147964,-0.0063174885945335695,0.005987513271157311,0.9888470012028179
2015-11-09,1,0.0005965642732904623,0.0008427708289045644,-0.011259219263174358,0.004914061703723889,0.9886575400482926
2015-11-11,1,0.0007382679711671777,0.0009967123135060313,-0.011626500974659428,0.0031261211421220016,0.988303691733839
2015-11-13,-1,-0.0006528604517147637,-0.0006081585502033649,-0.01269550963031765,0.0031261211421220016,0.9897353998591705
2015-11-17,-1,-0.0010226097638129212,-0.001001845623162694,-0.01269550963031765,0.0065340772000942226,0.9886904119608876
2015-11-19,-1,-9.178369255755233e-05,-2.2815564751163943e-06,-0.01507587769123186,0.003169211730256252,0.9880389143772685
2015-11-23,-1,-0.00012468951737352,-3.0308341730716582e-05,-0.01507587769123186,0.00978904144755671,0.9870063247210991
2015-11-25,1,0.0005129856331385057,0.0007211611621580159,-0.01507587769123186,0.00978904144755671,0.986847232157804
2015-11-30,1,4.4719557812059946e-05,0.00012999785292025295,-0.01507587769123186,0.011651492067637315,0.9859235231757163
2015-12-02,-1,-0.0003900218815684479,-0.00030978866523549616,-0.013488314568874497,0.011651492067637315,0.9868269856679691
2015-12-04,0,-1.2666634404422214e-05,9.728488126758457e-05,-0.013488314568874497,0.00978904144755671,0.9876733342244288
2015-12-08,-1,-0.0007523897805572953,-0.0007284384263959434,-0.015906175471522323,0.00978904144755671,0.986635908318869
2015-12-10,-1,-0.0008420233700143342,-0.0008071261570584416,-0.01496338945282935,0.011651492067637315,0.9863606188705377
2015-12-14,-1,-0.0011202393907726372,-0.0011007928627961745,-0.012004502509994882,0.011651492067637315,0.9873905987699843
2015-12-16,-1,-0.0003941624216694105,-0.0003118229795989235,-0.012004502509994882,0.010434225119197055,0.9878920594784801
2015-12-18,-1,-0.0017252136247562005,-0.0016666348891066006,-0.010970787732161105,0.010434225119197055,0.9887787986820926
2015-12-22,-1,-0.0005684429488051965,-0.000465078269242875,-0.010970787732161105,0.009769187720633498,0.9882115984939416
2015-12-24,-1,-0.00019527729008726838,-5.7034107653784185e-05,-0.012004502509994882,0.00859643384365472,0.9839859242434748
2015-12-29,1,9.233717210473515e-05,0.0002677905737173325,-0.012004502509994882,0.005736620645996022,0.9846491024403642
2015-12-31,-1,-0.0003990835767534871,-0.0002652415529581727,-0.010052008292634081,0.00859643384365472,0.9834640960450501
2016-01-05,1,0.0002132304466490526,0.00043199487992837723,-0.010052008292634081,0.008964678144663861,0.9830593766247913
2016-01-07,-1,-0.000952264434033665,-0.0008854974101674254,-0.007988501277206767,0.010264531227608922,0.9839123061029741
2016-01-11,-1,-0.0005621510959702878,-0.0004386148005129998,-0.007988501277206767,0.010264531227608922,0.9831662732866979
2016-01-13,-1,-0.00126013485092179,-0.001247698102966134,-0.009856085804677575,0.010264531227608922,0.9808655357781608
2016-01-15,-1,-0.001409869810262777,-0.0012972521678136484,-0.009856085804677575,0.023391992693662017,0.978777701512703
2016-01-20,-1,-0.0018264351097880762,-0.0016761103060464785,-0.007455686728021262,0.023391992693662017,0.9791194948873344
2016-01-22,-1,-0.0008153870443832334,-0.0007926615774938411,-0.008416000766260354,0.015858890102890013,0.978536233933973
2016-01-26,-1,-0.003928283053075621,-0.0035165952652214598,-0.007455686728021262,0.01700917465672743,0.9829020631106579
2016-01-28,-1,-0.003961941656755954,-0.003564589810631239,-0.006886935998430049,0.01700917465672743,0.9822182444194981
2016-02-01,-1,-0.0018884755506469657,-0.0017786065805987733,-0.006886935998430049,0.01700917465672743,0.9827845972770484
2016-02-03,-1,-0.0019475934158432314,-0.0017865233873334205,-0.005320248652839527,0.02338993998022443,0.9811957597701872
2016-02-05,-1,-0.0018671941202621236,-0.0017120684095279267,-0.005320248652839527,0.01700917465672743,0.9816790786291365
2016-02-09,-1,-0.0010725210501983007,-0.0010066090660941765,-0.005320248652839527,0.016164890216351528,0.981583976629511
2016-02-11,-1,-0.0035632411416623468,-0.00318182952983729,0.003441863326795725,0.018376762167621685,0.9812375079116421
2016-02-16,-1,-0.0018113778413025316,-0.0016087888604970455,0.0005642011339450528,0.015546888030563755,0.9843798288399951
2016-02-18,-1,-0.0019981179307722117,-0.0017664494492836491,0.0026439148002865877,0.018376762167621685,0.982945912507098
2016-02-22,-1,-0.0036305415262911844,-0.003142128949338357,0.0026439148002865877,0.018376762167621685,0.983432622374498
2016-02-24,-1,-0.0027463970424941994,-0.0023808927382832023,0.000643269007098723,0.018376762167621685,0.9842220510818943
2016-02-26,-1,-0.0018103684114044753,-0.001616007301534736,0.00020169002025958527,0.018376762167621685,0.9851291846364845
2016-03-01,-1,-0.00020318344582036604,-0.00019366199615636017,-0.005255207719765998,0.016959955562388537,0.9867577348963292
2016-03-03,1,0.0018207920406838165,0.0021584633450929336,-0.005255207719765998,0.013666269532114732,0.9895459484575838
2016-03-07,1,0.0021372667996324654,0.002552610943968355,-0.00867014978205191,0.013666269532114732,0.9885732293881727
2016-03-09,1,0.0020472694231977793,0.0024509465413993146,-0.00867014978205191,0.011985922390348864,0.9897523409942005
2016-03-11,1,0.0028691103018380518,0.003389352986890696,-0.00867014978205191,0.009144523043356799,0.9901475178842631
2016-03-15,1,0.002365746508250284,0.002787997462222043,-0.00805320183947133,0.011985922390348864,0.9899969362714878
2016-03-17,1,0.004333810333260743,0.005081878443702173,-0.00805320183947133,0.00928333313568529,0.990205734050519
2016-03-21,1,0.004426421655632358,0.005200209896098079,-0.008045945022376568,0.00928333313568529,0.9902908438691826
2016-03-23,1,0.004169316458761568,0.004946846921588912,-0.008045945022376568,0.00928333313568529,0.9908333456315194
2016-03-28,1,0.0037495699777742746,0.0044040386899930175,-0.008323508321348767,0.012724679033381685,0.9896096817722319
2016-03-30,1,0.0038707606650892875,0.004547199830474064,-0.008145014906573269,0.016194707294651604,0.989492851023473
2016-04-01,1,0.0036675423356894218,0.004287584935806031,-0.008967359434642013,0.016194707294651604,0.9884875534213838
2016-04-05,1,0.0029215810938990373,0.003448879824840226,-0.008145014906573269,0.016194707294651604,0.9884149804935501
2016-04-07,1,0.0028753604881240633,0.0034085795137484528,-0.008145014906573269,0.016194707294651604,0.9884523685492519
2016-04-11,1,0.0024744219302303893,0.002870704559818852,-0.008145014906573269,0.015295720013108416,0.9882608535588692
2016-04-13,1,0.0031899157558325114,0.003663528690085202,-0.008145014906573269,0.013668550437941808,0.9884470612002807
2016-04-15,1,0.004067514530413711,0.004719288314352053,-0.008895614464618213,0.012452872261747419,0.9883938602186619
2016-04-19,1,0.004699509842678674,0.0054249239083636455,-0.010230711468011904,0.010516035878644714,0.9877245614205552
2016-04-21,1,0.004425844076010408,0.005135256770185842,-0.012273218749452256,0.010516035878644714,0.9870953481428548
2016-04-25,1,0.004716966927777056,0.0054675894523833705,-0.010741996155385273,0.010516035878644714,0.9881048067230815
2016-04-27,1,0.00478779639283017,0.005474560373808094,-0.010741996155385273,0.010475093541611389,0.9881464828105718
2016-04-29,1,0.004258819764639723,0.004892614050534531,-0.0075926463949121895,0.010475093541611389,0.9891309432800663
2016-05-03,1,0.0031631693082081244,0.0035976013920725226,-0.00659438586834864,0.010475093541611389,0.9904416567138021
2016-05-05,1,0.0022936760519756266,0.002586559423777544,-0.005303563118594538,0.012070468764222207,0.9906104021024053
2016-05-09,1,0.0025841723267414967,0.0028667916632647544,-0.005303563118594538,0.012070468764222207,0.9906878968655242
2016-05-11,1,0.002969230154163934,0.0033510684621769118,-0.005399910233921937,0.007474281188940065,0.9909139034798865
2016-05-13,1,0.001597247965264117,0.0017035147239118922,-0.00751401812478488,0.007474281188940065,0.9899114319970184
2016-05-17,1,0.0015031671551853326,0.0016385672043052117,-0.00618729771926463,0.007474281188940065,0.9907740432710475
2016-05-19,1,0.0012162949661847203,0.0013420913248445483,-0.004004921128398615,0.007474281188940065,0.9916917173732658
2016-05-23,1,0.00159725884725282,0.0017798530378656627,-0.005530536389140702,0.007474281188940065,0.9913427905147261
2016-05-25,1,0.0019780307943275868,0.0021592402348918124,-0.005530536389140702,0.005627529784349758,0.9914088375288171
2016-05-27,1,0.0017626222995981951,0.001937659415840248,-0.0068178886297186716,0.004793956416804036,0.9876540189756662
2016-06-01,1,0.0010213878970874697,0.0010263906297675548,-0.0068178886297186716,0.01602036248808918,0.9860453541014877
2016-06-03,1,0.0014994918470446008,0.0015603419513058139,-0.0068178886297186716,0.01602036248808918,0.9852936347977687
2016-06-07,1,0.001753463568157871,0.0018203517683411867,-0.010001519358891792,0.009750202749619831,0.9849406176553772
2016-06-09,1,0.0015856271146266444,0.0016541282212727865,-0.0068178886297186716,0.01602036248808918,0.9846808885619243
2016-06-13,0,-0.00012432525571058975,5.578292746787549e-05,-0.003863348406697996,0.01794105421108003,0.9849289498007802
2016-06-15,-1,-0.00018485170104889123,-1.605934425242205e-05,-0.00248715825883804,0.01794105421108003,0.9850629217031759
2016-06-17,-1,-0.0015935448890498703,-0.0011255870208905908,-0.00248715825883804,0.020643234388863653,0.9836303090664128
2016-06-21,-1,-0.001800381091969781,-0.001287106559881926,-0.00248715825883804,0.020643234388863653,0.9840313458566787
2016-06-23,-1,-0.000421045757617553,-0.0001341976208584627,-0.003239838387931909,0.016802173624020873,0.9850683373000437
2016-06-27,-1,-0.0030376785135197357,-0.002454379757851264,-0.00035749423113035284,0.016802173624020873,0.9873052182358856
2016-06-29,-1,-0.0018020991786223046,-0.0013734713876767059,-0.001565043616885249,0.008942861183904208,0.9897601930331842
2016-07-01,-1,-0.0004986026886526147,-0.0002514126582944912,-0.002199733041523792,0.005648089089991038,0.9916452570852979
2016-07-06,-1,-0.0026194305073748043,-0.0019909924326935472,-0.0020820636353407907,0.006839959114070989,0.9918907945422492
2016-07-08,-1,-0.0010932213803542588,-0.0007362998516238189,-0.0020820636353407907,0.005648089089991038,0.9930780823103856
2016-07-12,0,-0.00016026998705521956,8.947113852513563e-05,-0.0024627724959122126,0.003706376317381057,0.9946801200523948
2016-07-14,-1,-0.0012081336790133008,-0.0007741951247774081,-0.0020820636353407907,0.0045991503135651484,0.9937295492527719
2016-07-18,0,-7.124550955345504e-05,0.00021558205176569294,-0.002670939975053883,0.003706376317381057,0.9951014852266189
2016-07-20,-1,-0.0005420848958756334,-0.0002105580325335849,-0.0024627724959122126,0.005845734187260521,0.9945919032005169
2016-07-22,1,0.00013381803205419205,0.0003289505788434152,-0.0024627724959122126,0.0065909342606119935,0.9946276984981718
2016-07-26,1,0.00126578465749424,0.0012795799491122106,-0.0027365316534387557,0.0065909342606119935,0.9939944468830355
2016-07-28,1,0.0012982584884322652,0.001329678217527043,-0.003330675636401631,0.0074328944058794375,0.991902383765624
2016-08-01,1,0.0008000096048192917,0.000849610977570718,-0.0027365316534387557,0.007930989088901474,0.9917359170375153
2016-08-03,1,0.0013619285286418305,0.0014298774441906205,-0.003330675636401631,0.007652920748444563,0.9917630443321632
2016-08-05,1,0.0011480846516928502,0.0011664932493709868,-0.003330675636401631,0.008460614426276328,0.9913123524443449
2016-08-09,1,0.0017010362084407854,0.0018768111737980683,-0.003330675636401631,0.008460614426276328,0.9916679060074935
2016-08-11,1,0.0021796828197610026,0.0024150537063277484,-0.008344080782522018,0.007609436185004388,0.9905177053110608
2016-08-15,1,0.0013960589897578674,0.0014873952164218603,-0.008344080782522018,0.008460614426276328,0.9901807283914873
2016-08-17,1,0.0020256746064813646,0.002204031753187137,-0.008344080782522018,0.008460614426276328,0.9902199922791114
2016-08-19,1,0.0020257370049568484,0.0022025218179019075,-0.008344080782522018,0.009026474995919773,0.9895305388443482
2016-08-23,1,0.0016197219245035121,0.001741032359156406,-0.008344080782522018,0.009923869230796906,0.9893861305506801
2016-08-25,1,0.0021632359453771233,0.002301109803250205,-0.008703710801089363,0.009923869230796906,0.9906569762526916
2016-08-29,1,0.0019128239728275218,0.001997493369705972,-0.01001884465764843,0.008759745837902039,0.9899176640194101
2016-08-31,1,0.0017265409835414414,0.001803093653855745,-0.010457623310203588,0.009949770655029066,0.9890628648725676
2016-09-02,1,0.002381047948408286,0.0025908073248781987,-0.010457623310203588,0.01044721734199466,0.9887272303915283
2016-09-07,1,0.002608741748870622,0.002862557788463259,-0.01268433302707643,0.01044721734199466,0.9874486319713612
2016-09-09,1,0.0018715195146135235,0.0020699820458625847,-0.010601349587678794,0.011017755338790809,0.988411310721369
2016-09-13,1,0.0016273106811116062,0.001767466880760785,-0.01268433302707643,0.010985007305258372,0.9880901386032976
2016-09-15,1,0.0020518010956567115,0.002259954966703564,-0.012928722872238804,0.010985007305258372,0.987663189954325
2016-09-19,1,0.0027260563785083468,0.003072510833792193,-0.012928722872238804,0.010985007305258372,0.9875637771848085
2016-09-21,1,0.0020864739479213384,0.0023060082430065043,-0.01204272527831055,0.012683872848380962,0.987538929816174
2016-09-23,1,0.0015918044478598046,0.0017021790488635166,-0.012928722872238804,0.012683872848380962,0.987169978686586
2016-09-27,1,0.0005830255828286925,0.0006376274888006063,-0.010682812869399587,0.012683872848380962,0.9880699912885833
2016-09-29,1,0.0008047881333331779,0.0008153496306525607,-0.010682812869399587,0.01070111893718122,0.9878003915223778
2016-10-03,1,0.0010209648995645505,0.0010614262230656457,-0.010682812869399587,0.0028477153380266503,0.9883646056191937
2016-10-05,1,3.461104827365231e-05,0.00014753521977741162,-0.010682812869399587,0.0028477153380266503,0.9890246409772984
2016-10-07,-1,-0.00046169527529802193,-0.0002620570944773167,-0.01249735068517601,0.002512165683134817,0.9892851892241094
2016-10-11,-1,-0.001714524763340135,-0.0013358207706496447,-0.0101533454378561,0.009051134542038812,0.9897856236956766
2016-10-13,-1,-0.001448488449964344,-0.0011187028798657769,-0.006988162290120665,0.009051134542038812,0.9897757986653566
2016-10-17,0,-9.909463661023218e-05,3.077541377715352e-05,-0.006988162290120665,0.0069012573412014925,0.9892306999126573
2016-10-19,1,0.0005981197904974685,0.0006603162316830877,-0.006988162290120665,0.0069012573412014925,0.9898336052783857
2016-10-21,-1,-0.0005125571415667188,-0.0003184744425558431,-0.00399838421954527,0.008123819655972614,0.990724678462811
2016-10-25,-1,-0.0005009521258777433,-0.00033775977175562303,-0.0029858612111411578,0.008123819655972614,0.9906671009853578
2016-10-27,-1,-0.0011336049274046356,-0.0009319344488424271,-0.0013984398518283813,0.008123819655972614,0.9916047971857531
2016-10-31,-1,-0.0015095253153186933,-0.0012469786376190653,-0.0014008629892864385,0.008123819655972614,0.9913096098066854
2016-11-02,-1,-0.0028130022316797225,-0.0023408227060561365,0.0013870128389237538,0.009322027558105246,0.9904630958236414
2016-11-04,-1,-0.003233680746642484,-0.00269327841649852,0.0026849155114015066,0.012248514215658219,0.9892730588756508
2016-11-08,-1,-0.0024040438225923937,-0.001978948324235998,0.0026849155114015066,0.015716144884991963,0.9889244522241762
2016-11-10,-1,-0.001678441002708458,-0.0013457436039155497,0.0026849155114015066,0.012248514215658219,0.9899658842175548
2016-11-14,-1,-0.00020630752984807744,-6.99449512640311e-05,0.0013870128389237538,0.00880448898825056,0.9920658246369265
2016-11-16,-1,-0.0019787981842291427,-0.0014674731800244395,-0.002565162452925411,0.009157322409323931,0.9914100650577861
2016-11-18,-1,-0.0008925008535734975,-0.0005704982901409265,-0.002565162452925411,0.008464279478279157,0.9921219718282067
2016-11-22,0,-0.00017437972229030906,4.2790163253248175e-06,-0.0015909946512422343,0.008464279478279157,0.9923419293549578
2016-11-25,-1,-0.0004983148293335094,-0.00024646995899691977,-0.0025841774144763166,0.008464279478279157,0.9922423336178845
2016-11-29,-1,-0.0003175049798444815,-0.00011163237281649867,-0.0025841774144763166,0.008464279478279157,0.9915199542124936
2016-12-01,1,0.0010852046799624717,0.0011008399444602322,-0.003292475693384032,0.006816334181364087,0.9924212428208925
2016-12-05,1,0.0019402547887357137,0.0020499944312599135,-0.003292475693384032,0.006353099846332193,0.9932941225409935
2016-12-07,1,0.003788198157268499,0.004208850613518225,-0.004650438990954051,0.0049140729961517585,0.99414854545946
2016-12-09,1,0.0035719184339398184,0.003929533878549883,-0.004650438990954051,0.00450310881113322,0.9940411558797444
2016-12-13,1,0.0031010173045350536,0.0033963600985765234,-0.003676417409860501,0.0049140729961517585,0.9942814145818084
2016-12-15,1,0.003390556022869591,0.0037459310358135545,-0.003676417409860501,0.00450310881113322,0.994200293126909
2016-12-19,1,0.0032321974381954717,0.003564034452298292,-0.0060063837469982,0.00450310881113322,0.9938945446955045
2016-12-21,1,0.0029635154553539138,0.003241819536245287,-0.0060063837469982,0.0050251599331235675,0.9931096675933493
2016-12-23,1,0.00306247855299396,0.0033568660262912314,-0.0060063837469982,0.007907432601698315,0.9904955265643102
2016-12-28,1,0.00255970004418587,0.0027840698954531384,-0.0060063837469982,0.007907432601698315,0.990762958815162
2016-12-30,1,0.0022526647871880167,0.002433126682101798,-0.006912016478736971,0.007907432601698315,0.990464766423043
2017-01-04,1,0.0031658643042616636,0.003504653020744323,-0.007921097807396344,0.00391142473514828,0.9877206312567588
2017-01-06,1,0.002424533476180377,0.0026286969637614684,-0.007955254963572323,0.00391142473514828,0.9867177399029551
2017-01-10,1,0.0026693644650615453,0.002952684550745208,-0.007955254963572323,0.010590397866686065,0.9857558814972497
2017-01-12,1,0.0025780475064994222,0.0028503006807710277,-0.007955254963572323,0.012159663722482408,0.9849865166132089
2017-01-17,1,0.0017596063208120596,0.0018921434104516204,-0.006912016478736971,0.012159663722482408,0.9856000311198296
2017-01-19,1,0.0021346891538062975,0.0023925915550546744,-0.006741712073217984,0.012312328160647895,0.9854033125822961
2017-01-23,1,0.003099944270978631,0.003483942307431524,-0.007955254963572323,0.011710545526171644,0.9848469029575829
2017-01-25,1,0.005062275864249805,0.005685065711786444,-0.009667008576352588,0.00541522994735461,0.9860384704833547
2017-01-27,1,0.004553309553816054,0.005127956854162051,-0.009344999507872846,0.008312688957372165,0.9871930808734638
2017-01-31,1,0.004163075146841162,0.0046953856595300615,-0.00823879297367842,0.010627699888904229,0.9872977847933438
2017-02-02,1,0.0015495573382619987,0.0016589120397170675,-0.004571127908220812,0.010627699888904229,0.9899870127486835
2017-02-06,1,0.0004041928194308777,0.00044229977048089474,-0.00643694432007939,0.010627699888904229,0.9890895656986487
2017-02-08,1,0.001504845913538729,0.001629781263642076,-0.014306161913480695,0.005824121740929701,0.9896906399007288
2017-02-10,1,0.001471118906317212,0.00161071724334863,-0.00643694432007939,0.005151433203337987,0.9910632841084576
2017-02-14,1,0.0011829912895536742,0.0012665439920065652,-0.0061533281817556015,0.005824121740929701,0.9908104524205112
2017-02-16,1,0.0013595521494401696,0.0014584123211715029,-0.0061533281817556015,0.005151433203337987,0.9912793516567348
2017-02-21,1,0.0005302617953765568,0.0005755144108711042,-0.0061533281817556015,0.005151433203337987,0.9909855821700854
2017-02-23,0,-8.313475014944946e-05,4.5454257856540105e-05,-0.0023555176681830207,0.005151433203337987,0.991509704997614
2017-02-27,1,0.0005017812015842546,0.0005501297900037934,-0.009965502523060403,0.0032794105065926333,0.9910462990495403
2017-03-01,1,0.00047347308221801926,0.0005604686040548157,-0.009965502523060403,0.0032794105065926333,0.9913193859316759
2017-03-03,1,0.000486736774298578,0.0005776222730767976,-0.009965502523060403,0.0032794105065926333,0.990835050444348
2017-03-07,-1,-0.0018926536621724462,-0.001478398666907137,-0.007715796396857497,0.005653102492937828,0.9921137119323213
2017-03-09,-1,-0.002492317845012049,-0.0020055122651880487,-0.004557883196408421,0.007457148920838786,0.9923445144986321
2017-03-13,-1,-0.0020387627934993573,-0.0016508324557918288,-0.00743857498947093,0.007457148920838786,0.9922058468229604
2017-03-15,-1,-0.0009842185944254943,-0.0007631358791631533,-0.00743857498947093,0.005511042283547717,0.9926035765045415
2017-03-17,-1,-0.0018148326623041251,-0.0014410459900029678,-0.008154171924777014,0.007457148920838786,0.9917655530381398
2017-03-21,-1,-0.002456127909420753,-0.001986390948702993,-0.007278010561555748,0.008452851196462033,0.9919087528496207
2017-03-23,-1,-0.0029902227052827648,-0.002397403087031517,-0.007278010561555748,0.010903337727601712,0.9917101901338624
2017-03-27,-1,-0.003919088223998722,-0.0032081553302988827,-0.004414553806470487,0.010903337727601712,0.9912056773094284
2017-03-29,-1,-0.00412844706410643,-0.0033613429895105267,-0.004414553806470487,0.010917445175901904,0.9905010899232832
2017-03-31,-1,-0.004335179051781539,-0.0035334476417707658,-0.004414553806470487,0.010917445175901904,0.9904979660666767
2017-04-04,-1,-0.004135648887547205,-0.0033806824395622406,-0.004414553806470487,0.010062007669597804,0.9913233931388329
2017-04-06,-1,-0.003537943002853768,-0.002893853560115093,-0.004414553806470487,0.010062007669597804,0.9915393217758769
2017-04-10,-1,-0.003329594646091115,-0.002763673335386665,-0.005283866461962761,0.010062007669597804,0.9913768865370025
2017-04-12,-1,-0.0033940087605921062,-0.0028399922518745867,-0.0075759134732798885,0.010862076933090803,0.9904727040750929
2017-04-17,-1,-0.002878367276342151,-0.002402618410614517,-0.005599738676032424,0.010862076933090803,0.9907747470468616
2017-04-19,-1,-0.0016268279428516901,-0.0012976068519677771,-0.0075759134732798885,0.008365520676492894,0.9915981140804785
2017-04-21,-1,-0.001318255020929642,-0.0010308702634831248,-0.008066425409528089,0.007345014979311861,0.9913116800151627
2017-04-25,-1,-0.0008208946523881975,-0.0005873307891155873,-0.008066425409528089,0.006123988455765628,0.9912124061490228
2017-04-27,1,0.00047794504493209615,0.0005285614297108061,-0.008066425409528089,0.005518772331644815,0.9917553731374593
2017-05-01,1,0.0001734748776578944,0.00020515853576978253,-0.0075759134732798885,0.005731317662196427,0.9918495128474362
2017-05-03,1,0.0005317825869442102,0.0006179717437046423,-0.0075195072316817674,0.006876471691676769,0.9910556336375146
2017-05-05,1,0.0007779681609713658,0.0009101849982013805,-0.0075195072316817674,0.00962102737903273,0.9907767044166174
2017-05-09,1,3.357435982772704e-05,4.826267450832819e-05,-0.005049940990607434,0.00962102737903273,0.9911505084263663
2017-05-11,1,0.00016909709074456396,0.00021405926343043,-0.005049940990607434,0.009838324249846264,0.9907410320960944
2017-05-15,1,0.0005481000094770911,0.0006444478299103898,-0.004786480366512736,0.009838324249846264,0.9909648593054072
2017-05-17,-1,-0.0002536319764228172,-0.00025346401097408656,-0.002222631556999843,0.009838324249846264,0.9919228896689988
2017-05-19,-1,-0.0005150780695271089,-0.0004898241595351002,-0.000501574889029971,0.011353228647694039,0.9918745087015051
2017-05-23,-1,-0.00014227219898918904,-0.0001396140945293571,-0.004442076294198816,0.010234773599213511,0.992258843103926
2017-05-25,-1,-0.00011916537706308708,-0.00011103782654075076,-0.004442076294198816,0.010234773599213511,0.9918950766859119
2017-05-30,1,0.0009062691647157093,0.0010687690098806534,-0.004786480366512736,0.008073317788929328,0.9925341136658778
2017-06-01,1,0.001211487006672671,0.0014024129915106392,-0.004786480366512736,0.007350556102572883,0.9932816104194321
2017-06-05,1,0.0012577719864643238,0.001455452268318665,-0.004632094501961521,0.007350556102572883,0.9929624731418906
2017-06-07,1,0.00116467695482067,0.0013481054151503963,-0.0046327298536103624,0.007350556102572883,0.9924942761652095
2017-06-09,1,0.0015208703345167944,0.0017237279050642583,-0.00412504453757447,0.007350556102572883,0.9930792311274569
2017-06-13,1,0.0019295844064152736,0.002173538186779742,-0.00412504453757447,0.006718004237732679,0.9934467379307935
2017-06-15,1,0.002354388386020976,0.002714659533450981,-0.00412504453757447,0.007350556102572883,0.9929444839344284
2017-06-19,1,0.003908683739739269,0.004597494892603022,-0.0046327298536103624,0.004840859850267268,0.9926006792699903
2017-06-21,1,0.003243952274429947,0.0038155706190123413,-0.004367160051836421,0.004840859850267268,0.9928554768310338
2017-06-23,1,0.0034564403762708112,0.004035187610420288,-0.005029164093097267,0.003304224025514082,0.9924215848777633
2017-06-27,1,0.0021687552434299967,0.002475316426135005,-0.005029164093097267,0.003304224025514082,0.9932166520181
2017-06-29,1,0.001376685955947745,0.0015134246933718063,-0.005930174706895824,0.004840859850267268,0.9906203393623414
2017-07-03,1,0.0026436903372440194,0.0030025225157427286,-0.005930174706895824,0.004302991050503069,0.9910927051387817
2017-07-06,1,0.001963647628129692,0.0022202886878102367,-0.009043124592585565,0.004302991050503069,0.99045410318555
2017-07-10,1,0.0025989174247209867,0.00293324360339925,-0.009043124592585565,0.004546228720416669,0.9907231662467284
2017-07-12,1,0.0025566916434039437,0.0029017999413002782,-0.009527127142480284,0.004546228720416669,0.9899696339619212
2017-07-14,1,0.002916216174888951,0.0032811551746712336,-0.01038000212116499,0.004546228720416669,0.9891815516839729
2017-07-18,1,0.0022241430123966536,0.002470608624746958,-0.01038000212116499,0.005365207189030147,0.988909399147246
2017-07-20,1,0.0019498477531592123,0.002184469742609712,-0.009408028917451579,0.006489608639077117,0.988466610320631
2017-07-24,1,0.0020784233834696517,0.0023562676826981133,-0.011671727908637452,0.0065817189760742165,0.987522527924842
2017-07-26,1,0.0018653421945033694,0.0021238187500401224,-0.011671727908637452,0.006965148462743139,0.9874833176773239
2017-07-28,0,-5.873820266490923e-06,7.332168406419775e-05,-0.009027628413815738,0.006965148462743139,0.9898499864980553
2017-08-01,1,8.088566169475134e-06,0.00011287144354097788,-0.01253359752869741,0.006965148462743139,0.9891255678959642
2017-08-03,-1,-0.0013128912902215528,-0.0010488535839565485,-0.009027628413815738,0.008138292725842768,0.9899696544460382
2017-08-07,-1,-0.0005314389734827155,-0.000385110351122607,-0.009027628413815738,0.011140229863766457,0.989555855893886
2017-08-09,-1,-0.0012927656203688311,-0.0010507890848185388,-0.005050226195970909,0.011140229863766457,0.9900449684115203
2017-08-11,-1,-0.0018722924889473247,-0.0015482877091417793,-0.0035753199374088515,0.012551872703255702,0.9900275426704682
2017-08-15,-1,-0.0013990115516869137,-0.0011432837432917714,-0.002504509434044684,0.011140229863766457,0.9910978087065345
2017-08-17,-1,-0.0015081232191264502,-0.0012053727427671192,-0.0016625855352843286,0.007546102342915561,0.9921960584356331
2017-08-21,-1,-0.0018887044205957717,-0.0015510852208006503,-0.0014416370064090152,0.011140229863766457,0.9920620276970878
2017-08-23,-1,-0.0016256093474593895,-0.0013168270118786413,-0.0016158799388514002,0.009017415300110299,0.9920569986488509
2017-08-25,-1,-0.000980536535936665,-0.0007466798525721927,-0.004291484115347745,0.006406730645241358,0.9919091795615298
2017-08-29,-1,-0.0020403915131067237,-0.0016870690505470395,-0.0016158799388514002,0.009017415300110299,0.9917209793308225
2017-08-31,-1,-0.0018973302749972964,-0.001538818569305321,-0.0016158799388514002,0.006406730645241358,0.9922663882748333
2017-09-05,-1,-0.0014594086524099114,-0.001136290580972065,-0.0010159624173847318,0.006406730645241358,0.9928778983176824
2017-09-07,-1,-0.0014639150549314692,-0.0011535545155515643,-0.0009623187991703513,0.007068648446791434,0.9926936779949986
2017-09-11,1,0.00037357370618744206,0.0004083661769786023,-0.0021958721121934743,0.006133652772914782,0.9938379536055265
2017-09-13,1,0.0004136215333301741,0.0004326974600657731,-0.0043792384059266574,0.007068648446791434,0.9932727093175954
2017-09-15,1,0.0006198909979729112,0.0006557518984337674,-0.0043792384059266574,0.007068648446791434,0.9930772531458371
2017-09-19,1,0.0019550819857632185,0.002228359856252766,-0.0043792384059266574,0.006133652772914782,0.9937183906544944
2017-09-21,1,0.0010855955911175741,0.0011808212518418706,-0.0043792384059266574,0.005223725573498127,0.9938241027149292
2017-09-25,-1,-9.678358844740736e-05,-2.5857887263150788e-05,-0.0022449202321116876,0.006915790439976397,0.9947493785798897
2017-09-27,1,0.0006562643739777048,0.0006837404869537781,-0.0031752736226792738,0.006899256208029034,0.9946956554545425
2017-09-29,1,0.0001874299952219067,0.00025604763708876485,-0.0031752736226792738,0.006899256208029034,0.9948963301176194
2017-10-03,1,0.0005191063547019902,0.0005514716234563514,-0.0043792384059266574,0.005223725573498127,0.9946075255799579
2017-10-05,1,0.0008797482793556126,0.0009126833868730169,-0.0043792384059266574,0.005327411207062304,0.994369852302704
2017-10-09,-1,-0.00039074348725831533,-0.00021482109000222553,-0.004905106883798678,0.005327411207062304,0.9936612945576498
2017-10-11,-1,-0.00048642025754421436,-0.00027292345331790047,-0.006723210351666551,0.004058029968112718,0.9939008755603727
2017-10-13,-1,-0.000205857321439563,-5.11827541202776e-05,-0.006723210351666551,0.0022241108089859655,0.9938251073322477
2017-10-17,1,0.00024341948966557223,0.00034453012319781454,-0.007396545647524443,0.0005790219407839365,0.9938006491920097
2017-10-19,1,0.00027371545924600196,0.0003323820193259254,-0.008170628466703297,0.0008651132777811611,0.9936966157953977
2017-10-23,1,0.0008753674273689932,0.0009136992152105751,-0.008170628466703297,0.0007569470699792509,0.9937511982338711
2017-10-25,1,0.0006664026595997885,0.0006759638910580977,-0.006981237958059503,0.0008980847251844473,0.994298871963787
2017-10-27,1,0.0006944505373162248,0.0006985699007897738,-0.006981237958059503,0.0022860524272138283,0.994197057992701
2017-10-31,1,0.00037898130066615215,0.00038144325957939864,-0.006400750410584047,0.002718182290806902,0.9944218213532927
