JNU-Tangyin/eata/results/Batch4_SP500/Batch4_SP500-C.csv
Date,Action,Predicted_Q25,Predicted_Q75,Actual_Q25,Actual_Q75,RL_Reward
2010-12-14,0,0.0,0.0,-0.0025883546851397017,0.008348551277303119,0.9915351366159054
2010-12-16,1,0.005449111917943585,0.006188330136607873,-0.0025883546851397017,0.01517857161779287,0.989763724709505
2010-12-20,1,0.006163983719874757,0.00696493481201708,-0.006130328357688766,0.008348551277303119,0.986376975008632
2010-12-22,1,0.0065407767355576355,0.007428588661083231,-0.006130328357688766,0.01517857161779287,0.986109700095657
2010-12-27,1,0.006447023999730286,0.007283366126744035,-0.006176899951962682,0.009873977716626086,0.9861735648138569
2010-12-29,1,0.0057734549980017775,0.006460583861178579,-0.006176899951962682,0.009873977716626086,0.9865016597452826
2010-12-31,1,0.00483796632453879,0.00535343908485935,-0.0065697663590898936,0.01517857161779287,0.9855248118461621
2011-01-04,1,0.005325618311696585,0.00580759468007735,-0.007963079567674485,0.014863670962457706,0.9858608431191919
2011-01-06,1,0.0054229114009168525,0.005903984020562169,-0.008234667914165664,0.010451918823176585,0.9858688565120598
2011-01-10,1,0.004665770088670623,0.005026151201909959,-0.008234667914165664,0.016597494282109205,0.986018812722583
2011-01-12,1,0.005110357807666704,0.005438619343412293,-0.008801044250021286,0.010451918823176585,0.9854492721785167
2011-01-14,1,0.004868038776986484,0.005119128096095757,-0.008801044250021286,0.010451918823176585,0.9859545130912001
2011-01-19,1,0.0007162931270017939,0.001024410776336443,-0.008234667914165664,0.010451918823176585,0.9902100479974169
2011-01-21,0,0.0,0.0,-0.008234667914165664,0.006651468195910825,0.9907715638748089
2011-01-25,0,0.0,0.0,-0.008736611014538214,0.006651468195910825,0.9891754016028359
2011-01-27,0,0.0,0.0,-0.008736611014538214,0.006651468195910825,0.9892719352119791
2011-01-31,0,0.0,0.0,-0.008736611014538214,0.0031360040298874644,0.990065341521894
2011-02-02,1,0.0012697952158949003,0.0013279698441519827,-0.006616565597572505,0.0062517777388362925,0.9901072103271065
2011-02-04,1,0.0006985424761330865,0.0008212722927772674,-0.007110939201163098,0.0062517777388362925,0.9889419544156068
2011-02-08,1,0.0009160897646596801,0.001042535572512545,-0.007110939201163098,0.0062517777388362925,0.9885065880036835
2011-02-10,1,0.0006097323733026184,0.0007550144673538291,-0.004822211270993731,0.006575379085781369,0.9882393186228474
2011-02-14,1,0.00038550902043389765,0.000588848905789272,-0.010430008708097785,0.0032574882477520864,0.9880954772580185
2011-02-16,1,0.00012623405137376193,0.0003702294131053438,-0.013952553400127318,0.006575379085781369,0.9870737343989799
2011-02-18,0,-6.58045056328529e-05,0.00020996742364169608,-0.017173287126764383,0.006575379085781369,0.986495727289488
2011-02-23,-1,-0.002026102930553684,-0.0016975377074185277,-0.012334838783128561,0.006575379085781369,0.9888463849360438
2011-02-25,-1,-0.0011645664369877645,-0.000974683953966019,-0.012334838783128561,0.006783535062559934,0.9880657326717612
2011-03-01,0,0.0,0.0,-0.007860145610786715,0.006783535062559934,0.9886714140603395
2011-03-03,-1,-0.0005042042892682984,-0.0003391502570976918,-0.007871482135313175,0.006648932347337155,0.9896389645255422
2011-03-07,-1,-0.001294191393241691,-0.0010329513086207447,-0.006730219364474594,0.00677582217752578,0.9907775634289218
2011-03-09,0,0.0,0.0,-0.006730219364474594,0.006795025823546328,0.9902908550511891
2011-03-11,0,0.0,0.0,-0.006605011094399065,0.006795025823546328,0.9914552191476672
2011-03-15,0,0.0,0.0,-0.005038410759957318,0.006795025823546328,0.992320852590934
2011-03-17,0,0.0,0.0,-0.006615808273820254,0.00677582217752578,0.9922412985081966
2011-03-21,0,0.0,0.0,-0.005038410759957318,0.005079015470535126,0.9934505201179947
2011-03-23,0,0.0,0.0,-0.0050155320897436444,0.006795025823546328,0.992123144447266
2011-03-25,0,0.0,0.0,-0.0065825455994554406,0.005082845724197257,0.9922521244217749
2011-03-29,0,0.0,0.0,-0.0050155320897436444,0.005008099199989834,0.9926967899125954
2011-03-31,-1,-0.0012410780122399296,-0.0009750218584990962,-0.00440588796904638,0.0072979986807919905,0.9922931041737221
2011-04-04,-1,-0.001740038985747439,-0.0013663008137821655,-0.004927020891611303,0.0072186369200936806,0.9915034180661108
2011-04-06,-1,-0.00040683752858519597,-0.0001878193250307769,-0.0065825455994554406,0.00110375698845393,0.9927815136361031
2011-04-08,-1,-0.0009097042256560605,-0.0006177861776379005,-0.007157440151913102,0.004981645279757064,0.9915413777487556
2011-04-12,-1,-0.0018544082592263547,-0.001396547780532399,-0.009384446095602371,0.0023497376918674303,0.9907002939191375
2011-04-14,-1,-0.0024552089825086816,-0.001953493991936236,-0.009549588626372807,0.0023497376918674303,0.9904200017578312
2011-04-18,-1,-0.0036990964703568904,-0.0029680477859148685,-0.009549588626372807,0.007135438920896325,0.9897219320797626
2011-04-20,-1,-0.002617424012348557,-0.0019956485680977,-0.009549588626372807,0.0015280502345918624,0.9911292934385909
2011-04-25,-1,-0.002683430292771884,-0.0021067908245980664,-0.013978535180451591,0.0015280502345918624,0.9901885869741641
2011-04-27,-1,-0.0020522459880302855,-0.0016069755706874355,-0.013978535180451591,0.004216434885754391,0.9895447718830065
2011-04-29,-1,-0.001155023488961912,-0.0008278479043958749,-0.013978535180451591,0.004216434885754391,0.9893164756833489
2011-05-03,-1,-0.0015558813313351352,-0.0012315205560849282,-0.013978535180451591,0.003644427057889894,0.9887883877643355
2011-05-05,-1,-0.0013038630183979196,-0.0010682752649126075,-0.013978535180451591,0.005419415437302834,0.9884972955314736
2011-05-09,-1,-0.002342108466585756,-0.0019373388052222494,-0.014894577630413559,0.003644427057889894,0.9877157085846073
2011-05-11,-1,-0.003841644497879373,-0.003244496200178769,-0.014775636614566596,0.005419415437302834,0.9873374112082318
2011-05-13,-1,-0.004143896464806594,-0.003574003050686233,-0.009742644907170918,0.008551723303219367,0.9864358795220783
2011-05-17,-1,-0.0039264217664843806,-0.003401377265477917,-0.014681585709569222,0.005473874829680182,0.9861155827693041
2011-05-19,-1,-0.0037752935277687158,-0.0032935852774367514,-0.014681585709569222,0.008806167105221231,0.9852588659848881
2011-05-23,-1,-0.004785500196185425,-0.004188442911169754,-0.010685181002589961,0.011260746409850657,0.9846175005041689
2011-05-25,-1,-0.0046982326648033305,-0.004095157725671164,-0.010685181002589961,0.011260746409850657,0.9847297015979489
2011-05-27,-1,-0.002949621717211978,-0.002628072232057554,-0.010685181002589961,0.009335422987002465,0.9849390455440944
2011-06-01,-1,-0.004538994688984856,-0.004205629207868716,-0.009791756578141011,0.012028923431365982,0.9843924638050408
2011-06-03,-1,-0.004155254240479448,-0.0038348381143030606,-0.009791756578141011,0.019873631213926678,0.9831745187619552
2011-06-07,-1,-0.004479630488470681,-0.004090470311722325,-0.007856335592917247,0.019873631213926678,0.9848904727887988
2011-06-09,-1,-0.0033253708215765358,-0.003103130580029573,-0.007856335592917247,0.015520066046144225,0.9860611325857579
2011-06-13,-1,-0.002979207814128953,-0.002724244765685361,-0.010756147292840865,0.011267314213443869,0.9850730562530626
2011-06-15,-1,-0.0033623166446053836,-0.003119486235670252,-0.010152881266804149,0.011368169281344976,0.9851200042682285
2011-06-17,-1,-0.0033483487262846697,-0.0030963057634060603,-0.013384789328048399,0.010137218364484824,0.9851761089653667
2011-06-21,0,0.0,0.0,-0.013384789328048399,0.010137218364484824,0.9856299407163015
2011-06-23,-1,-0.0016889292394191946,-0.0015878302862502235,-0.013384789328048399,0.011368169281344976,0.9836693602669595
2011-06-27,-1,-0.0006846571258659638,-0.0006356745391284622,-0.013384789328048399,0.011368169281344976,0.983940521996751
2011-06-29,1,0.0008437491290699834,0.001093293654080423,-0.01465644386307976,0.008123881769147278,0.9836267542804483
2011-07-01,1,0.0019555181775805794,0.0024300748899388092,-0.01465644386307976,0.004997791591004537,0.9846010505682412
2011-07-06,1,0.0007795506510056595,0.0010544783526807728,-0.01647020587455471,0.006309378797908617,0.9838621208374728
2011-07-08,1,0.0012890692814115877,0.0016920869533149487,-0.022697660968628547,0.00462786745206261,0.9799827573930163
2011-07-12,-1,-0.000922052608522752,-0.0007683031366590776,-0.02163289074843556,0.006309378797908617,0.9743210513964904
2011-07-14,-1,-0.0006967976776613676,-0.0005191512693082528,-0.036734668187765114,0.006309378797908617,0.9676156928452636
2011-07-18,0,0.0,0.0,-0.036734668187765114,0.009509645281757443,0.966061750682305
2011-07-20,0,0.0,0.0,-0.03790564765917756,0.00462786745206261,0.9650204750488081
2011-07-22,0,0.0,0.0,-0.04271086774716088,0.003786310125727858,0.9622169258236929
2011-07-26,-1,-0.00035571856987233995,-0.00021079482041922755,-0.04271086774716088,0.00462786745206261,0.9595241917112212
2011-07-28,-1,-0.0021999346716926934,-0.0020654075133187707,-0.04271086774716088,0.042914057344018444,0.9572998699118345
2011-08-01,-1,-0.0011789659282885217,-0.0011415092775088121,-0.04271086774716088,0.047765886270965424,0.9552860595988429
2011-08-03,-1,-0.0023155365340047137,-0.002188945164904946,-0.04271086774716088,0.047765886270965424,0.9567362083097831
2011-08-05,-1,-0.006091343962976033,-0.005492018168737062,-0.04271086774716088,0.047765886270965424,0.9578568914777293
2011-08-09,-1,-0.005069281292526022,-0.00460246168706918,-0.03599549502501102,0.04654980351203293,0.9637533421852318
2011-08-11,-1,-0.006824652317384595,-0.006156770407383112,-0.036513111582795583,0.04257359477212796,0.9683910356534523
2011-08-15,-1,-0.004504394562421891,-0.004105077370547067,-0.036513111582795583,0.016510931679212304,0.9700252328721858
2011-08-17,-1,-0.005678416563042227,-0.005174105071751749,-0.03398894023296244,0.041974169263999536,0.968772820788589
2011-08-19,-1,-0.00875494252821025,-0.00790002987564267,-0.02834579757184836,0.041974169263999536,0.9701202448707034
2011-08-23,0,0.0,0.0,-0.03398894023296244,0.02083358921598687,0.9710168652632177
2011-08-25,-1,-0.004975676975651871,-0.004578834726081395,-0.03691821266680438,0.01292471468103219,0.9705619314177769
2011-08-29,0,0.0,0.0,-0.03691821266680438,0.01292471468103219,0.9689157714389574
2011-08-31,0,0.0,0.0,-0.04077152137695122,0.019945325421135897,0.965980993133375
2011-09-02,0,0.0,0.0,-0.04419422574486571,0.019945325421135897,0.9632637542080721
2011-09-07,0,0.0,0.0,-0.04419422574486571,0.019945325421135897,0.9633727849266378
2011-09-09,0,0.0,0.0,-0.04501078482577309,0.03899921123203193,0.9620931879600613
2011-09-13,0,0.0,0.0,-0.04501078482577309,0.04559938974257651,0.9568040399384594
2011-09-15,0,0.0,0.0,-0.04877718852243878,0.049378607838189884,0.9547078886189043
2011-09-19,0,0.0,0.0,-0.04877718852243878,0.049378607838189884,0.9553508331983531
2011-09-21,0,0.0,0.0,-0.04162912590774781,0.05147573949442487,0.9550903442597468
2011-09-23,0,0.0,0.0,-0.0223230292988621,0.05147573949442487,0.9584273036584435
2011-09-27,0,0.0,0.0,-0.026525017392214748,0.049378607838189884,0.9591031345482948
2011-09-29,0,0.0,0.0,-0.01794993451706386,0.05147573949442487,0.9578359354947276
2011-10-03,0,0.0,0.0,-0.016436509342387266,0.05147573949442487,0.9610590643524862
2011-10-05,0,0.0,0.0,-0.01794993451706386,0.049378607838189884,0.9596422152889121
2011-10-07,0,0.0,0.0,-0.016436509342387266,0.04439089605108653,0.962426517446533
2011-10-11,1,0.0021729407431011812,0.002782049503590996,-0.016436509342387266,0.02932023979565868,0.9674145166854021
2011-10-13,1,0.0018722087079981653,0.0023637949828618833,-0.016436509342387266,0.02774177652115844,0.9677023067073174
2011-10-17,1,0.002171058878096821,0.0027252559345428275,-0.017837172040171483,0.025456912150588144,0.9671650124783016
2011-10-19,1,0.004284908334266815,0.005150762071748928,-0.02471145956274433,0.023720520215274536,0.9685971333185875
2011-10-21,1,0.00458807494779776,0.005432504816502839,-0.03211093693132961,0.023081961512501484,0.9675507428181546
2011-10-25,1,0.005397295301005729,0.006356451298530097,-0.03464230146273621,0.01373343796187511,0.9667162127718917
2011-10-27,1,0.004373808783345586,0.00507319336612851,-0.03947890516313464,0.007883458413402242,0.969211838111301
2011-10-31,1,0.0012452254645126722,0.001516856395856193,-0.03400227165319393,0.01373343796187511,0.9706021770476261
2011-11-02,1,0.0019319872449374274,0.002461676621382663,-0.03211093693132961,0.014189419162896288,0.970306034407402
2011-11-04,0,0.0,0.0,-0.03211093693132961,0.025456912150588144,0.9676005939576774
2011-11-08,0,0.0,0.0,-0.03211093693132961,0.014189419162896288,0.9690083507808605
2011-11-10,0,0.0,0.0,-0.03211093693132961,0.02752662214986,0.9682078531098979
2011-11-14,0,0.0,0.0,-0.03372313816479575,0.017266136197191265,0.9677959507980811
2011-11-16,0,0.0,0.0,-0.03170336883901144,0.017266136197191265,0.9686159631008904
2011-11-18,0,0.0,0.0,-0.03340861456861031,0.014877832230683239,0.9682435609007268
2011-11-22,0,0.0,0.0,-0.02127298833148485,0.038497556923464536,0.969134913696444
2011-11-25,0,0.0,0.0,-0.013274823577123528,0.04417189189056954,0.9680880832522656
2011-11-29,0,0.0,0.0,-0.022451098616678388,0.038497556923464536,0.9689632821640332
2011-12-01,1,0.0007372601526360923,0.000840073354506835,-0.022451098616678388,0.027271888156738852,0.9720312492886427
2011-12-05,1,0.0020370175916019587,0.0022807936476933926,-0.022451098616678388,0.010362813910863303,0.9727194377669363
2011-12-07,0,0.0,0.0,-0.022451098616678388,0.015079752159433888,0.9726281666783735
2011-12-09,0,0.0,0.0,-0.017710449042241286,0.019950525564541036,0.9752977424141999
2011-12-13,0,0.0,0.0,-0.009357764575828632,0.025991911476183724,0.9759042781854729
2011-12-15,0,0.0,0.0,-0.017710449042241286,0.025991911476183724,0.9724591106331885
2011-12-19,0,0.0,0.0,-0.009357764575828632,0.02943653926728397,0.9730122442989732
2011-12-21,0,0.0,0.0,-0.009357764575828632,0.025258469055103573,0.9746079463905951
2011-12-23,0,0.0,0.0,-0.008439831384103235,0.019950525564541036,0.9775890028187807
2011-12-28,0,0.0,0.0,0.0016070076430577465,0.019950525564541036,0.9784915220155097
2011-12-30,0,0.0,0.0,0.0016070076430577465,0.0167977792607037,0.978682341342045
2012-01-04,0,0.0,0.0,0.0019237574193975717,0.0167977792607037,0.980670831227769
2012-01-06,0,0.0,0.0,0.0019237574193975717,0.02108442780243882,0.9786488766924942
2012-01-10,0,0.0,0.0,-0.0004704611079758454,0.019318259574222306,0.9790425192207394
2012-01-12,0,0.0,0.0,-0.009529776409286057,0.01614908009401227,0.9797402030582016
2012-01-17,0,0.0,0.0,-0.006969091216625644,0.01614908009401227,0.9837566526457686
2012-01-19,0,0.0,0.0,-0.008172269427903004,0.01614908009401227,0.9835923804717699
2012-01-23,1,0.0,0.004417982254891837,-0.008172269427903004,0.01614908009401227,0.9860025967573341
2012-01-25,0,0.0,0.0,-0.01257952995993857,0.01614908009401227,0.9816978183182204
2012-01-27,0,0.0,0.0,-0.01257952995993857,0.016639032407114368,0.981756271811797
2012-01-31,0,0.0,0.0,-0.011059876436194181,0.017008794041495544,0.9825018978721017
2012-02-02,0,0.0,0.0,-0.011059876436194181,0.017008794041495544,0.983265026536948
2012-02-06,1,0.0043342446539589245,0.00480909705259472,-0.013400509523801576,0.014199875523105343,0.9824673401707816
2012-02-08,1,0.0056917453465497115,0.006443937007273593,-0.013400509523801576,0.017008794041495544,0.9821509307860845
2012-02-10,1,0.003946711348065042,0.004398088882717113,-0.011059876436194181,0.017008794041495544,0.9842843325258711
2012-02-14,1,0.0020322331828811625,0.002115057775967669,-0.011059876436194181,0.01916271195692091,0.9808067414682381
2012-02-16,1,0.003070502531578507,0.003327473722045109,-0.006335682918684816,0.01916271195692091,0.9813973715282448
2012-02-21,1,0.00283262552479956,0.00307819142596053,-0.006335682918684816,0.02322541703485222,0.9804895601875047
2012-02-23,1,0.0029104192440578894,0.00319861009228795,-0.008266213604059689,0.02322541703485222,0.9807029544655174
2012-02-27,1,0.0008003325470034748,0.000946504141532566,-0.005422478257124579,0.02322541703485222,0.9810342677365096
2012-02-29,1,0.0012009841549507235,0.0012194163386623658,-0.00859392230613447,0.02322541703485222,0.9809043296368525
2012-03-02,1,0.0006835420512607161,0.0008280618253790802,-0.01294771692309646,0.015527920768588964,0.9812765304360506
2012-03-06,1,0.001451428633659834,0.0016157825378236151,-0.008905047013932379,0.015527920768588964,0.9833688825708564
2012-03-08,1,0.0019388888500830423,0.0020634147616884545,-0.013881091046490187,0.00946128319444875,0.9837826519450215
2012-03-12,1,0.0017969568332403903,0.001890483491728738,-0.01891683801377584,0.00946128319444875,0.9810924626722094
2012-03-14,1,0.001962596158678694,0.002155265465657083,-0.015472107881823278,0.011955468506825122,0.9834358307605382
2012-03-16,1,0.00346873793678626,0.003912002970655946,-0.01891683801377584,0.009836984299991585,0.9826630286840368
2012-03-20,1,0.004651737016970406,0.005256353843581869,-0.01891683801377584,0.008248554790161575,0.9824146890378145
2012-03-22,1,0.003993550646241212,0.004564111704973698,-0.01891683801377584,0.008248554790161575,0.9823865100226377
2012-03-26,1,0.003359921721774605,0.003736383651150619,-0.020055952294062804,0.007898458329103675,0.9816141950700368
2012-03-28,1,0.004018546369347865,0.004479521012592455,-0.020055952294062804,0.008023658151718122,0.9824148744097115
2012-03-30,1,0.003982565759453628,0.004457683529565803,-0.020055952294062804,0.008023658151718122,0.98188705423909
2012-04-03,1,0.00426425903217959,0.004818656578365653,-0.02437389833410666,0.01007214724874505,0.9808323695569884
2012-04-05,1,0.0025139585910342395,0.0027611012712646715,-0.02437389833410666,0.01007214724874505,0.981525167369654
2012-04-10,1,0.0008438595503009014,0.0008634269075385125,-0.015019639231774224,0.01007214724874505,0.9839167492805386
2012-04-12,1,0.0017594032617184944,0.0017969804376092545,-0.020859868643540096,0.0060957253471530136,0.9845755678809919
2012-04-16,1,0.00043557332170423847,0.0005587590862986304,-0.02686262818752778,0.0053191113839486754,0.9833255827342223
2012-04-18,1,0.00011888787153599206,0.000359409366079577,-0.027206828787635164,0.0029395668633045904,0.9828441564517802
2012-04-20,-1,-0.0012476062833045051,-0.0008082485299396546,-0.02686262818752778,0.0029395668633045904,0.9834195950778604
2012-04-24,-1,-0.0008464430461157019,-0.00047959043000130063,-0.02686262818752778,0.0060957253471530136,0.9826769391947541
2012-04-26,0,0.0,0.0,-0.02686262818752778,0.0033034118297581936,0.9816946087482394
2012-04-30,0,0.0,0.0,-0.02686262818752778,0.007062034201583976,0.9815521099699616
2012-05-02,-1,-0.0008126497969500177,-0.0005599919782260826,-0.02726461393815723,0.007062034201583976,0.9812105732142922
2012-05-04,-1,-0.0020597029973759284,-0.0016322155727746437,-0.02865987156601466,0.007062034201583976,0.9801409401252802
2012-05-08,-1,-0.003324178593391959,-0.0026651984782465627,-0.02865987156601466,0.01182425691882625,0.9765651195197943
2012-05-10,-1,-0.005021221541131169,-0.004098371911471338,-0.024663892531728807,0.01990611588630664,0.9767005508649315
2012-05-14,-1,-0.007376318438312378,-0.00614234363114336,-0.019821216027506822,0.02196466557478366,0.9763643844402136
2012-05-16,-1,-0.007882706961043928,-0.00665359571067919,-0.01827216315390957,0.02196466557478366,0.9765781403224301
2012-05-18,-1,-0.007701015472880306,-0.006519534490267579,-0.019148348444549945,0.02196466557478366,0.9755407156170778
2012-05-22,-1,-0.007399814370175908,-0.006194822244874583,-0.019148348444549945,0.0235733131289468,0.9750515515437886
2012-05-24,-1,-0.007831958579278113,-0.006581881836812313,-0.02354874046836253,0.0235733131289468,0.9742513156665369
2012-05-29,-1,-0.0067328750064362,-0.0056750931650131654,-0.029056624313134334,0.02270114572562374,0.9736460276240234
2012-05-31,-1,-0.0064403616728858845,-0.005440613639662695,-0.02636088521059175,0.018738426012417667,0.9744900547540104
2012-06-04,-1,-0.00697820155088834,-0.005976165834702889,-0.012905744251863664,0.03258949880230362,0.9742491328906859
2012-06-06,-1,-0.003541699980100884,-0.0030294790386552525,-0.02636088521059175,0.013964559223795438,0.9782226500277569
2012-06-08,-1,-0.0035038879943181476,-0.0028886863750039876,-0.02636088521059175,0.012934239419153132,0.9792430135350376
2012-06-12,-1,-0.0030863544821659403,-0.002572217091063576,-0.01996262837939355,0.00966313420147583,0.9831676358203817
2012-06-14,-1,-0.0028810606431697687,-0.0024165817836884944,-0.02365458296634739,0.012934239419153132,0.9802354181376532
2012-06-18,-1,-0.00348565453137795,-0.0029546649274630856,-0.019114389960709268,0.012934239419153132,0.9805648827714412
2012-06-20,-1,-0.0012406739454122369,-0.0010229519060666772,-0.019815983416515838,0.006232603732645763,0.9819068396467688
2012-06-22,-1,-0.002575286243723454,-0.0021793190672355607,-0.021066893523427246,0.006232603732645763,0.9819291616865726
2012-06-26,-1,-0.002482818414985922,-0.002156773012899656,-0.019236166408437217,0.008649920257240257,0.9827480984905677
2012-06-28,-1,-0.00205286700053222,-0.0017983226952116098,-0.018117602916993512,0.019564880190432003,0.9816324841927732
2012-07-02,-1,-0.0005829815986659087,-0.0005555537629798029,-0.018117602916993512,0.009939281786373929,0.9832601862573491
2012-07-05,-1,-0.00239484304311746,-0.002097705095345891,-0.018117602916993512,0.009252710705024265,0.9838150423592656
2012-07-09,-1,-0.003018497427246765,-0.002633298955061378,-0.014380393037575321,0.021393247933295886,0.9804630087963491
2012-07-11,-1,-0.0031555995558827494,-0.002803997143785843,-0.014380393037575321,0.021393247933295886,0.9800573182204174
2012-07-13,0,0.0,0.0,-0.010894996772890412,0.019564880190432003,0.9836771323299219
2012-07-17,0,0.0,0.0,-0.010894996772890412,0.013415865220963774,0.9847797502955433
2012-07-19,0,0.0,0.0,-0.004579359281887113,0.013415865220963774,0.9860041406865161
2012-07-23,0,0.0,0.0,-0.0017686687741410856,0.019697415472528176,0.9863714561889472
2012-07-25,0,0.0,0.0,-0.0018201355959610907,0.020503871569424324,0.9860267012607649
2012-07-27,0,0.0,0.0,-0.004579359281887113,0.008971785210322544,0.9870088538896821
2012-07-31,0,0.0,0.0,-0.00547241861703783,0.008971785210322544,0.9865097157358601
2012-08-02,0,0.0,0.0,-0.004287469515055592,0.013522812635234967,0.9868594837385422
2012-08-06,0,0.0,0.0,-0.004287469515055592,0.0074926908817133766,0.9910933561333759
2012-08-08,0,0.0,0.0,-0.004287469515055592,0.0074926908817133766,0.989371906174883
2012-08-10,0,0.0,0.0,-0.005390836649627657,0.010939978452108954,0.9875826355386229
2012-08-14,0,0.0,0.0,-0.005390836649627657,0.0208247138122379,0.9859508210058291
2012-08-16,1,0.004760639076862808,0.0055672782272982065,-0.005390836649627657,0.02528151526765998,0.9849356241481366
2012-08-20,1,0.006008466914978184,0.00697228067909789,-0.007565204462015349,0.0208247138122379,0.9846366494746567
2012-08-22,1,0.005736936328088756,0.006642415957239502,-0.007785905020471109,0.013812743485215584,0.9853606174346863
2012-08-24,1,0.00567952695769593,0.006548678132495158,-0.00588033167652819,0.013812743485215584,0.9861093798175928
2012-08-28,1,0.0042749163315928896,0.004872064642928817,-0.007785905020471109,0.013812743485215584,0.9856444260251025
2012-08-30,1,0.0038743067236828355,0.00436140920748549,-0.007508379524455813,0.012493290988111682,0.9859893496707703
2012-09-04,1,0.004773176426583629,0.00548617363205783,-0.007508379524455813,0.01450530373740267,0.9856189574579888
2012-09-06,1,0.006131912339691427,0.0069788123579514385,-0.007508379524455813,0.017692603220942606,0.9858258113599347
2012-09-10,1,0.006856361720455737,0.007822748705555781,-0.005971720255432151,0.01450530373740267,0.9867255336614844
2012-09-12,1,0.00760258929449246,0.008558488742281137,-0.005971720255432151,0.01450530373740267,0.9866038823565049
2012-09-14,1,0.008607267356018132,0.00974592690854665,-0.008349817253851134,0.011647834011845005,0.9863956080119225
2012-09-18,1,0.008139117226241258,0.009207237961598872,-0.005971720255432151,0.01558109176600329,0.986050030577923
2012-09-20,1,0.0077898094107521475,0.008732755370847898,-0.005368111920186969,0.015728682541591987,0.9855164579829667
2012-09-24,1,0.006991542213825346,0.0077994006550960275,-0.005971720255432151,0.015728682541591987,0.9843921325342275
2012-09-26,1,0.006043954777106908,0.006641777071099944,-0.005240233699974062,0.015728682541591987,0.984719599460832
2012-09-28,1,0.005746367566987819,0.0062832782411620285,-0.005240233699974062,0.015728682541591987,0.9842236354539601
2012-10-02,1,0.005846351218124439,0.006361676142623004,-0.005240233699974062,0.01746656094596253,0.983740501577282
2012-10-04,1,0.0063030929507404306,0.006769175652438567,-0.00789076264114578,0.01520424443513917,0.9841284276049045
2012-10-08,1,0.0052674620177782586,0.005495172204123983,-0.012330041520143265,0.015728682541591987,0.9803675356151237
2012-10-10,1,0.004920091797983583,0.005029548825694627,-0.012330041520143265,0.01532596341194271,0.9806677398323813
2012-10-12,1,0.005056475639407719,0.005199843789959153,-0.00789076264114578,0.01532596341194271,0.9812336527490716
2012-10-16,1,0.006745674317795235,0.007124421093269086,-0.012330041520143265,0.013972502769044767,0.9819918203600022
2012-10-18,1,0.007278525349903363,0.007699073021899761,-0.012330041520143265,0.013972502769044767,0.9815323277339446
2012-10-22,1,0.006494874953955868,0.006821076394811434,-0.00789076264114578,0.011744981624965104,0.9829424334850136
2012-10-24,1,0.004817891225714276,0.0048358491270336975,-0.00789076264114578,0.008860852691928777,0.9840945998783626
2012-10-26,1,0.005188064306084867,0.005425249657902385,-0.00789076264114578,0.008860852691928777,0.9842825202083524
2012-11-01,1,0.006337079545761178,0.0067688535141103975,-0.010108819521464136,0.004350356917730341,0.9836565526943305
2012-11-05,1,0.0053710805444050665,0.005641466665436101,-0.010785034321329693,0.004350356917730341,0.9846281785576556
2012-11-07,1,0.0038815456337355286,0.003986147848510266,-0.007885252006786154,0.005886227373487048,0.9864685856228376
2012-11-09,1,0.003732679568779965,0.003745572525852169,-0.010582102715423562,0.008860852691928777,0.9856131379216081
2012-11-13,1,0.0041014339546829055,0.004234257209747875,-0.010582102715423562,0.009032533237180614,0.9856334777921086
2012-11-15,1,0.00297801693892236,0.003047394350161858,-0.0074302520609538306,0.009815939103859812,0.9869294251376096
2012-11-19,1,0.0030830781031662294,0.003184463841669272,-0.0073272058490204415,0.009815939103859812,0.9867126318753906
2012-11-21,1,0.0024107807744016448,0.002548241202913642,-0.0073272058490204415,0.014583052477270639,0.9865818264252421
2012-11-26,1,0.002617846880586129,0.0027187134440411144,-0.0073272058490204415,0.014583052477270639,0.9863185999583989
2012-11-28,1,0.002365907839893499,0.002568164222159256,-0.006692449503782264,0.014583052477270639,0.9867349640624193
2012-11-30,1,0.0010621717722021592,0.001429024602706913,-0.006184726178789254,0.014583052477270639,0.986834720932414
2012-12-04,1,6.147712945404958e-05,0.0005756170208313669,-0.005360320739478819,0.01570642065511369,0.9851922312821343
2012-12-06,1,0.0031690449270179266,0.0032202579109131832,-0.005360320739478819,0.01493013722034627,0.9878643591576972
2012-12-10,1,0.0030010531735965578,0.003066735659118888,-0.005360320739478819,0.01415534370124705,0.9884670534041621
2012-12-12,1,0.0024240680111670978,0.0026377150638053413,-0.006184726178789254,0.015136991984012605,0.9880157768636728
2012-12-14,1,0.0018811632836125468,0.0022091449268398593,-0.003654303687286283,0.015136991984012605,0.9882495019597128
2012-12-18,1,0.002838328994693538,0.0030149691309979436,-0.006482348302456301,0.009742162166882666,0.9884675023401934
2012-12-20,1,0.0040438003754137385,0.004082015817152398,-0.006482348302456301,0.008763465782188447,0.9886579950793158
2012-12-24,1,0.0025497077447388227,0.0027250910974866392,-0.003654303687286283,0.011162938670130688,0.989341293569424
2012-12-27,1,0.0017710002071529521,0.0020863348076410305,-0.003654303687286283,0.011162938670130688,0.9891499484881403
2012-12-31,1,0.003376898182028555,0.003394373004121521,-0.004433730392941792,0.008763465782188447,0.9892171257707162
2013-01-03,1,0.00366216151793192,0.0037017261644978214,-0.004433730392941792,0.008763465782188447,0.9901842600552577
2013-01-07,1,0.0038836319394856588,0.003955861591630075,-0.006208657185426433,0.008763465782188447,0.9895921130799409
2013-01-09,1,0.0027595947067544594,0.0028644647216149286,-0.004433730392941792,0.008763465782188447,0.9902393164296527
2013-01-11,1,0.0026631406245767805,0.0027703788982349578,-0.004296472602535619,0.008763465782188447,0.9909661120850772
2013-01-15,1,0.0034201165861119376,0.0034551770862031256,-0.004569229599196493,0.010391234767864046,0.9896282576719235
2013-01-17,1,0.0022228129145143126,0.002343368921029209,-0.004569229599196493,0.010391234767864046,0.9906080658655184
2013-01-22,1,0.0028462242354960012,0.0029279961644401915,-0.005708686197162556,0.012022844409506402,0.9888886836134213
2013-01-24,1,0.0021709766449041564,0.002374312920698387,-0.008626380571983706,0.010545304362989168,0.9883964131321932
2013-01-28,1,0.0011919380715916567,0.0014723739602077969,-0.008626380571983706,0.010545304362989168,0.9871736628590031
2013-01-30,1,0.0005399213238673544,0.0009040206594447418,-0.008626380571983706,0.012022844409506402,0.986489130742265
2013-02-01,1,0.0021694995161991816,0.0022531784971184417,-0.008626380571983706,0.012022844409506402,0.986606651878676
2013-02-05,1,0.0018405793943868762,0.001995125949478211,-0.005352890576264929,0.01513362600829537,0.9866913511781317
2013-02-07,1,0.0021491705416821073,0.0022257633626668683,-0.005352890576264929,0.016455269591897217,0.9849944817963611
2013-02-11,1,0.0025091850888680285,0.002526983733041895,-0.008626380571983706,0.01970902028700395,0.9841947376299526
2013-02-13,1,0.0024824006645484138,0.0024976104729642627,-0.006087535270843449,0.016454864620461248,0.9854314116174608
2013-02-15,1,0.0021218149079126284,0.002183394488237455,-0.0067938102414627005,0.016454864620461248,0.9847741047706204
2013-02-20,1,0.001391000757086236,0.0015796173396151135,-0.005812919120997034,0.016454864620461248,0.9860437189595838
2013-02-22,1,0.00095073779949461,0.0012120536434931562,-0.005812919120997034,0.016454864620461248,0.9864765191997781
2013-02-26,1,0.0003439476399689982,0.0006905880140642085,-0.005812919120997034,0.016454864620461248,0.9873281072817106
2013-02-28,1,0.0005985553686990279,0.0009028893564030598,-0.008623059516138216,0.011666679020003626,0.9878612303144592
2013-03-04,1,0.0021280326249245316,0.0021655460045610225,-0.0098418393159076,0.009673954012724317,0.9877861119448939
2013-03-06,1,0.0029216471851851063,0.002972908360073248,-0.011042708955521254,0.007391240495650769,0.9871828185902092
2013-03-08,1,0.004159384336979223,0.004368053781644657,-0.011042708955521254,0.0067406233677061705,0.9883868696816636
2013-03-12,1,0.004291291794489184,0.0044539163274158,-0.0098418393159076,0.0073746259652273305,0.9887301987166405
2013-03-14,1,0.003421560341562483,0.003774085809930764,-0.0098418393159076,0.0067406233677061705,0.9887304557096257
2013-03-18,1,0.004843399694695294,0.005242917813928664,-0.008623059516138216,0.0073746259652273305,0.988379604190016
2013-03-20,1,0.002397186756062538,0.0026085396183057803,-0.011181552642936375,0.0073746259652273305,0.987423314216346
2013-03-22,1,0.001686514118472151,0.001770613547409713,-0.00873304877571221,0.0073746259652273305,0.9883702090499967
2013-03-26,1,0.0011205421952822747,0.0011493829698276071,-0.005774523065058771,0.008878732658771515,0.9875146239400896
2013-03-28,1,0.0011390797492399649,0.0011577263946591198,-0.004079037855229331,0.008878732658771515,0.9879476479862037
2013-04-02,1,0.0006505367541006608,0.0007158301232477423,-0.0035712962742377855,0.008878732658771515,0.9884421127247701
2013-04-04,-1,-0.0017230989843328049,-0.0013161467652126533,-0.0035712962742377855,0.01314228777876013,0.9890163183300538
2013-04-08,-1,-0.0007683128100004223,-0.0004927697149679949,-0.0035712962742377855,0.011694910185265745,0.9889780212097669
2013-04-10,1,2.2841336329627133e-05,0.00021704013826646744,-0.0035712962742377855,0.01350301686863946,0.9888042897069765
2013-04-12,-1,-0.0008115963404237889,-0.0004581753363815267,-0.0035712962742377855,0.01350301686863946,0.9882448154845396
2013-04-16,1,0.0007953385458063854,0.0009361909514883629,-0.0035712962742377855,0.01350301686863946,0.9890385820884737
2013-04-18,-1,-0.0010744023150283805,-0.0006847570320491602,-0.0024527760896393717,0.014305959100404369,0.9885709207334298
2013-04-22,-1,-0.0011258232904543689,-0.0007134989333916759,-0.0024527760896393717,0.015104283451479092,0.9877075879403115
2013-04-24,1,0.00013492127720754758,0.00039213169960431436,-0.0035712962742377855,0.013603210570467074,0.9894775940637033
2013-04-26,-1,-0.0005667410630264195,-0.0001895253563532844,-0.004866932386751805,0.013603210570467074,0.9891310653457609
2013-04-30,-1,-0.0013029728831328,-0.0008160246334599384,-0.0024523293203479618,0.015104283451479092,0.9873172320159719
2013-05-02,-1,-0.00027770101863553776,-1.9328618471760447e-05,-0.0024523293203479618,0.017182266976035497,0.9871163580320232
2013-05-06,1,0.00018770458824916793,0.00039394918143382835,-0.010105742439442674,0.017182266976035497,0.9874949633605828
2013-05-08,1,0.0013353858352680753,0.0013958589469087036,-0.013081587342631663,0.016142228656009595,0.9874021562779179
2013-05-10,1,0.0006482647377298234,0.000797003581130668,-0.010105742439442674,0.016142228656009595,0.9872546088534022
2013-05-14,1,0.002124851710562089,0.002224760815057049,-0.013094194372588581,0.015358967592857596,0.985974037230282
2013-05-16,1,0.002373571344715094,0.0025349246153825097,-0.013094194372588581,0.015358967592857596,0.9860122557257341
2013-05-20,1,0.0023743642996505734,0.0025038274535214545,-0.013094194372588581,0.013663500188313218,0.9861677394814252
2013-05-22,1,0.0018409464492786763,0.0018921077818438302,-0.015856092401626328,0.013663500188313218,0.9846837026266582
2013-05-24,1,0.001321308804995278,0.0013819002589889758,-0.021983336303408752,0.013663500188313218,0.9826772609676754
2013-05-29,1,0.0031673191821026334,0.0034409175264245927,-0.021983336303408752,0.013663500188313218,0.9819342146646229
2013-05-31,1,0.0030350394482585794,0.003335683803449005,-0.021333238215111454,0.013394542044838947,0.9830549181212702
2013-06-04,1,0.0022494664804555697,0.0024222538198893345,-0.021333238215111454,0.013394542044838947,0.9836617225786324
2013-06-06,1,0.0019409244495562895,0.0020897001326617664,-0.012976836938481808,0.013394542044838947,0.9842015410787468
2013-06-10,1,0.002507664830225143,0.0027288528661122387,-0.012976836938481808,0.013968460998178146,0.9836193652229575
2013-06-12,1,0.00010794734598294921,0.00023832075776372068,-0.010364548683736836,0.013968460998178146,0.9849710143478158
2013-06-14,1,0.0001301485428001565,0.000246672039212311,-0.00969078285305155,0.014401401054755639,0.9851469650987849
2013-06-18,0,0.0,0.0,-0.00969078285305155,0.014401401054755639,0.9857745073445412
2013-06-20,0,0.0,0.0,-0.00642883095751772,0.015885230954578854,0.9866827987612868
2013-06-24,-1,-0.002589804864414026,-0.002114811193877541,-0.002120413124322402,0.015885230954578854,0.9877803056682009
2013-06-26,0,0.0,0.0,-0.0033033050439914744,0.014401401054755639,0.9897388520740016
2013-06-28,0,0.0,0.0,-0.006975980312165836,0.014297226884774476,0.9897893335330336
2013-07-02,-1,-0.0005875021346091994,-0.0003703679479336399,-0.006975980312165836,0.014297226884774476,0.9897170554961419
2013-07-05,-1,-0.0002804979649498919,-0.00010679751641499844,-0.0033113081963790864,0.013840183624689029,0.9902941280111293
2013-07-09,1,0.0010779231777042673,0.00109085281963783,-0.006975980312165836,0.009858299534644408,0.9905882225738744
2013-07-11,1,0.0007466383855145873,0.0007850930252255209,-0.003452847860017795,0.009858299534644408,0.9913263349823908
2013-07-15,1,0.001437426755365038,0.001458413634464637,-0.008274281189427678,0.005815777940855102,0.991917151340133
2013-07-17,1,0.001016470257312259,0.0010703395748134397,-0.008274281189427678,0.007465772507168787,0.9911243032534082
2013-07-19,1,0.0004680328597839262,0.0006357742613009314,-0.00916968317406599,0.005815777940855102,0.991157014415685
2013-07-23,1,0.0008001926768869852,0.0009167409767147684,-0.010250037096687672,0.005815777940855102,0.9902108283684676
2013-07-25,1,0.0010033537709647515,0.0010585960008028558,-0.010250037096687672,0.005815777940855102,0.9897337355496556
2013-07-29,1,0.0007869592550130008,0.0008179161508410485,-0.00916968317406599,0.005815777940855102,0.9904156437451191
2013-07-31,1,0.001683100216836552,0.0018443823450215145,-0.011058181359076314,0.003345587807008586,0.9891376030956043
2013-08-02,1,0.00208141876700616,0.0022956810786259898,-0.011058181359076314,0.0019162887862701112,0.9892720077221767
2013-08-06,1,0.0012642268891987912,0.0013848372713057007,-0.00916968317406599,0.004853235208106952,0.9900447175134625
2013-08-08,1,0.0010722407514397799,0.001118538545730814,-0.010729658377800577,0.004804512511453465,0.9894146651186784
2013-08-12,1,0.00035762459691224345,0.0004115715089485025,-0.010729658377800577,0.012784221175341146,0.9886277045782874
2013-08-14,1,0.00028424309620472024,0.0003780367786788741,-0.010729658377800577,0.006921532261907458,0.9888234825471015
2013-08-16,-1,-0.0007593622976175534,-0.0005280872228125058,-0.007600990242804365,0.010565780617436647,0.989327676897703
2013-08-20,-1,-0.001291164775871744,-0.0009731329790806917,-0.005223420579477051,0.011389808888037114,0.9896278941435708
2013-08-22,-1,-0.0015513743608259135,-0.0011924957089040026,-0.005496492799669841,0.006456728166139447,0.9902926965190754
2013-08-26,-1,-0.002503784099812425,-0.0019889134037389218,-0.010025029894894212,0.006456728166139447,0.9884214031157288
2013-08-28,-1,-0.00296159496823219,-0.002420387733140464,-0.007600990242804365,0.007120820764460995,0.9891756665262881
2013-08-30,-1,-0.0024181278960077116,-0.0019894625478941875,-0.00814561918045713,0.007120820764460995,0.9891290368822807
2013-09-04,-1,-0.0018585017753618032,-0.0014806791687620262,-0.00814561918045713,0.0054633429137369,0.9902357043968311
2013-09-06,-1,-0.0015167756522548553,-0.0012331334575408184,-0.007227943630545971,0.007120820764460995,0.9900412159038596
2013-09-10,-1,-0.0010645474928035904,-0.0007738228417699946,-0.009594906607258378,0.004085255361469482,0.9906385321283065
2013-09-12,-1,-0.0017061075488940167,-0.0013411775160130164,-0.008475766770483197,0.005937186202579343,0.9895991986897197
2013-09-16,-1,-0.00047828837716845624,-0.0003245526631332442,-0.008475766770483197,0.005937186202579343,0.9898909366786744
2013-09-18,1,0.00020041273604360824,0.00028683110279072285,-0.011015472664972416,0.005937186202579343,0.9882132215012003
2013-09-20,-1,-0.0007855700347230505,-0.0005713403477298159,-0.008475766770483197,0.005937186202579343,0.9889699676119671
2013-09-24,-1,-0.0022583455099707914,-0.001871287774258942,-0.006447886531642268,0.005937186202579343,0.9906234681023096
2013-09-26,-1,-0.001972139349174282,-0.0016433929786453683,-0.0067162528385231995,0.005599030243299283,0.9907624985058299
2013-09-30,-1,-0.0014923809178050188,-0.0012797891188636103,-0.005559297356532275,0.005599030243299283,0.9909527488710671
2013-10-02,-1,-0.0016280229121192992,-0.0013792202914622445,-0.006415890575771088,0.005599030243299283,0.9909101979430431
2013-10-04,-1,-0.0007980672614329507,-0.0006896896988336737,-0.007574679982226865,0.002725246791347544,0.9908830085863789
2013-10-08,-1,-0.001592596397938342,-0.0014063888835767978,-0.00517839817611564,0.002725246791347544,0.9920064228165091
2013-10-10,-1,-7.145546623511993e-05,-4.490077332325741e-05,-0.005356580740111557,0.0014963162228563184,0.9929563304019907
2013-10-14,0,-5.862019227784484e-06,8.734564961203316e-06,-0.005356580740111557,0.002499763588837931,0.9915180625042864
2013-10-16,1,0.0006264212961061406,0.0007109502204871183,-0.005356580740111557,0.002499763588837931,0.9930356383522143
2013-10-18,1,0.0012637541808909018,0.0014948398047484666,-0.005356580740111557,0.003938323617913869,0.992871346721433
2013-10-22,1,0.0009286992584314141,0.0011026116620850939,-0.0052439645281723915,0.004694309021403423,0.9927490524916703
2013-10-24,1,0.0004041232110791096,0.000484832164535734,-0.0052439645281723915,0.0055909458668162845,0.9920202691110882
2013-10-28,1,0.0003105358130093296,0.000370003027048832,-0.0052439645281723915,0.00817634698627985,0.9907371118197869
2013-10-30,1,0.0004947761364470006,0.0006137833718331809,-0.0051692239991792,0.00817634698627985,0.9909047773558057
2013-11-01,-1,-0.0010575661694512638,-0.000907184766380555,-0.0051692239991792,0.00817634698627985,0.991352716435551
2013-11-05,-1,-0.0013986247005552377,-0.0012010961151507442,-0.005329058209302238,0.00817634698627985,0.9911348709266006
2013-11-07,-1,-0.0010592719173135308,-0.0009289519513159492,-0.005357968265147929,0.00868888783615893,0.9903400359186497
2013-11-11,-1,-0.0006366330050209157,-0.0004874889371536612,-0.006026776022957316,0.00868888783615893,0.9913924875465484
2013-11-13,-1,-0.001612154072635228,-0.0012765057713576577,-0.006026776022957316,0.007908929843631519,0.9913322806717393
2013-11-15,-1,-0.0006600238173850462,-0.0005065776487160405,-0.006026776022957316,0.007908929843631519,0.9916586148613338
2013-11-19,-1,-0.000133929988775099,-4.6944774751622736e-05,-0.006026776022957316,0.009326390996798769,0.9909467554834945
2013-11-21,1,0.00027146980508122465,0.000308036708161252,-0.005357968265147929,0.006875963416872646,0.991808678699889
2013-11-25,1,0.001186243162807668,0.0012768181284856575,-0.005357968265147929,0.0038590264387345754,0.9928672788274436
2013-11-27,1,0.0014249213019015437,0.0016035194581430503,-0.004511575184795332,0.0038590264387345754,0.9928560133327256
2013-12-02,1,0.0010791063996443391,0.0012015243171833397,-0.004720828931830425,0.0038590264387345754,0.9929943957380947
2013-12-04,1,0.0014139623743425409,0.0016424326329602056,-0.0023208488977511654,0.004548206368834628,0.9925683812797754
2013-12-06,1,0.0010111340922072502,0.0011812227033081487,-0.0015845059673295896,0.006489602073368542,0.9933069576479192
2013-12-10,1,0.0013162169702425636,0.001547780580465841,-0.001529311106085379,0.006935888629635298,0.993507660916571
2013-12-12,1,0.0011010404199053654,0.0013234238141240865,-0.0015845059673295896,0.006935888629635298,0.9932088961826077
2013-12-16,1,0.0010264845319791906,0.001238548183609448,-0.0015845059673295896,0.0072560838062638595,0.9922710804487257
2013-12-18,1,0.00136279863459584,0.0015752870135833422,-0.00285783218663663,0.006935888629635298,0.991185428434784
2013-12-20,1,0.0014301382962262376,0.0016669677145497845,-0.006331778798486818,0.006935888629635298,0.9910955447246972
2013-12-24,1,0.0018678653602369711,0.002192762987363863,-0.008200340727356292,0.006935888629635298,0.9886527755012613
2013-12-27,1,0.0012349504676068919,0.0014238292494786913,-0.00915704823960422,0.0072560838062638595,0.9876363964297971
2013-12-31,1,0.0012530114844564078,0.0014566108756947959,-0.012474659605144173,0.0072560838062638595,0.9864234665772612
2014-01-03,1,0.0016329183139773592,0.0018559040159155224,-0.019390149055153648,0.006935888629635298,0.9852973926397405
2014-01-07,1,0.0020568703459718386,0.0023539422084397034,-0.019390149055153648,0.00626800925043593,0.9851992572170246
2014-01-09,1,0.0022374688990183743,0.002519786708799664,-0.019390149055153648,0.006862891365169694,0.9837466362375292
2014-01-13,1,0.0013696488612241985,0.0015274504842835005,-0.019193309407972276,0.007544070408819271,0.9849617201812355
2014-01-15,1,0.0018783126823430796,0.0020983228313204826,-0.019193309407972276,0.006254237547465588,0.9854974646795991
2014-01-17,1,0.0004041120890176373,0.0004131638744937173,-0.01240904638941705,0.006254237547465588,0.9875981977654795
2014-01-22,-1,-0.00018271398429557927,-9.081456497474617e-05,-0.019193309407972276,0.006254237547465588,0.986908833367895
2014-01-24,-1,-0.0016508849492092273,-0.0013852111844383308,-0.007749637747832416,0.007544070408819271,0.9884188147568266
2014-01-28,-1,-0.0010806256437294417,-0.0009153225154085571,-0.008074704228551543,0.006254237547465588,0.9891946225392417
2014-01-30,-1,-0.0018976214750662558,-0.0016262904676419524,-0.0038251202579744643,0.00708463433195562,0.9904133307891809
2014-02-03,-1,-0.002307427456033945,-0.002041357683161649,-0.0022079601312153005,0.008116698788402757,0.9897627456425002
2014-02-05,-1,-0.0020544248249277433,-0.0017970692329283568,-0.0022079601312153005,0.008763612176837889,0.9897601710249502
2014-02-07,-1,-0.0005023490335610697,-0.0004460296897818733,-0.0022079601312153005,0.006254237547465588,0.9922919503467205
2014-02-11,1,6.717576240935006e-05,0.00012008840552861486,-0.007437266578876749,0.0059113322614325605,0.9909452436715027
2014-02-13,-1,-0.00010563288555568134,-0.0001022351546811326,-0.010091177571472912,0.0034927428002250833,0.9902536375905628
2014-02-18,-1,-0.0011545514520535584,-0.0009709102901228302,-0.010091177571472912,0.007890442588568908,0.9896713966021686
2014-02-20,-1,-0.0018497296269465377,-0.0015849479730262277,-0.00934576464051441,0.012791798816126151,0.9885231430367295
2014-02-24,-1,-0.0015473668690550264,-0.0013037639764809429,-0.00934576464051441,0.00946315180792729,0.9894811983547116
2014-02-26,-1,-0.0019192770757089927,-0.0016365481264886083,-0.00441373556187759,0.00946315180792729,0.9895639602101548
2014-02-28,-1,-0.001345217713860541,-0.0011493505635183023,-0.00934576464051441,0.00946315180792729,0.9873452428207622
2014-03-04,-1,-0.0017110643197492973,-0.001432587180655559,-0.005484178597550002,0.007703026890169921,0.9889410725030061
2014-03-06,-1,-0.0007919532009123644,-0.0006629927496171634,-0.00934576464051441,0.007703026890169921,0.9888512126056256
2014-03-10,-1,-0.0007509801336539747,-0.0006348548207343757,-0.011678264160936173,0.007703026890169921,0.9878145080348595
2014-03-12,-1,-0.0011953796059125262,-0.0010615292403048492,-0.010032958575054894,0.00874375470046111,0.9885830531907597
2014-03-14,-1,-0.001711847304370412,-0.0015236219659056486,-0.011678264160936173,0.00874375470046111,0.9881447321084693
2014-03-18,-1,-0.0008619248931941781,-0.0007622465579449646,-0.011678264160936173,0.009908103418460133,0.9867027149475881
2014-03-20,1,0.00011239496554346072,0.0001159363352303446,-0.011678264160936173,0.005598097581778384,0.9885778521386461
2014-03-24,-1,-0.00021356958220674575,-0.0001763266822576999,-0.011678264160936173,0.005598097581778384,0.9882030659891561
2014-03-26,-1,-0.00017769030330962995,-0.00013991985870815516,-0.011678264160936173,0.007533879234530496,0.9881261290009136
2014-03-28,-1,-0.0018846889041965807,-0.0016210753809305593,-0.011678264160936173,0.007533879234530496,0.990011886943607
2014-04-01,-1,-0.0017294896338948607,-0.0014763863576497378,-0.011678264160936173,0.008236311733542834,0.9896032995089373
2014-04-03,-1,-0.0017712004500421217,-0.001510873784150893,-0.01003985026182876,0.004800259029108899,0.9905044509752137
2014-04-07,-1,-0.0016493450506544606,-0.0014543431935936388,-0.009948858606583563,0.004800259029108899,0.99022250399035
2014-04-09,-1,-0.001218087064401933,-0.001072003957498179,-0.009948858606583563,0.007478781701771261,0.989987367435825
2014-04-11,-1,-0.0018895894029468982,-0.0016692951717809418,-0.005863414798095623,0.007478781701771261,0.9909828205206725
2014-04-15,-1,-0.00033434102601172103,-0.0003148747709172687,-0.0067149638806174305,0.004311583237172619,0.9932515959332575
2014-04-17,-1,-0.00026021961229034257,-0.0002540167469405323,-0.00826645201838935,0.004311583237172619,0.9927179159910196
2014-04-22,1,1.7172277059455813e-06,7.824537697221715e-05,-0.007100846456962014,0.0062455120197625075,0.9926550597792095
2014-04-24,1,9.706840844439475e-05,0.00017570596039279493,-0.007100846456962014,0.00625365750774123,0.992481712527721
2014-04-28,-1,-0.0003685480295096636,-0.0003594472250622817,-0.004825679521366913,0.00625365750774123,0.9930813966127346
2014-04-30,-1,-0.00013171556001159344,-9.418347807681249e-05,-0.004841775319467796,0.006016513253566895,0.9939595718266949
2014-05-02,-1,-0.00032036319912787304,-0.0003153143752329231,-0.004841775319467796,0.006147765380388363,0.9935858282459027
2014-05-06,-1,-0.0009248829167851063,-0.0008533744637240549,-0.00356244590295888,0.00625365750774123,0.9941335949011315
2014-05-08,-1,-0.0005004224371907772,-0.0004706526800035528,-0.00356244590295888,0.006174258659979141,0.9939478471793761
2014-05-12,-1,-0.000549035338437038,-0.0005077456283446712,-0.004788510942773005,0.00625365750774123,0.9934915816545048
2014-05-14,-1,-0.00013501286167168884,-7.760076539625946e-05,-0.005095619979098405,0.00625365750774123,0.9929971825744482
2014-05-16,-1,-0.00044627202787313094,-0.00044264730972016776,-0.005095619979098405,0.00625365750774123,0.9928585739586953
2014-05-20,-1,-0.00032469846992359136,-0.0002964905924313809,-0.005095619979098405,0.006174258659979141,0.993148455003576
2014-05-22,0,-3.639327099230107e-05,2.3746926921898096e-05,-0.005549764684698227,0.005974088504735808,0.9932716038424173
2014-05-27,1,0.00012712138658976997,0.0002117553798486091,-0.005549764684698227,0.006142522358314369,0.9927277368507814
2014-05-29,1,0.0004085338891849687,0.0005731938029428093,-0.0067545067424984225,0.006142522358314369,0.9924722754690513
2014-06-02,1,0.0007741383897260696,0.0009925436174070099,-0.0067545067424984225,0.003903738918932957,0.9926847889249755
2014-06-04,1,0.000991447641379306,0.0012625763261322428,-0.005831265355980915,0.00653759305546898,0.9925795327905542
2014-06-06,1,0.0012405350512328548,0.0015135048432043945,-0.005972213813168411,0.003559169684392567,0.9929626106330254
2014-06-10,1,0.0018349212359772913,0.0022292361302174027,-0.00842499197111878,0.0029842644156824697,0.9928979816195589
2014-06-12,1,0.0008218614553992535,0.001017737984229799,-0.005972213813168411,0.0029842644156824697,0.9938013731654063
2014-06-16,1,0.0007082230083046432,0.0008838612743503496,-0.005248813714950396,0.00550388535184781,0.9922677420446999
2014-06-18,1,0.000259270936092331,0.00031276551249184644,-0.005972213813168411,0.008420659782766321,0.9913645819370878
2014-06-20,1,2.6241663252681423e-05,5.7927926726587236e-05,-0.005248813714950396,0.008483220688142817,0.9914088114177368
2014-06-24,-1,-7.162986318982669e-05,-6.678956232764052e-05,-0.0045254504303047375,0.008483220688142817,0.9915675748925226
2014-06-26,-1,-0.0009001713440054625,-0.0007496710326426216,-0.0024885154369483162,0.008483220688142817,0.9921198336785001
2014-06-30,-1,-0.0006784680122227542,-0.0005810509149962735,-0.005450785359967857,0.008483220688142817,0.9916262431805891
2014-07-02,1,0.0004150813696495929,0.0005034593989292702,-0.005874391914206301,0.008483220688142817,0.9908732384790664
2014-07-07,1,0.0004124711175580475,0.0005055401827723273,-0.007479713917769597,0.008483220688142817,0.990317795932241
2014-07-09,1,0.0002044464567762589,0.0002780155247764977,-0.007274271307986451,0.008483220688142817,0.9902544544373852
2014-07-11,-1,-6.283005783207598e-05,-5.001657394613684e-05,-0.005874391914206301,0.008774298424997957,0.9903450144317224
2014-07-15,1,0.0005988085347736112,0.0006752195972358822,-0.005874391914206301,0.005846907396696045,0.9925712989650749
2014-07-17,1,0.0006355558968236495,0.0007449163373076593,-0.004586473618134703,0.006731458631854989,0.993115091552989
2014-07-21,1,0.0006384993615331008,0.0007328227886677062,-0.005874391914206301,0.006748497095921342,0.9924865183341807
2014-07-23,1,0.001164952884463869,0.0013323035110879185,-0.005874391914206301,0.00551514699109355,0.9930399251577512
2014-07-25,1,0.000958499864096023,0.00110848094713411,-0.005874391914206301,0.006748497095921342,0.9919103586861948
2014-07-29,1,0.0007208787997448927,0.0008436214009979746,-0.0019316647527158307,0.008507205592827399,0.9914697980466756
2014-07-31,1,0.0005839971314002585,0.0006954352858893753,-0.003350834607593919,0.007874881153146579,0.9923114621984771
2014-08-04,1,9.67906086298867e-05,0.00010153272465571783,-0.0019316647527158307,0.007874881153146579,0.9926781374573901
2014-08-06,-1,-0.0002468410287320732,-0.00018626995534176734,-0.0013442584403905106,0.007874881153146579,0.9928210771716076
2014-08-08,1,0.0003879938960621818,0.00044430771736913297,-0.0028659887068244313,0.006748497095921342,0.993116366577911
2014-08-12,1,0.0007242116051025742,0.0008783707622774019,-0.003625016972671135,0.008267243248171317,0.992092785587341
2014-08-14,1,0.0007479053410537295,0.0008816372585845621,-0.003625016972671135,0.008209193223920044,0.9922645846154471
2014-08-18,1,0.0009408319908669187,0.0011045023303155428,-0.0028659887068244313,0.006430789915276888,0.9934353930891708
2014-08-20,1,0.0005986327206285078,0.0006526989858572201,-0.0028659887068244313,0.008209193223920044,0.9923300039057266
2014-08-22,1,0.0010801028858308912,0.0012084908419795573,-0.003710873447761883,0.006430789915276888,0.9931615871634256
2014-08-26,1,0.0017130121236126272,0.0019233245466041984,-0.004023093736119214,0.00539770747923495,0.9936013727343052
2014-08-28,1,0.0008636654913457648,0.0009282646482948424,-0.003458533095640129,0.006430789915276888,0.9926954965525752
2014-09-02,1,0.0013988566284650738,0.0015627630637251862,-0.0045091431881444585,0.005826608731673606,0.9923723501058119
2014-09-04,1,0.0011533185434034763,0.0012236953855891343,-0.005641923372201643,0.004130961437102064,0.9919181551885673
2014-09-08,1,0.0017702269409724859,0.001999809450306506,-0.005370951767861624,0.007775242546895764,0.9913092155702307
2014-09-10,1,0.0016436786319397288,0.001845098982777388,-0.005370951767861624,0.007775242546895764,0.9904494003681185
2014-09-12,1,0.0017191576239734014,0.0019197791910701193,-0.009760514716315359,0.004188710311404973,0.9882940880489006
2014-09-16,1,0.0017752796222880725,0.0019935032639414934,-0.009760514716315359,0.008511417894158152,0.9867480449403191
2014-09-18,1,0.002239265232234794,0.0024783976140844,-0.015250459624306325,0.004188710311404973,0.9859094326002498
2014-09-22,1,0.0018984772194495726,0.0021082932983477543,-0.015250459624306325,0.008258146821812874,0.9862412674353163
2014-09-24,1,0.0019607918122165977,0.0021701133275839578,-0.015250459624306325,0.009440390850183302,0.9855464705143705
2014-09-26,1,0.0010003212971120847,0.0010291901562498222,-0.011811773181288364,0.010391321459554594,0.9863558009642295
2014-09-30,1,0.0007823769619033556,0.0008105568107028176,-0.011811773181288364,0.014164144642746226,0.9860569230531419
2014-10-02,1,0.00047635577515530065,0.0004879354127580554,-0.0059224731183300525,0.014164144642746226,0.9862264943735481
2014-10-06,1,0.0008402380050722257,0.0008661379578352421,-0.0059224731183300525,0.010623488542261868,0.9869565709414221
2014-10-08,1,0.0008487212383518326,0.0008501901935165347,-0.004452228884996214,0.010623488542261868,0.9880774019196122
2014-10-10,-1,-0.0008424932829949013,-0.0006471819998474391,-0.00408821782011335,0.010623488542261868,0.9898812918245167
2014-10-14,1,0.0003238156744032848,0.0003657342519554567,-0.002126860621240425,0.009264508805407115,0.9915918909604585
2014-10-16,-1,-0.0006014665200531103,-0.00046164454104985226,-0.002126860621240425,0.009264508805407115,0.9928728735805511
2014-10-20,-1,-0.0003966838452452133,-0.0002692967897492476,-0.002126860621240425,0.008063714646109202,0.9934813873271491
2014-10-22,-1,-0.00025429708658578434,-0.0001579430080377082,-0.00181025507042126,0.007258658816067008,0.994391498154382
2014-10-24,1,0.0004088755769482722,0.0004281991374351175,-0.0026536598493053032,0.004123511743932187,0.9951775527702816
2014-10-28,1,0.0010789077631105479,0.0011816048585114387,-0.0017656036081182042,0.004123511743932187,0.995420162830344
2014-10-30,1,0.0014873966574599196,0.0016551582554606738,-0.002829671716579508,0.0028517147730930193,0.9954317490067769
2014-11-03,1,0.0011781027890268123,0.0012660423546525846,-0.003137188456922151,0.0028517147730930193,0.9944013766529891
2014-11-05,1,0.0012564924814089048,0.0013363454785249407,-0.002829671716579508,0.0028517147730930193,0.9946059954336958
2014-11-07,1,0.001005977883324963,0.001057207624357891,-0.0026536598493053032,0.004652896159929124,0.9940623831016763
2014-11-11,1,0.0006700515507716809,0.0006847582852675809,-0.003137188456922151,0.004652896159929124,0.992539182201112
2014-11-13,1,0.0005914332788977286,0.0006058788462678349,-0.003137188456922151,0.004652896159929124,0.9919135309983034
2014-11-17,1,0.00038109627358515067,0.0004390066665879923,-0.009774387950331294,0.004652896159929124,0.9900752412942737
2014-11-19,1,0.00018416476981730328,0.00027662953664583045,-0.009774387950331294,0.014252040523039375,0.987745409253239
2014-11-21,1,0.0003940659033841652,0.0004313555841706692,-0.009774387950331294,0.014252040523039375,0.9877873004421893
2014-11-25,1,0.000663904108722117,0.0006765178116091837,-0.009774387950331294,0.01030272958551601,0.9880026130922723
2014-11-28,1,7.816908601135993e-05,0.0001825621372177523,-0.009774387950331294,0.01030272958551601,0.9880717479236454
2014-12-02,1,0.00024898890669810213,0.0003456919712393395,-0.009774387950331294,0.006264943331412477,0.9888053495740464
2014-12-04,1,0.0012536216564902215,0.0013421567211262548,-0.011895284835621061,0.005256262195875461,0.9878612865999707
2014-12-08,1,0.0017042237176452893,0.0018373736234594301,-0.015074376819706713,0.003456979463627548,0.9865428032145995
2014-12-10,1,0.0006714744123603405,0.0006720852882211938,-0.015074376819706713,0.006264943331412477,0.98658309501676
2014-12-12,1,0.0003613041165733665,0.00037022060121031557,-0.011895284835621061,0.006264943331412477,0.9868474128206032
2014-12-16,-1,-0.001230058198901764,-0.0010195121744899455,-0.014831649165618885,0.006264943331412477,0.9863762866755745
2014-12-18,1,0.00047845374667921514,0.000512336203084881,-0.014831649165618885,0.003456979463627548,0.9880998883032732
2014-12-22,0,-8.856257809068267e-06,0.00010159283143627862,-0.014831649165618885,0.008165521349689665,0.9860004354386043
2014-12-24,0,-1.690071207178617e-05,0.00011423090260226376,-0.019221691536675523,0.0061763989314706684,0.9853261146756176
2014-12-29,0,-1.700268719566204e-05,0.00012094319576205081,-0.02012756533201298,0.0061763989314706684,0.9839079016048728
2014-12-31,-1,-0.0004965247912657089,-0.0003093749464939488,-0.02012756533201298,0.008351858667636658,0.9835567537189973
2015-01-05,-1,-0.0015723888396814347,-0.0012525123673366835,-0.019221691536675523,0.010323911820552563,0.983374602754801
2015-01-07,-1,-0.002080600827328475,-0.0017262537494359253,-0.015343468587132666,0.010323911820552563,0.9849778025607745
2015-01-09,-1,-0.0022622454565619796,-0.0019007432978267208,-0.012414914854595536,0.010323911820552563,0.9859441629062524
2015-01-13,-1,-0.0025113713296477987,-0.0021293494275300075,-0.012414914854595536,0.010323911820552563,0.9857627578817549
2015-01-15,-1,-0.0038092467472798123,-0.0033078549908273254,-0.007968572980881078,0.011209495380390445,0.9861241673151674
2015-01-20,-1,-0.003296934240848236,-0.002897566292013478,-0.006372581774324442,0.011209495380390445,0.9862891098612211
2015-01-22,-1,-0.0016697434452293256,-0.0014337087161076793,-0.00683070773776342,0.011209495380390445,0.9884309922235791
2015-01-26,-1,-0.002131138092009817,-0.0018638393422086795,-0.006596648671892704,0.011566481342049243,0.9885364027196049
2015-01-28,-1,-0.0031775866296914947,-0.002801116527161314,-0.00023749269361707866,0.011566481342049243,0.9889959980388771
2015-01-30,-1,-0.003338369225142711,-0.0029327079032091825,0.0011160642380645689,0.012498379673802455,0.9888160713339536
2015-02-03,-1,-0.0018970754528889126,-0.0016618043741427394,-0.00013610159565810928,0.010003121109391739,0.9913876006268372
2015-02-05,-1,-0.001963164149601484,-0.0017325152126467546,-0.001349915740572939,0.010003121109391739,0.9916057670087293
2015-02-09,-1,-0.001353360326096092,-0.00119702311845519,-0.002860716277867468,0.006999973502557549,0.9911012387691898
2015-02-11,-1,-0.00048217729373480783,-0.000475229734462613,-0.002860716277867468,0.011703953253092229,0.988978739201769
2015-02-13,-1,-2.5638734458848815e-05,-1.147366525707846e-05,-0.005376165124531713,0.010003121109391739,0.9899389577715421
2015-02-18,1,0.00023761898578251393,0.0003056619651014433,-0.0031301775019055176,0.007432823977808914,0.9904663869430386
2015-02-20,1,0.0005338024021190573,0.0006157158535290673,-0.003892535085827531,0.007432823977808914,0.9896083530794291
2015-02-24,1,7.653705947812352e-05,8.05727928381029e-05,-0.009360874391297177,0.004900886864421116,0.98957196812908
2015-02-26,1,0.00021772909897459239,0.00022136445488091157,-0.009574448679423916,0.003222895597138223,0.9892969265932425
2015-03-02,1,0.001188793012113938,0.001342959810220911,-0.009574448679423916,0.003222895597138223,0.9892540935363139
2015-03-04,1,0.0011895944443208236,0.001372794346090699,-0.009574448679423916,0.002795783841910587,0.9893287180056727
2015-03-06,-1,-0.00013438784701516195,-5.7136368479276744e-05,-0.009574448679423916,0.0032635489562328366,0.989779332004555
2015-03-10,-1,-0.0005458743670988561,-0.00047229885294242747,-0.005830288298931049,0.005282459049390719,0.9910574316683308
2015-03-12,1,0.0006255398692415466,0.0006548169909609378,-0.005830288298931049,0.004631249101464648,0.9931131611100095
2015-03-16,1,0.000362079281378935,0.0003632638966897197,-0.003940695906431995,0.004631249101464648,0.9935107137279798
2015-03-18,1,0.00034783602894314575,0.0003589363640042166,-0.003940695906431995,0.0061115357358255094,0.9925988598317381
2015-03-20,1,0.00038066744784503764,0.0004127576321014886,-0.003940695906431995,0.004925752220408227,0.9934206768188685
2015-03-24,-1,-7.820555329421291e-05,-7.607160332056236e-05,-0.003701397211753034,0.0061115357358255094,0.9930736360169304
2015-03-26,1,6.946237067069117e-05,0.0001059243713294159,-0.002670728445890788,0.0061115357358255094,0.9934371482882078
2015-03-30,1,0.0001269269224447959,0.00017140700683688622,-0.0020338429227365704,0.004925752220408227,0.9939629203007959
2015-04-01,1,0.0004473931628777902,0.0005577784431566898,-0.0026098722096633492,0.0061115357358255094,0.9932163391353324
2015-04-06,1,0.00030030580933815927,0.000371941465099479,-0.001902102813106562,0.007782873448108591,0.9928538545603172
2015-04-08,1,0.0002751848726765061,0.0003422166545159466,-0.006555703089527956,0.007782873448108591,0.9920274353116355
2015-04-10,1,0.0006124995361544002,0.0007250473264995658,-0.006555703089527956,0.009146431853899822,0.9915543655504035
2015-04-14,1,0.0007594629195734939,0.0008965072037116552,-0.006555703089527956,0.009146431853899822,0.9914817270267429
2015-04-16,1,0.0012636260677042898,0.0014642205567111162,-0.006555703089527956,0.008328956665401122,0.9919793972403403
2015-04-20,1,0.0008299380833391096,0.0009686723290131961,-0.006157915481980209,0.008328956665401122,0.99217332762342
2015-04-22,1,0.0012403540721037808,0.0014573231395123578,-0.006157915481980209,0.008328956665401122,0.9925198314832318
2015-04-24,1,0.0007836483591446542,0.0009275921120098579,-0.004844550711139067,0.008328956665401122,0.9926796309447291
2015-04-28,1,0.0013351100853701366,0.001578548398155306,-0.006933093603411613,0.008738991286127287,0.9918624801155865
2015-04-30,1,0.0014685361296967233,0.0017439110818900732,-0.006933093603411613,0.008328956665401122,0.9921154643005017
2015-05-04,1,0.0021744291956133947,0.00257779990782021,-0.006933093603411613,0.00808567643340634,0.9923799099516342
2015-05-06,1,0.0010953270572491524,0.0012971021745519949,-0.005502560153372372,0.008738991286127287,0.9925449800937127
2015-05-08,1,0.0015089571984699198,0.0017383388394815844,-0.006022307785946422,0.00808567643340634,0.9922287018387129
2015-05-12,1,0.0006646970921915193,0.0007156876693619412,-0.006022307785946422,0.009323534367387297,0.9913210745495691
2015-05-14,1,0.001835951708067551,0.002143310364327314,-0.006022307785946422,0.008849496061205634,0.9920471416763833
2015-05-18,1,0.0017937439444527994,0.0020797970712446885,-0.006362053299340808,0.008464182879764866,0.9919843926417607
2015-05-20,1,0.0018377349140474336,0.002139479733480959,-0.006387624587450648,0.006984750184546795,0.9923345468684767
2015-05-22,1,0.002046277816324906,0.0023900208205150995,-0.008194936781738112,0.008464182879764866,0.9914508561430313
2015-05-27,1,0.001834045520149838,0.0021187320313658014,-0.008194936781738112,0.007491947388905599,0.9916155304964377
2015-05-29,1,0.0009668713447769247,0.0010991800811990526,-0.008114740248803157,0.007491947388905599,0.9917154839385351
2015-06-02,1,0.0009774989222203262,0.0010837774020652706,-0.008543041175833764,0.007491947388905599,0.9905870342681214
2015-06-04,1,0.0007648603605543864,0.0008212788538355737,-0.008543041175833764,0.007491947388905599,0.990954917287497
2015-06-08,1,0.0006374457910418797,0.0006683423581629129,-0.008543041175833764,0.006773311507330491,0.9914127890404121
2015-06-10,1,0.0006397490682725291,0.000662731514057862,-0.009299499644720422,0.006773311507330491,0.9901703830769233
2015-06-12,1,0.0003834537355951494,0.00044587566211148845,-0.009299499644720422,0.007785842834354456,0.9888491692032223
2015-06-16,1,0.0011345876245930722,0.0012433336328433145,-0.009299499644720422,0.008433219306501444,0.9889383328404531
2015-06-18,1,0.0006651073252676644,0.000669834346641863,-0.008555721438549851,0.010579062235716027,0.9875674978704512
2015-06-22,0,-6.916871120273509e-05,5.6796872305300166e-05,-0.006249443803608557,0.008433219306501444,0.9882821106846065
2015-06-24,-1,-0.0003429106314106733,-0.00017552490979430406,-0.0061229687205440605,0.011334362015047521,0.987821028233008
2015-06-26,1,7.615470156666836e-05,0.00015932177893565502,-0.008474453799791011,0.011334362015047521,0.9868500548291899
2015-06-30,-1,-0.0005020393184162363,-0.0003407939993261216,-0.0061229687205440605,0.011334362015047521,0.9875167343478035
2015-07-02,-1,-0.0003442219961805558,-0.00021383625930346175,-0.007297192994284316,0.011334362015047521,0.9878535895337518
2015-07-07,-1,-0.0004553556624368992,-0.00031427961108159146,-0.0022924245149018897,0.011334362015047521,0.9885158454396153
2015-07-09,-1,-0.0007090113050741727,-0.0005696318943952534,-0.0022924245149018897,0.0095262829918808,0.9900234709839332
2015-07-13,1,0.00014911909062852028,0.00018611288181676321,-0.004235946584542341,0.007661040062732824,0.9910281621529328
2015-07-15,1,0.0006617499470287639,0.0007077525648436785,-0.008565792533547823,0.005231780697103224,0.9902528816512082
2015-07-17,1,0.0013103478315549314,0.0014307064308838107,-0.008565792533547823,0.005231780697103224,0.9916249132257161
2015-07-21,1,0.0014264069719466957,0.001571266356041722,-0.008565792533547823,0.005231780697103224,0.9914268975159038
2015-07-23,1,0.0019122401684234967,0.002153077509342201,-0.011323269863396247,0.0045557785841977075,0.9906685619772523
2015-07-27,1,0.001668118198731629,0.0018583702054450117,-0.011337846430292833,0.0045557785841977075,0.9877912068323638
2015-07-29,1,0.0008710517619476219,0.0009529559421290394,-0.011337846430292833,0.003477940432357947,0.9859130100545817
2015-07-31,1,0.0002362126495685348,0.00026855436996314503,-0.011337846430292833,0.0045557785841977075,0.9853054868249601
2015-08-04,1,0.0007834736570450655,0.0008804111598351853,-0.014180263766810338,0.0045557785841977075,0.982784978888398
2015-08-06,1,0.0005334418684666157,0.0005825279924155306,-0.014180263766810338,0.005246365646695469,0.9828131339304105
2015-08-10,1,0.000799051558391951,0.0008895256064764114,-0.019837600281978087,0.005246365646695469,0.9815189117588615
2015-08-12,1,0.0007177854046721777,0.0007853722788786728,-0.01697366009339643,0.005246365646695469,0.9822119523979084
2015-08-14,1,2.9315217272923096e-05,7.797924937145108e-05,-0.01697366009339643,0.0037391292850862375,0.9826302441356116
2015-08-18,-1,-7.247450635952047e-05,-1.680996831216345e-05,-0.01697366009339643,0.012484889449987286,0.9814616574549244
2015-08-20,-1,-0.0008384919730968474,-0.000685032975862583,-0.019198198431813737,0.012484889449987286,0.9812536042457034
2015-08-24,-1,-0.0010812386637266418,-0.0009085044421122002,-0.010580394058224312,0.012484889449987286,0.9848982121770496
2015-08-26,-1,-0.001208846853756416,-0.0010216480930617918,-0.015649556051801634,0.00910018248355023,0.9865743563088138
2015-08-28,-1,-0.0017722228115951764,-0.0015157348502914513,-0.018343708686057725,0.00910018248355023,0.9849680370654281
2015-09-01,-1,-0.0022227608705247858,-0.0019237666865979065,-0.015649556051801634,0.011621865597400036,0.9867018752922027
2015-09-03,-1,-0.002124741549204311,-0.00184091555701048,-0.015649556051801634,0.00910018248355023,0.9872499774884471
2015-09-08,-1,-0.0018033208315881466,-0.0015700483172076114,-0.008607675711327194,0.00910018248355023,0.9880582722341417
2015-09-10,-1,-0.002011492270699453,-0.001741412423651089,-0.005497503582357039,0.00910018248355023,0.9882186899684683
2015-09-14,-1,-0.0020667711243977788,-0.0018057789557465623,-0.005547514383718352,0.00910018248355023,0.9881807393568752
2015-09-16,-1,-0.0015600971547251492,-0.001339381748150405,-0.007272765423071417,0.005840568364866951,0.9894904816792346
2015-09-18,-1,-0.0022435580123016984,-0.001963812107345795,-0.005242141035665344,0.00691058910009018,0.9890057782908316
2015-09-22,-1,-0.002022747890888058,-0.0017657566208863177,-0.00517749064659876,0.005840568364866951,0.9894496461819976
2015-09-24,-1,-0.002286723516298801,-0.002011961723398307,-0.0027728420510930102,0.007934956015949235,0.9887387670989002
2015-09-28,-1,-0.0025722057803642517,-0.002250057216059846,-0.0027728420510930102,0.007934956015949235,0.989978354591636
2015-09-30,-1,-0.0016953394957659516,-0.001498968043743441,-0.005242141035665344,0.008200419496365404,0.988583160609836
2015-10-02,-1,-0.0008839530826677646,-0.000774577564788038,-0.009202306030411965,0.008200419496365404,0.9876670103608439
2015-10-06,-1,-0.0015305896075214526,-0.0013517878191572324,-0.009202306030411965,0.007925979044192255,0.9880566469178944
2015-10-08,-1,-0.0009080992040420183,-0.0008094600984839371,-0.009202306030411965,0.0077010511600490664,0.9880819861472047
2015-10-12,-1,-0.001284956186601276,-0.0011381572243316879,-0.009202306030411965,0.012687524613136303,0.9866852214766524
2015-10-14,-1,-0.00136561183778912,-0.0012152803729586225,-0.009202306030411965,0.012687524613136303,0.9862292966777068
2015-10-16,-1,-0.0008382599042510942,-0.0007584003202931035,-0.009530982943333556,0.0077010511600490664,0.9871954974119228
2015-10-20,-1,-0.0009686286649780004,-0.0008534714309666821,-0.009530982943333556,0.010438241075100293,0.9867826844462546
2015-10-22,-1,-0.0007349410444539252,-0.0006651896101781457,-0.009202306030411965,0.010438241075100293,0.9868510922947284
2015-10-26,-1,-0.000540123013530699,-0.0004924546638803251,-0.008721272997507743,0.007042770131428112,0.9877274203852657
2015-10-28,1,0.0006875247185269056,0.0007976703617889507,-0.006715890044439115,0.005991069370937096,0.9898116198016216
2015-10-30,-1,-7.478667069080834e-05,-2.3334016244106717e-05,-0.005476036910006911,0.005991069370937096,0.9911142318662726
2015-11-03,1,0.00030480559052417996,0.00039903836378382354,-0.005745940032978019,0.0032890051296903715,0.9905921358695557
2015-11-05,1,0.00029705742883006774,0.0003982938205794876,-0.00636880907876235,0.004247836475420983,0.9891694559253097
2015-11-09,1,0.0007789843535165003,0.0009423291932341605,-0.0118586219198627,0.001812582559378731,0.9891843591500201
2015-11-11,1,0.00028769769463469385,0.0003757032373175962,-0.01105669486706429,0.0016922797377928274,0.9894571958755759
2015-11-13,1,2.9005609056309616e-05,8.093028421097986e-05,-0.01105669486706429,0.0016922797377928274,0.9896581100736833
2015-11-17,1,1.519475109503166e-05,6.455513471229118e-05,-0.01105669486706429,0.005454172555956589,0.987686293884713
2015-11-19,1,0.0004020830057196645,0.0004915913933697055,-0.012764699480298073,0.00045417515499286904,0.9864587344922182
2015-11-23,1,0.0001183338219862138,0.000170034051755019,-0.012764699480298073,0.006017392827363303,0.9865576492854503
2015-11-25,1,0.0003080216410526971,0.00040380576474161923,-0.012764699480298073,0.011474671063933312,0.9861151592792244
2015-11-30,-1,-0.00024287253772335243,-0.0002195823252056176,-0.012764699480298073,0.011571252683192979,0.9854957379594153
2015-12-02,1,0.0001961676670603568,0.0002720703649281732,-0.012602460135857307,0.011358142739009293,0.9856867136273862
2015-12-04,1,0.0013418825022464152,0.0015861319701444257,-0.012602460135857307,0.006017392827363303,0.9865404748675218
2015-12-08,1,0.0005870431391807189,0.000771591462546451,-0.013263722774885271,0.006017392827363303,0.9850666424953632
2015-12-10,1,0.0006014985551794824,0.0007946066316949527,-0.015828851207421533,0.011358142739009293,0.9835980261389895
2015-12-14,1,0.00036599941753822485,0.0005409752155778338,-0.015828851207421533,0.011358142739009293,0.9833326640765454
2015-12-16,1,0.0016032344921107545,0.0019231994687926104,-0.022266377114407224,0.004215361663431758,0.9822635430319224
2015-12-18,1,0.00020349575300816986,0.00034769260249119336,-0.018429155162589993,0.004215361663431758,0.9827834761461772
2015-12-22,1,0.0006296532075509364,0.0008138533806997369,-0.018429155162589993,0.0021911369522920315,0.9818808565023774
2015-12-24,1,0.0007402399823957218,0.000944868989044913,-0.031193748779051924,0.001531428720459777,0.9794755909278139
2015-12-29,1,0.0008249734641271292,0.0010374635286137975,-0.031193748779051924,0.0008506765257782204,0.9800139936135402
2015-12-31,1,0.0005954578907852657,0.0007993230023720548,-0.031193748779051924,0.002162267584583177,0.9786060830598617
2016-01-05,1,0.0005909150382506536,0.000795550575884889,-0.03494223096011049,0.002162267584583177,0.9770439205755568
2016-01-07,-1,-0.0007859707266512884,-0.0007801788160433712,-0.031193748779051924,0.0058169232223146804,0.9788524289371717
2016-01-11,-1,-0.0007919153991595179,-0.0007766069109422899,-0.03494223096011049,0.002162267584583177,0.9782765448861062
2016-01-13,-1,-0.002086674338370534,-0.0019093435263024682,-0.03512372147165467,0.002162267584583177,0.9773620690395686
2016-01-15,-1,-0.004582946870657611,-0.004046939946316084,-0.025743066629224494,0.013656840678739738,0.9754964424666754
2016-01-20,-1,-0.005354571610012058,-0.004755215850295396,-0.021914118178856426,0.022720012446551054,0.9750888467501972
2016-01-22,-1,-0.005205623940743432,-0.0046299112587371745,-0.021914118178856426,0.015916159127782593,0.9753666223993497
2016-01-26,-1,-0.0058887905122626755,-0.005188622006971265,-0.021914118178856426,0.011388889572483582,0.9767369974689544
2016-01-28,-1,-0.0059712479419913025,-0.0052819641916909315,-0.021914118178856426,0.01613232321315676,0.9748306892227206
2016-02-01,-1,-0.004323882715790498,-0.003834512834946982,-0.021914118178856426,0.01613232321315676,0.9743041124012417
2016-02-03,-1,-0.00511308226999138,-0.004524246281967529,-0.01774653111889008,0.02281087337391255,0.9741921973786921
2016-02-05,-1,-0.006137160656369253,-0.005425673589912561,-0.010064800691593124,0.02281087337391255,0.9752325987342118
2016-02-09,-1,-0.0066966549297211245,-0.005975192035807474,-0.007966394797827677,0.02281087337391255,0.9753569218627737
2016-02-11,-1,-0.009297512816205668,-0.008214869866582309,-0.003835194983138771,0.022918573935098056,0.974295815796965
2016-02-16,-1,-0.005857191040986526,-0.005189902291394249,-0.005713379309246703,0.016532644532699023,0.9815346030109533
2016-02-18,-1,-0.0062387529264417915,-0.005497893549109982,-0.005713379309246703,0.014506477391878068,0.9824267041389882
2016-02-22,-1,-0.005737169342204307,-0.0050552200279158285,-0.005713379309246703,0.015036796010945453,0.982531306345592
2016-02-24,-1,-0.0058569379158993715,-0.0051910499408867805,-0.005713379309246703,0.015036796010945453,0.9830070613730281
2016-02-26,-1,-0.0047190030790598605,-0.004217012517053049,-0.007695930339813911,0.014506477391878068,0.9851301354313597
2016-03-01,-1,-0.0025782100283407304,-0.0023401421763588758,-0.005713379309246703,0.007621708829704787,0.9888078159474951
2016-03-03,-1,-0.0014913006682680714,-0.0014082913732542737,-0.005713379309246703,0.004212873187930898,0.9898684699647595
2016-03-07,-1,-0.0018195046415408309,-0.001686564784825693,-0.008752994406827842,0.004212873187930898,0.9892037905244858
2016-03-09,-1,-0.0028190057544563328,-0.0025587627444057814,-0.008752994406827842,0.006117612778791251,0.9889215335909212
2016-03-11,-1,-0.0005734641339793334,-0.0005090165101933573,-0.008752994406827842,0.005832811051655102,0.9898388584092641
2016-03-15,-1,-0.0007902575135272815,-0.0007416429500352955,-0.008752994406827842,0.0150264164085438,0.9864936822079328
2016-03-17,-1,-0.00037039308034557617,-0.00026320757025072284,-0.006197826543714702,0.0160716025224821,0.9868102026309564
2016-03-21,1,9.545057168776393e-05,0.0002876178805063961,-0.006197826543714702,0.012660846365044156,0.9869376931588653
2016-03-23,1,6.330956390381188e-05,0.00032975685040703034,-0.0035208292417978917,0.016170208389135635,0.9870426050641707
2016-03-28,-1,-0.0006109076961384386,-0.0004955361920554221,-0.0035208292417978917,0.016170208389135635,0.9866777625431065
2016-03-30,0,-0.00020866244822646612,1.908875772364577e-06,-0.0030225542693887086,0.016170208389135635,0.986550499602315
2016-04-01,1,0.0006252624926789531,0.0009483592073991633,-0.006878431342318688,0.012660846365044156,0.9866993514051534
2016-04-05,1,0.000457036065305106,0.0008176693440440554,-0.0037368479037039716,0.012660846365044156,0.9862699419347402
2016-04-07,-1,-0.00036795960460413776,-0.00013943062806265024,-0.006878057600424314,0.012660846365044156,0.986797145429085
2016-04-11,1,1.239046457405732e-06,0.0002396329104174164,-0.009628683339855518,0.009467837338901717,0.987122472483344
2016-04-13,1,0.002474461659535513,0.003050489072734165,-0.009628683339855518,0.008677636815623543,0.9894909171252927
2016-04-15,1,0.0030633492525124362,0.0037701910019448622,-0.010853983742117723,0.008115748909322897,0.9885862785000781
2016-04-19,1,0.003394988904566114,0.004126013402223303,-0.010853983742117723,0.008115748909322897,0.9883787206610053
2016-04-21,1,0.004035970904985151,0.004854326171838383,-0.011951062897801184,0.008115748909322897,0.9862813189109491
2016-04-25,1,0.004209007238690174,0.00505213465732293,-0.011951062897801184,0.005823242842541743,0.986474767352952
2016-04-27,1,0.004683739874239534,0.00559601015530182,-0.011951062897801184,0.009668860645946785,0.9850326981669729
2016-04-29,1,0.004538501654667839,0.005481887081820007,-0.013196450555283607,0.010831336262336944,0.9853461885884571
2016-05-03,1,0.003755082163667143,0.004533093602679691,-0.010853983742117723,0.010831336262336944,0.9866692887155757
2016-05-05,1,0.0027582996143333486,0.003387086205743314,-0.010853983742117723,0.010831336262336944,0.9865515321433364
2016-05-09,1,0.0022707423704749607,0.002790636619430816,-0.008830890450431797,0.010831336262336944,0.9867289160606946
2016-05-11,1,0.0035008771601133665,0.004284386371205769,-0.010944727420872442,0.008507015338240323,0.987228364239511
2016-05-13,1,0.002037008137965101,0.0025354262900312346,-0.013268177115588566,0.008507015338240323,0.9868787604300453
2016-05-17,1,0.0030053929609753375,0.0036689888880329868,-0.017057034151261564,0.0077695015844890655,0.9856943276759478
2016-05-19,1,0.003915020610744408,0.004717202246683129,-0.013268177115588566,0.0077695015844890655,0.988463384753753
2016-05-23,1,0.004187386942154301,0.005040503464950979,-0.013268177115588566,0.0077695015844890655,0.9885708496201994
2016-05-25,1,0.0049544479091033315,0.005869833738304997,-0.013268177115588566,0.007577462206428857,0.9874573796557481
2016-05-27,1,0.003915332555544498,0.0046396083735908865,-0.01880767628917596,0.003986022454500448,0.9819929183522652
2016-06-01,1,0.0034472955982254192,0.00401732739055503,-0.01880767628917596,0.007577462206428857,0.978529786735111
2016-06-03,1,0.0025516504584265414,0.0029930367815379612,-0.013268177115588566,0.007577462206428857,0.9801512210641848
2016-06-07,1,0.0018996311669939217,0.0021999893753471764,-0.01880767628917596,0.0070328683859063575,0.9788487004982298
2016-06-09,1,0.0011532632098815707,0.0012801431155582943,-0.01880767628917596,0.007786468000647287,0.9785635196549043
2016-06-13,-1,-0.000593539640426552,-0.00044574975253003227,-0.005290386403427692,0.010588026047154895,0.9784654156947802
2016-06-15,-1,-0.0012573095006848606,-0.0010377826156640975,-0.003196599044798191,0.018995304924217478,0.9782847866103735
2016-06-17,-1,-0.0010150899210195194,-0.0008174115337272502,-0.0033222118873829755,0.018995304924217478,0.9786048907582892
2016-06-21,-1,-0.0009235665901279938,-0.0007235643224302246,-0.004999545336481855,0.018995304924217478,0.9788455895508542
2016-06-23,1,0.0008415843737932373,0.000921619652565833,-0.004999545336481855,0.009716134797385445,0.9808333477571163
2016-06-27,-1,-0.003137757661669964,-0.0027153573192378972,-0.0032587496159562053,0.009716134797385445,0.9861804312213038
2016-06-29,-1,-0.00098324350466991,-0.0007678686172573409,-0.004790112662827167,0.006524244244084217,0.9910038183684484
2016-07-01,-1,-0.0020330597173131085,-0.0016451569779305645,-0.005169321474925189,0.005917704182355307,0.9909185192924495
2016-07-06,-1,-0.003866907666189789,-0.0031536080405102913,-0.005169321474925189,0.006047285915986217,0.9911571982468184
2016-07-08,-1,-0.0018028691221835867,-0.0014717388748339898,-0.005169321474925189,0.005906544760730688,0.9903969168125552
2016-07-12,-1,-0.0010203450867729714,-0.0007768924241546948,-0.005169321474925189,0.004201484079284068,0.9918656474688324
2016-07-14,-1,-0.0005037735542233723,-0.00033031891423410624,-0.005933086776065125,0.004201484079284068,0.9923933983165758
2016-07-18,-1,-0.0008368845031140239,-0.0006005758200225496,-0.005933086776065125,0.004201484079284068,0.9918186281033023
2016-07-20,-1,-0.000627290421921825,-0.00044557424834388,-0.005933086776065125,0.005030790699058558,0.9918423433077339
2016-07-22,1,5.0952046824886304e-05,9.047349693170774e-05,-0.005023351072697272,0.005030790699058558,0.9921655110431602
2016-07-26,1,0.0001733100042486749,0.00017379955844626407,-0.003645418295552927,0.005030790699058558,0.9923457757295772
2016-07-28,1,1.984244361974206e-05,4.9901161558138445e-05,-0.002910963828497727,0.005030790699058558,0.9926167492726021
2016-08-01,-1,-0.0007928584662935291,-0.0006338475017527616,-0.0013541243960687424,0.005477120000759093,0.9926342808848785
2016-08-03,1,0.00024691263425730896,0.0002612480352403801,-0.0013541243960687424,0.005477120000759093,0.9935368193781198
2016-08-05,1,0.0008437645799255219,0.0009163151806686782,-0.001822137741778519,0.005030790699058558,0.9952940587125304
2016-08-09,1,0.0008020742550021745,0.000884853710520836,-0.002910963828497727,0.004252789036280992,0.9951920307318374
2016-08-11,1,0.0007860262491693361,0.0008695313230345359,-0.002910963828497727,0.004252789036280992,0.9950156774914792
2016-08-15,1,0.000712631408621858,0.0007505737655092459,-0.002926017964391267,0.004252789036280992,0.9944731799640497
2016-08-17,1,0.0006108024527190287,0.0006218595030170472,-0.0034110041182510834,0.0046455736812174245,0.9941513514342939
2016-08-19,1,0.0005038462950821089,0.000511733587454438,-0.0038749995536244437,0.0046455736812174245,0.9934036072640979
2016-08-23,1,0.0006275177819917225,0.0006581075669041005,-0.0038749995536244437,0.006661536066040548,0.9932188618761969
2016-08-25,1,0.0003318234545747096,0.0003714329796632404,-0.0038749995536244437,0.006661536066040548,0.9930407402889901
2016-08-29,1,9.600405103712159e-05,0.00020003160461753208,-0.0054628632977919995,0.006661536066040548,0.9917565813351603
2016-08-31,1,0.0005027324314522254,0.0005399163580445975,-0.009213223841841468,0.006661536066040548,0.9909369804665521
2016-09-02,1,0.0011623194021639367,0.001302828534583359,-0.006716282892566704,0.007227970632440087,0.9898294316970451
2016-09-07,1,0.0011106138067759246,0.0012499045411310489,-0.006419330293603083,0.010540547488939492,0.9886953698004881
2016-09-09,1,0.0010572126507022608,0.0012052801978600922,-0.0037760153539699026,0.010540547488939492,0.9891256216923923
2016-09-13,1,0.0011641707812329858,0.0013474236769266137,-0.0037760153539699026,0.009089738044387468,0.9898806132191093
2016-09-15,1,0.0012771477167570463,0.001478636578427368,-0.0050219858278097804,0.009089738044387468,0.9897836229778668
2016-09-19,1,0.0010713561319194982,0.0012567261675362645,-0.0043566554205993185,0.009089738044387468,0.990490461163465
2016-09-21,1,0.0010465987106045257,0.0012029144582322829,-0.0043566554205993185,0.010116444295143424,0.990127623225288
2016-09-23,1,0.0009491138611364995,0.0010814349708864154,-0.0043566554205993185,0.010116444295143424,0.990163176661468
2016-09-27,1,0.0005459200598899219,0.0005888160200635494,-0.0012129754110509969,0.008975291034026875,0.9918213940283462
2016-09-29,1,8.542865784758502e-05,0.00010732417484343252,-0.0005542323118862898,0.008510323306167297,0.9929018092322344
2016-10-03,1,0.0005607842801719725,0.0006068727341888379,-0.0023804261231051963,0.008135921291224502,0.9939023838013088
2016-10-05,1,0.0008610645082896776,0.0009172051444117722,-0.0050219858278097804,0.0045794128369005,0.9948039802768742
2016-10-07,1,0.0011903605765706134,0.001311358206890506,-0.006242344186312898,0.0022378916278035653,0.9947712853570516
2016-10-11,1,0.0010809548950383352,0.0012114863707179098,-0.0050219858278097804,0.0022378916278035653,0.9939817596723546
2016-10-13,1,0.0011050635714325331,0.0012392453824290497,-0.0022679037508102707,0.008135921291224502,0.991149741365432
2016-10-17,1,0.0012256495637436465,0.001412675835301224,-0.005007168988450354,0.008852558723085949,0.988884818810029
2016-10-19,1,0.0014249870193077168,0.00162707454263858,-0.007260534535863614,0.009872544284233899,0.9881902236370601
2016-10-21,1,0.0016230789110794868,0.0018681876090736967,-0.007260534535863614,0.014313970109193446,0.9875530709640142
2016-10-25,1,0.001384473283023512,0.001557974993334122,-0.007260534535863614,0.014313970109193446,0.9872768968467389
2016-10-27,1,0.0013724476593018288,0.0015392269644650485,-0.007260534535863614,0.014313970109193446,0.9873185424081863
2016-10-31,1,0.0009432858014742015,0.001042637531246249,-0.005007168988450354,0.014313970109193446,0.9869236020109182
2016-11-02,1,0.00033045408713877573,0.00035204919417373883,3.147594027019495e-05,0.015621719568426595,0.9859149289999427
2016-11-04,-1,-0.00013595922132325606,-3.697019607240998e-05,0.0007211088675136003,0.017375491340362006,0.9839579954981172
2016-11-08,1,0.0005641530780456647,0.0005727672856779421,0.0007211088675136003,0.016673101185109625,0.9845241511229194
2016-11-10,1,0.001817818903912344,0.0019767297642849513,-0.00032195859865060425,0.015621719568426595,0.9874451040914872
2016-11-14,1,0.0028852932340992293,0.0032125619192605627,-0.00032195859865060425,0.015158952121724823,0.9894692376195919
2016-11-16,1,0.0012090923197547625,0.0013314176181058025,-0.00032195859865060425,0.015158952121724823,0.9896302171662404
2016-11-18,1,0.0026125709477984576,0.0028107474351216546,-0.002793221679260525,0.013741592059294433,0.9898607658776332
2016-11-22,1,0.0026641806250241803,0.0028474952421990987,-0.002793221679260525,0.015621719568426595,0.9893002906622163
2016-11-25,1,0.002345945700882075,0.0024579750766130595,-0.0046314988527643465,0.015621719568426595,0.9890866512648099
2016-11-29,1,0.0017234159372428457,0.0017756600393894204,-0.0046314988527643465,0.015621719568426595,0.9893798645634908
2016-12-01,1,0.0027699712524638363,0.002998455337969757,-0.006257289819172759,0.011659942563076077,0.9899355440016789
2016-12-05,1,0.0029101036789810518,0.0031742511807652746,-0.0046314988527643465,0.013223581656451633,0.9907771896442273
2016-12-07,1,0.0034637773101851652,0.0037984801004499356,-0.006257289819172759,0.009479433732991078,0.9908588164575789
2016-12-09,1,0.003541490658413403,0.00387436103082726,-0.006257289819172759,0.005089148411619205,0.9911957448860479
2016-12-13,1,0.003226627546504331,0.0035069046794457713,-0.006257289819172759,0.004676654638821333,0.9907439706612245
2016-12-15,1,0.0030045712576881886,0.0032434271195687803,-0.008725249386026833,0.00429853749874967,0.9903860844362945
2016-12-19,1,0.002649923410577036,0.002829776444707998,-0.012311076359953885,0.00429853749874967,0.9895211948962351
2016-12-21,1,0.0026032786048300802,0.0027453433204303393,-0.012311076359953885,0.0020997568009318763,0.9893874150432302
2016-12-23,1,0.002705853956331647,0.002875468785498129,-0.012311076359953885,0.00429853749874967,0.9884857658419686
2016-12-28,1,0.0023962181086997466,0.0025888515201105884,-0.01128819556747979,0.00429853749874967,0.9888796012593383
2016-12-30,1,0.0019498544320852664,0.002064441901350954,-0.012311076359953885,0.00429853749874967,0.9884304756573177
2017-01-04,1,0.002478633913919608,0.0026592857949021866,-0.012311076359953885,0.0009945882445380287,0.9893420488800436
2017-01-06,1,0.002006386873828308,0.002145220819243652,-0.010323952122595969,0.0011096442272730822,0.9889326383457903
2017-01-10,1,0.0017546010126129744,0.0018510319429861056,-0.012311076359953885,4.8462170549732524e-05,0.9881830692075327
2017-01-12,1,0.0013654374628437637,0.0014032169808871012,-0.010460252742345248,0.006534691239592964,0.9883211797886016
2017-01-17,1,0.0007956412187359763,0.0008423228479262007,-0.008993028267480739,0.0153685213514862,0.988078177223708
2017-01-19,1,3.531524161459938e-05,0.00017105023344705,-0.007699415517921773,0.0153685213514862,0.9890803078373177
2017-01-23,-1,-0.0003697543927682382,-0.00019496007048263827,-0.004698877057301702,0.0153685213514862,0.9894819990393813
2017-01-25,1,0.0006099555764163825,0.0006567376962869064,-0.004698877057301702,0.007645942298034965,0.9910512571279179
2017-01-27,1,0.00011698793743213526,0.0002289716007822788,-0.0045602885286027154,0.008592057637771426,0.99040478198745
2017-01-31,-1,-0.0005358818859520287,-0.00034719273023000176,-0.0024276631193474734,0.012130754112594252,0.9898690869654717
2017-02-02,-1,-0.00064371319425443,-0.0004258254265538055,-0.003483220204848551,0.012130754112594252,0.9890966838839546
2017-02-06,-1,-0.00030307864819807,-0.00012108110232734125,-0.004575886765457334,0.008592057637771426,0.9900440937188184
2017-02-08,-1,-0.00088856486050594,-0.000643182893200459,-0.0023570952628280965,0.010361582164110424,0.9900827463974777
2017-02-10,-1,-0.0006758136801121121,-0.0004288468996624425,-0.0023570952628280965,0.008313130190215753,0.9912867903406865
2017-02-14,1,0.00042447096872936,0.000528636427781542,-0.003483220204848551,0.006536620240513738,0.9926963945480342
2017-02-16,1,0.00023117066730106586,0.0003659146974318547,-0.00506551392702973,0.006155793197440571,0.9924822432846387
2017-02-21,1,5.1836480738253875e-05,0.00020575820702789738,-0.01204136435427259,0.005347158871528446,0.9910457114576952
2017-02-23,-1,-0.0004991111362680808,-0.00022201717691907403,-0.01204136435427259,0.005347158871528446,0.9907472023018689
2017-02-27,-1,-0.000509785586977361,-0.0002499503387628384,-0.010275024962269834,0.004908927493483858,0.9917058401855783
2017-03-01,1,0.0004835354846263544,0.0005871407226514623,-0.010275024962269834,0.004908927493483858,0.9922566554812711
2017-03-03,1,0.00032774541789852096,0.0004413191144859728,-0.010174963160536793,0.004908927493483858,0.9918154560038531
2017-03-07,0,-0.00018151834717749572,1.2668218437368421e-05,-0.005930379077980095,0.004908927493483858,0.9925071387351094
2017-03-09,0,-8.706938756581793e-05,0.00011449382100537373,-0.005930379077980095,0.004569740078389818,0.9930333594892813
2017-03-13,-1,-0.0003299498927880291,-8.268957329597465e-05,-0.008201949717900501,0.004569740078389818,0.9926766330597758
2017-03-15,-1,-0.0005423127685581442,-0.00028992528234542873,-0.007962821638567598,0.004569740078389818,0.9926319444272798
2017-03-17,-1,-0.0009235907821301402,-0.0006245810537306194,-0.007768742322065251,0.004569740078389818,0.9923811989828728
2017-03-21,-1,-0.0021468879730890972,-0.0016996442885026193,-0.007768742322065251,0.004569740078389818,0.993392526529521
2017-03-23,-1,-0.00211823610217552,-0.0016768218904884313,-0.008226850116170753,0.0046166410276843595,0.9926946086997767
2017-03-27,-1,-0.002161390659561873,-0.0016947574059886612,-0.008226850116170753,0.012072794231389414,0.9908421958075204
2017-03-29,-1,-0.002206039213062456,-0.0017222647407310484,-0.00902249452570749,0.006720535809889955,0.9914440411387607
2017-03-31,-1,-0.0023385926586763123,-0.0018215243310826753,-0.008226850116170753,0.005213546089383951,0.9924547167059897
2017-04-04,-1,-0.0020228278187448072,-0.0015735944889092367,-0.008226850116170753,0.006532332856352388,0.9916838436398496
2017-04-06,-1,-0.0008191316955063158,-0.0006030419620888832,-0.008226850116170753,0.006532332856352388,0.9916308512712474
2017-04-10,-1,-0.0009331460433232917,-0.0007253257127075263,-0.008226850116170753,0.006532332856352388,0.9916278719820749
2017-04-12,-1,-0.0014906539659950637,-0.001207658814117768,-0.005417863442531208,0.006532332856352388,0.9916530044627551
2017-04-17,-1,-0.0009226567391518169,-0.0007260024172303987,-0.0044836700269774935,0.005837146732732044,0.9922457842913215
2017-04-19,-1,-0.001515524703404893,-0.001264783208603372,-0.002485916279546481,0.00679072034494229,0.990184694183385
2017-04-21,-1,-0.0014487765060923715,-0.0012166348444204126,-0.0008302755643055779,0.00679072034494229,0.9903002663675325
2017-04-25,-1,-0.0006363810551670117,-0.0004589427613968638,-0.0009477000912816505,0.005837146732732044,0.9922722126704502
2017-04-27,-1,-0.00047216072744941506,-0.0003623604913418643,-0.0005371925242340318,0.00679072034494229,0.9922168805520084
2017-05-01,-1,-0.0004967066503239236,-0.00038356517160322614,-0.0005371925242340318,0.00679072034494229,0.9922798474118026
2017-05-03,1,0.0005285007229938425,0.0005915424148505103,-0.001606667159331842,0.006801585037320664,0.9919210802035225
2017-05-05,1,0.0006364000501860729,0.0007383900272165048,-0.001606667159331842,0.006801585037320664,0.9919419462647655
2017-05-09,1,0.000572921997931874,0.0006612825879801943,-0.0014705614760271574,0.008958484776599735,0.991452582219281
2017-05-11,1,0.0009814075878691578,0.0011335414471087485,-0.0014705614760271574,0.011548922618509034,0.9899770483198189
2017-05-15,1,0.0010849306496970561,0.0012336008227622941,-0.0024923674181095766,0.011548922618509034,0.9900943927438476
2017-05-17,1,0.0006831678845023591,0.0008083930052775585,-0.0024923674181095766,0.009467352294430874,0.9923112961402181
2017-05-19,1,0.0013348895390357233,0.0015528893447053107,-0.003436686317942674,0.00911471603542425,0.9925886581920169
2017-05-23,1,0.0013268247444252076,0.0015118559978730245,-0.004223522626500194,0.008958484776599735,0.9924902884419309
2017-05-25,1,0.0011195188726604726,0.0012592548627290746,-0.003455224528530391,0.006544332089817593,0.9927458603112359
2017-05-30,1,0.0015327816661168023,0.0017883982844785046,-0.0032927343830128856,0.007521615771252468,0.9926799410680841
2017-06-01,1,0.0012231329761764372,0.0014118644449708547,-0.0032795962201150773,0.010491013841489165,0.9920399766971173
2017-06-05,1,0.001022367623992294,0.0011711662626285508,-0.0032795962201150773,0.014392639098322321,0.9910200925855287
2017-06-07,1,0.0011433021802689629,0.001279843091908081,-0.0032795962201150773,0.010623650144909463,0.991181502279819
2017-06-09,1,0.002040135839734604,0.002266358319195607,-0.0032927343830128856,0.006140162520702148,0.9926452924001692
2017-06-13,1,0.0015000538707639981,0.0015970493801305387,-0.0034327828215087158,0.006140162520702148,0.9923365818218092
2017-06-15,1,0.0007656760930962475,0.0007967317482316956,-0.0034327828215087158,0.006140162520702148,0.9926169849232732
2017-06-19,1,0.0014475838419210061,0.0015643670139480815,-0.0034327828215087158,0.0045639582962420855,0.9932366679107246
2017-06-21,1,0.0008771448096566274,0.0008958660077005909,-0.0034327828215087158,0.0045639582962420855,0.9932952954175237
2017-06-23,1,0.00012005581753245253,0.000234161823322059,-0.003990522856854936,0.0045639582962420855,0.993272809395954
2017-06-27,1,0.0005047322492223507,0.0005692211805912701,-0.003990522856854936,0.0031226164957048317,0.9924271335714205
2017-06-29,1,0.0022491581995704403,0.002445949776449053,-0.004631504896033168,0.0015485188400672762,0.9934039273999073
2017-07-03,1,0.002315364737358587,0.0024716642669285168,-0.004631504896033168,0.0019323673442783278,0.9931248973971113
2017-07-06,1,0.0020918427880227443,0.0022600314982395182,-0.004631504896033168,0.0015485188400672762,0.9926968905540364
2017-07-10,1,0.0025250881415208016,0.002820401022266858,-0.004631504896033168,0.0015485188400672762,0.9922662974214131
2017-07-12,1,0.0022629059820881096,0.0025311016601618505,-0.004631504896033168,0.0015485188400672762,0.9925148767679521
2017-07-14,1,0.002233059545899552,0.002495336363053988,-0.005466210686657,0.0015485188400672762,0.991501535227933
2017-07-18,1,0.0021626628586654457,0.002414690730009647,-0.005466210686657,0.004255405954039762,0.9909130729129982
2017-07-20,1,0.0016602165955118928,0.0018258290227633864,-0.005754491465880225,0.004255405954039762,0.9905446765047378
2017-07-24,1,0.0019585850472193978,0.002204114232893963,-0.006319349060993036,0.004002862482815958,0.9901226975665143
2017-07-26,1,0.0025211734707750594,0.0028228698944942855,-0.006319349060993036,0.007382390526539019,0.9906508198584992
2017-07-28,1,0.0020970958389109774,0.002323521671574994,-0.006319349060993036,0.008250686849354927,0.9911935449080507
2017-08-01,1,0.0032939236410527064,0.0037022626148493594,-0.006319349060993036,0.0031938539772953887,0.9914881070043227
2017-08-03,1,0.0024374373771115115,0.0027292887863401482,-0.005211868414170358,0.005973873266711793,0.9928307770483698
2017-08-07,1,0.0025362431754885374,0.002815576378325064,-0.006319349060993036,0.005973873266711793,0.9919427037233559
2017-08-09,1,0.0019701937584248744,0.0021572166243107593,-0.007051678328045723,0.005973873266711793,0.9917261269339134
2017-08-11,1,0.0004169788321955997,0.0004912666038848241,-0.004085549657157938,0.0070951673260038805,0.9919564393001317
2017-08-15,1,0.0008274506684020065,0.0008561247824604971,-0.004085549657157938,0.00791179878473927,0.9916182199517921
2017-08-17,1,0.00023232922318320307,0.0003247021011843041,-0.00234340252548245,0.00791179878473927,0.9923387989518335
2017-08-21,1,2.961727877416972e-05,0.0001255627661340648,-0.0009825911298510263,0.008244079073523444,0.9912959876771738
2017-08-23,1,0.0007387739374020276,0.0007460799143980864,-0.0009825911298510263,0.00791179878473927,0.9920049746591089
2017-08-25,1,0.0007502855975311138,0.0007578632175188683,-0.003382958208116464,0.00791179878473927,0.991680752438723
2017-08-29,1,0.0006905690978670926,0.0007015395605992811,-0.00234340252548245,0.008244079073523444,0.991083650024642
2017-08-31,1,0.0004487709177831858,0.0005088249417325376,-0.00234340252548245,0.008244079073523444,0.9911466320500335
2017-09-05,-1,-0.00026761425699077675,-9.923990327259419e-05,0.00038864516210576454,0.010184762164986977,0.9913863915073948
2017-09-07,-1,-0.0006775723880319914,-0.00047324770654000455,0.0006930036111358886,0.014916992144800757,0.9910967484650754
2017-09-11,-1,-0.0003803651478442903,-0.00016631566482941233,-0.0013328403450061019,0.010184762164986977,0.9923324256049275
2017-09-13,1,0.00013630173893084546,0.00029984031718093153,-0.002811242341527246,0.005786867784093203,0.9933390862334899
2017-09-15,1,0.0005544044861690239,0.000624499467529774,-0.0032205148669622024,0.005786867784093203,0.9917103330818713
2017-09-19,1,0.0013024931165172367,0.0013138143665360278,-0.0033770167581834466,0.004633354427524671,0.992590777775469
2017-09-21,1,0.0013531757770417225,0.0013622502397304455,-0.0033770167581834466,0.0053022919609439206,0.992076224329898
2017-09-25,1,0.0009853394873741098,0.0010100610095745012,-0.003214820148323841,0.006618779244013035,0.992423921549152
2017-09-27,1,0.0013683382581148626,0.001376256950149061,-0.0032880454318333424,0.006618779244013035,0.9923796946283683
2017-09-29,1,0.00138281174762166,0.0013856632739633703,-0.0032880454318333424,0.006618779244013035,0.9925055870951183
2017-10-03,1,0.0019392579014465856,0.002027664634834261,-0.0033770167581834466,0.0031948747157217335,0.9927249447269317
2017-10-05,1,0.002713568626923559,0.002916483875552101,-0.0033770167581834466,0.006191798216706308,0.9929977707306793
2017-10-09,1,0.001722102759373476,0.0017581118856760335,-0.0036432711849352472,0.006191798216706308,0.9928876261344931
2017-10-11,1,0.0016817893352862252,0.0017405055716007672,-0.004808491875671641,0.006191798216706308,0.9922231628950471
2017-10-13,1,0.0006597998237358584,0.0007178979076545666,-0.004025055873110964,0.006191798216706308,0.9942416235343375
