JNU-Tangyin/eata/results/Batch4_SP500/Batch4_SP500-KMX.csv
Date,Action,Predicted_Q25,Predicted_Q75,Actual_Q25,Actual_Q75,RL_Reward
2010-12-14,0,0.0,0.0016384525509932316,-0.011826533073802516,0.011662816395285215,0.9843064581523554
2010-12-16,1,0.0019160334654448568,0.0019810432955516205,-0.011826533073802516,0.011662816395285215,0.9839468677711498
2010-12-20,0,0.0,0.0,-0.012976337790198939,0.004329212783916623,0.9847414452315362
2010-12-22,0,0.0,0.0,-0.01056168101581478,0.010811577920744738,0.9887593964559971
2010-12-27,0,0.0,0.0,-0.0071883365440083375,0.006162433974714417,0.9892542119686684
2010-12-29,0,0.0,0.0,-0.005728635369592339,0.007352905124958576,0.9892626850832131
2010-12-31,-1,-0.002286151967401476,-0.0018497167543664352,-0.005728635369592339,0.007352905124958576,0.9895094273074596
2011-01-04,0,0.0,0.0,-0.005728635369592339,0.007507061951017124,0.9898762708410662
2011-01-06,0,0.0,0.0,-0.005417867658675631,0.017213513581295508,0.9899864492560309
2011-01-10,0,0.0,0.0,-0.003505821909726822,0.008861576583094555,0.9911021814161107
2011-01-12,0,0.0,0.0,-0.003505821909726822,0.00990226686883211,0.990551789725992
2011-01-14,-1,-0.002267429343400135,-0.0016390509912126443,-0.003505821909726822,0.01714608031817482,0.9895316918087014
2011-01-19,-1,-0.0047154615107997755,-0.003562590770873686,-0.0013380976150687048,0.017868148143703036,0.9872038803116576
2011-01-21,-1,-0.00486974587685048,-0.0036714857426857353,-0.0018642619548367918,0.017868148143703036,0.9875207947152744
2011-01-25,-1,-0.005025801304015359,-0.003840268925659764,-0.0018642619548367918,0.017868148143703036,0.9849888384544608
2011-01-27,-1,-0.003933318558942363,-0.002930596156282724,-0.006195352768186384,0.017868148143703036,0.9845026549091613
2011-01-31,-1,-0.0037254003145236704,-0.002804476691871542,-0.007880507208125108,0.017868148143703036,0.9839438563241487
2011-02-02,-1,-0.0043796197482328285,-0.003361172281862358,-0.0018642619548367918,0.01563779594603125,0.9840637915010194
2011-02-04,0,0.0,0.0,-0.009067602312037942,0.008484712648091114,0.9861794325334239
2011-02-08,0,0.0,0.0,-0.009067602312037942,0.012172444677768134,0.985581689522779
2011-02-10,0,0.0,0.0,-0.017806334951481546,0.012172444677768134,0.9836486656773926
2011-02-14,1,0.003352223924846155,0.0036367946521344238,-0.01868337212989948,0.007896323429063788,0.9836533053729769
2011-02-16,1,0.0032148054078187356,0.003384468324044351,-0.01868337212989948,0.006593196245840417,0.9842455483620642
2011-02-18,0,0.0,0.0,-0.01868337212989948,0.007112757670925932,0.9837672348201357
2011-02-23,0,0.0,0.0,-0.017060250568466814,0.007112757670925932,0.9845353653742084
2011-02-25,0,0.0,0.0,-0.012529118382354036,0.007112757670925932,0.986026047700295
2011-03-01,0,0.0,0.0,-0.009487475387259052,0.010123818515924,0.985794467119196
2011-03-03,0,0.0,0.0,-0.012529118382354036,0.010537052232834021,0.9824396904903551
2011-03-07,0,0.0,0.0,-0.011964242654295038,0.014189176038683105,0.9823800709322695
2011-03-09,1,0.0065543426979743245,0.006642268129278967,-0.011964242654295038,0.014204398117607594,0.9821107971023036
2011-03-11,1,0.005671268070870445,0.005876198134574368,-0.009487475387259052,0.014204398117607594,0.9844739398133842
2011-03-15,-1,-0.0022939722411149856,-0.001822886636145742,-0.009487475387259052,0.014204398117607594,0.9848779824370091
2011-03-17,0,0.0,0.0,-0.007297001036890637,0.01427685795693646,0.984861171852271
2011-03-21,0,0.0,0.0,-0.010906250206045277,0.01427685795693646,0.9843317319413863
2011-03-23,0,0.0,0.0,-0.007476855982092116,0.01715754477534585,0.9840792475669546
2011-03-25,0,0.0,0.0,-0.00934811745086424,0.01480375658109671,0.9846787898402292
2011-03-29,0,0.0,0.0,-0.00934811745086424,0.013419802052857881,0.985401707180159
2011-03-31,0,0.0,0.0,-0.007577421283124857,0.013419802052857881,0.9876847589277888
2011-04-04,0,0.0,0.0,-0.007577421283124857,0.010144038416017364,0.9881428782791105
2011-04-06,0,0.0,0.0,-0.00934811745086424,0.007510968437753926,0.9883172466029584
2011-04-08,0,0.0,0.0,-0.01175440761936435,0.007510968437753926,0.9856810832891968
2011-04-12,-1,-0.0007129806449318981,-0.00047217576812968857,-0.009910307997806704,0.007510968437753926,0.98597478848853
2011-04-14,-1,-0.0004980375744525409,-0.00029496022704723695,-0.01175440761936435,0.006978588142474145,0.985642949906413
2011-04-18,-1,-0.00023720778782978786,-8.485162100314853e-05,-0.01293807505397616,0.004809403088674448,0.9864102002597379
2011-04-20,1,0.0017104986213458784,0.001788962939662895,-0.010444564801976978,0.0021423820470167403,0.9877187766792325
2011-04-25,1,0.00013319066235813805,0.00024233204496392104,-0.013793426218758007,0.0010223274380522702,0.9869680305920482
2011-04-27,1,0.0006005703240629709,0.0006064130287578703,-0.013793426218758007,0.0004336763306974712,0.9874002543742061
2011-04-29,1,0.0027691696524195144,0.003101997979046682,-0.013793426218758007,0.0004336763306974712,0.9872676205503524
2011-05-03,1,0.003284379755179779,0.003649295254101042,-0.015167903105368289,0.0004336763306974712,0.9861021231207706
2011-05-05,1,0.0025030046205143965,0.002763138062585686,-0.015285193687790192,0.0004336763306974712,0.9860957425133215
2011-05-09,1,0.000827242642507347,0.0008658073201105835,-0.015271165292356989,0.0004336763306974712,0.9890416976956019
2011-05-11,1,0.0009298258133404859,0.0010153886316670766,-0.018983272365184045,0.0004336763306974712,0.9874416643047728
2011-05-13,1,0.0006863767548961076,0.0008122493942929094,-0.018983272365184045,0.0021037615007796075,0.987976643520541
2011-05-17,-1,-0.002314159549851302,-0.001928945396973848,-0.018983272365184045,0.006447597775090609,0.9863383481571018
2011-05-19,-1,-0.0034089010286709673,-0.002933367370697198,-0.018983272365184045,0.009883545038301085,0.9842619372002928
2011-05-23,-1,-0.004440165318223886,-0.0038442086146368753,-0.010966404702817893,0.013098211355813141,0.983154718854089
2011-05-25,-1,-0.004239507993992435,-0.003561358493807286,-0.010966404702817893,0.01719212591393499,0.9801049011513374
2011-05-27,-1,-0.0039717481669019564,-0.0032970909034926053,-0.01687740561651905,0.01719212591393499,0.9802505025302544
2011-06-01,-1,-0.004870200757655924,-0.004106861317239783,-0.010966404702817893,0.01797940466180486,0.9804919646278297
2011-06-03,-1,-0.0049756159818184625,-0.004268106399871021,-0.004833164134522812,0.018571805927168797,0.9796364326226012
2011-06-07,-1,-0.006124084331607401,-0.005263189595576269,-0.0010647449030687893,0.018571805927168797,0.9791841487539441
2011-06-09,-1,-0.0059133954213189035,-0.005092023155820108,-0.0010647449030687893,0.020785643830793392,0.9797533833713894
2011-06-13,-1,-0.006502369678376344,-0.0055857215748805564,-0.004756907323027115,0.020785643830793392,0.9789809355497124
2011-06-15,-1,-0.004229706780188258,-0.0035998737238699466,-0.008801799166261151,0.018571805927168797,0.9826887957139508
2011-06-17,-1,-0.00260300262600943,-0.0021451728032235613,-0.009156413034899948,0.010718504773927722,0.9850880796949092
2011-06-21,1,0.00018419101278942623,0.00022646270851568064,-0.009156413034899948,0.0077486698827392885,0.9872346976450773
2011-06-23,-1,-0.0011895690223264067,-0.0009788604069885676,-0.009156413034899948,0.0077486698827392885,0.9901126866420527
2011-06-27,-1,-0.001565254745352557,-0.0013020443682415755,-0.008801799166261151,0.008287097251625193,0.9902906959643323
2011-06-29,-1,-0.00027883420100100137,-0.0002570294005709052,-0.009982105553146355,0.005913837673159001,0.9902449441511926
2011-07-01,1,0.0009845106224806695,0.0011449420645551068,-0.01083201105257376,0.0011572200578093184,0.9895883649006787
2011-07-06,1,0.0011427232716156436,0.0013503793423428902,-0.012386047989405917,0.0011443409753990649,0.9877112348669101
2011-07-08,1,0.002070887924675175,0.002422176961506889,-0.013088379380169768,0.0011443409753990649,0.9851397263579302
2011-07-12,1,0.001578725876028065,0.0019736027531676702,-0.01265008138596398,0.0036673209963262246,0.9817548520747743
2011-07-14,1,0.0011903152834528722,0.0015503391949419163,-0.01549324701309486,0.0053535859908601735,0.979376948467337
2011-07-18,0,-2.4755944296857806e-05,6.379956129691852e-05,-0.01549324701309486,0.011070169970829578,0.9792117186942371
2011-07-20,1,0.00032981936325430193,0.0004879536241734054,-0.022977863772904075,0.011070169970829578,0.9775894934184503
2011-07-22,1,0.00010984562613920382,0.00019829466048040828,-0.03096294726439784,0.007097801697549802,0.9753514360112301
2011-07-26,1,0.0011492576076257213,0.0014210089943080889,-0.03096294726439784,0.008055542119873194,0.9743796094639715
2011-07-28,-1,-0.0001660999445510905,-0.00011653588415743072,-0.03096294726439784,0.009869544008504223,0.974095182180042
2011-08-01,-1,-0.0006787996639126683,-0.0006593392455582621,-0.03096294726439784,0.014452625155265984,0.9724831320346145
2011-08-03,-1,-0.002346573385094091,-0.002125962348373169,-0.027688000033198216,0.014452625155265984,0.9733473992873352
2011-08-05,-1,-0.0035579460337269875,-0.0032133541395534732,-0.027688000033198216,0.012257103023286755,0.9744474554790072
2011-08-09,-1,-0.004226124509642371,-0.003786498263928687,-0.02426231997783635,0.012257103023286755,0.977832552258351
2011-08-11,-1,-0.00262080052213194,-0.0024231673885970347,-0.023402292501721565,0.009491487621263443,0.979770943696462
2011-08-15,-1,-0.0027778105693841704,-0.0025016851367277585,-0.023402292501721565,0.009491487621263443,0.9795386729977013
2011-08-17,-1,-0.0033898867279155147,-0.0030831574291354294,-0.02030919801402492,0.019303125346469958,0.977876054970943
2011-08-19,-1,-0.004379447443657085,-0.0040430487552168696,-0.02008109663961054,0.028508309279996494,0.9775724371754795
2011-08-23,-1,-0.00330340862104136,-0.003034463653035563,-0.02263522629428739,0.019303125346469958,0.978184022553827
2011-08-25,-1,-0.003947964777566123,-0.0036039031950875506,-0.02263522629428739,0.019303125346469958,0.9748188713662999
2011-08-29,-1,-0.0005874800256955534,-0.0005219723030847557,-0.02263522629428739,0.02262511287926268,0.9751356864717006
2011-08-31,0,-6.428129349748306e-05,7.15965026520349e-05,-0.023205266556468693,0.02262511287926268,0.9732159654605297
2011-09-02,-1,-0.0024209533219229345,-0.0022439923360929887,-0.02232914059534078,0.02262511287926268,0.9749301586979899
2011-09-07,-1,-0.0006400915249460222,-0.0005776799293094494,-0.02232914059534078,0.02262511287926268,0.9745233641842252
2011-09-09,-1,-0.0015326783986944642,-0.0015272915709643193,-0.019407520021291005,0.028508309279996494,0.9733188891380129
2011-09-13,0,-0.0001718212065541687,6.708359395342063e-05,-0.019407520021291005,0.03175577479526706,0.9705430637930775
2011-09-15,0,0.0,0.0,-0.019407520021291005,0.031365145235691054,0.9718385650223684
2011-09-19,0,0.0,0.0,-0.019407520021291005,0.024865946231778763,0.9718606636966485
2011-09-21,0,0.0,0.0,-0.013260392289963667,0.03129308921487045,0.9723181861322837
2011-09-23,0,0.0,0.0,-0.007280580525444393,0.03718025130639988,0.9747884568908618
2011-09-27,0,0.0,0.0,-0.011763641818276039,0.03718025130639988,0.9734944250086057
2011-09-29,0,0.0,0.0,-0.011074410195594572,0.03718025130639988,0.9740666169977358
2011-10-03,-1,-0.0032703778415846597,-0.003169727590495706,-0.015053608335786513,0.03718025130639988,0.9727499979011596
2011-10-05,-1,-0.0021691001444643677,-0.0021425999919637935,-0.01628783041430363,0.035067072393393364,0.9733310237400594
2011-10-07,-1,-0.00148702028085648,-0.0014862133545336096,-0.016575683445824413,0.03058869624386827,0.9744096040195471
2011-10-11,1,0.0015759913336334068,0.001962777001302751,-0.016575683445824413,0.01959013114959005,0.978271037900177
2011-10-13,1,0.0004018167718580415,0.0005323113133947048,-0.017871225499748074,0.01959013114959005,0.9776381928273671
2011-10-17,0,-2.7038240437214254e-05,4.234926426555845e-05,-0.01628783041430363,0.018400803735925616,0.9794373566485003
2011-10-19,1,0.0016188884709279212,0.001970004855257921,-0.01628783041430363,0.014208938108362676,0.9798913258438203
2011-10-21,1,0.002588117553300029,0.0030188608664594527,-0.01628783041430363,0.0038309357817268627,0.9809752462594156
2011-10-25,1,0.0027588159317497923,0.003137103431449792,-0.015053608335786513,0.0029121270879785824,0.9839731836212704
2011-10-27,1,0.0026657929797052624,0.0029741177117810864,-0.01628783041430363,0.002486787169896792,0.9847353206262657
2011-10-31,1,0.0008561176661833864,0.0009168424793901069,-0.012937085955878877,0.008757505398837339,0.985123558731397
2011-11-02,1,0.0012454660108872835,0.0013502151718680993,-0.011418515552992545,0.00960859248183375,0.9858253043139288
2011-11-04,1,0.001741205008976154,0.0020048841958952065,-0.010282842632479888,0.00985818366142778,0.9848702592015447
2011-11-08,1,0.002230275276902405,0.0026550548304699294,-0.00947783661552446,0.00985818366142778,0.9853426160673466
2011-11-10,1,0.001791619204818292,0.0022562511055714734,-0.00947783661552446,0.010756092307485846,0.9856684449199249
2011-11-14,1,0.0013762490167150987,0.0017092939082264862,-0.00947783661552446,0.010756092307485846,0.9850609873433249
2011-11-16,1,0.0012400663914762296,0.001586268600167275,-0.011418515552992545,0.00985818366142778,0.9846912138931893
2011-11-18,1,0.002006952858747299,0.0024370150775083112,-0.00860281021882107,0.010032756297246507,0.9851378283228384
2011-11-22,1,0.0019218764123191082,0.0024075523279438685,-0.009952394698371132,0.011388043964398924,0.982057638664112
2011-11-25,1,0.0010192889024664374,0.0014369451478251666,-0.0056639280395253625,0.015487833965593183,0.9820420947450773
2011-11-29,1,0.0034913618321831476,0.004254592150304451,-0.005785110262339751,0.01470058903099802,0.9844291093061552
2011-12-01,1,0.00352171115692299,0.004222784909528711,-0.008192763303705095,0.015487833965593183,0.9834183135916631
2011-12-05,1,0.005844482436694688,0.006832997134941593,-0.008192763303705095,0.011485014325319103,0.9857884817352699
2011-12-07,1,0.005405761526979288,0.006296618393463322,-0.01279143398890775,0.011485014325319103,0.9850541785429878
2011-12-09,1,0.005422693350306365,0.00637492509315065,-0.008694620508400586,0.011485014325319103,0.9851726068703979
2011-12-13,1,0.004116978621159888,0.004839894827349331,-0.007413702608424718,0.015523570585986714,0.9855826437268309
2011-12-15,1,0.004455755143908429,0.005359092680655658,-0.006636950918738482,0.018158987977715965,0.9857180090405068
2011-12-19,1,0.0038172618696791427,0.004475127737625768,-0.0055819549440771716,0.01896392823417272,0.9855435439007009
2011-12-21,1,0.003456937151306049,0.003978554384692007,-0.0055819549440771716,0.017388095421490102,0.9880441585189634
2011-12-23,1,0.004245477961262926,0.0048923522808330296,-0.00651402664174856,0.010326378968535844,0.9884371568456747
2011-12-28,1,0.00275084402660358,0.0031310086454875655,-0.0086121510346036,0.010326378968535844,0.9873226741781672
2011-12-30,1,0.0025181147415765633,0.002764081462688862,-0.0086121510346036,0.007150136148567901,0.9872416394560238
2012-01-04,0,0.0,0.0,-0.0086121510346036,0.007150136148567901,0.9874375807185345
2012-01-06,0,0.0,0.0,-0.0086121510346036,0.010326378968535844,0.9862968447594841
2012-01-10,0,0.0,0.0,-0.011649636254955086,0.007150136148567901,0.9872882041601387
2012-01-12,0,0.0,0.0,-0.014980068183023904,0.007150136148567901,0.9873031497601826
2012-01-17,1,0.003207435827018348,0.0035005303050125295,-0.014980068183023904,0.0042733995929985676,0.987336425722187
2012-01-19,1,0.0031044949376978744,0.0033223429636245003,-0.016813680511842084,0.002569274980342273,0.9862859834023776
2012-01-23,1,0.003572549436192671,0.003959335802920596,-0.014980068183023904,0.002569274980342273,0.986343970687558
2012-01-25,1,0.0033522387178606494,0.0037157496951234197,-0.014980068183023904,0.006204810638802552,0.986371246365844
2012-01-27,1,0.0006891246697370277,0.0008025499229699202,-0.010894983343958654,0.015077306789207327,0.9877091476905301
2012-01-31,1,0.0007328309794139573,0.0007732287987358907,-0.010488255847831519,0.015077306789207327,0.9880073830340124
2012-02-02,0,-5.220036266453596e-05,0.00014556320522492866,-0.010488255847831519,0.016271181972741394,0.9857753770160672
2012-02-06,1,0.0009616449459003356,0.000999672902692745,-0.008139624536205805,0.015077306789207327,0.9878040709990543
2012-02-08,1,0.0010691714147625772,0.0011354432316448507,-0.006100692443634295,0.0166657595404015,0.9864272807917313
2012-02-10,1,0.001067146078549695,0.0011030596608909685,-0.006100692443634295,0.01655994385710351,0.9874585725675677
2012-02-14,-1,-0.00035912867245449585,-0.00014467935062098232,-0.004655385194465246,0.017748349128997157,0.9867197056297784
2012-02-16,-1,-0.0019005025130675107,-0.0013483613207372353,-0.004655385194465246,0.01655994385710351,0.9877534057685291
2012-02-21,-1,-0.0006012335064305063,-0.00029939007760706115,-0.0020783281919992025,0.015077306789207327,0.9886904030172305
2012-02-23,-1,-0.0018721419859515055,-0.0013324942379587144,-0.00282278883171183,0.014567293689984145,0.9890513396802303
2012-02-27,-1,-0.001959387609001561,-0.0013714725420015412,-0.00282278883171183,0.01510763140428823,0.9886723360747056
2012-02-29,-1,-0.0015715001726963327,-0.0010977968879114762,-0.004543349792127447,0.01510763140428823,0.9890204397869499
2012-03-02,1,0.000560218715316208,0.0006853079267126962,-0.004543349792127447,0.011036823285854383,0.9907212060001807
2012-03-06,1,0.0018005260408911932,0.001971813511175974,-0.004533237729022129,0.011036823285854383,0.9906684452087616
2012-03-08,1,0.0025896746082571575,0.0028196032060797682,-0.005600488499499267,0.00690686859826414,0.9899259612389384
2012-03-12,1,0.002024216513698021,0.0021556253760042165,-0.007324857030028038,0.00690686859826414,0.9875082169468119
2012-03-14,1,0.002807997224177825,0.0030522971856538966,-0.007324857030028038,0.00690686859826414,0.9879341753279998
2012-03-16,1,0.003313237895252831,0.00371014701918843,-0.008608901941493642,0.008835710333436981,0.9872932265291583
2012-03-20,1,0.0037005725135220357,0.004146696112877244,-0.014033688267514848,0.008835710333436981,0.9859973196542854
2012-03-22,1,0.0035528640889881096,0.003995289170242688,-0.0152193300787824,0.008835710333436981,0.9857950561677475
2012-03-26,1,0.003452645008752561,0.003802206674833589,-0.0152193300787824,0.007611762644344038,0.9858408532452853
2012-03-28,1,0.0030205501715871476,0.003350943396682159,-0.013937217221425335,0.008835710333436981,0.9869692948930705
2012-03-30,1,0.003141557391496243,0.0034712273386272438,-0.013937217221425335,0.007611762644344038,0.9865880778955463
2012-04-03,1,0.002667336649900171,0.002901245790372797,-0.013937217221425335,0.008835710333436981,0.9861885699766622
2012-04-05,1,0.0010015224419017608,0.0010656799455037854,-0.0152193300787824,0.008073314967803762,0.9861959238914217
2012-04-10,-1,-0.001263367466392899,-0.0009087073307225201,-0.013847830386288893,0.008073314967803762,0.9889642228571442
2012-04-12,-1,-0.0006412198128099854,-0.000367201198224034,-0.013847830386288893,0.008073314967803762,0.9881588053667576
2012-04-16,-1,-0.0013500397805657838,-0.0009557465091918,-0.015015753437221316,0.004754833579413188,0.9873983040526348
2012-04-18,-1,-0.0017237720731834382,-0.0012733018129750698,-0.013812128521131704,0.0044077018400628925,0.9884932399724679
2012-04-20,-1,-0.0022321610784110995,-0.001704873828068228,-0.013812128521131704,0.0019318305944773435,0.988654596125131
2012-04-24,-1,-0.002058988725596539,-0.0016294497599898907,-0.013812128521131704,0.0044077018400628925,0.9882671240962239
2012-04-26,-1,-0.0012958687263193978,-0.0010049078546814322,-0.013812128521131704,0.005911688644775932,0.9878926890355907
2012-04-30,-1,-0.0006704049787691114,-0.0005325045247935667,-0.012064338700731696,0.007482654673907503,0.9876809395804941
2012-05-02,1,0.0001618277509619591,0.0002046578095585353,-0.016082230156791347,0.005911688644775932,0.9865305908801201
2012-05-04,-1,-0.0018244585108223535,-0.0015362442641953357,-0.012064338700731696,0.005911688644775932,0.9876331312433676
2012-05-08,0,0.0,0.0,-0.012064338700731696,0.009853891240507659,0.9859540304146566
2012-05-10,0,0.0,0.0,-0.016505580610024887,0.009450352733628311,0.9859868517978839
2012-05-14,0,0.0,0.0,-0.01101970259791346,0.009450352733628311,0.9869506943582316
2012-05-16,-1,-0.0028662168660738025,-0.0024287362146863624,-0.021084352372076336,0.010812691479796624,0.9850923484440007
2012-05-18,0,0.0,0.0,-0.006625341710363814,0.012126479433668246,0.986257630227882
2012-05-22,0,0.0,0.0,-0.021084352372076336,0.012126479433668246,0.9844710188658728
2012-05-24,0,0.0,0.0,-0.02125296961543573,0.010812691479796624,0.9816222579352732
2012-05-29,0,0.0,0.0,-0.02125296961543573,0.009450352733628311,0.9813355681197496
2012-05-31,0,0.0,0.0,-0.021084352372076336,0.009450352733628311,0.9831046619857565
2012-06-04,0,0.0,0.0,-0.016638577198765433,0.010915863913030203,0.9830228623753896
2012-06-06,0,0.0,0.0,-0.016638577198765433,0.010915863913030203,0.9836459489470442
2012-06-08,-1,-0.002111262906494712,-0.0018751194673543305,-0.010788225029252953,0.00971818133491468,0.9846677348018539
2012-06-12,-1,-0.002298101476330163,-0.0020831165086053526,-0.010489453895022134,0.00971818133491468,0.9849281741086245
2012-06-14,0,0.0,0.0,-0.00770222884312783,0.00959109316227274,0.9855849433929329
2012-06-18,0,0.0,0.0,-0.00937530586444137,0.007961240241096077,0.98544212883265
2012-06-20,-1,-0.002604427832000652,-0.002325232832296324,-0.00770222884312783,0.00959109316227274,0.9863182890665082
2012-06-22,0,0.0,0.0,-0.00770222884312783,0.010498574291953017,0.9888919264276789
2012-06-26,0,0.0,0.0,-0.008103102894705597,0.010498574291953017,0.9890924323589568
2012-06-28,0,0.0,0.0,-0.008103102894705597,0.013313383935577886,0.9873475936152073
2012-07-02,-1,-0.0032343421009107037,-0.002824721439560283,-0.008103102894705597,0.010832397552163142,0.9887627996549556
2012-07-05,0,0.0,0.0,-0.009277404424441135,0.010133492128406987,0.9884605148710687
2012-07-09,0,0.0,0.0,-0.008103102894705597,0.013707637794005682,0.9865843538394661
2012-07-11,0,0.0,0.0,-0.005947781660333421,0.017947558522738136,0.9866348419748141
2012-07-13,0,0.0,0.0,-0.0057023198567,0.017947558522738136,0.9872074004862009
2012-07-17,0,0.0,0.0,-0.00501163605810649,0.017947558522738136,0.9877420736422303
2012-07-19,0,0.0,0.0,-0.00501163605810649,0.016026763649290645,0.9880423217411083
2012-07-23,-1,-0.0015776588896365107,-0.0013886041912936457,-0.00501163605810649,0.016026763649290645,0.9884673372648932
2012-07-25,-1,-0.001461967360292344,-0.001373044335418967,-0.0024204750170274186,0.016026763649290645,0.9886492269191228
2012-07-27,1,0.00018616727838427136,0.0002997032293529217,-0.004614542311815226,0.010523913991741496,0.9901482229852813
2012-07-31,0,0.0,0.0,-0.00453730456677648,0.010523913991741496,0.9901407838302673
2012-08-02,0,0.0,0.0,-0.00146657267589367,0.016026763649290645,0.9905771004803476
2012-08-06,0,0.0,0.0,-0.00146657267589367,0.009075049087160253,0.9926963357119981
2012-08-08,0,0.0,0.0,-0.00146657267589367,0.011353098248686572,0.9902837709850364
2012-08-10,0,0.0,0.0,-0.0024204750170274186,0.011353098248686572,0.9897464384529865
2012-08-14,0,0.0,0.0,-0.0007949695573919464,0.015810787049857566,0.9892452516043818
2012-08-16,0,0.0,0.0,-0.00216319271269114,0.011464192336113836,0.9884667138781285
2012-08-20,0,0.0,0.0,-0.00644871728897583,0.011464192336113836,0.9877931260858939
2012-08-22,1,0.0027245485533052213,0.0033324581246189223,-0.011948722298199875,0.01676739065568309,0.9840520282469353
2012-08-24,1,0.003482653848990912,0.0041968384659642885,-0.01347657376446226,0.01676739065568309,0.9829063709040678
2012-08-28,1,0.002856805914149626,0.003434601548920745,-0.016222474839919,0.01676739065568309,0.9823361429076781
2012-08-30,1,0.002647833940847659,0.0031124999815339994,-0.016222474839919,0.011464192336113836,0.9830170618284548
2012-09-04,1,0.0032050857038830893,0.003773852471681388,-0.016222474839919,0.010897388585525898,0.9829203472943928
2012-09-06,0,0.0,0.0,-0.016222474839919,0.005467358093535008,0.9854349556520315
2012-09-10,0,0.0,0.0,-0.013826134388613073,0.01287484266838748,0.9812402604048087
2012-09-12,0,0.0,0.0,-0.013826134388613073,0.009807646370941938,0.9812434558650369
2012-09-14,0,0.0,0.0,-0.012583690205831468,0.009807646370941938,0.9814437501474408
2012-09-18,0,0.0,0.0,-0.009459004567623388,0.012218260453405386,0.9819421377354434
2012-09-20,0,0.0,0.0,-0.007863506129332724,0.010624688888540183,0.9851982412318722
2012-09-24,1,0.0022784438174199544,0.0026478938446658396,-0.004570576168488371,0.010624688888540183,0.9864466364183552
2012-09-26,1,0.0009679556805412355,0.0010701746676894308,-0.004570576168488371,0.010624688888540183,0.9866714819843684
2012-09-28,1,0.0012418688929399793,0.0013663395673922931,-0.004570576168488371,0.012218260453405386,0.9857443084587494
2012-10-02,1,0.0018128984997120086,0.0020270377688762385,-0.004570576168488371,0.014816983767449067,0.9844992612721514
2012-10-04,1,0.0015106617306235594,0.0015751835715304442,-0.004570576168488371,0.012218260453405386,0.9851558880549337
2012-10-08,1,0.0045064936601925225,0.004979842562852246,-0.005459985127315785,0.007560927642407237,0.9886225678181526
2012-10-10,1,0.002801958037565993,0.003008367684510886,-0.004570576168488371,0.007560927642407237,0.9893484143711871
2012-10-12,1,0.004208773596941133,0.004620611738272805,-0.004978772842739297,0.006011217506161367,0.9905846056110231
2012-10-16,1,0.004150534359630231,0.0046066462692675,-0.005818959444597159,0.005469476368500076,0.9897563777931637
2012-10-18,1,0.00430727564159629,0.0047940540601996585,-0.005818959444597159,0.005469476368500076,0.9890581505138348
2012-10-22,1,0.0038029563730276102,0.004115323691922291,-0.005818959444597159,0.006689688486529084,0.9894128730814713
2012-10-24,1,0.0029200019572912426,0.0030734334767435045,-0.005818959444597159,0.009737591455693017,0.9893819884928815
2012-10-26,1,0.004063845376709988,0.004465297738815607,-0.005818959444597159,0.010969972085152359,0.9894461808464091
2012-11-01,1,0.005214840418804708,0.005709498748384638,-0.005818959444597159,0.01022581827675538,0.990431124558933
2012-11-05,1,0.0039673970430870575,0.004221428231168757,-0.005818959444597159,0.01022581827675538,0.9906260323901805
2012-11-07,1,0.003350152450861529,0.003546843749394465,-0.005818959444597159,0.010969972085152359,0.9904437316734384
2012-11-09,1,0.0036347424387862754,0.003867191899730475,-0.004927285992785054,0.010969972085152359,0.9905158892078767
2012-11-13,1,0.003543461999234104,0.003684774518157562,-0.007505488289958643,0.010969972085152359,0.9896546860279591
2012-11-15,1,0.001889092186627402,0.002011896495730975,-0.004201226097126211,0.010969972085152359,0.9907565298186799
2012-11-19,1,0.0022831082399184938,0.0023771803843789198,-0.007207982378025224,0.01022581827675538,0.9912949919734
2012-11-21,1,0.0024492513851634297,0.0025748027596488076,-0.007505488289958643,0.010392901839724801,0.9869756658058974
2012-11-26,1,0.0024638429401658726,0.0025425609180210326,-0.007503100089882785,0.009611432334785702,0.9872096757064294
2012-11-28,1,0.003965972075540786,0.00409306849800449,-0.007503100089882785,0.002567766854167427,0.9871188013537415
2012-11-30,1,0.003166693519495201,0.003179776427062772,-0.007748666559314651,0.002153929061529687,0.9860426324687181
2012-12-04,1,0.0028618315549077435,0.0029423761737018225,-0.007748666559314651,0.006528214564305011,0.9867521994209771
2012-12-06,1,0.003032208800984421,0.0030712515269082415,-0.007748666559314651,0.005054265268535937,0.9868319376771947
2012-12-10,1,0.002916627846954327,0.002978100736899619,-0.007748666559314651,0.005054265268535937,0.9870307337762463
2012-12-12,1,0.00245078774828141,0.0025072055492389336,-0.006354099610848528,0.005054265268535937,0.9882739255677497
2012-12-14,1,0.0022360450007547195,0.0023048570579914164,-0.006354099610848528,0.006528214564305011,0.9882415290518426
2012-12-18,1,0.0015521154082706482,0.0017516979026656184,-0.005079427620942002,0.0067188626529838345,0.9884081113352439
2012-12-20,1,0.0039742248646628545,0.0041378452131280484,-0.00458874210147578,0.0053745592718375925,0.9924113402244324
2012-12-24,1,0.002885690371905166,0.002887467170166629,-0.002306811526812418,0.0053745592718375925,0.9933018620680462
2012-12-27,1,0.0018272555835723821,0.0020110655861244175,-0.0009271442320595092,0.0067188626529838345,0.9928247171233258
2012-12-31,1,0.003102963806371012,0.0031484174605405273,-0.0009271442320595092,0.0053745592718375925,0.9935088152409984
2013-01-03,1,0.003072814867130935,0.003141184045678921,-0.002306811526812418,0.005769243895417227,0.9931607157194835
2013-01-07,1,0.002319225769666175,0.002345857712400294,-0.0011254154517276406,0.007902916523722735,0.9926017306954916
2013-01-09,1,0.0024830391199184053,0.002496992971086935,-0.0032543402544165747,0.007569398351919381,0.9916897088004734
2013-01-11,1,0.0027992537099858095,0.002875522957465016,-0.0031820011723049466,0.00844496339119024,0.9915161749911077
2013-01-15,1,0.0029968133903396717,0.003087429325443596,-0.004095468213880977,0.007569398351919381,0.991553687205311
2013-01-17,1,0.003283171083873113,0.003416755843590558,-0.004622535548574109,0.007569398351919381,0.9914935181712924
2013-01-22,1,0.0032576367320713367,0.0033922067510575795,-0.0064303791593792,0.008063631772977562,0.9901299739628153
2013-01-24,1,0.003148331072353316,0.0032526469087465156,-0.009663841295131195,0.008503150969261051,0.9886445454180633
2013-01-28,1,0.0038424193702699004,0.004077025967204355,-0.01215679129037978,0.008063631772977562,0.9885820395054425
2013-01-30,0,0.0,0.0,-0.009663841295131195,0.008063631772977562,0.9896274515202933
2013-02-01,0,0.0,0.0,-0.009663841295131195,0.008503150969261051,0.9888497504734888
2013-02-05,0,0.0,0.0,-0.0064303791593792,0.009782575013491173,0.9891174119545741
2013-02-07,0,0.0,0.0,-0.004886492996507173,0.010368907774007804,0.9894664146662968
2013-02-11,1,0.002229919242271621,0.0023955153389098806,-0.004886492996507173,0.010368907774007804,0.9899986950240753
2013-02-13,0,0.0,0.0,-0.0038854276134894254,0.010368907774007804,0.9898987372352287
2013-02-15,1,0.0011956030105231634,0.0012280519196603123,-0.002706700726618224,0.010368907774007804,0.990652783047361
2013-02-20,1,0.00010765336845029261,0.00034865669506303754,-0.002706700726618224,0.00783167141110553,0.9914725538101967
2013-02-22,-1,-0.0010173024985287054,-0.0006079434386919939,-0.002706700726618224,0.006558502077571576,0.99182115646468
2013-02-26,-1,-0.001954411259994975,-0.0014186023734577766,-0.0013435274248108132,0.00783167141110553,0.99170599146124
2013-02-28,-1,-0.0018993033273056212,-0.0013899197108172361,-0.0009722927958057277,0.010697134603926942,0.9910710976162694
2013-03-04,-1,-0.0008013049015526614,-0.00042419632484854233,-0.0013435274248108132,0.00819318524841408,0.9919747251565942
2013-03-06,1,0.0013543418504975188,0.0013773196696311,-0.002706700726618224,0.007023985060760941,0.9923011481265476
2013-03-08,1,0.0012720767154560423,0.0013376316840801258,-0.002706700726618224,0.007023985060760941,0.9917201640252677
2013-03-12,1,0.0015498081141848818,0.0015783369432908433,-0.0049177692650183335,0.008164396136793668,0.9893760512705195
2013-03-14,1,0.001727561860255732,0.0018340801365499156,-0.012480536397640041,0.01084229747110718,0.9861453351567581
2013-03-18,1,0.00187511626856633,0.00198440677130937,-0.01351334172300584,0.01084229747110718,0.9839893934586366
2013-03-20,1,0.001115012451805208,0.0011168239915536093,-0.017148120519831243,0.01084229747110718,0.9829589303857571
2013-03-22,0,-0.00010200512439280439,8.081491513319472e-05,-0.013481836720718121,0.01426218275990401,0.9816130016824284
2013-03-26,1,0.0010021283663038969,0.0010102755070254938,-0.013481836720718121,0.015140865056265497,0.9812875553837603
2013-03-28,1,0.0023433562175638706,0.0025859085323235533,-0.013481836720718121,0.015140865056265497,0.9818508147249291
2013-04-02,0,0.0,0.0,-0.010630646230485442,0.017369926188143113,0.9809168287192065
2013-04-04,0,0.0,0.0,-0.010630646230485442,0.018371852241828884,0.9805883652638876
2013-04-08,0,0.0,0.0,-0.010630646230485442,0.016697171812624114,0.9818069496294647
2013-04-10,0,0.0,0.0,-0.005167116938738161,0.015140865056265497,0.9836193079423092
2013-04-12,0,0.0,0.0,-0.0030696429567926265,0.012926593608085664,0.9868821041892114
2013-04-16,1,0.0050612803264908504,0.005078692824970339,-0.0003713341627772829,0.015140865056265497,0.9895408705890872
2013-04-18,0,0.0,0.0,0.00043065414886725185,0.015140865056265497,0.9886963399845057
2013-04-22,0,0.0,0.0,-0.0003713341627772829,0.013334037409795671,0.9894981882077679
2013-04-24,0,0.0,0.0,-0.0030696429567926265,0.011678488438437462,0.9894099168479403
2013-04-26,0,0.0,0.0,-0.007370416903154079,0.009979051191080855,0.9894311732356622
2013-04-30,1,0.0031622163972348676,0.003400526539170969,-0.007370416903154079,0.007760086500629934,0.9903068740696122
2013-05-02,0,0.0,0.0,-0.0061206149109320745,0.006145336308980143,0.9916006599584553
2013-05-06,0,0.0,0.0,-0.007370416903154079,0.006145336308980143,0.990934718252086
2013-05-08,0,0.0,0.0,-0.009050124095888023,0.005677148684958866,0.9901171739928525
2013-05-10,0,0.0,0.0,-0.009050124095888023,0.007760086500629934,0.989453658364082
2013-05-14,0,0.0,0.0,-0.013208732081156293,0.005677148684958866,0.9893217256026383
2013-05-16,0,0.0,0.0,-0.012455497244901803,0.00615621841123715,0.9885980305824099
2013-05-20,1,0.003132665983899343,0.0033729131519105292,-0.010890003981727658,0.010497810579821614,0.9882599195961865
2013-05-22,1,0.002487888442417443,0.002620320902090361,-0.012455497244901803,0.0074567333115939756,0.9856832339738946
2013-05-24,0,0.0,0.0,-0.012958513085895936,0.0074567333115939756,0.9861716383558168
2013-05-29,0,0.0,0.0,-0.012958513085895936,0.014624118307291606,0.9846071058664085
2013-05-31,0,0.0,0.0,-0.012958513085895936,0.015886539164101057,0.9835860167377317
2013-06-04,0,0.0,0.0,-0.012455497244901803,0.015886539164101057,0.9837729799849089
2013-06-06,1,0.0004461622551063812,0.0005866339015400031,-0.011758163995095623,0.014624118307291606,0.9847314954789033
2013-06-10,1,0.0015071846467442924,0.0015695526690925497,-0.011758163995095623,0.015435351974395224,0.9842885718718521
2013-06-12,1,0.000450037922652272,0.0006231343032239249,-0.0056215452808732625,0.015435351974395224,0.9852617246362986
2013-06-14,1,0.0010319736331776302,0.0011346273665348533,-0.0064384572478814826,0.013027955352573561,0.9862449190446047
2013-06-18,1,0.0024000416437228297,0.002464737491474367,-0.0064384572478814826,0.011364075457286855,0.9875225190189896
2013-06-20,1,0.002996334956476088,0.0032001163992895045,-0.0032545115264210056,0.011364075457286855,0.9912495632278411
2013-06-24,1,0.0007680824174932909,0.0008856172019343537,-0.0032545115264210056,0.011485491897940488,0.9910532383474714
2013-06-26,1,0.0022033306897982184,0.002255638057201392,-0.005975319236026955,0.011364075457286855,0.9914900554669597
2013-06-28,1,0.0024385653871732034,0.002544264468366359,-0.004137000519955569,0.011364075457286855,0.9917212796646212
2013-07-02,1,0.0023423777576218395,0.0024015234506517213,-0.0037505145320168706,0.011690264152479582,0.991272757878615
2013-07-05,1,0.0028679717552269187,0.0030001000666020784,-0.0038192804691179975,0.012350638839784659,0.9910009046988989
2013-07-09,1,0.0034551064190345457,0.003642486832108504,-0.003978344929957926,0.006495819610748188,0.9912522058317662
2013-07-11,1,0.0029412865286220675,0.0030471183071433773,-0.005975319236026955,0.011769764984329542,0.9901334527061532
2013-07-15,1,0.002136078899951748,0.002137040481066145,-0.003286511587845042,0.011769764984329542,0.9911721408650073
2013-07-17,1,0.0016603877113568004,0.0017457995023251044,-0.003286511587845042,0.011769764984329542,0.9911993404352771
2013-07-19,1,0.0008641462922295565,0.0010879723258665499,-0.007495667728301939,0.011769764984329542,0.989336315687254
2013-07-23,1,0.0007581674015242338,0.0009989909475054128,-0.0068068721422250905,0.01295938563969119,0.9888319600247233
2013-07-25,1,1.1974267772887296e-06,0.00028365723427539627,-0.004099056100549434,0.014156844127219898,0.9891411724204265
2013-07-29,1,0.001587808237983086,0.001639101076981417,-0.004099056100549434,0.01295938563969119,0.989890983215281
2013-07-31,1,0.002750101962483378,0.0028757230639808,-0.006755694825291304,0.006795663981288839,0.9890846261577326
2013-08-02,1,0.002729711371638377,0.0028331994815099766,-0.009073829088235832,0.006517723169534407,0.9890920248582702
2013-08-06,1,0.002301119796818943,0.002353001398671047,-0.009073829088235832,0.008438289172148776,0.9884333489971822
2013-08-08,1,0.002167407764802792,0.002193103316929233,-0.006755694825291304,0.0108582355194755,0.9883316015717838
2013-08-12,1,0.0018333730633715213,0.001884288090141334,-0.006755694825291304,0.013828219921609654,0.9877199454571891
2013-08-14,1,0.0012060078622338952,0.001373180448557655,-0.009073829088235832,0.013828219921609654,0.9870226148914073
2013-08-16,0,-0.00026279862376926905,6.266599148814533e-05,-0.005705651159649412,0.013828219921609654,0.9888905543641671
2013-08-20,1,0.0006703251005899936,0.0008572403162408347,-0.003742205623191186,0.010661968543146659,0.9902045320757058
2013-08-22,1,0.0004921003685846165,0.000719361186549904,-0.0016611721290630949,0.008438289172148776,0.9911552610202353
2013-08-26,1,0.0001997072469439767,0.0004735843230919705,-0.003742205623191186,0.010661968543146659,0.9885853791019548
2013-08-28,-1,-0.0007436076938683109,-0.00045846909969604035,-0.00573490027225632,0.010661968543146659,0.9881821864171249
2013-08-30,-1,-0.00048270465509598953,-0.0002651676154057853,-0.00573490027225632,0.010661968543146659,0.9880328085559711
2013-09-04,1,0.0006894081823647269,0.0007535913098596582,-0.00573490027225632,0.003908843701223373,0.9890918709819391
2013-09-06,1,0.0013416127809286228,0.0014310055870011978,-0.007759825262596297,0.002785961953450851,0.9899552919592814
2013-09-10,1,0.0008134525350126853,0.0010415790048831173,-0.013082988749023434,0.0014704939060646122,0.9888244415792626
2013-09-12,1,0.0011246258338816202,0.0012080702809130375,-0.008478064969845036,0.0024957934158133886,0.9884263179736842
2013-09-16,1,0.0013079726085052012,0.0013282093410955501,-0.008478064969845036,0.00591731785751339,0.9876400702995307
2013-09-18,1,0.0013893434927923945,0.0013912592361305688,-0.015573611424545166,0.0076098692213173984,0.9859471439684776
2013-09-20,1,0.001790482692474096,0.0018795252797184215,-0.015573611424545166,0.010356554916415578,0.9853922378958194
2013-09-24,1,0.0019495051477560923,0.0020575505713096333,-0.00934789789617799,0.0076098692213173984,0.9876754204214272
2013-09-26,1,0.0009838950712445901,0.0009873443513894386,-0.00934789789617799,0.0076098692213173984,0.989022077340007
2013-09-30,1,0.0005972631819220336,0.0006150503236846544,-0.00545795895982037,0.0076098692213173984,0.9898129768229108
2013-10-02,1,0.00034979050290280804,0.00040333562312919207,-0.0064260828333582015,0.006923811939232017,0.9898210727975693
2013-10-04,1,0.0003254807426231808,0.00035155794841804674,-0.005138443936057292,0.010356554916415578,0.9898237364226868
2013-10-08,-1,-0.000651905944504036,-0.0005005197648376653,-0.004540783799821434,0.011920201818060739,0.9909477595831627
2013-10-10,-1,-0.00013780815666020836,-4.28019310777638e-05,-0.005138443936057292,0.010356554916415578,0.990751797691251
2013-10-14,-1,-0.0002502794830794663,-9.67608825160446e-05,-0.005138443936057292,0.007265771838328248,0.9906581151536156
2013-10-16,0,-4.944334889621062e-05,8.805854469139357e-05,-0.004540783799821434,0.007265771838328248,0.991468929777161
2013-10-18,-1,-0.0002338545201695599,-3.0697702942239133e-05,-0.004540783799821434,0.006286205822397856,0.9916726037409972
2013-10-22,-1,-0.0001768817301701891,-1.5149772655800127e-05,-0.004986530351566226,0.006286205822397856,0.9909415096700949
2013-10-24,-1,-0.0015784101221358975,-0.0011971368986712534,-0.004540783799821434,0.008939674781215278,0.9912438045815797
2013-10-28,-1,-0.001794645671199207,-0.0013930513956772225,-0.004184176911260969,0.00958139859713892,0.9904485748298315
2013-10-30,-1,-0.0020395420406584754,-0.0016128113274259614,-0.003136206433956361,0.00958139859713892,0.9901034222623071
2013-11-01,-1,-0.0021216997697377964,-0.0016395152208851722,-0.0021907350485938573,0.00958139859713892,0.9899511437181038
2013-11-05,-1,-0.0012137678530312064,-0.0008712242397238094,-0.004446622010745818,0.008117405852859937,0.9906149118800254
2013-11-07,-1,-0.001734467293860688,-0.0013900011213818799,-0.003136206433956361,0.008117405852859937,0.9912661954659887
2013-11-11,-1,-4.177225917209888e-05,-3.574199000968569e-05,-0.003136206433956361,0.008117405852859937,0.9919854298599626
2013-11-13,-1,-0.0013744884092371634,-0.0010700333004440964,-0.004446622010745818,0.007918019519696624,0.9920375380274167
2013-11-15,-1,-0.0003217468212377669,-0.00020433469504611162,-0.004446622010745818,0.008117405852859937,0.9915573949371776
2013-11-19,-1,-0.0009272145516471019,-0.0007302146145723806,-0.0028842853583188528,0.00958139859713892,0.9917479102610289
2013-11-21,-1,-0.0003942942970980263,-0.00030078726347306623,-0.0028842853583188528,0.008762694334453189,0.9875640661906012
2013-11-25,1,0.000404714775049283,0.0004382232148014595,-0.0041374586490018,0.008428377033498127,0.9876266053563141
2013-11-27,1,0.0009132084467098193,0.0010541255834421357,-0.007295619376123316,0.008428377033498127,0.9872087024556958
2013-12-02,1,0.0012253637488102798,0.0013960735639797848,-0.007295619376123316,0.004685294469210453,0.9881528260107307
2013-12-04,1,0.00046525058809884404,0.000508461837701923,-0.004939333798729891,0.004685294469210453,0.9883452213764499
2013-12-06,1,0.000706734034755958,0.0007910749325576347,-0.01053875237164208,0.003435102953239271,0.987518364044251
2013-12-10,1,0.001494669299800182,0.0016652896094837377,-0.01053875237164208,-0.00031448763026532714,0.98758059040664
2013-12-12,1,0.0006584132837778491,0.0007289608046287025,-0.01053875237164208,0.003435102953239271,0.9872477277836836
2013-12-16,1,0.0005064600371924184,0.0005069049314063178,-0.011859522036116048,0.003435102953239271,0.986916510153316
2013-12-18,1,0.0014533899249987215,0.001629263291532586,-0.011859522036116048,0.003435102953239271,0.9865937837586907
2013-12-20,1,0.00010181523268531474,0.00011744068034964084,-0.01053875237164208,-0.00043068426421873063,0.9918691582502871
2013-12-24,1,8.362103241916421e-05,0.00011974577394812548,-0.009921071618973458,-0.001913372108192928,0.9922949147105349
2013-12-27,-1,-0.0005796540358355852,-0.0005282869081082822,-0.005802511603212109,0.0032488110019275535,0.9928594562610898
2013-12-31,-1,-0.0004255632691594224,-0.0003889708033839008,-0.006122806538478652,0.0036894230882869037,0.9924637386978742
2014-01-03,-1,-0.0008545389152798742,-0.0007830464446570428,-0.004574059168605074,0.005827126395880839,0.9923177422600729
2014-01-07,-1,-0.0013904503947251108,-0.001256716032266939,-0.003785401638179383,0.007853341731507644,0.9928894874242085
2014-01-09,-1,-0.0022375017586092746,-0.0019480372307442678,-0.003785401638179383,0.010198690617461531,0.9913938750919841
2014-01-13,-1,-0.002018431960825399,-0.001775167888633966,-0.003785401638179383,0.008691415906161402,0.9925174836117687
2014-01-15,-1,-0.002176953989746369,-0.0019213569864307068,-0.003785401638179383,0.007491091742640316,0.9929831333774713
2014-01-17,-1,-0.001681573873882787,-0.0014815338204022933,-0.0035457251989861587,0.007173263610569789,0.9938275436087426
2014-01-22,-1,-0.00221567174924262,-0.0019242315480204222,-0.00199879846241303,0.007173263610569789,0.9934728877840805
2014-01-24,-1,-0.002497384899827795,-0.002168062478788501,-0.0013528601495905014,0.007491091742640316,0.9923334178796899
2014-01-28,-1,-0.0016260876538331751,-0.0014445253776919223,-0.0013528601495905014,0.007491091742640316,0.9927641269301962
2014-01-30,-1,-0.0005440249403853762,-0.0005193798152656152,-0.0013528601495905014,0.008125010297732459,0.9929787699999905
2014-02-03,0,-1.1738717923161582e-05,9.81087689697586e-05,-0.0023924203735975697,0.008125010297732459,0.9922715803954384
2014-02-05,1,0.0003521635128752927,0.00047008394916633634,-0.005330675483056565,0.007442274906379414,0.9923962043198501
2014-02-07,1,0.0007414670471769553,0.0009339607672080424,-0.005985596047626302,0.006129978319806279,0.9931765742729669
2014-02-11,1,0.0009329031465665819,0.0011482616641517603,-0.006232689919524122,0.005217620509596727,0.992490578961664
2014-02-13,1,0.0009457531902374327,0.0011554642204176812,-0.006232689919524122,0.003457730147110447,0.9927701801091766
2014-02-18,1,0.0011873707994836617,0.0014587422476394747,-0.006232689919524122,0.006381445616942488,0.9924210973923234
2014-02-20,1,0.0002870670851921833,0.0003241213156366131,-0.006429499491470038,0.006381445616942488,0.9918702858921918
2014-02-24,1,0.0005430974170602143,0.0005850829300405536,-0.006794658437942584,0.006381445616942488,0.9910592791384621
2014-02-26,1,0.0009935590302223218,0.0011129432361451177,-0.010793689489913076,0.005543502977168445,0.9889800861652139
2014-02-28,1,0.0007290709921556583,0.0007779385542209986,-0.010793689489913076,0.004864896744264657,0.9893710537354167
2014-03-04,1,0.0007513225154600166,0.0007676687074589211,-0.010793689489913076,0.005543502977168445,0.9891104754932298
2014-03-06,1,0.0007595336194936268,0.0007708051323054024,-0.010793689489913076,0.007372752806502572,0.9889404415059779
2014-03-10,1,0.0009239399121180437,0.000993833764754029,-0.018401198155081424,0.007372752806502572,0.9854138863344651
2014-03-12,1,0.00012546838903270278,0.0001523734858544733,-0.013413287102304565,0.009261385752731418,0.9851280581305837
2014-03-14,-1,-0.0001082862163439226,-6.0310859059212136e-05,-0.02023794186320321,0.009261385752731418,0.9833337770699475
2014-03-18,1,0.000294474160133798,0.00030673959628552984,-0.02023794186320321,0.010957240198660304,0.9835153621025304
2014-03-20,-1,-0.0004497352155563667,-0.00032422550460071785,-0.02023794186320321,0.013379160496118415,0.9828869797512018
2014-03-24,-1,-0.0005743195019141598,-0.00042610155867771034,-0.02023794186320321,0.010957240198660304,0.9838608061731832
2014-03-26,-1,-0.0025739624201129084,-0.0021771957805431525,-0.009062917009171549,0.010957240198660304,0.9852236280013195
2014-03-28,-1,-0.0018694483835963553,-0.001585858974850809,-0.013696716276640347,0.010957240198660304,0.9850013677099116
2014-04-01,1,3.568488783077703e-05,6.581737637481869e-05,-0.013696716276640347,0.010174279119974618,0.9862892022883238
2014-04-03,-1,-0.0005731915298638697,-0.0004244730535492221,-0.013696716276640347,0.010649323696024409,0.9857662842416139
2014-04-07,-1,-0.002721994913954566,-0.002380866606366394,-0.012577925723191899,0.010649323696024409,0.988174426252488
2014-04-09,-1,-0.0010324543063513518,-0.0009237575435089675,-0.012577925723191899,0.010446269720746738,0.9887966932440736
2014-04-11,-1,-0.0027366103614664453,-0.0024331151736086427,-0.005096419758488338,0.011028331122682858,0.9893259743085925
2014-04-15,-1,-0.0025906186945427647,-0.002264472121493436,-0.007602527519428835,0.011028331122682858,0.989580378194334
2014-04-17,-1,-0.0014693166988301305,-0.0012941305160400428,-0.012577925723191899,0.009157790586537796,0.9900172377152912
2014-04-22,-1,-0.002037198384233682,-0.0018220040175530084,-0.012577925723191899,0.009157790586537796,0.9900290050099732
2014-04-24,-1,-0.0015842823414148619,-0.0014399510802798467,-0.012577925723191899,0.010612734438933706,0.9898215648222877
2014-04-28,-1,-0.001310719019662282,-0.001246104841897458,-0.005094061830358553,0.010612734438933706,0.9899684382590188
2014-04-30,-1,-0.0011158444006832862,-0.0010425255474613173,-0.006448258422288804,0.009028170853061741,0.9905235302234155
2014-05-02,0,-9.52595148932689e-06,7.861644908167847e-05,-0.012766505143068997,0.008505907641864763,0.9913174870650697
2014-05-06,-1,-0.0004720788743513076,-0.00041305071431498605,-0.0030823773835764825,0.010608985218505663,0.9906179143295963
2014-05-08,1,7.921867707024296e-06,9.51801267955832e-05,-0.0030823773835764825,0.008505907641864763,0.9914384403645637
2014-05-12,1,0.001072983374635264,0.0013362931800399384,-0.003702614087606647,0.007071888303067459,0.9923753868335061
2014-05-14,1,0.0007773189405908427,0.0010370614601714445,-0.0054419359277701,0.007071888303067459,0.9908429293275224
2014-05-16,-1,-0.00016802111094098404,-0.00010168606093803056,-0.003702614087606647,0.00702850760761635,0.9911822514002414
2014-05-20,-1,-0.0008253719714294003,-0.0007919398461343251,-0.003449023576551923,0.007595989408201313,0.9909676167968515
2014-05-22,-1,-0.0005384653447268308,-0.0005151683464901816,-0.003449023576551923,0.007631370297430534,0.9865482950545637
2014-05-27,1,0.0006140302264206292,0.000735320111952402,-0.0054419359277701,0.007306065401234628,0.9848640532051737
2014-05-29,1,0.0002588675684679801,0.0003016021090691096,-0.004707976039870013,0.008252733907260312,0.9835779066201394
2014-06-02,-1,-0.0010273977706874281,-0.0008634111317460787,-0.003449023576551923,0.008252733907260312,0.9836990501412445
2014-06-04,1,0.00038785695733103585,0.0004004543583690658,-0.003449023576551923,0.007306065401234628,0.9852660048568787
2014-06-06,1,0.0007504138080592743,0.0007872644705898008,-0.004482051897391029,0.007306065401234628,0.9850293361506005
2014-06-10,1,0.0001695358342730217,0.0002219999729218249,-0.007312002906404511,0.007614973847430618,0.9838044629610522
2014-06-12,-1,-0.0013707618304990097,-0.0011546054213350007,-0.00524098015156071,0.007614973847430618,0.9847145801117848
2014-06-16,-1,-0.0011015483336888983,-0.0009044259329388587,-0.00524098015156071,0.007614973847430618,0.9850280994656426
2014-06-18,-1,-0.0007112671066695528,-0.0005414104691136324,-0.007312002906404511,0.0068258886492075,0.9843985602192715
2014-06-20,-1,-0.000479217887218922,-0.00035453418219708125,-0.008014745177184684,0.006171964161154578,0.9882242155488881
2014-06-24,-1,-0.002392340230103914,-0.002047683130253663,-0.007312002906404511,0.006171964161154578,0.9897877351201896
2014-06-26,-1,-0.0008711024887204925,-0.0007355989288308413,-0.008004011375376503,0.005382878709087652,0.9909551828736166
2014-06-30,-1,-0.0002535455363545664,-0.0002091029410585938,-0.009427009548644227,0.003456421085119295,0.9904597778473472
2014-07-02,1,0.0008259011402838171,0.0009819816172257736,-0.009594848446013418,0.003295251264468746,0.9889106757250875
2014-07-07,1,0.0007807934913122703,0.0009294768504471739,-0.009594848446013418,0.007066389807714374,0.9878481386080913
2014-07-09,1,0.0012482797962433834,0.0014501773056686072,-0.009917548931883234,0.0056413247828969405,0.9880120779799392
2014-07-11,1,0.0003696981867798585,0.0004513056109569439,-0.009917548931883234,0.008470122834220006,0.9875329903393423
2014-07-15,1,0.0005806036954099918,0.0006958014391148651,-0.010623585460539431,0.008470122834220006,0.9871762564937345
2014-07-17,0,-1.0098719553782224e-05,5.368886000776653e-05,-0.009917548931883234,0.01316187691177493,0.9876714218611112
2014-07-21,1,0.0005508397766328256,0.0007088482270605234,-0.009917548931883234,0.010924374526622142,0.9883230965889332
2014-07-23,1,9.655264287725959e-05,0.0002026523354020957,-0.009917548931883234,0.010924374526622142,0.9888410311641445
2014-07-25,1,0.00021304973663723416,0.0003804947276473831,-0.009693072594320049,0.010924374526622142,0.9891092976542603
2014-07-29,-1,-0.0006421694836079141,-0.0006067852571715339,-0.004329265557173837,0.010924374526622142,0.9892225412406839
2014-07-31,-1,-0.0009453749084754048,-0.0009407387509436644,-0.003437771215671446,0.007863141706869952,0.9907754809791127
2014-08-04,1,6.836664835703607e-06,7.662854943902848e-05,-0.004329265557173837,0.006296985045041204,0.9920738055039994
2014-08-06,-1,-0.0005517426578585548,-0.0005318127743099853,-0.003437771215671446,0.008907897166219085,0.9918221215000863
2014-08-08,1,0.00018481124577437427,0.00029615072776086385,-0.003437771215671446,0.007319484528145518,0.9927633561768973
2014-08-12,-1,-0.0004170616343150287,-0.00040732279837187957,-0.003437771215671446,0.007319484528145518,0.9924853100218791
2014-08-14,1,0.00020487122844775195,0.0003053338890802607,-0.0028392593585182674,0.0073137958103246135,0.9933044498922278
2014-08-18,-1,-0.0005750518529882267,-0.0004897286888345176,-0.0028392593585182674,0.00626987381178656,0.9933798353808103
2014-08-20,-1,-0.00011000576531467311,-9.705980709876134e-05,-0.0028392593585182674,0.0073137958103246135,0.9924727943092624
2014-08-22,1,0.0006448529965964938,0.0008101825532015216,-0.004294406781507623,0.0073137958103246135,0.9923045697507448
2014-08-26,1,0.0013749474044191712,0.0016437622440014954,-0.00933413849337202,0.00845103332996736,0.9875368795184818
2014-08-28,1,0.0001845134807390462,0.0002152428667686983,-0.010281505715574044,0.00845103332996736,0.9865076905687082
2014-09-02,1,0.0006275175329778482,0.0007173298399575662,-0.012018694106414346,0.0073137958103246135,0.9862858087395924
2014-09-04,1,0.0006723130139316906,0.0006747776179378558,-0.014054074154684914,0.00412405933678384,0.985548314440332
2014-09-08,1,0.0005175885294561482,0.0005187415884290908,-0.012018694106414346,0.004501242270724454,0.9858566413979198
2014-09-10,1,0.0004535494530846865,0.0004915355934961023,-0.010858563121913897,0.00989049546763138,0.9851063379457464
2014-09-12,1,0.00023218726853766622,0.00026751960445174194,-0.014419962108369206,0.005946393126209379,0.983622203694453
2014-09-16,0,-6.442635162947434e-05,5.5625309750322244e-06,-0.016289595793137594,0.014541899986500207,0.9816343134654999
2014-09-18,1,0.0006173739200880027,0.0006268941823496415,-0.016289595793137594,0.014541899986500207,0.9814267553608279
2014-09-22,1,0.0003408145275424915,0.00036036396062786376,-0.016289595793137594,0.015700288861073688,0.9809675327311032
2014-09-24,1,0.0007657754887682566,0.0008503277907724474,-0.014287022526583405,0.016483457774740695,0.98403789298483
2014-09-26,-1,-0.0010270474356660392,-0.0008015691774936497,-0.010858563121913897,0.017226282434785745,0.9797376978402748
2014-09-30,-1,-0.0014179369989021575,-0.0011937642761307454,-0.009675361862528854,0.018117458482542786,0.978549560666343
2014-10-02,-1,-0.0012627505469722383,-0.0011071331522771728,-0.009675361862528854,0.018117458482542786,0.9791573117524698
2014-10-06,-1,-0.0007522043541265211,-0.0006229500430045038,-0.009675361862528854,0.018117458482542786,0.9797403577195917
2014-10-08,-1,-0.0006866923957474186,-0.0005493392634023278,-0.010721717791559084,0.018117458482542786,0.9795085863103851
2014-10-10,-1,-0.002552766601192011,-0.0021687412398092853,-0.006517744134647979,0.018117458482542786,0.9800114216213862
2014-10-14,-1,-0.003014219458383264,-0.0026077079305285343,-0.005625663000157934,0.018117458482542786,0.981714166277908
2014-10-16,-1,-0.0015271183707246828,-0.0013226878415131542,-0.005625663000157934,0.017805492581333356,0.9834660732915698
2014-10-20,-1,-0.00028400511078020135,-0.00022021185955741732,-0.006954851132468418,0.01651753645067228,0.9840760004906599
2014-10-22,1,0.00026396298242256676,0.0002972068829911048,-0.005625663000157934,0.014946995192211423,0.985846474755318
2014-10-24,1,0.003050947263570802,0.0034615655845629967,-0.005625663000157934,0.010087980736814873,0.9902380166545183
2014-10-28,1,0.00464006864392205,0.005280098988020595,-0.005625663000157934,0.0074769144976830635,0.9913170808777363
2014-10-30,1,0.00441050748276062,0.005001155890695501,-0.005625663000157934,0.0074769144976830635,0.9917355429870733
2014-11-03,1,0.003674750946706247,0.004066483109618477,-0.006574934542650993,0.008080675862770847,0.9905521289563721
2014-11-05,1,0.003563620649674449,0.003954924117694596,-0.005625663000157934,0.008960467900811044,0.9908447386279087
2014-11-07,1,0.00316335434293394,0.003522783763690921,-0.004676515172532465,0.008960467900811044,0.9909821012771156
2014-11-11,1,0.0027896269302976734,0.0032118757727941506,-0.005188679717205084,0.010778924240178126,0.9904654086272613
2014-11-13,1,0.0019906029596892137,0.002214700965954827,-0.008396435850761705,0.011011803783261304,0.9890593963845176
2014-11-17,1,0.0019088241671953666,0.0021646748061135515,-0.008396435850761705,0.011011803783261304,0.9893589258512633
2014-11-19,1,0.0020036638537602666,0.002282373568038649,-0.008396435850761705,0.01388004930700649,0.9881753902407077
2014-11-21,1,0.0032737369560936445,0.003721868374107996,-0.008396435850761705,0.01388004930700649,0.9845050961413835
2014-11-25,1,0.0035260705397795163,0.004002649415193587,-0.008396435850761705,0.01388004930700649,0.9842483793139724
2014-11-28,1,0.003946051469387373,0.0045063395070813386,-0.005473687391297938,0.01191408345051085,0.9851373951663609
2014-12-02,1,0.0035535980316481275,0.004010543462427708,-0.009259224983265864,0.010123602288012915,0.9853298338952075
2014-12-04,1,0.004874930035906142,0.005508746434059688,-0.009415774303136473,0.008220233883855958,0.9846656172953995
2014-12-08,1,0.0038353655918335863,0.004274037098833347,-0.009415774303136473,0.00953595908462694,0.984622747744059
2014-12-10,1,0.00408162114582598,0.004569919046860375,-0.00995342234278039,0.00953595908462694,0.9840968883907113
2014-12-12,1,0.003252624038400545,0.003591894086969442,-0.00995342234278039,0.008220233883855958,0.9847390922947016
2014-12-16,1,0.0028744853156206823,0.003140013116324471,-0.011092321045246937,0.007208576716779077,0.9838865316536873
2014-12-18,1,0.0036068249351795824,0.003917127405859892,-0.011402029855675375,0.004852419403462982,0.9836786185141186
2014-12-22,1,0.005044783515625434,0.005504304767468553,-0.011402029855675375,0.003349522393436315,0.9869068889117986
2014-12-24,1,0.005351274270023254,0.0059211850743451,-0.011402029855675375,0.0053359749464929485,0.9869325656398381
2014-12-29,1,0.004916603390488317,0.005394537343472362,-0.013890913508654665,0.004839880805640094,0.9852478092936308
2014-12-31,1,0.004178510738333174,0.00456805738265751,-0.01604550115839344,0.010473801187709034,0.985429964655628
2015-01-05,1,0.0026737250694637347,0.002835333908873198,-0.013890913508654665,0.01331507614699896,0.9866452859768855
2015-01-07,1,0.0028151072367653533,0.003017885582249427,-0.013890913508654665,0.01147144395594148,0.9875433753512772
2015-01-09,1,0.00280134029877668,0.0030025994863647253,-0.011572736932680152,0.010139597772515102,0.9890362263232308
2015-01-13,1,0.0023085565577793737,0.0024517899503117306,-0.011572736932680152,0.01147144395594148,0.9890858617568021
2015-01-15,1,0.0010132762376569417,0.0010442244934323597,-0.0015823897367608505,0.013485904288381142,0.9894288227707289
2015-01-20,1,0.0014030896801205063,0.0014369303697949942,-0.0015823897367608505,0.01147144395594148,0.9908390988347147
2015-01-22,1,0.0020317155114055246,0.0021389775186099694,-0.0019007582002500264,0.01127842622295516,0.9912151093348255
2015-01-26,1,0.002126940268206248,0.0022383900058581753,-0.00343651868138126,0.01127842622295516,0.9909451077421075
2015-01-28,1,0.0012769263869856244,0.0013340940510407015,-0.002605587272719809,0.01182345426885259,0.991910384842129
2015-01-30,1,0.0007282272495454307,0.000763103541256245,-0.002605587272719809,0.01127842622295516,0.9924298671637398
2015-02-03,1,0.001255419156598997,0.001261523017614394,-0.005019000086517755,0.010160215663934278,0.9913056782893291
2015-02-05,1,0.001648563090603252,0.0017079132901416598,-0.005476626327695546,0.009393612428001798,0.9903357174877312
2015-02-09,1,0.0013219265457971826,0.0013315847924915897,-0.006113475026325178,0.009393612428001798,0.9895927564066138
2015-02-11,1,0.002365020485715837,0.0025396834934973364,-0.006113475026325178,0.007755216700120618,0.9898090287666736
2015-02-13,1,0.002741546572213401,0.002942233516994089,-0.006113475026325178,0.007902192792452193,0.9896213104881824
2015-02-18,1,0.0017994604812115143,0.0018136049907822864,-0.006113475026325178,0.01030140134614189,0.9893284250223515
2015-02-20,1,0.0013951212294535827,0.0015037443967194984,-0.006113475026325178,0.010311636840149751,0.9894504519854432
2015-02-24,1,0.00013405561294301807,0.0004378948411424264,-0.005476626327695546,0.011854160750876176,0.989490292884137
2015-02-26,0,-0.00016808751133488755,0.00020267222586728938,-0.008505487769818324,0.010311636840149751,0.9892641828150185
2015-03-02,0,-8.668247390383721e-05,0.0002542053871172924,-0.006277696863904172,0.012975205278047266,0.9876687936254467
2015-03-04,-1,-0.0017789346348674167,-0.0012501949124309492,-0.0043476704159102625,0.012975205278047266,0.9891871042207401
2015-03-06,-1,-0.0036529499563860528,-0.002857577720691534,-0.0043476704159102625,0.013539823572503712,0.9847786854035196
2015-03-10,-1,-0.00489189320119547,-0.003906119625302494,-0.004067091114452965,0.013539823572503712,0.9844797943869247
2015-03-12,-1,-0.0038851864108050585,-0.003096146253610649,-0.0074475678230095385,0.013539823572503712,0.9848263874457052
2015-03-16,-1,-0.0029648303236040605,-0.0022917114733696908,-0.00772226858701288,0.012005110196632548,0.9864589278869403
2015-03-18,-1,-0.0019069720704958752,-0.0014051131460083588,-0.008463040472864048,0.009837812156830154,0.9871949012188227
2015-03-20,0,-0.00010279364788174955,6.479742404425653e-05,-0.009224375540024714,0.006037126069930102,0.9866132526766884
2015-03-24,1,0.0004971200456217912,0.0005414828132716112,-0.009224375540024714,0.001679640694272138,0.9869530790018434
2015-03-26,-1,-0.00016248847453425946,-4.1766339688177644e-05,-0.009224375540024714,0.001679640694272138,0.9877209234504193
2015-03-30,1,0.0010952404917946037,0.0011230536661653084,-0.010067991164136,-0.000288249752132543,0.9883324200092407
2015-04-01,1,0.0006375723273897135,0.0006616800394446648,-0.010067991164136,-0.000288249752132543,0.9882823641051108
2015-04-06,1,0.0017695502646868685,0.0018549844552188924,-0.009576086267254456,0.001679640694272138,0.990562999403183
2015-04-08,1,0.0017528211183115699,0.0018309356808010279,-0.01010987688333545,-0.000288249752132543,0.9902372439452756
2015-04-10,1,0.0013242751013353502,0.0013386452910400398,-0.009576086267254456,0.0059310860187314,0.9902446700462317
2015-04-14,1,0.0007602811059336115,0.0008409697581925955,-0.009576086267254456,0.0059310860187314,0.9907935128298018
2015-04-16,1,0.0003047792577250859,0.000439598164064913,-0.009172606981339688,0.008466342627026424,0.9910242308652476
2015-04-20,-1,-0.0005251684670425078,-0.00032737443220629393,-0.005790414902581871,0.008868774335517856,0.991363249219468
2015-04-22,-1,-0.0005046781843683051,-0.00032169631350836803,-0.009172606981339688,0.008868774335517856,0.990880506940998
2015-04-24,-1,-0.0009558572833992422,-0.00072625522309792,-0.005790414902581871,0.008868774335517856,0.9912586154145885
2015-04-28,-1,-0.0013467726730099694,-0.0010675115570150946,-0.005790414902581871,0.009865412844504165,0.9912539025930662
2015-04-30,-1,-0.0012692776041741045,-0.001065420982021887,-0.005099445063631796,0.009865412844504165,0.990909995189802
2015-05-04,1,4.845631477214392e-05,0.00012959938681958175,-0.005099445063631796,0.008756321802407582,0.9924188044434715
2015-05-06,-1,-0.0006173128098796775,-0.00046879986265594954,-0.0023128039741288453,0.009402937108126475,0.9926116583781335
2015-05-08,-1,-0.00014974241573082863,-3.619218204590466e-05,-0.0034661230302973365,0.0084039796743739,0.9923457858810514
2015-05-12,-1,-0.00036845466167287826,-0.00022556612146951816,-0.003262496020956359,0.0084039796743739,0.9917825066786722
2015-05-14,1,0.0005256373173194048,0.0005646008821156151,-0.005372402720213012,0.007872445749334154,0.9922117093494595
2015-05-18,1,0.0019861143733091247,0.0022533764972296933,-0.007153208321028715,0.007872445749334154,0.9918761567430289
2015-05-20,1,0.001552092260808123,0.0017487708253231555,-0.005372402720213012,0.007872445749334154,0.9921478258977622
2015-05-22,1,0.0015735169574951483,0.0017845479386788732,-0.011725661143331885,0.007872445749334154,0.9894859804873131
2015-05-27,1,0.0014541308573329426,0.001613356027215319,-0.011131722535339734,0.007872445749334154,0.9897803241780091
2015-05-29,-1,-0.0001479722631805831,-8.888639950296789e-05,-0.006012432334464465,0.007872445749334154,0.9905753025921221
2015-06-02,1,0.0005094878908450237,0.0005402441228020244,-0.011131722535339734,0.006397816954987409,0.9897344594601949
2015-06-04,1,0.0007606583344984554,0.0008177166344933476,-0.011131722535339734,0.006397816954987409,0.9894568515846277
2015-06-08,1,9.7389437326466e-05,0.00013727529217169644,-0.00635817988646365,0.005235906964804335,0.9904826799316693
2015-06-10,0,-8.321278342530883e-05,2.700662922030763e-05,-0.010522850093569281,0.004415180965855559,0.9899376445431979
2015-06-12,1,0.00026381457366461746,0.00032684372303280057,-0.010522850093569281,0.009341647899172783,0.9887000540048118
2015-06-16,1,0.00018616472614556675,0.00021372626778370105,-0.007401058323115838,0.00627448238139941,0.9894780504444205
2015-06-18,0,-4.008513320137954e-05,1.4713535227630438e-05,-0.00999613451693842,0.01015729633156412,0.9881952478274979
2015-06-22,-1,-0.0021131378623308883,-0.0017674453944610247,-0.007401058323115838,0.01015729633156412,0.9900357329162657
2015-06-24,-1,-0.00231909074415082,-0.0019384764146482727,-0.0096195234820069,0.00627448238139941,0.9899543038570301
2015-06-26,-1,-0.0012695861490596557,-0.0010278028710922898,-0.01585872546521101,0.005694746808258586,0.987759168186457
2015-06-30,-1,-0.002041387530848637,-0.0017153550026744106,-0.01388530076102746,0.010642698559668757,0.9874343164053201
2015-07-02,-1,-0.002327681637248646,-0.0019956705031381706,-0.01388530076102746,0.010177535184394591,0.9877442761851347
2015-07-07,-1,-0.001787160665517396,-0.0015545908272762308,-0.01388530076102746,0.010177535184394591,0.9873414656096888
2015-07-09,-1,-0.0013942414765537145,-0.0012020044913075918,-0.014278578735318424,0.009896198958844431,0.9865278081990071
2015-07-13,-1,-0.0005853110970560914,-0.0005261430584820424,-0.014278578735318424,0.008550675496522686,0.986836239850744
2015-07-15,-1,-0.0007765396162985242,-0.0007136425146489563,-0.014278578735318424,0.008550675496522686,0.9866782565199312
2015-07-17,-1,-0.0007789363278747467,-0.0006973076656644456,-0.011947719733194886,0.00813080677174703,0.9877361191560831
2015-07-21,-1,-0.0012113142577416217,-0.001082380661178548,-0.008842570481299054,0.00813080677174703,0.9884433550014056
2015-07-23,-1,-0.0019344763399528533,-0.001728344617392013,-0.01150698232988697,0.00813080677174703,0.9879658610458365
2015-07-27,-1,-0.004827685884009614,-0.004215391864943618,-0.01150698232988697,0.00813080677174703,0.9873237188944233
2015-07-29,-1,-0.0028963158809938165,-0.0024734772787440066,-0.01150698232988697,0.006783640739068374,0.9880103497557469
2015-07-31,-1,-0.003209283140161199,-0.002732738413617654,-0.01150698232988697,0.008564265801262775,0.986269021956309
2015-08-04,-1,-0.002984870239141702,-0.0025452054289143424,-0.016294381679828298,0.006788170840648403,0.985106522389712
2015-08-06,-1,-0.0035302783427347793,-0.0030660095195595067,-0.01150698232988697,0.013524755540952954,0.9850871209552307
2015-08-10,-1,-0.002267107146160773,-0.001988487940132962,-0.01150698232988697,0.009199882351900113,0.9859361793712893
2015-08-12,-1,-0.002103530541303965,-0.0018621038912077763,-0.010751900417855738,0.009199882351900113,0.9858025083650285
2015-08-14,-1,-0.0018604170069512719,-0.0016634486668101404,-0.016294381679828298,0.007981245924149189,0.9851781560985708
2015-08-18,-1,-0.0022895704653294225,-0.0020089276788655902,-0.016294381679828298,0.017847020210243605,0.9829774978937044
2015-08-20,-1,-0.0021016280663825136,-0.0019301697866787903,-0.011998591000868366,0.017847020210243605,0.9831710259286621
2015-08-24,-1,-0.0030619401981014007,-0.002753325126939085,-0.009070103972304629,0.020755518999427545,0.9814918049497386
2015-08-26,-1,-0.0022192369341856,-0.0020406094804377214,-0.008923860419981005,0.017847020210243605,0.9828886730821141
2015-08-28,-1,-0.0011690190312831417,-0.001124160705121464,-0.011998591000868366,0.01147147091860656,0.9831202976080082
2015-09-01,-1,-0.002484924737901177,-0.0022713455684334953,-0.008923860419981005,0.01437176812180203,0.9836312661286788
2015-09-03,-1,-0.0015282035799141975,-0.001426735389553597,-0.009756658511870946,0.013196583833659115,0.9840601851825548
2015-09-08,-1,-0.0015632656485606942,-0.0014445103688822138,-0.013536574639910499,0.01359890861591147,0.983014607932729
2015-09-10,-1,-0.0019471979958410668,-0.0017764932051597187,-0.013536574639910499,0.01359890861591147,0.9828520681748816
2015-09-14,-1,-0.0022667630459103105,-0.0020616768087049343,-0.02009323276652341,0.01359890861591147,0.9821828156117994
2015-09-16,-1,-0.0007733922190259278,-0.0007291683208460464,-0.02009323276652341,0.008845744339124086,0.9843034923117091
2015-09-18,-1,-0.0018003815515475986,-0.0016405999016566642,-0.01549163601636406,0.008845744339124086,0.9849240443153182
2015-09-22,-1,-0.0013768250949251336,-0.0012389090462808722,-0.011980981803986622,0.008845744339124086,0.9882937131341757
2015-09-24,-1,-0.0014001049631292054,-0.0013288795508377823,-0.011980981803986622,0.011307290092846499,0.9874238160506784
2015-09-28,-1,-0.002415396610098171,-0.0021980145519979394,-0.00844801052070051,0.011763691066015327,0.9885712209246716
2015-09-30,-1,-0.0012576860307095192,-0.0011984642495549399,-0.010222901335768895,0.00897985259987487,0.9893755658857437
2015-10-02,-1,-0.0003818835205697507,-0.0003269324950155109,-0.008090763582319114,0.009566503675850675,0.9898749608071239
2015-10-06,-1,-0.001034945695462751,-0.001017871189641999,-0.008090763582319114,0.008385267809276335,0.9906108467536315
2015-10-08,-1,-0.0002497923791702439,-0.00013220571248592197,-0.010844882141335919,0.0069421051805767745,0.9905462268901194
2015-10-12,-1,-0.0015180955469696262,-0.0014614376028113504,-0.008090763582319114,0.0069421051805767745,0.9918606023526982
2015-10-14,-1,-0.0012657118886309042,-0.0012495920812900948,-0.008838088938767159,0.0069421051805767745,0.9917217881047482
2015-10-16,-1,-0.0014407846181525355,-0.001424211087453795,-0.00994297379592756,0.0069421051805767745,0.9909317639817862
2015-10-20,-1,-0.0013656707240098673,-0.0013246897249911795,-0.00994297379592756,0.009566503675850675,0.9901268879724328
2015-10-22,-1,-0.00033770870781412186,-0.0002085002640832838,-0.00994297379592756,0.009566503675850675,0.9899774663877823
2015-10-26,1,0.00027434511069751913,0.0005071643734023436,-0.011027814484733809,0.009566503675850675,0.9890964048809886
2015-10-28,-1,-0.0003060136279501057,-0.00016849649058050848,-0.011027814484733809,0.010430415070227494,0.9888145508511352
2015-10-30,1,0.0006739965935109207,0.0009708490590280281,-0.011027814484733809,0.010316546632248048,0.9891876427635682
2015-11-03,1,0.00015981174877396117,0.0003905320135192665,-0.00891540833730722,0.01118076691273736,0.9895180358148484
2015-11-05,0,-0.000104128223513859,8.806636967727082e-05,-0.008342576534908334,0.012149392304453163,0.9892423414759511
2015-11-09,-1,-0.0002880185139827935,-0.00012542254379374406,-0.008342576534908334,0.012149392304453163,0.9892346598562337
2015-11-11,-1,-0.0015989729210703952,-0.0015512821264542695,-0.007009596053157539,0.012149392304453163,0.9890728869529358
2015-11-13,-1,-0.002142447890322564,-0.002028330712147542,-0.006012210869179004,0.012149392304453163,0.9893268895974596
2015-11-17,-1,-0.0011836620824499705,-0.001148732471579482,-0.006012210869179004,0.012149392304453163,0.9902878929906467
2015-11-19,-1,-0.0009144334778129561,-0.0009123450129977405,-0.008456115450260274,0.010592215959941129,0.9872377917510571
2015-11-23,-1,-0.0005763325010510169,-0.0005263119033297929,-0.011043150016938523,0.009686353137489463,0.9871968322187017
2015-11-25,1,0.0003444895307145187,0.0005331898854105512,-0.011043150016938523,0.007343681120214541,0.9858984743782546
2015-11-30,0,-7.646244123658819e-05,3.6746513820016364e-05,-0.011043150016938523,0.010299823524751183,0.9851604819084441
2015-12-02,1,0.0011513467154410087,0.001490402540496586,-0.012441197068248748,0.007343681120214541,0.9849668066906568
2015-12-04,1,0.001404255507886011,0.0017525780746175932,-0.017479407169999107,0.0015249412475910563,0.9839268733872818
2015-12-08,1,0.0016483015749949072,0.002048613621300539,-0.02117156000907762,-0.00045475069221690345,0.9797863740058118
2015-12-10,1,0.0009668837935267576,0.001252115360899151,-0.02117156000907762,0.0008871581298519752,0.9802738679672309
2015-12-14,1,0.0005313660881755503,0.0007222692967324868,-0.025065077858878678,0.0008871581298519752,0.9796299525715186
2015-12-16,-1,-0.00016629259234345815,-0.00010827455187042038,-0.0267176851018106,0.0006028236954370935,0.97769901895831
2015-12-18,-1,-0.0007271163975573062,-0.0006969241798918601,-0.026041229966126553,0.006609489310817151,0.977905809794949
2015-12-22,-1,-0.00258563284719365,-0.002402029688899228,-0.026041229966126553,0.01512712421619698,0.9785357204545152
2015-12-24,-1,-0.0014869506988164265,-0.0014406986413831539,-0.026041229966126553,0.01512712421619698,0.978686214943854
2015-12-29,-1,-0.0010029930466424434,-0.0009565412648679409,-0.02968319069571628,0.006609489310817151,0.9768288486393296
2015-12-31,-1,-0.001116288827507368,-0.0010957082422948096,-0.02968319069571628,0.01512712421619698,0.975638144328966
2016-01-05,-1,-0.0019058172996448673,-0.0017848610155527253,-0.031223521710545498,0.01512712421619698,0.9754441817930265
2016-01-07,-1,-0.004430955131805706,-0.004028775707251287,-0.029464276727662726,0.018256724727148392,0.9778443723307992
2016-01-11,-1,-0.0041288418401167915,-0.0037720863009793304,-0.03083952482502462,0.018256724727148392,0.9764992946457445
2016-01-13,-1,-0.005032431839838833,-0.0045262452184555236,-0.030509463040484918,0.018256724727148392,0.9772116658750843
2016-01-15,-1,-0.006254154987032849,-0.0055514743839439416,-0.02438005808548706,0.024300054012700505,0.975193639296099
2016-01-20,-1,-0.005601669519543908,-0.004996781869825998,-0.023871532386211033,0.024300054012700505,0.9762773569076985
2016-01-22,-1,-0.004658479251853843,-0.004227292969330473,-0.02735117201318789,0.024300054012700505,0.9759820094435284
2016-01-26,-1,-0.005027812126350267,-0.004497410224078099,-0.02735117201318789,0.015561016501806985,0.9777454427875789
2016-01-28,-1,-0.006544205445200979,-0.005901233448874836,-0.011896374779655515,0.02521754917308448,0.9776636400349824
2016-02-01,-1,-0.004993806281903462,-0.004535965121852545,-0.020616977247492466,0.0259329154256386,0.9769200625095072
2016-02-03,-1,-0.0061258286233240415,-0.005530785070643927,-0.011194703172249439,0.033301869156506035,0.9757543212567187
2016-02-05,-1,-0.005123865992884669,-0.00463311295892904,-0.011194703172249439,0.02761946938684311,0.9755673175150507
2016-02-09,-1,-0.0045938192044458915,-0.004261313671939789,-0.011194703172249439,0.02761946938684311,0.9754021916397447
2016-02-11,-1,-0.0055100498399948995,-0.0050293195912402035,-0.006690431317000083,0.02761946938684311,0.9753379179789069
2016-02-16,-1,-0.001972075625994567,-0.0019316947199382168,-0.020043424552197566,0.021727724791517494,0.9783067261549078
2016-02-18,-1,-0.0020413087004564593,-0.0019642731398981906,-0.016657785936685373,0.020509413285397564,0.9800446030883816
2016-02-22,-1,-0.0028426342358541276,-0.0026428923762795375,-0.010108863271115766,0.020509413285397564,0.9803841628075273
2016-02-24,-1,-0.002244799628929501,-0.0021660893652111863,-0.016657785936685373,0.020509413285397564,0.9790881124565641
2016-02-26,-1,-0.0005297856086584026,-0.00035591965083779935,-0.016657785936685373,0.018102670210405833,0.981130612759297
2016-03-01,1,4.8540743722162e-05,0.00027760493410024375,-0.009380413848975014,0.018102670210405833,0.9821357535122431
2016-03-03,1,0.002055695208540826,0.0025843338779479638,-0.009380413848975014,0.017409301162852997,0.984813463027427
2016-03-07,1,0.0026484979284526213,0.003171596217095678,-0.012588616568613922,0.009218494501536273,0.9861176086892457
2016-03-09,1,0.001579375862682803,0.0019564469893010705,-0.012588616568613922,0.013855729278477155,0.9826836825468978
2016-03-11,1,0.0021929355076246732,0.002634982361048292,-0.012588616568613922,0.013855729278477155,0.9820300444241647
2016-03-15,1,0.0006318562816561997,0.0009015706700902551,-0.003300285174515548,0.01766183689732214,0.9815704426626448
2016-03-17,1,0.0015441581342587167,0.0019852990166922724,-0.0029542707541976654,0.015180857525147976,0.9831650087410312
2016-03-21,1,0.0024056566535903827,0.002986877586082937,-0.004836927243224064,0.01467691263706231,0.9832667062422493
2016-03-23,1,0.0007457327384013892,0.0010774455627831588,-0.0037408269845225633,0.01467691263706231,0.9833805247744366
2016-03-28,1,0.001744316922781507,0.002263354995003437,-0.004359189230129406,0.015511919491054826,0.9829703794901201
2016-03-30,1,0.002749033388190437,0.0033623098769246986,-0.004836927243224064,0.015511919491054826,0.9820392798460785
2016-04-01,1,0.003409140305212264,0.004083554523760679,-0.007495624817623579,0.015511919491054826,0.98021953857268
2016-04-05,1,0.002783172651646514,0.0033575148915426147,-0.008138157900611478,0.015511919491054826,0.9799215197310274
2016-04-07,1,0.0016537918289121596,0.002062548512392773,-0.01246374047648918,0.014232719846923723,0.9841645077851158
2016-04-11,1,0.001909170758458086,0.00227996832090273,-0.01246374047648918,0.014232719846923723,0.9846504151627339
2016-04-13,1,0.004750162719553152,0.005561924259870718,-0.013630798054815913,0.004466286925926601,0.9833867429071379
2016-04-15,1,0.004620591491207335,0.005439709124201271,-0.013630798054815913,0.0042083498414801045,0.983407775623923
2016-04-19,1,0.005180614254616906,0.006085196435897675,-0.013630798054815913,0.0012806854731802035,0.9837180778206026
2016-04-21,1,0.004468468346730444,0.005328998587926447,-0.01246374047648918,0.005126577121335101,0.9858302752583163
2016-04-25,1,0.004630502984283467,0.005492644328523257,-0.01246374047648918,0.005126577121335101,0.9848070141267865
2016-04-27,1,0.006270928117687949,0.007382509970553995,-0.01246374047648918,0.011471051795587106,0.9855656710171938
2016-04-29,1,0.005343240768583523,0.006374449929354458,-0.011541058549942307,0.011471051795587106,0.9874482510815058
2016-05-03,1,0.004881303868299121,0.005855953727017432,-0.011541058549942307,0.011471051795587106,0.9872044449100448
2016-05-05,1,0.003830221040851723,0.004645802799705084,-0.007492626557620559,0.011471051795587106,0.988310202563336
2016-05-09,1,0.004288276916146569,0.005146695831647169,-0.007492626557620559,0.011471051795587106,0.9882725154687706
2016-05-11,1,0.00445662494270404,0.005376745292124641,-0.008870756938325293,0.008138420815622027,0.9892986433297125
2016-05-13,1,0.0028778652013713274,0.0034113894831376856,-0.010763648599487429,0.008138420815622027,0.9875421212562145
2016-05-17,1,0.002259315518920231,0.002623688378724027,-0.010763648599487429,0.009663975662492625,0.9870918342129399
2016-05-19,1,0.003201588320088274,0.003758186929988817,-0.010763648599487429,0.010699926655889242,0.9864431994570215
2016-05-23,1,0.004237822018742579,0.004990887519249849,-0.010926014197981872,0.009599105824570726,0.9852192289771585
2016-05-25,1,0.0052020571139324776,0.006046543206961004,-0.012400777011184194,0.007881379102389405,0.9840014695797369
2016-05-27,1,0.004096404191586723,0.004720594726599593,-0.01365111355106083,0.007881379102389405,0.9834511769933257
2016-06-01,1,0.0013073693287435062,0.00135000434475087,-0.013418503377270108,0.010212358788072484,0.983580358962438
2016-06-03,1,0.000772823228163733,0.0008047950336641065,-0.013418503377270108,0.014311760915091277,0.9827054645714759
2016-06-07,1,0.001272858082555553,0.00128133978245591,-0.01365111355106083,0.014311760915091277,0.9793379187977885
2016-06-09,-1,-0.0003381387733331296,-8.693041316250544e-05,-0.013550974919871055,0.019282579064785428,0.9784981150866703
2016-06-13,-1,-0.002449813477566447,-0.001961124536991354,-0.007009252062635118,0.021299805691890245,0.9785544899999528
2016-06-15,-1,-0.002035786913051612,-0.0016219486775526516,-0.005810688258314879,0.021299805691890245,0.9784537432690831
2016-06-17,-1,-0.0014858784661336921,-0.0011431704391909104,-0.005810688258314879,0.021299805691890245,0.9792648888373227
2016-06-21,-1,-0.004758187512143191,-0.003898238520393416,-0.005810688258314879,0.022606164744274668,0.9793863404445777
2016-06-23,-1,-0.0050202741459774705,-0.00419024246056752,-0.003122939934275669,0.024872973414690677,0.979257469803263
2016-06-27,-1,-0.006976903724530331,-0.005844960352147587,-0.00079580994845629,0.024872973414690677,0.9776800609187206
2016-06-29,-1,-0.004334213187209554,-0.003571838498253839,-0.002708505399089879,0.02180535107792052,0.9821380021073255
2016-07-01,-1,-0.003963174758567769,-0.003186176050080973,-0.002708505399089879,0.017019753441458212,0.9842450078478034
2016-07-06,-1,-0.003664393812797916,-0.00287355252463313,-0.002708505399089879,0.014432937833913154,0.9863802007839609
2016-07-08,0,-2.155435728335418e-05,0.00016958751370795282,-0.002708505399089879,0.016769642601179944,0.9870713651502881
2016-07-12,1,0.0013740146563425077,0.001396238339551939,-0.002933658729214924,0.014432937833913154,0.9886903039515038
2016-07-14,1,0.0011599022536995564,0.001250399300433028,-0.002933658729214924,0.013999468954402315,0.9886248566312601
2016-07-18,1,0.0007120084758738566,0.0008784010449728969,-0.0026635157158063838,0.014757482747817116,0.9880201911651914
2016-07-20,1,0.0018563802865821872,0.0019002682016861618,-0.0029766776242268955,0.013999468954402315,0.9882646340029687
2016-07-22,1,0.003215263028794726,0.0034737151454363323,-0.0029766776242268955,0.01197263560039305,0.9894065817697105
2016-07-26,1,0.004360249184800434,0.004873356274179371,-0.003876563231736167,0.0077776921529400965,0.9894753285387491
2016-07-28,1,0.004873984277504454,0.0055390108391088575,-0.00589796774700579,0.0077776921529400965,0.9890213853077112
2016-08-01,1,0.003879880005221054,0.004333170534442914,-0.00589796774700579,0.011824774645123565,0.9893253143131495
2016-08-03,1,0.0030934440081795307,0.003482312216010262,-0.00589796774700579,0.008265395148341976,0.991330978674897
2016-08-05,1,0.0034119924615144555,0.003712043403780175,-0.00589796774700579,0.005855583914497108,0.9923421636254003
2016-08-09,1,0.003292940130696009,0.0035890783700966763,-0.006296882890254794,0.008265395148341976,0.9914791205999197
2016-08-11,1,0.0037461833637169465,0.004135898320151361,-0.00756954209638871,0.005855583914497108,0.9876605758528767
2016-08-15,1,0.003393030731964956,0.003636161839886892,-0.00756954209638871,0.00551358486576152,0.9867613771156145
2016-08-17,1,0.002313666466094597,0.002432304274727835,-0.006659478038652205,0.00551358486576152,0.9885023014371352
2016-08-19,1,0.0032067507504247974,0.0035159787137170363,-0.007046356400496033,0.005357561641367118,0.9879804559837995
2016-08-23,1,0.0032399251300278898,0.0035971905894131503,-0.009054189185848856,0.005357561641367118,0.9864481057895511
2016-08-25,1,0.002335474262506001,0.0025364254642950583,-0.009054189185848856,0.005357561641367118,0.9865120247687792
2016-08-29,1,0.0021579106584587275,0.0022816311995258742,-0.009054189185848856,0.0022886463040709373,0.9869745350463048
2016-08-31,1,0.002080491126518342,0.002233591988301135,-0.01090645722138257,0.0022886463040709373,0.9860539679392808
2016-09-02,1,0.003621470177209294,0.004103345941683545,-0.012040823107032882,0.0022886463040709373,0.9842029004189776
2016-09-07,1,0.0036323829842528476,0.004089182753197331,-0.014759011761659585,0.0022886463040709373,0.983348712592473
2016-09-09,1,0.0009625840595380274,0.0010872493828969557,-0.012040823107032882,0.0022886463040709373,0.9882079762012236
2016-09-13,1,0.0010057646156560133,0.001070959810554035,-0.014759011761659585,0.0022886463040709373,0.9882016758833289
2016-09-15,1,0.0012531174469567652,0.0013638655085363573,-0.014759011761659585,0.0015751294939972949,0.9878937162782045
2016-09-19,1,0.0016067866084422885,0.001833154344695846,-0.014759011761659585,-0.0007949835061075614,0.9876372456188566
2016-09-21,1,0.00011227088165390698,0.000149926420161365,-0.01090645722138257,0.0030204491906554486,0.9893060027169744
2016-09-23,-1,-0.0009657824982447971,-0.0007761486922068061,-0.015398389641949261,0.0030204491906554486,0.9889251445611335
2016-09-27,-1,-0.001500282713048315,-0.0012096943032058867,-0.015398389641949261,0.006691647534723263,0.9874393802753108
2016-09-29,-1,-0.0021332888282967455,-0.0017914207548192056,-0.015398389641949261,0.009740482479715262,0.9873701996296709
2016-10-03,-1,-0.0019549544601719705,-0.0016206421453716677,-0.015561171972440599,0.006691647534723263,0.9882535348370108
2016-10-05,-1,-0.0017688715847048735,-0.0014440314938076585,-0.015561171972440599,0.004042730925779996,0.9890522064840496
2016-10-07,-1,-0.002286438109541697,-0.0019091639962786112,-0.015561171972440599,0.009740482479715262,0.9876781494171385
2016-10-11,-1,-0.002808852440749682,-0.002385304750419246,-0.015561171972440599,0.012509559663560533,0.9856903748381557
2016-10-13,-1,-0.0022952801122208787,-0.0019440222469465193,-0.015561171972440599,0.018018200761931107,0.9821045695593339
2016-10-17,-1,-0.0019724612375132894,-0.0017258461813679632,-0.015561171972440599,0.022091306500077297,0.9783682866330071
2016-10-19,-1,-0.0017433115969172765,-0.0014988122185098122,-0.015561171972440599,0.022091306500077297,0.9786115917729434
2016-10-21,-1,-0.00334444130254078,-0.0028773434896122926,-0.0111573459256787,0.022091306500077297,0.9795154051605576
2016-10-25,-1,-0.002872044039110337,-0.0024489057736428108,-0.00918494162724169,0.022372768828861033,0.9789890464454617
2016-10-27,-1,-0.0025940144304765584,-0.00224586279091321,-0.00612736763526534,0.022372768828861033,0.9797349108926972
2016-10-31,-1,-0.003256755491238163,-0.0027970113833174475,-0.00612736763526534,0.022372768828861033,0.979605867392405
2016-11-02,-1,-0.005015673787451852,-0.004271437687701209,-0.004539873586364538,0.023066724157585924,0.9787271878211244
2016-11-04,-1,-0.003643650813917349,-0.003065708996994139,-0.00612736763526534,0.023066724157585924,0.9803246879624471
2016-11-08,-1,-0.004709534575921652,-0.004026793730322531,-0.004539873586364538,0.038141817034436074,0.9793593650584647
2016-11-10,-1,-0.0027869698585258834,-0.0022590729164756245,-0.00612736763526534,0.023066724157585924,0.9821660381934401
2016-11-14,-1,-0.0008785103119652129,-0.0005240783502124225,-0.00918494162724169,0.02167783259398085,0.9857676667552875
2016-11-16,-1,-0.0024618819176642206,-0.0018723328712577196,-0.008285874663003168,0.021974283775624482,0.9846287514897506
2016-11-18,-1,-0.002285408882204891,-0.0017911529014566767,-0.008842694975419809,0.021974283775624482,0.98439469098259
2016-11-22,0,-0.00013847791759078257,6.234597128602665e-05,-0.008842694975419809,0.021909151036889146,0.9841901858710327
2016-11-25,1,0.0004721502886857715,0.0005674546314098797,-0.0114623946544946,0.021909151036889146,0.9832294246203351
2016-11-29,1,0.0007183295281155284,0.000718901375590388,-0.008842694975419809,0.021909151036889146,0.9835408977698218
2016-12-01,1,0.002177757986226645,0.0024339294556078583,-0.008842694975419809,0.011165178918727241,0.9844150240172918
2016-12-05,1,0.0015077933654207877,0.0016909318635857811,-0.008123121411969325,0.021940567195415085,0.9838782385231041
2016-12-07,1,0.004244484642042424,0.004786513324534338,-0.008842694975419809,0.006925594800601884,0.9858874758694113
2016-12-09,1,0.003930241601018657,0.004450300182216374,-0.008123121411969325,0.006887659603227535,0.9875686117081097
2016-12-13,1,0.004000458603073633,0.0045883374377010625,-0.0062905236725528816,0.007554392405823584,0.9877160710642482
2016-12-15,1,0.00473619544565926,0.005440716551948884,-0.0062905236725528816,0.006887659603227535,0.9882808811545659
2016-12-19,1,0.00424873323694373,0.004879674862040325,-0.0062905236725528816,0.007554392405823584,0.9880501671231537
2016-12-21,1,0.005805962222631815,0.006623184141219601,-0.0062905236725528816,0.007280416438834947,0.9905978685792174
2016-12-23,1,0.004241469575825597,0.004793418605232958,-0.0038312723538874937,0.007554392405823584,0.9920164172808461
2016-12-28,1,0.004580213357150906,0.005250373223010863,-0.0038312723538874937,0.007554392405823584,0.9916933146035701
2016-12-30,1,0.0047983723553938745,0.00548506985627871,-0.006211888947008843,0.007280416438834947,0.9909082800539525
2017-01-04,1,0.006007409558650683,0.00686655831897876,-0.007940794363876463,0.005841752225938999,0.9898158848961208
2017-01-06,1,0.0054232576752006895,0.006245508036900467,-0.007940794363876463,0.007280416438834947,0.9907569903771201
2017-01-10,1,0.005034084520617479,0.00574286079423837,-0.007940794363876463,0.010726123588889483,0.9907277913999751
2017-01-12,1,0.005773829270320543,0.006601441873960471,-0.007940794363876463,0.010293163700888064,0.9910841722260353
2017-01-17,1,0.005166147058910988,0.005888209223582145,-0.004270272330616549,0.010628237819399929,0.9914850905361251
2017-01-19,1,0.004943887010139349,0.005613607053585054,-0.0034936411409329207,0.010293163700888064,0.9921807371136546
2017-01-23,1,0.005423398373511672,0.006189228578882756,-0.005441349876885007,0.010628237819399929,0.9904940010272489
2017-01-25,1,0.005437158520291342,0.006180616328427008,-0.008544429719072037,0.010293163700888064,0.989106417295647
2017-01-27,1,0.005317536899892813,0.006073122752739298,-0.008544429719072037,0.010293163700888064,0.9896890370995927
2017-01-31,1,0.00510842563397112,0.005852455459957347,-0.009186124527897747,0.010293163700888064,0.9892579053528494
2017-02-02,1,0.0027539329600246485,0.0030111563882485822,-0.005705883396199443,0.010293163700888064,0.9904914074900354
2017-02-06,1,0.003065580035277625,0.0034043280064570487,-0.006062630400903553,0.009983677072285535,0.9903271646785033
2017-02-08,1,0.0038687232666277994,0.004319788477933974,-0.010942545572126879,0.0066567105798505995,0.9897238662820892
2017-02-10,1,0.0038724857152530033,0.004303393954445452,-0.012712860166753928,0.005863362117678806,0.9891959509751758
2017-02-14,1,0.0036126149103227942,0.003944861428699647,-0.012712860166753928,0.005863362117678806,0.9890969813298356
2017-02-16,1,0.0030131342186343335,0.003216606546537038,-0.013489064515215763,0.004420023125273628,0.9880450751429257
2017-02-21,1,0.0029039474103873916,0.0030784988559309804,-0.013489064515215763,0.001265735975422681,0.9878094337124388
2017-02-23,1,0.0009589767545113541,0.0010936163185554192,-0.012712860166753928,0.004420023125273628,0.9899163033885858
2017-02-27,1,0.0009386295780899945,0.001069040966876514,-0.012712860166753928,0.0020400374374118565,0.989216756711241
2017-03-01,1,0.0006845001114437403,0.0008348958333969259,-0.012340432335853448,0.005325301703017867,0.9900670528493056
2017-03-03,-1,-0.0003949699009097938,-8.071981588768731e-05,-0.012712860166753928,0.005325301703017867,0.9899954529288983
2017-03-07,-1,-0.0018082257332049225,-0.0012746605332172006,-0.013247318298560516,0.005325301703017867,0.988225519090119
2017-03-09,-1,-0.0018332595362750806,-0.0013174263926416985,-0.012959092802837155,0.007161033292803352,0.987426665697106
2017-03-13,-1,-0.002566873759791783,-0.0019397851436291549,-0.014239284969582898,0.008833786653101923,0.9866410558142392
2017-03-15,-1,-0.0022324949641357346,-0.0016626832020641604,-0.015616893437646063,0.0061618435001920425,0.9863750663431028
2017-03-17,-1,-0.00457150110800289,-0.003647970008556463,-0.015116684733508648,0.010265938769871811,0.98657533590978
2017-03-21,-1,-0.005937581410372932,-0.004866236125034382,-0.014239284969582898,0.011528824026209533,0.9860667053638656
2017-03-23,-1,-0.005852608008759854,-0.004773985452647149,-0.014239284969582898,0.014056505518308955,0.985276744909218
2017-03-27,-1,-0.007065824628489549,-0.005820064552697743,-0.015116684733508648,0.015065791092260701,0.983761621226641
2017-03-29,-1,-0.007117781594834324,-0.005817024642260325,-0.015116684733508648,0.016478641413218295,0.9836515084356369
2017-03-31,-1,-0.006869915608057725,-0.005666061551381465,-0.015580977116599875,0.016478641413218295,0.983323909251781
2017-04-04,-1,-0.010657759185740214,-0.008914732088336671,-0.010815528340703172,0.016478641413218295,0.983455844778449
2017-04-06,-1,-0.006936453239393428,-0.005789021264965594,-0.010815528340703172,0.01455263080220333,0.9854008282547705
2017-04-10,-1,-0.005681718123623825,-0.004834524938802663,-0.008566026850130217,0.01455263080220333,0.9863192131379577
2017-04-12,-1,-0.006709675972699296,-0.005708301567806219,-0.008566026850130217,0.01455263080220333,0.9867712220529403
2017-04-17,-1,-0.007119627989182409,-0.006040704302424501,-0.00657048420238167,0.017967017264901422,0.9858668501628434
2017-04-19,-1,-0.0054590312466100575,-0.0046553508639642065,-0.00657048420238167,0.01255123040742646,0.9865123966444367
2017-04-21,-1,-0.004432304294714702,-0.0037679915486700543,-0.005850379246717408,0.01650120536637914,0.9842869469379681
2017-04-25,-1,-0.004551213843060198,-0.003846409072504971,-0.005850379246717408,0.012374007625765515,0.9855844424588067
2017-04-27,-1,-0.003096495912270871,-0.002611563307602891,-0.005850379246717408,0.009923938359403885,0.986830977787088
2017-05-01,-1,-0.004770543080169502,-0.0040541418753591105,-0.004933932076152172,0.009923938359403885,0.9866792195916085
2017-05-03,-1,-0.002562746339260804,-0.0022538824327052297,-0.006430627769703113,0.011240596679054778,0.9866628990632997
2017-05-05,-1,-0.001790227462946106,-0.0015655910777504093,-0.008939408591237777,0.008765342104449897,0.9872147500709453
2017-05-09,-1,-0.0017706219872183444,-0.0015262242900879173,-0.01092802154603257,0.009745136457621633,0.9864646075904343
2017-05-11,-1,-0.001976660863498121,-0.001737702902133023,-0.015353736003072447,0.009745136457621633,0.9850011745938966
2017-05-15,-1,-0.0009847685245304482,-0.0008464307706593248,-0.015353736003072447,0.01351182061159207,0.9849304516049207
2017-05-17,-1,-0.0004162898989862431,-0.00038409899459695913,-0.0121750756657049,0.01351182061159207,0.9862541386399368
2017-05-19,1,0.0015598898500181685,0.0017976925108694503,-0.014273831607666586,0.006609557134621618,0.9884824364787123
2017-05-23,1,0.0011190524194001372,0.0012873000352226541,-0.015353736003072447,0.009441294751971722,0.9868709285785626
2017-05-25,1,0.001415542620983931,0.0016404225914916947,-0.015353736003072447,0.01351182061159207,0.984098842739982
2017-05-30,1,0.001502407513262515,0.0018034122268446135,-0.014273831607666586,0.014193044575288378,0.983612879449657
2017-06-01,1,0.0013875497556608044,0.0016394922844800558,-0.015353736003072447,0.01351182061159207,0.9840825723968774
2017-06-05,1,0.0008664981912937586,0.001057071961870638,-0.014273831607666586,0.01351182061159207,0.9841658978399555
2017-06-07,1,0.0011357224365709103,0.001394934341772522,-0.012973108553394157,0.013049879644704629,0.9852301502171328
2017-06-09,-1,-0.00019077768110742634,-0.00011262639975651254,-0.00484765964161764,0.013049879644704629,0.9866916925505661
2017-06-13,1,0.0008114436657030704,0.0010240228573047936,-0.006417514573989941,0.008938960810215743,0.98781331702071
2017-06-15,1,0.000998272999146406,0.0012549298970444302,-0.008536648714716103,0.01129988684226711,0.9871670933215634
2017-06-19,1,0.0013754056495411116,0.0017138362836317672,-0.006417514573989941,0.009797685414983937,0.9880625113314245
2017-06-21,1,0.00042784797106440974,0.0006251261819606261,-0.006088981632406397,0.009797685414983937,0.9896777846386717
2017-06-23,1,0.0012713075530487998,0.0015614231814570475,-0.005828915081724868,0.009797685414983937,0.9911921812571423
2017-06-27,1,0.0015970470037307111,0.0018892239956030574,-0.005828915081724868,0.008610394111314337,0.9921742210844152
2017-06-29,1,0.0012673557332259645,0.0015204709637514314,-0.004795839568621167,0.008610394111314337,0.9925886977158764
2017-07-03,1,0.0023530098973632563,0.002794238046003985,-0.005828915081724868,0.007557169118015988,0.9931094375084987
2017-07-06,1,0.0024684617402957344,0.002946978440995891,-0.0061611016733729125,0.007557169118015988,0.9924833441952505
2017-07-10,1,0.0029666431449800576,0.0035302413615135556,-0.0061611016733729125,0.007557169118015988,0.9926272790746025
2017-07-12,1,0.00307044348640221,0.003653511630604872,-0.0061611016733729125,0.006354816037718614,0.9924395945390181
2017-07-14,1,0.0032818063065693207,0.0038971537299063337,-0.0061611016733729125,0.006354816037718614,0.9921506357596325
2017-07-18,1,0.002892150880497159,0.0033975227480208736,-0.006977383485771504,0.006354816037718614,0.9921382653803653
2017-07-20,1,0.002730562547566735,0.0032142104160657417,-0.007335486542070993,0.006354816037718614,0.9918145611622229
2017-07-24,1,0.003117930908867477,0.003627254474807181,-0.007335486542070993,0.005698091001689268,0.9931779007100476
2017-07-26,1,0.003443001775323556,0.003985692679823883,-0.007335486542070993,0.004884657157650072,0.9930622592510171
2017-07-28,1,0.003174942745408785,0.003651085819029546,-0.007335486542070993,0.00555839446903858,0.9928098317606566
2017-08-01,1,0.0031146557012040567,0.0035813103545511054,-0.008592525769335758,0.0037367023536731114,0.9925412473345211
2017-08-03,1,0.002504304469841281,0.002878156327599848,-0.005518521007802531,0.0061048012165959556,0.9914305767382654
2017-08-07,1,0.002673187076101863,0.0030723401897117036,-0.005518521007802531,0.008410220678399407,0.990405026792643
2017-08-09,1,0.0018308530730218966,0.0020635014969392802,-0.005518521007802531,0.008410220678399407,0.990563077739228
2017-08-11,1,0.0007977785114840173,0.0008264513219577988,-0.004640068220912485,0.008410220678399407,0.9916907899302004
2017-08-15,1,0.0008878074108085138,0.0009425842344824736,-0.0027726959338648556,0.010473790052859214,0.9918104209542252
2017-08-17,1,0.0002162367766634015,0.0002811831819430698,-0.0027726959338648556,0.010473790052859214,0.991346991759672
2017-08-21,1,0.0005984476319989692,0.0006085393418048044,-0.0027726959338648556,0.010473790052859214,0.991325472349126
2017-08-23,1,0.000202701568489293,0.00026146686183700445,-0.0002188531309107533,0.010473790052859214,0.9913402932417014
2017-08-25,-1,-0.0008304840381112649,-0.000566808245175073,0.0007615739029419149,0.011422919661570052,0.9877610818829179
2017-08-29,-1,-0.0008629559142943876,-0.000625028708730144,0.0007615739029419149,0.013520238954026268,0.9868514408061668
2017-08-31,1,0.0007034459876371061,0.0007760886165216735,-6.65120987771147e-05,0.008479726559934196,0.9898451261143908
2017-09-05,1,0.0012356812226034064,0.0012703959886845519,-0.0017327802011013653,0.005940889378644708,0.9905567207589961
2017-09-07,1,0.0006313189040250352,0.0007506327483299965,-0.0011798796240279964,0.005940889378644708,0.990907639264616
2017-09-11,1,0.0008321844314976861,0.000901826070395498,-0.0017327802011013653,0.006245376511153811,0.990322831645724
2017-09-13,1,0.0013503552842413918,0.0013740559907045981,-0.001742871652907463,0.005456869371192358,0.9908743446809238
2017-09-15,1,0.0009313701179156247,0.0009523891797097101,-0.0025212837004193822,0.0043045558545154895,0.9915370772494646
2017-09-19,1,0.0013669932923068644,0.0014388532458940962,-0.0025212837004193822,0.003740942623745371,0.9915545167513456
2017-09-21,1,0.0007805510856894554,0.0008436442288281008,-0.0034046050849669777,0.002619381910305467,0.991378775747259
2017-09-25,1,0.002509164272820231,0.0026713499488501017,-0.0037591818129323134,0.002181190921865794,0.9937365135355067
2017-09-27,1,0.0030423093743876233,0.0033041055167663492,-0.0037591818129323134,0.002181190921865794,0.9944725530615833
2017-09-29,1,0.003263292723459945,0.0035670366495678136,-0.00494501786955925,0.002181190921865794,0.9940379572194575
2017-10-03,1,0.0029882692697589274,0.0032149584121432236,-0.00494501786955925,0.002503164134682717,0.9945459925746534
2017-10-05,1,0.0031829228962336927,0.003484082266759763,-0.005855331547002464,0.00431710240697343,0.9933486196914688
2017-10-09,1,0.002760308167463708,0.002966663318615817,-0.005855331547002464,0.002503164134682717,0.9931928085612916
2017-10-11,1,0.0034304634429615055,0.0038464262777558544,-0.007048668146028926,0.002503164134682717,0.9920036526548568
2017-10-13,1,0.0031252549505506057,0.0034927516735358166,-0.00824844288412303,0.00431710240697343,0.9917066300042312
2017-10-17,1,0.003002972854514681,0.0033522008323629013,-0.008886814112250827,0.00431710240697343,0.9906155935978256
2017-10-19,1,0.0023221437916513014,0.002544834173866088,-0.008886814112250827,0.00431710240697343,0.9909281972468057
2017-10-23,1,0.0019455878301405153,0.0021255203432488435,-0.00899084321612234,0.003146573824000202,0.9908671056639113
2017-10-25,1,0.0013861386133860922,0.0014505405103202081,-0.011415044404217029,0.002112987940358307,0.9903647851868843
2017-10-27,1,0.0012823654295818963,0.0013221245207374961,-0.011415044404217029,0.0011622579539397704,0.9909677824832755
2017-10-31,1,0.0005983303664452537,0.0007157367514579515,-0.011415044404217029,0.0004249874162345137,0.9906623764232142
