JNU-Tangyin/eata/results/Batch4_SP500/Batch4_SP500-DHI.csv
Date,Action,Predicted_Q25,Predicted_Q75,Actual_Q25,Actual_Q75,RL_Reward
2010-12-14,0,0.0,0.0022575556291643886,-0.009214316183629268,0.031417963147280493,0.9797001255295066
2010-12-16,-1,-0.0006444185682498019,-0.0005368642426821354,-0.0033815092226363694,0.03220079526700853,0.9785516405901519
2010-12-20,1,0.0013297454489474322,0.0015252317658260653,-0.01613002241933204,0.03132726564355557,0.9790383267269647
2010-12-22,1,0.001511030778192922,0.001729740267830565,-0.019466379485506564,0.023770597690376094,0.9797313910553718
2010-12-27,1,0.0002414530514387625,0.0002558588162103109,-0.013704717266053993,0.022802938640979334,0.9808519918865414
2010-12-29,1,0.00023994768887760327,0.00030949443313206055,-0.013704717266053993,0.022802938640979334,0.9803846591732127
2010-12-31,-1,-0.0008784160304383033,-0.0007526739851482151,-0.018830774708227346,0.022802938640979334,0.9793807637018845
2011-01-04,-1,-0.0009675329415913354,-0.0008119318056224493,-0.014542531578446623,0.018184142958533524,0.9816282713750661
2011-01-06,0,0.0,0.0,-0.018830774708227346,0.007791037928246912,0.9828844630873885
2011-01-10,0,0.0,0.0,-0.01497455944924497,0.018184142958533524,0.982293522159159
2011-01-12,0,0.0,0.0,-0.01497455944924497,0.009266190286358634,0.9833091998289856
2011-01-14,0,0.0,0.0,-0.01497455944924497,0.007880514229603954,0.984193042209319
2011-01-19,1,0.007755964124041334,0.008463612371231763,-0.013853693284118774,0.01094796044228928,0.9844451175875182
2011-01-21,0,0.0,0.0,-0.011854407930293024,0.013521645018821356,0.9852650944950884
2011-01-25,0,0.0,0.0,-0.0146496592420623,0.01094796044228928,0.9829570978319901
2011-01-27,0,0.0,0.0,-0.013853693284118774,0.01094796044228928,0.9843190362665024
2011-01-31,0,0.0,0.0,-0.013853693284118774,0.01094796044228928,0.9839151813117771
2011-02-02,1,0.006340751758487504,0.006710667237889289,-0.01199841722055914,0.012288034765229387,0.9835358966649971
2011-02-04,1,0.0006945775569670585,0.0007074355040094873,-0.011262940553299843,0.012288034765229387,0.9836962438043795
2011-02-08,1,0.0016480409881057718,0.0016937018056197486,-0.011262940553299843,0.01094796044228928,0.9834798613793337
2011-02-10,1,0.0020755889536218483,0.0022639332199786344,-0.01142210609036088,0.01094796044228928,0.983315628893761
2011-02-14,0,0.0,0.0,-0.012546630570850287,0.01110002624545199,0.9821483182210172
2011-02-16,0,0.0,0.0,-0.01534705305486694,0.013404334560742597,0.9813698578809213
2011-02-18,1,0.0002827737800550218,0.0002865293449838134,-0.01534705305486694,0.013404334560742597,0.9817593254260822
2011-02-23,1,0.0014611266211149055,0.0015282075966094504,-0.012546630570850287,0.013404334560742597,0.983907598353272
2011-02-25,1,0.00019275377243172073,0.0003228491037887227,-0.012546630570850287,0.015434571084113042,0.9840978355205109
2011-03-01,0,0.0,0.0,-0.012546630570850287,0.015434571084113042,0.9848199834913239
2011-03-03,1,0.0004588468619876984,0.0008333146158363103,-0.015526907221059687,0.011415539031098204,0.9849195328651851
2011-03-07,0,0.0,0.0,-0.015526907221059687,0.011415539031098204,0.9849964896705452
2011-03-09,-1,-0.0005613129849962427,-0.00030998596718402247,-0.016708665195996474,0.010698298533468712,0.9862171278933396
2011-03-11,-1,-0.0016400105115350683,-0.0012387247386936083,-0.016708665195996474,0.012331807755457204,0.9863331717254876
2011-03-15,-1,-0.00145844722012314,-0.0010460853985175362,-0.016708665195996474,0.009680687212348497,0.9878087574068586
2011-03-17,-1,-0.0017171558659265865,-0.001305245748932592,-0.015693286920155404,0.008744019188778497,0.9887341277885198
2011-03-21,-1,-0.0012220088321486912,-0.0008522272869452814,-0.015693286920155404,0.009481408199379086,0.9885497738262244
2011-03-23,-1,-0.0027661581007901222,-0.0021837398638872513,-0.008974439628249549,0.01148479776293114,0.9873856604470794
2011-03-25,-1,-0.001880484201475412,-0.001415819387242084,-0.0149522248038313,0.010960332902738215,0.9874408367021547
2011-03-29,-1,-0.001424584627776446,-0.001082573985456529,-0.0149522248038313,0.010960332902738215,0.9875046499492343
2011-03-31,0,0.0,0.0,-0.008270774313664107,0.01148479776293114,0.9869459072750957
2011-04-04,0,0.0,0.0,-0.014243533644016303,0.01148479776293114,0.9864289113187418
2011-04-06,1,0.0008116766520379684,0.0009570945233801607,-0.008088454412276104,0.010960332902738215,0.9879886594270709
2011-04-08,0,0.0,0.0,-0.011059302753935726,0.010598404884895832,0.9873619289343957
2011-04-12,-1,-0.002231580254308023,-0.0016246487847417135,-0.014126366876746883,0.010598404884895832,0.9871645341646851
2011-04-14,-1,-0.0036704102823119852,-0.0028491592430234035,-0.01322198399409715,0.010598404884895832,0.987104174194542
2011-04-18,-1,-0.004058194472998138,-0.0031091113330479286,-0.014126366876746883,0.008898737074162843,0.9867394624566156
2011-04-20,0,0.0,0.0,-0.014126366876746883,0.008548670672537367,0.9870544128089597
2011-04-25,0,0.0,0.0,-0.01322198399409715,0.006467057345125038,0.9876010192005733
2011-04-27,-1,-0.000803056055368527,-0.00035368614139775914,-0.01322198399409715,0.005832244697988381,0.988071745872468
2011-04-29,1,0.0011017219347298106,0.0012559380687590064,-0.01322198399409715,0.006764871382847045,0.9875139280211626
2011-05-03,0,-0.0003311062766763386,2.3322133328730426e-05,-0.011498279190782388,0.0106802111045073,0.9881631811214454
2011-05-05,-1,-0.00041595117027632095,-3.929943337775796e-05,-0.013196008802169748,0.0106802111045073,0.9870241997237298
2011-05-09,-1,-0.001135025684735594,-0.00068156947098561,-0.01502585574098108,0.0106802111045073,0.9860241253378681
2011-05-11,-1,-0.001954876134171478,-0.0014094860717565802,-0.017352173535709354,0.011265888666999044,0.9851039967244294
2011-05-13,-1,-0.0017322634584494535,-0.001316413924069103,-0.017352173535709354,0.013356948076830525,0.9848392727238358
2011-05-17,-1,-0.0006409607933359415,-0.00044214161334946937,-0.017712100305330068,0.013356948076830525,0.9840720054154538
2011-05-19,1,9.531048934082305e-05,0.00022875581605062245,-0.017712100305330068,0.013356948076830525,0.9839614595732938
2011-05-23,-1,-0.0009522485415264473,-0.0006517716477682085,-0.017712100305330068,0.013616474577495947,0.9834079639420527
2011-05-25,-1,-0.0016755503932884862,-0.0012909696681461342,-0.015326626941556773,0.014143431818597493,0.9831750464643708
2011-05-27,1,0.0002802432400784091,0.00042751553766906953,-0.017132517275085885,0.013532783163388767,0.983702360308256
2011-06-01,0,0.0,0.0,-0.020399922623531755,0.013097604249022829,0.9830553566073864
2011-06-03,0,0.0,0.0,-0.017132517275085885,0.01349006683514564,0.9834490944291989
2011-06-07,-1,-0.00025571782579798515,-0.00015237949300049255,-0.005740519536573689,0.01349006683514564,0.9850684723574848
2011-06-09,-1,-0.0011290804495655473,-0.001114099425679342,0.0020730785495006615,0.013931591419760934,0.985305274398501
2011-06-13,-1,-0.0009636057295049553,-0.0009469416632486348,-0.004284515828375087,0.013931591419760934,0.985016893544066
2011-06-15,-1,-0.0010866874589898845,-0.0010329353233188066,-0.004284515828375087,0.01349006683514564,0.9869990976944878
2011-06-17,0,0.0,0.0,-0.006028227208003779,0.01323377963428026,0.9877167842109136
2011-06-21,0,0.0,0.0,-0.007835898407725679,0.01336671571973765,0.9858952175914024
2011-06-23,-1,-0.0019463655879355048,-0.0018396593520733423,-0.007835898407725679,0.01336671571973765,0.985478726420726
2011-06-27,-1,-0.0001386601319850023,-6.980248165464154e-05,-0.009335712144329211,0.010385772184571115,0.9863717012420806
2011-06-29,0,0.0,0.0,-0.009335712144329211,0.01336671571973765,0.9860753143725952
2011-07-01,0,0.0,0.0,-0.010254482271872645,0.00421809870780904,0.9867787302930965
2011-07-06,0,0.0,0.0,-0.011273079170518186,0.003012810738447343,0.9851517925118032
2011-07-08,0,0.0,0.0,-0.012697769440707798,-0.0014761811138356588,0.9827603302480604
2011-07-12,0,0.0,0.0,-0.012697769440707798,7.89163478436927e-06,0.9802077779973996
2011-07-14,0,0.0,0.0,-0.01768712650063025,0.0027495598549937134,0.9771741553004859
2011-07-18,0,0.0,0.0,-0.013834409185282967,0.009071796717898081,0.9758336336655529
2011-07-20,0,0.0,0.0,-0.015901817736811423,0.003408411948405035,0.9779420739538071
2011-07-22,0,0.0,0.0,-0.023482351464112476,-0.0004759611761676794,0.9753384732762196
2011-07-26,0,0.0,0.0,-0.023482351464112476,0.0007845118110464012,0.9761960320511609
2011-07-28,0,0.0,0.0,-0.022446010448084086,0.003408411948405035,0.9749103204207291
2011-08-01,0,0.0,0.0,-0.022446010448084086,0.009695910401136657,0.9720306057276529
2011-08-03,0,0.0,0.0,-0.015556370731468623,0.019481363415431344,0.9723790370436434
2011-08-05,0,0.0,0.0,-0.020423687072414987,0.019481363415431344,0.9734216295747846
2011-08-09,0,0.0,0.0,-0.020423687072414987,0.028518801304316162,0.9741982108432784
2011-08-11,0,0.0,0.0,-0.022473998589742788,0.019481363415431344,0.9749866647658287
2011-08-15,0,0.0,0.0,-0.022473998589742788,0.009695910401136657,0.9764410943940276
2011-08-17,-1,-0.003617568427163004,-0.0034047964248511754,-0.022473998589742788,0.016175444972237857,0.976574441062857
2011-08-19,-1,-0.005859852242137227,-0.005404322708015114,-0.016595541651242596,0.016175444972237857,0.979139009102307
2011-08-23,-1,-0.006086426010815313,-0.005549482557356259,-0.016595541651242596,0.01845152071114325,0.9779163780085398
2011-08-25,-1,-0.0030261717447810942,-0.002841687561080295,-0.022473998589742788,0.009443991683188439,0.9789481785649521
2011-08-29,0,-4.531515488343473e-06,0.0001510663209307904,-0.022473998589742788,0.00867322762622002,0.9804684690142054
2011-08-31,0,0.0,0.0,-0.022929803538668754,0.00867322762622002,0.9787963849652462
2011-09-02,0,0.0,0.0,-0.025775194994698748,0.00867322762622002,0.9761845136767764
2011-09-07,0,0.0,0.0,-0.024557733269847778,0.0176957645572986,0.9753949322105846
2011-09-09,0,0.0,0.0,-0.015006885099960829,0.0176957645572986,0.9767568652719247
2011-09-13,-1,-0.0026326840681776863,-0.00241896785631218,-0.013992929251123666,0.024892940042536074,0.9739966965303217
2011-09-15,0,0.0,0.0,-0.01655286447739653,0.02678577663590722,0.9731669625738024
2011-09-19,0,0.0,0.0,-0.021167216455308367,0.02678577663590722,0.9714308997533209
2011-09-21,0,0.0,0.0,-0.021167216455308367,0.030593055965967803,0.9677710287275921
2011-09-23,0,0.0,0.0,-0.01655286447739653,0.030593055965967803,0.968867568518171
2011-09-27,-1,-0.004021173283662176,-0.0037225690347091316,-0.020451485200451144,0.03241758085400899,0.9661489466721734
2011-09-29,0,0.0,0.0,-0.01655286447739653,0.033898514981733394,0.9669715638179441
2011-10-03,0,0.0,0.0,-0.01630450140210113,0.033898514981733394,0.9692847411085634
2011-10-05,0,0.0,0.0,-0.017183228090816224,0.02786779545320399,0.9707125975509853
2011-10-07,0,0.0,0.0,-0.017183228090816224,0.027997512073794237,0.9708446491986453
2011-10-11,-1,-0.0006571033004018575,-0.0006552338672411669,-0.017183228090816224,0.02698738471591343,0.9718887449355198
2011-10-13,-1,-0.0008003482692979687,-0.0007086853605893263,-0.017867377277941937,0.02698738471591343,0.9701361962016347
2011-10-17,-1,-0.0019800584916278663,-0.0019022118111537867,-0.016989309393768026,0.02698738471591343,0.9709850342963832
2011-10-19,1,0.000897815132660884,0.0012755811605228557,-0.016989309393768026,0.025556589546428084,0.9758586602149592
2011-10-21,0,0.0,0.0,-0.01741387615203979,0.025556589546428084,0.976029758356865
2011-10-25,0,0.0,0.0,-0.016989309393768026,0.021241246384108545,0.9789897040475131
2011-10-27,0,0.0,0.0,-0.01741387615203979,0.014267288624025353,0.97988871485425
2011-10-31,0,0.0,0.0,-0.01606828527719371,0.020952418241304956,0.9807912404160367
2011-11-02,1,0.005058354889390991,0.005714786910842148,-0.009926718387548142,0.020952418241304956,0.9810480890022022
2011-11-04,0,0.0,0.0,-0.009926718387548142,0.020952418241304956,0.9789890727809317
2011-11-08,1,0.003950878362767606,0.004611574475586716,-0.009926718387548142,0.014267288624025353,0.9808748217691422
2011-11-10,1,0.0034955013841331192,0.004139546294376198,-0.009926718387548142,0.014267288624025353,0.9814701447384632
2011-11-14,1,0.0028519847127040244,0.003448787376553209,-0.007295673574740506,0.014267288624025353,0.9808804509425567
2011-11-16,1,0.003944527841331287,0.004658291726042057,-0.01054940442818361,0.014327370094601093,0.9790093019373103
2011-11-18,1,0.002843892742992111,0.003362437372226721,-0.01100000540415446,0.014327370094601093,0.9795053549256898
2011-11-22,1,0.0034910803189381174,0.004154209589395737,-0.0075146616710545615,0.029908094789410852,0.9767238397608888
2011-11-25,0,0.0,0.0,-0.0091933246608894,0.029908094789410852,0.9768840413872811
2011-11-29,0,0.0,0.0,-0.01410934144041416,0.02179564330283479,0.9778067139485228
2011-12-01,0,0.0,0.0,-0.01410934144041416,0.02179564330283479,0.9779084905923874
2011-12-05,1,0.009736658580677283,0.011209465255180087,-0.01410934144041416,0.02179564330283479,0.9779416077177704
2011-12-07,0,0.0,0.0,-0.020086043610378516,0.02179564330283479,0.9771146507803672
2011-12-09,1,0.005405992302034139,0.006254456383292039,-0.01410934144041416,0.02179564330283479,0.9784017144042162
2011-12-13,0,0.0,0.0,-0.01068951683534643,0.028453673212562383,0.9781623276402993
2011-12-15,0,0.0,0.0,-0.011663327735215135,0.028453673212562383,0.978874413700625
2011-12-19,1,0.00459837930285074,0.005491403948984993,-0.010528694432068924,0.028453673212562383,0.9790778364830922
2011-12-21,1,0.0069864401661291296,0.008183964902575107,-0.011663327735215135,0.02044676987737443,0.9812853950214083
2011-12-23,1,0.005540675989502671,0.0064669165733696275,-0.010528694432068924,0.02616569655252449,0.9818343635658004
2011-12-28,1,0.0036932870499720213,0.0041943145506061945,-0.010528694432068924,0.02616569655252449,0.9807019683722814
2011-12-30,1,0.0030106185630684695,0.0033293949572938387,-0.01271941445781952,0.02082085950624752,0.9812015660863358
2012-01-04,1,0.00395154797025446,0.004366550376591843,-0.01271941445781952,0.01849996063226198,0.9823944538649046
2012-01-06,1,0.003888076757034333,0.0043730188307545305,-0.012208052947328865,0.02082085950624752,0.9821485925995621
2012-01-10,1,0.0047705676043570885,0.005319655248156046,-0.012208052947328865,0.017412028302372318,0.9834545080881893
2012-01-12,1,0.004590938999532768,0.004948390103662039,-0.012885117900982868,0.0133700091194025,0.9846044185715787
2012-01-17,1,0.0030530935398705196,0.003211123196956236,-0.011757074727380561,0.017412028302372318,0.9848987984191532
2012-01-19,1,0.004698582520863033,0.005182697658193512,-0.011757074727380561,0.0133700091194025,0.985647155742751
2012-01-23,1,0.004889250839552912,0.005500393771730675,-0.011757074727380561,0.0133700091194025,0.984390947738233
2012-01-25,1,0.005753535343815884,0.0065296796572879914,-0.011757074727380561,0.009842862005740123,0.984806656194308
2012-01-27,1,0.004243074840500216,0.004686092612552338,-0.011757074727380561,0.009842862005740123,0.9859629725287025
2012-01-31,1,0.003768354523971843,0.004210262368892946,-0.011757074727380561,0.013287260279197688,0.9853813547924883
2012-02-02,1,0.003134367548300921,0.003327761153841485,-0.012481915476538388,0.010917473192826033,0.9842590060148291
2012-02-06,0,0.0,0.0,-0.012481915476538388,0.0038784377837545203,0.9860047133993557
2012-02-08,0,0.0,0.0,-0.012481915476538388,0.01703282391030099,0.9828629624639258
2012-02-10,1,0.0036221697762828377,0.0037363358873398513,-0.01206918880871277,0.02092687103404957,0.979450371455608
2012-02-14,1,0.0038644869197532127,0.004003569661202024,-0.01206918880871277,0.01757226211841442,0.9801490619708801
2012-02-16,1,0.002277849825995934,0.0024194717716352733,-0.01376820832313365,0.021686978269596462,0.9786419238972279
2012-02-21,0,0.0,0.0,-0.012123382560546906,0.021686978269596462,0.9794873605719161
2012-02-23,0,0.0,0.0,-0.01376820832313365,0.021686978269596462,0.9793385834557422
2012-02-27,0,0.0,0.0,-0.0131797047879559,0.020661226268173172,0.9808111669402327
2012-02-29,0,0.0,0.0,-0.01187302096365352,0.01843151014165237,0.982066409652844
2012-03-02,0,0.0,0.0,-0.012519164482376086,0.01843151014165237,0.9811901800657685
2012-03-06,0,0.0,0.0,-0.012107869895919676,0.01843151014165237,0.9819336116151253
2012-03-08,1,0.0006788367304146439,0.001051561952833037,-0.015163647187794923,0.009890241491244471,0.9831189411764538
2012-03-12,0,0.0,0.0,-0.017869442544165108,0.0027057866441944816,0.9825044293321087
2012-03-14,0,0.0,0.0,-0.017869442544165108,0.01216693412697379,0.9798331503822053
2012-03-16,0,0.0,0.0,-0.01870943332662303,0.0027057866441944816,0.9808743142332851
2012-03-20,1,0.0037438973945854515,0.003937304469203602,-0.01870943332662303,0.010717734825612509,0.9791562492326678
2012-03-22,0,0.0,0.0,-0.017151562520062433,0.01768740830870567,0.9781626549023322
2012-03-26,0,0.0,0.0,-0.018828401446711964,0.024333451747887747,0.9756798435584578
2012-03-28,0,0.0,0.0,-0.018828401446711964,0.02833549198600448,0.9753278442078037
2012-03-30,0,0.0,0.0,-0.017151562520062433,0.02833549198600448,0.9760114868337763
2012-04-03,0,0.0,0.0,-0.017151562520062433,0.03138971093391246,0.9745825387850111
2012-04-05,0,0.0,0.0,-0.016643798184105517,0.03138971093391246,0.9753858408669789
2012-04-10,0,0.0,0.0,-0.013096816245438878,0.02833549198600448,0.9786748279680354
2012-04-12,1,0.4993635657553069,0.5072823778158574,-0.016643798184105517,0.024036113164108395,0.6677113997377636
2012-04-16,0,0.0,0.0,-0.014216934548883309,0.024036113164108395,0.9797485398252566
2012-04-18,0,0.0,0.0,-0.01583186083207885,0.02592561917663474,0.9790387796713432
2012-04-20,0,0.0,0.0,-0.01583186083207885,0.023554299601782697,0.9793641192308207
2012-04-24,0,0.0,0.0,-0.013965019415149953,0.023554299601782697,0.9801643877170413
2012-04-26,0,0.0,0.0,-0.013965019415149953,0.0194925486376795,0.9803967194783253
2012-04-30,0,0.0,0.0,-0.013965019415149953,0.019934273116034025,0.9803852315742858
2012-05-02,0,0.0,0.0,-0.01583186083207885,0.01666749748244732,0.9806211475175827
2012-05-04,0,0.0,0.0,-0.016182920303625566,0.01666749748244732,0.9760556989305615
2012-05-08,1,0.002519262936173004,0.0025970047065605245,-0.016182920303625566,0.024879473036846265,0.9744323755434099
2012-05-10,1,0.002645428067458079,0.002721004206752609,-0.013965019415149953,0.024879473036846265,0.9754344121977795
2012-05-14,1,0.0017920540035550937,0.0020045447983467073,-0.021547202603547876,0.024879473036846265,0.9745083729462265
2012-05-16,1,0.0037376276362994496,0.003920937552187162,-0.02161930006792734,0.025079297297185735,0.9738703041661418
2012-05-18,1,8.70803717199786e-05,0.0004173283725493655,-0.010041441336727259,0.026709167234685166,0.974377357380079
2012-05-22,1,0.001037976037602903,0.0013299791936743064,-0.010041441336727259,0.025079297297185735,0.9755283759506826
2012-05-24,1,0.0024712348114833494,0.002555081229129846,-0.01862271471534241,0.025079297297185735,0.9753109987294725
2012-05-29,1,0.0038179847994229154,0.003985929713716472,-0.01862271471534241,0.026765400746147423,0.9748747038641524
2012-05-31,1,0.0012430275322513067,0.0014204862759525315,-0.009403430841441018,0.026765400746147423,0.9758907299938131
2012-06-04,-1,-0.0040317914390299026,-0.0032967881218276436,0.0008568111305584043,0.028819893762118173,0.9769837668009269
2012-06-06,-1,-0.0003740830251155447,-0.00017495283051357732,-0.003294877824868537,0.024421516415056865,0.9796802163991987
2012-06-08,1,0.0003209705648957292,0.000513139576926535,-0.003294877824868537,0.022601137014269884,0.9814830106628202
2012-06-12,-1,-0.0011160463485548363,-0.0007922432845325878,-0.00859083466498311,0.022601137014269884,0.9803981935707027
2012-06-14,-1,-0.0005845348377389366,-0.0002901805913961736,-0.0004824126739201534,0.022601137014269884,0.9809518759325663
2012-06-18,1,0.0026227786138156408,0.0028333511645712425,-0.00859083466498311,0.019080268870940918,0.9835235874023283
2012-06-20,1,0.002510510728596381,0.0026832706771976814,-0.01115358725367541,0.019080268870940918,0.9833390656659131
2012-06-22,1,0.0006832893783125262,0.0008154250720114121,-0.008166800101201643,0.022255832514800795,0.9830656630795045
2012-06-26,1,0.001920174275166951,0.001931800133441526,-0.012758424744870312,0.01902258809703748,0.9825294022953885
2012-06-28,1,0.003452187801282732,0.00370682242087917,-0.015251688562112618,0.01902258809703748,0.9808537942219895
2012-07-02,1,0.00513604358788497,0.005599443059935752,-0.02004649043416587,0.012512360868910154,0.981005985568959
2012-07-05,1,0.005294584284924286,0.0057209093949257646,-0.02055858343692043,0.012074597939202498,0.980875467846251
2012-07-09,1,0.005794966065756557,0.0063062039896486476,-0.02055858343692043,0.012074597939202498,0.9800575003983741
2012-07-11,1,0.0031339272950640755,0.0032614206971051996,-0.016417785204524728,0.01665077809329455,0.9821413323796608
2012-07-13,1,0.004188305523329864,0.0043594396972266745,-0.02055858343692043,0.013921655461070744,0.9816648779649958
2012-07-17,1,0.003690289516910224,0.003815825998863469,-0.02055858343692043,0.013921655461070744,0.9825962507615084
2012-07-19,1,0.0033553901803827883,0.0034452918202247766,-0.02055858343692043,0.016677006131519873,0.9806108696830179
2012-07-23,1,0.00454165001059222,0.004779594374072985,-0.021139824453887582,0.013921655461070744,0.9801698004427538
2012-07-25,1,0.0007692418227978489,0.0010884820049049861,-0.016417785204524728,0.016677006131519873,0.980834595666031
2012-07-27,1,0.0004429139681298409,0.0008864550080555211,-0.012772564797907525,0.013921655461070744,0.9829728394797
2012-07-31,-1,-0.00034406294399551827,-5.54897610791842e-06,-0.011684719623063288,0.013921655461070744,0.9838601038973676
2012-08-02,1,0.0014846875790908564,0.0015128789122642596,-0.011441687819485593,0.01247475212063384,0.9853545595937694
2012-08-06,1,0.0010604408160478204,0.0011328114724630995,-0.009412918277349126,0.01438564642900372,0.9845137166375136
2012-08-08,1,0.0026608326738841864,0.002826455417469867,-0.009412918277349126,0.01556353041796188,0.984508515329195
2012-08-10,1,0.0017421164065501967,0.0017505752824924174,-0.009412918277349126,0.011852357316583255,0.9857722655986189
2012-08-14,1,0.0015161248704049007,0.0016101470317198383,-0.009412918277349126,0.016183602263445805,0.9844859530870598
2012-08-16,1,0.0033854348143930843,0.00362146399789846,-0.006975248833994078,0.026705727916170992,0.984325298964299
2012-08-20,1,0.0024189031316896627,0.002575611737827271,-0.009182689346900547,0.026705727916170992,0.9841665513885001
2012-08-22,1,0.002616507130719229,0.0026940100844166748,-0.007467017554157057,0.026705727916170992,0.9844985787989078
2012-08-24,1,0.0015048207940216675,0.001630361374049016,-0.007467017554157057,0.026705727916170992,0.9845697233260466
2012-08-28,-1,-0.001097883418265556,-0.0005481111936800028,-0.011363447310869405,0.026705727916170992,0.9830290379327506
2012-08-30,-1,-0.0009952413924877136,-0.00048326912957041466,-0.013512768691927041,0.026705727916170992,0.9826872333392779
2012-09-04,1,0.0025124266828244427,0.0025716512261997134,-0.013512768691927041,0.016559682679544226,0.9838737209193871
2012-09-06,1,0.00260485983414305,0.002617064398344672,-0.013512768691927041,0.016559682679544226,0.9824879201631911
2012-09-10,1,0.0015937035938885277,0.0017525735822299588,-0.014764988848409672,0.016559682679544226,0.9815573444779497
2012-09-12,1,0.0038234532124080877,0.0040344951986223225,-0.01508047782808301,0.006394717132083401,0.9811287877633643
2012-09-14,1,0.006278869945910006,0.006818160934028963,-0.016593039140987795,0.002283738233736739,0.9803034088656823
2012-09-18,1,0.005386105195780137,0.005877633111927137,-0.01508047782808301,0.004000487041672157,0.9812515638833486
2012-09-20,1,0.006553376649107183,0.007218935923348496,-0.01508047782808301,0.004000487041672157,0.9806308429650025
2012-09-24,1,0.007183132320956257,0.008058738298023862,-0.01508047782808301,0.002283738233736739,0.980315784539616
2012-09-26,1,0.0040116676697806615,0.0043509644262630836,-0.015069604729367208,0.004000487041672157,0.9838082585168101
2012-09-28,1,0.003119189224850184,0.003317192440749452,-0.015876488952476366,0.004000487041672157,0.9833560680299629
2012-10-02,1,0.003052763361290399,0.003271595329342006,-0.015876488952476366,0.011018655408264072,0.9813492891255148
2012-10-04,1,0.005432538147330892,0.005957155036303067,-0.016076790581898783,0.011018655408264072,0.9804101934346251
2012-10-08,1,0.004004444325960875,0.004360536088636294,-0.014475485205802184,0.011018655408264072,0.9819653608112343
2012-10-10,1,0.0016699524881501296,0.0017668391912120632,-0.016044171285751377,0.011018655408264072,0.9820818421201473
2012-10-12,1,0.0007983555139633985,0.0009357999880862224,-0.016044171285751377,0.011018655408264072,0.9810487752963036
2012-10-16,1,0.0030097696517722788,0.003220364508771544,-0.01684592902081927,0.005671103771435223,0.9795035907648554
2012-10-18,1,0.004429213348952124,0.004819336406029984,-0.01684592902081927,0.007170402194959641,0.9799694117355079
2012-10-22,1,0.002828856284566882,0.0028969128906009044,-0.01684592902081927,0.011018655408264072,0.9798776530442465
2012-10-24,-1,-0.0015684474342521518,-0.0008341131488169375,-0.01684592902081927,0.007170402194959641,0.9819843249634913
2012-10-26,-1,-0.001963473999839015,-0.0013037331532235888,-0.014083970840444372,0.007170402194959641,0.9826497841666094
2012-11-01,1,0.0010827449257673114,0.0013008935196543705,-0.014083970840444372,0.004849952457715892,0.9840283554583301
2012-11-05,0,-0.0004603364688644709,4.8361075141581996e-05,-0.014083970840444372,0.004172376421089134,0.9864136731868682
2012-11-07,-1,-0.0009355350752089143,-0.00041775278698662297,-0.017853009573281536,0.004607453893523582,0.9859414941921634
2012-11-09,-1,-0.001584604149143994,-0.0010858306146855191,-0.01074855400671262,0.005621755188663378,0.9861709745308187
2012-11-13,-1,-0.004113348301444254,-0.00334844481888659,-0.007779826103309128,0.0085944504551579,0.9864156679841676
2012-11-15,-1,-0.006412092833978804,-0.005332686268049678,-0.007779826103309128,0.0085944504551579,0.9875771113187432
2012-11-19,-1,-0.00493026287969681,-0.004093941695767716,-0.007779826103309128,0.008967671940353509,0.9858714564881823
2012-11-21,-1,-0.0029869799443761587,-0.0024092385455944517,-0.007779826103309128,0.0085944504551579,0.9867976163389618
2012-11-26,-1,-0.0014595278483359871,-0.0011617156034306403,-0.01042333435806037,0.0085944504551579,0.9859299268442767
2012-11-28,-1,-0.0015104345633807422,-0.0012310747608080652,-0.01037058099366181,0.0085944504551579,0.9860508470850615
2012-11-30,-1,-0.0013323967850414804,-0.0010947772850849401,-0.01353487523257307,0.0085944504551579,0.984899864801697
2012-12-04,-1,-0.004971655195526795,-0.0042043515061105825,-0.009156022843119418,0.01147347732066488,0.9844340859138816
2012-12-06,-1,-0.003516390440973607,-0.003010333389605115,-0.007768025755517693,0.01746401733359782,0.9842438041296833
2012-12-10,-1,-0.004277692537868593,-0.003688409829217806,-0.007475653756323594,0.01992035686597964,0.9845201289776769
2012-12-12,-1,-0.0025739615864617503,-0.0021690860263961142,-0.007768025755517693,0.01746401733359782,0.986254911881786
2012-12-14,-1,-0.002722010149234687,-0.0023582341386858383,-0.006769783438927168,0.01746401733359782,0.9865796005192964
2012-12-18,-1,-0.002024605178538375,-0.0016132904747223277,-0.006769783438927168,0.01099222272733048,0.9889505187478493
2012-12-20,-1,-0.0018739856863322162,-0.0014902630971037252,-0.004797463618159379,0.01099222272733048,0.98941843101222
2012-12-24,-1,-0.004265007714910417,-0.003537178864601716,-0.0038073726197899384,0.013567525690585837,0.9889463151388929
2012-12-27,-1,-0.004467942025030789,-0.003711720305167327,-0.0038073726197899384,0.013567525690585837,0.9882167918077596
2012-12-31,-1,-0.00358840423470264,-0.0029187807803894824,-0.0038073726197899384,0.013567525690585837,0.9841866867169227
2013-01-03,-1,-0.0017703670270816478,-0.001379118241297535,-0.004028968782901043,0.013567525690585837,0.98434468804173
2013-01-07,-1,-0.0008610493917071395,-0.0005589501869221798,-0.0067127916868831156,0.014461892046335665,0.982724148922489
2013-01-09,0,-7.918267109921322e-05,0.0001001018301053716,-0.012128814984603114,0.009953721042431817,0.9827227939136107
2013-01-11,0,-3.096402168820356e-05,8.630645551722352e-05,-0.011590176289421602,0.009953721042431817,0.9830336797785775
2013-01-15,-1,-0.0004934080728607501,-0.0002505792732330444,-0.011590176289421602,0.015706299988140472,0.9809304386790515
2013-01-17,1,0.0010467682126152813,0.0010561583666815395,-0.011590176289421602,0.004513503128214624,0.9814950157049405
2013-01-22,1,0.0011268981056890954,0.0011672363703374039,-0.0137362356096349,0.004513503128214624,0.9779065292338956
2013-01-24,1,0.0006589504639708155,0.0007565785162204652,-0.0137362356096349,0.007472084705960663,0.9781629678295555
2013-01-28,-1,-0.00027374323889432144,-7.877273753384764e-05,-0.0137362356096349,0.014712700845664622,0.9755600286623781
2013-01-30,1,0.0023711070941773477,0.002569119991610335,-0.013689833817415075,0.01270230413090367,0.9795078085972655
2013-02-01,1,0.0032198235873977924,0.003587400787980004,-0.012716388956640802,0.01270230413090367,0.9795221141718895
2013-02-05,1,0.0038222040506868515,0.0042115896806851705,-0.011590176289421602,0.01270230413090367,0.9808910010418487
2013-02-07,1,0.003748775355657463,0.004222100634231976,-0.007486197039602756,0.01270230413090367,0.9821097950942336
2013-02-11,1,0.0042947343754593335,0.004977507458938182,-0.010303923732019032,0.01270230413090367,0.981850074617479
2013-02-13,1,0.005189069243350642,0.005920702929712128,-0.007227957445465468,0.01687275196973358,0.9833258609471148
2013-02-15,1,0.005807838486698242,0.006737083465302112,-0.009252467441143946,0.01687275196973358,0.9832179730871922
2013-02-20,1,0.0023449761669709027,0.0027776416594928544,-0.003978646745601349,0.018791212092758067,0.9844739695889699
2013-02-22,1,0.0022194845101902085,0.002485814823277454,-0.006759556479848169,0.018791212092758067,0.9833687960040222
2013-02-26,1,0.0017835773791563037,0.0019839718451774685,-0.008236411593107762,0.01687275196973358,0.9861424127717842
2013-02-28,1,0.001638631682030514,0.0018295959446263934,-0.006759556479848169,0.011997661369257041,0.9872233276498155
2013-03-04,1,0.004489297040188489,0.005203935331490283,-0.01003890432369841,0.008200063384922499,0.9864755421537919
2013-03-06,1,0.004146787003820256,0.00472707435680189,-0.011715311069567042,0.0053383032182381124,0.9863756370781053
2013-03-08,1,0.004638442411521858,0.005216140521282478,-0.011715311069567042,0.007761540945115742,0.9856591759382533
2013-03-12,1,0.0029999954966296663,0.003265958234696876,-0.01003890432369841,0.007761540945115742,0.9864292468691137
2013-03-14,1,0.00490665859482061,0.005521452972803674,-0.01003890432369841,0.004752014663092845,0.9868792093787878
2013-03-18,1,0.005117683358385602,0.005770290871298849,-0.012884237856294558,0.007520065663436344,0.9835272945134912
2013-03-20,1,0.006474676361107942,0.0072884143116047915,-0.018466112561605033,0.004752014663092845,0.9823374185718158
2013-03-22,1,0.005130028434388644,0.005762535753942809,-0.014968557818579881,0.008016866562104905,0.9834612339324074
2013-03-26,1,0.0035948735815291644,0.003959362781458084,-0.014968557818579881,0.017299121261088915,0.9820270840206495
2013-03-28,1,0.004864355230224344,0.005468583353486203,-0.014968557818579881,0.0202762711109283,0.9778641941831892
2013-04-02,1,0.002653925940098615,0.0030386182001143134,-0.010159938331860883,0.0202762711109283,0.9783784469287548
2013-04-04,1,0.0017881856206411028,0.002030313856799307,-0.010159938331860883,0.021743603628520836,0.97699099040977
2013-04-08,1,0.0019260986234991683,0.002132498632023312,-0.010159938331860883,0.021743603628520836,0.9779851195063142
2013-04-10,-1,-0.0004050441456524283,-0.00021150961557693147,-0.007390598461640258,0.021743603628520836,0.9774217104562613
2013-04-12,-1,-0.000974594851205237,-0.0006420396744844868,-0.007390598461640258,0.021743603628520836,0.9770982668795194
2013-04-16,-1,-0.0021681075478661993,-0.0017267327749942538,-0.00520746439769051,0.0202762711109283,0.9801387680783007
2013-04-18,-1,-0.0036064162957509488,-0.0030257348564434383,-0.00520746439769051,0.0202762711109283,0.9803681495957856
2013-04-22,-1,-0.002112495149725854,-0.001706364826299217,-0.005478323215515915,0.017022988381508855,0.9813472697494512
2013-04-24,-1,-0.0004447600640221981,-0.00022808834451671007,-0.009436349877486266,0.010437336910663902,0.9841977824392589
2013-04-26,1,0.0024414318527283844,0.0025639293041394224,-0.011517320380314097,0.008173016722549905,0.9882695489195202
2013-04-30,1,0.000992599913735423,0.0011091044072076854,-0.011517320380314097,0.008173016722549905,0.9873732358973298
2013-05-02,1,0.0011523893177745458,0.0012809498963360492,-0.011337049909904317,0.008130884639727474,0.9887042689427957
2013-05-06,1,0.0003131756253078813,0.0005797724930767686,-0.0165593046856336,0.008130884639727474,0.9859671776637073
2013-05-08,1,0.001527064967380134,0.0015782042408093492,-0.0165593046856336,0.007767942873184236,0.9843497040855033
2013-05-10,1,0.0007426177458054289,0.0009473982812747967,-0.01880174071836148,0.007767942873184236,0.9839057336604173
2013-05-14,1,0.0024314991192582033,0.0025529671068643617,-0.021658706624554026,0.00015656548392300454,0.9818666906429048
2013-05-16,1,0.0012067348415209542,0.0012521216952683404,-0.01880174071836148,0.009159436748711745,0.9811155104743068
2013-05-20,1,0.0001548497692807695,0.00040270869951466407,-0.01736619489516096,0.009159436748711745,0.9821724600125157
2013-05-22,-1,-0.0009669013649173746,-0.000573007398914686,-0.0258796876351017,0.009159436748711745,0.9773510569032637
2013-05-24,-1,-0.001271348082337557,-0.0009092677945135854,-0.0258796876351017,0.009159436748711745,0.9771973937669705
2013-05-29,-1,-0.0024271080572044737,-0.0019676781752118976,-0.021869188530464996,0.009159436748711745,0.9793357634539439
2013-05-31,-1,-0.0021767730138655865,-0.0017831597637126908,-0.021869188530464996,0.010406360440723189,0.9777113427474806
2013-06-04,-1,-0.004173927627765861,-0.003570682321286959,-0.013786710434058838,0.010406360440723189,0.9797395403076479
2013-06-06,-1,-0.003994633965226112,-0.003395583643276267,-0.020160453687513572,0.008142625457567913,0.97982942345581
2013-06-10,-1,-0.004480985209136425,-0.003835942617742359,-0.021634943624287282,0.008142625457567913,0.9765535803307475
2013-06-12,-1,-0.0047896694807119475,-0.0041190556606044695,-0.013057870785907626,0.011162693488747134,0.9737141483361162
2013-06-14,-1,-0.002907308165662507,-0.002480909785082281,-0.021634943624287282,0.004831935367949037,0.9744021444071718
2013-06-18,-1,-0.0021055171287484137,-0.0017840956640708192,-0.021634943624287282,0.0015571359109027476,0.974151368264965
2013-06-20,-1,-0.008170327731342422,-0.007103925831195661,-0.013057870785907626,0.008210013172376794,0.9790581214067842
2013-06-24,-1,-0.0070240733897970024,-0.006176217825609549,-0.020405369404172594,0.012260614900711852,0.9775519714844775
2013-06-26,-1,-0.006610814069932593,-0.00581884744143219,-0.024355592274925758,0.012260614900711852,0.9732973681446065
2013-06-28,-1,-0.00422433912597678,-0.003754670427484149,-0.024355592274925758,0.012043256524248796,0.9743676334557722
2013-07-02,-1,-0.005266207407577988,-0.004638659756563563,-0.024355592274925758,0.017622320191054284,0.9735047905627227
2013-07-05,-1,-0.006761520063123864,-0.005949548033720797,-0.022510055493990124,0.017622320191054284,0.9739533154467868
2013-07-09,-1,-0.0037298270061212543,-0.0033527505320202064,-0.02063883544356685,0.014466874610034678,0.9776696883111564
2013-07-11,-1,-0.0009865716677862153,-0.0009197905357320737,-0.022510055493990124,0.011002465565154522,0.9807847401072617
2013-07-15,-1,-0.005232215407565349,-0.004537615997258589,-0.02063883544356685,0.011002465565154522,0.9830654417900394
2013-07-17,-1,-0.0035084443693220125,-0.003060448652201023,-0.022510055493990124,0.005598975749085722,0.9831435477569668
2013-07-19,-1,-0.0039332847634227655,-0.003438990168784491,-0.02063883544356685,0.005598975749085722,0.9821755995492213
2013-07-23,-1,-0.004553917385261283,-0.003996123645677304,-0.02115628804332565,0.006406848444347683,0.9803346590805311
2013-07-25,-1,-0.00783211142777303,-0.0069916959825533035,-0.015790228433235323,0.014466874610034678,0.9830890092794838
2013-07-29,-1,-0.006798489669951476,-0.006122125554646304,-0.01892524309233722,0.006406848444347683,0.9834853726249521
2013-07-31,-1,-0.005107401278746237,-0.0046694724490602005,-0.02115628804332565,-0.000668868302797434,0.9833135630567187
2013-08-02,-1,-0.00482923300088026,-0.004391655828005318,-0.025335670783387776,-0.0018660852318783828,0.9812752336743013
2013-08-06,-1,-0.0052633466042545035,-0.004850157111388918,-0.025335670783387776,-0.0003718912801140842,0.9822474120767408
2013-08-08,-1,-0.006634121906884827,-0.006054169871708245,-0.017226264876740175,0.005906728898814114,0.9821793765144534
2013-08-12,-1,-0.005197688785029626,-0.004885783158920731,-0.021239182892290414,0.019630886611258835,0.9784764479232398
2013-08-14,-1,-0.007148254273253935,-0.006559623967050057,-0.014228804160318815,0.02518182797644912,0.977690954250981
2013-08-16,-1,-0.003980250972539626,-0.003720870320690961,-0.014228804160318815,0.02518182797644912,0.9789078228212429
2013-08-20,-1,-0.0036466020548806175,-0.0034635492892224895,-0.011580018820538789,0.02518182797644912,0.9783649040286984
2013-08-22,-1,-0.003659364846807157,-0.0034212948866695478,-0.016308817976646083,0.02200102777212104,0.9774593100372971
2013-08-26,-1,-0.005290519997074487,-0.004826817048818948,-0.016078495939842296,0.02200102777212104,0.9771622265080933
2013-08-28,-1,-0.006281005310545073,-0.0057684818950920124,-0.012273356759314544,0.02200102777212104,0.9782438243278451
2013-08-30,-1,-0.006186318154592849,-0.00566962426500877,-0.012273356759314544,0.01410757193301828,0.9806226237925975
2013-09-04,-1,-0.005471778525291318,-0.0050674251527817364,-0.012273356759314544,0.01410757193301828,0.9803028763897664
2013-09-06,-1,-0.0056478939442738026,-0.005176783843360939,-0.01833352497388032,0.009346990962532706,0.9796027895006674
2013-09-10,-1,-0.0048974011853329625,-0.004443439659590242,-0.01833352497388032,0.006222295383561405,0.9824104661897114
2013-09-12,-1,-0.0024829331725965726,-0.0023898956795878495,-0.01833352497388032,0.006222295383561405,0.982773772559237
2013-09-16,-1,-0.002436855637950442,-0.002277224799054437,-0.019842170919769926,0.006222295383561405,0.9831197290081745
2013-09-18,1,0.0020923223207241783,0.0030274311855089755,-0.022099097248283232,0.005802804224663172,0.9829320134180546
2013-09-20,1,0.0017041914784640037,0.0023614802013665168,-0.019842170919769926,0.009346990962532706,0.9826040076931095
2013-09-24,1,0.0021054943975233223,0.002863243041561848,-0.019163201830717132,0.011112722372545404,0.9817253909803254
2013-09-26,1,0.002358435632140237,0.003161573091848207,-0.019163201830717132,0.019781639975645214,0.9810086799384465
2013-09-30,1,0.0022170114250118045,0.003050794346066839,-0.019163201830717132,0.019781639975645214,0.9818955811054899
2013-10-02,1,0.0029347753901097133,0.0038869906409611187,-0.02171921191549116,0.019781639975645214,0.9804811630014577
2013-10-04,1,0.0015461769804381484,0.002363464076311058,-0.02171921191549116,0.019781639975645214,0.9806680118046085
2013-10-08,1,7.537485529348666e-06,0.0005778556104491888,-0.021532107622077197,0.019781639975645214,0.9804810154869108
2013-10-10,1,0.0009405975399654836,0.001623641417034312,-0.021532107622077197,0.017957084671418242,0.9802703842542946
2013-10-14,1,0.0007375854769147102,0.0013470352856921309,-0.021864599886654002,0.016906216476624075,0.9808498584769062
2013-10-16,1,0.0004983787535716765,0.0011140561025271196,-0.01924760828861601,0.016906216476624075,0.9808200667122657
2013-10-18,0,-0.00028562664936853657,0.00027048806164397415,-0.01924760828861601,0.016906216476624075,0.982714918474987
2013-10-22,0,-0.00013715165191439146,0.00044768425302287983,-0.01654897008234722,0.016012941165708304,0.9842893130358981
2013-10-24,1,0.0015193714521976112,0.00201440635941478,-0.01654897008234722,0.016012941165708304,0.9838059259582538
2013-10-28,1,0.00216685917373085,0.0027921396632590223,-0.02049267767035226,0.016012941165708304,0.9832017101735783
2013-10-30,1,0.0017801435130048204,0.002294968701399551,-0.01611808697387336,0.016906216476624075,0.982792218282644
2013-11-01,-1,-0.0004262777517978507,-0.00022233367467082768,-0.012643392611995414,0.016906216476624075,0.9838014074226841
2013-11-05,1,0.00028103935793641344,0.0007564945847721377,-0.010740825968584038,0.009898053813294044,0.9850063091296241
2013-11-07,1,0.0012441227260893218,0.0018937771098953378,-0.012643392611995414,0.009411015453740377,0.9846051270052716
2013-11-11,-1,-0.0021060862100657383,-0.0020356686821848043,-0.010740825968584038,0.016423285262819828,0.984588755326408
2013-11-13,1,2.3388362824289927e-05,0.00012178519961730957,-0.012643392611995414,0.0087505127256166,0.986231442750961
2013-11-15,1,0.0010058548252854813,0.0012274774633377979,-0.012643392611995414,0.007397372196277159,0.986798896569496
2013-11-19,1,0.0010499449872545088,0.0012900095087089677,-0.012075669510856278,0.011374266227242146,0.9839662418265936
2013-11-21,1,0.0013919718454909072,0.001654380002055662,-0.010893144589403657,0.011374266227242146,0.9844739819534828
2013-11-25,1,0.000104154386926911,0.00011736733741012821,-0.009316484906017084,0.016423285262819828,0.9838170970465655
2013-11-27,1,0.0024006335717629422,0.002833350362823612,-0.009316484906017084,0.014387173425941006,0.9859554315832376
2013-12-02,1,0.00174945265416802,0.002259187328876602,-0.0018382752558649856,0.016021223273908224,0.9866479718656802
2013-12-04,1,0.0002576925725925733,0.00042344588277268107,-0.002101030793374069,0.016021223273908224,0.9853872200593007
2013-12-06,1,0.0011862576466968942,0.0015736045533021599,-0.002101030793374069,0.014974708884588765,0.986049473335769
2013-12-10,1,0.001716315853564668,0.0021773460532019924,-0.002101030793374069,0.012508207311574796,0.9864622995855453
2013-12-12,1,0.0008431875139948068,0.0011713060535526922,-0.002101030793374069,0.014974708884588765,0.985347457342854
2013-12-16,-1,-0.001008724854751427,-0.0009238422842170243,-0.0009161695371695362,0.014974708884588765,0.9848521932925723
2013-12-18,1,0.0011172259185876898,0.0013351227577795568,-0.0009161695371695362,0.014349964086458587,0.9880819772403029
2013-12-20,1,0.0019905443514238626,0.002378904452508484,-0.004022253511625912,0.014349964086458587,0.9880845369355957
2013-12-24,1,0.0030193463167803433,0.0035624964677522207,-0.007584919948498227,0.012508207311574796,0.9869951353808561
2013-12-27,1,0.0028367371908832083,0.003168712980515487,-0.007584919948498227,0.012819836101865528,0.9828281561183972
2013-12-31,1,0.002508509017452788,0.0027921832476390366,-0.011228033263414235,0.008719869717413807,0.9832872475875232
2014-01-03,1,0.001280396138359024,0.001382442887904639,-0.011228033263414235,0.012256068614874565,0.9821379880083915
2014-01-07,0,-0.00014058238808069073,1.6476305472742773e-05,-0.011228033263414235,0.012256068614874565,0.982051027460247
2014-01-09,1,0.0019901445800826513,0.0022453212403289414,-0.011228033263414235,0.016061334607713914,0.9806942022706175
2014-01-13,1,0.0014334675022401205,0.0016181447995352698,-0.011022323750663044,0.014003638334553165,0.9815340892770951
2014-01-15,1,0.0018892727040855741,0.0021604361278464387,-0.011022323750663044,0.014003638334553165,0.9812852297957502
2014-01-17,1,0.0010980270804383152,0.0011887743421845963,-0.010745480130810604,0.014270216940720889,0.9813211807555672
2014-01-22,1,0.0010976381414529437,0.0011076989494016192,-0.010745480130810604,0.00962230649459403,0.9819654728667605
2014-01-24,-1,-0.0016412232641405725,-0.0013196624182756581,-0.009494463791131384,0.013611483755697231,0.9835082680867895
2014-01-28,1,0.00037774513036655763,0.0004627620076949966,-0.009494463791131384,0.014374965326930703,0.9863659243974167
2014-01-30,-1,-0.00019733910858051469,-5.8495121082209785e-05,-0.010122565747743716,0.014374965326930703,0.9863570044959273
2014-02-03,1,0.000788740064722238,0.0008119554634331936,-0.009754704425762786,0.013611483755697231,0.9883530258494925
2014-02-05,1,0.0007413686207469523,0.0008023646106034368,-0.009754704425762786,0.013611483755697231,0.9885579156186739
2014-02-07,1,0.002719784767178644,0.0030844661216847076,-0.012629786000647599,0.0037377927934719715,0.9880393829844765
2014-02-11,1,0.003417980003665602,0.004056042823354986,-0.011361287880863758,0.0037377927934719715,0.9886314120176319
2014-02-13,1,0.002636951866284115,0.0030275770500536254,-0.012629786000647599,0.0037377927934719715,0.9878452961744483
2014-02-18,1,0.002553950454857651,0.0029263711215558492,-0.011361287880863758,0.0037377927934719715,0.98845879593457
2014-02-20,1,0.0024721867660911683,0.0028533521052029184,-0.013150553190423886,0.001970513551829329,0.9876321812523473
2014-02-24,1,0.00235176240005418,0.0026937071684550425,-0.01549204836671791,0.0014063362797705078,0.9866108179869686
2014-02-26,1,0.0038964681787985386,0.004457567110917798,-0.01549204836671791,0.0009351870199435057,0.9862897554856384
2014-02-28,1,0.0021597306517269527,0.0023425496937290366,-0.01549204836671791,0.0016804687306316243,0.9875600638950313
2014-03-04,1,0.0012755411904187583,0.0012849767807198212,-0.01549204836671791,0.0024001013256307797,0.9874736598399824
2014-03-06,1,0.0011106100569752305,0.001121860809195738,-0.014575900581483156,0.006089381477243161,0.9880270810373275
2014-03-10,-1,-0.0009182604614084375,-0.0006843464311131231,-0.009098752243931791,0.006089381477243161,0.989018255400504
2014-03-12,-1,-0.0008794899078947369,-0.0006327703580507611,-0.009098752243931791,0.006089381477243161,0.9889554703330975
2014-03-14,-1,-0.001053172659836686,-0.0008818129783393191,-0.007667406456280595,0.006089381477243161,0.9894740958573636
2014-03-18,-1,-0.00020984914898856683,-0.00014515188024029672,-0.007667406456280595,0.005802209403965704,0.9899124223663088
2014-03-20,-1,-0.0012309857776250195,-0.0010820161741593073,-0.007667406456280595,0.007228385136382517,0.9901566166075757
2014-03-24,-1,-0.0018602953565079886,-0.0016219996855413401,-0.0057217138281189526,0.008143075263494493,0.990395551251313
2014-03-26,-1,-0.0023125577064025595,-0.0019844628924452195,-0.0057217138281189526,0.008143075263494493,0.9862700896489487
2014-03-28,-1,-0.0017798873988207156,-0.0014189211881065473,-0.007192778541516925,0.007228385136382517,0.9863481832548152
2014-04-01,-1,-0.0015893935785305964,-0.0012212950386452977,-0.007389097772472224,0.005802209403965704,0.9871420045263516
2014-04-03,-1,-0.001187850073519784,-0.0008551369586161588,-0.007389097772472224,0.0072815590436621225,0.985961972933743
2014-04-07,-1,-0.002413098752995473,-0.001919816962175698,-0.007389097772472224,0.0072815590436621225,0.9860229927800238
2014-04-09,-1,-0.0013325157272132248,-0.0010223708083556236,-0.008314162783502926,0.0072815590436621225,0.9860307667264175
2014-04-11,-1,-0.0016503850193976826,-0.001327922449971,-0.00883007642917279,0.009238998593970378,0.9848311849029119
2014-04-15,-1,-0.001714444475149582,-0.0013727921077037746,-0.011539494885845257,0.012211808680728978,0.9824001933519034
2014-04-17,-1,-0.0017609539953427561,-0.001447172837820945,-0.00883007642917279,0.012211808680728978,0.9831682526836882
2014-04-22,-1,-0.0016001519499305294,-0.00128416046271546,-0.010013652738173793,0.007583403262102716,0.983615103133062
2014-04-24,-1,-0.00037272538582668535,-0.00025682712796394846,-0.00883007642917279,0.010018747889654622,0.9867841984237321
2014-04-28,-1,-0.0023328996636928835,-0.0019183023728131794,-0.00883007642917279,0.014500430315791554,0.9856693296913627
2014-04-30,-1,-0.0020323083097037505,-0.001637574400277437,-0.00883007642917279,0.020814076848640374,0.9842931255864896
2014-05-02,-1,-0.0013395087847005778,-0.0010104010744370394,-0.00883007642917279,0.011816553742175015,0.9857316045560094
2014-05-06,-1,-0.0021736778371372755,-0.0017590706071338121,-0.008400021329161981,0.011816553742175015,0.9869177810112654
2014-05-08,-1,-0.0027147397162170742,-0.002208278812717129,-0.004116244345979417,0.018098464352523973,0.9854641552359703
2014-05-12,-1,-0.0018845480835985853,-0.0014733695810170457,-0.004116244345979417,0.014189251289258435,0.9867135924575421
2014-05-14,-1,-0.0028040961493728863,-0.002375356820065703,-0.008516247534952184,0.010114508605346777,0.9878814223943871
2014-05-16,-1,-0.0015966732085257824,-0.0013501068233433347,-0.008516247534952184,0.011910448751200155,0.9877328501255741
2014-05-20,-1,-0.001142683197938638,-0.0009900477075441853,-0.008516247534952184,0.011910448751200155,0.9877629814172761
2014-05-22,1,5.053329406309958e-05,6.564925195658629e-05,-0.008516247534952184,0.00936478658659399,0.9890530294700439
2014-05-27,1,0.0005252648339252262,0.0006446370350947709,-0.00464480836348003,0.00936478658659399,0.9913542777211398
2014-05-29,1,0.001033959783583963,0.0011663401366959578,-0.0077047726438949846,0.0072820960095626944,0.9921188339195093
2014-06-02,1,0.0004939125737278656,0.0005328820118774577,-0.004421345327699411,0.008715074525973917,0.9910148076165507
2014-06-04,1,0.0008625464767550582,0.0009783129524568463,-0.007845858427610328,0.011711055261757782,0.9893313146479159
2014-06-06,1,0.001270948213578461,0.0014039964687171998,-0.009129761004487497,0.0072820960095626944,0.989492530388909
2014-06-10,1,0.0011402079718904371,0.0012766137165995792,-0.008036114545999609,0.00658256231394949,0.9901130356744812
2014-06-12,-1,-3.020451284688216e-05,-6.740255432362768e-06,-0.004421345327699411,0.00658256231394949,0.9912588332677187
2014-06-16,1,0.001214680797527176,0.0014108972136448678,-0.0034406552543436836,0.006161374439108344,0.9917797147657816
2014-06-18,-1,-0.000546429935948164,-0.0004201587959169039,-0.0034406552543436836,0.00658256231394949,0.9894203873308529
2014-06-20,1,0.0014470526579892366,0.001618743929429609,-0.003753155861234944,0.0073403434153470224,0.9892740424389976
2014-06-24,1,0.0011432264334414418,0.0012369253354292732,-0.003753155861234944,0.010833955308496224,0.9879744607830171
2014-06-26,1,0.0012758666782664838,0.0013865280808430841,-0.01328112236956743,0.010833955308496224,0.9829759618242615
2014-06-30,1,0.0016322887973011801,0.0018902527641881989,-0.015563634342472508,0.00656356276927885,0.9830184198525037
2014-07-02,1,0.0022398887457924068,0.0026774521958752994,-0.01328112236956743,0.004600154822526216,0.9839493343737522
2014-07-07,1,0.001507889926197208,0.0017935348225729935,-0.01302329447582005,0.005083473649105932,0.9842237484782776
2014-07-09,1,0.0015490132556245264,0.0018399391692409464,-0.014267533441514851,0.004181793517116126,0.9832662567163141
2014-07-11,1,0.001222876447145292,0.001474342855348012,-0.014267533441514851,0.008092452978714564,0.9828498047353429
2014-07-15,1,0.0013996958818806426,0.001683943125914643,-0.015046548399545952,0.008092452978714564,0.9819183874748324
2014-07-17,1,0.0008541637572169734,0.0010844303808551538,-0.014267533441514851,0.008092452978714564,0.9836895611283445
2014-07-21,1,0.0020262142445345785,0.0025093698619632404,-0.014267533441514851,0.009725815458571221,0.9833283985370025
2014-07-23,1,0.002888465166354101,0.0034620531102927017,-0.014267533441514851,0.004672336725599096,0.983286455671354
2014-07-25,-1,-0.0010778897697568779,-0.001008432364385629,-0.006429380692176393,0.004672336725599096,0.9891694226168057
2014-07-29,-1,-0.0023056282479475146,-0.0022025688525624436,-0.005987620415669774,0.004672336725599096,0.9898783027191715
2014-07-31,-1,-0.003497724573400457,-0.003188091818794342,-0.004440297384175105,0.0055545489483280214,0.9896098160924133
2014-08-04,-1,-0.0034972931352246495,-0.0031964043314823367,-0.002887959055616177,0.0037474349857736806,0.9904023859975565
2014-08-06,-1,-0.004534968805013769,-0.004073818418762432,-0.0020038257161781097,0.006672809799575067,0.9886302318303711
2014-08-08,-1,-0.0029904397254733746,-0.0027451631203714135,-0.0018437852366388694,0.005375135697679636,0.9899781626693809
2014-08-12,-1,-0.00432263280845145,-0.0038295393917772355,-0.0015389671964203282,0.008703876670895961,0.9891813352572062
2014-08-14,-1,-0.003525290375483002,-0.0030845948909626686,-0.0018437852366388694,0.005375135697679636,0.9904588048720648
2014-08-18,-1,-0.0035372370770616916,-0.003079176629805669,-0.0018437852366388694,0.005375135697679636,0.990754426232475
2014-08-20,-1,-0.0019918839564041354,-0.0017601740289542726,-0.0021710165456194455,0.005375135697679636,0.9918958202633366
2014-08-22,-1,-0.001623952972491286,-0.001470025490487449,-0.0047307864285754155,0.005375135697679636,0.9906659453554525
2014-08-26,-1,-0.0017350561261237215,-0.0015969024107030426,-0.0038724257021608612,0.005375135697679636,0.9909938177989864
2014-08-28,-1,-0.002039633100901484,-0.0018096276733590515,-0.005527762091389303,0.005375135697679636,0.9902068234441438
2014-09-02,-1,-0.0018737998457329635,-0.001680244713323668,-0.009639920305050441,0.005375135697679636,0.9896299250904983
2014-09-04,-1,-0.00275466220520006,-0.0024314015214343355,-0.009544026199356253,0.005375135697679636,0.9906582790672748
2014-09-08,-1,-0.002083473165089962,-0.0018489230343511176,-0.009544026199356253,0.007806430977503973,0.990160653714142
2014-09-10,-1,-0.0016200825495591006,-0.0014201449168887573,-0.00960000733965442,0.007806430977503973,0.9899770224121467
2014-09-12,-1,-0.002186832167726384,-0.001937442897076452,-0.009842519762507149,0.007806430977503973,0.9885878169613741
2014-09-16,-1,-0.0012925265498986047,-0.0011986192270786024,-0.011883373111496558,0.009176285673222814,0.986578039839234
2014-09-18,-1,-0.0009878159612078904,-0.0008817614700925732,-0.015919254313869872,0.009176285673222814,0.9858534756318987
2014-09-22,-1,-0.0025516290088662998,-0.0022226308149991443,-0.01147549581371415,0.0115486606938652,0.9834500899939904
2014-09-24,-1,-0.001687423252825672,-0.001504833978241672,-0.01147549581371415,0.013811892197028788,0.9820955299537825
2014-09-26,-1,-0.002918554780915036,-0.002538216996851822,-0.009842519762507149,0.013811892197028788,0.9823606512144606
2014-09-30,-1,-0.0037383299080694724,-0.0032474963071648863,-0.00960000733965442,0.013895120063491442,0.9818971925409391
2014-10-02,-1,-0.0033661433997079493,-0.0029471487268577087,-0.01039331696692308,0.013895120063491442,0.9823583881278654
2014-10-06,-1,-0.0029214317406888136,-0.002516223196838294,-0.01039331696692308,0.013895120063491442,0.9831708049809554
2014-10-08,-1,-0.002541735632177566,-0.002211021944757544,-0.013281538672639285,0.013895120063491442,0.9835695379504383
2014-10-10,-1,-0.004775487215964294,-0.004160486449331316,-0.005034999539083534,0.018004945541413672,0.9837812072713514
2014-10-14,-1,-0.003721897740055681,-0.0033014245097985487,-0.002179757454333159,0.018004945541413672,0.9842020337953182
2014-10-16,-1,-0.002086303750029932,-0.0019334353838378127,-0.00098420043926666,0.014137426232149398,0.9861435429899096
2014-10-20,1,0.0013391681741521952,0.0016723747788228664,-0.00098420043926666,0.011908162967618385,0.9915966155904264
2014-10-22,1,0.002226789024056325,0.0026692293555550827,-0.00098420043926666,0.010844966606648566,0.9924908582872438
2014-10-24,1,0.002745949365813801,0.0032545971465529587,-0.00098420043926666,0.011908162967618385,0.992168368744099
2014-10-28,1,0.0033500865513596437,0.004005371859752988,-0.0011462142286394479,0.00991915747669389,0.9928548534301977
2014-10-30,1,0.0028479853128312188,0.003438271176812869,0.001659711399146424,0.00991915747669389,0.9932471086995261
2014-11-03,1,0.002507037076089699,0.002982875168833504,0.0013902420579805118,0.010983201656078849,0.9921887163882882
2014-11-05,1,0.0020683898631446342,0.002498929173442393,0.0013902420579805118,0.010983201656078849,0.9913727292662438
2014-11-07,1,0.0027860886700451165,0.0032933793650850997,0.00011400991268241964,0.010983201656078849,0.992210658043659
2014-11-11,1,0.00410736644250078,0.004797761709506744,-0.007654753872001806,0.00796699322207913,0.9911370221959066
2014-11-13,1,0.004771459023919965,0.005581495506151968,-0.010792004944617642,0.00796699322207913,0.9894943867463334
2014-11-17,1,0.004957538809393827,0.005788040437891689,-0.012227587039026998,0.00796699322207913,0.9877744657429248
2014-11-19,1,0.0058019356636510476,0.006791308523578387,-0.012227587039026998,0.010961487710716363,0.9860393609454737
2014-11-21,1,0.006628782500410353,0.00774684114580546,-0.012227587039026998,0.010961487710716363,0.9858457231241604
2014-11-25,1,0.006319993739539173,0.007362881389885409,-0.012227587039026998,0.010961487710716363,0.9855792925685449
2014-11-28,1,0.006361555071520114,0.007415144383007905,-0.012227587039026998,0.010961487710716363,0.9858360949404918
2014-12-02,1,0.0059045185970781604,0.006876445710076155,-0.010792004944617642,0.011937235405679867,0.9866575607147746
2014-12-04,1,0.005028464612490445,0.005886372158841982,-0.011692546921352747,0.011937235405679867,0.9868684851976804
2014-12-08,1,0.0052292923281443745,0.006076911707590414,-0.01316214370955423,0.012189659171648198,0.9842280267223708
2014-12-10,1,0.003909820845553932,0.004569015601534611,-0.009827383893873921,0.014203251238857139,0.986402828876128
2014-12-12,1,0.0048488872396723615,0.0057121086534576045,-0.009827383893873921,0.012189659171648198,0.9854264057702481
2014-12-16,1,0.00130636367987964,0.0014401021503109605,-0.007470632631460655,0.013178036127637377,0.9826238246124956
2014-12-18,1,0.002252335213481513,0.002456857021006371,-0.01316214370955423,0.013178036127637377,0.9818541673246466
2014-12-22,1,0.002540310076847566,0.002742462395362835,-0.01316214370955423,0.013178036127637377,0.9812251638625451
2014-12-24,1,0.002043823525877452,0.002155208852348155,-0.015335157686603687,0.015536154978282986,0.9778691212885481
2014-12-29,1,0.000926926399910558,0.0009598122899595521,-0.015335157686603687,0.015536154978282986,0.976922633080025
2014-12-31,1,0.0015446270115174843,0.0016916530601240735,-0.015335157686603687,0.02075256958568593,0.9750416705573581
2015-01-05,-1,-0.00015716728144670648,-5.587447490778663e-05,-0.013037439368966876,0.023397174504077776,0.9748629989184536
2015-01-07,1,0.0008323721201435164,0.0008903630568178138,-0.011912683175663094,0.02075256958568593,0.9770492143065465
2015-01-09,1,0.0016967189913405017,0.0018862011496624531,-0.011912683175663094,0.021270063025536922,0.9769780986875187
2015-01-13,-1,-0.0004832771384914073,-0.00043234919624210325,-0.009665179720461044,0.021270063025536922,0.9782167915925635
2015-01-15,-1,-0.0039603366057634265,-0.00350177981339125,-0.006370780083537967,0.021270063025536922,0.9809329714670376
2015-01-20,-1,-0.003048587714484659,-0.0026787809123138802,-0.00548199465759517,0.018982567080764026,0.9834105054789737
2015-01-22,-1,-0.001962878409982492,-0.0017260651949169347,-0.00548199465759517,0.017613663383621105,0.9849856675720238
2015-01-26,-1,-0.0019185192698925539,-0.0016873845953457591,-0.00548199465759517,0.017470066399378526,0.9876990885999442
2015-01-28,-1,-0.0030181656287382496,-0.0026313278076233416,-0.00548199465759517,0.017470066399378526,0.9877876500382143
2015-01-30,-1,-0.0016851045650708735,-0.0014734576508735485,-0.00548199465759517,0.01707870336481844,0.9901425971083834
2015-02-03,-1,-0.0001557301196000965,-0.0001515206189759499,-0.00557575858038243,0.012721526804914477,0.9904805830254528
2015-02-05,-1,-0.0004989042507898311,-0.0004090853015789178,-0.005938964340726532,0.007787812209679709,0.9898226427935944
2015-02-09,1,0.0004337814280690055,0.0004544435822999781,-0.006315769499552756,0.005841837678957442,0.9904955047465179
2015-02-11,1,0.0011431927783399642,0.001291377028261521,-0.006315769499552756,0.005841837678957442,0.9902462841522682
2015-02-13,1,0.0008028973532616621,0.0008169499093104867,-0.0072034773689754784,0.005841837678957442,0.990396251442701
2015-02-18,1,0.0006218695119556256,0.000640461896701723,-0.00913572629555054,0.006748488812729245,0.9891378304525397
2015-02-20,1,0.0003385945005187238,0.00041334065564925537,-0.00913572629555054,0.010507765610995118,0.9884223096845878
2015-02-24,0,-8.878525501166296e-05,7.390283547814808e-05,-0.00913572629555054,0.010507765610995118,0.988737697461681
2015-02-26,-1,-0.0008100494893885767,-0.0005573095012782204,-0.009490647254842095,0.010507765610995118,0.988186001914043
2015-03-02,-1,-0.0007226581852498741,-0.0005026129123591326,-0.009490647254842095,0.012098032312273011,0.9861915157155727
2015-03-04,-1,-0.0011229074133072845,-0.0008449751308959159,-0.008481154533755367,0.014770039711055788,0.9865465493079988
2015-03-06,-1,-0.004022645999825428,-0.0032935220864288637,-0.008481154533755367,0.01787095491459766,0.9865051992772617
2015-03-10,-1,-0.0044629566407185335,-0.003677588599504047,-0.008481154533755367,0.018932281518334884,0.9850891128630436
2015-03-12,-1,-0.0030476145545754556,-0.002465575040092278,-0.008481154533755367,0.01713347241119174,0.986284366177847
2015-03-16,-1,-0.0018447893206795202,-0.0015620671373728693,-0.008100713567386614,0.01713347241119174,0.9861452820829463
2015-03-18,-1,-0.0008998743341629039,-0.000766857054163714,-0.008100713567386614,0.014770039711055788,0.9864299671082745
2015-03-20,-1,-0.0004483849622852192,-0.00038496851537203234,-0.00814570603812641,0.013708682702167109,0.9866692688420015
2015-03-24,-1,-7.274257331296849e-05,-6.919777702445682e-05,-0.00871685575757877,0.01713347241119174,0.9840324047687288
2015-03-26,-1,-0.0013594144418780547,-0.0011740659513844987,-0.008687187785970685,0.01713347241119174,0.9830789170928842
2015-03-30,1,0.00011098510515679857,0.00011336328353008935,-0.010672794244463244,0.013529055638088504,0.9845172174031803
2015-04-01,-1,-0.00016205332985829143,-8.988650804372456e-05,-0.018061284551166904,0.011000092775436243,0.9839382577935462
2015-04-06,1,0.0006819014511399006,0.0007607577791417055,-0.018061284551166904,0.011000092775436243,0.9845183319693492
2015-04-08,1,0.0010310698959749768,0.0012047690519957316,-0.017236629272203905,0.0066080726198497995,0.9855130161657751
2015-04-10,1,0.0012611831652761065,0.001484058115210823,-0.017236629272203905,0.011000092775436243,0.9847064363675111
2015-04-14,1,0.0015570718375164726,0.0018420967280066889,-0.017697781198555883,0.008441673044115661,0.9846439113205446
2015-04-16,1,0.0012431416638767848,0.0015114863799960462,-0.017236629272203905,0.009670655228728453,0.984889656217444
2015-04-20,1,0.001179333232051191,0.0014744250848823764,-0.017236629272203905,0.015531083656677866,0.9846400182311321
2015-04-22,-1,-0.0006537723492059241,-0.0005958732724828931,-0.01304398123854416,0.012625482802609164,0.9870589118298206
2015-04-24,-1,-0.0010135142632657053,-0.0009996346427653684,-0.009887078815523354,0.008761022162218928,0.9889181817515481
2015-04-28,-1,-0.0011099585873888481,-0.0011077560960957417,-0.010534980455157744,0.008761022162218928,0.9888402397823849
2015-04-30,-1,-0.0031750451696289953,-0.00287389965286778,-0.0071259375139814535,0.008761022162218928,0.9897907150135226
2015-05-04,-1,-0.0023740659802440702,-0.0021968142298567253,-0.006899135347744794,0.008761022162218928,0.9901839965102487
2015-05-06,-1,-0.004041996451158004,-0.0035828901844010726,-0.006899135347744794,0.008761022162218928,0.990141679550246
2015-05-08,-1,-0.002969946103983024,-0.002669418342769775,-0.0088400522471704,0.0057012398926288115,0.9915432586635851
2015-05-12,-1,-0.004151384054475887,-0.003667699602378314,-0.006899135347744794,0.007204892353496518,0.9911499011776799
2015-05-14,-1,-0.0025557557897668945,-0.0023419010576443094,-0.005943708592784152,0.007020053758809902,0.9915560640687721
2015-05-18,-1,-0.0012851729178873382,-0.001254104324528345,-0.006122104169226988,0.00562776466026867,0.9929108059362489
2015-05-20,-1,-0.0007843684366769853,-0.0007588589506977642,-0.006122104169226988,0.005420726240010075,0.9931865829775247
2015-05-22,-1,-0.000938698862675986,-0.000929480056707323,-0.00507486489831879,0.00914402994249192,0.9921203854722129
2015-05-27,-1,-0.000881049202299068,-0.0008311729838455962,-0.004941474704039832,0.010714048677643402,0.9923469070410872
2015-05-29,-1,-0.0018686643595497306,-0.0017404856523092868,-0.002913955582236315,0.010714048677643402,0.9922912887613092
2015-06-02,-1,-0.0010335890573126365,-0.0010102184235614652,-0.0029385972496134304,0.00914402994249192,0.9922646540336313
2015-06-04,-1,-0.0010511414980686317,-0.0009731879118525028,-0.0021733159415186836,0.00914402994249192,0.9925251634165082
2015-06-08,-1,-0.0023788007622912617,-0.002220135604888245,-0.0013586787818016023,0.010714048677643402,0.9913187398073455
2015-06-10,-1,-0.0034285885291873335,-0.0030041414918569203,-0.0013586787818016023,0.00914402994249192,0.990762666144968
2015-06-12,-1,-0.0024291631256876207,-0.002154111452250835,-0.0013586787818016023,0.00914402994249192,0.9910973646973391
2015-06-16,-1,-0.0020122869123186983,-0.0018110387166945681,-0.0010893429552908597,0.00914402994249192,0.9901086742097663
2015-06-18,-1,-0.0013028517572803338,-0.0010100109816076042,-0.002335845749547075,0.008139066259950806,0.9905582939719808
2015-06-22,-1,-0.0010880797308502725,-0.0007835949249275271,-0.004751544425801497,0.00509428547830803,0.991153495315436
2015-06-24,0,-1.8698257473425653e-06,0.0001400599539172251,-0.011368718829159945,0.00509428547830803,0.9896531523769424
2015-06-26,1,0.0005822563432265576,0.0005834573672966848,-0.014751868640934022,0.00509428547830803,0.9885918553166855
2015-06-30,-1,-0.0002105491945475655,-0.00013793255441007745,-0.011368718829159945,0.01167887345077131,0.9863784854204032
2015-07-02,1,0.0007893431982159554,0.0008215553229974455,-0.011368718829159945,0.018993111639046743,0.9850401017364556
2015-07-07,1,0.0016879941072859247,0.0018711222089961676,-0.014751868640934022,0.01167887345077131,0.9851925594558727
2015-07-09,1,0.0012160836799207395,0.0013620710286595403,-0.014751868640934022,0.01167887345077131,0.9852915646963433
2015-07-13,1,0.0019309901269063245,0.0021723242706549557,-0.014751868640934022,0.01180350263867486,0.9849899717885966
2015-07-15,1,0.0011593440643557836,0.0012967442007263648,-0.011368718829159945,0.019403916968016723,0.9850808164132402
2015-07-17,1,0.0007335554344024749,0.0008415232024426177,-0.0054618231693683295,0.020814009995648614,0.9848017001756125
2015-07-21,1,0.000517646263712539,0.0005645982180348318,-0.003311923243751686,0.020814009995648614,0.9841735406420954
2015-07-23,1,0.0007249877621075082,0.0008061448553704711,-0.003311923243751686,0.019403916968016723,0.9846317678786523
2015-07-27,-1,-0.0004663046732805822,-0.0004317586474578211,-0.006825030562870049,0.019403916968016723,0.9823943139417151
2015-07-29,1,0.0020158582203057365,0.0021324190490071906,-0.016096100018472337,0.018775205117239943,0.9815984360464807
2015-07-31,1,0.002850645617878734,0.0030586228204382117,-0.016096100018472337,0.018775205117239943,0.9816114565058921
2015-08-04,1,0.0025667313220508756,0.0027914655599076436,-0.016096100018472337,0.018775205117239943,0.9812398439835742
2015-08-06,1,0.0019047464666072716,0.002008071750342532,-0.008968736133741951,0.0196028746817918,0.9798679025773949
2015-08-10,1,0.002622724633603631,0.0028962991515986067,-0.017939220925854996,0.020814009995648614,0.9781306348501096
2015-08-12,1,0.0038367101664443896,0.004247823578067081,-0.018474448310240334,0.020675566084056185,0.9780809384908128
2015-08-14,1,0.00437391748928101,0.004859260136128582,-0.018474448310240334,0.018841524355164972,0.9785975768821313
2015-08-18,1,0.004760052095345202,0.005228376997404367,-0.018474448310240334,0.018534392531855674,0.9791247361699772
2015-08-20,1,0.005201362902088093,0.005830193526950679,-0.018474448310240334,0.018534392531855674,0.9791358206367659
2015-08-24,1,0.005198843130613012,0.005847213746918607,-0.019186383263980658,0.018534392531855674,0.9798663958271588
2015-08-26,1,0.005433221100816054,0.0061367187992365105,-0.017044485311921428,0.01808549046609578,0.9837340907177691
2015-08-28,1,0.005483335093999204,0.006196426915192599,-0.019186383263980658,0.0127213157125782,0.9829547802114424
2015-09-01,1,0.004812542709926639,0.005448552425483174,-0.017237168565328045,0.01808549046609578,0.9827615025636783
2015-09-03,1,0.006512537046845284,0.007383962909884179,-0.017237168565328045,0.008962376991360368,0.9844711485549262
2015-09-08,1,0.006862447670038447,0.007713163408762864,-0.017237168565328045,0.008962376991360368,0.9836169385265898
2015-09-10,1,0.0062647737854739215,0.007016854508587819,-0.01686052292681936,0.0127213157125782,0.9846873518391156
2015-09-14,1,0.0057340291243546514,0.006332832168407829,-0.01686052292681936,0.009587884452629994,0.9849767450623558
2015-09-16,1,0.005567654582569397,0.006118590166489199,-0.01881792482286029,0.009587884452629994,0.9823732514366571
2015-09-18,1,0.005074643313042066,0.005542348439442873,-0.01881792482286029,0.009587884452629994,0.9832737453779349
2015-09-22,1,0.0031469786070723645,0.0032698343710417755,-0.004122213254525035,0.012923267533260147,0.9845229681356047
2015-09-24,1,0.0037199570107908113,0.003920324555476124,-0.013218905602720729,0.012923267533260147,0.9843109402402824
2015-09-28,1,0.002247618011035804,0.002265387021903558,-0.008091637066076419,0.012923267533260147,0.9856495233967487
2015-09-30,1,0.002712638856003003,0.002783614722211469,-0.008091637066076419,0.011233029596579926,0.9855805064245412
2015-10-02,1,0.0028913914204232796,0.002960992885392399,-0.013218905602720729,0.011233029596579926,0.9835332001856608
2015-10-06,1,0.0028009517843574556,0.0028709201411007855,-0.008091637066076419,0.011233029596579926,0.9867862986475856
2015-10-08,1,0.0034133371659533607,0.0036094720707760108,-0.012452393931845513,0.009597904139744746,0.9865412217791808
2015-10-12,1,0.003925274916185135,0.004211253968121258,-0.014189318005474492,0.00942900266575293,0.9856329599582111
2015-10-14,1,0.0016930320583113613,0.001730526813184789,-0.008091637066076419,0.012463707565838084,0.9830908083861296
2015-10-16,1,0.0019787451681455735,0.0019833436592858137,-0.012452393931845513,0.011233029596579926,0.9819251254607062
2015-10-20,1,0.0025615599807255183,0.002591330579316113,-0.012452393931845513,0.009676682274028384,0.9821549161239093
2015-10-22,1,0.002407287743510891,0.0024201598598042836,-0.011100127943466619,0.012463707565838084,0.982155286120233
2015-10-26,1,0.001874751747983851,0.0019449191642855997,-0.011100127943466619,0.012463707565838084,0.9825795701652527
2015-10-28,1,0.0007474128638740979,0.000978062064921546,-0.00683573171425399,0.014164771770954696,0.9838575487347436
2015-10-30,0,-0.0003074585328679991,2.1726583307495636e-05,-0.00683573171425399,0.014164771770954696,0.985451787846016
2015-11-03,1,0.0003900574450299975,0.0006181818425032386,-0.011100127943466619,0.015630834989781947,0.9841894819094632
2015-11-05,-1,-0.0008549907306509752,-0.0004572579789611378,-0.011253726619558448,0.018985288107644993,0.9819879001668902
2015-11-09,-1,-0.0016114654267844592,-0.001137827495919432,-0.011085849895526863,0.018985288107644993,0.9822461798525434
2015-11-11,1,0.002932647213104849,0.003034880918647375,-0.013533570866871843,0.015163792851631639,0.9855587386663781
2015-11-13,1,0.0010831776426037077,0.0011940919278473992,-0.013533570866871843,0.015163792851631639,0.9861689976262094
2015-11-17,1,0.0016285680834966995,0.0016828217220127301,-0.013533570866871843,0.015163792851631639,0.9857476376531549
2015-11-19,1,0.0016287414126496774,0.0017269123074970718,-0.019807725492224267,0.011183674684655174,0.9842970549792281
2015-11-23,1,0.001575515083002491,0.0016677897694035426,-0.019807725492224267,0.015226908037957308,0.9829192308219421
2015-11-25,1,0.0023219025560489493,0.002352625686562094,-0.019807725492224267,0.015226908037957308,0.983136004438181
2015-11-30,1,0.0008764277050425512,0.001075283688201476,-0.019807725492224267,0.015226908037957308,0.9836340447130689
2015-12-02,1,0.0010891500417340811,0.0012374370538204183,-0.014950374353038465,0.011204713080097064,0.9847652290918759
2015-12-04,1,0.0014715717004439004,0.0016043857167167832,-0.014950374353038465,0.009920591606689948,0.9851476217255615
2015-12-08,1,6.372765701443371e-05,0.00039206384356723094,-0.023311156037247153,0.009920591606689948,0.9830572041705344
2015-12-10,0,-0.00038432444231324713,7.071533996901589e-06,-0.02456760386037319,0.009920591606689948,0.9820948837330532
2015-12-14,-1,-0.0017911712690293188,-0.0012479896248453828,-0.02456760386037319,0.010941187478936418,0.9813148352150285
2015-12-16,-1,-0.0016273980353459815,-0.001062990567801685,-0.02456760386037319,0.008359020185669946,0.9822572685094799
2015-12-18,-1,-0.002692095016525274,-0.0021893391122747258,-0.019056911662991845,0.010059282515630416,0.9830538796534067
2015-12-22,-1,-0.0008364204241194886,-0.0006180613651790117,-0.019056911662991845,0.008359020185669946,0.9824192773521185
2015-12-24,-1,-0.0010818075321906318,-0.0007789727298944257,-0.027248325040237463,0.010059282515630416,0.9789863339345776
2015-12-29,-1,-0.001379680834613382,-0.0010182471646373603,-0.027248325040237463,0.0077267702449485345,0.9789422798249682
2015-12-31,-1,-0.0017978049180735404,-0.001397451557258026,-0.027248325040237463,0.011357260205757825,0.977642539956125
2016-01-05,-1,-0.0026016740853738746,-0.0021687767911440685,-0.026599316728498013,0.011357260205757825,0.9781255443187545
2016-01-07,-1,-0.004533146110483591,-0.003906180313733708,-0.022126464486666428,0.011357260205757825,0.9790139836747472
2016-01-11,-1,-0.005164850543056432,-0.004567727031070874,-0.022126464486666428,0.012392579644642111,0.9787348137275224
2016-01-13,-1,-0.0071450652645077516,-0.006445002721936557,-0.022126464486666428,0.012351641368358897,0.9781825137213925
2016-01-15,-1,-0.004805716851387688,-0.0042592967880992205,-0.022126464486666428,0.023620578899308284,0.9749300621628068
2016-01-20,-1,-0.004953510824737175,-0.00438667583734941,-0.022126464486666428,0.023620578899308284,0.9759704123328471
2016-01-22,-1,-0.0037470394380107568,-0.003331325948453088,-0.022126464486666428,0.023620578899308284,0.9753129272155909
2016-01-26,-1,-0.004526523079359247,-0.004003323902209633,-0.017841079881276988,0.019301105224267836,0.9781437973844889
2016-01-28,-1,-0.004271797135635589,-0.003845197100608621,-0.017253587918050855,0.023620578899308284,0.9773277672026311
2016-02-01,-1,-0.003901959967693237,-0.0035446642181632087,-0.016718990413106222,0.023620578899308284,0.9770383519283325
2016-02-03,-1,-0.005317834185287735,-0.004778603565970008,-0.003466088160471267,0.023620578899308284,0.9764142924547271
2016-02-05,-1,-0.007056945299625199,-0.006344628847230826,-0.007159896340315719,0.023620578899308284,0.9777186318861454
2016-02-09,-1,-0.006636444664500486,-0.005997374812758956,-0.007159896340315719,0.02139403406104315,0.9794514238681935
2016-02-11,-1,-0.008035124867350956,-0.0072416373701225676,-0.003094814983826465,0.02464444566013964,0.9788382006325631
2016-02-16,-1,-0.006868035983810269,-0.006140355227160248,-0.005786344630592988,0.018289772384731687,0.9830232321162669
2016-02-18,-1,-0.006442390006163087,-0.005805924481554869,-0.003132431717867111,0.01897775068776803,0.9815318236772094
2016-02-22,-1,-0.004661395603211122,-0.0041600405398735645,-0.006077551019638047,0.014902744671710256,0.9852058528954001
2016-02-24,-1,-0.004184570231508165,-0.0037424426828742527,-0.008225840885500213,0.014902744671710256,0.9859273415405981
2016-02-26,-1,-0.002909573299869436,-0.0026477702772503917,-0.008225840885500213,0.013871370350340254,0.9865613620193975
2016-03-01,-1,-0.0024093422123396087,-0.0022417740588437573,-0.008225840885500213,0.013871370350340254,0.9867979192152183
2016-03-03,-1,-0.0008712789222950247,-0.000820447220378657,-0.008225840885500213,0.009617747478374928,0.9881895082458227
2016-03-07,-1,-0.0011568535389665782,-0.0011144321697073801,-0.008908495877367232,0.009617747478374928,0.9878486863408463
2016-03-09,-1,-0.001911457641932693,-0.0017685401803230695,-0.007584691148504607,0.009848630295383604,0.9876630996786477
2016-03-11,1,0.00027549026494763884,0.0004393767642604095,-0.007584691148504607,0.008290747450390401,0.9897865158311777
2016-03-15,1,0.0004292450138123953,0.000693345258098621,-0.007584691148504607,0.01296804553068269,0.9882934325278782
2016-03-17,1,0.001499856626408326,0.0019021164448431087,-0.007584691148504607,0.00933055252882343,0.9892113998188041
2016-03-21,1,0.0014006066373146026,0.0017905674796083338,-0.006551902051993118,0.00933055252882343,0.9895245150751976
2016-03-23,1,0.0003637554681486096,0.0005882099495194509,-0.00576261424275813,0.011725472674983682,0.9897483954388876
2016-03-28,1,0.00035220220231790085,0.0005102632387584348,-0.006551902051993118,0.009062769525304106,0.9893909826016819
2016-03-30,1,0.0009644233124774526,0.0012370673669847634,-0.00576261424275813,0.008528030593605419,0.9913044671214483
2016-04-01,1,0.0009319067452049607,0.0011579227479784466,-0.007584691148504607,0.008528030593605419,0.9891851662284898
2016-04-05,-1,-0.00015189836177973063,-0.00010059072763951246,-0.006551902051993118,0.009853472876368296,0.9883941297070414
2016-04-07,1,0.001700773087652522,0.0022354820674852127,-0.006497429402739273,0.008528030593605419,0.989339649324985
2016-04-11,1,0.0009788121741669876,0.0013230919404125397,-0.006497429402739273,0.005686446271698797,0.989867863653475
2016-04-13,1,0.0028599971874213627,0.0034969522203108154,-0.007722092833013952,0.0032469666592681184,0.9899051662406931
2016-04-15,1,0.0028706096158260443,0.0035593735037362877,-0.007722092833013952,0.0032469666592681184,0.9902307658489193
2016-04-19,1,0.0032085697653058574,0.003957755886843333,-0.007722092833013952,0.0044128185406195515,0.9903125218187621
2016-04-21,1,0.004075362008059006,0.004976987186206593,-0.007722092833013952,0.0029153508457595923,0.9893861546625313
2016-04-25,1,0.0032060732957062067,0.003966899252819326,-0.007722092833013952,0.0033970160422865363,0.989815648814546
2016-04-27,1,0.003745133562391099,0.004592615942191259,-0.007722092833013952,0.0033970160422865363,0.9878926086525525
2016-04-29,1,0.003098739652736042,0.003917378578256699,-0.005254955852066561,0.0033970160422865363,0.9905332062405849
2016-05-03,1,0.0025110264083450613,0.0032121204078908974,-0.0030489828592702726,0.0033970160422865363,0.9922171884930827
2016-05-05,1,0.002238232316901657,0.002894506664311384,-0.0020914716973762845,0.004751154008382517,0.9928312186417555
2016-05-09,1,0.0018507253685158501,0.00239720451308409,-0.0017957792922358765,0.006605448101822947,0.9920594792323574
2016-05-11,1,0.0019342639231095255,0.002555125637109367,-0.0017957792922358765,0.009318835335346637,0.992253150170806
2016-05-13,1,0.0012996927858103275,0.0017580846883201125,-0.0029662105238031766,0.009318835335346637,0.9904653057517245
2016-05-17,1,0.002537773277096462,0.003241189454907985,-0.005463404046489087,0.010734515845398657,0.9897892754868287
2016-05-19,1,0.0024928966592420434,0.003190149272420699,-0.006030073338232267,0.011590304276964692,0.9895822527176745
2016-05-23,1,0.002823392242508192,0.0035973305738933484,-0.00315510028771757,0.010734515845398657,0.9907153677608729
2016-05-25,1,0.003964443783815124,0.004849829207739045,-0.006030073338232267,0.010734515845398657,0.9913594982421637
2016-05-27,1,0.0029888945072904186,0.0036048765775610406,-0.007430226167314688,0.010734515845398657,0.9885189672233066
2016-06-01,1,0.0024591342238704985,0.0028691416650327437,-0.007430226167314688,0.01208552878935502,0.9868986197828494
2016-06-03,1,0.001986298093989763,0.0022652522146787,-0.007430226167314688,0.013768950658107985,0.9861288929278068
2016-06-07,1,0.002582604967116234,0.002932519595795737,-0.007430226167314688,0.013768950658107985,0.9856728674262673
2016-06-09,1,0.0016941694662710863,0.001862328971577044,-0.006680359180346461,0.01616434332269546,0.9851493785603093
2016-06-13,1,0.00011265136102965508,0.00023139936042735785,-0.003348659380361,0.01616434332269546,0.9866615271152747
2016-06-15,1,0.001035871518829564,0.0011103626983328646,-0.0023171247077669703,0.01616434332269546,0.9875392196904861
2016-06-17,1,0.00100947710002077,0.0010505106803379363,-0.0023171247077669703,0.01616434332269546,0.9878683527755093
2016-06-21,1,0.0005477400123066224,0.0006108880766565126,-0.0015139643230332703,0.01616434332269546,0.987535849864893
2016-06-23,1,0.0008935530472059406,0.0009075034897457705,-0.0027556604613091203,0.012850002094584183,0.988051343461824
2016-06-27,-1,-0.0021022451209624605,-0.0016509373793810276,-0.0015139643230332703,0.012850002094584183,0.9894597964865318
2016-06-29,-1,-0.0015682924258325118,-0.0010587600291584987,-0.0027556604613091203,0.006494871439985905,0.992248313086819
2016-07-01,-1,-0.0008754554898022513,-0.0003503150357976985,-0.0036470264833990073,0.003860993974810263,0.9926275102539909
2016-07-06,-1,-0.0008756089731335648,-0.0002755740315206713,-0.004565186868777971,0.003860993974810263,0.9928009472713399
2016-07-08,1,0.0016096096243209644,0.0018255438071119018,-0.005957711233117716,0.0037604124012452647,0.9933532204978168
2016-07-12,1,0.0009661346809958511,0.0012859949781741386,-0.005957711233117716,0.004574152933473951,0.9931018014817451
2016-07-14,1,0.002218874367847702,0.0023133189394071614,-0.005957711233117716,0.005070485493555429,0.9924516714203391
2016-07-18,1,0.002223870410072999,0.0023059714109322296,-0.0059576626202156435,0.005476986162984254,0.9922054286675107
2016-07-20,1,0.0028144207272963262,0.0028559360444533094,-0.00634111221528143,0.005070485493555429,0.9915544986391002
2016-07-22,1,0.0025182848308546056,0.002548043875674806,-0.0059576626202156435,0.005070485493555429,0.9920521945473981
2016-07-26,1,0.002738648721912397,0.00287256169761887,-0.005875491914508623,0.005920904729999611,0.9911338910559844
2016-07-28,1,0.0019508107857822946,0.001959690404578166,-0.00611505604474266,0.005920904729999611,0.9910644429396572
2016-08-01,1,0.000701225723287102,0.0008591166068189374,-0.00611505604474266,0.005920904729999611,0.9915854003889877
2016-08-03,1,0.001303480844753165,0.001325238401956674,-0.005875491914508623,0.005920904729999611,0.9923761719737219
2016-08-05,1,0.0009162072926100941,0.0010044952478195993,-0.005875491914508623,0.005214129280960978,0.992354816536378
2016-08-09,1,0.0012837323810743985,0.0012954298379991647,-0.005446465764302331,0.005920904729999611,0.991615337478614
2016-08-11,1,0.0010661785077579647,0.0010989395701495334,-0.009380164121361124,0.002678206729998516,0.9892477594286193
2016-08-15,1,0.00016973487707261207,0.0003115912951338601,-0.011022665299712282,0.002678206729998516,0.9889374052839951
2016-08-17,1,2.2940823702776662e-05,0.00015367076173844805,-0.011022665299712282,0.006432839447382203,0.9889218097681456
2016-08-19,-1,-0.00020493824301078884,-7.465201999686726e-05,-0.01514191645364138,0.008784255776573581,0.9876137727860623
2016-08-23,1,0.0012153047521342567,0.0012723265808300811,-0.01579925847575813,0.00856082715940882,0.9876552900918729
2016-08-25,1,0.00015468661404691972,0.00026304238269589836,-0.01579925847575813,0.010907633486821132,0.9871882955562588
2016-08-29,-1,-0.0005207456981370889,-0.00036145716271854635,-0.01514191645364138,0.010907633486821132,0.9878360643027512
2016-08-31,-1,-0.00029696796510234844,-0.00016385069870958883,-0.01514191645364138,0.010907633486821132,0.9874742216300455
2016-09-02,-1,-3.328057864998337e-05,-1.3793275553801437e-05,-0.014283433976907978,0.010907633486821132,0.9879629784657322
2016-09-07,1,0.00035482743258071923,0.00036808598779371204,-0.014283433976907978,0.010166992248197875,0.9885057759642041
2016-09-09,-1,-0.0016913174489468445,-0.0014621600328565449,-0.009973164857157452,0.010166992248197875,0.989818416735612
2016-09-13,-1,-0.0015827001769124537,-0.0013893669093127618,-0.009973164857157452,0.00748504921508188,0.9905144664934243
2016-09-15,-1,-0.001403450881393353,-0.0012036415229874512,-0.01408068252728204,0.007298352527454605,0.9899464211395347
2016-09-19,-1,-0.0012472574653975147,-0.0010805515957858498,-0.009973164857157452,0.006177298267427677,0.9914009414325133
2016-09-21,-1,-0.0022189858784399255,-0.0018692348562156984,-0.006641785611032696,0.007298352527454605,0.9910817803210658
2016-09-23,-1,-0.002598481228620468,-0.0021886319678422698,-0.008929751226963111,0.006177298267427677,0.9914939438800793
2016-09-27,-1,-0.002823032972971961,-0.0023770832585435697,-0.010432773347024275,0.006792094206156965,0.9909401937376693
2016-09-29,-1,-0.002763243348882544,-0.0023260520147541904,-0.012626605677699009,0.006177298267427677,0.9906801989553934
2016-10-03,-1,-0.0031906526735550047,-0.002669335160479679,-0.012626605677699009,0.006792094206156965,0.9894122123417222
2016-10-05,-1,-0.0032682745180187037,-0.002737157384739264,-0.012626605677699009,0.006792094206156965,0.9897945728550742
2016-10-07,-1,-0.0036770586312575328,-0.0031153068315094828,-0.011415901456342848,0.007727750493658327,0.9898530312368559
2016-10-11,-1,-0.004462581341093834,-0.00396876504886109,-0.011415901456342848,0.00974101592979484,0.98675021617457
2016-10-13,-1,-0.004948985087172465,-0.004361754689163207,-0.010201761369797138,0.00822224096590192,0.9878129048565027
2016-10-17,-1,-0.004049596865762829,-0.0036387422183833777,-0.010201761369797138,0.012483397938190987,0.9865666749433106
2016-10-19,-1,-0.0028131550368232327,-0.0025567779405901428,-0.011415901456342848,0.008455090893077088,0.9868222748016873
2016-10-21,-1,-0.0030264928261437758,-0.002778601676711244,-0.00900794919130371,0.013181947719716494,0.9860293447725239
2016-10-25,-1,-0.003136216870922031,-0.0028840389520420912,-0.00805806814014663,0.013788199562555668,0.9862190940877772
2016-10-27,-1,-0.003416176672844569,-0.003160789438014724,-0.006655126425719559,0.013788199562555668,0.9865461129372023
2016-10-31,-1,-0.002865658678645715,-0.002673595025391837,-0.0072486424012477724,0.012454825041400656,0.9870165172122931
2016-11-02,-1,-0.0035844991194677904,-0.0032547534880837886,-0.011764700705091268,0.012454825041400656,0.9848905774573089
2016-11-04,-1,-0.0029164202664681213,-0.0026932114095209085,-0.009587760417279267,0.01218817173474673,0.9855968470205924
2016-11-08,-1,-0.003821392961316003,-0.0035123292261200175,-0.0072486424012477724,0.012454825041400656,0.9865843630941512
2016-11-10,-1,-0.003809330020854857,-0.0034670795180000245,-0.008554100389827329,0.014630464514174765,0.9847390851491631
2016-11-14,-1,-0.002757763970002265,-0.002552072898945334,-0.008305137756783097,0.012454825041400656,0.9855141428036185
2016-11-16,-1,-0.00524369420561163,-0.0047104134542926245,-0.013825790700395801,0.012454825041400656,0.9844541750957551
2016-11-18,-1,-0.004092620306518338,-0.003764560130945455,-0.013825790700395801,0.01060761304534404,0.9857486016212067
2016-11-22,-1,-0.0033529342141676508,-0.0031404323460486354,-0.013825790700395801,0.008835419906026052,0.9862948297525225
2016-11-25,-1,-0.0021971044701035547,-0.0021834156873307173,-0.014088437557895534,0.008835419906026052,0.9862936737880283
2016-11-29,-1,-0.002383509935880866,-0.00236035338663397,-0.014088437557895534,0.008835419906026052,0.986307081730165
2016-12-01,-1,-0.005004604745694993,-0.0047179374480936145,-0.008312923027749775,0.008835419906026052,0.9878704392668043
2016-12-05,-1,-0.004046461041928953,-0.003890098170320297,-0.008312923027749775,0.010892677777663565,0.9868329968132397
2016-12-07,-1,-0.002617077788234761,-0.0025939356067323045,-0.012056485108076127,0.006137655887831962,0.9885554931104974
2016-12-09,-1,-0.0029881065610998206,-0.0029773940077832757,-0.008312923027749775,0.005732605296422716,0.9899382113718551
2016-12-13,-1,-0.0027090071856821648,-0.0026687403336712293,-0.008312923027749775,0.005732605296422716,0.9897418645137895
2016-12-15,-1,-0.0043163165499348465,-0.004181571551746591,-0.006768060879588851,0.005732605296422716,0.9907865169949974
2016-12-19,-1,-0.003860524442765227,-0.00377596709994094,-0.007219686172754,0.0048869804550357365,0.9908170867476739
2016-12-21,-1,-0.003935524351390326,-0.003797210558162743,-0.007219686172754,0.008989341096339776,0.9897854532470928
2016-12-23,-1,-0.004449812838225169,-0.004235735147494283,-0.003828757320553022,0.013866211083347032,0.9854576195879414
2016-12-28,-1,-0.0037668742043160588,-0.0036219041863567837,-0.003828757320553022,0.011830072474538086,0.9863509023274938
2016-12-30,-1,-0.003880620683919868,-0.003740386488041619,-0.0068253486485925045,0.011830072474538086,0.9852546434251098
2017-01-04,-1,-0.0023838538305305016,-0.002335119448067331,-0.007497772240477004,0.007774189322112038,0.9868928617453846
2017-01-06,-1,-0.0029092409581823607,-0.002906851782397829,-0.007497772240477004,0.007774189322112038,0.987116471960164
2017-01-10,-1,-0.002417421741466287,-0.002371557119974197,-0.007497772240477004,0.011830072474538086,0.9871434627057327
2017-01-12,-1,-0.0014231464137296652,-0.001251946772549404,-0.007497772240477004,0.011830072474538086,0.9867381666535895
2017-01-17,0,-0.00027567187547679643,0.0001272673535964463,-0.010887628112685552,0.011830072474538086,0.9862453933858306
2017-01-19,-1,-0.0010411562433986312,-0.000771887935511167,-0.010325038817697474,0.015385618537132393,0.9855284692450105
2017-01-23,-1,-0.0004913155199739752,-0.0002090735271342754,-0.010325038817697474,0.014079146050508333,0.9860718763944331
2017-01-25,1,0.001613961983227653,0.0021934943939027995,-0.010325038817697474,0.006977611856542802,0.9900660369889589
2017-01-27,1,0.000721641984504535,0.0011605258394515314,-0.008314952070393239,0.013287511734076794,0.9894116843525913
2017-01-31,1,0.0004226073178340052,0.0008384874111920426,-0.003702686901123378,0.014079146050508333,0.9901352817695983
2017-02-02,-1,-0.00031531195310861794,-0.00013932409314716806,-0.0024704420004565504,0.014079146050508333,0.9903824861593674
2017-02-06,-1,-0.0009493382060236048,-0.0008420464068322335,-0.0024704420004565504,0.014175886715962864,0.9899861237784927
2017-02-08,1,0.00011129283299791449,0.00038567944110323303,-0.0031458199092189113,0.013606674347610901,0.990180499051553
2017-02-10,1,0.0009528743643472096,0.0013354145507601502,-0.005102669383700378,0.013606674347610901,0.9904792404791579
2017-02-14,1,0.00026449575205077117,0.000532059161571681,-0.0031458199092189113,0.013606674347610901,0.9905531395141807
2017-02-16,1,0.0008003189127669308,0.0010941881102445243,-0.0031458199092189113,0.013606674347610901,0.9911290152043076
2017-02-21,1,0.0014069851437098666,0.0017748047405329373,-0.004629032015326471,0.013606674347610901,0.9909756669788893
2017-02-23,1,0.0016171535424758779,0.0020311208364307623,-0.005474416557024428,0.013606674347610901,0.9904986693979304
2017-02-27,1,0.002793966232392856,0.0033579527595994935,-0.005474416557024428,0.011828629331621134,0.9911802209301254
2017-03-01,1,0.0031925267374742433,0.0037959587828354947,-0.005474416557024428,0.008951637300394225,0.9918636696604747
2017-03-03,1,0.0031060202340265604,0.0036883212526799877,-0.005474416557024428,0.008951637300394225,0.9918695157120399
2017-03-07,1,0.0031273774404135743,0.0036648896362524103,-0.005474416557024428,0.007039161985073156,0.9923454048498099
2017-03-09,1,0.0026980955678463075,0.0032044070868470715,-0.005195153012880395,0.003918403215984516,0.9932379185089433
2017-03-13,1,0.002309043827331326,0.0027620765454962203,-0.005109388227734654,0.0023365543044115587,0.9943283835353591
2017-03-15,1,0.0033138378255814643,0.003956617505427185,-0.005109388227734654,0.0023365543044115587,0.9934748854736302
2017-03-17,1,0.002788823123751928,0.0033069630493386217,-0.003968843172793351,0.003918403215984516,0.9941921199652003
2017-03-21,1,0.002157370214580296,0.0025723287141709342,-0.003968843172793351,0.004298791488976041,0.9947814779239389
2017-03-23,1,0.0015926638626756057,0.0018874980913924904,-0.005109388227734654,0.0031324610367503922,0.9937872611149614
2017-03-27,1,0.0016574034388131633,0.001989994600513709,-0.005567180300885543,0.004003668858066374,0.9934040763318334
2017-03-29,1,0.001885781065126834,0.0022297395529712874,-0.005567180300885543,0.005976114842791392,0.9929343985122087
2017-03-31,1,0.002237809977669863,0.002569276157104504,-0.007434373585809655,0.005976114842791392,0.9921715612738254
2017-04-04,1,0.0019962358997956285,0.002153040495503672,-0.009075346793696277,0.005976114842791392,0.9915641074129239
2017-04-06,1,0.0015249645283300513,0.001593531188845797,-0.009075346793696277,0.005976114842791392,0.9915425690639574
2017-04-10,1,0.0016372644955779084,0.0017643400477267946,-0.009075346793696277,0.007577338855272217,0.9911884564997514
2017-04-12,1,0.001707731047432227,0.0018255436777249645,-0.007618106958239346,0.005976114842791392,0.992241440530498
2017-04-17,1,0.0028216824886392582,0.003132143169675722,-0.007618106958239346,0.004380086132934848,0.9923468527956794
2017-04-19,1,0.0025125331410154835,0.0027933034155423714,-0.007918241736895735,0.004380086132934848,0.9918425978610146
2017-04-21,1,0.0013016841590473252,0.0014307817714265746,-0.004545831608623754,0.00851421373875591,0.9921709768118339
2017-04-25,1,0.001010913787817206,0.0010928349425830938,-0.004545831608623754,0.00851421373875591,0.9919625748118996
2017-04-27,1,0.0002749697835034049,0.00042338897771842745,-0.006766928766006814,0.004734155467829772,0.9917605696900386
2017-05-01,-1,-0.000428445513248109,-0.00021177451241883184,-0.005419265549075893,0.004734155467829772,0.9919744734317237
2017-05-03,1,0.00012021844610898136,0.00019246672742471524,-0.005419265549075893,0.008042006017978727,0.9918792906860338
2017-05-05,1,0.00017926016830346208,0.000250583466904843,-0.005899384360084129,0.011585235752111754,0.9904527091961309
2017-05-09,1,0.001159816355420768,0.0012266368827464082,-0.005899384360084129,0.011585235752111754,0.9905043675273341
2017-05-11,0,-0.0002021665683910244,1.0074390815228268e-05,-0.005899384360084129,0.011585235752111754,0.9904365529606756
2017-05-15,1,8.976319665368496e-05,0.0002579048100302512,-0.00695292392229336,0.012036900195147726,0.9900408443609807
2017-05-17,-1,-0.0008762076613573421,-0.0006072345440710147,-0.00695292392229336,0.012036900195147726,0.989929530451022
2017-05-19,-1,-0.0003024884523363055,-4.819099623456851e-05,-0.00695292392229336,0.008038634082982374,0.9907783434255818
2017-05-23,-1,-0.0008063107293065606,-0.0004308615621040901,-0.006100037023246286,0.009959427406314498,0.9910885611750009
2017-05-25,-1,-0.0013797162040293858,-0.0009055878027279601,-0.006100037023246286,0.011670434081308353,0.9907600895795483
2017-05-30,-1,-0.0008253281631596301,-0.00046494816019161233,-0.006100037023246286,0.011670434081308353,0.9906593346934573
2017-06-01,-1,-0.000992998200203471,-0.000586973362009204,-0.006100037023246286,0.011670434081308353,0.9902423303877692
2017-06-05,-1,-0.0008606136011950274,-0.00047981449113699247,-0.005908400068065155,0.011670434081308353,0.9905473561463646
2017-06-07,1,6.588344399734939e-05,0.0003022193126951877,-0.005908400068065155,0.009959427406314498,0.9907306972810457
2017-06-09,-1,-0.0005451979459405668,-0.00020954493842458802,-0.005908400068065155,0.012888838350757903,0.9873626233706689
2017-06-13,-1,-0.0010189434096134317,-0.0005570432566283901,-0.005908400068065155,0.011670434081308353,0.987884555296765
2017-06-15,-1,-0.0006768945407614048,-0.0003533754300103788,-0.0054396922141397045,0.010152539683551677,0.9887810869635929
2017-06-19,1,0.0009469106445731821,0.0009476841148748431,-0.005908400068065155,0.010152539683551677,0.9886721874663119
2017-06-21,1,0.00030990235653707057,0.000426993665593758,-0.006396196582510924,0.008955933407115644,0.9888138801516118
2017-06-23,-1,-0.0004900291895229647,-0.0002146833316714863,-0.0054950937759318755,0.00774481822211876,0.9898409315547323
2017-06-27,-1,-0.0007232274176258943,-0.00042658997890361887,-0.006396196582510924,0.008902233910407883,0.9887048157929312
2017-06-29,-1,-0.0012142060069763672,-0.0008354892342030062,-0.006080774902511798,0.00774481822211876,0.9896600426080733
2017-07-03,-1,-0.00031176803006857906,-6.757472080010183e-05,-0.006071553532654743,0.00774481822211876,0.9901454799563654
2017-07-06,1,0.0004060973746596909,0.0005011759687745371,-0.006071553532654743,0.008344061026416971,0.9898648509410061
2017-07-10,1,0.002300205369839894,0.002380316920036564,-0.006071553532654743,0.006526843339019103,0.9924068672853963
2017-07-12,1,0.0013215047076126972,0.0013630698920779215,-0.005205116297529601,0.006526843339019103,0.9932224471852111
2017-07-14,1,0.0018066963460454098,0.0018677784238595179,-0.006071553532654743,0.006526843339019103,0.9925872404245183
2017-07-18,1,0.0014232553671442096,0.0014248551562673671,-0.005205116297529601,0.007294203760474404,0.9923705281583314
2017-07-20,1,0.001854483323460052,0.0019743195652071723,-0.005205116297529601,0.007294203760474404,0.9919945661307281
2017-07-24,1,0.00216801337019426,0.002361512291790624,-0.006071553532654743,0.005968596511520605,0.9918288730761199
2017-07-26,1,0.0018824825557460653,0.0020342566519518674,-0.005917458860897798,0.004670045901666127,0.992710752414853
2017-07-28,1,0.0015236107280728476,0.0016371287261003722,-0.004577123584689657,0.005968596511520605,0.9928824962912032
2017-08-01,1,0.0017864383340959545,0.0019308702375134285,-0.005156832719951447,0.004670045901666127,0.9927547399717159
2017-08-03,1,0.0022600579176958826,0.002466499925980463,-0.005156832719951447,0.0047945084792799,0.9923792796542408
2017-08-07,1,0.002304927392477062,0.0025306597500299364,-0.00689841834161864,0.004410680646540788,0.9921357710903717
2017-08-09,1,0.0023783677843852214,0.002634045757850514,-0.00689841834161864,0.0047945084792799,0.9917963014035462
2017-08-11,1,0.0017350252666542526,0.0018718363851517835,-0.004208390304466179,0.008568496284437666,0.9916110614550382
2017-08-15,1,0.0022915419481760726,0.002513173628451079,-0.00689841834161864,0.008568496284437666,0.9905216745595743
2017-08-17,1,0.0012415616474030404,0.001305902099626069,-0.004681939968588774,0.008568496284437666,0.9912153417444236
2017-08-21,1,0.0013325319987518504,0.0014271146636497631,-0.0038126451995558887,0.009187214584150862,0.9914528147085622
2017-08-23,1,0.0008350157914947729,0.0008557454872029577,-0.004496688189739067,0.009187214584150862,0.9908985502151089
2017-08-25,1,0.0010956594938474227,0.0011498754442357002,-0.004496688189739067,0.00799046989736452,0.9913951187099316
2017-08-29,1,0.00048490006586405636,0.0005195535785975098,-0.00377232279305329,0.010011811662014479,0.9906416541860534
2017-08-31,1,0.0013025257397333314,0.0013386896450347315,-0.00377232279305329,0.012880627586102079,0.9898845010939321
2017-09-05,1,0.0008660817940381421,0.0008870729512140232,-8.634901462231431e-05,0.012880627586102079,0.9902324588050666
2017-09-07,1,0.0016656093150041057,0.0017934470861825972,-0.0002576397048307123,0.015305494532068628,0.9903465094505319
2017-09-11,1,0.0022118073445913686,0.0023781464006379562,-0.0002576397048307123,0.012032019199458422,0.9910872500200149
2017-09-13,1,0.001938621376060576,0.002020074117815184,0.001180821029690962,0.010112623819380903,0.9926218061449259
2017-09-15,1,0.0018383035475558816,0.001895507660953853,0.001180821029690962,0.010112623819380903,0.9926652759195311
2017-09-19,1,0.00250188846245638,0.0026868956240872367,0.0009953239795585996,0.010112623819380903,0.9930417885301376
2017-09-21,1,0.0013883880409961801,0.0013924472728388745,0.001180821029690962,0.012032019199458422,0.992708398639015
2017-09-25,1,0.001284336838593679,0.0013368690067087465,0.0012423018390883944,0.012032019199458422,0.9926286727565906
2017-09-27,1,0.0022972560290960013,0.0023829811436659764,0.00109093299446435,0.010703787345831441,0.9935643652661132
2017-09-29,1,0.004034546704068989,0.004385379423062816,0.00109093299446435,0.008064454597777286,0.9948939189823598
2017-10-03,1,0.0039707340635647004,0.004305164708441301,0.00041791766780048935,0.007737840609694075,0.9946743264175596
2017-10-05,1,0.0040855971720929925,0.004435800894855391,0.00041791766780048935,0.007737840609694075,0.9949322293893811
2017-10-09,1,0.004033241407877513,0.004318807832384859,-0.00017693192044229114,0.007737840609694075,0.9943722576902774
2017-10-11,1,0.0046249186066389895,0.005051575510041769,-0.00017693192044229114,0.010299396505408152,0.994080753929717
2017-10-13,1,0.0033615326670152204,0.0036080964539751863,0.00022368691241151249,0.010805867350860355,0.9941786455126564
2017-10-17,1,0.003279842973364407,0.003518856941754625,0.00022368691241151249,0.011740160642244929,0.9929293032610048
2017-10-19,1,0.003898356990221765,0.004191026523584508,-0.0005040369109882566,0.011693025037233759,0.9936871744917235
2017-10-23,1,0.003755046576419043,0.004033228901079271,-0.0005040369109882566,0.011740160642244929,0.993186834708595
2017-10-25,1,0.003785245415020734,0.004069671724144458,0.00011046202017249001,0.012014680896184429,0.9927556169511704
