JNU-Tangyin/eata/results/Batch4_SP500/Batch4_SP500-ZBH.csv
Date,Action,Predicted_Q25,Predicted_Q75,Actual_Q25,Actual_Q75,RL_Reward
2010-12-14,0,0.0,0.0032861034960238234,-0.0043927339013458844,0.007849009516181216,0.991704293689263
2010-12-16,0,0.0,0.0,-0.004832388381212931,0.007075582124256224,0.9904397833544387
2010-12-20,0,0.0,0.0,-0.004832388381212931,0.00719383426821281,0.9902402141110134
2010-12-22,0,0.0,0.0,-0.004238541696494425,0.00719383426821281,0.9908444707231031
2010-12-27,1,0.00197644416000972,0.0023398144565139056,-0.004238541696494425,0.008175231089745603,0.9895419587476716
2010-12-29,0,0.0,0.0,-0.004238541696494425,0.010673459815502433,0.9858382850906363
2010-12-31,0,0.0,0.0,-0.00561665232841514,0.011114934172822093,0.9852076791082637
2011-01-04,0,0.0,0.0,-0.004238541696494425,0.011114934172822093,0.9859077165039926
2011-01-06,1,0.00051290542426235,0.0006080543398748256,-0.002230737162997305,0.011114934172822093,0.9874693775797003
2011-01-10,1,0.0009305663504613893,0.0011057121545469794,-0.004238541696494425,0.011114934172822093,0.9873359166499586
2011-01-12,1,0.0013241207853637725,0.0014809826576812025,-0.00561665232841514,0.009459511093064341,0.9886494646533118
2011-01-14,1,0.00014631773904244424,0.000248882337445466,-0.00518734974547011,0.009719206253326139,0.9885664098270128
2011-01-19,1,0.0003483137295201802,0.0004181294001451873,-0.003473125402266435,0.010062963446631589,0.9885058109200839
2011-01-21,1,0.0006518221805067109,0.0006876766801342754,-0.003473125402266435,0.01242317627491075,0.9872060562639311
2011-01-25,1,0.00047402770749717605,0.0005237596880798852,-0.008524731137247587,0.010775073019244867,0.9870238042632169
2011-01-27,1,0.0016922388564099744,0.0018395550346349953,-0.007607148892672923,0.010775073019244867,0.9903597312603613
2011-01-31,1,0.0013894188807387427,0.001476163392399175,-0.007668803554578315,0.010775073019244867,0.9900467916869514
2011-02-02,1,0.0018769239718097264,0.002026998693724384,-0.007668803554578315,0.01242317627491075,0.9896641230925689
2011-02-04,1,0.0020547197354207113,0.0022492048950635765,-0.00899224210041805,0.01242317627491075,0.9885845404104661
2011-02-08,1,0.001913440941596271,0.002111630708667378,-0.007753186106283658,0.01486412529702402,0.9886341944750426
2011-02-10,1,0.0021479670096715836,0.0023976672406535184,-0.007753186106283658,0.01486412529702402,0.98807489049789
2011-02-14,1,0.002123445068426827,0.002335586084143705,-0.009207372321010127,0.01486412529702402,0.9874073091471863
2011-02-16,1,0.002621070590621445,0.002941213720480948,-0.011531268307473247,0.01486412529702402,0.9868069836675069
2011-02-18,1,0.003257482811131416,0.003642510765192788,-0.011531268307473247,0.011213463567212343,0.9874077586519381
2011-02-23,1,0.002439166418856533,0.002735971010527803,-0.010699807787469515,0.011213463567212343,0.98810466802908
2011-02-25,1,0.0024328986274251437,0.0026915102531862405,-0.010699807787469515,0.010619756080697797,0.9885515216681443
2011-03-01,1,0.002355611812997445,0.0026537641446383567,-0.010130883883038039,0.010619756080697797,0.9892668064125765
2011-03-03,1,0.002801675276926327,0.00312601851217699,-0.010130883883038039,0.006502082080516059,0.9899344640537155
2011-03-07,1,0.001806044821184074,0.001961186161199252,-0.008115221635836991,0.007530927562645235,0.9903260398329223
2011-03-09,1,0.0018269499856450023,0.0019545020223027884,-0.008115221635836991,0.006502082080516059,0.9904101034721244
2011-03-11,1,0.0015247927489960482,0.0016758822246449193,-0.008115221635836991,0.005584504548251931,0.9913630346230731
2011-03-15,1,0.0013642976080169736,0.0014056743935309808,-0.008115221635836991,0.006957336955737829,0.9912833246964299
2011-03-17,1,0.0011527340977895537,0.0011835674038959752,-0.007302485567197585,0.006957336955737829,0.9922863276692352
2011-03-21,1,0.0010375879381483617,0.0010820211954200708,-0.008008924190256474,0.005584504548251931,0.9915854410124246
2011-03-23,1,0.0002588900719132305,0.00039347365390144767,-0.007302485567197585,0.006957336955737829,0.9899151622526742
2011-03-25,0,-0.00011806487738503396,0.00011027401562194411,-0.008008924190256474,0.006957336955737829,0.9894942779583407
2011-03-29,1,0.0011790185734927186,0.0012328171075902895,-0.008008924190256474,0.009228231203876485,0.9886887880525218
2011-03-31,1,0.0014226575093177157,0.001447174539698933,-0.008195659823928433,0.011628675760226692,0.9865699839732034
2011-04-04,1,0.0012775594317998775,0.0012806647236215693,-0.008195659823928433,0.010200017318423961,0.9869749035368871
2011-04-06,1,0.0008663489417714941,0.0009398037975594346,-0.008195659823928433,0.010200017318423961,0.9874586790171352
2011-04-08,1,0.00012168319954010919,0.0002989803313322611,-0.0015986563334308497,0.012979156539991949,0.9868226056567604
2011-04-12,-1,-0.000794444660115588,-0.000496043661840107,-0.0015969197489466482,0.018837543899470847,0.9858490246062548
2011-04-14,-1,-0.0005869945539075497,-0.00031868138788234746,-0.007750296999902751,0.018837543899470847,0.9856736345009028
2011-04-18,0,-2.2570233522189835e-05,0.000214296873366159,-0.002808190330310583,0.012979156539991949,0.9877531426158795
2011-04-20,-1,-0.0004567400136494319,-0.0001794672820472354,-0.002808190330310583,0.010200017318423961,0.9900503991049776
2011-04-25,-1,-0.001182667467184968,-0.0007945991197928688,-0.007750296999902751,0.007341009055105072,0.9902108210344003
2011-04-27,0,-7.130534898107735e-06,0.000217335990785496,-0.007750296999902751,0.005859549232027205,0.9914342157314978
2011-04-29,1,0.0006082772661779558,0.0007795271517919519,-0.002808190330310583,0.005859549232027205,0.9933832990222993
2011-05-03,1,0.0012682312563731583,0.0013361885584161149,-0.00793501369385457,0.003649792453477219,0.9925762668283861
2011-05-05,1,0.0017442402876213365,0.0017980566244463463,-0.00793501369385457,0.003649792453477219,0.991863930905586
2011-05-09,1,0.002233934723527162,0.002379060123313791,-0.008761945655856399,0.0013142352243192493,0.991446751047675
2011-05-11,1,0.0027296764727771203,0.0029491992570027043,-0.009467795519425748,0.0013142352243192493,0.9915303073587017
2011-05-13,1,0.002394186368900183,0.0025725823217709392,-0.009957089649996281,0.0013142352243192493,0.9911283345492377
2011-05-17,1,0.002214547340070152,0.0023654296333263094,-0.010451541004803985,0.00240027535423398,0.9904592654087223
2011-05-19,1,0.0016292281679071575,0.0016849306837926474,-0.010451541004803985,0.00240027535423398,0.9904723208489131
2011-05-23,1,0.0007338098231579965,0.0008062687734010289,-0.010068903563329352,0.0038343997871471843,0.9907797408056573
2011-05-25,1,0.0004843529094667317,0.0006033819186387986,-0.012009335368487787,0.0038343997871471843,0.9898213583999375
2011-05-27,1,0.0009817237481924627,0.0010313670849804943,-0.012009335368487787,0.0038343997871471843,0.9893910461143258
2011-06-01,-1,-0.0002622498202113681,-9.930510901059097e-07,-0.010068903563329352,0.006761179798162348,0.9903691987852891
2011-06-03,-1,-0.0006545134461052035,-0.00034858549423728055,-0.010068903563329352,0.009027807499598424,0.989042438011273
2011-06-07,-1,-0.0007283607881748462,-0.00048177767115853106,-0.00874174783642622,0.009027807499598424,0.9893707102890327
2011-06-09,-1,-0.0011301330389489436,-0.0008311296779901664,-0.00874174783642622,0.00910449435339123,0.9888702267311188
2011-06-13,-1,-0.0013968363635135568,-0.0010747054997880929,-0.00874174783642622,0.010539103187544838,0.9882616344893141
2011-06-15,-1,-0.0017113538164900727,-0.0013592474569401728,-0.007575244668226636,0.010539103187544838,0.9889687349123812
2011-06-17,-1,-0.0021828037217013424,-0.0017853190576991038,-0.007473887325351132,0.010539103187544838,0.9890348181815584
2011-06-21,-1,-0.0015327360881130995,-0.0012490126262030795,-0.007473887325351132,0.00910449435339123,0.9896655508297256
2011-06-23,-1,-0.0022193209659970075,-0.0018496695022676242,-0.007473887325351132,0.010539103187544838,0.9888067975673929
2011-06-27,-1,-0.001664556628088348,-0.0013916467907360468,-0.010371118294024508,0.009562259267493864,0.9885771701190627
2011-06-29,-1,-0.0014065427791908496,-0.0011573693364050797,-0.010957310518430588,0.006327924579463188,0.9883919769230923
2011-07-01,-1,-0.00014852216610877086,-8.55447970168096e-05,-0.01316021614292978,0.004777497887080421,0.9887580304782642
2011-07-06,1,2.2371952444773637e-05,0.00010904031942926453,-0.017044867733285708,0.004777497887080421,0.9880607465757251
2011-07-08,-1,-0.00038236865206727936,-0.000293454142536687,-0.016961310046036397,0.004777497887080421,0.9881728730813872
2011-07-12,-1,-0.0007149867324746413,-0.000616269080097702,-0.016961310046036397,0.004777497887080421,0.9867100144075004
2011-07-14,1,0.0003614648088509662,0.00041868247139451937,-0.01889399757453388,0.004818123665786788,0.9829238445111517
2011-07-18,-1,-0.0011477502895369063,-0.000952243244506811,-0.01889399757453388,0.006220404400996052,0.9831197454029048
2011-07-20,-1,-0.0004068213000916172,-0.0003240817870965363,-0.01889399757453388,0.005360012651989064,0.9830255817948029
2011-07-22,-1,-0.0012853220572242984,-0.0011011578672239395,-0.01889399757453388,0.005360012651989064,0.9824404214280048
2011-07-26,-1,-0.0013176086205350765,-0.001193292345385179,-0.01889399757453388,0.00853647713722922,0.9817765613163242
2011-07-28,-1,-0.002506313004323557,-0.0022054830313532484,-0.01889399757453388,0.009350897464218848,0.9818282640487889
2011-08-01,-1,-0.0032176892201397902,-0.0028776222661301984,-0.010128140711838957,0.014205456086675589,0.9803760717503367
2011-08-03,-1,-0.00427981104261857,-0.0037793872604449884,-0.006506478282023083,0.01909140676118445,0.9799718764583802
2011-08-05,-1,-0.004348736869014641,-0.003812409009434855,-0.007762819922251248,0.01453581953582333,0.9804745237570559
2011-08-09,-1,-0.007261548428666701,-0.006353322051861152,-0.006506478282023083,0.020242720518594107,0.9804436022840655
2011-08-11,-1,-0.006884731944150088,-0.006089362183065189,-0.007571186751039891,0.01453581953582333,0.9819618498004948
2011-08-15,-1,-0.006809560892296819,-0.0059895476673145496,-0.007571186751039891,0.020242720518594107,0.981494781266097
2011-08-17,-1,-0.006849707892129658,-0.006052172395824841,-0.007571186751039891,0.020242720518594107,0.979476767244136
2011-08-19,-1,-0.008144471270274404,-0.007206847652327491,-0.00754139010894235,0.020242720518594107,0.9809595357815261
2011-08-23,-1,-0.006329225936443802,-0.005598684796124562,-0.007757171026116781,0.016567373917618967,0.9817998788954159
2011-08-25,-1,-0.005351800987949705,-0.004750742048383338,-0.008038194123620758,0.016567373917618967,0.9811842019791804
2011-08-29,-1,-0.0032932402199293102,-0.002927721263540289,-0.008038194123620758,0.016416011371313734,0.9812041062808123
2011-08-31,-1,-0.002876632507772559,-0.0025231315282753294,-0.013020105015216958,0.01516091453391386,0.9808022215899611
2011-09-02,-1,-0.004132081202947073,-0.0036374092032513596,-0.028550012657582533,0.01516091453391386,0.9783013451949714
2011-09-07,-1,-0.0024515998219825285,-0.0021714787480443323,-0.028550012657582533,0.01425739649660233,0.9797476119870246
2011-09-09,-1,-0.004253473936628358,-0.0037974543271340816,-0.012650306074048113,0.01516091453391386,0.9808789367410984
2011-09-13,-1,-0.002716412290053808,-0.002445811511192191,-0.012650306074048113,0.01516091453391386,0.9813369361352712
2011-09-15,-1,-0.0010600732051053697,-0.0009807595245565712,-0.01814659267312756,0.012771680626346739,0.9825439780282946
2011-09-19,-1,-0.0005725609091108382,-0.0005550120934226584,-0.021016421036989093,0.012771680626346739,0.9822781959011839
2011-09-21,-1,-0.0010390964185445128,-0.0010138952559546098,-0.01601236597074568,0.011752528927921007,0.9833303581695331
2011-09-23,-1,-0.0016323528232314766,-0.0016189093387680973,-0.008005186593792735,0.014128125007339563,0.9833168318701379
2011-09-27,1,0.0008838572653714014,0.001207676906205787,-0.01601236597074568,0.010456733420907919,0.9851897153530812
2011-09-29,1,0.0008635254582532832,0.0012271544344355856,-0.008005186593792735,0.009087226639749561,0.9867095842892016
2011-10-03,-1,-0.0019195227453784347,-0.0018907024050379608,-0.0018383429944411008,0.009087226639749561,0.9880047413054664
2011-10-05,-1,-0.0010859443380948491,-0.0009344251191539487,-0.008005186593792735,0.009450757424047093,0.9868124258981339
2011-10-07,-1,-0.0003008916470867754,-3.998244878317223e-05,-0.01601236597074568,0.009450757424047093,0.9862952152746224
2011-10-11,1,0.00045707843481143217,0.0008131212332857516,-0.01601236597074568,0.012759637461411203,0.9849178185875878
2011-10-13,-1,-0.0003559163027757183,-0.0001539349767470295,-0.020616201590115357,0.012759637461411203,0.9832371188457685
2011-10-17,-1,-0.0007504059414131499,-0.0005884888707416752,-0.006454555839159947,0.016146738094798607,0.9831193562291456
2011-10-19,1,0.0004844395880069768,0.0008496879715983203,-0.02153786357903549,0.016146738094798607,0.9833717265584959
2011-10-21,1,0.0015290016967949248,0.001995065577258492,-0.025958844349210336,0.010174888168068205,0.9820590126178325
2011-10-25,1,0.0006127649757207054,0.0009506146000258097,-0.023600642066345587,0.010174888168068205,0.9829930773538857
2011-10-27,1,0.0007873070985989978,0.001119626336688321,-0.023600642066345587,0.005815801274509179,0.98282832194319
2011-10-31,0,-8.300514362517592e-05,0.00012441089856641218,-0.02075179615141391,0.016146738094798607,0.9832989149259331
2011-11-02,-1,-0.0004553597118256396,-0.0003216520826286648,-0.011222246742633979,0.016146738094798607,0.983142062607541
2011-11-04,-1,-0.00045610078829780445,-0.0003348667647694224,-0.011222246742633979,0.014594358274323305,0.982678943663738
2011-11-08,1,0.0011589589595808294,0.0014706771006853217,-0.014234833724898645,0.002742513711424914,0.984091623510726
2011-11-10,-1,-0.0002156856150662671,-4.02213011654113e-05,-0.014234833724898645,0.008125529532942828,0.9845355160079279
2011-11-14,0,-0.0001362278595907845,6.144897347351672e-06,-0.02010087107455164,0.002742513711424914,0.9837638725430333
2011-11-16,-1,-0.0006630854828819239,-0.0005870284662446097,-0.014231431754248949,0.005798951443142593,0.984606957683543
2011-11-18,-1,-0.0017629042473527791,-0.0017099394261392337,-0.009043041577955987,0.005798951443142593,0.9869625183352153
2011-11-22,-1,-0.0013355178515224112,-0.001262412430687087,-0.009043041577955987,0.01595710732080198,0.9830871221431513
2011-11-25,-1,-0.001515842427672784,-0.0014738983767677927,-0.009043041577955987,0.02170783666313863,0.9819551063451353
2011-11-29,-1,-0.0010976965630534862,-0.0009907230001549015,-0.006777722840454799,0.01615048784637552,0.9833390835961378
2011-12-01,1,0.0007892550552565753,0.0011395075251089655,-0.006777722840454799,0.007791994170566409,0.9863279550973102
2011-12-05,1,0.0003707624564324028,0.000683171626167634,-0.006777722840454799,0.0066993651930403525,0.9876777535016955
2011-12-07,1,9.370824605689997e-05,0.00035479917850526747,-0.0047659456200925135,0.010260585412212876,0.9876130939181335
2011-12-09,1,0.0008126871955468876,0.0011961808804359544,-0.0028412619178727425,0.010260585412212876,0.9887218007050751
2011-12-13,-1,-0.0002689965774439056,-3.838146527124014e-05,-0.002679821962014275,0.010260585412212876,0.9894445615219859
2011-12-15,-1,-0.0004410193493153307,-0.0002695128380345185,-0.0008437411761507232,0.010260585412212876,0.9897299005423318
2011-12-19,-1,-0.0006269332126692371,-0.0005117804667449899,-0.0003659803869033282,0.01092576761627705,0.9891128850161043
2011-12-21,1,0.0011417734514240524,0.001433485916339571,-0.0006814489954038031,0.007991122218045245,0.9938528868614441
2011-12-23,1,0.0018446708405062142,0.0021899146627902006,-0.0006814489954038031,0.008988996855169925,0.9937913987099241
2011-12-28,1,0.0019714250161508903,0.00235964448100214,-0.0003659803869033282,0.01092576761627705,0.9919616564830018
2011-12-30,1,0.0008452964646461483,0.0009630427402386628,-0.0006731907355424511,0.01092576761627705,0.9912125749509461
2012-01-04,0,0.0,0.0,4.29975943671989e-05,0.01092576761627705,0.9915236650560679
2012-01-06,0,0.0,0.0,4.29975943671989e-05,0.011698387406272319,0.9912493786592735
2012-01-10,0,0.0,0.0,-0.0006731907355424511,0.009210724256524649,0.9923774314977092
2012-01-12,0,0.0,0.0,-0.0006731907355424511,0.009210724256524649,0.9914986850528534
2012-01-17,0,0.0,0.0,-0.0002669655075590413,0.009267521379022484,0.9908862769995129
2012-01-19,0,0.0,0.0,-0.001980605169984386,0.008759547579355828,0.991529652912278
2012-01-23,0,0.0,0.0,-0.0031552179439218717,0.008759547579355828,0.9913855632970475
2012-01-25,1,0.003836256709353304,0.004448642895352713,-0.003379674527825291,0.007673775813369513,0.9923028328112738
2012-01-27,0,0.0,0.0,-0.003379674527825291,0.00691370124535362,0.9938676020672449
2012-01-31,0,0.0,0.0,-0.00377130368294034,0.006479013781134099,0.9933885752502853
2012-02-02,0,0.0,0.0,-0.004076436112036995,0.0029210573814997254,0.993468453368091
2012-02-06,0,0.0,0.0,-0.004976792688250036,0.002152982680674493,0.9938028760240806
2012-02-08,0,0.0,0.0,-0.004976792688250036,0.006479013781134099,0.9931600095615669
2012-02-10,0,0.0,0.0,-0.004076436112036995,0.007101333318920239,0.9938772007277751
2012-02-14,0,0.0,0.0,-0.004233382076344713,0.006841397381138831,0.9932125383432566
2012-02-16,0,0.0,0.0,-0.004233382076344713,0.008643424839268016,0.9923389472204829
2012-02-21,0,0.0,0.0,-0.004659513819454724,0.008643424839268016,0.9920423250197705
2012-02-23,1,0.003375366702292206,0.003996303360489573,-0.006498998298087038,0.008643424839268016,0.9918547999220051
2012-02-27,1,0.0021654488872206376,0.002391789833565563,-0.006498998298087038,0.008643424839268016,0.9919556054755149
2012-02-29,1,0.0016855155634798245,0.001873920317976082,-0.004659513819454724,0.008643424839268016,0.9923210210049227
2012-03-02,1,0.001545876152055146,0.001757961992785505,-0.004392480655624624,0.01007538119729517,0.9918835141860042
2012-03-06,1,0.0016964625242350813,0.0019499959653921303,-0.003733549629989644,0.011408954777852627,0.9917329748206696
2012-03-08,1,0.0020017583483346313,0.002274894078212723,-0.004392480655624624,0.011207552186773408,0.9919436354610207
2012-03-12,1,0.001819460925362094,0.0020257150397671,-0.007249623933487068,0.007619991723287405,0.9910915860655636
2012-03-14,1,0.0028853257999701927,0.003269163473007321,-0.007249623933487068,0.007619991723287405,0.9916452458141882
2012-03-16,1,0.0038623652969360105,0.004408770624661952,-0.007591894978041887,0.003880314812375491,0.9908722442642227
2012-03-20,1,0.003412521081467197,0.0038664802110909293,-0.007534311496404518,0.007619991723287405,0.9902572802882923
2012-03-22,1,0.0032036828800598555,0.003662572731537719,-0.008536260949802844,0.007619991723287405,0.989949086173023
2012-03-26,1,0.0030228489941118023,0.003343466872622547,-0.009056732309500494,0.002788470186004813,0.9896988775430364
2012-03-28,1,0.0023500789423731494,0.002624913439245803,-0.009914309620091391,0.006911117693894341,0.9890293210516606
2012-03-30,1,0.0021573346009048553,0.002341254476493164,-0.009914309620091391,0.006911117693894341,0.9892830105560416
2012-04-03,1,0.0033757665315180744,0.0038038691430923375,-0.011682309692824432,0.0069649037453560474,0.9879428365387986
2012-04-05,1,0.0026028179459608707,0.002919857815281533,-0.013324161230130784,0.0069649037453560474,0.9879435791773726
2012-04-10,1,0.0019834954143345854,0.002246316263788233,-0.011932365497339453,0.007864342324775873,0.988687927108713
2012-04-12,1,0.00203645095018954,0.0022533599476437134,-0.011932365497339453,0.004484569498614529,0.9887196603563951
2012-04-16,1,0.00027870267053069805,0.00046533318028625843,-0.011247856163977724,0.004484569498614529,0.9893512645746846
2012-04-18,1,0.0003983341499205192,0.0005984713130171008,-0.011247856163977724,0.003986434712049352,0.9901885060285693
2012-04-20,-1,-0.0005842575414632535,-0.0002497880776265566,-0.011247856163977724,0.003986434712049352,0.9898993795422797
2012-04-24,-1,-0.0009192283702475707,-0.000548995021297907,-0.010917277064411299,0.004286247571855961,0.9898238869157012
2012-04-26,1,0.0008314908514419073,0.0010021985969571972,-0.010775964036866622,0.004286247571855961,0.9894432132461626
2012-04-30,1,0.0011162090923412804,0.0012545727251358184,-0.010775964036866622,0.003881431222228009,0.989964397067908
2012-05-02,1,0.001291193397012741,0.0014342034656310652,-0.010775964036866622,0.0026633901425042765,0.9902484934725827
2012-05-04,1,0.0009219231414233567,0.001090150765927468,-0.010775964036866622,0.0011694630802494869,0.9896032428699728
2012-05-08,0,-0.00026431079305495875,0.00010249368790875638,-0.009411712336808174,0.0026633901425042765,0.9899704734269159
2012-05-10,-1,-0.0009675238890608873,-0.0005118067431439184,-0.008783701000858495,0.004622888030958701,0.9898757870249463
2012-05-14,-1,-0.0018738902173884638,-0.0013021877547674853,-0.009411712336808174,0.007038975865195341,0.9892738368988498
2012-05-16,-1,-0.002016790168396851,-0.0015853662724711075,-0.009014510899977478,0.008416611050872104,0.9886207830164986
2012-05-18,-1,-0.003299564182832355,-0.0027308904894970125,-0.007060036691699118,0.011662962333542947,0.9873080703340386
2012-05-22,-1,-0.0024369621458273363,-0.0019657695191495966,-0.007060036691699118,0.00936724581287058,0.9881791233602399
2012-05-24,-1,-0.0017424476422609387,-0.0013628751807911502,-0.00744866930468035,0.00936724581287058,0.9876954088670069
2012-05-29,-1,-0.00172262119172446,-0.0013297446170991553,-0.010180411905617743,0.00936724581287058,0.9871324959300896
2012-05-31,-1,-0.0024424675521689905,-0.0019935861236990184,-0.00744866930468035,0.011662962333542947,0.9874372448786364
2012-06-04,-1,-0.0017935735198982667,-0.001430686416558151,-0.004505182422709263,0.013251939570054853,0.9869573180251632
2012-06-06,-1,-0.0012847430527843998,-0.0009603914584180502,-0.00744866930468035,0.011662962333542947,0.9873182563210412
2012-06-08,-1,-0.0006708145832142549,-0.0004172817210609237,-0.009803557121603862,0.012029639425921217,0.9865400539652047
2012-06-12,-1,-0.0008448427937401209,-0.0006020034235015723,-0.007866892187070451,0.012029639425921217,0.9872921267903664
2012-06-14,-1,-0.0008604264491090867,-0.0006076044866944964,-0.007259665120305124,0.010222759675174099,0.9874882079594641
2012-06-18,1,0.00016595264163878345,0.0001697284915792827,-0.007254599967534887,0.010222759675174099,0.988242161954253
2012-06-20,1,3.7662217031109345e-05,5.0071513070461214e-05,-0.007254599967534887,0.010097029306950082,0.9884257989019891
2012-06-22,-1,-1.4472087083041315e-05,-8.761142739708287e-06,-0.00867188394513949,0.004591953489077103,0.9887453057710358
2012-06-26,-1,-0.000642908516652383,-0.0005899566291487619,-0.00867188394513949,0.004591953489077103,0.9890260172979123
2012-06-28,1,0.0003018916211806267,0.0003529151005157004,-0.012218532395810977,0.0031401621030382187,0.9878684775198728
2012-07-02,1,0.0007380667362140644,0.0008425913071688966,-0.012218532395810977,0.0031401621030382187,0.9891214749041108
2012-07-05,1,0.00018482683773943866,0.00021101698505612956,-0.0129338457963699,0.0034183592258802574,0.9888395843057232
2012-07-09,1,0.0006641243557527092,0.0007126909142854765,-0.00867188394513949,0.003906758165803331,0.9889680453129184
2012-07-11,1,0.0002858173059410341,0.0002967048487108375,-0.008248595909979152,0.005087998722869225,0.9884038661879815
2012-07-13,1,0.00022200231504458884,0.0002509261253830902,-0.007293883455542297,0.004868061445944224,0.9886462770994721
2012-07-17,1,0.0007479791204419395,0.0007885965257111986,-0.0072031466818580974,0.003906758165803331,0.99008404445843
2012-07-19,1,0.0007779976940060449,0.0008378097517917137,-0.0052461083014318,0.004443237305605733,0.9902506693560488
2012-07-23,-1,-0.0007155622629449912,-0.000558145617202745,-0.00047362042128268485,0.006443090542940705,0.9912039289190225
2012-07-25,-1,-0.0013945404087706567,-0.0011419934428814043,-0.0025620359587379413,0.006443090542940705,0.9913590707940343
2012-07-27,-1,-0.0015304359000939695,-0.0012537505267623465,-0.0025620359587379413,0.006443090542940705,0.9925878782625674
2012-07-31,-1,-0.0011312200496579803,-0.0009312607426968688,-0.0031895060897766253,0.006443090542940705,0.9926605642139363
2012-08-02,-1,-0.0013909594895426176,-0.0011754225160179519,-0.0021077646841209125,0.008089157533839816,0.9930858763067227
2012-08-06,1,3.867967636102379e-05,5.173888781821872e-05,-0.0023524070545019675,0.006443090542940705,0.9939866147448025
2012-08-08,1,0.0010645246066578737,0.0012219290999764831,-0.0031895060897766253,0.006443090542940705,0.9937026833198568
2012-08-10,1,0.001289841040740594,0.0014566176731179792,-0.0035288894109358902,0.006814685112824339,0.9931285828218146
2012-08-14,1,0.0011180375696070897,0.0012403528377307568,-0.0035288894109358902,0.008534598909016738,0.9927573257485124
2012-08-16,1,0.0016207238636482598,0.0018450720958003148,-0.0035288894109358902,0.009921877861260614,0.9921432890377805
2012-08-20,1,0.0017099277545498783,0.0019173457156166432,-0.0035288894109358902,0.009252535526786633,0.9923627463433226
2012-08-22,1,0.0013647121536121327,0.0015476113939559455,-0.0024317259998602875,0.009252535526786633,0.9927226164915094
2012-08-24,1,0.0013670976767995902,0.0015719532039212014,-0.0018551713208154665,0.010770523894012014,0.9929640223587797
2012-08-28,1,0.0012492945733770296,0.001428593207967301,-0.0025331524849445935,0.010770523894012014,0.9923882385670625
2012-08-30,1,0.0010977062979953091,0.0012191745243756377,-0.0025331524849445935,0.010255350453327296,0.9923141254460218
2012-09-04,1,0.001915983073181206,0.002179687620418239,-0.004258597381677922,0.008790774641989886,0.9929007650632343
2012-09-06,1,0.0021009710587818493,0.00235669914257655,-0.0015164356844177985,0.0072148568996812336,0.9940951182757233
2012-09-10,1,0.002489750834089832,0.0028348228892440246,-0.0020565445369743404,0.004751439853895153,0.9945912639201834
2012-09-12,1,0.0019819790411952486,0.0023321464888538443,-0.005694180890300698,0.003926516804555265,0.991763716470294
2012-09-14,1,0.002416209611947352,0.0028024056852545476,-0.0063740663322345015,0.003744043851006329,0.9917190594242482
2012-09-18,1,0.002661416840461034,0.0030603029661253984,-0.0063740663322345015,0.005186236478460737,0.9909130229497715
2012-09-20,1,0.002544779124122772,0.002940885719529526,-0.0063740663322345015,0.005186236478460737,0.9913842767739833
2012-09-24,1,0.003211162035432577,0.00372464818219258,-0.008621530727625056,0.005186236478460737,0.9901126433470916
2012-09-26,1,0.0023837454333111782,0.0027469128150617063,-0.008621530727625056,0.005186236478460737,0.990162873238812
2012-09-28,1,0.002759824958284805,0.003157713523918724,-0.008621530727625056,0.003930853251955781,0.9889301673626638
2012-10-02,1,0.002399149398664251,0.002733200598465697,-0.007584375390680331,0.009601284584399402,0.9883682019170144
2012-10-04,1,0.00212518331803459,0.002388868729906045,-0.00826457858590672,0.00986005040755927,0.9878440900563326
2012-10-08,1,0.0016331291849632904,0.0018089991692980226,-0.012100194656508655,0.00986005040755927,0.9871875541570008
2012-10-10,-1,-0.0011945578053687417,-0.0009578524874332767,-0.006947599589972093,0.00986005040755927,0.9896768798761509
2012-10-12,-1,-0.0009947103881452802,-0.0008153576502941,-0.00469411433402007,0.00986005040755927,0.9902213342765811
2012-10-16,1,0.0003801248788080163,0.00041010394753259903,-0.00469411433402007,0.006189497592827823,0.9914482127558972
2012-10-18,1,0.0005500430864424748,0.0006131089623178472,-0.00469411433402007,0.00986005040755927,0.9903819456321774
2012-10-22,-1,-0.00033190159675477624,-0.00023987817372281278,-0.004032007036225844,0.007890720274248919,0.991377795544081
2012-10-24,-1,-0.0018943384760195018,-0.001566643118750336,-0.004032007036225844,0.00986005040755927,0.9913231381659582
2012-10-26,-1,-0.0007295232205442281,-0.000576985883046283,-0.0028556548909763804,0.007890720274248919,0.9929209367537001
2012-11-01,1,0.000634670083215312,0.0006805365701503881,-0.004032007036225844,0.004206155317833082,0.9939039461365307
2012-11-05,1,0.0005367491220464449,0.0005475211967675207,-0.004032007036225844,0.004206155317833082,0.994080742811786
2012-11-07,0,-3.9978302538230175e-06,4.6259680062890244e-05,-0.003396758170038521,0.0032012689562456948,0.9950775008033325
2012-11-09,1,0.0003211130241603746,0.0003956284424188975,-0.0035156695149635023,0.0032012689562456948,0.9950122308291759
2012-11-13,1,0.00033585710689503905,0.0004166382986049297,-0.003229137770080024,0.006292208059484827,0.9937402109768203
2012-11-15,1,0.0003214508429934701,0.000385294041390598,-0.003229137770080024,0.006292208059484827,0.9936649319555364
2012-11-19,1,0.0005629948282400863,0.0006084222504025389,-0.003229137770080024,0.007296231146430957,0.9937925407753601
2012-11-21,1,0.0008693508480686771,0.0009719456297005716,-0.003229137770080024,0.007531797186653659,0.993633342215336
2012-11-26,1,0.0012629878499591841,0.0014642595248518838,-0.003980289376338542,0.006295774820998732,0.9934000985529671
2012-11-28,1,0.001083103092826651,0.0012283595888079285,-0.006153971422095891,0.006295774820998732,0.9930927529600526
2012-11-30,1,0.0008658764320212342,0.0009931019901900204,-0.007176040337080044,0.007531797186653659,0.9918690268776824
2012-12-04,1,0.0008955423169886368,0.000998580445332292,-0.00425725063809528,0.009802493108646688,0.991157721811325
2012-12-06,1,0.000822143780945481,0.0009145290727808608,-0.00425725063809528,0.009802493108646688,0.9910822484737183
2012-12-10,1,0.0010553648923136384,0.0011997384261871235,-0.003966802066218827,0.01317166003610417,0.9905288575586729
2012-12-12,0,0.0,0.0,-0.003966802066218827,0.009802493108646688,0.9912400260996729
2012-12-14,0,0.0,0.0,-0.003010748218543075,0.009802493108646688,0.991361404801468
2012-12-18,1,0.0006857445276511002,0.0007280766402229439,-0.003010748218543075,0.01255334437784235,0.9913320622839895
2012-12-20,1,0.0006248786116822352,0.0007230083526593722,-0.00031599710795734135,0.01255334437784235,0.9913199192723184
2012-12-24,-1,-0.0004886288515815608,-0.00025869122536155355,0.0011191058854568814,0.01255334437784235,0.991770452165596
2012-12-27,-1,-0.0012896312726033987,-0.0009230748014846107,0.0011191058854568814,0.01255334437784235,0.9913449267189058
2012-12-31,0,0.0,0.0,0.0011191058854568814,0.009943253129918696,0.9927090211789311
2013-01-03,0,0.0,0.0,-0.0001940092015566427,0.008440733095446625,0.9933252268511588
2013-01-07,0,0.0,0.0,-0.0004015624394352237,0.008440733095446625,0.9932885261211386
2013-01-09,0,0.0,0.0,-0.0007988133810637475,0.008440733095446625,0.993538943271185
2013-01-11,1,0.0025564274743380766,0.002674045864432457,-0.0013200821697333025,0.008838469741973056,0.9936087852245549
2013-01-15,1,0.0020117007156945127,0.00215988869405339,-0.0013699614388307157,0.008838469741973056,0.9933808282602382
2013-01-17,0,0.0,0.0,-0.0020733712662061488,0.008214849717977906,0.9937283806242497
2013-01-22,0,0.0,0.0,-0.0026715717451834646,0.005754271001021121,0.9939146984407669
2013-01-24,0,0.0,0.0,-0.0035228479740716267,0.005754271001021121,0.9930967957627193
2013-01-28,0,0.0,0.0,-0.0069505351677157925,0.005472336287786196,0.9925911621881423
2013-01-30,0,0.0,0.0,-0.0035228479740716267,0.006993386241641995,0.9925400535718976
2013-02-01,1,0.00248562389827322,0.0027244783311849968,-0.0026715717451834646,0.006993386241641995,0.9934576913573295
2013-02-05,1,0.0028228926823740596,0.0031214281585861666,-0.0035228479740716267,0.006993386241641995,0.9928861265736522
2013-02-07,0,0.0,0.0,-0.005425458687491739,0.0068199730235337505,0.9928476825456748
2013-02-11,0,0.0,0.0,-0.005425458687491739,0.006423976853967461,0.9929748093057971
2013-02-13,1,0.0003621541992437538,0.00042448977725221334,-0.006103086953711322,0.0061288889769278015,0.9926736529769358
2013-02-15,1,0.004423715090205752,0.004953681897142444,-0.010029436624163522,0.0061288889769278015,0.9915424595040166
2013-02-20,1,0.004193274068657202,0.0047169979547559086,-0.0078081683991567475,0.0061288889769278015,0.9919928203431493
2013-02-22,1,0.002504286482484355,0.002770611671496279,-0.0078081683991567475,0.006423976853967461,0.9921446025486346
2013-02-26,1,0.002449275208158681,0.0027413942164377803,-0.007144870323082731,0.0068199730235337505,0.9919563410884772
2013-02-28,0,0.0,0.0,-0.007144870323082731,0.0062575338103934095,0.992305766927294
2013-03-04,0,0.0,0.0,-0.007144870323082731,0.0062575338103934095,0.9922208582836805
2013-03-06,0,0.0,0.0,-0.007879004187438155,0.0062575338103934095,0.9921184718477759
2013-03-08,1,0.0012282426426166609,0.0012687627904656971,-0.010235982783597903,0.004900355223750118,0.9916424204255104
2013-03-12,1,0.0012723735255453432,0.0013253146281720246,-0.010235982783597903,0.007428860752637043,0.991149922056297
2013-03-14,0,0.0,0.0,-0.010153950240169745,0.007428860752637043,0.9912766895791808
2013-03-18,0,0.0,0.0,-0.008164056011947696,0.007428860752637043,0.9910601266791129
2013-03-20,0,0.0,0.0,-0.008164056011947696,0.007428860752637043,0.9910075897132609
2013-03-22,0,0.0,0.0,-0.007339252355120211,0.007428860752637043,0.9912656704468537
2013-03-26,0,-0.00022528423771285783,2.4095352424495205e-06,-0.005192747015823359,0.007428860752637043,0.9918123832911473
2013-03-28,0,0.0,0.0,-0.007093698900091016,0.007428860752637043,0.9914037925824766
2013-04-02,0,0.0,0.0,-0.007093698900091016,0.011177471323901405,0.9906267522378451
2013-04-04,0,0.0,0.0,-0.007093698900091016,0.007996603264123934,0.9907283270217911
2013-04-08,0,0.0,0.0,-0.004987349620390888,0.012949541908732088,0.9908281390727598
2013-04-10,0,0.0,0.0,-0.004987349620390888,0.011855332438732089,0.9910589853988949
2013-04-12,0,0.0,0.0,-0.0032406989823686636,0.012949541908732088,0.991138104527882
2013-04-16,-1,-0.0010744219489690148,-0.0006472278356179475,-0.0011070217743766471,0.012949541908732088,0.9912819215534822
2013-04-18,-1,-0.0013934600496324123,-0.001063982645593882,0.0005752262671987641,0.012949541908732088,0.9909984888640061
2013-04-22,-1,-0.001269024662973396,-0.0009531858512565977,0.0005752262671987641,0.011855332438732089,0.9916304773857392
2013-04-24,-1,-0.0008044224842739058,-0.0005364947793380366,-0.0012578625075756731,0.011506619966565358,0.9919196677994621
2013-04-26,-1,-0.0007904942642203581,-0.0005124030575800351,-0.000639769356351002,0.008355392311374268,0.9928016198433771
2013-04-30,-1,-0.0002249219204580107,-7.381061748322807e-06,-0.0016187824581797516,0.008327705927836078,0.9923604664938188
2013-05-02,-1,-0.0008361248343827455,-0.0005423731121681606,-0.0016187824581797516,0.01142125292740965,0.9917289131916001
2013-05-06,-1,-0.00044550009358515974,-0.00018773940777574777,-0.0037469099561515434,0.008327705927836078,0.9917647738602231
2013-05-08,1,0.0006934350385977012,0.0007676508798295591,-0.0048116402633184945,0.008327705927836078,0.9917082256872577
2013-05-10,1,0.0010023256738537,0.001055653285608668,-0.0048116402633184945,0.006214073548386159,0.9919964442476183
2013-05-14,1,0.0018854532824622808,0.001983660397130636,-0.00769092217591901,0.004429820549321864,0.9915639326173578
2013-05-16,1,0.001646420694981195,0.0017057485975788998,-0.009080697913773552,0.005581290632232988,0.9906764456696365
2013-05-20,1,0.0009868719196229276,0.0010600673872081822,-0.009080697913773552,0.006967137117835268,0.9901465991762323
2013-05-22,1,0.0001889749056998894,0.00038047945565764484,-0.01450587155476042,0.006967137117835268,0.988290508334815
2013-05-24,0,-6.219581454136526e-05,0.000148870192693741,-0.014800302269530052,0.011487826300810636,0.9871111342893063
2013-05-29,0,-2.098312855401544e-06,0.00015483723298662132,-0.014238235916847902,0.007061396874774447,0.9884813981699363
2013-05-31,-1,-0.00022744631766071356,-5.219988678430691e-05,-0.009080697913773552,0.004429820549321864,0.9899577969633948
2013-06-04,-1,-0.00035674889616793147,-0.0001980218775913157,-0.006004457365424185,0.007233800892921698,0.9901711262317193
2013-06-06,1,3.618492201763485e-05,0.00013822309680912867,-0.007714421816565706,0.0071020146059384524,0.9900858654003971
2013-06-10,0,-2.3838260866191913e-05,9.205377632187303e-05,-0.007714421816565706,0.010451875401240254,0.9898952734101598
2013-06-12,-1,-0.00022089826142388907,-0.0001265218849234024,-0.004837772798942246,0.012064862783267443,0.9899844427197204
2013-06-14,1,0.0004467071790697479,0.0004586342886090974,-0.0029424445420552637,0.01046692778957749,0.990434786761305
2013-06-18,1,0.0011939632234428269,0.0013063668780826743,-0.0029424445420552637,0.01046692778957749,0.9904345283718996
2013-06-20,-1,-0.0005270892905330952,-0.00043763264697829036,-0.0003001495480339829,0.012064862783267443,0.9910077244702216
2013-06-24,-1,-0.0007784668232203573,-0.0006460498451812276,-0.0003001495480339829,0.01046692778957749,0.9921378622585262
2013-06-26,-1,-0.0011848723441014192,-0.0009846085345336475,-0.000642992225695785,0.01046692778957749,0.9913001762285597
2013-06-28,-1,-0.0010676469181090604,-0.0008925035010976041,-0.001977356985865088,0.012091005842862232,0.9900113751544845
2013-07-02,-1,-0.00026749400840730725,-0.00020839067834785817,-0.0033069862429728624,0.01046692778957749,0.9903639861690472
2013-07-05,0,-6.638888193953349e-06,9.289379857189823e-06,-0.0033069862429728624,0.010448444683272282,0.990547399081943
2013-07-09,1,0.00028429074218777194,0.0003123477140278512,-0.005473876353617401,0.010448444683272282,0.9906142662230127
2013-07-11,1,0.0007414722087207783,0.0008268055325959,-0.005473876353617401,0.008851250711077313,0.9907772350056607
2013-07-15,1,0.0011010312548089308,0.0012181373349041276,-0.006056624999958743,0.007492202944409627,0.9908537202939897
2013-07-17,1,0.0015649060507897403,0.0017120661855665271,-0.007811664878735761,0.006050458457603094,0.9909008952182559
2013-07-19,1,0.0024335008400451622,0.0026750841299499487,-0.009028348011284397,-0.0005948514591995296,0.9910163297713356
2013-07-23,1,0.0025532121457530056,0.0028414670359213157,-0.009028348011284397,0.0015392588418438019,0.9912373666130848
2013-07-25,1,0.001847227318109399,0.0020355446895942153,-0.007811664878735761,0.0035481763114877233,0.991725782198282
2013-07-29,1,0.0021038226334349442,0.002332612885882529,-0.006074985431447275,0.0015392588418438019,0.9926676937479657
2013-07-31,1,0.0019751433740290212,0.0021857432752198152,-0.006352591043252548,-0.00025284142803071316,0.9918195260330513
2013-08-02,1,0.0022340821559299427,0.002494152705114188,-0.006352591043252548,0.0015392588418438019,0.9922461324608021
2013-08-06,1,0.001493642585423185,0.0016195545817434746,-0.00510202634229204,0.0028012139790659246,0.9928948254282333
2013-08-08,1,0.0011461092729593216,0.0011817685175197954,-0.004684568739055321,0.0028012139790659246,0.9935153623969258
2013-08-12,1,0.000639064856241722,0.0006725686266928935,-0.0032319900787440205,0.0030667743665952147,0.9937326173875274
2013-08-14,0,-1.2900269361992389e-05,9.464677109579511e-05,-0.0022623462688016005,0.00387519189769514,0.9943735895244723
2013-08-16,-1,-0.0004856673329595365,-0.0003354507544523793,-0.0008460604482202644,0.006986301090038218,0.9941054430458094
2013-08-20,-1,-0.00015079705863181987,-6.065188157949945e-05,-0.0008460604482202644,0.007450995639259965,0.9938328136538815
2013-08-22,1,0.00019609493907222036,0.00024582865663218896,-0.001430614219640345,0.0068714292045941,0.9945009324276867
2013-08-26,0,-3.435782902989215e-05,4.696562108480053e-05,-0.0010915572224056151,0.007450995639259965,0.99411561642717
2013-08-28,-1,-0.0013324355953698345,-0.001075543411290313,-0.00036091261878533126,0.007450995639259965,0.993342290321383
2013-08-30,-1,-0.0005860196192773282,-0.00044906944976350115,-0.0012903788331124425,0.0068714292045941,0.9941165493647739
2013-09-04,-1,-0.0005855348917878644,-0.00043876924288462576,-0.00036091261878533126,0.007352592379919373,0.9939816654060197
2013-09-06,-1,-0.00099621838940175,-0.0007579865929779225,-0.0012903788331124425,0.007551736647386596,0.993557819416412
2013-09-10,-1,-0.000827957918133515,-0.0005956882772807264,-0.001997739759473865,0.007352592379919373,0.9940964595349918
2013-09-12,-1,-0.0006719597346065199,-0.00046203568655408134,-0.001997739759473865,0.008208560615434648,0.9928629343988603
2013-09-16,1,0.0001985626154039259,0.0002831456754244879,-0.001997739759473865,0.008579333163763223,0.9930150124203883
2013-09-18,1,0.0005906102231583384,0.0006239492936866927,-0.002365103338494638,0.00906006915331672,0.9921199202707972
2013-09-20,1,0.0006082940610850312,0.0006101042903966314,-0.0012903788331124425,0.010165556784843266,0.9919181017505455
2013-09-24,1,0.0005909361720200585,0.0006149800875895648,-0.001997739759473865,0.009479510376400088,0.9918863042204438
2013-09-26,1,0.00018142107973134725,0.00022007536609852728,-0.001997739759473865,0.0116118299500813,0.9903374980424969
2013-09-30,1,0.00022826851285177998,0.00023062633455591744,0.0008283712347633828,0.013484584947649739,0.9890841414582866
2013-10-02,1,0.0005313587445185555,0.0005880515371879332,-0.002066801663267269,0.013484584947649739,0.9894881005077982
2013-10-04,1,0.0007518785088851536,0.0008566282890744083,-0.002066801663267269,0.013484584947649739,0.9895980674441924
2013-10-08,1,0.0006979041238690082,0.0007913116572998888,-2.704957859432904e-06,0.013484584947649739,0.9892512709318105
2013-10-10,1,0.001201683910001961,0.001362937271291736,-0.0032978157065619335,0.0116118299500813,0.9900409210749131
2013-10-14,1,0.0013684498656490887,0.0015381643271058926,-0.0032978157065619335,0.011491991770110876,0.9905900764327384
2013-10-16,1,0.0013430164189235192,0.0015076088101377801,-0.00034095539915351015,0.008234189630842397,0.991849642330371
2013-10-18,1,0.001446042185935067,0.0016111684379347337,-0.00034095539915351015,0.007258864188926083,0.9920489104630612
2013-10-22,1,0.001297614030744749,0.001434166449077929,-0.00034095539915351015,0.007258864188926083,0.9918234029004331
2013-10-24,1,0.0005398316153995802,0.0005627391125079731,-0.0013492395372912318,0.005685073966418101,0.9940203512085902
2013-10-28,1,0.0010031626572846169,0.0010953538971323977,-0.0013492395372912318,0.004894184595133441,0.9952418631266293
2013-10-30,1,0.000979454330841469,0.0010686651354655137,-0.00011450444177868468,0.005279731865884085,0.995026763628917
2013-11-01,1,0.0007025735544508704,0.0007328841772242341,-0.00011450444177868468,0.006008194468143546,0.9949855243976969
2013-11-05,1,0.0009072577738209213,0.000974258511744987,-0.004271497402516408,0.005279731865884085,0.9949362269297578
2013-11-07,1,0.0009384705801587525,0.0010319621842316963,-0.0018521067884698038,0.006008194468143546,0.9948109227111624
2013-11-11,1,0.00046037059245130447,0.0004705142663716359,-0.004271497402516408,0.004823892547795736,0.9945995189282404
2013-11-13,1,0.0004882606494297277,0.0005081396584858689,-0.005142227294515605,0.004823892547795736,0.9937492041219209
2013-11-15,1,0.0005156373261158832,0.0005380341469131149,-0.005142227294515605,0.004823892547795736,0.9938806969002002
2013-11-19,1,0.00029690458318088093,0.0003479498153810709,-0.004271497402516408,0.005618811901566833,0.9933779284272772
2013-11-21,1,0.00023246196936541674,0.0002903383058643611,-0.003834625188445681,0.005618811901566833,0.9936595973979466
2013-11-25,1,0.00028329189950705106,0.00033435691423365824,-0.003834625188445681,0.006110067006635611,0.993404293527298
2013-11-27,1,0.00043612785683998885,0.00046412478256469333,-0.003834625188445681,0.004839852081753037,0.9935790687324793
2013-12-02,1,0.0005947138257958212,0.0005974721575445279,-0.0035899468046910405,0.004305287674270907,0.9941110111630935
2013-12-04,1,0.0004911281831309318,0.0004964179759058304,-0.002418554660246573,0.004393461027258558,0.9939811408142151
2013-12-06,1,0.0009417694823516452,0.0010305790213130657,-0.002418554660246573,0.004839852081753037,0.9937850918779421
2013-12-10,1,0.001233770661736348,0.0013916151795150974,-0.002418554660246573,0.0058691756491843295,0.9926504011920637
2013-12-12,1,0.0008782360212021289,0.0009855445654215337,-0.0020370947343304165,0.0058691756491843295,0.9930947265529554
2013-12-16,1,0.0007271463633006705,0.0007949376079029312,-0.0020370947343304165,0.007930344327101675,0.9924149532335751
2013-12-18,1,0.001154304946736098,0.0012857416953958476,-0.004337698513814555,0.006717522443872385,0.9927029675978006
2013-12-20,1,0.0010276893656342924,0.0011398942882523961,-0.004337698513814555,0.006717522443872385,0.9925755330847283
2013-12-24,1,0.0011459127791043073,0.001276377279963499,-0.009938473324437948,0.005684605341920881,0.9914372737584582
2013-12-27,1,0.0010069703434284003,0.0011059415086003396,-0.009938473324437948,0.00720767025474783,0.9910674949601429
2013-12-31,1,0.0009591761475572487,0.0010532267245528019,-0.010309117827829267,0.00720767025474783,0.9904496447748975
2014-01-03,1,0.0007101561111876018,0.0007587283178577745,-0.010661162154945277,0.00954952534085752,0.9890593495142553
2014-01-07,1,0.0009763175754390267,0.0010365682554733151,-0.010661162154945277,0.009404954335983994,0.989628684022535
2014-01-09,1,0.0009702457118261258,0.0010091576698210859,-0.010661162154945277,0.009404954335983994,0.9901761038884399
2014-01-13,1,0.0008021914792684442,0.0008150806478877826,-0.007736843234004589,0.009562025069625483,0.9902234565917485
2014-01-15,1,0.0011433510727054345,0.0012105396535184165,-0.007736843234004589,0.008014731782689435,0.9906786905678033
2014-01-17,1,0.000718725681970467,0.0007213361922373343,-0.0023360118633816577,0.008014731782689435,0.9914824794386752
2014-01-22,1,0.0003772286431345571,0.0004413301645225816,-0.005334318424985086,0.008014731782689435,0.9908245378719186
2014-01-24,-1,-0.00020845872449346643,-8.415602290798123e-05,-0.001687736575760991,0.008014731782689435,0.9922410991504861
2014-01-28,0,-7.939959884889551e-05,2.7208132562695983e-05,-0.0023360118633816577,0.006638598589033038,0.9925754985109431
2014-01-30,-1,-0.00035154379299623113,-0.00021492958135211748,-0.001434299691557271,0.006638598589033038,0.9924022282439666
2014-02-03,-1,-0.0007746818733151515,-0.0005899100139299948,-0.0005723174068345635,0.006638598589033038,0.9926431351515793
2014-02-05,-1,-0.0005213727146806972,-0.00036815804950005005,-0.0005723174068345635,0.006638598589033038,0.9928530172294908
2014-02-07,1,0.00010171008579553357,0.00016751246845471085,-0.0010299623949120433,0.00605961165724124,0.9940237780314203
2014-02-11,1,0.00040503851392718264,0.00042817928014696833,-0.003908972545487322,0.003709935612587444,0.9938820651847197
2014-02-13,1,0.0003170257699274878,0.000363814059265099,-0.005070443590506048,0.0022330382258668163,0.9930413015431189
2014-02-18,1,0.0003035032844238546,0.00034643736436047756,-0.005070443590506048,0.003709935612587444,0.9926203917452282
2014-02-20,-1,-0.0001632031706084223,-4.9112759895705036e-05,-0.004869868619052122,0.0022330382258668163,0.9932916904170239
2014-02-24,-1,-0.00022028337564243203,-9.256501508411247e-05,-0.006683903047083984,0.0020139286444752604,0.9920528541506602
2014-02-26,-1,-0.000277518177528071,-0.0001482721894405452,-0.006419038116592787,0.003709935612587444,0.9916802701420038
2014-02-28,-1,-0.000619530385653626,-0.0004505309247956726,-0.004869868619052122,0.006808390060609518,0.9918072212776764
2014-03-04,1,4.516736445289932e-07,0.00010163702649844923,-0.004869868619052122,0.008109753689433074,0.9926688301242903
2014-03-06,1,0.0005557689273706033,0.0005651568169918644,-0.004869868619052122,0.009295666679899223,0.9919018838229551
2014-03-10,1,0.0007218620952301926,0.0007525625079643353,-0.011291965151770906,0.009295666679899223,0.9905038915207725
2014-03-12,1,0.00034978273158059025,0.0003698069281318163,-0.011151899117781977,0.009496514633931889,0.9896846181151372
2014-03-14,-1,-0.00016752442157868847,-9.406824380061912e-05,-0.012713745424625873,0.009496514633931889,0.9886873174481788
2014-03-18,1,2.0023067415043553e-05,7.48200744529081e-05,-0.012713745424625873,0.010055489079634255,0.9881553410989201
2014-03-20,-1,-0.0010839325780961908,-0.0007921239574901484,-0.012713745424625873,0.010055489079634255,0.9877612236231672
2014-03-24,-1,-0.0016374684043924724,-0.0013381036209599068,-0.010741358085897783,0.010143627976788461,0.9884652700247808
2014-03-26,-1,-0.001413331649838737,-0.0011425028659698675,-0.010741358085897783,0.010986129214964844,0.9841547210131248
2014-03-28,-1,-0.0003128435425943663,-0.000243537838084961,-0.012786393583431586,0.010888243956750247,0.9830048534768033
2014-04-01,-1,-6.935194141841731e-05,-3.284747395911255e-05,-0.012786393583431586,0.010888243956750247,0.9829613126072566
2014-04-03,1,0.00017917559692011463,0.00019101159207965981,-0.012786393583431586,0.00650014774899664,0.9835472756690609
2014-04-07,-1,-0.0001646775181163748,-0.00011685137130965873,-0.01133670602165649,0.009560671029607363,0.9842607732068611
2014-04-09,0,-7.019608522028362e-06,2.100177771681556e-05,-0.01133670602165649,0.00776785718056788,0.9855337873113937
2014-04-11,-1,-0.0005268092578294,-0.00044354379262665324,-0.006307124775806302,0.009095661220003111,0.9871841585703858
2014-04-15,-1,-0.0004377851511381915,-0.0003605391591758241,-0.006307124775806302,0.007674001524897155,0.9878916542354184
2014-04-17,-1,-0.0007412796579125455,-0.000622615252314225,-0.0056883438324349484,0.007674001524897155,0.9881068457980685
2014-04-22,-1,-0.000621848765029956,-0.0005200975981463117,-0.0056883438324349484,0.007674001524897155,0.9878398658031403
2014-04-24,1,0.0005948875527418287,0.0006468585955615476,-0.0056883438324349484,0.00650014774899664,0.9927178074325544
2014-04-28,1,0.00020715196799131767,0.00021000081612250037,-0.0036702558851078306,0.007338310521588857,0.9940391626173678
2014-04-30,-1,-0.00010428052263096384,-6.308240064854155e-05,-0.00034791330900989893,0.007994732554407493,0.9942168742393966
2014-05-02,1,0.000189514267855614,0.0001950881674106437,-0.00034791330900989893,0.007994732554407493,0.9945924446140536
2014-05-06,1,0.00038563645286260437,0.00041458890226599474,-0.00034791330900989893,0.007287539271032915,0.9946378114310845
2014-05-08,1,0.00012867582920682516,0.00014505249220490753,0.0010844505457688802,0.007287539271032915,0.9947179821434897
2014-05-12,1,0.00029887913123532637,0.000304237069555024,-0.0008607755260990686,0.005329306967448271,0.9952099826665558
2014-05-14,1,0.0003814352628545736,0.0004156693384864097,-0.002384069223760062,0.005329306967448271,0.9949940316996725
2014-05-16,1,0.00032335828702580074,0.0003486776940704712,-0.002384069223760062,0.005329306967448271,0.9951776685862613
2014-05-20,1,0.00041812942226721896,0.0004570103864058377,-0.0020699171222895094,0.005329306967448271,0.9953794681404908
2014-05-22,1,0.0004332175484582476,0.0004735564503265058,-0.0026955885446493222,0.005329306967448271,0.9952819389939113
2014-05-27,1,0.0004902353113356689,0.0005365887951840926,-0.003987144099576654,0.0034794463754011526,0.9949412420581529
2014-05-29,1,0.0005582065506208126,0.000608162738521538,-0.003987144099576654,0.0034794463754011526,0.9947895264076345
2014-06-02,1,0.0007008636234336136,0.0007856429390511369,-0.004942477632282069,0.0021595107477329466,0.9944315256918036
2014-06-04,1,0.0008879772443170427,0.001005089922595449,-0.004942477632282069,0.001426605939167296,0.9948093068337509
2014-06-06,1,0.0008390295845890455,0.0009439413296560335,-0.0058012472315912885,0.000402633035139427,0.9944613455889132
2014-06-10,1,0.0008518203415099801,0.0009689975605985189,-0.006163050527755898,0.0024952140411744718,0.9940937724147098
2014-06-12,1,0.0006388308218331551,0.0007171047320005292,-0.0058012472315912885,0.0024952140411744718,0.9947195743208882
2014-06-16,1,0.0006263431978645983,0.0007046240336762329,-0.00536897015912655,0.001511887800408058,0.9945561183968474
2014-06-18,1,0.0004997207569201066,0.0005441509431575631,-0.006163050527755898,0.0006544039614911039,0.9942994343767647
2014-06-20,1,0.0005247485290785169,0.0005746062645421094,-0.0064683959587858685,0.001511887800408058,0.9932142491136696
2014-06-24,1,0.0002861544203721399,0.00029730129214791787,-0.005375576825701243,0.004968892967716679,0.9931612698378848
2014-06-26,1,0.00015241108088142946,0.0001595547084151547,-0.0064683959587858685,0.004968892967716679,0.9917785504746085
2014-06-30,1,0.00010529371195350639,0.00011526204994682556,-0.005375576825701243,0.004968892967716679,0.9920935504247204
2014-07-02,-1,-9.103973186484388e-05,-8.754390433981904e-05,-0.007126425244097711,0.004968892967716679,0.9909296068580381
2014-07-07,-1,-0.00010734385667293991,-9.785827102838743e-05,-0.006319131542318981,0.005839326134002333,0.9908757630407466
2014-07-09,1,0.00020039174533500908,0.00021629592779691753,-0.011911599963372776,0.005839326134002333,0.9897145718479516
2014-07-11,1,0.0001973964364103968,0.00021087038773656024,-0.012539235165604956,0.00756598425573372,0.9889033996236665
2014-07-15,1,7.706356823649443e-05,8.238958060882775e-05,-0.012539235165604956,0.00756598425573372,0.9891028494876224
2014-07-17,-1,-8.179953827085166e-05,-5.825066018438339e-05,-0.010166301128028321,0.00848162021555239,0.9895383699672816
2014-07-21,-1,-5.901523953445723e-05,-3.6066363937147064e-05,-0.006146070118596032,0.00848162021555239,0.9897767808768038
2014-07-23,0,-7.268032202051056e-06,1.521548334232448e-05,-0.006146070118596032,0.006777601421733432,0.9902492336264387
2014-07-25,-1,-3.6034437840260495e-05,-2.351491990895731e-05,-0.006146070118596032,0.006777601421733432,0.9913672740358147
2014-07-29,1,1.6840508675113744e-05,1.9060282253854424e-05,-0.006146070118596032,0.008088037669176464,0.9910355688838792
2014-07-31,-1,-4.300659041145698e-05,-3.380252212069297e-05,-0.0058791010315660495,0.006777601421733432,0.9920534253350453
2014-08-04,-1,-0.00010702137241569281,-8.496592326553293e-05,-0.005114739226304725,0.006777601421733432,0.9924729302505991
2014-08-06,-1,-0.0004296782413447458,-0.0003630974431030152,-0.001882650096425511,0.008088037669176464,0.9936058541371805
2014-08-08,-1,-0.0004018814761222599,-0.0003419061453446481,-0.0014268569138477928,0.0067867275186563585,0.9942627885346922
2014-08-12,-1,-0.0003992201302632322,-0.0003375200378763713,-0.0014268569138477928,0.009819810285208834,0.9927315680654197
2014-08-14,-1,-0.00041802620016945333,-0.0003465166987656179,-0.0018020522724254955,0.008523998075552278,0.9929799871241862
2014-08-18,-1,-0.00031197447456895793,-0.0002545405307051024,-0.0018020522724254955,0.0067867275186563585,0.9936711557959652
2014-08-20,-1,-0.0002463958484284994,-0.00020009830145833842,-0.0028937343059885004,0.00546560274157052,0.9934656115936141
2014-08-22,-1,-0.00021351021786338687,-0.00017557674213663441,-0.00276410097585427,0.004375530794162813,0.994180930450024
2014-08-26,-1,-4.789875056296677e-05,-3.7389067338700016e-05,-0.002918380586841035,0.004375530794162813,0.99360671027734
2014-08-28,1,0.00023150984940763865,0.0002830875242836258,-0.00276410097585427,0.004375530794162813,0.9929341447578659
2014-09-02,1,0.00033144232583502925,0.0004046272045153919,-0.0031635929228078434,0.004375530794162813,0.9924857660268949
2014-09-04,1,0.0003753637817598217,0.00047003808661417296,-0.0031635929228078434,0.004375530794162813,0.9923631163625971
2014-09-08,1,0.00036713844847927426,0.0004608198494483765,-0.0031635929228078434,0.004375530794162813,0.9923015540759101
2014-09-10,1,0.00024880933865309386,0.0003231886852857952,-0.005458351237296268,0.004113669340822809,0.9923038708506816
2014-09-12,1,9.466097552993864e-05,0.00014716443775705332,-0.00903759195022253,0.003936558627450973,0.9914671187750381
2014-09-16,1,0.000399865105134983,0.00044969216488543085,-0.012125655617373705,0.003836762895551249,0.9900826111376491
2014-09-18,1,6.619770551025012e-05,8.927295981348224e-05,-0.013117086331696507,0.003836762895551249,0.9897443328104211
2014-09-22,-1,-0.00017256964148486934,-0.00011078725519430432,-0.013117086331696507,0.005990548953331681,0.9884003684891094
2014-09-24,-1,-0.00025178992823548705,-0.00015922945357058028,-0.012899413019503998,0.0066098802942466985,0.9880074731987455
2014-09-26,-1,-0.00044375348638690993,-0.0003622131905716505,-0.011303845003378523,0.014809245506454132,0.9868173588043997
2014-09-30,-1,-0.000859266150296051,-0.0007203862010483461,-0.011303845003378523,0.01655317152773119,0.9856731257188764
2014-10-02,-1,-0.0001922632179816838,-0.0001497888908710086,-0.011303845003378523,0.01655317152773119,0.9860118250037193
2014-10-06,1,1.1808669403953092e-05,3.060048107001796e-05,-0.011303845003378523,0.01732743423805637,0.9851769669765998
2014-10-08,1,9.557843221069586e-05,0.00010876738835941246,-0.010914946042696444,0.01655317152773119,0.9856371870063023
2014-10-10,-1,-0.00041083319074707394,-0.00035063464589687,-0.010914946042696444,0.01655317152773119,0.9855418133657049
2014-10-14,-1,-0.0013415828933459118,-0.0011758971063013668,-0.007271200266945562,0.01732743423805637,0.9856861825414235
2014-10-16,-1,-0.001605758165869644,-0.001421402120400048,-0.004010150411224012,0.01732743423805637,0.9865412610397931
2014-10-20,-1,-0.0004462295333908739,-0.0004143243807009787,-0.005124458914471649,0.016708015634503942,0.9878879158805322
2014-10-22,-1,-3.6316358740242234e-05,-5.729927093293342e-06,-0.005124458914471649,0.011911018962309759,0.9887378897108603
2014-10-24,1,0.0014666901040974421,0.001726856996071263,-0.005124458914471649,0.008168633125099224,0.9908690231182499
2014-10-28,1,0.002140501048732122,0.0024939985654418113,-0.005124458914471649,0.007827597241218225,0.9918267796268736
2014-10-30,1,0.002312351481968216,0.0026796406576405276,-0.005124458914471649,0.006286474156780194,0.9920205591759926
2014-11-03,1,0.002374868618906228,0.002731338382980672,-0.005124458914471649,0.006286474156780194,0.9915988731958364
2014-11-05,1,0.002480432746787856,0.0028454672247081878,-0.005026595111825962,0.005893095784305106,0.9924704941883764
2014-11-07,1,0.00194090983315646,0.0022479038488789457,-0.0036878409889594538,0.006286474156780194,0.9934156128645341
2014-11-11,1,0.0024717282260564304,0.0028406705388808293,-0.005026595111825962,0.005292150072535425,0.9928421337606962
2014-11-13,1,0.002133850412662246,0.0024361924795397406,-0.006937894762647886,0.006286474156780194,0.9916853947754211
2014-11-17,1,0.0022064201551611857,0.0025299415331112504,-0.008815144953826865,0.006286474156780194,0.9907979384826355
2014-11-19,1,0.002073786991574572,0.002360912785007763,-0.007901851542567957,0.008852306434346646,0.9890615301778573
2014-11-21,1,0.0021645676913830993,0.0024768276159872703,-0.007901851542567957,0.008852306434346646,0.9892428539300829
2014-11-25,1,0.002245418737182614,0.002561297320571229,-0.009712940098102436,0.006628043887823002,0.9889104276302791
2014-11-28,1,0.002371122693277645,0.002690776116361553,-0.009712940098102436,0.006423949479574677,0.9886617181179385
2014-12-02,1,0.002812386622566533,0.0031875950304820003,-0.009823267224537831,0.006423949479574677,0.9892137328436759
2014-12-04,1,0.0024764460682831294,0.002787940286776287,-0.009823267224537831,0.008938062596570836,0.9876183516311576
2014-12-08,1,0.002335548477523998,0.0025928475932056657,-0.009823267224537831,0.010949050243721016,0.9864917663882911
2014-12-10,1,0.0016175311286398112,0.00178677217740387,-0.009784349594598478,0.011841137939450293,0.9870493771783876
2014-12-12,1,0.0017926173656092567,0.002008987564041979,-0.008782565459697297,0.009724663158712581,0.9885755607430348
2014-12-16,1,0.0007750359430709369,0.0008142558800079621,-0.008866947499506457,0.009724663158712581,0.9881144765937997
2014-12-18,1,0.0023268358387020945,0.0025675625034536696,-0.009624741016473044,0.0065870288118742275,0.9892092061570567
2014-12-22,1,0.002144316834165194,0.0023400495961059197,-0.009624741016473044,0.009724663158712581,0.9883958370875048
2014-12-24,1,0.0018071296686527373,0.001953685131538566,-0.009624741016473044,0.009724663158712581,0.9886464116048959
2014-12-29,1,0.0008437317289705156,0.0008925781026813296,-0.010422088840518467,0.009724663158712581,0.9879795154515455
2014-12-31,1,0.0005802187160207552,0.0006713489874932693,-0.011987158447948424,0.004430676024682005,0.9878964374003838
2015-01-05,1,0.0015342598948713069,0.0015600974291280479,-0.011987158447948424,0.012155244428845595,0.987971163304479
2015-01-07,1,0.00196379006540836,0.0020671595952401166,-0.011987158447948424,0.011381886051563534,0.9884012326336529
2015-01-09,1,0.0018974914243567985,0.002012646311281443,-0.011652197692301858,0.005195811221803682,0.9884714141541808
2015-01-13,1,0.0019055779104179727,0.002027189564190404,-0.011652197692301858,0.014450650020210625,0.9874486115817532
2015-01-15,1,0.0007689914957622541,0.000803448241221095,-0.009558364104906712,0.014450650020210625,0.9885797249274367
2015-01-20,1,0.0010989414602712638,0.0011190252670163874,-0.008527557571198843,0.011438999657951629,0.9893616247843878
2015-01-22,1,0.0013557670099321097,0.0013821480581872386,-0.008527557571198843,0.010910698731761172,0.9897547779263515
2015-01-26,1,0.0008307007014839748,0.0008774312181430095,-0.007409599205258274,0.010910698731761172,0.9901851225265078
2015-01-28,1,0.00021839371992942477,0.0003203231580557384,-0.00482769772750561,0.010910698731761172,0.9905504208042456
2015-01-30,-1,-0.0005338145108876328,-0.00034464970637106975,-0.0036640341412279287,0.010910698731761172,0.9907953472358394
2015-02-03,1,0.0012890245906757838,0.0013765214558906424,-0.00783882927472462,0.009158989465500972,0.991566399518044
2015-02-05,1,0.001327986970728895,0.0014202102942474275,-0.00783882927472462,0.008450506399725503,0.9913763690869024
2015-02-09,1,0.0006533684337180444,0.0006538336162170745,-0.005143903459330069,0.008450506399725503,0.991588519179479
2015-02-11,1,0.0009673285229147814,0.0009938608399173553,-0.005143903459330069,0.008316169314968196,0.9920383729102424
2015-02-13,1,0.00135092486991982,0.0014143525699569144,-0.007837098799277216,0.007117249899656477,0.9918306884208189
2015-02-18,1,0.0014416606248860448,0.0015096375827159134,-0.00862535450129948,0.007117249899656477,0.989493510443745
2015-02-20,1,0.0013160611707496864,0.0013267927832511745,-0.00862535450129948,0.006355130906921263,0.9897213665062206
2015-02-24,1,0.0009641949240952593,0.0010185894617109554,-0.009889613334041968,0.006355130906921263,0.9893419414806212
2015-02-26,1,0.000970455383996593,0.0010046874678824778,-0.010421861723793101,0.005425913398282528,0.9891807045867138
2015-03-02,1,0.0009683480838694534,0.0009978441721011986,-0.010421861723793101,0.006761297464911513,0.9888324818471369
2015-03-04,1,0.00018956663837819905,0.00030567766320043345,-0.010172928499818849,0.006761297464911513,0.9889537098483262
2015-03-06,-1,-0.00109914746375226,-0.0007901146208727749,-0.009089567425646743,0.00679851020096316,0.9898026352935737
2015-03-10,-1,-0.002151576894808242,-0.0016639592127856231,-0.009089567425646743,0.00679851020096316,0.9900453301828309
2015-03-12,-1,-0.0022478983587681583,-0.0017105059046788331,-0.009089567425646743,0.006988734870962127,0.9902179088458902
2015-03-16,-1,-0.0015524187800534798,-0.0011439922508949386,-0.009983058669531005,0.00439315500112919,0.990869417954974
2015-03-18,-1,-0.0011699528231300241,-0.0008156944337479983,-0.009089567425646743,0.003152271926159909,0.993503000110119
2015-03-20,-1,-0.0004873629905713386,-0.0002792551078933727,-0.009089567425646743,0.00439315500112919,0.9928355100302647
2015-03-24,-1,-0.0004936562982308663,-0.00032624274111852275,-0.007089948776546189,0.006988734870962127,0.9926724858216684
2015-03-26,-1,-0.0008369171772830542,-0.0006463327547920598,-0.0038244107895596645,0.009127901385942203,0.9930292027914117
2015-03-30,1,0.0001796616883938018,0.00023824991327704576,-0.007089948776546189,0.00439315500112919,0.9934257373839122
2015-04-01,-1,-0.0005320112461500743,-0.00039352458987472624,-0.007515482339164759,0.00439315500112919,0.9914592572372655
2015-04-06,-1,-0.0007398261948769073,-0.0005385417605031659,-0.007515482339164759,0.003040790880025873,0.991592585137219
2015-04-08,-1,-0.0006314654297588814,-0.00048475797339626316,-0.0044078886864001975,0.003040790880025873,0.9919826141961309
2015-04-10,-1,-0.00039283079657191335,-0.00026454274159984115,-0.0044078886864001975,0.006163004183491128,0.991269768512581
2015-04-14,-1,-0.0008779003822252173,-0.0006929654080508871,-0.0044078886864001975,0.006163004183491128,0.9913372444223577
2015-04-16,-1,-0.0011176926719657664,-0.0009023707747252709,-0.0044078886864001975,0.008701336645521678,0.990548133651331
2015-04-20,-1,-0.0010209823747882245,-0.0008140151233630155,-0.0036003174343299874,0.008701336645521678,0.9907966348379899
2015-04-22,-1,-0.000523430116642836,-0.0003811524584341985,-0.0036003174343299874,0.006163004183491128,0.9914947620026454
2015-04-24,0,-9.36023893762143e-06,5.7395072291031304e-05,-0.004289606026160707,0.003040790880025873,0.9917303133641215
2015-04-28,-1,-0.00025436991945818895,-0.0001890642608056657,-0.004276781370326067,0.006163004183491128,0.9918412719908989
2015-04-30,-1,-0.0023381198797281667,-0.0020229859865325155,-0.0036003174343299874,0.006764456209073882,0.9937380525240764
2015-05-04,-1,-0.0018967214397454142,-0.0016465321650780845,-0.004111279756106287,0.006764456209073882,0.993830224047013
2015-05-06,-1,-0.0026424158595483,-0.0022586965692030702,-0.005480468066767759,0.006764456209073882,0.9936227527858982
2015-05-08,-1,-0.0018437642174436411,-0.0015494409618663054,-0.005480468066767759,0.003017250299416612,0.994915885862994
2015-05-12,-1,-0.002551010148244418,-0.0021358104438141375,-0.004643209711513949,0.006013501583726711,0.9947461534807001
2015-05-14,-1,-0.0009895634715363414,-0.0008483266814040899,-0.005480468066767759,0.004459410325987454,0.9946720397218789
2015-05-18,-1,-0.000763879212612733,-0.0006504965570089552,-0.005480468066767759,0.004459410325987454,0.9946846944967473
2015-05-20,-1,-0.0009096196916681792,-0.0007663804322051883,-0.005480468066767759,0.006013501583726711,0.9943964911804254
2015-05-22,-1,-0.001185538268049047,-0.0010014707165702822,-0.005398408427612334,0.006272139820796434,0.9941506598890598
2015-05-27,-1,-0.0010516803405379747,-0.0008823246988236624,-0.005398408427612334,0.006272139820796434,0.9942844422325168
2015-05-29,-1,-0.0005289344685937946,-0.00046704089510794794,-0.004871532099719696,0.006112261590999716,0.9946795425322298
2015-06-02,-1,-0.00014103406507024862,-0.00013758966959094687,-0.00495497407478405,0.004611463076526031,0.9933050625139828
2015-06-04,-1,-0.0004113308954930363,-0.00037981497644842333,-0.00495497407478405,0.004611463076526031,0.9933512115704717
2015-06-08,-1,-0.00030083070260834073,-0.00028917015184081894,-0.00495497407478405,0.006704083951605261,0.9927108527698775
2015-06-10,-1,-0.0006211983705928708,-0.0005337545694790706,-0.0070968580674351436,0.005801474933016611,0.9921313670456774
2015-06-12,-1,-0.000771611298253905,-0.0006768540920066529,-0.005823849877013784,0.006704083951605261,0.9927028656134855
2015-06-16,-1,-0.0003667215692698413,-0.00034375218037247966,-0.005823849877013784,0.005801474933016611,0.9931394217572462
2015-06-18,-1,-0.0003281570383479846,-0.0002981959533247805,-0.005823849877013784,0.005652867877886068,0.9930933001253803
2015-06-22,-1,-0.0005623389950445621,-0.00048207211605317266,-0.0034727367090238146,0.005084086272409681,0.9933430894234424
2015-06-24,-1,-0.0008205374215120156,-0.0006877982775981796,-0.0034747041495116673,0.0031723056623420543,0.993589267269806
2015-06-26,-1,-0.00029070437088914305,-0.00026211981716611624,-0.008522856052306486,0.0031723056623420543,0.9928660691808149
2015-06-30,-1,-0.0010988934221497731,-0.0009815730141098863,-0.006830431432726285,0.005084086272409681,0.9940977598264417
2015-07-02,-1,-0.0016207775173103034,-0.0014212821966621712,-0.007642064031009114,0.005084086272409681,0.9933365128867
2015-07-07,-1,-0.0009647732190923432,-0.0008647932369944953,-0.008735610470438401,0.0031134679999875073,0.9934018992733761
2015-07-09,-1,-0.0012502630490589916,-0.001142727995519125,-0.007642064031009114,0.0047536598328769344,0.9932424566380259
2015-07-13,-1,-0.0008843562580451229,-0.0008322462548582369,-0.007642064031009114,0.0047536598328769344,0.9927350850463085
2015-07-15,-1,-0.0007354248685684599,-0.0007139871466417334,-0.007642064031009114,0.005191127520478752,0.9922926758844407
2015-07-17,-1,-0.0005301502460040187,-0.0005252545128753261,-0.007642064031009114,0.006620625363451003,0.9917944046950047
2015-07-21,-1,-0.0003569998466201002,-0.0003307562171678463,-0.007642064031009114,0.0068935906592951825,0.9916276674893304
2015-07-23,-1,-0.0003613479709277602,-0.0003326825554020301,-0.008946361567288678,0.0068935906592951825,0.9914058270607735
2015-07-27,-1,-0.0009887741741076103,-0.0009192426630151025,-0.0084549189835458,0.0068935906592951825,0.9898180391122798
2015-07-29,-1,-0.0006714887831182157,-0.0006119393270612624,-0.011594247688486726,0.007184089774950531,0.988220916172095
2015-07-31,-1,-0.001291905079913596,-0.0011576242635488467,-0.006594006978940162,0.008432818648407281,0.9877534323303245
2015-08-04,-1,-0.0012386750449565795,-0.0011255880568865574,-0.008788423642934673,0.008432818648407281,0.9868028926482222
2015-08-06,-1,-0.0013835006457260884,-0.0012630989356628682,-0.005658732297089478,0.009396757152091704,0.9873485442834545
2015-08-10,-1,-0.0006968644588386592,-0.0006592416281859343,-0.008788423642934673,0.009396757152091704,0.9864745050718329
2015-08-12,-1,-0.0007152306973636989,-0.000680454813155174,-0.012457742312107889,0.009396757152091704,0.9858816583049037
2015-08-14,-1,-0.00043616176450641815,-0.00042351463805692245,-0.012457742312107889,0.008432818648407281,0.986164550951505
2015-08-18,-1,-0.00039306391699879897,-0.0003711795647448442,-0.012457742312107889,0.009310090363602879,0.9858847148217823
2015-08-20,-1,-0.0002811073403208127,-0.00027159719825766684,-0.01452977106676509,0.009310090363602879,0.9856468966385954
2015-08-24,-1,-0.0011115434662106747,-0.0010116890425671023,-0.012237010360214726,0.009310090363602879,0.9873701343941687
2015-08-26,-1,-0.0007460294234823252,-0.0006979720689522253,-0.012237010360214726,0.008097596232395586,0.9886749628156524
2015-08-28,-1,-0.00032138230273590925,-0.0003181681522885257,-0.014654722557885368,0.0022482824883141555,0.9886315184718987
2015-09-01,-1,-0.0007591060703498402,-0.0007187586433851918,-0.01280975592904925,0.00532024662267887,0.9895796763224229
2015-09-03,-1,-0.0005708707902008533,-0.000543824384970793,-0.01280975592904925,0.0030451271494443964,0.9895551809185149
2015-09-08,-1,-0.0005427993892701355,-0.0005238357725226174,-0.01280975592904925,0.001723084152689512,0.9905258655242926
2015-09-10,-1,-0.0008826280848319858,-0.0008301220854768597,-0.011767755955525079,0.006272725231009757,0.9908977958118439
2015-09-14,-1,-0.0008483374503024468,-0.0008149155198922983,-0.010721219522926992,0.008124266275244605,0.9908756090517123
2015-09-16,-1,-0.00035396070758298554,-0.000313295744218034,-0.010721219522926992,0.0032596604442560405,0.9912091092294278
2015-09-18,-1,-0.0007241449393832332,-0.0007072568785226052,-0.009570033437988491,0.0071426651027807425,0.9903033487407014
2015-09-22,-1,-0.0015863614285254405,-0.0014164711027196955,-0.006007911692834076,0.0071426651027807425,0.9906946310871046
2015-09-24,-1,-0.0018123642475256908,-0.0016252138871509713,-0.008558932048246363,0.0071426651027807425,0.9899924050681344
2015-09-28,-1,-0.002519098576455682,-0.0022484614791528044,-0.004486039077374194,0.0071426651027807425,0.9910052993088244
2015-09-30,-1,-0.0017931600067005,-0.0016344083071953436,-0.004486039077374194,0.0071426651027807425,0.9903049457199167
2015-10-02,-1,-0.0017378922888863007,-0.001591359189613343,-0.004486039077374194,0.0071426651027807425,0.9875403122081367
2015-10-06,-1,-0.0017993338730946124,-0.0016635715772345618,-0.004486039077374194,0.00982726244145352,0.9870503528056654
2015-10-08,-1,-0.0012037087595947393,-0.0011470354875043412,-0.004486039077374194,0.011202895930587804,0.9872051022664531
2015-10-12,-1,-0.0008161758366115523,-0.0008088906603974208,-0.0049520047107916255,0.008014758798599678,0.987535069547422
2015-10-14,-1,-0.001076593081767196,-0.0010370501216660185,-0.0049520047107916255,0.008014758798599678,0.9876758268778667
2015-10-16,-1,-0.00017988827354566844,-9.983226227960014e-05,-0.0051782274797949595,0.0037581745602079334,0.9884479509163906
2015-10-20,-1,-0.00027494909644626626,-0.00020702562099545103,-0.005432247311654068,0.007235872723086486,0.9878435793297959
2015-10-22,-1,-0.0008464970474621146,-0.0008445004287487043,-0.0051782274797949595,0.007235872723086486,0.988875796710089
2015-10-26,-1,-0.0007828445614736566,-0.0007821157696785411,-0.005432247311654068,0.007235872723086486,0.9886048523257563
2015-10-28,0,-1.3804894270564574e-05,9.213655789518034e-05,-0.0066248053282442635,0.0023701775680082283,0.9894671586781202
2015-10-30,1,0.0014521591173073073,0.0017597628728558724,-0.0066248053282442635,0.0009425791879315786,0.9923304433075834
2015-11-03,1,0.0016801739350240145,0.0020024427023786523,-0.0066248053282442635,0.0009425791879315786,0.9925401151534248
2015-11-05,1,0.002062664059518423,0.0024432764797804154,-0.008109963292812382,0.0005993444545505651,0.9909550652533071
2015-11-09,1,0.0019905255369636757,0.0023712456927909306,-0.008109963292812382,0.0005993444545505651,0.9910454151837331
2015-11-11,1,0.001981115554820793,0.002363316815375727,-0.008109963292812382,0.0005993444545505651,0.9913502279306191
2015-11-13,1,0.0015596884035545158,0.0018873804492814253,-0.008109963292812382,0.002126394629392594,0.9921079556187916
2015-11-17,1,0.0017339765440563056,0.0020895905992674105,-0.006849162706089568,0.002992568805939318,0.992051748082674
2015-11-19,1,0.001435065389165248,0.001719278005810265,-0.008694915138455484,0.002992568805939318,0.991033611595084
2015-11-23,1,0.0010478791151213142,0.0012675481010369465,-0.0069662738236386315,0.009450711282764203,0.9906234535447209
2015-11-25,1,0.0009154827443434258,0.001141953078503957,-0.004927208196815381,0.010661491850082307,0.9910374148434058
2015-11-30,1,0.0005461748771031726,0.0006863771125689743,-0.006309036818118023,0.010661491850082307,0.9906238455129971
2015-12-02,1,0.0009918422738023922,0.001203819773225817,-0.006309036818118023,0.009012317079779706,0.991558372317333
2015-12-04,1,0.0005550792299192539,0.0007033298827091955,-0.006309036818118023,0.009012317079779706,0.9920653736762837
2015-12-08,1,0.00045240939501605586,0.0005937172422234302,-0.006710816245726774,0.009012317079779706,0.9911342573958022
2015-12-10,1,0.000630528000434187,0.000806017528479207,-0.00822810355923051,0.009012317079779706,0.9901921284450143
2015-12-14,1,0.000534565399075982,0.0006960820846950478,-0.008694606516984893,0.01087568937764968,0.9886312957514151
2015-12-16,1,0.0009057147867159814,0.0010873342435285586,-0.012920310612829606,0.01087568937764968,0.9882791181636054
2015-12-18,1,0.0003734178053769887,0.0005036915395379234,-0.011198709918197831,0.01087568937764968,0.9883244487785152
2015-12-22,1,0.0007068257998494997,0.0008398839054833381,-0.011198709918197831,0.006284123706450197,0.9890756970381714
2015-12-24,1,0.0008654341676358045,0.001006053609852839,-0.011198709918197831,0.006284123706450197,0.9881697459616532
2015-12-29,1,0.0006587562202314919,0.0007517621739330243,-0.01588909408560669,0.005717309889480377,0.9866710445155759
2015-12-31,1,0.0008743111319791045,0.0010223925265438524,-0.01588909408560669,0.011115417448925129,0.9858594358351057
2016-01-05,1,0.0012508390840970727,0.001452676823694783,-0.01588909408560669,0.005717309889480377,0.9861372715160587
2016-01-07,1,0.0010243718870786012,0.0012246367469223411,-0.01588909408560669,0.004706246391825705,0.9861424819920352
2016-01-11,1,0.0005682489319358748,0.000717477216321065,-0.01588909408560669,0.004706246391825705,0.985757220737976
2016-01-13,1,0.0008257380076274216,0.0009931489311937845,-0.013872431685478775,0.004706246391825705,0.9867686044996696
2016-01-15,1,8.87049775259506e-05,0.00010275783148238794,-0.010807374599342816,0.004706246391825705,0.987490317701407
2016-01-20,-1,-0.0005873569116273899,-0.0005192768720395088,-0.00846617406061392,0.010157407204164415,0.9879580931945585
2016-01-22,1,0.000326405087615965,0.00043287444041050155,-0.00846617406061392,0.005516809625148482,0.9879925570118544
2016-01-26,1,0.0005598551600394313,0.0006310477938808207,-0.010807374599342816,0.0048802233887041985,0.9880751129339745
2016-01-28,-1,-0.0005104316702881415,-0.0004721846204891212,-0.00846617406061392,0.00908036953448269,0.9885518423422393
2016-02-01,1,0.00011878506519168188,0.00017189948925615562,-0.00846617406061392,0.007065029776107243,0.9888758818833913
2016-02-03,-1,-0.0009732057141527452,-0.0008501071544946851,-0.00421176326567476,0.00908036953448269,0.9888561643504449
2016-02-05,-1,-0.0020717289602298033,-0.001802116904509877,-0.0029906565763441455,0.011742453643269918,0.9890073492814137
2016-02-09,-1,-0.002845012039421811,-0.002517596860253954,-0.0020019904537616636,0.011742453643269918,0.9900755348210383
2016-02-11,-1,-0.003193822650253653,-0.002801148864861767,-0.0013910813277499086,0.014219813716757537,0.9887199345440235
2016-02-16,-1,-0.002656772042700666,-0.0023002797661095097,-0.0020019904537616636,0.009832694933937068,0.9898018979631326
2016-02-18,-1,-0.0025199099159670347,-0.002143990105321101,-0.0020567316579015857,0.007065029776107243,0.9906501020998133
2016-02-22,-1,-0.003218882519310029,-0.002702890027186986,-0.0013910813277499086,0.008553128652293025,0.9900374680828727
2016-02-24,-1,-0.003153008048294918,-0.0026737382372344805,-0.0012557248501163208,0.007174375130361861,0.990940643767431
2016-02-26,-1,-0.0015794434683145024,-0.0013123934247602045,-0.0013910813277499086,0.0058355777511504645,0.9930868195840019
2016-03-01,-1,-0.0019414120701529661,-0.001608750634720227,-0.0012557248501163208,0.008314409187448522,0.992275774270627
2016-03-03,-1,-0.001153155511595305,-0.0009360685746263271,-0.0012557248501163208,0.007236329390083032,0.9931275438151287
2016-03-07,-1,-0.0003621853725082116,-0.00025371366702298966,-0.002455499086285726,0.006072774657183875,0.9936390934980028
2016-03-09,-1,-0.0008091127436478258,-0.0006237975502249041,-0.0021204087287426485,0.007236329390083032,0.9926307426639464
2016-03-11,1,0.001156602737126998,0.0012703912928480456,-0.0021204087287426485,0.007077355460290944,0.9943037737786246
2016-03-15,1,0.000873875926620757,0.0009315708538606253,-0.0008030182219776796,0.008314409187448522,0.9926561181048391
2016-03-17,0,-9.185399229847893e-05,2.8667275657411192e-05,-0.0008030182219776796,0.008642294818769897,0.9918857573988443
2016-03-21,1,0.00011137772704875986,0.0002070950010509677,-0.0014128576078260599,0.008234785888686195,0.9921674456009746
2016-03-23,1,0.0006158173064765815,0.0006387236540431131,-0.0037202951277249493,0.008618079237123214,0.9916555152818737
2016-03-28,1,0.0017747603380605444,0.0020722712137300836,-0.0015743285344631043,0.008618079237123214,0.9924592349504152
2016-03-30,1,0.002752845879956207,0.0032125537730287312,-0.0015743285344631043,0.007757864099309928,0.9932432481791054
2016-04-01,1,0.0032055590651140706,0.0037520416848463574,-0.0037202951277249493,0.007757864099309928,0.9929343826081002
2016-04-05,1,0.0026627957056807685,0.0031213378504775647,-0.0015743285344631043,0.007757864099309928,0.9931697383458609
2016-04-07,1,0.003188749923389264,0.0037094141256887123,-0.002291548902053787,0.007757864099309928,0.9935213798752409
2016-04-11,1,0.003271339890330903,0.003762855146490084,-0.0037202951277249493,0.008618079237123214,0.9930451548656196
2016-04-13,1,0.004801119613926281,0.0055011192203669335,-0.0038320017031371802,0.007061604436299922,0.9941258048529793
2016-04-15,1,0.004464677895058881,0.005103299827836111,-0.0037202951277249493,0.006100615928675729,0.9949482018846277
2016-04-19,1,0.004075877678507517,0.0046356732919045135,-0.0038320017031371802,0.007061604436299922,0.9942228414804865
2016-04-21,1,0.003864650831467316,0.004361698198014956,-0.0040397098542130135,0.006100615928675729,0.9943032662725557
2016-04-25,1,0.0037376773135175886,0.004207308951449698,-0.0040397098542130135,0.007061604436299922,0.9941696207244073
2016-04-27,1,0.004208016591710908,0.004759101280742839,-0.0040397098542130135,0.009105479353402075,0.9936402801890293
2016-04-29,1,0.0037042201065084724,0.00415090598130626,-0.0023291703172499084,0.009105479353402075,0.9943018132122089
2016-05-03,1,0.003184684887607621,0.003541803929550422,-0.0023291703172499084,0.009105479353402075,0.9942566804503522
2016-05-05,1,0.003353435894319349,0.003730886597736315,-0.0040397098542130135,0.008350943757257178,0.9941504484535073
2016-05-09,1,0.003270988303135552,0.003621422927997433,-0.004200833914699576,0.006706236562338763,0.9934941533727334
2016-05-11,1,0.003679406165013878,0.0041255918998033304,-0.0035800111196959985,0.005106743994843627,0.993686151490615
2016-05-13,1,0.0031507756954671107,0.0034630017809810726,-0.00592669739221942,0.005106743994843627,0.9931377088484478
2016-05-17,1,0.0036819280204017984,0.004113103130802884,-0.00592669739221942,0.004628387667881701,0.9932185497698869
2016-05-19,1,0.0036723073697337624,0.004118414126899956,-0.004518122382010069,0.004628387667881701,0.9933799280106329
2016-05-23,1,0.0037839549563107484,0.0042366675908233585,-0.004518122382010069,0.005106743994843627,0.9932943818637163
2016-05-25,1,0.0042214999923494145,0.004722379807248987,-0.004518122382010069,0.004628387667881701,0.9927988784868214
2016-05-27,1,0.004306870199267213,0.004839313707058052,-0.00844448418570346,0.002558979005064995,0.9900035854101382
2016-06-01,1,0.003731129463357047,0.004145429344442933,-0.00844448418570346,0.0066638265833922124,0.9899131805719992
2016-06-03,1,0.00313191557479999,0.0034192851149556437,-0.004643822067135558,0.008503511889237564,0.9904739266340845
2016-06-07,1,0.002528291268398348,0.00275916486912838,-0.0040802684055800745,0.010114284358156912,0.990878741108226
2016-06-09,1,0.002524443320393625,0.0027390035353081037,-0.0040802684055800745,0.011556428841717379,0.9900989050328176
2016-06-13,1,0.001511373752252639,0.0015360380243705368,-0.002334002248906784,0.011556428841717379,0.9905401024808774
2016-06-15,1,0.0009936865746312008,0.0010255129671485372,0.000741902267374097,0.011556428841717379,0.9910091368373446
2016-06-17,1,0.001318679308079955,0.0013698653188814363,-0.000943023695138006,0.011556428841717379,0.9906648581735612
2016-06-21,1,0.0009035072083192571,0.0009696297039831183,-0.0029985685352765766,0.015341825404968248,0.9904523677555895
2016-06-23,1,0.0016299763797771754,0.0016686637712312435,-0.0061530076003378275,0.011556428841717379,0.9905529257153806
2016-06-27,-1,-0.00044290784715429916,-0.00019920342677825803,-0.005100214929137906,0.011556428841717379,0.9920509638297786
2016-06-29,0,-9.695692800184511e-06,0.0002270082891758199,-0.0061530076003378275,0.006881166033744581,0.9914871065305959
2016-07-01,-1,-0.00046628925617472384,-0.00014249075033592469,-0.0061530076003378275,0.008114464396680229,0.990669544631057
2016-07-06,-1,-0.00047572005093920143,-0.00014796080893631934,-0.005204211967100523,0.003712018949500172,0.9915132336586087
2016-07-08,1,0.0003647299613504973,0.0005651237084130977,-0.005204211967100523,0.00369585967914182,0.9923361612925256
2016-07-12,1,0.0005020363131323123,0.0006711138332374046,-0.005204211967100523,0.004240749555975525,0.9919124029574069
2016-07-14,1,0.0003999627576142949,0.000566779922841921,-0.00657097100208149,0.003932024049921709,0.9904275470566215
2016-07-18,-1,-0.00026504208396796556,-8.378296770198009e-06,-0.004305877509493601,0.004429978087798664,0.9908181357024995
2016-07-20,1,0.00035406471618825217,0.0004987104894880255,-0.006749734244348739,0.003909035903237842,0.990804923886735
2016-07-22,-1,-0.00026416736650418415,-3.9943230334479104e-05,-0.003702889146609829,0.003909035903237842,0.9914878996250099
2016-07-26,-1,-0.00039599772864018533,-0.00016986226810788302,-0.0023025707100654855,0.004429978087798664,0.9912504403680469
2016-07-28,1,0.0004633200213255289,0.0005748187732489455,-0.0023025707100654855,0.003919085359742209,0.9926802003946611
2016-08-01,1,0.0009187941015053019,0.000988925650225374,-0.0023025707100654855,0.004429978087798664,0.9933138498993171
2016-08-03,1,0.0012086507844445721,0.0012166345214912186,-0.002514756639099601,0.004429978087798664,0.9932005476586933
2016-08-05,1,0.0011803913736449323,0.0011854589247687515,-0.004418141511290451,0.005419394526550268,0.9925601813384519
2016-08-09,1,0.0012092682804681117,0.0012254055280219044,-0.004418141511290451,0.004429978087798664,0.99288780646945
2016-08-11,1,0.0004647632573761131,0.0005637607322786719,-0.004418141511290451,0.004231606719497546,0.9928712689589826
2016-08-15,1,0.00040203841334689736,0.0005247091255847083,-0.006565448189401338,0.005175046864881416,0.9914926467842938
2016-08-17,-1,-0.0002509947302968572,-3.827561466313728e-05,-0.002879852887699457,0.00822034830145391,0.9916823746024441
2016-08-19,0,-5.275285510492842e-05,0.00010932333929867773,-0.0049214718730305595,0.00822034830145391,0.991378514886675
2016-08-23,1,0.0003097118399459247,0.00042566950134695575,-0.0049214718730305595,0.00822034830145391,0.9911084204957881
2016-08-25,-1,-0.0004153674225668467,-0.00018946465077289963,-0.00432376926456672,0.008768515426075409,0.9911551612951442
2016-08-29,1,0.0002766594877554496,0.00039672499445111455,-0.0049214718730305595,0.008362084897329668,0.9910426075206191
2016-08-31,1,8.173156631564556e-05,0.00021534441004275346,-0.0050398743354080995,0.008362084897329668,0.9909316775411495
2016-09-02,1,0.0006291008221947631,0.0006369203888418446,-0.00432376926456672,0.009193725213702689,0.9908247703204247
2016-09-07,1,0.0005757360446049054,0.0005962892163153637,-0.004794264114143519,0.010096067778837942,0.9902826612441226
2016-09-09,-1,-0.00048019117501071326,-0.0003310181792994352,-0.00432376926456672,0.010096067778837942,0.9919652439053899
2016-09-13,-1,-0.0008415299902165255,-0.0006539451994285459,-0.00432376926456672,0.010658899369476206,0.990703803317083
2016-09-15,-1,-0.0006451254387831181,-0.000472891717661383,-0.00432376926456672,0.009233156201833447,0.9911338954681586
2016-09-19,-1,-0.0005223593472791538,-0.00037687560335308704,-0.004173814469747447,0.009233156201833447,0.9913301537064286
2016-09-21,-1,-0.00011907220510762567,-1.769317367534076e-05,-0.0043938809670328325,0.009233156201833447,0.9910102993788467
2016-09-23,0,-8.916171622871727e-05,2.1308907615432673e-05,-0.005098905697852519,0.00574184371031719,0.991558899304483
2016-09-27,-1,-0.0001024962564256254,-4.874014347684263e-07,-0.005098905697852519,0.003936066835180977,0.991443120759659
2016-09-29,-1,-0.00017374796748288095,-6.098467612872824e-05,-0.005098905697852519,0.003409197338161761,0.9901790392671679
2016-10-03,1,0.0002308434963738119,0.00028184572975343815,-0.00601157491788645,0.003409197338161761,0.9855235550637841
2016-10-05,1,0.0002303029291044947,0.0002541886848018213,-0.01586217612072991,0.0022475811445983383,0.9846558867094767
2016-10-07,1,0.00032760189928992346,0.00033456040069289485,-0.01586217612072991,0.00391019577429637,0.9843364893847739
2016-10-11,-1,-0.000312516615343697,-0.00022791967603347352,-0.01586217612072991,0.00391019577429637,0.9854197774759332
2016-10-13,-1,-0.00019598691144494826,-0.00013461474478546783,-0.01586217612072991,0.00391019577429637,0.9850745587827516
2016-10-17,-1,-6.888231414948471e-05,-3.6310038522313455e-05,-0.017264941161958886,0.00391019577429637,0.984041061970843
2016-10-19,1,0.00019062781594827007,0.00019454914199248778,-0.017264941161958886,0.00391019577429637,0.9833063139831267
2016-10-21,1,1.466039531332538e-05,3.8645468513193756e-05,-0.017264941161958886,0.00391019577429637,0.9835545445694562
2016-10-25,-1,-0.0002933501092911092,-0.0002307039502995133,-0.01586217612072991,0.004711963208883483,0.9834647177917069
2016-10-27,-1,-0.0011165811334607554,-0.0009418821322652916,-0.013293430863324,0.0070461739684018875,0.9845731584520416
2016-10-31,-1,-0.002569038560815057,-0.0022249185507092948,-0.010072101405319563,0.00718910189508584,0.9891801196072217
2016-11-02,-1,-0.003123966405269106,-0.002709226127476613,-0.010072101405319563,0.00718910189508584,0.9889721716240176
2016-11-04,-1,-0.003205091378550827,-0.002767264247731446,-0.010072101405319563,0.012572931917317776,0.988642255847029
2016-11-08,-1,-0.003525215035078496,-0.0030483473123922035,-0.00652643377978763,0.012572931917317776,0.9887348849347231
2016-11-10,-1,-0.003477954831042593,-0.0030238372630756153,-0.004188885751822675,0.012572931917317776,0.9883776832126668
2016-11-14,-1,-0.0038020760711911543,-0.0033283094333187253,-0.0022903244172630104,0.012572931917317776,0.9884478645696702
2016-11-16,-1,-0.003900327748727334,-0.003371590794932825,-0.005918749677640682,0.00958998627148017,0.9889237741164748
2016-11-18,-1,-0.003420714028978267,-0.0029814722878092623,-0.0077721897426231805,0.00958998627148017,0.9885775538540045
2016-11-22,-1,-0.003183712201343751,-0.002785774334506133,-0.007092487498456399,0.00838411868522973,0.9895506424442079
2016-11-25,-1,-0.002678999712176157,-0.002350716411777856,-0.007092487498456399,0.0076082028042551006,0.9900896670378786
2016-11-29,-1,-0.0021070150734712008,-0.001870675721286734,-0.007092487498456399,0.007541592033860287,0.9905075259839466
2016-12-01,-1,-0.0026301126644791358,-0.0023394699757028244,-0.002123729091538742,0.007541592033860287,0.9914559577625898
2016-12-05,-1,-0.00214308856996287,-0.0019180855320175712,-0.002123729091538742,0.007541592033860287,0.9919454516237509
2016-12-07,-1,-0.0016395915528301195,-0.0014651860924969882,-0.002123729091538742,0.007374990706384022,0.9932724490254308
2016-12-09,-1,-0.001381491286088189,-0.0012538164238450502,-0.002123729091538742,0.00808071634578522,0.9897016220250472
2016-12-13,-1,-0.0012336409473191962,-0.0011102395314344234,-0.0028161659550261795,0.00808071634578522,0.9899747323024853
2016-12-15,-1,-0.002025629333413613,-0.001804982630561362,-0.0011303499304971174,0.00808071634578522,0.9908467815072483
2016-12-19,-1,-0.001586644354202955,-0.0014522935169846516,-0.0011303499304971174,0.007541592033860287,0.9913485059671998
2016-12-21,-1,-0.0013240006558974688,-0.0012505858040103594,-0.0008030987742702608,0.007541592033860287,0.9912630918915176
2016-12-23,-1,-0.0011249108019914579,-0.0010738642016100625,-0.00012243534660933558,0.0083090470572164,0.9909219020953803
2016-12-28,-1,-0.0007702434506693224,-0.0007682387627733926,-0.0006256898270990156,0.009270705424379433,0.9905962124231698
2016-12-30,-1,-0.0005263617879105272,-0.0004703447641816853,-0.0006256898270990156,0.010137427136679084,0.9891950176498593
2017-01-04,-1,-0.0005299363276271312,-0.0004962102707591108,-0.0033637595129317665,0.010137427136679084,0.9893005804058723
2017-01-06,-1,-0.00027138444074823153,-0.00019639873521382073,-0.005694148344943127,0.010137427136679084,0.9891832719065351
2017-01-10,1,0.0012397538576050353,0.001496809859017555,-0.0075369380754834224,0.006901941250226385,0.992751439811612
2017-01-12,1,0.001407269917488211,0.0016879565350831844,-0.0075369380754834224,0.0050478637746136645,0.9930834030771712
2017-01-17,1,0.0017712005082366092,0.0021195094472540765,-0.0075369380754834224,0.00443761905339923,0.9929484676827567
2017-01-19,1,0.0015021198758474494,0.0017998993091501536,-0.0075369380754834224,0.00443761905339923,0.9929616156514178
2017-01-23,1,0.0016661156432287954,0.00200952070876823,-0.005694148344943127,0.0044978345375559035,0.9934115446771518
2017-01-25,1,0.0019205727882842711,0.002289653227552248,-0.005694148344943127,0.003986198479600706,0.9934358112056365
2017-01-27,1,0.0021116168350609546,0.0025056081929503227,-0.005508046008893173,0.003986198479600706,0.9941363369689077
2017-01-31,1,0.0024204051401478213,0.0028615519459930868,-0.004546412663583624,0.003986198479600706,0.9952858520913358
2017-02-02,1,0.0018621394290334967,0.002183934520809059,-0.004546412663583624,0.003986198479600706,0.9953978850455544
2017-02-06,1,0.0016324472982417652,0.0019069133890383893,-0.004546412663583624,0.0036450599453654847,0.9953079814756046
2017-02-08,1,0.0017170531732527466,0.002014683480286844,-0.002840297756845874,0.004012753400615928,0.9953704573599224
2017-02-10,1,0.001767779460968109,0.002073508281172039,-0.0029233776711049065,0.004555417717317294,0.9951795428724303
2017-02-14,1,0.0018772245363245178,0.0022153930467611258,-0.0029233776711049065,0.004662097497003397,0.9947374230620522
2017-02-16,1,0.001856205368345542,0.0022025762948611723,-0.0023319919034351213,0.005434158421215886,0.9942731723768504
2017-02-21,1,0.00201316842911237,0.002379895543452786,-0.0029233776711049065,0.005367913671363057,0.9939133115376275
2017-02-23,1,0.001901265885222278,0.0022528230805941036,-0.0031881979081247393,0.005367913671363057,0.9939203420039152
2017-02-27,1,0.002183919972014607,0.0025922812036142428,-0.0036767391978619174,0.00528331547496123,0.9938151682481751
2017-03-01,1,0.0025596091951919646,0.003024229011579406,-0.0036767391978619174,0.005265894527691485,0.9941388739762733
2017-03-03,1,0.0025191018229229617,0.002983023070877721,-0.002577918914273213,0.006505462033449717,0.9943779550618581
2017-03-07,1,0.0018609571539733188,0.002193937827595245,-0.003494743483685869,0.006505462033449717,0.9944101101851713
2017-03-09,1,0.0022067846562499023,0.002588692572220894,-0.004806023539824511,0.004024705976038483,0.9945259410239631
2017-03-13,1,0.0022803063872653007,0.0026698235176561545,-0.004806023539824511,0.002446165420022236,0.9946587549060666
2017-03-15,1,0.0023565237020900616,0.002767782828839018,-0.0040067215830316884,0.0016538285742533486,0.9948547780318856
2017-03-17,1,0.002625288232862325,0.0030683444773328466,-0.0040067215830316884,0.002374825357096386,0.9952069873603117
2017-03-21,1,0.0023060898526460058,0.002688363790360979,-0.0040067215830316884,0.003092262781653428,0.9949750629429455
2017-03-23,1,0.001781759411370108,0.002054743981397939,-0.0040067215830316884,0.003708353140446466,0.9947833601157368
2017-03-27,1,0.0018480594658467383,0.00200618824050097,-0.0040067215830316884,0.006505462033449717,0.9938416583972797
2017-03-29,1,0.0013489595224750752,0.0013903466971322749,-0.004806023539824511,0.006301795620904779,0.9910231627822942
2017-03-31,1,0.0011036690414390933,0.0011563450176263557,-0.004806023539824511,0.009808148039041625,0.9903592865662854
2017-04-04,1,0.0007320764169690065,0.000755826899933825,-0.004033151800143898,0.009808148039041625,0.990319006337785
2017-04-06,1,0.00031050063157996526,0.0004003370939390346,-0.004165949040881819,0.009808148039041625,0.9893959674790727
2017-04-10,-1,-0.00026385683748934884,-7.395649350450811e-05,-0.004165949040881819,0.010703828004984265,0.9887339522823354
2017-04-12,-1,-0.00015090922807881746,-5.806993680016381e-06,-0.003343863558820801,0.012884417866525303,0.9880821864709366
2017-04-17,1,7.655988361025492e-05,0.0002023276179481198,-0.003343863558820801,0.01062381640258819,0.9884226485199573
2017-04-19,-1,-0.00020034027066713,-4.374001521186975e-05,-0.006549333167911484,0.01062381640258819,0.9874419159074546
2017-04-21,1,5.5736398795981775e-05,0.00017207937392953632,-0.005417638353588569,0.009808148039041625,0.9880160979688459
2017-04-25,1,0.0007131734188168893,0.0007478700988984307,-0.005417638353588569,0.00745212555088728,0.9893064018841047
2017-04-27,-1,-0.0011531985373365694,-0.0008586917009633171,-0.0029666319540464963,0.009062638882777361,0.9915760732270174
2017-05-01,-1,-0.0005189326507738582,-0.0003123272952369352,-0.004608104614729266,0.004371121559610144,0.9925673129747963
2017-05-03,-1,-0.00046849175738579386,-0.0003042454635148983,-0.0029666319540464963,0.00745212555088728,0.9912805103682304
2017-05-05,-1,-0.0010382538420853427,-0.0008092120989112063,-0.00020717951828885345,0.009206246475705088,0.9915930833952569
2017-05-09,-1,-0.0004988991749459218,-0.00034611175653517556,-0.00020717951828885345,0.00745212555088728,0.9925825785371112
2017-05-11,-1,-0.0006536948307309512,-0.00044063251982996623,-0.0007596310835975557,0.006588169813467732,0.99319031787979
2017-05-15,-1,-0.000498568489986451,-0.0003034264482960163,-0.0007596310835975557,0.004466556565269566,0.9935979116035114
2017-05-17,-1,-0.0016239651352123973,-0.0012820666635265363,-8.017914539981646e-05,0.004466556565269566,0.9945048442201346
2017-05-19,-1,-0.0016484384380215063,-0.0013079700044304463,0.00010733533366913995,0.006588169813467732,0.9941836427457974
2017-05-23,-1,-0.0016371846007295137,-0.0013018477123852082,0.0004567739847350851,0.00726859956240299,0.9936943437334522
2017-05-25,-1,-0.001456188210969192,-0.0011386670890719468,-8.017914539981646e-05,0.006638044393798806,0.9941767429023078
2017-05-30,-1,-0.0015837629716162266,-0.0012598782385019906,-8.017914539981646e-05,0.006638044393798806,0.994083495134863
2017-06-01,-1,-0.000785535480907155,-0.0005598027324067985,-0.00011857669782175495,0.004468584428792464,0.9961220168958691
2017-06-05,1,0.0003474141013751277,0.0003481294027133442,-0.00017490781736127827,0.003816975772905424,0.9968244744970247
2017-06-07,1,0.000428881698554147,0.0004440582825024722,-0.0015383166795433327,0.003816975772905424,0.9958726357764246
2017-06-09,1,0.0005658350722188017,0.0006054456522852352,-0.0007539215942682534,0.003816975772905424,0.9956506321642952
2017-06-13,1,0.0005058315107298252,0.0005285404025243159,-0.00292683739469453,0.0027080818375316154,0.9953631134921923
2017-06-15,1,0.000490396814056843,0.0005030572227533811,-0.00292683739469453,0.0073999725316901315,0.9931316785233743
2017-06-19,1,0.0007974385479483901,0.0008630742740039978,-0.004769767861187888,0.004683218426137685,0.9930233759173365
2017-06-21,1,0.0010341437652031898,0.0011388056359706285,-0.005187445854527971,0.0027080818375316154,0.9927177707165801
2017-06-23,1,0.0011061222276058712,0.0012326484754379998,-0.006288785541315868,0.0020908372869204227,0.9927730923190787
2017-06-27,1,0.0009041693158679349,0.0009952432466608483,-0.005200083188484958,0.0020908372869204227,0.9931210009116076
2017-06-29,1,0.0008289597339596605,0.0009023598295244161,-0.008053045819620928,0.0013813920866282514,0.9914870353479205
2017-07-03,1,0.0008663082051995581,0.0009405440519536468,-0.011139441071059165,0.0009496119931187015,0.9902048868788899
2017-07-06,1,0.00044093240403163356,0.00045603590832435115,-0.011139441071059165,0.0009496119931187015,0.9901225858980405
2017-07-10,1,0.000666592765347367,0.0007078380544562582,-0.011139441071059165,0.00010995972822758814,0.9900305783724703
2017-07-12,1,0.00036633344692990665,0.0003772464174936277,-0.014511605938059481,0.00010995972822758814,0.9887477054675141
2017-07-14,1,0.0014647963106889992,0.0016029969996604401,-0.018497152605596548,-0.0004465341046045437,0.9884100573474442
2017-07-18,1,0.001098497075862671,0.001174274867062983,-0.018497152605596548,0.00015387411829545877,0.9888709178217066
2017-07-20,1,0.0007791428673968228,0.0008165717991109819,-0.018497152605596548,0.0010006221826622697,0.989416230680687
2017-07-24,1,0.0007923007311304369,0.000851248741029671,-0.018497152605596548,0.0017524145918709957,0.9887156190607094
2017-07-26,1,0.0006529048244115882,0.0006837330597604551,-0.018497152605596548,0.00470944810057743,0.9876289289381392
2017-07-28,-1,-0.0005175591163203231,-0.00039439864074736956,-0.015643047392345788,0.005450500560021863,0.9894066018635667
2017-08-01,-1,-0.000984824915284705,-0.0008284073139556833,-0.010623736582180974,0.005450500560021863,0.9906581437056267
2017-08-03,-1,-0.0015588169081242743,-0.0013419627978990796,-0.007018966140685222,0.006742054493718456,0.9910641934423018
2017-08-07,-1,-0.001566454736787141,-0.0013474669449978997,-0.006690184252050464,0.005620337051902249,0.991559248880505
2017-08-09,-1,-0.0021805324754068335,-0.0019113771559016116,-0.0012529990388376942,0.0080767912274609,0.9922032785376587
2017-08-11,-1,-0.0024361675942400295,-0.002132487510549366,-0.000661865181364212,0.005620337051902249,0.993696497124385
2017-08-15,-1,-0.0021670623106463463,-0.0018908340587502834,-0.0012529990388376942,0.005167545396861249,0.9941172765958345
2017-08-17,-1,-0.0022619665273076414,-0.001974884342259725,-0.0012529990388376942,0.005167545396861249,0.9941496546959505
2017-08-21,-1,-0.0020123822981801542,-0.00176652558664726,-0.0012529990388376942,0.005167545396861249,0.9946171732087842
2017-08-23,-1,-0.0019724839415517104,-0.0017400088166240084,-0.0012529990388376942,0.005167545396861249,0.9942178221308151
2017-08-25,-1,-0.0019799782920842035,-0.00173447928022447,-0.0012529990388376942,0.005682303001915684,0.9940494424545002
2017-08-29,-1,-0.0020942612182358643,-0.0018309291194441198,-0.0003934979014505832,0.006603016371031,0.9930865940255856
2017-08-31,-1,-0.0017444054965037273,-0.001521344434733707,-0.0017111834163044543,0.006603016371031,0.9932150084068512
2017-09-05,-1,-0.00184955255047046,-0.0016059265557827511,-0.00452183399639541,0.006603016371031,0.9924392153167721
