JNU-Tangyin/eata/results/Batch4_SP500/Batch4_SP500-ROP.csv
Date,Action,Predicted_Q25,Predicted_Q75,Actual_Q25,Actual_Q75,RL_Reward
2010-12-14,0,0.0,0.0018105610037074137,-0.006688201414497201,0.0047600253243231475,0.9941358650922992
2010-12-16,1,0.0014083259938198803,0.001553250510532184,-0.006688201414497201,0.003023976505409299,0.9932532897652564
2010-12-20,1,0.0011589048556879169,0.0012494883922830567,-0.006688201414497201,0.004005761457954135,0.9929688907965702
2010-12-22,0,0.0,0.0,-0.00699571425272083,0.004005761457954135,0.993016174475029
2010-12-27,0,0.0,0.0,-0.006309711644826958,0.004005761457954135,0.9936744766170834
2010-12-29,-1,-0.026713236037530643,-0.019647808095743714,-0.006309711644826958,0.005368901361889447,0.9777232084079008
2010-12-31,1,0.0032246320730890217,0.0034276559774221666,-0.00699571425272083,0.007155965955038941,0.9918418697382531
2011-01-04,0,0.0,0.0,-0.0034404959277383644,0.007299522339242755,0.9916574116242481
2011-01-06,0,0.0,0.0,-0.0020874541902891714,0.009362114638362392,0.9917047643768185
2011-01-10,1,0.00019950585247471538,0.0003277306862902098,-0.00030765465297287855,0.01108895765528185,0.9912080742069661
2011-01-12,-1,-0.00010932496313097178,-0.00010094027583261683,0.0005199649179789148,0.011330387960307699,0.9908345443432593
2011-01-14,1,7.488151334893971e-06,2.6615206778696516e-05,0.0018576831433334284,0.011627618888879821,0.9900933050804441
2011-01-19,0,0.0,0.0,0.0018576831433334284,0.011627618888879821,0.9908231723430342
2011-01-21,0,0.0,0.0,0.0018576831433334284,0.011627618888879821,0.9907337592615574
2011-01-25,1,0.0171924845220434,0.017465386527587494,-0.0007244256287743672,0.011594316534080717,0.9871069739810441
2011-01-27,0,0.0,0.0,-0.004006779837157194,0.011468900160601907,0.9901663021206076
2011-01-31,0,0.0,0.0,-0.004006779837157194,0.01112207794455598,0.9910162229877847
2011-02-02,0,0.0,0.0,-0.004006779837157194,0.011468900160601907,0.9894172068134467
2011-02-04,0,0.0,0.0,-0.007080768922873066,0.011468900160601907,0.9884921316757718
2011-02-08,0,0.0,0.0,-0.007080768922873066,0.011405683808922887,0.9889484319334092
2011-02-10,0,0.0,0.0,-0.009094709742451183,0.011208474578104203,0.9883524390230382
2011-02-14,-1,-0.0004002342904893244,-0.0003871645328565236,-0.010221458846130071,0.008970533615704964,0.9885092588911479
2011-02-16,1,0.0013258439896380618,0.0013804390654489026,-0.0111645876311261,0.008970533615704964,0.9878452726142807
2011-02-18,0,0.0,0.0,-0.0111645876311261,0.011728090061246579,0.9866745825317466
2011-02-23,0,0.0,0.0,-0.010221458846130071,0.011728090061246579,0.9874198840201067
2011-02-25,0,0.0,0.0,-0.010221458846130071,0.011208474578104203,0.9877757580899768
2011-03-01,0,0.0,0.0,-0.008542956441956543,0.009881078998345394,0.9881014039424214
2011-03-03,0,0.0,0.0,-0.008542956441956543,0.007807831698292234,0.9901372891100065
2011-03-07,0,0.0,0.0,-0.007159007236193279,0.008707911736053753,0.9904893865571658
2011-03-09,0,0.0,0.0,-0.007928760752822478,0.007807831698292234,0.9905171273490724
2011-03-11,0,0.0,0.0,-0.008182695168135745,0.007807831698292234,0.9908226113680677
2011-03-15,-1,-0.000530607450513734,-0.00034566132274938964,-0.007290768548651367,0.007807831698292234,0.9913583327384385
2011-03-17,1,0.0005469724220581165,0.0007277919519580875,-0.0069831670223083194,0.007412301071371476,0.992024906691464
2011-03-21,1,0.0024970806795638566,0.002575371795784891,-0.007290768548651367,0.0038127976385350345,0.9922490809875514
2011-03-23,1,0.0012983987554970478,0.00140691735036233,-0.007290768548651367,0.005900908502636399,0.9921019247420476
2011-03-25,1,0.00169171338981698,0.0017580536024542032,-0.007290768548651367,0.005800567640931313,0.9920635367608696
2011-03-29,0,0.0,0.0,-0.0074370971141637585,0.005800567640931313,0.9919215127791547
2011-03-31,0,0.0,0.0,-0.0074370971141637585,0.00421913581896898,0.9923008717714175
2011-04-04,0,0.0,0.0,-0.007899244129247312,0.0024534846628466566,0.9928794207528727
2011-04-06,0,0.0,0.0,-0.007899244129247312,0.0024534846628466566,0.992622494469575
2011-04-08,0,0.0,0.0,-0.004448709904694572,0.0024534846628466566,0.9933050783631127
2011-04-12,0,0.0,0.0,-0.004602758909722423,0.00421913581896898,0.992436182874823
2011-04-14,-1,-0.00036374463659301674,-0.00032589473376917457,-0.008037388851040378,0.005509659744501582,0.99162118186612
2011-04-18,-1,-0.0013715589139763583,-0.0011931172500476775,-0.008037388851040378,0.005509659744501582,0.9919861007233406
2011-04-20,0,0.0,0.0,-0.008037388851040378,0.004901098913145504,0.9927214915427129
2011-04-25,0,0.0,0.0,-0.00938130278410921,0.003987272259972702,0.9924059956473867
2011-04-27,0,0.0,0.0,-0.010943999058780754,0.003987272259972702,0.9920861687922797
2011-04-29,0,0.0,0.0,-0.010943999058780754,0.004901098913145504,0.9916107700780259
2011-05-03,0,0.0,0.0,-0.014215282471565695,0.005575717428987072,0.9899382416950981
2011-05-05,1,0.0004741267498037334,0.0007157391789283861,-0.014215282471565695,0.006219640664765665,0.9896047377509545
2011-05-09,1,0.0005568750361526306,0.0008126508222133054,-0.014215282471565695,0.008201502808970317,0.9887262303320979
2011-05-11,0,-6.013175920919567e-06,0.00018061880178887294,-0.010943999058780754,0.006219640664765665,0.9897057909359427
2011-05-13,1,0.00014375132364110406,0.00033462692582115865,-0.010207589768530138,0.006219640664765665,0.9900117931856622
2011-05-17,0,0.0,0.0,-0.011559472721667342,0.008201502808970317,0.9887900134238026
2011-05-19,1,0.00017675329827113943,0.00021394576359008943,-0.011559472721667342,0.008782089848632399,0.9885638390012662
2011-05-23,1,5.637319171219619e-05,6.750100869954697e-05,-0.01004762180956226,0.012716118016834211,0.9880179299963514
2011-05-25,1,7.705347150824854e-05,9.313393010915922e-05,-0.006017836449733615,0.008782089848632399,0.9889823138140295
2011-05-27,-1,-0.002316364933892712,-0.0019038022615983597,-0.006954808969014471,0.007474777781649769,0.9896842185666576
2011-06-01,-1,-0.004405474677429224,-0.0037374945786510898,-0.005073059016423738,0.012716118016834211,0.9903450226011843
2011-06-03,-1,-0.0049466023346602505,-0.004186850247218019,-0.004052735506511517,0.008304284386869587,0.9906646763684386
2011-06-07,0,0.0,0.0,-0.0037705851152370217,0.006388627553493458,0.9918966209653638
2011-06-09,-1,-0.003971083636965304,-0.0033776291315901013,-0.004052735506511517,0.007248278856184378,0.9906259070637633
2011-06-13,0,0.0,0.0,-0.005073059016423738,0.007248278856184378,0.990565859056687
2011-06-15,1,4.792763737777327e-05,0.00012102024750424182,-0.005073059016423738,0.006780673881287301,0.9914852535670652
2011-06-17,-1,-0.0030462861033008,-0.0025322207165219997,-0.006272999790388747,0.006780673881287301,0.9911401114923022
2011-06-21,-1,-0.0018559923740759767,-0.0015133574967868247,-0.006272999790388747,0.006994444669485784,0.9915359075898063
2011-06-23,-1,-0.002069444409341735,-0.0017117999245977514,-0.006272999790388747,0.007561976516448094,0.9905245189826997
2011-06-27,-1,-0.0020061807710206763,-0.0016833482789845504,-0.007964855864734844,0.009575125586730392,0.9886487579632302
2011-06-29,-1,-0.0011198440402527478,-0.0009152793373975943,-0.011367073395575546,0.007561976516448094,0.9879390606659287
2011-07-01,-1,-0.00024522765232092036,-0.00018291121234625563,-0.012831999753222894,0.007561976516448094,0.9873709960155261
2011-07-06,1,0.00010011434796621156,0.00010474255009608572,-0.01349299517987284,0.009575125586730392,0.9853159665038081
2011-07-08,1,0.0002587309495388219,0.00031024791809639636,-0.01700492765114059,0.00881362302663461,0.9826806688188376
2011-07-12,-1,-0.00043527319009113355,-0.0004044888319438547,-0.017060440733673434,0.013420940904902829,0.9779332761400381
2011-07-14,-1,-0.0004960897187611096,-0.00046229515790950263,-0.021849449620592123,0.01395820904761101,0.9736685117545647
2011-07-18,-1,-0.0010397295575249503,-0.0009026505807458297,-0.021849449620592123,0.014689661047809053,0.9736915247623324
2011-07-20,-1,-0.0003138633327823525,-0.00026679720388584233,-0.03209966137541708,0.014689661047809053,0.972788202511307
2011-07-22,1,0.00031698778740683854,0.0003473457395936356,-0.034004616325094036,0.01316747616128949,0.970436131724248
2011-07-26,0,0.0,0.0,-0.034004616325094036,0.01316747616128949,0.9705394484796037
2011-07-28,0,0.0,0.0,-0.03209966137541708,0.015438918404920461,0.9712920702165914
2011-08-01,-1,-0.004228214846387349,-0.003839760729232558,-0.03209966137541708,0.024411046644123476,0.9696078317964706
2011-08-03,-1,-0.0012387116718324273,-0.0011115029322634569,-0.025789254754379577,0.024411046644123476,0.9706486620782546
2011-08-05,-1,-0.0039443580188453006,-0.0034770063781186444,-0.024177187503883944,0.024411046644123476,0.9717360724942884
2011-08-09,-1,-0.004660108833797387,-0.00410549572059335,-0.019615340731260287,0.024411046644123476,0.9752500108750047
2011-08-11,-1,-0.003448946428203424,-0.003101926991246479,-0.0203022886759986,0.01979743992866366,0.9783304517989647
2011-08-15,-1,-0.0026991176203689906,-0.002425646537903255,-0.0203022886759986,0.023710077444604714,0.9783289645895195
2011-08-17,0,0.0,0.0,-0.018682500845269893,0.02717607407011506,0.978153735509905
2011-08-19,0,0.0,0.0,-0.01597610491465678,0.02717607407011506,0.980425647225975
2011-08-23,0,0.0,0.0,-0.01823722640299693,0.023710077444604714,0.9800830459051696
2011-08-25,0,0.0,0.0,-0.018682500845269893,0.023710077444604714,0.9775358917822407
2011-08-29,0,0.0,0.0,-0.018682500845269893,0.018891645692772546,0.9790959312646674
2011-08-31,0,0.0,0.0,-0.018682500845269893,0.012778996718183118,0.9796287642225351
2011-09-02,0,0.0,0.0,-0.02284111940586842,0.012778996718183118,0.9779486898883666
2011-09-07,-1,-0.00038129732503026286,-0.0002681543103326907,-0.02284111940586842,0.020992694736931383,0.9764301808122515
2011-09-09,-1,-0.0023239775429961798,-0.0021883320925676127,-0.016808278375269783,0.02203119734287359,0.9774747116045116
2011-09-13,1,0.0002074376033946552,0.00045985173941621017,-0.016808278375269783,0.022589947355422118,0.9772269654744296
2011-09-15,1,0.0018349749402746902,0.0023287599321055235,-0.019947240641667044,0.01951139222769048,0.9773583185355399
2011-09-19,1,0.0018091433434852297,0.0022790578520613435,-0.027284214177140453,0.022589947355422118,0.9751980106483452
2011-09-21,0,0.0,0.0,-0.012636539821372094,0.02824663080887036,0.9753938276630366
2011-09-23,-1,-0.0016930646009154183,-0.0016321627572163763,-0.006596654260334327,0.022435455984782103,0.9780335792504401
2011-09-27,-1,-0.00094952761938855,-0.0009478038557204707,-0.006596654260334327,0.022435455984782103,0.9785578624138218
2011-09-29,0,0.0,0.0,-0.005981905005209583,0.02824663080887036,0.9770728604046208
2011-10-03,0,0.0,0.0,-0.0046215991126338386,0.02824663080887036,0.9796456838090379
2011-10-05,0,0.0,0.0,-0.005981905005209583,0.02203306233080035,0.9810736265796323
2011-10-07,0,0.0,0.0,-0.00910277933071846,0.026884958476285102,0.979857077926675
2011-10-11,0,0.0,0.0,-0.00910277933071846,0.02008371856465771,0.9809733327591776
2011-10-13,0,0.0,0.0,-0.00910277933071846,0.02008371856465771,0.9806441848980254
2011-10-17,0,0.0,0.0,-0.0054334734590955475,0.02008371856465771,0.9822180273073061
2011-10-19,0,0.0,0.0,-0.0061187247452192985,0.015686006228242885,0.9823178451399728
2011-10-21,0,0.0,0.0,-0.013559198293551471,0.013992313398389291,0.9817878062712927
2011-10-25,0,0.0,0.0,-0.02096961920299428,0.013356161859555307,0.9816089527392781
2011-10-27,0,0.0,0.0,-0.021659667795192652,0.010774646660487407,0.9827397528117606
2011-10-31,0,0.0,0.0,-0.021034391007020058,0.012244520351159157,0.9819909530528907
2011-11-02,0,0.0,0.0,-0.013559198293551471,0.012244520351159157,0.9828966352696513
2011-11-04,0,0.0,0.0,-0.009768337997565255,0.010774646660487407,0.9849201708724045
2011-11-08,0,0.0,0.0,-0.009768337997565255,0.008620009676078033,0.9852531351529403
2011-11-10,0,0.0,0.0,-0.007724553319500961,0.009098299399017911,0.9862341630852446
2011-11-14,-1,-0.39532529789565624,-0.3944173240072101,-0.0142284815530243,0.006878874997532454,0.7176998331996691
2011-11-16,0,0.0,0.0,-0.01333870974133529,0.006736240990095044,0.9874926712374145
2011-11-18,0,0.0,0.0,-0.007724553319500961,0.007143367336385388,0.9883510124834057
2011-11-22,0,0.0,0.0,-0.007021968589373941,0.009002040248334587,0.9866608891855829
2011-11-25,0,0.0,0.0,-0.005928972081574528,0.014006767633004517,0.9867523450416481
2011-11-29,0,0.0,0.0,-0.007021968589373941,0.009409990405062315,0.9876420606213862
2011-12-01,0,0.0,0.0,-0.006846887876507045,0.007707252744273528,0.9889762822372172
2011-12-05,0,0.0,0.0,-0.006846887876507045,0.009409990405062315,0.9885678828220318
2011-12-07,0,0.0,0.0,-0.004613891675271011,0.013827091082327346,0.9881076256784226
2011-12-09,1,0.0011491457882683428,0.0013707466887699989,-0.0023388047680019666,0.013427623036664792,0.9889264710022395
2011-12-13,1,0.00027968783978543995,0.0004171898712566514,-0.001337877467013836,0.013427623036664792,0.9893284208932068
2011-12-15,1,0.0004172734559828506,0.0005666583531542275,0.0006386327243040416,0.013427623036664792,0.9903690138188433
2011-12-19,-1,-0.0006398203749264872,-0.0005648091103215167,0.0019427094661719712,0.012749712429189292,0.9894914537483751
2011-12-21,-1,-0.0004949563797177155,-0.0003883386603487394,0.0011556519028683566,0.009184020202570482,0.9920316661278938
2011-12-23,1,0.0008065057242512139,0.000886982404370401,0.0011556519028683566,0.007744446106942024,0.99337413334755
2011-12-28,-1,-0.0011506304398075451,-0.0008748527614400032,0.0011409401080883699,0.007744446106942024,0.9929429944467195
2011-12-30,-1,-0.0006466601314916954,-0.00043707841081070536,0.0004785418860901628,0.007744446106942024,0.9930775544815527
2012-01-04,-1,-0.0006729198644144387,-0.00047126426914098315,0.0004785418860901628,0.007744446106942024,0.9907390332171861
2012-01-06,-1,-0.00019636808589204395,-9.538531487439611e-05,0.0004785418860901628,0.006504159089529052,0.9914964656248576
2012-01-10,-1,-0.0016645968531367715,-0.001266727121684261,-0.0006877293640667366,0.005116518009147385,0.9917408530244065
2012-01-12,-1,-0.001085103733705306,-0.0007897375769463477,-0.003194138699025681,0.004650370035175808,0.9919609824141948
2012-01-17,-1,-0.0004443759532966413,-0.00028044287730659325,-0.003194138699025681,0.0054248943920493006,0.9917298247121189
2012-01-19,1,0.00027726046211411345,0.000332434659346412,-0.007821256497988698,0.004650370035175808,0.991650272298692
2012-01-23,1,0.0009242054881368684,0.001020657698534437,-0.0036299029279945935,0.005259598790212453,0.9917664288657835
2012-01-25,1,0.001061131663298609,0.0011840320534796589,-0.007571596524739595,0.004650370035175808,0.9916767171002637
2012-01-27,1,0.00030655967869582207,0.0003213485488653161,-0.004045666294303979,0.004650370035175808,0.9921335106167297
2012-01-31,1,0.00023146107408057018,0.00024231546823121774,-0.007571596524739595,0.004650370035175808,0.9910871995104277
2012-02-02,-1,-0.0001234847150654488,-5.0932528841091205e-06,-0.004045666294303979,0.004650370035175808,0.9932712765255419
2012-02-06,1,0.0013954932159258092,0.0015295365754954674,-0.007571596524739595,0.0027564465387012417,0.9924474503850761
2012-02-08,1,0.0017625115275446677,0.0019976768666565485,-0.007571596524739595,0.007888216590685698,0.9913797165543043
2012-02-10,1,0.0014273138935001447,0.00159901490883773,-0.004045666294303979,0.009343038579347537,0.9917167650784398
2012-02-14,0,0.0,0.0,-0.004045666294303979,0.012669732760757904,0.9902505328134468
2012-02-16,0,0.0,0.0,-0.0013952358375946038,0.00971598892932555,0.9911204132247582
2012-02-21,0,0.0,0.0,-0.0013952358375946038,0.00971598892932555,0.991332397821828
2012-02-23,0,0.0,0.0,-0.0007409644725799726,0.00971598892932555,0.9915430347527875
2012-02-27,-1,-0.002445359135963777,-0.0018898668239027677,-1.6088867934708356e-05,0.00971598892932555,0.9901041668596146
2012-02-29,-1,-0.002355687686253185,-0.001858711587769607,0.00035528797246444505,0.00971598892932555,0.9905719860310633
2012-03-02,-1,-0.0021679075127057825,-0.00169635778344983,-1.6088867934708356e-05,0.008091618466059958,0.9916121585169145
2012-03-06,-1,-0.002358296551125836,-0.0018809842544057218,0.0001253182885133968,0.008091618466059958,0.9922971478720521
2012-03-08,-1,-0.0023249905565327885,-0.001837218735900577,-0.00161681612800297,0.00433619911932456,0.9936206082269678
2012-03-12,-1,-0.002574538943909405,-0.002034684191871024,-0.004126063699917117,0.0035260782489320228,0.9932663138913524
2012-03-14,-1,-0.0022595460667472964,-0.001763117928837146,-0.004126063699917117,0.0035260782489320228,0.9934792314919603
2012-03-16,-1,-0.00251071771764258,-0.0019570204442633755,-0.0061258382340208355,0.0035260782489320228,0.9931948063701534
2012-03-20,1,0.0006896961490488566,0.0007645634790409873,-0.008739527619718282,0.0038922704902434636,0.9919554456495621
2012-03-22,1,0.0010457332198756811,0.001065793097214508,-0.009574542218802197,0.005002047029173159,0.9906877477469689
2012-03-26,0,0.0,0.0,-0.009574542218802197,0.004693874938521497,0.9908888490530801
2012-03-28,0,0.0,0.0,-0.008739527619718282,0.009459147173274812,0.9901182322732458
2012-03-30,1,0.0005568045471076564,0.0005859445882703962,-0.008739527619718282,0.009459147173274812,0.9898541387465237
2012-04-03,1,0.0006680021942409975,0.0006996889132648979,-0.008739527619718282,0.009490483631227635,0.9895226368565576
2012-04-05,1,0.0013742776551421043,0.0014059135680966378,-0.009574542218802197,0.009490483631227635,0.9890269017113448
2012-04-10,1,6.516457382560836e-05,0.00013382520755986292,-0.007530582565079849,0.009490483631227635,0.9901646866657743
2012-04-12,0,0.0,0.0,-0.007530582565079849,0.008346837550100412,0.9912715067277063
2012-04-16,0,0.0,0.0,-0.007530582565079849,0.008346837550100412,0.991344241303695
2012-04-18,1,0.001524121843815544,0.0016000722855782244,-0.005658069157415245,0.007483838961822959,0.9927657542640648
2012-04-20,1,0.0002973324798764914,0.0004885027553160336,-0.007530582565079849,0.00599488751135901,0.9918123652770517
2012-04-24,0,0.0,0.0,-0.007530582565079849,0.00661441269383591,0.9901616359481283
2012-04-26,0,0.0,0.0,-0.007530582565079849,0.005705078755363326,0.9913069945886293
2012-04-30,0,0.0,0.0,-0.005658069157415245,0.00661441269383591,0.9908527704193445
2012-05-02,0,0.0,0.0,-0.007718057905798488,0.0032312965311520193,0.9907242552073215
2012-05-04,0,0.0,0.0,-0.008501262423943445,0.0032312965311520193,0.9892048917001282
2012-05-08,0,0.0,0.0,-0.008501262423943445,0.00828728866074711,0.9876437599335102
2012-05-10,0,0.0,0.0,-0.008501262423943445,0.008764680482928867,0.9874814310405958
2012-05-14,0,0.0,0.0,-0.009810845999675247,0.01007400216337991,0.986113719761046
2012-05-16,-1,-0.0016398396157328641,-0.0015446295741272376,-0.0133620452247866,0.01007400216337991,0.9852977288396555
2012-05-18,-1,-0.002325866558831627,-0.0021488682762331266,-0.00563546373617955,0.01007400216337991,0.9865064332208964
2012-05-22,0,0.0,0.0,-0.009179865440244118,0.01007400216337991,0.9877532492867862
2012-05-24,0,0.0,0.0,-0.01146910354649321,0.01007400216337991,0.9869106711365107
2012-05-29,0,0.0,0.0,-0.014429441728902377,0.008425294153875915,0.9862275087426237
2012-05-31,0,0.0,0.0,-0.014429441728902377,0.008425294153875915,0.9861342716511612
2012-06-04,0,0.0,0.0,-0.010706446015702207,0.01007400216337991,0.9865602230344888
2012-06-06,-1,-0.00197655751304557,-0.0017379422738005518,-0.010706446015702207,0.008802782499389539,0.9874781274508083
2012-06-08,-1,-0.001880926122671712,-0.001657226706904069,-0.011515398130298114,0.00706034588303693,0.987262949248909
2012-06-12,-1,-0.0014526160696057043,-0.0013027984855681091,-0.011515398130298114,0.006550690800345852,0.9881501618041373
2012-06-14,-1,-0.001572313115793005,-0.0013953331949161816,-0.010706446015702207,0.006864426927959917,0.9880670762287849
2012-06-18,-1,-0.0009300659681117535,-0.0008474874221889689,-0.011906723959578695,0.004051723549541411,0.9880779914917516
2012-06-20,-1,-0.0010223706265644252,-0.0009163790380245656,-0.011906723959578695,0.004191987753535826,0.9881920942034235
2012-06-22,-1,-0.0021690255270229125,-0.0019200008730854068,-0.011207916358760379,0.004881863921127312,0.9887835987007682
2012-06-26,-1,-0.0030182151575556806,-0.002658443705242342,-0.011207916358760379,0.004881863921127312,0.9892405274884727
2012-06-28,-1,-0.0029578435332059208,-0.0026204494613219953,-0.011207916358760379,0.013953166453968935,0.9872469279587203
2012-07-02,-1,-0.003247202641972873,-0.0029072974746367952,-0.008939342179733537,0.011140857090076053,0.9886181762062445
2012-07-05,-1,-0.0029689871691884967,-0.0026393446907619286,-0.008939342179733537,0.01248119131194866,0.9881918124816834
2012-07-09,-1,-0.0033359302143280353,-0.0029806561870638327,-0.004937667042891306,0.015369522529287936,0.988124001585378
2012-07-11,-1,-0.004066407038965957,-0.003639241490726251,-0.002082099192917608,0.015369522529287936,0.9877907318560949
2012-07-13,-1,-0.0035106266378837304,-0.003163463505209051,-0.0020543318370175767,0.011612975781849054,0.9885396572613042
2012-07-17,-1,-0.004201054732976017,-0.0037621782544872504,-0.00193027814887926,0.011612975781849054,0.9884104136900277
2012-07-19,-1,-0.0036194123740485484,-0.003254644302438091,-0.00193027814887926,0.009016069888747084,0.9893893082559609
2012-07-23,-1,-0.00456516319621759,-0.004035957190906299,-0.00193027814887926,0.009016069888747084,0.9890132614871898
2012-07-25,-1,-0.004599443422848796,-0.004106306925258632,-0.0020522181076676627,0.009016069888747084,0.98973633474293
2012-07-27,-1,-0.003315596843076536,-0.002939585790974388,-0.002279818181615171,0.007649673973045123,0.993041156960831
2012-07-31,-1,-0.003779066180938873,-0.003394177417712232,-0.002745199325864406,0.006488723495569484,0.993366768489717
2012-08-02,-1,-0.0024618220573775214,-0.0022553605889630225,-0.0032080963526910362,0.003307499852637521,0.9952335357449699
2012-08-06,-1,-0.0018988973675525393,-0.0018139626703622374,-0.0032080963526910362,0.002636878472298986,0.9957975856908887
2012-08-08,-1,-0.00137505000350857,-0.0013595568967625486,-0.0036661228030089466,0.002636878472298986,0.9946836473334962
2012-08-10,-1,-0.0009985443077525995,-0.0009532301850432802,-0.0036661228030089466,0.002304906321495327,0.9951370200207401
2012-08-14,-1,-0.0009798940159203278,-0.0009378164358520434,-0.003946566832887387,0.002304906321495327,0.9951562344226045
2012-08-16,-1,-0.0003616161832585029,-0.00021494694173659077,-0.003946566832887387,0.0017292935589391164,0.9949776696793936
2012-08-20,-1,-0.0007579482764697663,-0.0006856389682326677,-0.0034530366619322165,0.0017292935589391164,0.994793883349684
2012-08-22,-1,-0.0009859002842727519,-0.0009413979386420632,-0.003335125171919242,0.0032978871035714338,0.9939379925058787
2012-08-24,-1,-0.0007217076006886279,-0.0006413514072671066,-0.003335125171919242,0.005249666824255621,0.9932429537037407
2012-08-28,-1,-0.001084104807592272,-0.0010685219772783772,-0.003428606515212055,0.005249666824255621,0.9929521853936536
2012-08-30,-1,-0.0019659232958009814,-0.0018252887158716894,-0.0030206965789921817,0.006807478028671991,0.992902649903419
2012-09-04,-1,-0.0011285026849415735,-0.0011037214303254825,-0.003428606515212055,0.006807478028671991,0.9927176200356093
2012-09-06,-1,-0.000371882968420975,-0.000257751385183846,-0.0023982412102030956,0.006466824621257198,0.9938652760681509
2012-09-10,-1,-0.00027660528294326086,-0.00012499856252041471,-0.0023982412102030956,0.008394810795410565,0.9934082590121283
2012-09-12,-1,-0.0004712201960887428,-0.00034991208792872845,-0.0023982412102030956,0.008394810795410565,0.992549540485259
2012-09-14,1,8.926339117827056e-05,0.0003013592709636031,-0.0023982412102030956,0.00849204766928724,0.9925074974338419
2012-09-18,1,0.0011183216173490645,0.0015275753583290955,-0.0020395546120763144,0.007054906758526557,0.992896663791352
2012-09-20,1,0.0015973294962711205,0.0020633826320792777,-0.0030679882470416404,0.006133741078100793,0.993753344417486
2012-09-24,1,0.0025840533549431463,0.0032041886259484417,-0.006025265024633962,0.005181324392964426,0.9929789300019429
2012-09-26,1,0.0015376036834149841,0.001968376349246181,-0.004592844531608945,0.005181324392964426,0.993433919542365
2012-09-28,0,0.0,0.0,-0.004592844531608945,0.005377351772054212,0.9929353529408715
2012-10-02,0,0.0,0.0,-0.002547840040265416,0.006214693734450282,0.9928785857675746
2012-10-04,0,0.0,0.0,-0.002547840040265416,0.005608643346336402,0.9930830790351043
2012-10-08,0,0.0,0.0,-0.004873041101031019,0.005608643346336402,0.9921738329820794
2012-10-10,0,0.0,0.0,-0.004873041101031019,0.005608643346336402,0.9926881126481021
2012-10-12,1,0.002445549848649541,0.002684721488892417,-0.007297291520335061,0.005062639535811837,0.9926512202892681
2012-10-16,1,0.003042992099331529,0.0033821400008263373,-0.007831576623826947,0.003916261307554978,0.992038289759042
2012-10-18,1,0.0031228703394414374,0.0035257362762104926,-0.007831576623826947,0.005608643346336402,0.9913307834243512
2012-10-22,1,0.0017561762863066714,0.0019396781985527335,-0.007831576623826947,0.006146393167538202,0.9914474236649384
2012-10-24,0,0.0,0.0,-0.008099654234192519,0.007305219095479961,0.9906174075645298
2012-10-26,0,0.0,0.0,-0.008099654234192519,0.006146393167538202,0.9913594988823231
2012-11-01,0,0.0,0.0,-0.008099654234192519,0.005709385939730945,0.9916294574652961
2012-11-05,1,0.001136062138388519,0.001260685243589019,-0.009304864102003423,0.004037086928300622,0.9909127648200267
2012-11-07,1,0.0006213420387783673,0.0006532360573884242,-0.009043758283748064,0.006917156323523407,0.9913467818303556
2012-11-09,1,0.0007664808149447856,0.0008400378964811183,-0.00817148789269625,0.006917156323523407,0.9917232105798627
2012-11-13,1,0.0013072154921876,0.0014481570296641072,-0.0070786305168160394,0.006917156323523407,0.9918730280585442
2012-11-15,1,0.00016798512677857245,0.00020465849705276752,-0.008111136817900698,0.005622516083488463,0.9913902069724662
2012-11-19,1,0.0005543136598120586,0.0005892458479229716,-0.008111136817900698,0.005622516083488463,0.9924191882290154
2012-11-21,1,0.0001982205064264381,0.00028657075106649035,-0.008111136817900698,0.005622516083488463,0.9923762018922294
2012-11-26,1,0.0004946969125402445,0.000537438572106527,-0.006680721422115132,0.004267349527761093,0.9932917120822217
2012-11-28,1,0.0007155644237401518,0.0007157587040732169,-0.00809813702190916,0.004267349527761093,0.9931155796680815
2012-11-30,0,0.0,0.0,-0.009402679242261297,0.005622516083488463,0.991595279039714
2012-12-04,0,0.0,0.0,-0.005907672366669721,0.008739134697882815,0.9912890290540579
2012-12-06,1,0.0004083732083395153,0.0004484525470918195,-0.005907672366669721,0.0055268093898487676,0.9918520381596702
2012-12-10,-1,-0.0002239323925496031,-5.685987185480849e-05,-0.005907672366669721,0.0055268093898487676,0.9918763208110373
2012-12-12,0,-4.1676227182504565e-05,5.559619294351852e-05,-0.006669482197180051,0.004663762750729661,0.9919985291718536
2012-12-14,0,0.0,0.0,-0.002862580688587158,0.004663762750729661,0.9928405950479351
2012-12-18,0,0.0,0.0,-0.002862580688587158,0.004663762750729661,0.9928471716081706
2012-12-20,0,0.0,0.0,-0.0022378041061121724,0.008320471813413959,0.9930093856704075
2012-12-24,0,0.0,0.0,-0.0024133072330430674,0.008320471813413959,0.9927225042036937
2012-12-27,0,0.0,0.0,-0.0023241408245907296,0.008320471813413959,0.9931101134550251
2012-12-31,0,0.0,0.0,-0.0023241408245907296,0.0077199130772128465,0.9938498697025248
2013-01-03,0,0.0,0.0,-0.0023509003012536383,0.0077199130772128465,0.9943524420854654
2013-01-07,0,0.0,0.0,-0.0023509003012536383,0.008100449214257451,0.9936831278585698
2013-01-09,0,0.0,0.0,-0.0028662582705213965,0.008100449214257451,0.9933242752832032
2013-01-11,0,0.0,0.0,-0.0023509003012536383,0.008192227009168464,0.9932014804283099
2013-01-15,0,0.0,0.0,-0.0023509003012536383,0.008192227009168464,0.992988962277358
2013-01-17,1,0.00204877418202523,0.0020743617133634935,-0.0023509003012536383,0.007677164809131015,0.9938150026490093
2013-01-22,1,0.002467298239687077,0.0025381459430167974,-0.0023509003012536383,0.006342003484619505,0.9940700179685974
2013-01-24,1,0.00213555862010916,0.0021409380065408007,-0.0019347732022802792,0.0063725960829231765,0.9937554308474256
2013-01-28,1,0.0019041587866188057,0.0019358162820770715,-0.0019347732022802792,0.007805270556329742,0.9924370047695203
2013-01-30,1,0.0014553880261005223,0.0015393398240477001,-0.000830769949432331,0.008553148446072176,0.9925431749603552
2013-02-01,1,0.0019828811419059515,0.00203764597789815,0.0003776247363108326,0.007805270556329742,0.9933747736902423
2013-02-05,1,0.0016516895202954296,0.0016826873389926963,0.0003776247363108326,0.0062008673645069755,0.9940263452257081
2013-02-07,1,0.0009857743025724441,0.0010819063630939606,0.0007672555737482803,0.0062008673645069755,0.9942794148828243
2013-02-11,1,0.0011348533714583267,0.0012033177990198349,0.0007672555737482803,0.004960088323866692,0.9940124589160907
2013-02-13,1,0.001244500843818876,0.0012810648738541745,0.0005811755969770078,0.0062371953167946895,0.9937060845966964
2013-02-15,1,0.0014054855733041838,0.0014306134386063997,-0.0008909881067564024,0.0062371953167946895,0.9930871573095944
2013-02-20,1,0.002005481509609355,0.0021393285923505035,-0.00028033552475787674,0.006175520021374716,0.9935069407709195
2013-02-22,1,0.0022599311946848947,0.002402317595724963,-0.0030940269978600634,0.006175520021374716,0.9932960315443459
2013-02-26,1,0.0015711463521899207,0.0016239513449329362,-0.0030753596825176307,0.006175520021374716,0.9939663837904841
2013-02-28,1,0.001738933124912471,0.001809726007053029,-0.0030753596825176307,0.006175520021374716,0.9943299032625053
2013-03-04,1,0.00210629801981841,0.0022210072138277815,-0.006915524671800292,0.006175520021374716,0.9932397721938916
2013-03-06,1,0.001870850538938317,0.0019727895163612055,-0.009451032566373176,0.006175520021374716,0.9931208524781613
2013-03-08,1,0.0015820604805082033,0.0015949041887368034,-0.00993176369505938,0.006175520021374716,0.992470290186617
2013-03-12,1,0.0011547025319332879,0.0011912389547058635,-0.009451032566373176,0.007399889174575877,0.9924546507354417
2013-03-14,1,0.0014432023925669858,0.0014575417110058975,-0.009451032566373176,0.006175520021374716,0.9923429651722634
2013-03-18,1,0.000962800569200524,0.0010208268737097615,-0.00993176369505938,0.007399889174575877,0.9905074608698724
2013-03-20,1,0.0007222331352363482,0.0008470566109507361,-0.00993176369505938,0.009458723719477511,0.9900799347943059
2013-03-22,1,0.0002037086981045784,0.0004091543255913617,-0.00845277111671491,0.006497711181228547,0.9912769908113709
2013-03-26,1,0.0006200454045365816,0.0007452070356263412,-0.00845277111671491,0.006497711181228547,0.9913586768375026
2013-03-28,1,0.0008399449953845064,0.0009329137161859791,-0.00845277111671491,0.004485220035696597,0.9914070352833205
2013-04-02,1,0.00012698886762015982,0.0003043652351148873,-0.006443593990171129,0.0062021660969415,0.9904487647078862
2013-04-04,-1,-0.0005019912387815917,-0.0002276961255216059,-0.006443593990171129,0.0062021660969415,0.9904322819066356
2013-04-08,-1,-0.0006632540969086578,-0.0003613208563308679,-0.004647156314392656,0.008745304077057424,0.9904782091220715
2013-04-10,1,0.00028097460939296407,0.00035790513803831195,-0.0036072090459382516,0.007284601753055818,0.9909243574632908
2013-04-12,-1,-0.00036147015924806647,-0.00019513699688666463,-0.0025226715957703395,0.007284601753055818,0.9909018820873087
2013-04-16,-1,-0.0003776691427793221,-0.00025810798703573026,-0.0025226715957703395,0.007284601753055818,0.9926877408343554
2013-04-18,-1,-0.00029652006853966297,-0.00018494365463386103,-0.0025226715957703395,0.006400471836050066,0.9933465823243951
2013-04-22,-1,-0.0004154154038599031,-0.0002865082825253217,-0.0025226715957703395,0.007284601753055818,0.9923139659468381
2013-04-24,0,-9.091231866217966e-05,1.4592719544100964e-06,-0.00341769807768924,0.007016638251723228,0.9919759681439021
2013-04-26,-1,-0.00017517264166164458,-7.385938300757424e-05,-0.0030118464646973274,0.007016638251723228,0.9921711505854237
2013-04-30,-1,-0.001633596374967764,-0.001319436902683516,-0.0030118464646973274,0.007016638251723228,0.9921110726933408
2013-05-02,-1,-0.0017886941914671678,-0.0014899998116142954,-0.0030118464646973274,0.007257012457847298,0.9920614013857553
2013-05-06,-1,-0.0013845704999670713,-0.0011358110666564371,-0.005441714110514631,0.007257012457847298,0.9918861432195354
2013-05-08,-1,-0.0013989330613528646,-0.0011422748476930858,-0.006726881508356682,0.007257012457847298,0.9916389279331824
2013-05-10,-1,-0.0016414229458183668,-0.001323197968356441,-0.006726881508356682,0.008328725939013496,0.991205317205248
2013-05-14,-1,-0.0010940772638028372,-0.0008554128441344169,-0.01227024248234319,0.007257012457847298,0.9904553646295399
2013-05-16,-1,-0.00163125395639368,-0.0013249620687033961,-0.01227024248234319,0.008328725939013496,0.9895019549578681
2013-05-20,-1,-0.0011635534843597909,-0.0009095112014421442,-0.01227024248234319,0.01021818717219843,0.9888769532868517
2013-05-22,-1,-0.0014290323517651047,-0.0011331606231463208,-0.012650685271563732,0.01021818717219843,0.9885509405119686
2013-05-24,-1,-0.0007079909683299163,-0.0005371450923044125,-0.014427679659295378,0.01021818717219843,0.9874043108088838
2013-05-29,1,4.2544967495125835e-05,0.00012853383784783631,-0.012650685271563732,0.008328725939013496,0.9893046948602797
2013-05-31,0,-9.590155137384921e-05,5.623983146271869e-06,-0.012650685271563732,0.01021818717219843,0.9885206510279771
2013-06-04,0,-6.470404919993081e-05,4.059838463219153e-05,-0.009934703765591305,0.009916284995014188,0.9888484612285231
2013-06-06,-1,-0.0003190358237335207,-0.00014871593155083902,-0.008481069473861754,0.011168987255219781,0.9882288185227178
2013-06-10,1,2.90087274208027e-05,0.0001598980250218274,-0.008481069473861754,0.010865534942877163,0.9879978803379414
2013-06-12,-1,-0.0008405201462061135,-0.0006218404556679816,-0.006283693433396848,0.013020558879949694,0.9887015140898917
2013-06-14,-1,-0.00035807298047598065,-0.00026134403219931396,-0.0031296896771020083,0.010865534942877163,0.9897978181780402
2013-06-18,1,0.0005550569879727211,0.0005648179463569472,-0.006283693433396848,0.007444708950098659,0.9910210088912165
2013-06-20,-1,-0.0003454291013129217,-0.00025046106900921,-0.0013269293982895909,0.01003328324493825,0.9913259714927504
2013-06-24,-1,-0.0008177721309220471,-0.0006473615339414763,-0.0013269293982895909,0.01003328324493825,0.9920178871816894
2013-06-26,-1,-0.0003742253226229062,-0.00025658410839637024,-0.0019086115718595085,0.01003328324493825,0.9922160050671911
2013-06-28,1,0.00020265977704385713,0.00024375244218606415,-0.0023091556101502535,0.008520605363647963,0.9920263928183818
2013-07-02,1,0.0003337066916572055,0.00038445014498664004,-0.0023091556101502535,0.005388358643331254,0.9924295849642122
2013-07-05,1,0.0011295271650839786,0.0011848143284988726,-0.0030892367936529775,0.005388358643331254,0.9926255118371209
2013-07-09,1,0.0011053139690703469,0.001159580930398418,-0.003106971116692828,0.002748493834057969,0.9930548858691177
2013-07-11,1,0.0013395066088367658,0.0014236743123603158,-0.003106971116692828,0.0018102291659506983,0.9935376863160797
2013-07-15,1,0.001431373786314334,0.0015435144353046638,-0.003106971116692828,0.002748493834057969,0.992984030781828
2013-07-17,1,0.001398792716251818,0.0015459828127439416,-0.003106971116692828,0.0033019257410507,0.9931918014834809
2013-07-19,1,0.001588159737154953,0.001723523880492592,-0.004714395072537783,0.00025047628258937683,0.9930824587510293
2013-07-23,1,0.0016471843747662327,0.0018139489055170076,-0.005757308455084195,0.00016515770377448268,0.9929144416706817
2013-07-25,1,0.001750233270737209,0.0019442440020330926,-0.006001316482542903,0.002653328315247203,0.9923597753672742
2013-07-29,1,0.0008177753038102819,0.0008850041757616103,-0.005757308455084195,0.003061600786217841,0.9941615025027425
2013-07-31,1,0.0006867365803147632,0.0007471492562613338,-0.005918073385981524,0.0036549347279478395,0.9934480781562097
2013-08-02,1,0.0009595303522973791,0.0010275567233744539,-0.005918073385981524,0.003061600786217841,0.9941741635601433
2013-08-06,1,0.0007125406598603448,0.0007720054878498385,-0.004716120932299236,0.004266088140698561,0.9937616169703065
2013-08-08,1,0.0005055610965211119,0.0005238121868459424,-0.004716120932299236,0.004266088140698561,0.9939239867418465
2013-08-12,1,0.0011708623410458371,0.0012560782497756703,-0.004716120932299236,0.005513419922011488,0.9934739201863358
2013-08-14,1,0.0008699449323637807,0.000920057483998922,-0.002906619517813249,0.005513419922011488,0.9938322058376625
2013-08-16,1,0.0008257230076226186,0.0008654649003855865,-0.0006249600488832482,0.007662647910914614,0.9940333927478475
2013-08-20,1,0.0007906938854481785,0.0008561752515689561,0.0006360868134530052,0.009013220365477363,0.9938310526920506
2013-08-22,1,0.000686922510309037,0.0006871758482643918,0.0006360868134530052,0.007662647910914614,0.9940883323262477
2013-08-26,1,0.00038310951839361825,0.00042873402860370193,0.0006360868134530052,0.007662647910914614,0.9939024992951629
2013-08-28,1,0.00019620531795889703,0.00025658297474371314,0.0006360868134530052,0.008722186055033901,0.994265485900558
2013-08-30,1,0.0002084907272115147,0.000256690085245676,-0.0008956096847697613,0.008722186055033901,0.9936849142114306
2013-09-04,1,0.000710348692255445,0.0007318344009549692,-0.0037360638390897876,0.00652251930660193,0.9939984981273985
2013-09-06,1,0.00031466280601953796,0.00039358394452911646,-0.004526042492061849,0.00652251930660193,0.9931480462646404
2013-09-10,1,0.0009697177006883098,0.0010087714683625947,-0.004558021382272318,0.005408369680306366,0.9935681563587024
2013-09-12,1,0.0008376295319708219,0.0008531079242120656,-0.00540767430266295,0.005850516317312869,0.991993316333255
2013-09-16,1,0.001207583210521483,0.0012904771239533996,-0.00540767430266295,0.005408369680306366,0.9922466814242213
2013-09-18,1,0.0017432446047568693,0.0018714087373114482,-0.00807560998089167,0.005118584206536566,0.992224704234694
2013-09-20,1,0.001310495921559655,0.0013247252954231928,-0.00807560998089167,0.005398275776166088,0.9921783834963713
2013-09-24,1,0.001290687782613869,0.0013027995398234766,-0.00807560998089167,0.005398275776166088,0.9920264269455324
2013-09-26,1,0.0014876017174423428,0.0015110386476472311,-0.008097648443348423,0.005118584206536566,0.9917882790381761
2013-09-30,1,0.0010216529702552334,0.0010536644734432249,-0.008097648443348423,0.005398275776166088,0.9890258702316087
2013-10-02,1,0.0004880237675268206,0.0005685176906848493,-0.008097648443348423,0.0068601546768896834,0.9874776981974216
2013-10-04,1,0.0003476231567889599,0.0004310188644736949,-0.007820456683807733,0.009202306045374238,0.9877577656529363
2013-10-08,-1,-0.0003167971799836123,-0.00013457867695710831,-0.007820456683807733,0.009202306045374238,0.9875733203924992
2013-10-10,1,0.0006976648217756599,0.0007274793695264667,-0.008097648443348423,0.009202306045374238,0.9876254523872866
2013-10-14,1,0.0005166862329495568,0.0005793263918604667,-0.008097648443348423,0.010282911845341112,0.9868415586609253
2013-10-16,1,0.0001675962068845965,0.000244823693934454,-0.007741071915874425,0.010282911845341112,0.9868268575824148
2013-10-18,1,0.0008714208419979593,0.0008805682508914985,-0.007741071915874425,0.00940831359384035,0.9873491083654989
2013-10-22,1,0.0010990114091263736,0.0011128677741380271,-0.007741071915874425,0.005988766892448046,0.9873786229841248
2013-10-24,1,0.00043417760680113126,0.0005031424766263695,-0.00617964154959706,0.00940831359384035,0.9872897122887038
2013-10-28,0,-0.00010213259442590667,4.96279688369717e-05,-0.0054012865420790404,0.00783719228411645,0.9906846898963397
2013-10-30,1,0.0002341515879027898,0.0003316726198981105,-0.005118867636540699,0.00631676196783404,0.9928816332753463
2013-11-01,1,7.177522606156367e-05,0.00023319923812993245,-0.005118867636540699,0.0053192429806994184,0.9932885397260861
2013-11-05,-1,-0.0004450544123918587,-0.0002327438873745149,-0.004952254686449272,0.0053192429806994184,0.9932676394907957
2013-11-07,-1,-0.00013061034840804517,-9.692123353162755e-06,-0.0038153732565986867,0.0053192429806994184,0.9938117388026899
2013-11-11,0,-1.9560045277820998e-05,0.00011062850943891085,-0.003994558510026786,0.0053192429806994184,0.9944701000829546
2013-11-13,0,-0.00012350363488256477,4.239703580636027e-05,-0.003508834339725552,0.0053192429806994184,0.9949351087641377
2013-11-15,1,9.778108130362466e-05,0.00024167956616363118,-0.003508834339725552,0.0060125652527369695,0.994247294572075
2013-11-19,1,0.0004765904643354804,0.0005421726671306054,-0.0023934261695648064,0.0065667418019060625,0.9940395899756301
2013-11-21,1,0.0007582633376124774,0.0007853944747542169,-0.0023934261695648064,0.0060125652527369695,0.9942786620634111
2013-11-25,1,0.0012491275543244828,0.0013274986634929406,-0.0023934261695648064,0.007244707328329864,0.9941570844580678
2013-11-27,1,0.001295116612002433,0.0013834907109461997,-0.0023934261695648064,0.008569729736848802,0.9940310046347822
2013-12-02,1,0.0016694838358155377,0.0018003560371842417,-0.0017615969407903083,0.008569729736848802,0.9942190171530237
2013-12-04,1,0.0012733352456866724,0.001351063753899635,-0.0004242113897751251,0.008569729736848802,0.9948801195220194
2013-12-06,1,0.0014776191688623164,0.001562485737503107,-0.0004242113897751251,0.006704219222981972,0.9956348194099458
2013-12-10,1,0.0018761869301198858,0.002049540309524108,0.0006302142922360416,0.008245190115337373,0.9957924949229021
2013-12-12,1,0.0016777656803732902,0.0018270573811058858,0.00036287629479708565,0.008245190115337373,0.9952810770663001
2013-12-16,1,0.0021732964180891973,0.0023808978268577688,0.00036287629479708565,0.008245190115337373,0.9953914642872752
2013-12-18,1,0.0018559573702727388,0.002013432206414853,0.00036287629479708565,0.006948306476319395,0.9957346526109727
2013-12-20,1,0.0020207191693301174,0.0021792238095023194,-0.00152930599562546,0.006948306476319395,0.9954774838983403
2013-12-24,1,0.0024399842717671002,0.0026803663648452035,-0.004174238998373958,0.003713290846686861,0.993498231156077
2013-12-27,1,0.0025780037633677854,0.002794544696751979,-0.004174238998373958,0.003713290846686861,0.9927734409218416
2013-12-31,1,0.002301406408841106,0.002474319155215617,-0.0047001896845555195,0.007164254960155857,0.9918988696308055
2014-01-03,1,0.0021142787232664153,0.0022895915734983323,-0.006877213189209601,0.007164254960155857,0.9899788026225185
2014-01-07,1,0.001953494248951742,0.002096249106476935,-0.006877213189209601,0.007164254960155857,0.9901661689775374
2014-01-09,1,0.0020112409265590184,0.002140755296949781,-0.006877213189209601,0.007068716162706865,0.9899829294549753
2014-01-13,1,0.0014699070747909654,0.0015145491653724345,-0.0060464233358789535,0.007068716162706865,0.9901975251835115
2014-01-15,1,0.0019197336676628467,0.0020294453925472277,-0.0060464233358789535,0.008852864242627854,0.9900523911980615
2014-01-17,1,0.0016483869357826206,0.0017089129648530422,-0.006831053458967874,0.008852864242627854,0.9899553443685919
2014-01-22,1,0.001564367095247077,0.0015888382476438488,-0.006831053458967874,0.006960229088238646,0.9902553716647005
2014-01-24,1,0.0001801487207298316,0.0003266608646332322,-0.004976055555876398,0.006960229088238646,0.9920475291282161
2014-01-28,1,0.0010363931230747531,0.0010541402224341812,-0.004976055555876398,0.00510704939817212,0.992774548750966
2014-01-30,1,0.0005331238245320744,0.0005946036779483466,-0.004028801690166688,0.00510704939817212,0.9934228001956711
2014-02-03,-1,-0.0006231000068987376,-0.0004734002874565496,-0.003199397964905456,0.0067082881007592444,0.9945705035833062
2014-02-05,-1,-0.0005807036219564984,-0.00043537313736472893,-0.003199397964905456,0.00775505741461259,0.9937800724544366
2014-02-07,1,0.00010420580003779641,0.0001543888280612832,-0.004976055555876398,0.006419246846429143,0.9934688371331676
2014-02-11,1,4.12018499432775e-05,6.679416854883476e-05,-0.004976055555876398,0.006419246846429143,0.9929314950466618
2014-02-13,1,0.0006237374738454352,0.0006746728001533154,-0.004976055555876398,0.0039682122988386,0.993827718591507
2014-02-18,1,0.00044361135238592036,0.0004792628230307695,-0.003199397964905456,0.005255645932543976,0.9933204799665901
2014-02-20,1,0.0004325936735421793,0.0004763469316650857,-0.003199397964905456,0.005255645932543976,0.9930741755423848
2014-02-24,-1,-5.2431655591643323e-05,-1.4448238999341024e-05,-0.0029652040600775024,0.005255645932543976,0.9931939223877316
2014-02-26,-1,-0.00025200103192302647,-0.00017078141213824636,-0.004442448471452607,0.005255645932543976,0.9925349320630318
2014-02-28,-1,-0.00034981872348607373,-0.00022616874632951024,-0.005712421110802298,0.0045997908186220585,0.9926947601645681
2014-03-04,-1,-0.0005149385256992329,-0.0003437540541189221,-0.004060808206453941,0.005115602638417082,0.9929564422061051
2014-03-06,1,0.0003735391629001663,0.00041901252553967153,-0.004060808206453941,0.004727184542378659,0.9929012258116362
2014-03-10,0,-3.317388682918626e-05,6.208869820917214e-05,-0.0069008100201123765,0.003150519734312569,0.9926129071694059
2014-03-12,-1,-0.0010395532096641952,-0.0008111491222705887,-0.004060808206453941,0.004519810212170409,0.9932421875885825
2014-03-14,-1,-0.0008849746163310017,-0.0007179590577454569,-0.008506970133833601,0.004519810212170409,0.9920113961430994
2014-03-18,1,0.00012396159130709903,0.00017544652110759574,-0.008506970133833601,0.004040484616950342,0.9925254145982895
2014-03-20,-1,-0.000849647260319004,-0.0006637231029303152,-0.005866167550377374,0.004519810212170409,0.9923568365106691
2014-03-24,-1,-0.0012080849526781585,-0.0009351321653093729,-0.005866167550377374,0.004875660819062131,0.9919071829364147
2014-03-26,-1,-0.0015561463530617357,-0.0012689283477467918,-0.005225275995276546,0.004875660819062131,0.9926029212119224
2014-03-28,-1,-0.0009218631855272486,-0.0007135074458795369,-0.005760662699850287,0.006118137178545215,0.9888996725566253
2014-04-01,-1,-0.0013356268204943555,-0.001101258014701022,-0.005760662699850287,0.005149294601444324,0.9891021846981707
2014-04-03,-1,-0.0011077515214973379,-0.0008843914177395832,-0.006456013888289342,0.004478088193411084,0.9897845619062885
2014-04-07,-1,-0.0016503292595270403,-0.0013958308241272684,-0.005360420697502217,0.004478088193411084,0.9908374588410992
2014-04-09,-1,-0.001358134007024951,-0.0011428639952868682,-0.005360420697502217,0.006939038525691793,0.990020476462566
2014-04-11,-1,-0.0020347802526726826,-0.0017482314903195827,-0.004927423745610424,0.00907948417880359,0.9899114603633818
2014-04-15,-1,-0.0024007514322842713,-0.00205443421156037,-0.005360420697502217,0.00907948417880359,0.9897597251605975
2014-04-17,-1,-0.0024232746013115713,-0.002118574167656609,-0.005932830398451302,0.006939038525691793,0.9900581799075123
2014-04-22,-1,-0.0019036150671999826,-0.0016679247889582333,-0.006572612831796986,0.005541017845242075,0.9903160985071373
2014-04-24,-1,-0.001809575624084847,-0.001594738119113293,-0.006572612831796986,0.008039325419375173,0.9894031131734524
2014-04-28,-1,-0.0021574133993081247,-0.0019022090154098687,-0.005932830398451302,0.006667889079794864,0.9927026208272536
2014-04-30,-1,-0.0021161879649966046,-0.0018437534949783817,-0.006556981095372541,0.005616587985821285,0.992905722311403
2014-05-02,-1,-0.0019564123174791817,-0.0017046272685134803,-0.0063725688641375865,0.005616587985821285,0.9928346141091531
2014-05-06,-1,-0.0022610949797353284,-0.0019906851663542176,-0.005150336809593826,0.005616587985821285,0.9929218671621354
2014-05-08,-1,-0.001383435240297713,-0.0011978392501421212,-0.005150336809593826,0.005616587985821285,0.992979883235135
2014-05-12,-1,-0.0008405039426817873,-0.0007419598029314036,-0.0027533507632232514,0.005616587985821285,0.9936252837328208
2014-05-14,-1,-0.0009041404458492177,-0.0008098575662108707,-0.0027533507632232514,0.005616587985821285,0.9937257616332633
2014-05-16,-1,-0.0007220564368409409,-0.0006707809363469186,-0.0008713932857111416,0.004774645508137207,0.9942034050643394
2014-05-20,-1,-0.0007876203806918263,-0.0007433352169048473,-0.000359861960163117,0.004774645508137207,0.9944773512040596
2014-05-22,-1,-0.00010471078537851856,-4.9300242100148284e-05,-0.000359861960163117,0.004711501954735117,0.9950398418198672
2014-05-27,1,0.00017146965983831235,0.00026252253553721977,-0.0027533507632232514,0.0032982749963645103,0.9948067441095803
2014-05-29,1,8.48293211712318e-05,0.00016094852720481128,-0.002444189200882604,0.0032982749963645103,0.9950896109274586
2014-06-02,1,0.0003026338930626128,0.00040955868599724303,-0.003314232228292694,0.005214189745137675,0.9943636312173494
2014-06-04,1,0.0002018283809114838,0.0003098523881732147,-0.003602927409305167,0.005214189745137675,0.9943258062694417
2014-06-06,1,0.0008789477575774605,0.001064589538682267,-0.004831979919949259,0.0032982749963645103,0.9951049722733692
2014-06-10,1,0.001295220744237142,0.001571365898244875,-0.004831979919949259,0.002973889838600744,0.9954500441541854
2014-06-12,1,0.0011453114661918312,0.0013942120823107716,-0.004831979919949259,0.0032982749963645103,0.9952254489931047
2014-06-16,1,0.0013356055778788716,0.0016247816939041625,-0.004831979919949259,0.002973889838600744,0.9952311823236984
2014-06-18,1,0.0009511919365149214,0.0011282078968300698,-0.006012015965979063,0.002588921841774159,0.9945516404813939
2014-06-20,1,0.0015788384780688267,0.001864989114175001,-0.006012015965979063,0.00211884323200201,0.9947544621561102
2014-06-24,1,0.001105006020719669,0.0013203940963167514,-0.004831979919949259,0.0028993028982915313,0.995209063797981
2014-06-26,1,0.00038467784800160453,0.0004283739700527996,-0.004831979919949259,0.0028993028982915313,0.9953240774033639
2014-06-30,1,0.0005253578679760363,0.0005790089831025642,-0.004831979919949259,0.0028993028982915313,0.9938080446461992
2014-07-02,1,0.00018482866262435502,0.00030033398682564416,-0.005234979759914335,0.003982324276185354,0.9928994429267091
2014-07-07,1,0.00025470303138270314,0.00037632495264663897,-0.004875637505580654,0.003982324276185354,0.99255722154073
2014-07-09,1,0.0006360651215621284,0.0008548326473332133,-0.007372411361335094,0.003982324276185354,0.992030518712028
2014-07-11,1,0.00047059461746085313,0.0006454017199814735,-0.005395664568528422,0.004798786431828277,0.9914279560929713
2014-07-15,1,0.0008130199271298541,0.0009402599252615192,-0.005395664568528422,0.004798786431828277,0.9911000521371466
2014-07-17,1,0.00031561195367719866,0.00036380279585260494,-0.0043380266953485175,0.005894992307798645,0.9913450738242122
2014-07-21,1,0.0005103065937311915,0.0005816722560138801,-0.0048756422489199475,0.007385636980626909,0.9904605691496273
2014-07-23,1,0.00047535067776135966,0.0005430487214707655,-0.0043380266953485175,0.007385636980626909,0.9908363655710319
2014-07-25,1,0.00047101905308563104,0.0005474503262321222,-0.0043380266953485175,0.007385636980626909,0.9907752972530595
2014-07-29,1,0.0015058455858569144,0.0017473861801557602,-0.0041458158726410685,0.005950645623408992,0.9928083975840504
2014-07-31,1,0.000825141675443673,0.0009509102593489218,-0.0036924843511312953,0.005950645623408992,0.9939079743303707
2014-08-04,1,0.0010122529707136559,0.0011333322456682508,-0.0029747178525812903,0.004753357888090779,0.9945629699469362
2014-08-06,1,0.00045871974395329427,0.0005031677109697727,-0.0029747178525812903,0.004753357888090779,0.9947789894213891
2014-08-08,1,0.0015046299150340621,0.001715239440862096,-0.003092204516950219,0.0033683890790225145,0.9955157245047765
2014-08-12,1,0.0009431076140701388,0.0010578808283414332,-0.0028242959114149237,0.0033683890790225145,0.9956899600895652
2014-08-14,1,0.0011470226406414049,0.0012847543368393693,-0.003377874275887217,0.0016286134620526723,0.9956976411944205
2014-08-18,1,0.0013268639507801531,0.0014677696786300886,-0.003033185150808062,0.0016286134620526723,0.9964383094623686
2014-08-20,1,0.0013163800188778997,0.0014488590822222488,-0.003033185150808062,0.001900146640625155,0.9959500312412802
2014-08-22,1,0.0014141053789358538,0.0015853232091436408,-0.003723732075361556,0.001900146640625155,0.9952073827224515
2014-08-26,1,0.0014978976663829347,0.0017004392094281113,-0.004179533328778612,0.001900146640625155,0.9949960683270932
2014-08-28,1,0.0007917870232069846,0.0008392970843352531,-0.0044011544821939835,0.004250410481937887,0.9940871298816496
2014-09-02,1,0.0005381078305276918,0.000604105988947608,-0.004686076741355072,0.004250410481937887,0.9939109415201305
2014-09-04,0,-7.94863270809187e-05,2.726197066630227e-06,-0.004686076741355072,0.004250410481937887,0.9941261773178462
2014-09-08,-1,-7.049238651930833e-05,-1.3717582998791391e-05,-0.004686076741355072,0.0044184600595448785,0.9938343074088096
2014-09-10,1,0.0003837084699792847,0.0004160542083721773,-0.004686076741355072,0.006053994490461783,0.9917533911521672
2014-09-12,1,0.00033061288008024803,0.00035111068335258303,-0.007349664945414877,0.006053994490461783,0.9903089494030334
2014-09-16,-1,-6.663347420069273e-05,-1.863582138994399e-05,-0.010901751194934474,0.008420673483250266,0.9885434930842009
2014-09-18,1,2.510635304146409e-05,7.224302679877218e-05,-0.010901751194934474,0.005076962260248122,0.9886880175183457
2014-09-22,-1,-0.00047178801530829966,-0.0003740663135469624,-0.008566962867313586,0.008500228815929555,0.9884115946947134
2014-09-24,-1,-0.0005642159217733949,-0.00043886222456716173,-0.01105518484615155,0.012239976634773605,0.9869689590487586
2014-09-26,-1,-0.0008417136780929523,-0.0006808310331895034,-0.008566962867313586,0.0145422131651851,0.9868419576505988
2014-09-30,-1,-0.0004556776337445793,-0.00031943693622249475,-0.008566962867313586,0.022048196261518414,0.9859524732822647
2014-10-02,-1,-0.0008024552078451817,-0.000646454055854086,-0.008566962867313586,0.022048196261518414,0.9860500459160082
2014-10-06,-1,-0.0008828523013327789,-0.0007412953796203882,-0.008566962867313586,0.022572636224607732,0.9855018957574213
2014-10-08,-1,-0.0002817056998617482,-0.00013998956419372974,-0.007071757109493844,0.021887244979532296,0.9874388585510474
2014-10-10,-1,-0.0023632430596685064,-0.0020212693783983214,-0.002024467693294158,0.021887244979532296,0.988173243510555
2014-10-14,-1,-0.0019194573840092526,-0.0016579789578366946,-0.002024467693294158,0.011189949379989989,0.9900692966792627
2014-10-16,-1,-0.0017951892666087923,-0.0015627134101250965,-0.002024467693294158,0.011189949379989989,0.9905201069025659
2014-10-20,-1,-0.0014231308070081165,-0.001224925932581025,-0.00333327096175718,0.005121934144280037,0.991583569664697
2014-10-22,-1,-0.0010318349215539197,-0.0008880017043714843,-0.002024467693294158,0.004325057190886855,0.9934896393454837
2014-10-24,-1,-0.00011635388763770854,-6.319078949460231e-05,-0.002024467693294158,0.0035755418892839132,0.9946823600479142
2014-10-28,1,0.0010648314676051788,0.0012173407737159703,-0.002024467693294158,0.0035755418892839132,0.9953884822695797
2014-10-30,1,0.0008936211634099488,0.0010381999409246044,-0.004495832864934353,0.0032699911722284627,0.9947469356941167
2014-11-03,1,0.001383304653036499,0.0015774637089631177,-0.005534013644329126,0.0032699911722284627,0.994816668246525
2014-11-05,1,0.0011464008926370152,0.0013116891004879973,-0.005391451768449935,0.004095134534249408,0.9943257897857597
2014-11-07,1,0.0014900725084015108,0.0017168390147166614,-0.005534013644329126,0.0032699911722284627,0.9934955640637808
2014-11-11,1,0.0011671642878392507,0.0014263540940470147,-0.005534013644329126,0.0035830456769593956,0.9928049618974848
2014-11-13,1,0.0006988731065712553,0.0008568762808612836,-0.007119524824948281,0.0035830456769593956,0.9919968157563054
2014-11-17,1,0.0007650905229776348,0.0008821111933934916,-0.007119524824948281,0.004799888611820615,0.9921379028628524
2014-11-19,1,0.0009993382128640194,0.0011277181301286743,-0.007119524824948281,0.006507901468617086,0.9902397383882441
2014-11-21,1,0.0010272814217269664,0.0011575177043242023,-0.008343175557249963,0.006978222239689698,0.9897641064292613
2014-11-25,1,0.0015405952300695542,0.0017363095320297125,-0.008343175557249963,0.006978222239689698,0.989840765596051
2014-11-28,1,0.0009118496627311721,0.001015948139118142,-0.005927904770717723,0.006978222239689698,0.9906706393662783
2014-12-02,1,0.0007361081852643545,0.0008147397186345565,-0.0077151863116748775,0.006242889562095734,0.9905872843342347
2014-12-04,1,0.0007275185566138359,0.0008221406675863125,-0.00925041195031961,0.004799888611820615,0.990171880698798
2014-12-08,-1,-0.0002268587504212007,-0.0001512346464027091,-0.00925041195031961,0.006242889562095734,0.9901333588932628
2014-12-10,-1,-0.0006737216263615647,-0.0005569851016235656,-0.0077151863116748775,0.0067494116729235765,0.9906290519643854
2014-12-12,-1,-0.0015522092695436133,-0.001323598552761678,-0.0077151863116748775,0.0067494116729235765,0.9908120021159885
2014-12-16,-1,-0.0016898359349797843,-0.0014906287213406182,-0.00925041195031961,0.0067494116729235765,0.9904475692226982
2014-12-18,1,0.00044263235314266457,0.0005170668741458703,-0.00925041195031961,0.0017925339244307587,0.992172446033757
2014-12-22,1,0.0004170281837229667,0.00043974702689575666,-0.00925041195031961,0.0031788732783020134,0.9916533987696434
2014-12-24,1,0.0009191328126235221,0.0009965932141938,-0.00925041195031961,0.0031788732783020134,0.9899082953419536
2014-12-29,0,-1.1253169187193601e-05,1.2692270357855413e-05,-0.012771684635885705,0.007194491582626746,0.9889236469355409
2014-12-31,-1,-0.00014913460766130212,-0.00014713162795445306,-0.013506585392634819,0.008780194032368445,0.9886892988059698
2015-01-05,-1,-0.0012972732993354534,-0.0011478836300830523,-0.007479221868764029,0.010779482712364964,0.9885636365465732
2015-01-07,-1,-0.0013375968172717875,-0.001199759977492471,-0.006550462914952652,0.012824917969455195,0.9879479008582372
2015-01-09,-1,-0.0011590181008629555,-0.0010527869760245737,-0.006991636196651292,0.012824917969455195,0.9880119995422915
2015-01-13,-1,-0.0015602028692080772,-0.0014126799470893618,-0.005507844786043675,0.012824917969455195,0.9880740328041926
2015-01-15,-1,-0.0021131956272766967,-0.0018997211173453908,-0.0015503615915731048,0.012824917969455195,0.9876667814527315
2015-01-20,-1,-0.002254621398203315,-0.0020358773432281796,-0.0008819789562167303,0.012824917969455195,0.9870867830721088
2015-01-22,-1,-0.0008713793120626291,-0.0008061976529683933,-0.0037906182637337887,0.01078270596001589,0.988655009326896
2015-01-26,-1,-0.0007793382108592451,-0.0007263498212554551,-0.0035495647148654427,0.009759847346743372,0.9906298393999896
2015-01-28,-1,-0.001114019945609435,-0.001013100367130673,-0.000801627773260615,0.009759847346743372,0.9915002068951341
2015-01-30,-1,-0.0010864089155107498,-0.0009912878184740364,-0.000801627773260615,0.009247417771763852,0.9921829402386625
2015-02-03,-1,-0.0008669461614653011,-0.000827905279813032,-0.0036544489344842784,0.006143020131750422,0.9935947796910565
2015-02-05,1,0.0002175241789190943,0.00030286282155348165,-0.0036544489344842784,0.006143020131750422,0.9943437191740256
2015-02-09,1,4.087109999332956e-05,8.331992803305686e-05,-0.0036544489344842784,0.007555816768035999,0.9934704578670648
2015-02-11,1,0.0008743351725490953,0.000895616269575167,-0.0036544489344842784,0.0076617209998153185,0.9932487456565187
2015-02-13,1,0.0004336582761104411,0.0005502956092257429,-0.004917107536604649,0.006777489954179253,0.9924976996020207
2015-02-18,1,0.0007596860956059679,0.0009057809087309949,-0.006229072769153684,0.007114199719261622,0.9919437141104007
2015-02-20,1,0.0009740327730830201,0.000988158493144437,-0.0076873504249776944,0.011331395472536945,0.9911763179425308
2015-02-24,1,0.0006678463761501648,0.0007798733683347942,-0.0076873504249776944,0.011331395472536945,0.9913569994112744
2015-02-26,1,0.0006498229058744044,0.0007508264356182497,-0.0076873504249776944,0.011331395472536945,0.9910355259836346
2015-03-02,1,0.0016895179411853326,0.0017794443578473345,-0.0076873504249776944,0.01274536515932913,0.9906621214049743
2015-03-04,1,0.0009370311741391144,0.0009452971898207844,-0.010163240542254863,0.01274536515932913,0.9899282422855289
2015-03-06,1,0.0012276630321826293,0.001254402385301882,-0.009534221717146874,0.01274536515932913,0.9906709335126931
2015-03-10,1,0.001030434945639952,0.0010798457591934976,-0.007489199553986876,0.010415676753072072,0.9912337240625817
2015-03-12,1,0.001525931759405453,0.0015571939636251039,-0.007489199553986876,0.006462279553550856,0.9917008908744784
2015-03-16,1,0.0017134860808772447,0.0017521784107491832,-0.006873622065396632,0.004645987867030737,0.9927130419390705
2015-03-18,1,0.0007038557598993751,0.000781535885103985,-0.00684690433101441,0.004645987867030737,0.9933159218046815
2015-03-20,1,0.001043248076187993,0.0011951888520155072,-0.00684690433101441,0.004645987867030737,0.9928814623902575
2015-03-24,1,0.0011739792181902817,0.001378717063799139,-0.00684690433101441,0.004645987867030737,0.9925122682408949
2015-03-26,1,0.0008454240129485219,0.0010155067037473215,-0.00684690433101441,0.00574893072454758,0.9926385108511078
2015-03-30,1,0.0006530778691549736,0.0008811808828584706,-0.00684690433101441,0.004939686553347567,0.9928165194092611
2015-04-01,1,0.0003714409399435986,0.0004948156963258195,-0.00684690433101441,0.004939686553347567,0.9926078837543475
2015-04-06,1,0.0007753033435118201,0.0009582448199687697,-0.00684690433101441,0.005595324900507929,0.9926703612173299
2015-04-08,1,0.0003397488052298872,0.0004549649834497829,-0.0055022658245938135,0.005595324900507929,0.9927007912630957
2015-04-10,1,0.00032620935671341477,0.0004673472647628681,-0.0055022658245938135,0.006964546537764277,0.9918363576379878
2015-04-14,-1,-0.0001955582381314477,-9.4324616397527e-05,-0.005539900298057576,0.007733600766295139,0.9914686261343667
2015-04-16,1,0.0006274950851752009,0.0007770946028113738,-0.005539900298057576,0.008498850282210967,0.9912221034210511
2015-04-20,1,0.0003682353109940653,0.0004861818771889398,-0.0024050164696450852,0.007733600766295139,0.9926538247256769
2015-04-22,1,0.0005619465062052998,0.0007298179488257447,-0.0009561498987106184,0.007733600766295139,0.9930488154784497
2015-04-24,1,0.00018394012300909212,0.0002989473407689214,-0.0005944057996665683,0.007733600766295139,0.9931412235413913
2015-04-28,1,0.00015921375941701894,0.00023690232567760377,-0.0029180620563923876,0.007733600766295139,0.9930064595533361
2015-04-30,-1,-0.0005137364593037066,-0.0005107136024303321,-0.0018658583079096181,0.007733600766295139,0.9933450790656042
2015-05-04,-1,-0.0002750674406959938,-0.00022334679016370126,-0.0018658583079096181,0.005429918000165375,0.9939017699099393
2015-05-06,-1,-0.0006414148910000117,-0.0005358700448924076,-0.0018658583079096181,0.005429918000165375,0.9936653642046891
2015-05-08,-1,-0.0007708906675090811,-0.000640530133829253,-0.0029666371034427464,0.004355660841675703,0.9945105051422969
2015-05-12,-1,-0.0005951558182438613,-0.0004927041031272608,-0.0018658583079096181,0.004355660841675703,0.9944984084815889
2015-05-14,1,6.549810226598267e-05,0.00017059168703843205,-0.0029666371034427464,0.0038200216367395593,0.9950892652949296
2015-05-18,-1,-0.0004015435069073196,-0.0003348574916784624,-0.004474069769126794,0.0038200216367395593,0.9945566594961185
2015-05-20,-1,-0.00021853743207471925,-0.00012299294675031269,-0.004474069769126794,0.004006082706767298,0.9939705996418101
2015-05-22,-1,-0.0001221468676203665,-8.208201711474292e-06,-0.0056760227315017,0.004355660841675703,0.993391429399849
2015-05-27,-1,-0.00032705897945453535,-0.00027578296968683086,-0.005436243314615153,0.004006082706767298,0.9937368154436712
2015-05-29,-1,-0.0012536072820810422,-0.0011416853735086413,-0.004881265012111825,0.004355660841675703,0.9939002976167022
2015-06-02,-1,-0.0012127667119227633,-0.0010876494871937543,-0.005436243314615153,0.004006082706767298,0.9933240109897409
2015-06-04,-1,-0.0015264842698641456,-0.001363811587891566,-0.004881265012111825,0.004454415061829795,0.9933394046811315
2015-06-08,-1,-0.0015423922075866341,-0.0013411351784705446,-0.005172750203441102,0.005900812627052427,0.9930290796417788
2015-06-10,-1,-0.0015289272960006782,-0.0013161648835841697,-0.006105689314087372,0.004109172794759059,0.9927867163510132
2015-06-12,-1,-0.0017953223889510105,-0.0015572769202798647,-0.005172750203441102,0.005900812627052427,0.9920550850900425
2015-06-16,-1,-0.0008133046109126336,-0.0007108305483520209,-0.0049988982776983165,0.005900812627052427,0.992228297155688
2015-06-18,-1,-0.0003557075761780813,-0.00025225096635423554,-0.0049988982776983165,0.005489423145798776,0.9927819884501841
2015-06-22,-1,-0.0006766394555447165,-0.0005410787122597754,-0.0053206404256849645,0.004936591002079284,0.9929261087712302
2015-06-24,-1,-0.0009481289074723206,-0.0007693946163138522,-0.0053206404256849645,0.004936591002079284,0.9930561161328763
2015-06-26,-1,-0.0016220658791629957,-0.00147337524936097,-0.007545204888290521,0.004675578581824951,0.9906852001771712
2015-06-30,-1,-0.0011570710183001925,-0.0010091818397329807,-0.006081650639908204,0.005342917407554263,0.9908326078809397
2015-07-02,-1,-0.000865982795180322,-0.0007383118001330645,-0.006081650639908204,0.004675578581824951,0.9913638824484087
2015-07-07,-1,-0.0006429163152706406,-0.0005445214643220544,-0.007545204888290521,0.004675578581824951,0.9911619510853804
2015-07-09,-1,-0.0011068457333749332,-0.0009660221062450456,-0.005560094862679848,0.004675578581824951,0.9918442354964003
2015-07-13,-1,-0.000356471104435048,-0.0003107344572564205,-0.005560094862679848,0.005342917407554263,0.9923425263607955
2015-07-15,-1,-0.0004553694216209687,-0.0004152642899988554,-0.006333187479972536,0.004600786606526867,0.9924335887300222
2015-07-17,-1,-0.0005154912126208387,-0.00045752866550747683,-0.006333187479972536,0.003914455829381561,0.9923967253103979
2015-07-21,-1,-0.0008231681300527603,-0.0007284309761898373,-0.003515849543454444,0.00494896015653583,0.9923712626615451
2015-07-23,-1,-0.0009470877377077327,-0.0008434798201710594,-0.0070783784173702,0.00494896015653583,0.9911338711537864
2015-07-27,0,-6.125488824500555e-05,2.060017010708544e-05,-0.007413121462869973,0.00494896015653583,0.9908011425235878
2015-07-29,1,0.0004148028881888059,0.0004403354497516639,-0.007413121462869973,0.00494896015653583,0.9903107969636457
2015-07-31,1,0.00039693218112194195,0.0004285390759362525,-0.007413121462869973,0.007940111452474244,0.988416352789533
2015-08-04,-1,-0.0006528977998947286,-0.0006061812056224109,-0.012111611251557332,0.005652009300183654,0.9868612379130822
2015-08-06,1,0.00035053729262323613,0.0003599182818908466,-0.012111611251557332,0.008109901220353467,0.9862666915182451
2015-08-10,1,0.0007624822901244186,0.0008479584945434813,-0.013326964251300824,0.005855307655321265,0.9849969409917247
2015-08-12,1,0.0006731648993197272,0.0007405181536980867,-0.014519847229173927,0.005855307655321265,0.9845838978905372
2015-08-14,1,0.0008466691455971935,0.0009295978918865698,-0.014519847229173927,0.005855307655321265,0.9845259840193964
2015-08-18,1,0.0007276878501833283,0.0007785118069079952,-0.014519847229173927,0.011213636509850257,0.9838825115149319
2015-08-20,1,0.00027951322276637306,0.0003026257614309095,-0.014519847229173927,0.011213636509850257,0.984074869468765
2015-08-24,-1,-0.00032648136854125713,-0.00024162031877350982,-0.012509238910848366,0.011213636509850257,0.9860757816217794
2015-08-26,1,0.0002897545963710281,0.00029704836849250393,-0.012509238910848366,0.006415417256764153,0.9866099323273256
2015-08-28,-1,-0.00014881802570243378,-0.00013766041183970612,-0.012509238910848366,0.004426813122066934,0.9881406603259866
2015-09-01,1,0.00018536145565911072,0.00024489747536182043,-0.00895062815925383,0.006216449405997119,0.9894517603672269
2015-09-03,1,0.00046623295845514947,0.0004880399099916572,-0.00895062815925383,0.007765599860855708,0.9894666222917632
2015-09-08,-1,-0.0003900146669271144,-0.000376409839385184,-0.006094434728054338,0.007765599860855708,0.9897559718430615
2015-09-10,-1,-0.0009291111581777803,-0.0008158071449324684,-0.004735079393958702,0.01208657277924383,0.987855321440869
2015-09-14,-1,-0.0005295620017220723,-0.0004676363690165456,-0.0025037854207789288,0.01208657277924383,0.9880863707298454
2015-09-16,-1,-1.8902320529513335e-05,-1.7862772702302797e-05,-0.003923713208288216,0.008131732493624474,0.9891814393873889
2015-09-18,-1,-0.0011549315904116925,-0.0010742928515827907,-0.002025325532931252,0.008131732493624474,0.9897286785196554
2015-09-22,-1,-0.002701262946978072,-0.002389134275330404,-0.001693961170892528,0.008131732493624474,0.989971153601629
2015-09-24,-1,-0.002267830800690173,-0.002028594402380691,-0.001693961170892528,0.013004614820043569,0.9898283514727005
2015-09-28,-1,-0.0028214730785579866,-0.0025045687680944223,-0.0007323843394452237,0.015209119805717389,0.987720406449381
2015-09-30,-1,-0.001382617148370777,-0.0012692634128997117,-0.0007323843394452237,0.013004614820043569,0.9893547355830328
2015-10-02,-1,-0.0002620120672799323,-0.00023957399765809213,-0.0007323843394452237,0.01227538312291108,0.9901920455055453
2015-10-06,1,0.0010305490552395325,0.001261317899233731,-0.001693961170892528,0.011943246054167932,0.9911077443635061
2015-10-08,1,0.0027061145422821306,0.0031563223266328263,-0.001693961170892528,0.006647764979300098,0.9935602031542163
2015-10-12,1,0.002679187279353557,0.003136371395613567,-0.0030565252974307164,0.006647764979300098,0.9929097255711954
2015-10-14,1,0.002645273479528778,0.00309049253149883,-0.002321584226654426,0.007620988078499171,0.9931177080270175
2015-10-16,1,0.0027713096608176276,0.0032330937992207124,-0.002321584226654426,0.007620988078499171,0.9926145410188745
2015-10-20,1,0.0025094977553814794,0.002904679516129891,-0.003813214040511349,0.008675082493581555,0.9919713864988146
2015-10-22,1,0.002815996314057061,0.003262235733916964,-0.003813214040511349,0.008675082493581555,0.9911938957319809
2015-10-26,1,0.003909695538375479,0.004460175183299954,-0.003813214040511349,0.008389011325017152,0.9924487262294334
2015-10-28,1,0.0037819389824157714,0.004323345270721691,-0.003813214040511349,0.008389011325017152,0.9924390460801462
2015-10-30,1,0.004097705398991357,0.0047015157999834006,-0.0065734492279604095,0.007076111382479375,0.9923530843553665
2015-11-03,1,0.0037927918969055414,0.0043410959270636035,-0.007329971632556694,0.005557685502346595,0.9917588908213425
2015-11-05,1,0.0035151675905648987,0.003995795971403973,-0.007329971632556694,0.007076111382479375,0.9913715764829989
2015-11-09,1,0.0032564545033990735,0.003733543100203898,-0.007329971632556694,0.007076111382479375,0.9911775329522284
2015-11-11,1,0.0034078709858414197,0.0039020698870519,-0.007329971632556694,0.00605452706649311,0.9909187951705478
2015-11-13,1,0.0025661470147500137,0.002921573309784402,-0.007329971632556694,0.00605452706649311,0.9910030199288137
2015-11-17,1,0.0027723342222450323,0.0031520623199751702,-0.007329971632556694,0.00605452706649311,0.9908311576158578
2015-11-19,1,0.004165082287045471,0.0044947744265705315,-0.007539066883387241,0.005272947283665399,0.991233285553851
2015-11-23,1,0.003080541703388618,0.003466742636169963,-0.007539066883387241,0.00605452706649311,0.9911921611640343
2015-11-25,1,0.0033103835582275016,0.003733946347955196,-0.007539066883387241,0.00680575632879955,0.9906303763539686
2015-11-30,1,0.002657105284624304,0.002947952102793803,-0.007539066883387241,0.009944512386121747,0.9907522512533372
2015-12-02,1,0.001662225055218952,0.0018651469820480133,-0.006562486719812612,0.009944512386121747,0.991565786268858
2015-12-04,1,0.002480637786179907,0.002681060492631506,-0.0076411428653115595,0.006836609943158845,0.9908907685644844
2015-12-08,1,0.001750415005529959,0.00185895384691966,-0.00996983537020673,0.006836609943158845,0.9892688217932142
2015-12-10,1,0.001422735576315854,0.0014525033000293611,-0.01237190997208806,0.006731574414276139,0.9884040951064453
2015-12-14,1,0.000582149585349787,0.0006706222897079961,-0.01237190997208806,0.010309179837987138,0.9874703651977215
2015-12-16,1,0.0013194665981643328,0.001333981272880931,-0.01237190997208806,0.006731574414276139,0.9879209548802957
2015-12-18,1,0.0005345997107847088,0.0006115090599451386,-0.01237190997208806,0.006731574414276139,0.9884648572173478
2015-12-22,1,0.001000351949785416,0.0010366778715216606,-0.01237190997208806,0.002750657336633107,0.9882703839916074
2015-12-24,1,0.0008875922031111065,0.0009262445433150997,-0.01317546419742744,0.002750657336633107,0.9874811738405593
2015-12-29,1,0.00109556903797947,0.0011233120025859282,-0.01317546419742744,0.0018058813374042298,0.987284068050839
2015-12-31,1,0.00042225844174486455,0.00047434328773757406,-0.015135338508591646,0.00639157800988223,0.9833675548218389
2016-01-05,-1,-0.00017722608078383378,-6.887001526190584e-05,-0.01639965796098735,0.009692927568300452,0.982205594237362
2016-01-07,-1,-0.0014859047120998944,-0.0012247027183961293,-0.01317546419742744,0.01328796415957532,0.9823518770303169
2016-01-11,-1,-0.0021916742454651207,-0.001852189896892899,-0.012011053113637725,0.01328796415957532,0.983111348717205
2016-01-13,-1,-0.0033016423530449392,-0.0027816026051049403,-0.0101245500120004,0.009692927568300452,0.9849957010879016
2016-01-15,-1,-0.0017056958327194382,-0.0013170212909710114,-0.0101245500120004,0.01947125216828718,0.982991334737555
2016-01-20,-1,-0.002099622153876002,-0.0016797003723621282,-0.008188138545277918,0.01947125216828718,0.9824460069587825
2016-01-22,-1,-0.001559753294667567,-0.0012515515832547896,-0.008188138545277918,0.01947125216828718,0.9825712715348852
2016-01-26,-1,-0.001915027143251192,-0.0015000077744104418,-0.008188138545277918,0.016822292232666906,0.9835766062179491
2016-01-28,-1,-0.001979889459612457,-0.0015634258056126426,-0.008188138545277918,0.016822292232666906,0.9838678237585506
2016-02-01,-1,-0.00026124210018782745,-9.921120825289099e-05,-0.008188138545277918,0.016822292232666906,0.9869955393605139
2016-02-03,-1,-0.0007531560102964466,-0.0005139905736625988,-0.006470216905048173,0.014768114510958079,0.9890763030959981
2016-02-05,-1,-0.0008705441871314235,-0.0006183851315175664,-0.004412902675520945,0.007772763545253055,0.9913075602485477
2016-02-09,-1,-0.0009281865506710168,-0.0006871487366637043,-0.004412902675520945,0.007772763545253055,0.990938316588239
2016-02-11,-1,-0.0009968752192474005,-0.0006836052366217145,-0.002928550085706513,0.014768114510958079,0.9904478056111418
2016-02-16,0,-9.650060547474349e-05,0.00012778349691697233,-0.002928550085706513,0.006587087751548893,0.9921487874853134
2016-02-18,1,0.000438047881141664,0.0006051113726101829,-0.002928550085706513,0.009384699331636707,0.9920021386667364
2016-02-22,1,0.0005333949578344928,0.0007224826347713933,-0.0031507799999704444,0.009384699331636707,0.9921313930693454
2016-02-24,1,0.0003177120349687364,0.000507158199260549,-0.002692253239479556,0.009384699331636707,0.9921977119634102
2016-02-26,1,0.000605820185496174,0.0007610126024525643,-0.0014011106547413858,0.009384699331636707,0.9921561144743603
2016-03-01,1,0.0019109002735711246,0.001926271004837694,-0.0014011106547413858,0.008424983512692937,0.9938936119622637
2016-03-03,1,0.002360222543969678,0.0025099865688007613,-0.0009082272965575904,0.009384699331636707,0.9939380576881877
2016-03-07,1,0.001731532073468034,0.0018475917338179335,-0.0028243216171938575,0.009384699331636707,0.9922568048952856
2016-03-09,1,0.0012244910108207367,0.0012619083575610985,-0.0028243216171938575,0.009384699331636707,0.9923260277903085
2016-03-11,1,0.0016002869033966633,0.0016905562168424973,-0.0039700774457247364,0.008424983512692937,0.9927035740631669
2016-03-15,1,0.001667703339267676,0.001763216073278678,-0.0039700774457247364,0.007940180316965363,0.9928714436210206
2016-03-17,1,0.00199432586693224,0.0021378005152182856,-0.007088477006741563,0.004277894493841963,0.9933912611195134
2016-03-21,1,0.002340145756442762,0.0025882893159539263,-0.007088477006741563,0.004724609393469622,0.9936777510431004
2016-03-23,1,0.0020621248687810886,0.0022777253937024313,-0.006775028678352787,0.004724609393469622,0.9938856064127479
2016-03-28,1,0.002146264579701784,0.002386502446115329,-0.006775028678352787,0.004724609393469622,0.9939222380301408
2016-03-30,1,0.0016798261616813794,0.0018792968916540704,-0.006775028678352787,0.004724609393469622,0.9938953341696638
2016-04-01,1,0.0022179306438620816,0.0024815132204243926,-0.007088477006741563,0.003977295689654694,0.9932199901094528
2016-04-05,1,0.0012808436115286101,0.0014051710512866518,-0.006775028678352787,0.004724609393469622,0.9944516484454166
2016-04-07,1,0.0012753007737359154,0.001406809214994451,-0.006775028678352787,0.004724609393469622,0.9942424094087068
2016-04-11,1,0.001022003733950982,0.0010982638992097864,-0.006775028678352787,0.004724609393469622,0.9940385564127644
2016-04-13,1,0.0012075495375903473,0.0013133013669999792,-0.00713525214006784,0.005299930730390903,0.9931078875621553
2016-04-15,1,0.001140038936128704,0.0012671192788893623,-0.006837931583321371,0.006000987994056021,0.9929812018959058
2016-04-19,1,0.001516517776150162,0.001704305830324358,-0.006837931583321371,0.00703105759422496,0.9925616131621654
2016-04-21,1,0.0014505227659684298,0.001629546738223853,-0.00659247539244198,0.00703105759422496,0.9924811232028851
2016-04-25,1,0.0016069161876853502,0.0018439993336898152,-0.00759356637852364,0.008073540390028007,0.9891852552173428
2016-04-27,1,0.001292644341928517,0.0014270654095639966,-0.00759356637852364,0.008073540390028007,0.9891363891762673
2016-04-29,1,0.0010376075448140188,0.0011591782204074157,-0.00759356637852364,0.008073540390028007,0.9893477323585834
2016-05-03,1,0.0009073465177442584,0.0009860084944383076,-0.0068620809159920275,0.007539648634481852,0.9896473008769895
2016-05-05,1,0.0006253174010767211,0.0006709350717934647,-0.0055987816489595135,0.007539648634481852,0.9903675942963465
2016-05-09,1,0.0004708945073826915,0.0004752355585635209,-0.004851121123812924,0.007539648634481852,0.9906311684062414
2016-05-11,1,0.0006396815904575692,0.0006812541230921493,-0.002091956182057334,0.006853093675709575,0.9918199065419738
2016-05-13,1,0.00046981903141382234,0.00047842646210951776,-0.0055987816489595135,0.005247508725205116,0.9907447411824699
2016-05-17,1,0.0010743106901296153,0.0011836273753845343,-0.0055987816489595135,0.0023760718760076596,0.9915930921835764
2016-05-19,1,0.0010001858724112023,0.0011083526220765846,-0.005420107907176478,0.001712193598227173,0.9917767121690079
2016-05-23,1,0.0008094042012863915,0.000908922097538392,-0.004265456298682865,0.001712193598227173,0.9945890079816337
2016-05-25,1,0.0006704984385074319,0.000737540471308293,-0.004265456298682865,0.001712193598227173,0.993948173646537
2016-05-27,-1,-0.0008498860922030154,-0.000847215073802193,-0.005420107907176478,0.0015145194657746862,0.9923685575367402
2016-06-01,-1,-0.001706914739097827,-0.0015318481738821697,-0.004336737642223806,0.003933484424097078,0.9916903196298369
2016-06-03,-1,-0.00204956549353892,-0.0018098680025780169,-0.004336737642223806,0.00546264833060732,0.9908998496627
2016-06-07,-1,-0.002455497398599478,-0.0021125156739082527,-0.00725272451339476,0.0022674131732327734,0.990914723768891
2016-06-09,-1,-0.002254581567558681,-0.001943409434069937,-0.00725272451339476,0.00546264833060732,0.9900319129809942
2016-06-13,-1,-0.003037074261382936,-0.002605527599378825,-0.0037903394874748727,0.00546264833060732,0.9907423537593926
2016-06-15,-1,-0.0031110123950903973,-0.00265279134554484,-0.003004987529649087,0.01087760400938415,0.9902310421933542
2016-06-17,-1,-0.0029980382755171596,-0.002554845342571011,-0.003004987529649087,0.01087760400938415,0.9903121548751973
2016-06-21,-1,-0.00301221937801784,-0.002561925825552494,-0.003004987529649087,0.01087760400938415,0.9902085359585507
2016-06-23,-1,-0.0008322014523463548,-0.0006169742683625167,-0.004559350972828707,0.009042179008036196,0.9907956486440753
2016-06-27,-1,-0.0021117897902987563,-0.0017362858248120563,-0.003004987529649087,0.01087760400938415,0.989218395970119
2016-06-29,-1,-0.001789914392753857,-0.0014372742490668911,-0.003004987529649087,0.011726829535338124,0.9889613754623251
2016-07-01,-1,-0.0015456847770089054,-0.001207255963303427,-0.001542561050242417,0.009939408425634691,0.9893989793513814
2016-07-06,-1,-0.002125391199709998,-0.0017247318706940583,-0.0028187515309713784,0.009939408425634691,0.9894775984057528
2016-07-08,-1,-0.0009218601111697516,-0.0007503335458196969,-0.0028187515309713784,0.008729447146786376,0.9902979541182679
2016-07-12,-1,-0.00073818051090919,-0.0006135291525327653,-0.0028187515309713784,0.008729447146786376,0.9901798148105891
2016-07-14,-1,-0.0003251582050575537,-0.00026445455587629303,-0.0022371550175879977,0.008729447146786376,0.990008261770067
2016-07-18,-1,-0.0008064932194703157,-0.000668997334882702,-0.0022371550175879977,0.008729447146786376,0.9894153363514894
2016-07-20,-1,-0.000342654039411774,-0.0002543200190706519,-0.0037947509115267763,0.007623011240539104,0.99011603117638
2016-07-22,-1,-7.148408141963726e-05,-3.4242679690654225e-05,-0.0022371550175879977,0.007856727207667075,0.9901083575149718
2016-07-26,-1,-0.0005073970750145122,-0.00041334312903835264,-2.7412178464566355e-05,0.0068751887085841176,0.9932344379731018
2016-07-28,1,8.090013649255454e-05,9.962604793996267e-05,-0.0020926957302920125,0.0063334553191435015,0.9943568990971771
2016-08-01,1,1.628396015863098e-05,6.594799574327148e-05,-0.0020926957302920125,0.005534643181763844,0.9945532303804336
2016-08-03,-1,-3.0107264372961065e-05,-3.6247812364729787e-06,-2.7412178464566355e-05,0.005534643181763844,0.9948045682664174
2016-08-05,1,0.00036497597911692764,0.0003993368214578625,-2.7412178464566355e-05,0.005824846148073209,0.9942094771815501
2016-08-09,1,0.000680053454676959,0.0007904537247558174,-0.002805974121474879,0.005677420770494257,0.9940539683205972
2016-08-11,1,0.0012911018770548526,0.0014893461188618352,-0.004490613772880263,0.0046194248098146845,0.9937256207744933
2016-08-15,1,0.000997460310839745,0.0011454136192421498,-0.004490613772880263,0.0046194248098146845,0.9928208881157472
2016-08-17,1,0.0010140142066476297,0.0011844267529571343,-0.004699173967241106,0.00610625034207449,0.9922929156618839
2016-08-19,1,0.0016220039113231815,0.0018688301443950757,-0.005956753179537777,0.0046194248098146845,0.9926364525401731
2016-08-23,1,0.0018313878463084646,0.002137061563840552,-0.005956753179537777,0.00610625034207449,0.9919477952882085
2016-08-25,1,0.0013975503049754978,0.0015794625350860356,-0.007101616171186987,0.008713817576938586,0.9905037837174596
2016-08-29,1,0.00145038478354944,0.0016221810066149858,-0.007949393915397882,0.008713817576938586,0.99000735648288
2016-08-31,1,0.0013011952266002472,0.0014516373942651155,-0.008691381960373357,0.011138633100887916,0.9891432101706286
2016-09-02,1,0.0020339966556559433,0.0022939665523572855,-0.008691381960373357,0.0079098403259781,0.989749535897192
2016-09-07,1,0.0015186670073046883,0.0016963022992037282,-0.007680640028626722,0.0079098403259781,0.9905019772792859
2016-09-09,1,0.001172224648534214,0.0013279232946309249,-0.007546734009945717,0.0079098403259781,0.9910112175958197
2016-09-13,1,0.0013743314103801625,0.0015450031681514213,-0.007546734009945717,0.006564168352758883,0.991653282874072
2016-09-15,1,0.0016088830345651272,0.0018347337474029985,-0.008020910017559184,0.00309727218561933,0.9914979430913431
2016-09-19,1,0.001310700580635317,0.001483417002336703,-0.008499823119946771,0.00309727218561933,0.99131945691347
2016-09-21,1,0.001221858951530576,0.0013515817157564779,-0.008499823119946771,0.006382106689406885,0.9913544335297463
2016-09-23,1,0.0014806079529257098,0.0016439156409054495,-0.008034871480963544,0.0030735137622663507,0.9921941862575615
2016-09-27,1,0.0012641372799303777,0.0013780333461638657,-0.007891657820012967,-8.199319203784465e-05,0.9926473477730348
2016-09-29,1,0.0014154668471854474,0.0015485394239957082,-0.007891657820012967,-0.0009356007112126159,0.9929055283948192
2016-10-03,1,0.0015427956306662347,0.0017018904691780857,-0.007891657820012967,-0.0009356007112126159,0.9915018733332471
2016-10-05,1,0.001569359283527515,0.0017323090329501448,-0.008748688043404397,-0.0027450646806558214,0.9905258651894293
2016-10-07,1,0.0015094573646912324,0.001704643149186873,-0.008748688043404397,-0.00224917627646903,0.9910480640130664
2016-10-11,1,0.0010618410272023263,0.0011902737287756968,-0.008112066527308115,0.0028684425685596452,0.9910561888944079
2016-10-13,1,0.00026211827517200827,0.0003195466688777419,-0.007499883425690522,0.008119549899822788,0.9906288907521337
2016-10-17,-1,-0.00011984724745114082,-2.893197230995477e-05,-0.00575933011398312,0.008119549899822788,0.9909976836522274
2016-10-19,1,0.0003475138248077114,0.0004035842217180877,-0.00575933011398312,0.00804509365573309,0.9911247567610105
2016-10-21,-1,-0.00020476088153250873,-6.692522133929711e-05,-0.005709598019340087,0.00804509365573309,0.9914743567327563
2016-10-25,-1,-0.0004211647795296764,-0.0002649169192479963,-0.005709598019340087,0.010876375759592688,0.9907432765786981
2016-10-27,-1,-0.0007593491856119572,-0.0005847091815756142,-0.004893179191703571,0.010876375759592688,0.9910798717548223
2016-10-31,1,0.00025376072786296305,0.00031146042444643774,-0.005470081620767834,0.009874841726296416,0.9923838953511246
2016-11-02,-1,-0.0009298688795356607,-0.0006719642618208803,-0.004893179191703571,0.009874841726296416,0.9929381879714235
2016-11-04,-1,-0.0012129857038453836,-0.0009153273747054024,-0.003993019480206053,0.009874841726296416,0.9929039835529799
2016-11-08,-1,-0.0004608333747428288,-0.0002498460527767891,-0.003993019480206053,0.008225288697724861,0.9938896460950322
2016-11-10,1,0.000957527786466197,0.0009948662141150723,-0.003993019480206053,0.004922275314835803,0.9948858196678986
2016-11-14,1,0.001123174227848937,0.0011552961105588,-0.004021751819785942,0.008225288697724861,0.9942089420327305
2016-11-16,1,6.598969519372455e-05,0.0002362299753635536,-0.005018875861204379,0.004922275314835803,0.9944441379828709
2016-11-18,1,0.0001333302849326791,0.0002911545325910363,-0.005018875861204379,0.004922275314835803,0.9941428769744517
2016-11-22,1,0.0010965491403096307,0.001115256171725767,-0.005018875861204379,0.0030150140744893057,0.9943159532563518
2016-11-25,1,0.0004097606760623004,0.0005454960093693383,-0.004021751819785942,0.0030150140744893057,0.9947615138158905
2016-11-29,1,0.00026349316260913157,0.00038622281091577943,-0.0032432778489888416,0.0030150140744893057,0.9946457833780387
2016-12-01,1,0.00031728293691714695,0.00043260420580303364,-0.00370701170810961,0.002558409660723261,0.994601652505832
2016-12-05,1,0.0002107278022027024,0.0003170613614760659,-0.0032356986244929586,0.003825352791464579,0.9943564088259111
2016-12-07,1,0.00024256427244116394,0.0003743235113125199,-0.0032356986244929586,0.003986219949303501,0.9941473844184379
2016-12-09,1,0.000971658864626264,0.0009890576101349512,-0.003999014146298294,0.0017322418418015278,0.994168326218804
2016-12-13,1,0.0012933700770889432,0.001325677987814598,-0.004507650446389574,0.0017322418418015278,0.9940391372681489
2016-12-15,1,0.0009124228085708242,0.0009338804993791656,-0.004507650446389574,0.0025790546105959235,0.9937075443621199
2016-12-19,1,0.0008081413003940855,0.0008123305959702576,-0.004507650446389574,0.004553227640763909,0.9938438478025199
2016-12-21,1,0.0009382470876197776,0.0009700378758767101,-0.004507650446389574,0.004354949439718286,0.9943147173758186
2016-12-23,1,0.0007717649266204459,0.0007918173170587659,-0.004507650446389574,0.005627391194546199,0.9933648976388249
2016-12-28,1,0.0004955034630311805,0.0005467240873165571,-0.002172768442367375,0.005627391194546199,0.993946782504916
2016-12-30,1,0.0004242875444921214,0.000484143717547096,-0.0017066339171593517,0.007750777833026362,0.9937180156561486
2017-01-04,1,0.0008915710346831833,0.0009159888525801679,-0.002014697601752595,0.00549222393669416,0.9940512041877281
2017-01-06,1,0.001118940589474187,0.001161502232523955,-0.002014697601752595,0.005022413563220825,0.994435065276316
2017-01-10,1,0.0007969236146547704,0.000804440110368619,-0.0018209090534120837,0.005022413563220825,0.9947294358122094
2017-01-12,1,0.001405160516544587,0.0015103526361327445,-0.00107628906284708,0.0062061794547543184,0.993189640658163
2017-01-17,1,0.0008868284083033376,0.0009236054685888961,-0.0010718364179270897,0.006230290801254708,0.9935431125562891
2017-01-19,1,0.0007119799505341776,0.0007271382076855605,-0.000758356406354967,0.006907105674480368,0.9938092284193395
2017-01-23,1,0.0008778072346493946,0.0009187058991621638,-0.000758356406354967,0.006907105674480368,0.9939885576488156
2017-01-25,1,0.0014882860647735946,0.0015717847373859406,-0.000758356406354967,0.00599412250102339,0.9947827341799428
2017-01-27,1,0.0015152350086744884,0.0016676636034695783,4.650427701259055e-05,0.00599412250102339,0.9948682228785173
2017-01-31,1,0.0018427397520615744,0.001996199524056357,4.650427701259055e-05,0.00599412250102339,0.994284673710579
2017-02-02,1,0.0009610848951051182,0.0009707961765867667,3.935045195481039e-05,0.00599412250102339,0.9941434813118664
2017-02-06,1,0.0013006803561976536,0.0013776049087389423,-0.001083558961468975,0.00599412250102339,0.9941709824121747
2017-02-08,1,0.0014809591963335683,0.001588005468760773,-0.001083558961468975,0.00599412250102339,0.9940230185572475
2017-02-10,1,0.0033990368104883494,0.003730405837545073,-0.0011947177277883644,0.0026623026807814252,0.9957911316121268
2017-02-14,1,0.003314978893899153,0.0036472824171000324,-0.0008823193049732281,0.0026623026807814252,0.9956321356211555
2017-02-16,1,0.003646751484615406,0.004040079067331361,-0.0013558723044087217,0.002237886498290724,0.9946514278774328
2017-02-21,1,0.0035148610143740317,0.0038899899013055943,-0.0028901836876359353,0.002237886498290724,0.9939173168842815
2017-02-23,1,0.0036495184932595556,0.0040539207601486636,-0.0035242436007032556,0.001761720843892156,0.9935414081385973
2017-02-27,1,0.003521969078590577,0.003911847607728713,-0.004944044970081985,0.00090146968052693,0.9929172796833443
2017-03-01,1,0.0037633491186223056,0.004174828403199797,-0.004944044970081985,0.001019084649975393,0.9932761616621678
2017-03-03,1,0.0034455392421995808,0.003783895519718664,-0.006155955445044304,0.002041985625474755,0.9930418164173752
2017-03-07,1,0.0027824674341948834,0.0030067248306201748,-0.006155955445044304,0.003378218441179087,0.9936890215064358
2017-03-09,1,0.00219660369700588,0.0023091978177603866,-0.004944044970081985,0.003617057351057159,0.9941975586917989
2017-03-13,1,0.00190216019895154,0.0019468193596459047,-0.004944044970081985,0.0034343603170331194,0.9943478600598723
2017-03-15,1,0.0023961991367847297,0.0025492650182586574,-0.007191679511786503,0.0033147550064729194,0.993754402697977
2017-03-17,1,0.0013924824844843173,0.0014308920241921717,-0.0062082831454323886,0.0034343603170331194,0.9942588738552124
2017-03-21,1,0.0005898188474238914,0.0006810930298066589,-0.004944044970081985,0.0034343603170331194,0.9949337993956446
2017-03-23,1,0.00013290112185854294,0.00030828039068076375,-0.0031120326449337408,0.00451154460188541,0.9947180047637398
2017-03-27,1,0.00029311672500771055,0.00040330559473267805,-0.0021578497488936193,0.007770027334315752,0.9938053439359765
2017-03-29,0,-6.682055332047731e-05,0.00012806593022295337,-0.002330826760538719,0.007659428825387013,0.9936298403975762
2017-03-31,-1,-0.0004221724116925959,-0.00017137732905532434,-0.002330826760538719,0.006330379271837083,0.9938265569291438
2017-04-04,0,-4.9382419537067246e-05,0.00012992392795352717,-0.002330826760538719,0.006330379271837083,0.9939380143541865
2017-04-06,1,0.0010321883595633043,0.0010349375835351864,-0.002330826760538719,0.010510364048236857,0.9933556512273896
2017-04-10,1,0.0007939734766852769,0.000838665935076831,-0.002330826760538719,0.010510364048236857,0.9932677554080414
2017-04-12,0,-6.497049136704029e-05,6.548603125592625e-05,-0.0016370669863147872,0.010510364048236857,0.9938415567900156
2017-04-17,1,5.739363867625325e-05,0.0001853261774614755,-0.0016370669863147872,0.007686450799024694,0.9940769690349638
2017-04-19,1,0.000176156792718176,0.0002680382130287676,-0.0005863383470484357,0.008636391229858284,0.9929249444050746
2017-04-21,1,0.0006204572226632941,0.000658977194684215,-0.0017812996591568986,0.008566654038022582,0.9931743567025301
2017-04-25,1,0.0014722382757771713,0.0014838152239195685,-0.0017812996591568986,0.0070986593625414155,0.9941645958012558
2017-04-27,1,0.0016111798875658322,0.0016387806575383552,-0.00044356492406987853,0.006829567606848996,0.9946713984570056
2017-05-01,1,0.0011789119034465228,0.001208479884862345,0.0005614075446866947,0.006829567606848996,0.9951320056197644
2017-05-03,1,0.0013542081338392272,0.0013611524241569908,0.0005614075446866947,0.007241324526297748,0.994752371252166
2017-05-05,1,0.002029585044355689,0.0021309977781299345,-0.00044356492406987853,0.0067393532839612365,0.9952109901433351
2017-05-09,1,0.002086416843819827,0.0021693806087692584,-0.0017778626247636077,0.0067393532839612365,0.9948922383526461
2017-05-11,1,0.0018544727755776006,0.0018980775919444888,-0.0019580292201200316,0.0067393532839612365,0.9947758562983103
2017-05-15,1,0.0011076015724252339,0.0011740494495489568,-0.0019580292201200316,0.0067393532839612365,0.9944954687589553
2017-05-17,1,0.0004074724365770216,0.0005492912719971105,-0.001698581767963816,0.0067393532839612365,0.9952663793701131
2017-05-19,1,0.001059045493129702,0.0011522606257610129,0.0006218294396705601,0.0067393532839612365,0.995215092085906
2017-05-23,1,0.0012219317900761632,0.0013322293153878386,-0.0019580292201200316,0.006443748066637108,0.9952408001350252
2017-05-25,1,0.0009675361622861257,0.001104396332336939,-0.0025552043932553095,0.005852237506639152,0.9951619247259642
2017-05-30,1,0.0010847928139726417,0.0011999218794896014,-0.003693028174366314,0.005852237506639152,0.994499565606739
2017-06-01,1,0.0017256146488399647,0.00175549520376853,-0.004761569064046729,0.005852237506639152,0.9941208269075417
2017-06-05,1,0.0011611310816357404,0.0012782991302366154,-0.004761569064046729,0.005852237506639152,0.9942773014758832
2017-06-07,1,0.0007350574717314992,0.0008809325481156122,-0.004761569064046729,0.006539869902855022,0.9937246461672871
2017-06-09,1,0.0005510300109184991,0.0007638853863635515,-0.004761569064046729,0.006539869902855022,0.9936465288395564
2017-06-13,1,0.00023081005005197843,0.0004912892069765882,-0.0018696036094409583,0.007349421371565964,0.9936747830925163
2017-06-15,1,0.00038581601646368933,0.0006238250556038013,-0.00422981269508004,0.006539869902855022,0.9937283501207201
2017-06-19,1,0.0011318327703087544,0.0012533967057439077,-0.006229041265432195,0.004892730666536607,0.9938888838019647
2017-06-21,1,0.0006263158836408303,0.0008135575646416289,-0.005169767619444609,0.0059434206332244065,0.993836805009138
2017-06-23,1,0.0005808516523865019,0.0007664266635285535,-0.005169767619444609,0.0059434206332244065,0.9940720908501276
2017-06-27,1,4.624979382945903e-05,0.00029836838506267904,-0.005169767619444609,0.0059434206332244065,0.9943531670327004
2017-06-29,0,-0.00025097907313455887,3.5653771985291304e-05,-0.005169767619444609,0.004017797846334362,0.9948305778630672
2017-07-03,0,-7.85589118573475e-05,0.00019173657127755724,-0.005169767619444609,0.0037157266228408244,0.9944976493650045
2017-07-06,1,0.0012428594979840848,0.001275941534719801,-0.003533337387112132,0.002778095990459739,0.9953118886103431
2017-07-10,1,0.001960980076330144,0.0020653229670844885,-0.003533337387112132,0.0023614163795891265,0.9952037676892005
2017-07-12,1,0.0017966658390925019,0.001918274771366977,-0.005169767619444609,0.0015019817935576297,0.9950982600623575
2017-07-14,1,0.0013465991446126977,0.0014219476006213675,-0.005401671182998854,0.00164317271763871,0.9946539884549743
2017-07-18,1,0.001112705753407265,0.0011739954336210559,-0.003533337387112132,0.00164317271763871,0.9943279763347652
2017-07-20,1,0.001198585378939755,0.0012752575736144915,-0.0038092292445486937,0.0015019817935576297,0.9940271427942496
2017-07-24,1,0.0016190835078057591,0.0017658617432837914,-0.005155263276950633,0.0015019817935576297,0.9934592423697144
2017-07-26,1,0.0013181053632554736,0.0014225550961487665,-0.005155263276950633,0.00164317271763871,0.9927032953855821
2017-07-28,1,0.0010108432248987526,0.0010574410093946776,-0.005155263276950633,0.0019116960144319323,0.9924609891179763
2017-08-01,1,0.0014019228070106717,0.0014835660490233136,-0.005155263276950633,0.001271194967202389,0.9927268047139161
2017-08-03,1,0.0014776635579190798,0.0015668701602911304,-0.005155263276950633,0.001271194967202389,0.9923001903981784
2017-08-07,1,0.001677665582510915,0.0018131286037002803,-0.005155263276950633,-0.0003247363485540107,0.9918248503035402
2017-08-09,1,0.0015605559644641127,0.001622217076265169,-0.004719676484868669,0.0018768007026780695,0.9924089425061445
2017-08-11,0,-0.00014667433208881848,1.5116633963333241e-05,-0.004314244632813196,0.008018435506294636,0.9926897704900848
2017-08-15,1,0.00018425037285633067,0.00030123545429268025,-0.004719676484868669,0.003787880660365159,0.993202389246673
2017-08-17,-1,-0.0009707005290055925,-0.0006846736522674368,-0.004314244632813196,0.006393273947540228,0.9937233912142909
2017-08-21,-1,-0.0010576072397394133,-0.000784496896624733,-0.0035170105955075483,0.006393273947540228,0.9936947969774009
2017-08-23,-1,-0.0005352063395508134,-0.0002927708901897596,-0.0026767613872143658,0.006393273947540228,0.993418498839362
2017-08-25,-1,-0.0005136101999730317,-0.0002729795561871251,-0.0026767613872143658,0.004144046842427489,0.9938100777358286
2017-08-29,-1,-0.0005814229492054156,-0.00034120696719057463,-0.00365682538532611,0.004144046842427489,0.9934183239617164
2017-08-31,-1,-0.0004864146243581574,-0.0002585118121854415,-0.0027233663171538866,0.004144046842427489,0.993573968372113
2017-09-05,-1,-0.0012293224370074477,-0.0008672665565123984,-0.0004686583400834205,0.007322133840376718,0.9922529775082162
2017-09-07,-1,-0.0017975942667614877,-0.0014117218986024738,-0.0010059016334337788,0.007322133840376718,0.9919434358611062
2017-09-11,-1,-0.0009091548716986634,-0.0006143361345574309,-0.0019409697935873454,0.005587184697403312,0.9935594772154591
2017-09-13,-1,-0.0009172660505156081,-0.0006458663736509311,-0.0019409697935873454,0.005587184697403312,0.9935673492398318
2017-09-15,1,2.297508559796638e-05,0.0001345660947726546,-0.003042703183778519,0.005833507259050564,0.9934012467277108
2017-09-19,1,0.00016310178439110038,0.00025089658938875115,-0.0036723807119507608,0.0067559403168810485,0.9930306931528919
2017-09-21,1,0.0012094334069809275,0.001234771155268218,-0.0036723807119507608,0.0067364120567627115,0.9941890702597753
2017-09-25,1,0.0007167372240247158,0.0007589630221346681,-0.0036694690272462086,0.006933211734788025,0.9939618178120125
2017-09-27,1,0.0004966872244743941,0.0005322480200258129,-0.0021303126650078913,0.006933211734788025,0.9944154300504454
2017-09-29,1,0.0008578440034427049,0.0008715302682969492,-0.0021303126650078913,0.007263549060021708,0.994461308240085
2017-10-03,1,0.0017282170901041167,0.0018614539023873188,-0.00223845429388958,0.0057548885262965685,0.9954715438221584
2017-10-05,1,0.001733658078660117,0.001858311494458054,-0.0032323111455941746,0.004937252068725173,0.9953121159282222
2017-10-09,1,0.0013932204578176385,0.0014435157108321345,-0.0025737815495892463,0.005701602842823792,0.9954066210915745
2017-10-11,1,0.0012107470825477443,0.0012501578489937464,-0.0025608727273476748,0.0067364120567627115,0.9952561445865054
2017-10-13,1,0.0013829631955157898,0.0014704362693340094,-0.0025608727273476748,0.005701602842823792,0.9957304037546261
2017-10-17,1,0.0015113520686281844,0.0016290434218771694,-0.0025608727273476748,0.004612012488290752,0.9957356517977431
2017-10-19,1,0.0016385931747896275,0.0017783069102426286,-0.004199566445968458,0.00434902945201315,0.9957057166042811
2017-10-23,1,0.0019069867662525972,0.0020961585522424222,-0.0025608727273476748,0.00434902945201315,0.9960720832804553
2017-10-25,1,0.0020620849089135218,0.0022732413251763503,-0.0025608727273476748,0.004612012488290752,0.9957590536008296
2017-10-27,1,0.0021496894815280446,0.0023538473753005416,-0.0025608727273476748,0.00434902945201315,0.9959584912708087
2017-10-31,1,0.002114168588675464,0.0023075208318267667,-0.004318877361487523,0.0046038130433793565,0.9949241347534924
