JNU-Tangyin/eata/results/Batch4_SP500/Batch4_SP500-BIIB.csv
Date,Action,Predicted_Q25,Predicted_Q75,Actual_Q25,Actual_Q75,RL_Reward
2010-12-14,0,0.0,0.0021062428807155993,-0.005119762230785627,0.003861098346535497,0.9940515962846294
2010-12-16,0,0.0,0.0,-0.007098458576912603,0.0033119468003111733,0.9938115598763919
2010-12-20,0,0.0,0.0,-0.0072483995160074755,0.0035834426000151565,0.9931939969784447
2010-12-22,0,0.0,0.0,-0.008215505776646734,0.003861098346535497,0.9904192275327561
2010-12-27,0,0.0,0.0,-0.008215505776646734,0.004547999798372815,0.9904949253492189
2010-12-29,1,0.001835460663263095,0.001937798423733895,-0.008215505776646734,0.0058084943204154025,0.9903204020562377
2010-12-31,1,0.002593225759243546,0.0027973536712960568,-0.011594337824626533,0.006146866336641138,0.9886007185323933
2011-01-04,1,0.0018415046381054178,0.0019116387901752657,-0.008215505776646734,0.007131787393028728,0.9888740203096965
2011-01-06,1,0.0011911120332917873,0.0012604697483548156,-0.009335302839291144,0.006146866336641138,0.9886582003426562
2011-01-10,1,0.0010254344275461116,0.0011087540087509039,-0.010608201871258154,0.007425810971078211,0.9879231039696841
2011-01-12,1,0.0006105875010719151,0.0007539664496835928,-0.00904107491052057,0.006146866336641138,0.9893469400501111
2011-01-14,0,-0.0002661231933649567,1.3220319229393556e-05,-0.006709790053959281,0.007425810971078211,0.9887905242612969
2011-01-19,-1,-0.0005350951148453864,-0.0002429805664899247,-0.005935619621064701,0.0069630567064973845,0.9893289531035815
2011-01-21,-1,-0.0002789015139519987,-1.1886463689571671e-05,-0.004823603068075674,0.0056542428988884605,0.9924346394518477
2011-01-25,0,-0.0001359277232974124,9.152385671657467e-05,-0.005935619621064701,0.005500880905686264,0.9922840477438156
2011-01-27,0,-1.1390999257659376e-05,0.00018833177828709322,-0.00516137227240763,0.006366839796284236,0.9923131881094873
2011-01-31,-1,-0.0005240422019973951,-0.00027906977347974093,-0.0032365115374231555,0.00808517711450058,0.9922519600721177
2011-02-02,-1,-0.00021791824520821397,-1.3028826989018062e-05,-0.0032365115374231555,0.00808517711450058,0.9917207823181738
2011-02-04,-1,-0.000437756953414199,-0.00020460941943641433,-0.002951943304802746,0.00808517711450058,0.9921326125808388
2011-02-08,-1,-0.0005582312997069017,-0.0003040533212278338,-0.0025925754232467802,0.007549921387944579,0.9929145415345372
2011-02-10,-1,-0.0006673108305927436,-0.0003983051034175029,-0.002951943304802746,0.007549921387944579,0.9921056234542464
2011-02-14,-1,-0.0007293039467302478,-0.0004326621461573178,-0.004064974981269776,0.006121686696253252,0.9925339616251456
2011-02-16,-1,-0.0004213151165640414,-0.0001932371978118992,-0.004921398752732387,0.007549921387944579,0.9918809081041663
2011-02-18,-1,-0.0007631651294680218,-0.000469330191961486,-0.004921398752732387,0.007549921387944579,0.9918018186665434
2011-02-23,-1,-0.0010838929262940358,-0.0007623800600004319,-0.0028687299045289873,0.007549921387944579,0.9918709175611983
2011-02-25,-1,-0.0008235329528548554,-0.0004974611101943658,-0.0028687299045289873,0.00625077488466631,0.9919110328053481
2011-03-01,1,8.974876385443094e-05,0.0002755495525970629,-0.004067694054871158,0.005206448182895275,0.9929654061033624
2011-03-03,1,0.0005823203037069306,0.0007151555889149536,-0.004067694054871158,0.006233988945836956,0.9925869109956914
2011-03-07,1,0.00014605568842428912,0.00033436208294502774,-0.005432576425357209,0.006233988945836956,0.9921897745335875
2011-03-09,1,0.0001226178028234105,0.0003193258319470182,-0.005432576425357209,0.006233988945836956,0.992267760081615
2011-03-11,1,5.2289061102653604e-05,0.00023071657502287866,-0.005432576425357209,0.005568282983639055,0.9927479370527947
2011-03-15,-1,-0.000568012329598394,-0.00034340459243944424,-0.0018824010790691125,0.007955509376958523,0.989825646784185
2011-03-17,-1,-0.0008283467088618794,-0.00056679068813718,-0.00045023195877841966,0.012237033283780748,0.9881872242508558
2011-03-21,-1,-0.0004833596519496768,-0.00028243120468250953,-0.0017913527358138235,0.012237033283780748,0.987954418269366
2011-03-23,1,0.00029258529617405223,0.0003094218645933241,-0.0017913527358138235,0.016810146501074714,0.9860977369982759
2011-03-25,1,0.0006660743462871014,0.0006969190087853423,-0.0012594084897189577,0.017987694133617504,0.982032853868704
2011-03-29,1,0.0006566155035595192,0.0006820612904680665,-0.0012594084897189577,0.017987694133617504,0.9810315927314545
2011-03-31,1,0.0015193269017046633,0.0015897654921451822,-0.004743962355274665,0.015570788543143949,0.9817960616344334
2011-04-04,1,0.0014623747891468353,0.0015384050209979214,-0.004743962355274665,0.015570788543143949,0.9814921964792819
2011-04-06,0,0.0,0.0,-0.007104887022653026,0.015570788543143949,0.9801647473827106
2011-04-08,1,0.002059676890747545,0.002265904896418407,-0.005642882308685844,0.017678525992432546,0.979906970601809
2011-04-12,1,0.0025898576355479564,0.0028264174552303746,-0.007715518662776455,0.015570788543143949,0.9827018041162678
2011-04-14,1,0.004176058298809106,0.004628092663319286,-0.008427542140028225,0.015544442724753966,0.9833696291626901
2011-04-18,1,0.003889934769653098,0.004255341557378066,-0.008427542140028225,0.015544442724753966,0.9830282185238267
2011-04-20,1,0.005878581166178893,0.006545262142727657,-0.010510961243522696,0.011552611763459467,0.983784243941233
2011-04-25,1,0.005554801141347745,0.0061139684379735906,-0.011313073182215753,0.007717686534455384,0.9871265282411344
2011-04-27,1,0.0059739531349699395,0.006683542509898608,-0.011088905066974743,0.004726298124698561,0.9873520389861362
2011-04-29,1,0.004897154470502851,0.005441177068524022,-0.010510961243522696,0.004726298124698561,0.9885202702745188
2011-05-03,1,0.004998211269141369,0.005570859113711141,-0.011088905066974743,0.004726298124698561,0.987726455283627
2011-05-05,1,0.0034535349654446043,0.003773849112603883,-0.008727639096621317,0.008824864328350557,0.9886090432771703
2011-05-09,1,0.004063235975413471,0.004435584918010467,-0.011088905066974743,0.0024685716016079524,0.9883144006934644
2011-05-11,1,0.0037985944109478207,0.004201485448001315,-0.011088905066974743,0.005502632038903307,0.9888931862263758
2011-05-13,1,0.0036439738058312,0.004020803555676512,-0.011088905066974743,0.004586516648590459,0.9889944748326965
2011-05-17,1,0.003668690420686258,0.0040332862240476655,-0.01196342483653954,0.004586516648590459,0.987719753235639
2011-05-19,1,0.00286284753269774,0.0030867841507241705,-0.01196342483653954,0.007165426875299519,0.9879673319281993
2011-05-23,1,0.001968260521121798,0.0020581112416959836,-0.00901914568647625,0.010696318870068059,0.9873297412080773
2011-05-25,1,0.0012603426973889728,0.0012658614400530988,-0.006041979921497565,0.012308920121247693,0.9875814010010229
2011-05-27,1,0.0006294307261914255,0.0007255604565678238,-0.006041979921497565,0.013859794547743266,0.9860878690501461
2011-06-01,1,0.000782733362871302,0.0008430101554953645,-0.00317959472263012,0.01512209007558273,0.9857603553753171
2011-06-03,1,0.0009608044635546023,0.0010182621150697758,-0.00317959472263012,0.013477322517375363,0.9856049132124697
2011-06-07,1,0.00045672429484248044,0.000565003603975127,-0.00317959472263012,0.013477322517375363,0.9858777510861116
2011-06-09,1,0.00014697567350858412,0.0003227173496991521,-0.0031992691315203066,0.013477322517375363,0.985556978814389
2011-06-13,-1,-0.0009451994776244986,-0.0006289269441230163,-0.0070293990407909995,0.013477322517375363,0.985424713237083
2011-06-15,0,-0.00023252007677642273,1.3454985322729532e-05,-0.007252851695469827,0.012343121256562088,0.9862366946735496
2011-06-17,1,7.043619290595423e-05,0.00028766622014402834,-0.007252851695469827,0.012075308426249045,0.9865338111859225
2011-06-21,1,0.0014366722268685426,0.0014940376101568824,-0.01279591484830118,0.012075308426249045,0.9856546850318908
2011-06-23,1,0.0014904561984082918,0.0015965541064057146,-0.01279591484830118,0.0120098433799369,0.9859180203169587
2011-06-27,1,0.003031123019364352,0.0031290640958733917,-0.01353518444038696,0.01027852515131185,0.986324904523447
2011-06-29,1,0.004058249874519129,0.004269245574956733,-0.015717597921888427,0.008553753019407386,0.9861458515411464
2011-07-01,1,0.003609314599763249,0.0037560442837718147,-0.01353518444038696,0.008553753019407386,0.987270295361829
2011-07-06,1,0.0029778725095944676,0.0030360113128185,-0.015717597921888427,0.008553753019407386,0.9857071608039158
2011-07-08,1,0.0028900085790233613,0.002946416973703857,-0.018721167996111177,0.008315303761972273,0.9833482193423678
2011-07-12,1,0.0012418023663336422,0.0014022112187180393,-0.021720754913570593,0.009812098179975018,0.9818820379551806
2011-07-14,1,0.0006195575050144988,0.0008398201331140654,-0.027462768127933048,0.009812098179975018,0.9792426048898101
2011-07-18,1,0.00017050377977501975,0.0004882214408369458,-0.027462768127933048,0.010577340405384222,0.9780984553821324
2011-07-20,1,0.0004247742237653201,0.0006906830412919205,-0.018750035480216594,0.009812098179975018,0.980024554889373
2011-07-22,1,0.0015221154875088294,0.0015970021366792004,-0.020674215218603312,0.009812098179975018,0.9787362503757862
2011-07-26,0,0.0,0.0,-0.020674215218603312,0.011645685942512193,0.978705102973376
2011-07-28,0,0.0,0.0,-0.015603585705296838,0.011645685942512193,0.9791771225165423
2011-08-01,0,0.0,0.0,-0.015603585705296838,0.0174692348244673,0.978106767307353
2011-08-03,0,0.0,0.0,-0.012556974933416707,0.0174692348244673,0.979583267063415
2011-08-05,0,0.0,0.0,-0.012556974933416707,0.0174692348244673,0.9815990566539202
2011-08-09,0,0.0,0.0,-0.008266699662403076,0.0174692348244673,0.984322731940462
2011-08-11,0,0.0,0.0,-0.012386292955427983,0.013228700409706903,0.9871917553896323
2011-08-15,-1,-0.0062963469677233975,-0.005273194846271447,-0.012386292955427983,0.0174692348244673,0.9869495260430665
2011-08-17,-1,-0.00692832825061176,-0.005853177930956889,-0.008907660974075048,0.01789383329607681,0.9839734063705776
2011-08-19,-1,-0.006894860831563165,-0.005822751150094724,-0.008824261194037319,0.0174692348244673,0.9842967035198504
2011-08-23,0,0.0,0.0,-0.014058977550330715,0.01629249935235392,0.9847574186755254
2011-08-25,0,0.0,0.0,-0.014058977550330715,0.01629249935235392,0.984376518703109
2011-08-29,0,0.0,0.0,-0.014058977550330715,0.015228551597556584,0.9846622423149087
2011-08-31,0,0.0,0.0,-0.014629723926548521,0.015228551597556584,0.9840099089148747
2011-09-02,0,0.0,0.0,-0.014629723926548521,0.015228551597556584,0.9825161660728997
2011-09-07,0,0.0,0.0,-0.014629723926548521,0.01941675748533245,0.9781050332907338
2011-09-09,-1,-0.007834651174736605,-0.006947035163923942,-0.013895103191968794,0.01941675748533245,0.9776861696024113
2011-09-13,-1,-0.004279425581465376,-0.003908831156011837,-0.014697048188307919,0.015228551597556584,0.9797899052584167
2011-09-15,0,0.0,0.0,-0.014697048188307919,0.011111901126321431,0.9811288394448459
2011-09-19,1,0.0015713315572386793,0.001816426749596792,-0.016220614399071888,0.011707103599266638,0.9810406583686925
2011-09-21,1,0.00031163951669399494,0.00034965926026292915,-0.014402958595556785,0.0132897322391964,0.982061431680096
2011-09-23,-1,-0.0007876488096949549,-0.0006996726241246769,-0.008044104190671994,0.017900255124867533,0.979954736426338
2011-09-27,-1,-0.00026102719267426347,-0.0001871945966972019,-0.014402958595556785,0.0132897322391964,0.9799648977421662
2011-09-29,-1,-0.0003739299763538427,-0.0003370583438297169,-0.007559023708646792,0.019508395955465406,0.97614261292518
2011-10-03,-1,-0.0025978209007122685,-0.0022777369354364235,-0.004376354820830564,0.019508395955465406,0.977013324656162
2011-10-05,1,0.0009494779743604007,0.0010563292666996113,-0.00809370397167618,0.009224939963520428,0.981739429899252
2011-10-07,1,0.0013064507554783442,0.0014783653114540402,-0.00809370397167618,0.009224939963520428,0.9818088926690671
2011-10-11,1,0.0007619797628851798,0.0008423225481236949,-0.005046614079418773,0.009224939963520428,0.9826697381816315
2011-10-13,1,0.0012483822106710415,0.0013671726376921459,-0.00809370397167618,0.007744320566888441,0.9825184930537777
2011-10-17,0,0.0,0.0,-0.005046614079418773,0.007744320566888441,0.9832715203258842
2011-10-19,0,0.0,0.0,-0.010696394002711461,0.007147824059606826,0.9825548146943888
2011-10-21,1,0.0010307628014706808,0.001173716661169642,-0.018515211240743033,0.0064391145373656,0.9849635742680315
2011-10-25,1,0.000645069770373363,0.0007635097710373393,-0.010241894037570667,0.007147824059606826,0.9839062148453347
2011-10-27,1,0.0026760930310052687,0.0030340505426126704,-0.018515211240743033,0.005070879017596564,0.986452472568456
2011-10-31,1,0.002686264083808934,0.002893534873108793,-0.010241894037570667,0.005070879017596564,0.9866687969672524
2011-11-02,1,0.001220060375338902,0.0012504678523128252,-0.006889370394672995,0.008563161509250718,0.9857672698021974
2011-11-04,0,0.0,0.0,-0.01411865478549249,0.008563161509250718,0.9842844671548174
2011-11-08,0,0.0,0.0,-0.01411865478549249,0.008563161509250718,0.9842288566229047
2011-11-10,0,0.0,0.0,-0.01411865478549249,0.012026660431543962,0.9834158768736485
2011-11-14,0,0.0,0.0,-0.018131259594347426,0.005675690266758572,0.9829883823166555
2011-11-16,0,0.0,0.0,-0.01411865478549249,0.005675690266758572,0.9843009472686103
2011-11-18,0,0.0,0.0,-0.008181623977313602,0.00715510771201004,0.9850873801708322
2011-11-22,0,0.0,0.0,-0.008181623977313602,0.006761823852685047,0.9870629586064568
2011-11-25,1,0.0028430624825619656,0.003314176500516258,-0.0061162456957371035,0.006761823852685047,0.9883287000192343
2011-11-29,1,0.003193859362152476,0.0036972073197725297,-0.007896895352507018,0.005509543581908953,0.9886202110070366
2011-12-01,1,0.0043466678264850265,0.004942335180352708,-0.007896895352507018,0.004190525601892709,0.989931034149856
2011-12-05,1,0.0028109390015815675,0.0031878282783880107,-0.004466937785016534,0.004863713973084052,0.991448716987563
2011-12-07,1,0.002807733222379549,0.0031931234131135,-0.004466937785016534,0.005509543581908953,0.9912099798851339
2011-12-09,1,0.0035793131713101386,0.004083179811620277,-0.004466937785016534,0.004863713973084052,0.9928044718195104
2011-12-13,1,0.003081867449655401,0.0035338597523269398,-0.0030846947271730165,0.005509543581908953,0.9942536482421733
2011-12-15,1,0.002724568733707468,0.0031060726595528287,-0.00242124639268328,0.006761823852685047,0.9942224012460732
2011-12-19,1,0.002303238327167378,0.002572899085884357,-0.0025308059449575945,0.006761823852685047,0.994258083415753
2011-12-21,1,0.0028687192852162647,0.003219259491294372,-0.003701919854865918,0.005630478075213891,0.9932649820150675
2011-12-23,1,0.001991731398113127,0.0021534563912294783,-0.0025308059449575945,0.007293231004406317,0.9932116725630799
2011-12-28,1,0.0005937541206043429,0.0007099327567216544,-0.0025308059449575945,0.007293231004406317,0.9930054532168145
2011-12-30,-1,-0.0006155295650654593,-0.0002857936652347568,-0.0025308059449575945,0.008443352622377167,0.9917737055825478
2012-01-04,1,0.00020831235612964898,0.0004455711046632263,-0.0025308059449575945,0.008443352622377167,0.9922556153602267
2012-01-06,1,0.0014169442966540675,0.0014579293096178968,-0.0025308059449575945,0.007293231004406317,0.9928095939079674
2012-01-10,1,0.0005570009403279215,0.000736245350551015,-0.0034249648381937214,0.007293231004406317,0.9919792028710891
2012-01-12,1,0.0006688601827507289,0.0008315000484042093,-0.004253830349624834,0.006517294142530535,0.991627413053358
2012-01-17,1,0.0010425972725119908,0.0011438031995876475,-0.004253830349624834,0.007462562168381231,0.9912156434439094
2012-01-19,1,0.0006622661095701731,0.0008296811195464757,-0.005782936867927498,0.007462562168381231,0.9906973947986086
2012-01-23,1,0.0012066856065929598,0.0012637706219514686,-0.00755075691886651,0.006066040893846395,0.9904509847367754
2012-01-25,1,0.0016222156068925939,0.0016301149530823645,-0.00755075691886651,0.005810312663268919,0.9908464331183957
2012-01-27,1,0.0011137230715011644,0.0012437739777436988,-0.00755075691886651,0.005269425910842127,0.9911702085369293
2012-01-31,1,0.0008290155942467545,0.0009718741753399038,-0.004930323355999471,0.0035706484913814772,0.9923966386260854
2012-02-02,1,0.0009293331496032024,0.0011180712974059935,-0.004930323355999471,0.0035706484913814772,0.9928702306829504
2012-02-06,1,0.001991557178677986,0.0020049854103744848,-0.00755075691886651,0.0025682536515137743,0.9918649883561661
2012-02-08,1,0.001378763390272569,0.001397001784279947,-0.004639469129024424,0.00372713438684299,0.9917649156666194
2012-02-10,1,0.0012619667914816747,0.0012693251424744222,-0.002980583371995107,0.0032388367216416663,0.992560491591244
2012-02-14,1,0.0008789597100466832,0.0009861065760662145,-0.004639469129024424,0.0032388367216416663,0.9922843707161734
2012-02-16,0,-0.00021113482263681845,5.737518297234921e-05,-0.004639469129024424,0.0024667508052027996,0.9926910063863312
2012-02-21,-1,-0.0008474708326711347,-0.0005342377036362185,-0.002980583371995107,0.0024667508052027996,0.9937871600563886
2012-02-23,-1,-0.0012515627416540968,-0.0008526654522973802,-0.002980583371995107,0.0033712124370000127,0.9935695736098938
2012-02-27,-1,-0.0027099476547313324,-0.002024551219259779,-0.002338150935955421,0.005754884586652575,0.991033468257646
2012-02-29,-1,-0.0007544135047912159,-0.00047923862207019613,-0.004034411414750569,0.005754884586652575,0.9914593948697612
2012-03-02,-1,-0.0003195744374490558,-0.00010513896001523285,-0.004034411414750569,0.005721250534611346,0.9920702795298502
2012-03-06,-1,-0.0009680036983682433,-0.0006633194741388282,-0.0014462557853605125,0.007106678700669335,0.9915088435237623
2012-03-08,1,0.00023016998838587565,0.000379084982370044,-0.00391579777807817,0.00631894632972726,0.9925465271976224
2012-03-12,1,0.00016851880035619488,0.0003167297419072168,-0.006215773997073152,0.00631894632972726,0.9912361351623049
2012-03-14,1,0.00024103408321213542,0.00038055647594598536,-0.004646298950153045,0.006265402300410232,0.9923143749353686
2012-03-16,1,0.0012500421442120102,0.0013379791930022782,-0.00391579777807817,0.006265402300410232,0.9926905536895596
2012-03-20,1,0.0008706578847940056,0.000880454311698301,-0.00391579777807817,0.00631894632972726,0.9912540453764668
2012-03-22,1,0.001770706154549414,0.0020110261092386164,-0.004374081565488852,0.00700577654454565,0.9912448374158366
2012-03-26,1,0.002339527952635252,0.0025726795371168168,-0.005399121843080576,0.00700577654454565,0.9918538147557071
2012-03-28,1,0.002155948091887581,0.002399090784269506,-0.005399121843080576,0.01054192234654769,0.991289323018312
2012-03-30,0,0.0,0.0,-0.005399121843080576,0.011792931896565918,0.9902294611396254
2012-04-03,0,0.0,0.0,-0.008418175291032375,0.011792931896565918,0.9892780836581909
2012-04-05,0,0.0,0.0,-0.01127447267361315,0.011792931896565918,0.9884324523996124
2012-04-10,0,0.0,0.0,-0.00516165204471481,0.011852271589563083,0.9890805169423615
2012-04-12,1,0.001279338931840623,0.001336534020694632,-0.00516165204471481,0.012496465963842957,0.9887336123731165
2012-04-16,1,0.0007346388513389262,0.0007931044448211967,-0.00516165204471481,0.013942396481261351,0.9880048402072273
2012-04-18,1,0.0017754854882069157,0.0019574624964487208,-0.0035353051991825236,0.012496465963842957,0.9898603691763831
2012-04-20,1,0.0012194770363001353,0.0012369970957319776,-0.007439953181508762,0.012496465963842957,0.9884374010123141
2012-04-24,1,0.001351949123744409,0.0013954505789410773,-0.004034368631471107,0.011852271589563083,0.9894902104665853
2012-04-26,1,0.003061582462082846,0.0034312543165379026,-0.006368869617190222,0.007727013665241618,0.9899126443953966
2012-04-30,1,0.00293126041085583,0.0031897556239129446,-0.006368869617190222,0.0036691445458899886,0.9904501077624718
2012-05-02,1,0.0030942837630506784,0.0033696107125690492,-0.005559217203830738,0.0017239204831251034,0.9917837743288094
2012-05-04,1,0.0020192625020121185,0.00216217302052455,-0.0037000461104867593,0.0036691445458899886,0.9909733603442172
2012-05-08,1,0.001941419032271985,0.0020094387468678984,-0.0037000461104867593,0.007010722423098391,0.9904807673404498
2012-05-10,1,0.002045202536998279,0.0021117587849363286,-0.005426561011062052,0.002304469765264613,0.9908387101081205
2012-05-14,1,0.0024959629299356806,0.0026168522834892974,-0.005874243464087385,0.002304469765264613,0.9902804853143532
2012-05-16,1,0.002516369626214709,0.0026574314341875046,-0.005874243464087385,0.007010722423098391,0.9889638836360598
2012-05-18,1,0.0007646681167747793,0.0008677700567591779,-0.0018462643660552757,0.012575887674933008,0.9904491540809626
2012-05-22,1,0.0006140353294268985,0.0007514278253672245,-0.0025882864527524757,0.012575887674933008,0.9902217357876152
2012-05-24,1,0.00014252762474998833,0.0003442549761519725,-0.0025882864527524757,0.012996422016037535,0.9884459028535687
2012-05-29,1,0.0007156142365501771,0.0007981561989705386,-0.0025882864527524757,0.012996422016037535,0.9884066252685157
2012-05-31,1,0.0006941288344134793,0.0007537023641922379,-0.0026932952061713583,0.012996422016037535,0.9873061571382056
2012-06-04,1,0.00047082779075741647,0.0005554203186645862,-0.0007361210450663994,0.012996422016037535,0.9884820872707216
2012-06-06,1,0.001416687355984773,0.001466728165698952,-0.0026932952061713583,0.010783900122427206,0.9891866479587701
2012-06-08,1,0.0011854964721269368,0.0012072453461233188,-0.0036171137218242674,0.010783900122427206,0.9887002107233955
2012-06-12,1,0.0012487861008527116,0.0012716512194421367,-0.003850100741902158,0.008823361381710753,0.9890703959491248
2012-06-14,1,0.002157165722209697,0.0022818234497133287,-0.003850100741902158,0.008823361381710753,0.9901138673392498
2012-06-18,1,0.0030065746093833295,0.003275497146999777,-0.003850100741902158,0.008065453864156089,0.990998933035974
2012-06-20,1,0.0030233304278398498,0.0032855349101112066,-0.00890429446965316,0.005780746158695385,0.9904289515439879
2012-06-22,1,0.0026056959008952003,0.002799149019130601,-0.010437659517941901,0.004791980897668994,0.9907257978174218
2012-06-26,1,0.002713004241440655,0.0029725462917518843,-0.010437659517941901,0.005780746158695385,0.9896389607060923
2012-06-28,1,0.002502470442647492,0.0027398796412399125,-0.00890429446965316,0.00929969025663783,0.9892989561068141
2012-07-02,1,0.003295282489509432,0.003588405519352221,-0.010437659517941901,0.004791980897668994,0.9894434763331087
2012-07-05,1,0.0024201633383241607,0.002567414433695029,-0.010632678831956188,0.004791980897668994,0.9892796058316756
2012-07-09,1,0.0022048819096572607,0.0023468100130512714,-0.010041087934661143,0.005754104140876257,0.9897622840100265
2012-07-11,1,0.001644897825416102,0.0016923994323205446,-0.008773385163791319,0.005902821057492161,0.9898780143689568
2012-07-13,1,0.0015544237031955147,0.0015790949674525962,-0.010041087934661143,0.005902821057492161,0.989110451490449
2012-07-17,0,0.0,0.0,-0.010041087934661143,0.007171887942147296,0.988885580093975
2012-07-19,0,0.0,0.0,-0.010041087934661143,0.0089255419709204,0.9891451294569839
2012-07-23,0,0.0,0.0,-0.00825888683946511,0.0089255419709204,0.9899737818662041
2012-07-25,1,0.0017540710142936473,0.001825080178892397,-0.00825888683946511,0.007171887942147296,0.9907508128597697
2012-07-27,1,0.0016954302836809413,0.001724548174412873,-0.00825888683946511,0.006609383463796461,0.9920553529318163
2012-07-31,1,0.001209344264275757,0.0012415398012661926,-0.006551587453506691,0.006609383463796461,0.99300330884701
2012-08-02,0,0.0,0.0,-0.005360467592969093,0.006609383463796461,0.9934727844101018
2012-08-06,1,0.0007067867281129898,0.0008113259121657201,-0.005360467592969093,0.00536193215315662,0.9937582549052313
2012-08-08,0,0.0,0.0,-0.0040098334935046494,0.006609383463796461,0.992298894761625
2012-08-10,0,0.0,0.0,-0.0040098334935046494,0.004938438384924729,0.9934072077060896
2012-08-14,1,4.580191394872393e-05,0.0002452912608381214,-0.0029895814386760476,0.003552150276168094,0.993977807237232
2012-08-16,0,0.0,0.0,-0.0029895814386760476,0.003552150276168094,0.9936832649861201
2012-08-20,0,0.0,0.0,-0.0003715248293798589,0.004938438384924729,0.9939089599045241
2012-08-22,0,0.0,0.0,-0.0003715248293798589,0.004933538268345081,0.9939147711622682
2012-08-24,0,0.0,0.0,-0.002961822367019235,0.003552150276168094,0.9941070346426832
2012-08-28,0,0.0,0.0,-0.003985320266802169,0.003552150276168094,0.9936564088589401
2012-08-30,1,0.0005896683385986038,0.0007803737251476811,-0.005926642098454962,0.003552150276168094,0.9932370452196976
2012-09-04,1,0.0008075804581556948,0.0009679221573744403,-0.005926642098454962,0.002954586137306245,0.9932878942657137
2012-09-06,1,0.002079483818619692,0.0020958179522272804,-0.005926642098454962,0.002954586137306245,0.9939358594245131
2012-09-10,1,0.0015142099162765133,0.0016108324498021848,-0.006480662212767791,0.002954586137306245,0.9938884882682766
2012-09-12,1,0.0014720977965129722,0.0015687069909923977,-0.008828230712580161,0.0024053166200563823,0.9925162309354254
2012-09-14,1,0.0021404434396673265,0.002147188801666752,-0.008828230712580161,0.0007853521681248921,0.9924179613955524
2012-09-18,1,0.002403399187429884,0.002467556477764286,-0.008828230712580161,0.0017329116972434953,0.9908945664575518
2012-09-20,1,0.002824609904454955,0.002961217455538773,-0.009648882903236683,0.0013744088749003207,0.9897448780053574
2012-09-24,1,0.002453657883189995,0.0026043858758590995,-0.0100067526078445,0.0013744088749003207,0.9890523738110734
2012-09-26,1,0.000799791973328886,0.0009315331199239688,-0.010506586501562474,0.0013744088749003207,0.9896529107035347
2012-09-28,1,0.0006611947714479877,0.0007654596457775504,-0.010831160449887377,0.0038168961619638926,0.9892474929046092
2012-10-02,1,0.0007572507331929742,0.0008304124347196244,-0.012623568939744086,0.0040770307069018805,0.9875419851578204
2012-10-04,1,0.0016871507344762742,0.0017585338986551562,-0.012623568939744086,0.0040770307069018805,0.9876390510338559
2012-10-08,1,0.0011870838773866152,0.001191681520167062,-0.013921884855197119,0.005243964127888175,0.9874438534121995
2012-10-10,-1,-0.0005676960432732601,-0.00028520812389944367,-0.015375295097871413,0.006599122629138088,0.9873009111997025
2012-10-12,-1,-0.0007333917219394422,-0.00043161399098943197,-0.015375295097871413,0.009037874681046812,0.9863926241065136
2012-10-16,1,0.0006373359706027269,0.0007912255071461164,-0.015375295097871413,0.006599122629138088,0.9869677538766602
2012-10-18,-1,-0.0006527151247149477,-0.00032533303989730185,-0.012821169434032359,0.010758593781469542,0.9867455663557733
2012-10-22,-1,-0.001721247066794439,-0.001236804273340727,-0.010966034814630604,0.013022500593578075,0.9862429146266772
2012-10-24,-1,-0.0026549807639273107,-0.0020939898744909593,-0.010406088254626765,0.016330881198529705,0.9862040781253321
2012-10-26,-1,-0.0020384466395267625,-0.0015947108297202708,-0.008803533681593399,0.013022500593578075,0.9865946988875798
2012-11-01,-1,-0.003219175392875989,-0.0026277451986675125,-0.008100186292922576,0.013022500593578075,0.9877939124197656
2012-11-05,-1,-0.0031342114195689694,-0.0025562846385756626,-0.008100186292922576,0.013022500593578075,0.987243201628964
2012-11-07,-1,-0.0027521529451163974,-0.002287106587761596,-0.008100186292922576,0.013022500593578075,0.9873704403628429
2012-11-09,-1,-0.001984621432945653,-0.0016491355613679852,-0.006011943695150113,0.012026181311624085,0.9885500794470828
2012-11-13,-1,-0.00218927924327076,-0.00183158832745736,-0.006011943695150113,0.012026181311624085,0.9886037413048561
2012-11-15,-1,-0.0019235933062169807,-0.0015793697246672474,-0.005222210188923321,0.011070315998658584,0.9896653560736075
2012-11-19,-1,-0.0005273854515977337,-0.00034446371225836214,-0.005222210188923321,0.009390315472845405,0.9909825422171578
2012-11-21,-1,-0.00021753886528096616,-7.481713768530941e-05,-0.005901765637842402,0.008840098276330989,0.9921414713148934
2012-11-26,1,0.0011003525988524526,0.0011756945504521053,-0.008100186292922576,0.008053762018639946,0.9923831963170902
2012-11-28,1,0.0010649744858527918,0.0010960362907800171,-0.006215155599183014,0.007248756471212411,0.9927580021214306
2012-11-30,1,0.0006546251949643946,0.0006805668731431382,-0.0063518367869345475,0.007248756471212411,0.9928322690684283
2012-12-04,1,0.000758030556461109,0.0007992319303801003,-0.008604588664368779,0.005546280834828133,0.9917274504151051
2012-12-06,1,0.0012360444862833271,0.0013428394668066068,-0.009341191942426746,0.0037794208126123957,0.9916102739554422
2012-12-10,1,0.0016843827837610772,0.0018636689486347916,-0.011710948341412317,0.0024826850931835825,0.9912772311685955
2012-12-12,1,0.001025058509010272,0.0010865685868957956,-0.009341191942426746,5.211825719672711e-05,0.9922459935043499
2012-12-14,1,0.00028525955185750056,0.00034856431130457857,-0.009341191942426746,0.0010172391254871182,0.9926722450650259
2012-12-18,1,0.0013498961564160296,0.0014973895945181287,-0.009341191942426746,-0.00033912739946415484,0.992367248750165
2012-12-20,1,0.0006256713728179288,0.0007483859458281839,-0.006684416821931884,0.0024826850931835825,0.9932630566446298
2012-12-24,-1,-0.00016705216887073196,-0.00014085800955372852,-0.006795882435235716,0.0034924711469824076,0.9927342304794438
2012-12-27,-1,-0.0002080889924283326,-0.00017632189048915204,-0.006795882435235716,0.003927329724609363,0.9918128551387847
2012-12-31,-1,-0.00031473010459615226,-0.00027812318687303324,-0.0031219040146267503,0.006610298129911514,0.9908151909522769
2013-01-03,1,0.0011700726574463915,0.0013266183113572303,-0.0016125171044403142,0.006720315114671011,0.9921578616428393
2013-01-07,1,0.0008228309374221589,0.0009281883026750358,-0.0016125171044403142,0.007606432835257988,0.9919326916619681
2013-01-09,-1,-0.0002232790918304085,-0.00021117513211100743,-0.0013549601540048225,0.008479100380487723,0.9912284484402473
2013-01-11,0,0.0,0.0,-0.0018055235041366821,0.012830992816799489,0.9899535266903087
2013-01-15,0,0.0,0.0,-0.0013549601540048225,0.012830992816799489,0.9896990307352271
2013-01-17,0,0.0,0.0,-0.0018055235041366821,0.020693667701066867,0.988449767851947
2013-01-22,0,0.0,0.0,-0.005157102566015085,0.020693667701066867,0.9876809147242676
2013-01-24,-1,-0.00024692997258726946,-0.00020039787477728425,-0.005157102566015085,0.014053662502904934,0.9878908039582959
2013-01-28,0,0.0,0.0,-0.008462367201675846,0.010617657750745512,0.9881537145459973
2013-01-30,0,0.0,0.0,-0.008462367201675846,0.010617657750745512,0.9884920237621272
2013-02-01,0,0.0,0.0,-0.008462367201675846,0.011849479430068897,0.9881310156987156
2013-02-05,0,0.0,0.0,-0.005157102566015085,0.011849479430068897,0.9884167082936077
2013-02-07,0,0.0,0.0,-0.006251127641704249,0.009583150605907092,0.9892105831093804
2013-02-11,0,0.0,0.0,-0.006251127641704249,0.010399528649498845,0.9895809693428713
2013-02-13,0,0.0,0.0,-0.006251127641704249,0.010399528649498845,0.9899592771145947
2013-02-15,0,0.0,0.0,-0.006043954473824946,0.00850973568220021,0.9912370524336749
2013-02-20,0,0.0,0.0,0.00038455590117917433,0.010399528649498845,0.9916781823599996
2013-02-22,1,0.0004379675091440195,0.0005902612055684094,0.00038455590117917433,0.008712207302840199,0.9923506823080237
2013-02-26,-1,-0.00010487666496471161,-4.2774366105095764e-05,0.00038455590117917433,0.008712207302840199,0.9923825805243959
2013-02-28,1,0.000782741416471514,0.0009735306019045142,0.00038455590117917433,0.010399528649498845,0.9899539798846559
2013-03-04,1,0.0020961034330290165,0.0024925782079509495,0.00038455590117917433,0.010399528649498845,0.9899739040732136
2013-03-06,1,0.0021671686727272634,0.0025529712598454588,-0.0016506413907089166,0.010399528649498845,0.9896215243533307
2013-03-08,1,0.0015942057044530358,0.0018568547368607697,-0.002011813928427533,0.010399528649498845,0.9892955072693859
2013-03-12,1,0.0022109679744655238,0.0025526971458259013,-0.00549074875780156,0.009704509602884213,0.9885865425754755
2013-03-14,1,0.0030898767511732773,0.0036429772577621705,-0.00549074875780156,0.017325378914038556,0.9869594073084619
2013-03-18,1,0.0022677076448114706,0.0026454758286905316,-0.005884628909328345,0.019445730667428295,0.9846875963679145
2013-03-20,1,0.002191929957290778,0.0025157136935132995,-0.009027242805345267,0.019445730667428295,0.9835589509558401
2013-03-22,1,0.0017513862876878178,0.0019649466978065027,-0.00620887902158568,0.027102085290013053,0.9804984505790698
2013-03-26,1,0.001765332710960317,0.001981303284158185,-0.011531622674682633,0.027102085290013053,0.9790143307549194
2013-03-28,1,0.003688467849195843,0.004136158075009619,-0.011531622674682633,0.02409510476440383,0.9802574821094853
2013-04-02,1,0.004070592026082285,0.004575333629436255,-0.012174154574571825,0.02409510476440383,0.9783337522084747
2013-04-04,1,0.0031962268552546153,0.003552620075799452,-0.014316022712543754,0.02409510476440383,0.9775287469953463
2013-04-08,1,0.002954887816723076,0.003291154630021644,-0.015924623221963294,0.02409510476440383,0.9772541752280575
2013-04-10,1,0.0033825831756034,0.0037354045196499076,-0.016287793772485057,0.018556105241444677,0.9773628398209447
2013-04-12,1,0.004285479416219543,0.0047640795284579415,-0.016287793772485057,0.01746135150057502,0.9778405723667495
2013-04-16,1,0.0037498986858395854,0.004213732629198448,-0.014377443822814917,0.025373031419084285,0.9773306163659891
2013-04-18,1,0.002887222696703993,0.0032470283013620108,-0.012407177250003893,0.025373031419084285,0.9782643916499225
2013-04-22,1,0.006081241356254159,0.00688372087643911,-0.012407177250003893,0.015099472420416007,0.9802835762317547
2013-04-24,1,0.0041759608086048535,0.0047454511507805976,-0.011315761773494222,0.020947729704188938,0.9819996307455633
2013-04-26,1,0.004820964206151789,0.0054404738167637915,-0.009440270465838948,0.015099472420416007,0.9841631752379412
2013-04-30,1,0.004737900055202825,0.005285272652631931,-0.007987061765413377,0.015099472420416007,0.9858938587989675
2013-05-02,1,0.005195034858578915,0.005826259314406234,-0.0074622702883359125,0.013153902755367928,0.9867326475467169
2013-05-06,1,0.005428297422217378,0.006107693785490389,-0.007987061765413377,0.013153902755367928,0.9834711757564439
2013-05-08,1,0.004399640992933514,0.004908274335945342,-0.0074622702883359125,0.020092466656007675,0.9824682036177778
2013-05-10,1,0.00477654599088586,0.005308811834686935,-0.00877056294650868,0.01895919706997523,0.982198246148727
2013-05-14,1,0.007622484360892972,0.008561182024901037,-0.011987247444583998,0.008457071646660552,0.980404341448748
2013-05-16,0,0.0,0.0,-0.00896703638196782,0.012291796021649369,0.9819802770496969
2013-05-20,0,0.0,0.0,-0.014432743021928415,0.014672454501570101,0.9809053068499903
2013-05-22,1,0.005869736244748612,0.00619286067030149,-0.02194660896151401,0.012291796021649369,0.9787637800620748
2013-05-24,1,0.00554167041252402,0.005820967651587935,-0.02194660896151401,0.012291796021649369,0.9790194405750122
2013-05-29,1,0.006280493086018385,0.006622581361159303,-0.02194660896151401,0.012291796021649369,0.9777989698482675
2013-05-31,1,0.006067100619562892,0.006239098172049113,-0.02194660896151401,0.014672454501570101,0.9773239339004638
2013-06-04,1,0.0022411955752073202,0.0025199702984796614,-0.014432743021928415,0.014672454501570101,0.9809824547016758
2013-06-06,1,0.002454497915763019,0.002737835909060008,-0.008045441905966328,0.014672454501570101,0.9829586557917976
2013-06-10,0,0.0,0.0,-0.008939157520500698,0.01300756783575071,0.9827892267730214
2013-06-12,0,0.0,0.0,-0.0058677780541177395,0.014672454501570101,0.9856604016877213
2013-06-14,0,0.0,0.0,-0.007121380273692352,0.013880736933881426,0.9858389232601568
2013-06-18,0,0.0,0.0,-0.006550626053077402,0.012743661979854486,0.9867138165839833
2013-06-20,-1,-0.005149306020521825,-0.004150212540108547,-0.0058677780541177395,0.014306958709461809,0.9862184224094994
2013-06-24,-1,-0.004502453805305167,-0.0036342658686457784,-0.006550626053077402,0.014306958709461809,0.9848432381026719
2013-06-26,0,0.0,0.0,-0.005883370816227175,0.014306958709461809,0.9871571564386793
2013-06-28,0,0.0,0.0,-0.008817209701204018,0.012743661979854486,0.9862407762654181
2013-07-02,1,0.8901968463613906,0.8906787159713718,-0.008817209701204018,0.01097584337651162,0.5291141282125329
2013-07-05,1,8.43314189839621e-06,0.00036772844440041783,-0.008817209701204018,0.01097584337651162,0.9858434781939065
2013-07-09,0,-0.00037820774031932514,1.4080383999629268e-05,-0.008817209701204018,0.01097584337651162,0.9855604046765197
2013-07-11,1,0.00033008218784906875,0.0006160407611424843,-0.011236112376734367,0.009641407215182536,0.985359795723573
2013-07-15,-1,-0.0005373145064334897,-8.567253721546327e-05,-0.019245280847235327,0.006932273850019108,0.9843011263778755
2013-07-17,-1,-0.0008117948467612152,-0.0003149644314599982,-0.019245280847235327,0.006932273850019108,0.9840222725569336
2013-07-19,0,-0.000397136341584672,8.839974453104106e-05,-0.021596973005071005,0.005668794286423329,0.9847678742210768
2013-07-23,-1,-0.0017659920825221032,-0.0011547068415858905,-0.019245280847235327,0.004751579229788249,0.9868841410314689
2013-07-25,-1,-0.0006370554153436695,-0.0001910638462148985,-0.019245280847235327,0.006000696452473943,0.9867611773498887
2013-07-29,-1,-0.0027885570098682994,-0.0021032851332106464,-0.007572197793685577,0.006000696452473943,0.9884065776834826
2013-07-31,-1,-0.002674372987997049,-0.0019920508142803424,-0.018960449110487086,0.00792798034817095,0.9876285755371299
2013-08-02,-1,-0.0006850422560838853,-0.0002645668829558195,-0.018960449110487086,0.005258007858008401,0.9888321751683352
2013-08-06,-1,-0.00218137492585168,-0.0015802899456833878,-0.008463623662409499,0.011525410991149973,0.9858314187714586
2013-08-08,-1,-0.0034108350434449565,-0.002644993177495285,-0.011433675666104409,0.011525410991149973,0.9855105078644102
2013-08-12,-1,-0.005011849628371494,-0.004076550462620525,-0.0024560625473386624,0.016340509188142862,0.9856959648408964
2013-08-14,-1,-0.004542661538835785,-0.0036516798578884657,-0.006173351838136882,0.016340509188142862,0.9853668767705059
2013-08-16,-1,-0.005681577983819526,-0.004641311508622193,-0.0024560625473386624,0.017433489417618134,0.9845133022047015
2013-08-20,-1,-0.0038907434340010546,-0.0032195017493046904,-0.001853045548331799,0.020798983140162264,0.9837587305102041
2013-08-22,-1,-0.0024096645218340575,-0.001957639724049503,-0.001853045548331799,0.020798983140162264,0.9851402304029476
2013-08-26,-1,-0.0027898998168092953,-0.0022621802488144447,-0.006173351838136882,0.020798983140162264,0.9842290332019783
2013-08-28,-1,-0.003475388217967972,-0.0028502542321895055,-0.005971672602480245,0.020798983140162264,0.9848621494014191
2013-08-30,-1,-0.002504815951161609,-0.0020329643676973916,-0.008537060837280565,0.017433489417618134,0.9852595279518112
2013-09-04,1,0.0013630988496439076,0.0014220438658193507,-0.008537060837280565,0.009547481577673295,0.9890643469260552
2013-09-06,-1,-0.0003050149405093934,-0.0001165238678794546,-0.00264094854804636,0.01657654633267697,0.9860537075994107
2013-09-10,-1,-0.000237686522071838,-1.9883491292913957e-05,-0.010716339479089728,0.009781510571925393,0.9839243583923485
2013-09-12,1,0.002025968903041559,0.0022492640665890263,-0.010111301772119819,0.009781510571925393,0.9838940423007448
2013-09-16,1,0.0019448060287442898,0.0020522022471880126,-0.010111301772119819,0.009763378258424804,0.9839832456849924
2013-09-18,1,0.0034427385689034494,0.0038115926381033383,-0.01130197108565994,0.009763378258424804,0.9839091059195486
2013-09-20,1,0.003956457720265023,0.004437657146909026,-0.01130197108565994,0.0172242363749315,0.9825842994105352
2013-09-24,1,0.003121223101148792,0.0034729357644529826,-0.009158230576350075,0.01793845592576835,0.9819595618729539
2013-09-26,1,0.0027075052045243504,0.002981770702953187,-0.009158230576350075,0.01793845592576835,0.982089148458734
2013-09-30,1,0.0018248922796584538,0.0019367103730030184,-0.007900391574091573,0.01793845592576835,0.9823312719178169
2013-10-02,1,0.0026517604141394887,0.002893968385037063,-0.009158230576350075,0.017884058985266585,0.9820090415556606
2013-10-04,1,0.003239519750631588,0.003712428614449219,-0.009158230576350075,0.013450049221488855,0.9842649162477015
2013-10-08,1,0.0009118023608871986,0.0010571121628824062,-0.007900391574091573,0.01676660946803499,0.9862818711136446
2013-10-10,1,0.002032675605986343,0.0022957629162465823,-0.010558205826587171,0.013303551023690215,0.9861169959807233
2013-10-14,1,0.0033107917830796237,0.0038145451573612385,-0.010558205826587171,0.013303551023690215,0.9850255299565375
2013-10-16,1,0.0037197836805868923,0.004289210048065031,-0.009793495716593156,0.009501179273270696,0.9862380556405066
2013-10-18,1,0.004447760731525049,0.005138057668986304,-0.009136562446927503,0.009501179273270696,0.9862587924378217
2013-10-22,1,0.0051440675173538095,0.005909961032605748,-0.013244520706293618,0.009501179273270696,0.9863472236530556
2013-10-24,1,0.0033040885024216093,0.003670091972054085,-0.013244520706293618,0.013303551023690215,0.9862556756507977
2013-10-28,1,0.004246367319048579,0.004701671207571035,-0.013244520706293618,0.018972323331379864,0.9805419198011663
2013-10-30,1,0.003220243685775462,0.0035414483018742938,-0.013244520706293618,0.018972323331379864,0.9801844557005412
2013-11-01,1,0.001186643456742671,0.0012325922014045625,-0.010416102791819955,0.018972323331379864,0.9799642479353602
2013-11-05,1,0.0017523481989375434,0.0018296689186021375,-0.011196622250797157,0.018972323331379864,0.9798959218232199
2013-11-07,-1,-0.0006888866726945344,-0.0004562633805725939,-0.007063157150665019,0.02168869756588913,0.9808638989281577
2013-11-11,-1,-0.0015292690434211712,-0.0010890415308818994,-0.007489670598962503,0.01827190383275515,0.9814747996320314
2013-11-13,-1,-0.001375685496545515,-0.0009573042427478038,-0.011196622250797157,0.01827190383275515,0.9806947210870939
2013-11-15,1,0.000752098682055868,0.000861380997306343,-0.011196622250797157,0.016348805862413926,0.9815168577666398
2013-11-19,1,0.0010269441939412397,0.001029906799892369,-0.009316049604869524,0.017254263940583683,0.9810222090956116
2013-11-21,1,0.0019187821839843652,0.0020489884355065257,-0.01035563894514553,0.017254263940583683,0.9804171818737013
2013-11-25,1,0.005798893292856948,0.006472382126974775,-0.01035563894514553,0.002866477531835197,0.984326790514402
2013-11-27,1,0.005037902400675407,0.005589432188374051,-0.01035563894514553,0.00015604344399713249,0.9854041214887789
2013-12-02,1,0.005161372103229796,0.005747052652105061,-0.009938218576693919,0.0006146467632391542,0.9860317228894994
2013-12-04,1,0.004186451490118379,0.004640998995415548,-0.009495667535973966,0.0025235368381103696,0.987717754723125
2013-12-06,1,0.00469931278334907,0.005218595281276839,-0.009495667535973966,0.0006146467632391542,0.9873943911179411
2013-12-10,1,0.0037013584914526625,0.00412155424785321,-0.008864142824498369,0.0025235368381103696,0.986463767653415
2013-12-12,1,0.0019430306164179485,0.0020553605859295115,-0.008864142824498369,0.0042035204784350725,0.9846864435985688
2013-12-16,1,0.0017484915747843196,0.0018795815477983262,-0.007919128318177744,0.012022496918592527,0.9831975690071889
2013-12-18,1,0.001502028758183089,0.00152348047455559,-0.008861639309398699,0.009453385515354197,0.9841825930408663
2013-12-20,1,0.0018618105150112283,0.001901687263215889,-0.006769304974330639,0.009453385515354197,0.9836698244151149
2013-12-24,1,0.0021278500765509125,0.00229377158259672,-0.008861639309398699,0.012435882959725194,0.9819140954758134
2013-12-27,1,0.0009041341252703123,0.0009605882094653728,-0.008861639309398699,0.017195984726611723,0.9806513142493224
2013-12-31,1,0.00138016033118682,0.0014142507059628656,-0.008861639309398699,0.027811706934283822,0.9789667119967247
2014-01-03,1,3.099667535432643e-05,0.0002796150545453102,-0.011305220699464491,0.027811706934283822,0.9770822488965737
2014-01-07,-1,-0.00036391828975091,-7.480617308455284e-05,-0.018000293237707483,0.027811706934283822,0.9752823876602871
2014-01-09,1,0.0008421064112192943,0.0010349808317317985,-0.018000293237707483,0.027811706934283822,0.9756895509784361
2014-01-13,0,-0.00015261354870026525,0.00016659234721427222,-0.011305220699464491,0.02597073254894176,0.979161985951495
2014-01-15,1,0.0015177992985838694,0.0016071343150456648,-0.011305220699464491,0.019438240341919995,0.9805053436589516
2014-01-17,1,0.0012944078698524657,0.001417409204236536,-0.005183168033098152,0.021766968065559947,0.9804637725754699
2014-01-22,1,0.0021066296992631583,0.002161735661706385,-0.018000293237707483,0.020302315033685153,0.9807664419210225
2014-01-24,1,0.0012292738069683835,0.0013790539543028924,-0.007627840606835362,0.021766968065559947,0.9811448568150788
2014-01-28,1,0.002849040119882677,0.0030323067548404274,-0.005428513713585549,0.020302315033685153,0.9830256800543055
2014-01-30,1,0.0032237203714600487,0.0033929901778284415,-0.009004148930160773,0.018024264586978204,0.9844399054804219
2014-02-03,1,0.0014920982831097649,0.0015244838129078828,-0.004885583420904585,0.018024264586978204,0.9861858894487
2014-02-05,1,0.0016569064777275334,0.0016716023142954927,-0.004885583420904585,0.014890749018539918,0.987958658050006
2014-02-07,1,0.0031064322416202075,0.003355751462509771,-0.007294098081854911,0.014890749018539918,0.9874148530254957
2014-02-11,1,0.003950302589436971,0.004365485291625006,-0.007294098081854911,0.014890749018539918,0.9869452930120862
2014-02-13,1,0.004860726872684974,0.005364917843914851,-0.009004148930160773,0.01147079614583138,0.9861712187711468
2014-02-18,1,0.004729761592455277,0.005174599063373283,-0.009004148930160773,0.0151586329775763,0.9849376580477511
2014-02-20,1,0.004559809110798305,0.004963683043280871,-0.008594828560873477,0.01147079614583138,0.9857425800781657
2014-02-24,1,0.005650769015046062,0.006160501415123574,-0.009959401366468628,0.006387830074625133,0.9818202070966711
2014-02-26,1,0.005588809696705405,0.006129408648996617,-0.013724551174357577,0.006387830074625133,0.9811606657743492
2014-02-28,1,0.004649705779171362,0.005008756162476171,-0.01865337343447794,0.011076474835829696,0.9793906478633183
2014-03-04,1,0.0033012186143634584,0.0033295127535887415,-0.01865337343447794,0.012593431497157852,0.9784631404933867
2014-03-06,1,0.0034697854223193804,0.0035866969436567594,-0.019594452229021724,0.012593431497157852,0.9777169288762934
2014-03-10,1,0.0033710563449358983,0.0035065319867632976,-0.019594452229021724,0.012593431497157852,0.9776376269416664
2014-03-12,1,0.0033921615075185292,0.003537271747415265,-0.0228947705158963,0.014198183835803391,0.9746240794273059
2014-03-14,1,0.002583995651268934,0.0026449251584619022,-0.03216648581468953,0.014198183835803391,0.9715120510665084
2014-03-18,1,0.004910507571926055,0.005324401094041177,-0.03216648581468953,0.014648446040385447,0.9717307761657642
2014-03-20,1,0.0038419377051856335,0.0040823813621013675,-0.03216648581468953,0.020243546512724225,0.9718764048930346
2014-03-24,1,0.0009269835374485849,0.0010140446557041554,-0.026013941657119902,0.02107566978691489,0.9748090992659577
2014-03-26,-1,-0.0009677633609149238,-0.0006033074891041608,-0.030789889773263295,0.02107566978691489,0.9739057340348248
2014-03-28,-1,-0.003279405918300117,-0.002587964296844022,-0.028739979538407304,0.02107566978691489,0.9750342652809304
2014-04-01,-1,-0.0012177222377744855,-0.0007701234602560318,-0.028739979538407304,0.02107566978691489,0.9757992629504966
2014-04-03,-1,-0.004013814258278077,-0.003119684325079524,-0.028739979538407304,0.02107566978691489,0.9764522107666616
2014-04-07,-1,-0.004728549713451569,-0.0037745668826289908,-0.019425295080885314,0.022420409961741716,0.9775051216008439
2014-04-09,-1,-0.003991303929611357,-0.0031289195210371943,-0.014785466918021255,0.02107566978691489,0.9811942177248643
2014-04-11,-1,-0.0070269195766583335,-0.005882947892775063,-0.010256527268008967,0.022420409961741716,0.981174288584684
2014-04-15,-1,-0.005217625991179381,-0.004282496861548005,-0.01314389185509543,0.022138032183725138,0.9832052739712865
2014-04-17,-1,-0.004092211772672869,-0.003342561534009198,-0.01455426870919793,0.016182415405616792,0.9831083459986147
2014-04-22,1,0.00021150937074777793,0.0002564358963534679,-0.01455426870919793,0.003193394768233761,0.9848842426135799
2014-04-24,-1,-0.0035022407453168683,-0.002954877493328181,-0.01314389185509543,0.013445574724520971,0.9858536157510218
2014-04-28,-1,-0.004714540660208464,-0.004042524363230477,-0.008286121988639593,0.0158002844386349,0.9851487960184598
2014-04-30,-1,-0.00484858534962085,-0.004100858694553114,-0.004442663592689771,0.0158002844386349,0.9850347308001561
2014-05-02,-1,-0.0050212039846573,-0.004290132959654821,-0.003616115551701151,0.0158002844386349,0.9854348561187222
2014-05-06,-1,-0.00496839642850061,-0.00420641440878129,-0.003616115551701151,0.013445574724520971,0.9869185114020079
2014-05-08,-1,-0.006126990784228734,-0.005172733764773912,-0.003376537238308455,0.013445574724520971,0.9858601589832559
2014-05-12,-1,-0.003785491419702293,-0.003070754482334087,-0.003769070750417788,0.0064673146197049315,0.9901462153444489
2014-05-14,-1,-0.0036252869113333995,-0.0029857310454563636,-0.003769070750417788,0.0064673146197049315,0.9904647926948338
2014-05-16,-1,-0.004108015231816746,-0.003442196230938568,-0.003769070750417788,0.0040627787253223885,0.9913520098339131
2014-05-20,-1,-0.004576835351635714,-0.0038402203671846218,-0.004826447181008829,0.009156435404600892,0.9900132092617672
2014-05-22,-1,-0.0035933137571120596,-0.002945969792121663,-0.004826447181008829,0.007083719528968833,0.9904832864945207
2014-05-27,-1,-0.0018730826937592056,-0.0014393265124466599,-0.006878060237566918,0.003983395547132623,0.9913537272758001
2014-05-29,-1,-0.0005929347326983766,-0.0002914379934428027,-0.006878060237566918,0.003983395547132623,0.9923608139564718
2014-06-02,-1,-0.001366724426760837,-0.000938289486226483,-0.008181749749178832,0.003983395547132623,0.9921641041391669
2014-06-04,1,0.0002848158516649874,0.0003877897911621079,-0.008181749749178832,0.008327018781319221,0.9901819434402183
2014-06-06,-1,-0.00037313507044029804,-0.00015856755013503635,-0.008627951957215541,0.008327018781319221,0.9898890174527755
2014-06-10,1,0.00016412433776751424,0.000238933269281973,-0.009229657045579737,0.009095724876379782,0.9887672931468019
2014-06-12,-1,-0.00047047080404588577,-0.00032897321688063523,-0.00707932134846922,0.01035944154083239,0.9889499737623912
2014-06-16,1,0.00037284134882589504,0.00042981241664783923,-0.009229657045579737,0.01035944154083239,0.9878163822479402
2014-06-18,1,0.00024382991346938522,0.0002500726347833419,-0.015117520747567184,0.008450516699010684,0.9870529516200338
2014-06-20,1,0.0016944331803259805,0.001899281131183741,-0.015117520747567184,0.008450516699010684,0.9873189545224205
2014-06-24,1,0.0017135168950673661,0.0019871542824203424,-0.01031089980214376,0.01035944154083239,0.9835295146999683
2014-06-26,1,0.00027910012922569477,0.0003331934774526365,-0.01031089980214376,0.008450516699010684,0.9838818600357533
2014-06-30,-1,-0.0004859530968301906,-0.0002860491168127815,-0.009411837469044237,0.011254279994025852,0.9836176180534619
2014-07-02,1,0.0024840753353260873,0.002756050527048572,-0.015117520747567184,0.008063027285110842,0.9837476095510993
2014-07-07,1,0.0019749479710556572,0.0022057541841009505,-0.013890298168622093,0.008063027285110842,0.9834663865187788
2014-07-09,1,0.001915369999720095,0.002205555013686834,-0.01086759888201112,0.004941928665150382,0.9846856625795184
2014-07-11,1,0.0025352115194619274,0.0029502123945627876,-0.013763931021880447,0.004941928665150382,0.9839546160534818
2014-07-15,1,0.0012699559389694611,0.001520160430263716,-0.011995832111008348,0.008813460698375405,0.9847127035035046
2014-07-17,1,0.0003179084203523368,0.0005123971140244902,-0.006432213739494517,0.011676302092386055,0.9851663998005579
2014-07-21,1,0.0007117794862346666,0.0009466933094914328,-0.005517770231396858,0.011676302092386055,0.9852135354579485
2014-07-23,1,0.0025139682833533444,0.0029715055481034655,-0.009555892880826174,0.008813460698375405,0.9896769304940647
2014-07-25,1,0.002386112428791702,0.002844405623900874,-0.01032059131917214,0.008813460698375405,0.9894908015065728
2014-07-29,1,0.0030377741690092094,0.0035671067040981804,-0.01032059131917214,0.008063683370576502,0.9898364508081533
2014-07-31,1,0.0020752909368944557,0.00246355466636295,-0.009555892880826174,0.007319205193301092,0.9911318035284041
2014-08-04,1,0.00126305704970819,0.0015552964133964881,-0.004575207779535862,0.007319205193301092,0.9921557674551654
2014-08-06,1,0.0007090301776496522,0.0008787990134377031,-0.006987285988807779,0.007319205193301092,0.9907991671972409
2014-08-08,1,0.0018182854346965743,0.002270494707567736,-0.006987285988807779,0.00643520851684759,0.9915686423972558
2014-08-12,1,0.001722633648122298,0.0021306734879870284,-0.006987285988807779,0.00643520851684759,0.991351878145448
2014-08-14,1,0.0006743276275964713,0.0007824082630717282,-0.011397112159650256,0.004470367166950024,0.9914088738308229
2014-08-18,1,0.0010603757432753249,0.0011615393730151622,-0.011397112159650256,0.003973933070661333,0.9908704041338097
2014-08-20,1,0.0001936065523365729,0.000260316772919746,-0.011397112159650256,0.004470367166950024,0.9910789472024418
2014-08-22,1,0.0009228924079894014,0.0010603452608735615,-0.010426825439387857,0.004470367166950024,0.9917427664826121
2014-08-26,1,0.0007223850193379223,0.0007703100939349647,-0.010426825439387857,0.005795448490215708,0.9896762038131985
2014-08-28,0,-2.6646963322474486e-05,4.9496721992237834e-05,-0.011777072892884507,0.005795448490215708,0.9881313841511001
2014-09-02,1,0.00029191608590113465,0.00031162433790516125,-0.011777072892884507,0.004990881997395779,0.9878490175982269
2014-09-04,-1,-0.0026424810069477648,-0.0021285813478109364,-0.011777072892884507,0.003722841529415725,0.9879519091960534
2014-09-08,-1,-0.0020626898103076373,-0.001703718156897606,-0.011328383383194971,0.007397885137749985,0.987235451648934
2014-09-10,-1,-0.0016264013802923221,-0.0013492569266228894,-0.011328383383194971,0.007397885137749985,0.985927901887701
2014-09-12,-1,-0.0014559484956912462,-0.001307598123024463,-0.011657407609500844,0.007397885137749985,0.9857169190193936
2014-09-16,-1,-0.001664188280511572,-0.0014336136279977714,-0.01367533517254706,0.003445300188755207,0.9852363739099738
2014-09-18,-1,-0.002248371503072259,-0.0018711257182919229,-0.01367533517254706,0.003356683341238687,0.9848406596248306
2014-09-22,-1,-0.0020277806331094814,-0.001699034922088484,-0.01367533517254706,0.013242244913794997,0.9834278028271698
2014-09-24,-1,-0.0005586864921898272,-0.0005007681306851189,-0.018001582358174992,0.013242244913794997,0.9807528619576722
2014-09-26,-1,-0.00055020098682659,-0.0003813616963762318,-0.01367533517254706,0.015930432557261717,0.9806226263139856
2014-09-30,-1,-0.0009322375077947249,-0.0007068819167603185,-0.01367533517254706,0.015930432557261717,0.9807722534650679
2014-10-02,-1,-0.0006984363322591279,-0.0005750082532018493,-0.010409836656170738,0.018025773416804447,0.9808939705425438
2014-10-06,-1,-0.0008670634605752266,-0.000693685930210064,-0.010409836656170738,0.015930432557261717,0.9821951454230695
2014-10-08,-1,-0.0005377786720652162,-0.0003958627594412812,-0.009416643921361507,0.014052198894250918,0.9843930082676491
2014-10-10,-1,-0.0018065289413904972,-0.0014996939989355782,-0.00794741207174255,0.014052198894250918,0.9846209505754993
2014-10-14,-1,-0.0018061518399338189,-0.0015408617123900238,-0.00794741207174255,0.015930432557261717,0.9850713467863613
2014-10-16,-1,-0.0026895712521032423,-0.0024977973992776734,-0.00864130185098386,0.015930432557261717,0.9852477265079959
2014-10-20,-1,-0.0014867597526520273,-0.001441017872948118,-0.009566032850855107,0.013637931155441613,0.9845545444508896
2014-10-22,-1,-0.0009965111694247028,-0.0009941112538812496,-0.009371495837367115,0.01085396701391272,0.9887080557062576
2014-10-24,1,0.0011162634758998312,0.0013948939489353566,-0.009566032850855107,0.0044867594459432,0.9888348796058802
2014-10-28,1,0.0007672948475403443,0.0009830729606775234,-0.009566032850855107,0.010414390078631658,0.9888772828391912
2014-10-30,1,0.001229069380096096,0.0015028584224289852,-0.009566032850855107,0.00940894973446486,0.9896184511551972
2014-11-03,-1,-0.0007072189197546875,-0.0005856777344700275,-0.009566032850855107,0.010414390078631658,0.9867195494260719
2014-11-05,-1,-0.0008503643352579899,-0.0007118976196631161,-0.009892158509919107,0.010948562505005213,0.9835621976601359
2014-11-07,1,0.000826433389477358,0.0010250164958079916,-0.009892158509919107,0.010414390078631658,0.9839324246837121
2014-11-11,1,0.0011637509185655937,0.0014329398854377425,-0.010140796429897729,0.010356209442688632,0.9844303152653306
2014-11-13,1,0.00028717278644592974,0.00038810919684113766,-0.007250046737036216,0.010356209442688632,0.9849803609038206
2014-11-17,-1,-0.00015860596376202394,-8.476605511385747e-05,-0.007677487378634738,0.010356209442688632,0.9845942371020907
2014-11-19,-1,-0.00019957483327411434,-0.00014603727163748864,-0.006167544939154441,0.011601215605448908,0.9812041922540341
2014-11-21,1,0.0003175980357075102,0.0005052508095809634,-0.006167544939154441,0.01280823124695084,0.9806921734805402
2014-11-25,1,0.00047295353576714866,0.0006522772893249989,-0.013107188854577512,0.01638558055608915,0.9784321062614023
2014-11-28,1,0.0009164451224454493,0.001166903764299376,-0.013107188854577512,0.01638558055608915,0.9787635473102024
2014-12-02,1,0.001562691325847625,0.0019067925562557553,-0.013107188854577512,0.011580191042765565,0.9812623488014101
2014-12-04,1,0.0027202799546050477,0.0031929822372918767,-0.012525730791621031,0.009583617911967747,0.9838801696878579
2014-12-08,1,0.0024366744104762916,0.00281507838248379,-0.012525730791621031,0.011580191042765565,0.9813450806250834
2014-12-10,1,0.0025420827370981184,0.002931364551226643,-0.01720269190993565,0.009475899137250202,0.9806456292867805
2014-12-12,1,0.0015301644137190834,0.0017706498382688953,-0.01720269190993565,0.015475563378961568,0.9798659650349987
2014-12-16,1,0.00011256207513366021,0.00014588752593981322,-0.01233580582479661,0.015475563378961568,0.9807344481651101
2014-12-18,1,0.0026551129821010995,0.0030545289763528414,-0.01233580582479661,0.015475563378961568,0.9818185167034755
2014-12-22,1,0.0017569659312770447,0.001997966931969769,-0.01233580582479661,0.0143848855051008,0.9823438689536399
2014-12-24,1,0.0009322201851367784,0.0010372865078897254,-0.009176209521870598,0.013821572477137382,0.9842701747243336
2014-12-29,1,0.0009514728180557536,0.001060634094100607,-0.013267566892826927,0.013821572477137382,0.9829209560999239
2014-12-31,1,0.0005072950007894201,0.0005576862265176575,-0.013267566892826927,0.01458166423548714,0.9785529959377616
2015-01-05,1,0.0005280156537931338,0.000593587077244775,-0.011622007175872008,0.01458166423548714,0.9791322915073228
2015-01-07,-1,-0.002122162356458211,-0.001943287809023316,-0.011622007175872008,0.01458166423548714,0.9802570670718144
2015-01-09,-1,-0.0024440677852802265,-0.0022920648606654477,-0.011622007175872008,0.01458166423548714,0.9808365731109329
2015-01-13,-1,-0.0009437070168835737,-0.000926752591446612,-0.012599402748341855,0.011661765876328046,0.9818417340939327
2015-01-15,-1,-0.002388435253810092,-0.0022235919764586986,-0.008412794218117123,0.011661765876328046,0.9830359454556398
2015-01-20,1,0.0003850101449561237,0.0005972679924316763,-0.008412794218117123,0.010223625726711615,0.9855622001884444
2015-01-22,-1,-0.0007746056145241458,-0.0007176445622028091,-0.005065162295642087,0.011661765876328046,0.9856711062658677
2015-01-26,1,0.0004195046410590791,0.0006538584384199418,-0.007532154818246358,0.00854394611949391,0.9867809108246771
2015-01-28,-1,-0.0012940649011394328,-0.0012591134164648197,-0.0019630411693359094,0.009981468969937323,0.9869636954807204
2015-01-30,-1,-0.0010415712980743834,-0.0009976899568984645,-0.002035065490643956,0.009981468969937323,0.9915638311737363
2015-02-03,-1,-0.00035185899238807984,-0.00029795012184639935,-0.005065162295642087,0.008551018554976106,0.9918890865897545
2015-02-05,-1,-0.0005287107913611594,-0.0004967784320182573,-0.0051108400579277374,0.008551018554976106,0.9912435870536788
2015-02-09,-1,-0.0008464423902453842,-0.0007899075372799263,-0.0045761078917549245,0.008551018554976106,0.9915242397793581
2015-02-11,-1,-0.0014615244331899805,-0.0013503392832731318,-0.0036336225492350936,0.008551018554976106,0.9914950530939037
2015-02-13,-1,-0.0012121547785037075,-0.0011264669982999128,-0.0036336225492350936,0.013991268559809299,0.9901479149041724
2015-02-18,1,0.00031574197094636115,0.000459648300064259,-0.0036336225492350936,0.012041022162199105,0.9908975702815719
2015-02-20,1,0.0007960906708519922,0.0009402207702125791,-0.0036336225492350936,0.013526865424295691,0.9864099549669931
2015-02-24,1,0.00185795107157727,0.0020308141699760776,-0.005610984093479553,0.013526865424295691,0.984544876969179
2015-02-26,1,0.0016715014735240448,0.0017512387232975712,-0.00908716204708126,0.013526865424295691,0.9822113312279019
2015-03-02,1,0.0020388262416016186,0.0021756146661626786,-0.00908716204708126,0.011886221117027904,0.9828943544232029
2015-03-04,1,0.0016953691007503932,0.0017928691220049752,-0.01905336864832795,0.011886221117027904,0.9811995045992089
2015-03-06,1,0.0010036077334030637,0.0010468699252072907,-0.01601856279922514,0.006033902176825925,0.9832088298442399
2015-03-10,1,0.00015028504155848398,0.00032087477278801285,-0.01601856279922514,0.011886221117027904,0.9824067842335522
2015-03-12,-1,-0.0007131184209995348,-0.0004236070004177303,-0.009682772346290093,0.011886221117027904,0.9828400785101593
2015-03-16,1,0.0006935747413823172,0.0007799465538281766,-0.009682772346290093,0.006009712289235091,0.9842263700439449
2015-03-18,0,0.0,0.0,-0.009682772346290093,0.005877242909284906,0.983787356390569
2015-03-20,1,0.003946952065221885,0.004327323134686532,-0.0203452092850002,0.0032570637475947874,0.9866193908312165
2015-03-24,1,0.0034568576449800804,0.003739383226348496,-0.005598866852243536,0.0036118992344347325,0.9893639733740546
2015-03-26,1,0.002330887687996905,0.0024762623582942475,-0.00536509730333362,0.005127449391037417,0.9885470946743506
2015-03-30,1,0.00048287233119565214,0.0004947405723042059,-0.0203452092850002,0.0046683503704696575,0.9853802326822838
2015-04-01,-1,-0.0013754780076645344,-0.001133461803742369,-0.009406530715208791,0.009046596317389681,0.9851446007999966
2015-04-06,-1,-0.0014887142586017795,-0.0012301418629484435,-0.009406530715208791,0.012432361894278616,0.9837029771800458
2015-04-08,0,-5.04000572321469e-05,1.6216077348173976e-05,-0.00972607933771781,0.0046683503704696575,0.9847949286977019
2015-04-10,-1,-0.0006233133256632206,-0.0004453198976547961,-0.00972607933771781,0.01018298133953615,0.9832105631140557
2015-04-14,-1,-0.0020402034223072183,-0.0016078863130559362,-0.00972607933771781,0.01018298133953615,0.9833659748120239
2015-04-16,-1,-0.0014777474608580817,-0.0011147905933829633,-0.015351233456627957,0.008985137649666323,0.9832557711202654
2015-04-20,-1,-0.0023195001388540285,-0.0018549215967233756,-0.009241400970488318,0.010775564568998381,0.9838308356236753
2015-04-22,-1,-0.002265012617229999,-0.0018128697491066883,-0.009241400970488318,0.01197588408479597,0.9832209200555324
2015-04-24,-1,-0.002879282085163391,-0.0023662359152488675,-0.006589584542528218,0.010775564568998381,0.9868681115840383
2015-04-28,-1,-0.0048174369636795784,-0.004116594181113102,-0.005893894249049892,0.01197588408479597,0.9875721470112904
2015-04-30,-1,-0.00410161961017665,-0.0035432200203753274,-0.006367707158307205,0.010775564568998381,0.9898675048420574
2015-05-04,-1,-0.002603317685356231,-0.0022382946832527756,-0.007801431073453075,0.0029515468857722474,0.990838177683861
2015-05-06,-1,-0.0028944709881138448,-0.0024931865769439567,-0.007940746998382096,0.0029515468857722474,0.9907351024633066
2015-05-08,-1,-0.0013456196636887673,-0.0011306506690367864,-0.007940746998382096,0.0025701694702597163,0.9918824685718588
2015-05-12,-1,-0.0029886916472020375,-0.0024684093943540143,-0.008370000463255667,0.009539906445047344,0.9910616180207481
2015-05-14,-1,-0.0016664452073896045,-0.0014167513739783636,-0.008370000463255667,0.009539906445047344,0.9907704275638585
2015-05-18,-1,-0.0015874993455181896,-0.0013462245290607963,-0.008370000463255667,0.0025701694702597163,0.991590041282605
2015-05-20,-1,-0.0015615080057456605,-0.0012777392064912611,-0.008370000463255667,0.007273123385648311,0.9906359074759177
2015-05-22,-1,-0.0016876629734251928,-0.0014028274956934864,-0.008370000463255667,0.013695212546649838,0.9888678089347449
2015-05-27,-1,-0.0015593931398378055,-0.001286483697895067,-0.008370000463255667,0.010112145514057078,0.9901643603236743
2015-05-29,-1,-0.002550657508791128,-0.0021429223723112914,-0.008370000463255667,0.010112145514057078,0.9903443936571484
2015-06-02,-1,-0.0024251348244689877,-0.0021231898261368986,-0.00669415481492835,0.013695212546649838,0.9887773268477502
2015-06-04,-1,-0.003637052405446229,-0.0031090319529246506,-0.004437253605999477,0.013695212546649838,0.9886255640802087
2015-06-08,-1,-0.0027182504863692545,-0.0023585120700517974,-0.003908972624362584,0.013695212546649838,0.9887399123789652
2015-06-10,-1,-0.0032004446424266355,-0.0027166906179297576,-0.003908972624362584,0.009600895173937063,0.988578973053073
2015-06-12,-1,-0.0018002806144352952,-0.0015768309297973229,-0.003908972624362584,0.00791474888879662,0.9883637178361195
2015-06-16,-1,-0.002364347773648417,-0.0020405455428789718,-0.003908972624362584,0.010323112752963028,0.9870377165840754
2015-06-18,-1,-0.0005065740024268521,-0.0004469722619406966,-0.003908972624362584,0.008073571906514846,0.9885782158583021
2015-06-22,1,0.000214750598478552,0.00024973246388971843,-0.003908972624362584,0.007780318887843305,0.9901243773544901
2015-06-24,1,0.0001063496106447881,0.00010789198016717408,-0.008937649457429156,0.007780318887843305,0.987928171294861
2015-06-26,-1,-2.089596915605998e-05,-7.744327933268877e-06,-0.019167607100075507,0.008073571906514846,0.9819058543875653
2015-06-30,1,0.00010566520117671573,0.0001622026404619628,-0.017957806376100796,0.008073571906514846,0.9817571539628334
2015-07-02,-1,-0.0002460910238460752,-0.00022763202969069643,-0.017957806376100796,0.008995656721551434,0.9810855169063042
2015-07-07,-1,-0.0001615947726301961,-0.00012064834448724365,-0.017957806376100796,0.013152209098782064,0.9798475149337813
2015-07-09,-1,-0.0009187088743453262,-0.0008014273857681973,-0.017957806376100796,0.015810414796702355,0.9776014235710758
2015-07-13,-1,-0.0010634081792692852,-0.0009741165017094714,-0.017957806376100796,0.017799451085180967,0.9771563211994821
2015-07-15,1,0.0002097373523244038,0.00031680904561157976,-0.017957806376100796,0.015810414796702355,0.9784715196627929
2015-07-17,1,0.0004806652133898811,0.0006066707846143799,-0.017957806376100796,0.015810414796702355,0.978327591838263
2015-07-21,1,0.0012232533822541794,0.001479327030375459,-0.017957806376100796,0.015810414796702355,0.977784444268716
2015-07-23,-1,-0.0003263126340676016,-0.00023618521675680492,-0.014058808320177143,0.015810414796702355,0.9791028376300468
2015-07-27,-1,-0.00019294999665281614,-8.584360896279084e-05,-0.019208233783145946,0.01267272581819943,0.9804276617609848
2015-07-29,-1,-0.0019400920968543941,-0.0017303048161082513,-0.014058808320177143,0.012967333586697466,0.9793703584462614
2015-07-31,-1,-0.0014242373472567308,-0.001272804760872439,-0.014058808320177143,0.015810414796702355,0.9792671783161148
2015-08-04,-1,-0.0008673926031969261,-0.0007599113396633842,-0.019318982906742367,0.011920207471060287,0.9793987484258209
2015-08-06,-1,-0.0013700987265329008,-0.0012500531284849637,-0.01679517471650121,0.011920207471060287,0.9805470435094206
2015-08-10,-1,-0.000986738596833907,-0.0009381182109650279,-0.013408900976883242,0.011920207471060287,0.9813332889033854
2015-08-12,1,0.0012276624904702061,0.0016722956169861478,-0.0163681811239515,0.014391614559907636,0.979399183829163
2015-08-14,-1,-0.00043285204686524883,-0.0003268038363118446,-0.0163681811239515,0.014391614559907636,0.979405569450689
2015-08-18,-1,-0.0009085709208031236,-0.000902979700284923,-0.0163681811239515,0.014391614559907636,0.9798413201323857
2015-08-20,-1,-0.0011343452660816675,-0.0010957909050987558,-0.0163681811239515,0.018702128830173192,0.978857528370472
2015-08-24,-1,-0.0033682368190891604,-0.003036645790802657,-0.010397021565536284,0.018702128830173192,0.9802534666222781
2015-08-26,-1,-0.0013188090012510281,-0.0012269458869689507,-0.0163681811239515,0.013099720913172661,0.9834515872683605
2015-08-28,-1,-0.0011934051888086064,-0.0011646881014139542,-0.01865941867392515,0.009467193013613399,0.9812060692772427
2015-09-01,-1,-0.0024211769283284837,-0.002254207993683188,-0.017244061224461375,0.01883123353705327,0.9792152515287532
2015-09-03,-1,-0.0014502680597177594,-0.001396785622379968,-0.017244061224461375,0.013099720913172661,0.980413064183651
2015-09-08,-1,-0.00025341113541050013,-0.00014792538053212987,-0.020412521646260832,0.010831835039798579,0.9793744107259889
2015-09-10,1,0.0004604050948564981,0.0006547708351306408,-0.020412521646260832,0.010831835039798579,0.9809900065637617
2015-09-14,1,0.0004014639045313539,0.00059757699371093,-0.02920960267238923,0.010831835039798579,0.9788044887901463
2015-09-16,1,0.00015504865699140417,0.00025428867692670477,-0.03262435698562483,0.007449417189743275,0.9777078496352223
2015-09-18,-1,-0.0018814520987244536,-0.0016118798106461159,-0.029191904714908668,0.010906056050701015,0.9775527069858412
2015-09-22,-1,-0.002429780300292147,-0.0021122298887512304,-0.026819631943956652,0.010906056050701015,0.9792179837620751
2015-09-24,-1,-0.0026607853049379635,-0.0023562339618869383,-0.026819631943956652,0.012520221205628719,0.9777431028778196
2015-09-28,-1,-0.004708488706147717,-0.0041637926460810475,-0.015761844487164334,0.012520221205628719,0.9802531214444761
2015-09-30,-1,-0.0015033175910963755,-0.0014027811878479027,-0.015761844487164334,0.010906056050701015,0.9806953522265938
2015-10-02,-1,-0.0016907700130722502,-0.0015566556449711486,-0.013986159517788893,0.010840579253074446,0.9814026238526617
2015-10-06,-1,-0.003157219919582329,-0.0028539384710312824,-0.011446503915803255,0.012520221205628719,0.9806174521765655
2015-10-08,-1,-0.002560153588083483,-0.002333419923949176,-0.012202320640460783,0.011585011064167339,0.9809126373685668
2015-10-12,-1,-0.004021832106816702,-0.0036565324552849466,-0.009203496657849274,0.011585011064167339,0.9824221996969429
2015-10-14,-1,-0.0048538071689283,-0.0043738396801144015,-0.009203496657849274,0.013453224261171794,0.9828747031469082
2015-10-16,-1,-0.0022985066727059947,-0.0021594568199933117,-0.010997504140668144,0.008570187976425517,0.9850087411564642
2015-10-20,-1,-0.0035833004689052755,-0.0032589411538357415,-0.010997504140668144,0.008570187976425517,0.9859170175721841
2015-10-22,-1,-0.002202858091454875,-0.0020159869563135388,-0.010997504140668144,0.008570187976425517,0.9853391767784526
2015-10-26,-1,-0.002834303656744733,-0.0025627322330290673,-0.010997504140668144,0.011151580271588805,0.9848793917767821
2015-10-28,-1,-0.00027830853780519237,-0.0002369438363329008,-0.011386958195691604,0.008661472035521707,0.9865262631809512
2015-10-30,-1,-0.0006051493676860736,-0.0005745193384042223,-0.012202320640460783,0.008661472035521707,0.9859174500762534
2015-11-03,1,0.00011292751163931021,0.00022347694641137002,-0.012514617473225947,0.008661472035521707,0.9871555934003501
2015-11-05,-1,-0.000168046623994726,-9.243458674143998e-05,-0.015019777782454145,0.010941891175560992,0.9849684847802159
2015-11-09,1,0.0003748342025903194,0.0005887939311649759,-0.015019777782454145,0.011569169648644104,0.9840269585155278
2015-11-11,1,0.0008892169186261875,0.001222630067471387,-0.015019777782454145,0.011838135920204416,0.9836618859029345
2015-11-13,1,3.5161702992631797e-05,0.00022938350489181845,-0.015019777782454145,0.011838135920204416,0.9839262488317675
2015-11-17,-1,-0.000304871886635248,-0.00015086174589888667,-0.01434312486579787,0.019836670000296066,0.9819566775823781
2015-11-19,1,0.0007473655520925867,0.0010402389078742254,-0.01434312486579787,0.015200902942943094,0.983668808005994
2015-11-23,1,0.00122672960015637,0.0015750407349366567,-0.01434312486579787,0.015340894662219747,0.9832865958574692
2015-11-25,1,0.0013977253125591436,0.0018027262109032887,-0.01292720573114129,0.015340894662219747,0.9842495080799826
2015-11-30,1,0.0005582548763051833,0.0008095403007365898,-0.010632259271498846,0.018684423795919912,0.9842581358410539
2015-12-02,1,0.00018704986478769914,0.0003644053978558659,-0.0077910342502293135,0.018684423795919912,0.9850207622297702
2015-12-04,1,0.001013848433435361,0.0013382229586302297,-0.0077910342502293135,0.015340894662219747,0.9861046485198942
2015-12-08,1,0.0017842349467580654,0.0022353817907636324,-0.010830861394690238,0.011661362289795849,0.9855374434191048
2015-12-10,1,0.001940639650398645,0.002437165221333641,-0.010644491862462689,0.007991927722223128,0.9859307582541582
2015-12-14,1,0.0005998755694909723,0.0008236355513810524,-0.010644491862462689,0.007991927722223128,0.9853750721624337
2015-12-16,1,0.00137682827721373,0.001612933659108983,-0.012228245910305526,0.00701169224673973,0.9842713965082301
2015-12-18,1,0.0007104004058042808,0.0008754853280221645,-0.01221435522168192,0.00701169224673973,0.9846986935793943
2015-12-22,1,0.0017106534480345503,0.002036510463522435,-0.016000015146795346,0.005594511952406288,0.982910502580764
2015-12-24,1,0.0022246498038850484,0.002668962559879684,-0.025471717360095802,0.0016319241335529158,0.9812805764487187
2015-12-29,1,0.0020007160217727993,0.0023375189137137733,-0.026032151604007323,-0.001272976681832199,0.9785570892823301
2015-12-31,1,0.0015998110163433007,0.001882609044742219,-0.026032151604007323,0.002836233323837975,0.9782728831482546
2016-01-05,1,0.0012847373255466528,0.0015481348544598775,-0.026032151604007323,0.005177445480526533,0.9785119184404304
2016-01-07,1,0.000102154165288458,0.00018042470974625248,-0.026032151604007323,0.011982547229493299,0.9788322844753032
2016-01-11,0,-4.315628207663701e-05,1.7158784435626238e-05,-0.026783656802478246,0.011982547229493299,0.9772569841202658
2016-01-13,-1,-0.0013029554884817476,-0.001199787484509913,-0.026783656802478246,0.011982547229493299,0.9777290342705712
2016-01-15,-1,-0.002173346162642935,-0.0018532057124991746,-0.026783656802478246,0.011982547229493299,0.979186484632731
2016-01-20,-1,-0.0013019477992484397,-0.0011800521032248542,-0.026783656802478246,0.01884338750404922,0.9767240972726275
2016-01-22,-1,-0.001201581789869813,-0.0011105273926307127,-0.025699183634402996,0.016555431207794295,0.9778905407680875
2016-01-26,-1,-0.0028937401743718504,-0.0025521646618952907,-0.025976675873846174,0.016555431207794295,0.9779278823619127
2016-01-28,-1,-0.001430288783790952,-0.001306820151868452,-0.025011201150592428,0.016555431207794295,0.980218855689593
2016-02-01,-1,-0.0001168417777999439,-3.6569096992950125e-05,-0.025011201150592428,0.016555431207794295,0.9787611605219365
2016-02-03,1,1.956494706929562e-06,0.00012603030527621816,-0.02056950035669882,0.012113130067418825,0.9795116186288322
2016-02-05,-1,-0.000480495081978068,-0.0004030213737457508,-0.01855013745179979,0.017696393712011246,0.9797420726526603
2016-02-09,-1,-0.001576496165895967,-0.0015378201968279063,-0.019754028066988605,0.017696393712011246,0.9796462157276182
2016-02-11,-1,-0.0023383345242545496,-0.0021955336367912694,-0.01855013745179979,0.020243306106906694,0.9792312345561437
2016-02-16,-1,-0.001304487736658298,-0.0012184603718558692,-0.019754028066988605,0.017696393712011246,0.980010688233349
2016-02-18,-1,-0.0015180966804056839,-0.0013837584197600628,-0.01855013745179979,0.011878018152456489,0.9819869368308614
2016-02-22,-1,-0.0017270141450990346,-0.0014731722667926895,-0.01855013745179979,0.018596909610034115,0.9814279735930699
2016-02-24,-1,-0.0012892538699632197,-0.0011780623766857983,-0.01813045956808377,0.018596909610034115,0.9813612946420329
2016-02-26,-1,-0.0006680572317419168,-0.0006256217045655702,-0.01813045956808377,0.01440816137627614,0.9821462317816431
2016-03-01,-1,-0.0006256704678838378,-0.0005242400427502459,-0.01763651217604966,0.011989153619494085,0.98457185766825
2016-03-03,-1,-0.0008036203805888947,-0.0006994405155103334,-0.016458567073131897,0.01440816137627614,0.9847073388626664
2016-03-07,-1,-0.001502966116090593,-0.0012432907786500559,-0.014853154963088647,0.013200818632498824,0.9856470824986764
2016-03-09,-1,-0.003565946801722572,-0.0030239937555823584,-0.012236469692815288,0.014525839354269415,0.9840530340012764
2016-03-11,-1,-0.002081308572106273,-0.0017936104736140592,-0.012656383677455547,0.013200818632498824,0.9853000179705804
2016-03-15,-1,-0.0036871922894430318,-0.0031751929356086377,-0.008946652430163557,0.013837781187258504,0.9850191293385478
2016-03-17,-1,-0.0033088435609572977,-0.0029034578875898097,-0.007733904851743202,0.013837781187258504,0.985812746184014
2016-03-21,-1,-0.002229256981369865,-0.001934254232265937,-0.007733904851743202,0.013200818632498824,0.9870300064362448
2016-03-23,-1,-0.0011230124575098712,-0.0010628279222530813,-0.007733904851743202,0.013837781187258504,0.9849229771066982
2016-03-28,-1,-0.0017357241867868814,-0.001585855351964051,-0.007179765328168949,0.013837781187258504,0.9843996262956838
2016-03-30,-1,-0.0007972980866135658,-0.0007901644527667629,-0.007733904851743202,0.013837781187258504,0.9844140111212063
2016-04-01,-1,-0.0002808034542381003,-0.0002308885745771224,-0.008835206818930892,0.011645090986969009,0.9844979094780302
2016-04-05,1,0.00028365824070745587,0.00040933027872333056,-0.008835206818930892,0.009615923360011162,0.9851827089239591
2016-04-07,1,0.001047584276021933,0.0012780273382765705,-0.008835206818930892,0.007985277012213623,0.9866056040234215
2016-04-11,-1,-0.00010359963160754134,-7.227390165718276e-05,-0.007179765328168949,0.009615923360011162,0.9867381475046025
2016-04-13,1,0.00035948808835754376,0.00042281836304857605,-0.008474979296324103,0.00847573226303034,0.9862471437233309
2016-04-15,1,0.0005798137230091608,0.0007332138658445185,-0.012540790383375052,0.00847573226303034,0.9858675596910969
2016-04-19,1,0.0010573958947205598,0.0013031888800457473,-0.012540790383375052,0.00847573226303034,0.9856684256602211
2016-04-21,1,0.0020345141722143377,0.0024000063476961016,-0.012540790383375052,0.0061769190963083115,0.9877852396510638
2016-04-25,1,0.002116207248375809,0.0024620129700246,-0.012540790383375052,0.004810253494862782,0.9875218050199206
2016-04-27,1,0.001549167620739385,0.0018088007053198355,-0.011965045920274447,0.012641432438633988,0.9860593358549032
2016-04-29,1,0.0011662837196844901,0.0013828172565906452,-0.006118243025695457,0.012641432438633988,0.9868551635390386
2016-05-03,1,0.0012525188233924972,0.0015060835114740234,-0.010105577347043017,0.016880926431354557,0.9855588414748342
2016-05-05,1,0.00044984875836519365,0.0006023655333496356,-0.005373584694222535,0.016880926431354557,0.9869721026527674
2016-05-09,1,0.0007776674318498962,0.0009334867567215236,-0.010105577347043017,0.012641432438633988,0.9834650226323065
2016-05-11,1,0.0011641045394562904,0.0014591632327470789,-0.010105577347043017,0.011645119311436405,0.9842857833582623
2016-05-13,1,0.00044383906975685705,0.0006058187497170518,-0.010105577347043017,0.011645119311436405,0.9838289112297445
2016-05-17,1,0.0009892138111581873,0.001268130932023056,-0.011019654275861473,0.008703726256858751,0.9840938754805502
2016-05-19,1,0.0007311401690434965,0.0009853023135346166,-0.011019654275861473,0.01104156487693651,0.9837567878764152
2016-05-23,1,0.0020328454326046744,0.0025596674413556316,-0.012306529929849317,0.008703726256858751,0.983606675730639
2016-05-25,0,0.0,0.0,-0.012306529929849317,0.007205997281856772,0.9851435163199589
2016-05-27,1,0.003481365261450785,0.004129498944410468,-0.016647069853769465,0.00560228681133194,0.9817696154889726
2016-06-01,1,0.0022822562883212673,0.0026547504624966326,-0.016647069853769465,0.0076866713664248704,0.9810537397071318
2016-06-03,1,0.003174205045057771,0.0035221769002103795,-0.016647069853769465,0.012484839245473403,0.9802943556341623
2016-06-07,-1,-0.00041280623669188115,-0.00034481578509486547,-0.015055712512257886,0.013481019527352527,0.984047069797591
2016-06-09,-1,-0.00023717901394181216,-0.00022727923139534238,-0.013381575799581684,0.014371252646139074,0.984130945711752
2016-06-13,-1,-0.0009228840064363104,-0.0008323252031802399,-0.01174848435895725,0.014371252646139074,0.9848517043362834
2016-06-15,-1,-0.0017375664901147655,-0.0015348763161428278,-0.00951473901517168,0.014371252646139074,0.9849416668647567
2016-06-17,-1,-0.002455917741907947,-0.0021198805699082206,-0.00472299874591543,0.01650735214135687,0.9843945115218756
2016-06-21,-1,-0.0026381043898675103,-0.0023207064213228478,-0.002242500723758786,0.01650735214135687,0.9843260013090025
2016-06-23,-1,-0.00110863530510654,-0.0010077453132161373,-0.002242500723758786,0.017807568249356358,0.9814888282024006
2016-06-27,-1,-0.0027426278166982694,-0.002455452475236478,-0.0009060929827665105,0.017807568249356358,0.9832763596886533
2016-06-29,-1,-0.0010204456899887064,-0.000895040685927015,-0.0009060929827665105,0.014123258197434704,0.9870181283676007
2016-07-01,-1,-0.0013659023481070556,-0.001137430204506004,-0.0009060929827665105,0.016941113544787216,0.9859809452945931
2016-07-06,-1,-0.0014698177439009565,-0.0011912895668903165,-0.0009060929827665105,0.016941113544787216,0.9818162321185362
2016-07-08,-1,-0.00038519668870515175,-0.0002992432624578363,-0.001182654289092361,0.01219395603740977,0.9818118188620881
2016-07-12,-1,-0.00022216847873548858,-0.00015952189241140324,-0.0027267401784159782,0.01219395603740977,0.9818044946569283
2016-07-14,1,0.001007001776660468,0.001142373979638058,-0.0027267401784159782,0.018364143364292478,0.9812118319267427
2016-07-18,1,0.0014451532154564715,0.001574960490691264,-0.002920027711885697,0.012025154422176582,0.9825190988239142
2016-07-20,1,0.0019807147061391933,0.002230768110413475,-0.0017495904141273226,0.007971696849253498,0.9832931472440086
2016-07-22,1,0.004620610303605619,0.005258127417726462,-0.0017495904141273226,0.004478935208220198,0.9861617579831594
2016-07-26,1,0.0042321894084989395,0.004794202314229714,-0.0017495904141273226,0.004478935208220198,0.9867198716479368
2016-07-28,1,0.004392509911547007,0.0049792857163558045,-0.007487599622121688,0.004332293401744502,0.9845520752977567
2016-08-01,1,0.00464300787617669,0.005154854152340191,-0.007487599622121688,0.004295082907568042,0.9856220879399105
2016-08-03,1,0.005538698947007378,0.006186484988441799,-0.007260378000683557,0.004295082907568042,0.9901679844646922
2016-08-05,1,0.004057920075363031,0.004429764843568216,-0.006775685031474793,0.004295082907568042,0.9913890089903721
2016-08-09,1,0.003347550343593393,0.003590541672959785,-0.006775685031474793,0.00453801044152581,0.9915385722554401
2016-08-11,1,0.0038566868832979515,0.004232626141356185,-0.00743693312012752,0.004295082907568042,0.9902069326198117
2016-08-15,1,0.003465430105324342,0.0037706009758158294,-0.008340815491499388,0.00453801044152581,0.9889460420900289
2016-08-17,1,0.0030246324230883367,0.0032357766826454563,-0.008340815491499388,0.006238956839849192,0.9887134936648947
2016-08-19,1,0.0032776672108361968,0.0035334612464828496,-0.008340815491499388,0.005598443301544162,0.9888779506197186
2016-08-23,1,0.00363175873216588,0.003973905725245863,-0.008340815491499388,0.008528595562895194,0.9881070956147714
2016-08-25,1,0.0026646678836840516,0.0029112649497574873,-0.007123626818899365,0.009281569471673513,0.989292608585053
2016-08-29,1,0.002770577597805881,0.0030687431950687442,-0.007640035269192725,0.010504510352110199,0.9886906008081046
2016-08-31,1,0.0020709503782883527,0.0022140431226544376,-0.010147059240415666,0.010504510352110199,0.9875892326112095
2016-09-02,1,0.0031865659872687096,0.0035198359933956763,-0.010147059240415666,0.010504510352110199,0.9874471716681988
2016-09-07,1,0.0026678660813256867,0.0029018976187387972,-0.009785714154473851,0.010504510352110199,0.987537443670756
2016-09-09,1,0.0010573108878366442,0.001090963279630786,-0.007520172921406589,0.010504510352110199,0.9895149145763384
2016-09-13,1,0.0015395662664814578,0.0016861485273249746,-0.007520172921406589,0.009281569471673513,0.9901226073942097
2016-09-15,1,0.0023450625307320687,0.0026267678264910257,-0.00961710651158268,0.008752556660779218,0.9891761485150705
2016-09-19,1,0.0019853683126984443,0.0021804108112136837,-0.012148012959078693,0.008752556660779218,0.9888424727090848
2016-09-21,1,0.002513012706043302,0.0027370373784091177,-0.012148012959078693,0.0051876740628560005,0.9892408206535129
2016-09-23,1,0.002280182045247349,0.0024564049432994075,-0.012810579705693569,0.0051876740628560005,0.9878892250957411
2016-09-27,1,0.001802617030920064,0.001847797272425567,-0.01380056103520704,0.001342363858682589,0.9882569710739916
2016-09-29,1,0.0010458179821931034,0.0010537793920115555,-0.014070243488425168,0.0051876740628560005,0.9873894580195798
2016-10-03,1,0.0012723167160840257,0.001282068841264809,-0.017025978289627593,0.001342363858682589,0.9867474389998354
2016-10-05,1,0.0009590028326897132,0.0009896086067198954,-0.018764849260672234,0.00514432793044222,0.9859684923335382
2016-10-07,0,-0.00016015162792766243,5.5789808497313034e-05,-0.018764849260672234,0.008537903006667603,0.9857366324522605
2016-10-11,-1,-0.0004740533649883411,-0.00026370043178033063,-0.017018164132162596,0.009398043694469303,0.9835972887852394
2016-10-13,-1,-0.00041580091512130157,-0.00023664485527535438,-0.014307696681389016,0.013174041862409716,0.9803658242872197
2016-10-17,1,6.285100946033583e-05,0.00011673820491077264,-0.0161780722001286,0.013174041862409716,0.9800814280051707
2016-10-19,1,0.00022637334308976285,0.0002614177997795576,-0.0161780722001286,0.013174041862409716,0.979738040370551
2016-10-21,-1,-9.311663145150425e-05,-3.004799592509514e-05,-0.01548506873327899,0.009579453517109827,0.9813378789891172
2016-10-25,-1,-0.00016389648360781768,-0.00011716669845073549,-0.014018813686879345,0.009579453517109827,0.9819034638456543
2016-10-27,-1,-0.0011210377734713688,-0.0008629850808862706,-0.014018813686879345,0.007551605283795999,0.9826997985339583
2016-10-31,-1,-0.002057112792067499,-0.0016753839219873343,-0.008801768231507317,0.007551605283795999,0.9840868057472919
2016-11-02,-1,-0.002734796117730003,-0.0022441373467773362,-0.008801768231507317,0.006170506635497109,0.9837106726728478
2016-11-04,-1,-0.0025966460347208705,-0.002099340268102402,-0.009223166501583877,0.005349511129631541,0.9836547696896053
2016-11-08,-1,-0.001821478386207678,-0.0014052990340408366,-0.01548506873327899,0.004873896056088658,0.9859708998657638
2016-11-10,-1,-0.00027875052885156185,-1.9156312427531103e-05,-0.01548506873327899,0.0043148129690069766,0.9895226155524153
2016-11-14,-1,-0.00031870317293951713,-7.766191917340972e-05,-0.009223166501583877,0.003583854140820271,0.9902959373333126
2016-11-16,-1,-0.001744332665504335,-0.0012699987804545049,-0.006385713990680374,0.003470213186613548,0.9911928271639436
2016-11-18,-1,-0.0007837748519443184,-0.0005007217975672412,-0.009616520507692716,0.003139695331999014,0.9902632141760742
2016-11-22,-1,-0.0007756936113595735,-0.0004926189247367468,-0.011544473327014698,0.003139695331999014,0.9888740095588058
2016-11-25,-1,-0.0015691972219951163,-0.0012113523481120266,-0.006755863204100439,0.003620965195939925,0.9901004755545705
2016-11-29,-1,-0.0019049316087226217,-0.0015137164116621363,-0.006988542496560491,0.00502902995232389,0.9894478714998065
2016-12-01,-1,-0.0023540829316880184,-0.0019029451961088228,-0.007927223376736655,0.003620965195939925,0.9904012737926476
2016-12-05,-1,-0.0029436358503044644,-0.002421151916725533,-0.006736344947665236,0.009137650022080704,0.9897572685170916
2016-12-07,-1,-0.0026411576967751956,-0.0021871535843450956,-0.0061907720284797955,0.009137650022080704,0.9904914400923684
2016-12-09,-1,-0.002406491152371722,-0.0019838840480366614,-0.004941857274141505,0.009137650022080704,0.9906775345472963
2016-12-13,-1,-0.00180183819028977,-0.0015311251962700813,-0.006736344947665236,0.009137650022080704,0.989179047459622
2016-12-15,-1,-0.002087265808418565,-0.0017664243525670805,-0.007927223376736655,0.009137650022080704,0.9888724622199782
2016-12-19,-1,-0.002331511135249502,-0.0019963998099902934,-0.007927223376736655,0.009137650022080704,0.9894007852730693
2016-12-21,-1,-0.0016671908109947983,-0.0014536039995794745,-0.008379882958961282,0.005658696904819547,0.9901516704334181
2016-12-23,1,0.00027366648509620154,0.00041637407029377184,-0.008601391766341504,0.002941848749299685,0.9903154096831233
2016-12-28,-1,-0.0005683204362713151,-0.0005424035651568555,-0.008601391766341504,0.002941848749299685,0.9902278493921984
2016-12-30,-1,-0.0010047738330372959,-0.0009256544950522853,-0.007788557903073516,0.004423566166072224,0.9906184563497377
2017-01-04,1,0.0002666337192403528,0.000356583457714816,-0.008601391766341504,0.0027926891840275416,0.9884429518461473
2017-01-06,1,8.404626187229073e-05,0.0001321412913855649,-0.008601391766341504,0.002164680912012895,0.9886654623251551
2017-01-10,1,0.00010415989801676418,0.00015179315138613518,-0.008601391766341504,0.0027926891840275416,0.9888386946555681
2017-01-12,-1,-0.00010780929514878151,-6.588482758843986e-05,-0.007788557903073516,0.004978793962386438,0.989603193156458
2017-01-17,-1,-0.00046648617375537874,-0.00046050969210046966,-0.0037607286420019556,0.01118837946971432,0.9884380580667361
2017-01-19,-1,-0.0008934319321891289,-0.0008215097231937785,-0.0037607286420019556,0.01532154989063871,0.9873158908143282
2017-01-23,-1,-0.0015138048195540922,-0.00134522499681391,-0.004841293188613112,0.01532154989063871,0.9876531719640068
2017-01-25,-1,-0.00150753695851926,-0.001340562217800856,-0.004841293188613112,0.01532154989063871,0.9873899128844298
2017-01-27,-1,-0.0007132707134072942,-0.0006853758333875624,-0.004841293188613112,0.01532154989063871,0.9875037777946122
2017-01-31,-1,-0.000545203340314177,-0.0005284781210379726,-0.004841293188613112,0.015993276333934187,0.9869368632513785
2017-02-02,-1,-0.0023364034458860654,-0.0020479666111421616,-0.00034534000952799414,0.01532154989063871,0.9892263419806063
2017-02-06,-1,-0.002221358015421882,-0.00196353656063997,-0.007133414724161949,0.01532154989063871,0.9887058146117329
2017-02-08,-1,-0.001367407841254482,-0.001237954801470053,-0.007133414724161949,0.01532154989063871,0.9890393511744845
2017-02-10,-1,-0.0008634687086371664,-0.0007809263626175767,-0.007133414724161949,0.014658565352570903,0.9900278561468171
2017-02-14,1,0.0006276570504339973,0.0007963156727018783,-0.007133414724161949,0.004476196849568969,0.9918691468631748
2017-02-16,1,0.0005096795798208748,0.0006385869521246344,-0.0076870946372476386,0.0024583086747483295,0.9907153735392729
2017-02-21,1,0.0005004215737217937,0.000662249304049788,-0.0076870946372476386,0.0028090331302284962,0.9909315730794878
2017-02-23,0,-2.8986695153297688e-05,1.0130906484621523e-05,-0.0076870946372476386,0.0045875021774116525,0.9906806427307338
2017-02-27,1,0.0009554553493655128,0.0011523567336880888,-0.0076870946372476386,0.0027228628859862648,0.9915287683603734
2017-03-01,1,0.0008251517180190484,0.0009922933570746177,-0.007727784313451716,0.0017263204776768396,0.9914690777976117
2017-03-03,1,0.0011316699747735014,0.0013334999434494465,-0.007727784313451716,0.0020876744451145328,0.9912649521846084
2017-03-07,1,0.0001063868507513312,0.00013855578848507132,-0.0042201677239207605,0.0027228628859862648,0.9921900395103154
2017-03-09,1,0.00036285814367163684,0.0004275829652578961,-0.005717572884448692,0.0020876744451145328,0.9920848224283852
2017-03-13,1,0.00019438542770675463,0.0002176151991081197,-0.008330824448767555,0.002010528551856018,0.9918337066244531
2017-03-15,1,0.0002894285660638371,0.00033558144553288017,-0.008330824448767555,0.002010528551856018,0.9917760128729495
2017-03-17,-1,-0.0012144574062998834,-0.0010601337005791437,-0.0042201677239207605,0.004123038159356702,0.9936249423915993
2017-03-21,-1,-0.001460803651212211,-0.0012614484400257837,-0.005091251578693714,0.0035784107772173597,0.9933720008419771
2017-03-23,-1,-0.0012917484247519987,-0.001130768433722372,-0.0030197981100992363,0.0023098827454976073,0.9938729253860107
2017-03-27,-1,-0.0016139049139798117,-0.00137780387567052,-0.0030197981100992363,0.006258398861326391,0.9913874255274969
2017-03-29,-1,-0.002386127204062228,-0.0020498403135909265,-0.004041632873555962,0.006258398861326391,0.9906404194341745
2017-03-31,-1,-0.00122856831395778,-0.0010561058903565588,-0.008753932765315685,0.0035784107772173597,0.9909703538853436
2017-04-04,-1,-0.0008202747158082401,-0.0007435569098379936,-0.008753932765315685,0.0023098827454976073,0.9912653674239769
2017-04-06,1,0.0001410153293146954,0.0003127352359873862,-0.01026455184441459,0.0023098827454976073,0.9905831764260591
2017-04-10,0,-1.7058662502981265e-05,0.0001283485507749541,-0.01026455184441459,0.0029829697683844635,0.9905855279096687
2017-04-12,1,0.0005358805296365218,0.000719869016892705,-0.012349518316835076,0.0029829697683844635,0.9893665572307531
2017-04-17,1,0.0008190990184566768,0.0010547264465207895,-0.012349518316835076,0.0027553378288174336,0.9894504411386272
2017-04-19,1,0.00035925611269669124,0.0005566208731248094,-0.013299036083766518,0.002112845020569864,0.9887219918690994
2017-04-21,1,9.479802273595634e-05,0.00021815309618758552,-0.013299036083766518,0.0028617816761120516,0.9880941192069651
2017-04-25,1,0.0012306927959801822,0.001486851323736407,-0.013299036083766518,0.0003411947854339084,0.9895655104825839
2017-04-27,1,0.00011319724617717136,0.00019417969516958943,-0.011284232579307996,0.0015365673131185421,0.9908177120070253
2017-05-01,-1,-0.0006743905896147047,-0.000626113681280287,-0.011284232579307996,0.0015365673131185421,0.9907359942464102
2017-05-03,-1,-0.0007099199015669773,-0.0006474277558304899,-0.011284232579307996,0.003723999264748984,0.9896515657796656
2017-05-05,-1,-0.0013845990215377378,-0.0012547077199187569,-0.009123331990031975,0.00618856318594046,0.990047321094587
2017-05-09,-1,-0.0014766715994833164,-0.0013313510318933557,-0.009123331990031975,0.00618856318594046,0.9900936634436547
2017-05-11,-1,-0.002155956470624807,-0.0019312106351009918,-0.0069852058227448475,0.008050379558866755,0.9902262376216544
2017-05-15,-1,-0.001849737813623911,-0.0016325310972560847,-0.0069852058227448475,0.007541703743164638,0.9907513424505869
2017-05-17,-1,-0.002454554335411493,-0.0021829018328082175,-0.0069852058227448475,0.007541703743164638,0.9900293487869128
2017-05-19,-1,-0.002092238554280569,-0.0018893056764411609,-0.0069852058227448475,0.009050638099739976,0.9885323013556101
2017-05-23,-1,-0.0022898109985077025,-0.0020696266887598397,-0.00556964666705018,0.017340657771547256,0.9853266366282376
2017-05-25,-1,-0.002097750290361742,-0.001880380634319162,-0.00556964666705018,0.012162221137965909,0.9860356886429675
2017-05-30,-1,-0.0020454199960997024,-0.0018919693150682164,-0.0032702162452231667,0.012162221137965909,0.9856591018957248
2017-06-01,-1,-0.0011014381573383665,-0.0010667616878927968,-0.00556964666705018,0.01105693662413244,0.9860389067635849
2017-06-05,-1,-0.0002491163330919112,-0.00015914802729156746,-0.00556964666705018,0.009050638099739976,0.9870652670339449
2017-06-07,-1,-0.0009866129513915296,-0.0009359143388036728,-0.004486670280644555,0.01105693662413244,0.9855896561599614
2017-06-09,-1,-0.0005637062710067695,-0.0005416873912014067,-0.004486670280644555,0.00953090917702609,0.9861071803700292
2017-06-13,-1,-0.0006033965556759435,-0.0005651475513754054,-0.007501725070054709,0.012286869446274683,0.9857415039878177
2017-06-15,-1,-0.001463978342906894,-0.0013061230993930903,-0.0030976223876623635,0.012286869446274683,0.9864083845946524
2017-06-19,-1,-0.0007658868178146599,-0.0006795521164669205,-0.001842708155502321,0.011996994090627416,0.9884503152613082
2017-06-21,1,0.0013490529478039455,0.0015572879098242746,-0.0020095225113733956,0.007633186835999385,0.9916430088375872
2017-06-23,1,0.0012387032396182457,0.0014329753096646368,-0.0020095225113733956,0.007633186835999385,0.991603340095776
2017-06-27,-1,-0.0004000897276508501,-0.00030348369772252153,-0.0020095225113733956,0.009582147229946072,0.9905951143493352
2017-06-29,-1,-0.0002698494212166933,-0.00019126727159423995,-0.0020095225113733956,0.007633186835999385,0.9903818503445433
2017-07-03,1,6.43354021416023e-05,7.941354009717133e-05,-0.0019316617140873672,0.007810249499638675,0.99003426466346
2017-07-06,1,0.00039621548672219564,0.0004664602348548564,-0.0032529791308094622,0.007302737914648852,0.9911498227755091
2017-07-10,1,0.0012631433230061192,0.0015213459118019314,-0.0032529791308094622,0.007915364733246721,0.9909598794197837
2017-07-12,1,0.0017403129516279751,0.0020937229991018842,-0.003228421555969591,0.007514838989490823,0.991416848466439
2017-07-14,1,0.0021979289435552513,0.0025894214632137275,-0.006038096426680134,0.006784295308262519,0.9904845704406635
2017-07-18,1,0.0022727694828916425,0.0026608658599672273,-0.006038096426680134,0.007514838989490823,0.9903193017307288
2017-07-20,1,0.0024110307082349483,0.0028596677223688806,-0.00624181615342531,0.007803582399537777,0.9881530430561559
2017-07-24,1,0.002996582348334872,0.0035346486200569286,-0.007303290956491283,0.007803582399537777,0.9878140005667355
2017-07-26,1,0.004563263938409845,0.00533754113130895,-0.009692755419745125,0.007803582399537777,0.9890977906831235
2017-07-28,1,0.0031231487947765615,0.0036587270428955912,-0.007303290956491283,0.008515537938256462,0.9901150723256832
2017-08-01,1,0.0035345902723720396,0.0041382847069105465,-0.007303290956491283,0.00912532580539515,0.9893652179946268
2017-08-03,1,0.0030689636128323986,0.003613499984607538,-0.0028517033027074426,0.010608520968394845,0.9870184589467137
2017-08-07,1,0.003735232531435639,0.004371202773229738,-0.006839477225294982,0.01297048960950938,0.9862546401848351
2017-08-09,1,0.0025173019331052116,0.0028817175133339637,-0.003354059375849642,0.01569493898389214,0.9855032271212368
2017-08-11,1,0.0019525842579579105,0.002239138604855224,0.0001411120283042901,0.01569493898389214,0.9866169651507826
2017-08-15,1,0.002354228269661544,0.0026888291363033915,-0.003354059375849642,0.01569493898389214,0.9859930096844058
2017-08-17,1,0.0018806458669709896,0.0021528388802353467,-0.0028785287485966404,0.01297048960950938,0.9878488664213074
2017-08-21,1,0.0013198835116297737,0.0014647658434678152,-0.0028785287485966404,0.01297048960950938,0.9877180630693554
2017-08-23,1,0.0015302498262187824,0.0017451317340061961,-0.0028785287485966404,0.010970826219179167,0.988315852690738
2017-08-25,1,0.0017156414386849475,0.0019511690421698813,-0.0040910790452551166,0.01168022289810785,0.988220333152777
2017-08-29,1,0.0024959100414564286,0.0028086469497150507,-0.007958203154284318,0.00995689122318502,0.988550387100878
2017-08-31,1,0.004901541058821476,0.005514076488403111,-0.009110351757229861,0.008038364472799198,0.9905095719839162
2017-09-05,1,0.004385473516443327,0.0049196783140118255,-0.007799219370962318,0.008038364472799198,0.9918880455241799
2017-09-07,1,0.00537317963426287,0.006072073922915894,-0.008074512430570892,0.008038364472799198,0.9900881060619634
2017-09-11,1,0.004975733527556922,0.0055956328782093825,-0.008074512430570892,0.0059156725463795955,0.9903545198360301
2017-09-13,1,0.00453129638673461,0.005093080108530117,-0.007506934189849995,0.00593921115013223,0.991360908073088
2017-09-15,1,0.005320184043007223,0.006075834450897662,-0.004182843398457975,0.009821674943068216,0.9913988470731798
2017-09-19,1,0.004250663679968318,0.004789410011462722,-0.003688552644336676,0.0102703324693989,0.9911681600368129
2017-09-21,1,0.0033298246578049168,0.003702081059800396,-0.003688552644336676,0.0102703324693989,0.9914087362198989
2017-09-25,1,0.0034806424307701474,0.0038695627131898024,-0.006646874130625939,0.009821674943068216,0.9897108034788814
2017-09-27,1,0.002196736860113355,0.0023464521046336283,-0.006646874130625939,0.009821674943068216,0.9885161423891518
2017-09-29,1,0.002332929717770604,0.0024889762015527644,-0.006646874130625939,0.00593921115013223,0.9881105759492574
