JNU-Tangyin/eata/results/Batch4_SP500/Batch4_SP500-SEE.csv
Date,Action,Predicted_Q25,Predicted_Q75,Actual_Q25,Actual_Q75,RL_Reward
2010-12-14,0,0.0,0.0,0.00010245110062468592,0.006151056074910748,0.9951660207677209
2010-12-16,0,0.0,0.0,0.00010245110062468592,0.007786493864379182,0.9947624056075345
2010-12-20,0,0.0,0.0,-0.0011753341269977492,0.007786493864379182,0.9929372989664474
2010-12-22,0,0.0,0.0,-0.002940702201968998,0.0062549393375807,0.9930626292478495
2010-12-27,1,0.003504488753771623,0.003933391436710606,-0.001759419357249287,0.008515769608933873,0.9907126810178901
2010-12-29,1,0.003501842109458325,0.003912383419075209,-0.002825207161686501,0.009076341053454888,0.9900218722538239
2010-12-31,1,0.0033100608801126096,0.003700837933470442,-0.002861955264465759,0.009076341053454888,0.9894185321763269
2011-01-04,1,0.0026221002990030203,0.0028399764916790782,-0.002861955264465759,0.009076341053454888,0.9874108347570122
2011-01-06,1,0.002763012022315523,0.002988590834488074,-0.002861955264465759,0.010947152158574848,0.9865926499502311
2011-01-10,1,0.0028792239211029034,0.0031281685444876604,-0.002861955264465759,0.010947152158574848,0.9865603643571091
2011-01-12,1,0.0025943185741515067,0.002740077903966291,-0.0057381828512000545,0.010947152158574848,0.9861791643125407
2011-01-14,1,0.0024386985727458503,0.002477052030632488,-0.0057381828512000545,0.005765871640086133,0.9867566518377096
2011-01-19,0,0.0,0.0,-0.002895294302309067,0.005765871640086133,0.9888430553245713
2011-01-21,0,0.0,0.0,-0.002458958854670601,0.005765871640086133,0.9891448129122454
2011-01-25,1,0.002945089448047608,0.0030328991318916546,-0.0029089492288019055,0.005655737361734502,0.9902803658882036
2011-01-27,1,0.0035880826696062847,0.0038130707326388654,-0.005271686802107552,0.005655737361734502,0.9896955420970733
2011-01-31,1,0.002816349481755461,0.002938969323273829,-0.005271686802107552,0.005655737361734502,0.9897029733304147
2011-02-02,1,0.0038666257785574315,0.004152319101432473,-0.0029089492288019055,0.005655737361734502,0.9918835742479112
2011-02-04,1,0.004635352076018947,0.005043416145175417,-0.009897409398112523,0.004846265618587026,0.9907419450117744
2011-02-08,1,0.004817028280361041,0.005247895933018124,-0.009897409398112523,0.0031000774256324543,0.9898068952865039
2011-02-10,1,0.004707370003913986,0.005169219875122526,-0.014676031342127914,0.00315549376283233,0.9896929892892888
2011-02-14,1,0.004612059229061853,0.005025127120146035,-0.014676031342127914,0.002564326151493174,0.9886062671388413
2011-02-16,1,0.004187292108161231,0.004557037205836588,-0.01621116947882064,0.0026255370595024688,0.9879231224728696
2011-02-18,1,0.00381049694459334,0.004118914557067034,-0.01621116947882064,0.009021193332563442,0.9872765122534859
2011-02-23,1,0.002805727778787852,0.002950383338294226,-0.014676031342127914,0.009021193332563442,0.9884010797058291
2011-02-25,1,0.0021872233422612387,0.0022286368810176867,-0.010485239524372067,0.004960938855000017,0.9897231786404515
2011-03-01,1,0.0015595972093419026,0.0015764071758622932,-0.009371819155693536,0.007269299958331433,0.9903097042963598
2011-03-03,1,0.001968495378462324,0.0020032597172950665,-0.009371819155693536,0.006674264242565684,0.9904668525208703
2011-03-07,1,0.0006286714003863473,0.0007550924124196956,-0.005788359462726086,0.008517156993905697,0.9915163907687494
2011-03-09,1,0.0010354631244210446,0.0010832668531950721,-0.004179912186931168,0.006674264242565684,0.9922072130140777
2011-03-11,1,0.0006551613086670515,0.0007293835882503249,-0.005600652208156722,0.006674264242565684,0.9920293453846253
2011-03-15,1,0.00014040029081791733,0.0002616466620195358,-0.005913560714343704,0.006674264242565684,0.9921497379035596
2011-03-17,-1,-0.0007939622067566911,-0.0005432039316316353,-0.004284215022326828,0.00472734272529405,0.9935387566346002
2011-03-21,1,0.0002514383247187109,0.00040049856663005635,-0.005913560714343704,0.004173654122394536,0.9944146425876345
2011-03-23,-1,-0.0006123106471534131,-0.00031434560654720954,-0.005913560714343704,0.006419380762994619,0.9936387095847252
2011-03-25,0,0.0,0.0,-0.005913560714343704,0.006419380762994619,0.993549911348088
2011-03-29,0,0.0,0.0,-0.005913560714343704,0.007590811543511145,0.9924020845657565
2011-03-31,0,0.0,0.0,-0.005930241280091403,0.0050328584922758705,0.992732694080671
2011-04-04,0,0.0,0.0,-0.005930241280091403,0.0019211749568267015,0.9930919942797605
2011-04-06,0,0.0,0.0,-0.006392681131537212,0.0031291514728825683,0.9927375407407915
2011-04-08,0,0.0,0.0,-0.0057703417370593485,0.006501477945342344,0.9930639644871694
2011-04-12,0,0.0,0.0,-0.003579963972633618,0.007363217827940307,0.9932114493299646
2011-04-14,0,0.0,0.0,-0.005228788100508103,0.007363217827940307,0.9926471913190427
2011-04-18,-1,-0.00638400941432621,-0.005452445845673226,-0.005228788100508103,0.007516544844234592,0.9909293421991515
2011-04-20,-1,-0.000326952868598374,-0.00020894754529351874,-0.005228788100508103,0.007516544844234592,0.9928630767875851
2011-04-25,-1,-0.00022752526528904422,-0.00013620944616449346,-0.00834792204187547,0.007516544844234592,0.9918537113276787
2011-04-27,-1,-0.0028529300620455966,-0.002327480431451761,-0.006289573340801481,0.00652876770934257,0.9934855243264361
2011-04-29,-1,-0.003031280460493226,-0.0024951193660787876,-0.005731339138502537,0.00652876770934257,0.9931820525301993
2011-05-03,0,0.0,0.0,-0.00834792204187547,0.007516544844234592,0.9895828799928408
2011-05-05,0,0.0,0.0,-0.011817700438765589,0.007516544844234592,0.9860397263045869
2011-05-09,-1,-0.0027332569353498946,-0.002241406919900846,-0.011817700438765589,0.008393273260288575,0.9844029355268317
2011-05-11,-1,-0.0020714574544297374,-0.0016863535246981545,-0.011817700438765589,0.009037564323345574,0.9827115107721466
2011-05-13,-1,-0.002479675562343984,-0.0020608952833790902,-0.011817700438765589,0.009037564323345574,0.9825312738195967
2011-05-17,-1,-0.002275002497566323,-0.0019002153626288265,-0.016400279157748863,0.009148978223323435,0.9818225506313405
2011-05-19,-1,-0.0015234472626415336,-0.0012292767898098354,-0.016400279157748863,0.006049890366682469,0.9824020500615319
2011-05-23,-1,-0.002278934305119137,-0.0019100097855285505,-0.010208724332687328,0.006049890366682469,0.9830635494584937
2011-05-25,-1,-0.0026382065676400102,-0.0022168724118408105,-0.015196438726378056,0.006049890366682469,0.9824648466789431
2011-05-27,-1,-0.0022819884729754257,-0.0019160807990605008,-0.015196438726378056,0.010619921958080925,0.9820289909086325
2011-06-01,-1,-0.005084817331026226,-0.004412278426683701,-0.008515941489000808,0.010919457474826744,0.9843284219690877
2011-06-03,-1,-0.007791922147912087,-0.006814537616213718,-0.0042378575835962055,0.01548197730995465,0.9849358560697006
2011-06-07,0,0.0,0.0,-0.006622840579227631,0.00722007950321395,0.9892924917826098
2011-06-09,0,0.0,0.0,-0.007949561729957075,0.004429219837857473,0.9905328640666192
2011-06-13,0,0.0,0.0,-0.007670180298202547,0.00722007950321395,0.9900884251341405
2011-06-15,0,0.0,0.0,-0.009959371679083416,0.004429219837857473,0.9903815186154445
2011-06-17,0,0.0,0.0,-0.010607862565636585,0.004429219837857473,0.9897444814230806
2011-06-21,0,0.0,0.0,-0.010607862565636585,0.004429219837857473,0.9894118066777486
2011-06-23,0,0.0,0.0,-0.009959371679083416,0.00831889045852422,0.9886859505367808
2011-06-27,0,0.0,0.0,-0.011248874089271072,0.004429219837857473,0.9881222071157603
2011-06-29,-1,-0.0008390256095548235,-0.0007614404443697964,-0.01353359596417385,0.003469036886908324,0.9874978639237105
2011-07-01,0,0.0,0.0,-0.01353359596417385,0.0022361486339166564,0.9877194628140052
2011-07-06,0,0.0,0.0,-0.014425882030008575,0.0022361486339166564,0.9864265269238514
2011-07-08,1,0.0014904040745962592,0.0017078605096206472,-0.01671612099496639,-0.0011894720213261162,0.9841805079617207
2011-07-12,0,0.0,0.0,-0.019233014852538356,-0.0011894720213261162,0.9793034024638303
2011-07-14,0,0.0,0.0,-0.022863370661776038,0.0022361486339166564,0.9764538463313311
2011-07-18,-1,-0.0017637051838178177,-0.0017275118679180442,-0.019279556424894637,0.004137340143992559,0.9764541533438033
2011-07-20,-1,-0.002168123799433808,-0.002068540933887352,-0.019279556424894637,0.004137340143992559,0.9767696763363628
2011-07-22,-1,-0.0011135058743534706,-0.0011063627929663862,-0.03132134165153224,0.002561024114795673,0.9746942710237244
2011-07-26,-1,-0.0015247057890438985,-0.0015035480986228234,-0.03132134165153224,0.004137340143992559,0.9747446979363922
2011-07-28,-1,-0.0036909809393220316,-0.0033694249157154087,-0.03702488036471876,0.007944817702733437,0.9745076572620672
2011-08-01,-1,-0.0035724905842857433,-0.0032757398284505713,-0.03702488036471876,0.01620938821181038,0.9736613248506628
2011-08-03,-1,-0.00478502834413976,-0.004329325046867894,-0.02145542994152981,0.019184023282947788,0.972798361978117
2011-08-05,0,0.0,0.0,-0.01889847638849563,0.019184023282947788,0.9730150866714281
2011-08-09,0,0.0,0.0,-0.011841486823038807,0.019184023282947788,0.9779569310059931
2011-08-11,0,0.0,0.0,-0.011841486823038807,0.01620938821181038,0.9803015081479812
2011-08-15,0,0.0,0.0,-0.011841486823038807,0.01620938821181038,0.9805244917793821
2011-08-17,0,0.0,0.0,-0.011841486823038807,0.020925191102068662,0.9778147499756783
2011-08-19,-1,-0.00835278595987815,-0.007579251841920848,-0.0099189707573561,0.020925191102068662,0.9800883857085861
2011-08-23,-1,-0.007460876178148655,-0.0068249894632164115,-0.012788429634826185,0.020925191102068662,0.9802461384053232
2011-08-25,-1,-0.007572316376390406,-0.006946571247163502,-0.012788429634826185,0.020925191102068662,0.9799155192784805
2011-08-29,-1,-0.006489402769136713,-0.006004287397096962,-0.012788429634826185,0.020925191102068662,0.9789585209774294
2011-08-31,-1,-0.0045688554545556,-0.00428836158975068,-0.019128278375410455,0.01606877190378314,0.979152506204633
2011-09-02,-1,-0.005558987440652755,-0.005156817079898785,-0.02810838961029028,0.01606877190378314,0.97579297367748
2011-09-07,-1,-0.004915594434718189,-0.004609616334945007,-0.02810838961029028,0.01606877190378314,0.9745904937844029
2011-09-09,-1,-0.0055649522061068935,-0.005187951126675583,-0.025861166855094805,0.020925191102068662,0.9735872663879187
2011-09-13,-1,-0.004149913534977093,-0.003987212483850233,-0.025861166855094805,0.021563429070644884,0.9730943097681028
2011-09-15,-1,-0.0015730942596524741,-0.0014063471050078584,-0.025861166855094805,0.016961762587917137,0.9748073501028017
2011-09-19,-1,-0.001867986253329531,-0.0017526506154817473,-0.029752743728859506,0.016961762587917137,0.9739045444386365
2011-09-21,-1,-0.002809759560701939,-0.002803498819185164,-0.028500660006502213,0.02251962690399906,0.9733711248638005
2011-09-23,-1,-0.003734582878253589,-0.0036260005943118093,-0.02072542902139949,0.02251962690399906,0.974560089897191
2011-09-27,-1,-0.0023496179806564545,-0.002283789133876571,-0.02072542902139949,0.02251962690399906,0.9746330303688386
2011-09-29,-1,-0.0029110866752376863,-0.002878465710578049,-0.016938955896957184,0.025467797648547282,0.9745502690257372
2011-10-03,-1,-0.005981405366919121,-0.005647534545489138,-0.010841430534863843,0.025467797648547282,0.9775377204319797
2011-10-05,-1,-0.003858845873457746,-0.00376129858802175,-0.013319899950640627,0.02251962690399906,0.9799325352276527
2011-10-07,-1,-0.0034449486511944315,-0.0034079672143920796,-0.009881043100181189,0.019587385959991287,0.9819237283896155
2011-10-11,0,0.0,0.0,-0.009881043100181189,0.019587385959991287,0.9826615087887575
2011-10-13,0,0.0,0.0,-0.013319899950640627,0.011952910930713555,0.9823875940973539
2011-10-17,0,0.0,0.0,-0.013319899950640627,0.019587385959991287,0.9817168562533317
2011-10-19,0,0.0,0.0,-0.013319899950640627,0.011952910930713555,0.9826682623010083
2011-10-21,-1,-0.0007136548578436162,-0.0005079621742553101,-0.017212672344119728,0.007502221288854025,0.9823577094673283
2011-10-25,-1,-0.001341764426283718,-0.0013223618727747548,-0.01705825734025041,0.007502221288854025,0.9832220353236552
2011-10-27,1,0.0009454655717708166,0.001318738524695015,-0.02055751949161425,0.006409211967016898,0.9848269031578094
2011-10-31,1,0.0007788528953899738,0.0012108173669655505,-0.01705825734025041,0.007502221288854025,0.9847436557496316
2011-11-02,0,0.0,0.0,-0.01705825734025041,0.00824543292674549,0.9829571541448895
2011-11-04,0,0.0,0.0,-0.01705825734025041,0.012849198140612954,0.9821939446580029
2011-11-08,0,0.0,0.0,-0.01705825734025041,0.012918555711414356,0.9819095931688947
2011-11-10,0,0.0,0.0,-0.01705825734025041,0.01359262082706289,0.9813837415527398
2011-11-14,0,0.0,0.0,-0.01705825734025041,0.012918555711414356,0.9818594039221283
2011-11-16,0,0.0,0.0,-0.016884250642310503,0.012918555711414356,0.981495033791938
2011-11-18,0,0.0,0.0,-0.016884250642310503,0.012918555711414356,0.980496357909209
2011-11-22,0,0.0,0.0,-0.020352046240289266,0.01359262082706289,0.9794251192529064
2011-11-25,0,0.0,0.0,-0.0159360375600313,0.01480323243196953,0.9800272222681897
2011-11-29,0,0.0,0.0,-0.0159360375600313,0.01359262082706289,0.9812844387966371
2011-12-01,0,0.0,0.0,-0.0159360375600313,0.012918555711414356,0.9829116003611859
2011-12-05,0,0.0,0.0,-0.0159360375600313,0.01233555155627519,0.9832444049048675
2011-12-07,0,0.0,0.0,-0.0159360375600313,0.010374069133167574,0.9842492480943217
2011-12-09,0,0.0,0.0,-0.012909396340477325,0.009507612489617573,0.9868887043006599
2011-12-13,0,0.0,0.0,-0.003425686556179629,0.010374069133167574,0.9874242715097594
2011-12-15,0,0.0,0.0,-0.002405672719038928,0.011947312497631993,0.9864231671738768
2011-12-19,1,0.000923870797642873,0.0012849118703552407,-0.0014259969752812853,0.012749042950566093,0.9883531977673544
2011-12-21,1,0.0012841854270581887,0.0017212346470225797,-0.0012432144832323704,0.011599777670116947,0.9906493793630176
2011-12-23,1,0.0014240397025834766,0.0018307743320901788,-0.0012432144832323704,0.011599777670116947,0.9898219645982329
2011-12-28,1,0.0005153113049898063,0.000725762641166499,-0.0017348097431567548,0.011599777670116947,0.989442178498552
2011-12-30,1,0.0008068098248116167,0.0010218349643943607,-0.002405672719038928,0.012486492723255405,0.9887459862974869
2012-01-04,1,0.0008260893514970785,0.00098946598269133,-0.003198206521460478,0.01582182017658643,0.9880451705434197
2012-01-06,1,0.0013647706848637822,0.0016527926433577893,-0.003198206521460478,0.017393670981399538,0.9869118204430206
2012-01-10,1,0.001197547487367574,0.0014524450425816788,-0.004570243155528689,0.017393670981399538,0.9867595226355459
2012-01-12,1,0.0008732233389957041,0.000949387556548912,-0.005268679923190596,0.01582182017658643,0.9857318103562361
2012-01-17,1,0.0021576569311379393,0.002410408034099957,-0.008153366981735709,0.015221470170908523,0.9861226301735888
2012-01-19,1,0.0024547812461750674,0.0027122442044713612,-0.008153366981735709,0.017393670981399538,0.984233092348629
2012-01-23,0,0.0,0.0,-0.013395850890299722,0.019260477707356324,0.9826795649328497
2012-01-25,0,0.0,0.0,-0.016637793450011415,0.017393670981399538,0.9826768259929283
2012-01-27,1,0.003184940847041254,0.003475732785141029,-0.016637793450011415,0.017393670981399538,0.9823161299548209
2012-01-31,1,0.0034793598603476334,0.0038385140483104476,-0.01586064143824984,0.015634102237513485,0.9828374762338319
2012-02-02,1,0.0027514331761714734,0.002937031778442633,-0.01586064143824984,0.00832833405190524,0.9843262398742367
2012-02-06,1,0.003656117680551051,0.003998706360120387,-0.01586064143824984,0.004951490232931354,0.9853016137661049
2012-02-08,1,0.0041012772331364,0.004598221292922324,-0.01586064143824984,0.004951490232931354,0.9851012970394675
2012-02-10,1,0.0033705434722473004,0.0037414392178308324,-0.014271310084543576,0.0034282063516417947,0.9867487418180346
2012-02-14,1,0.001395908500133819,0.0014289825319490721,-0.006237902327498991,0.0063116516068326915,0.9879609891044651
2012-02-16,1,0.002636500103314097,0.0027857342121581923,-0.006237902327498991,0.0063116516068326915,0.9899530491708302
2012-02-21,1,0.002934640133500313,0.003180303900200761,-0.007927748960624951,0.004951490232931354,0.9906250742626357
2012-02-23,1,0.0015429710923850043,0.0015553188886203472,-0.007927748960624951,0.004951490232931354,0.9919931382487366
2012-02-27,-1,-0.0004832305745445396,-0.00012810745128282288,-0.007927748960624951,0.0034282063516417947,0.992623583010559
2012-02-29,0,0.0,0.0,-0.007927748960624951,0.0048409495061032875,0.992375861667389
2012-03-02,0,0.0,0.0,-0.007927748960624951,0.0033195510106051266,0.9922708952041687
2012-03-06,0,0.0,0.0,-0.007749577073352522,0.006045463481657669,0.9911725657618317
2012-03-08,0,0.0,0.0,-0.008694544313100093,0.006045463481657669,0.9901705397641479
2012-03-12,0,0.0,0.0,-0.01150624022731957,0.006045463481657669,0.9878795356562503
2012-03-14,0,0.0,0.0,-0.01150624022731957,0.0061923516129617695,0.9880825126120004
2012-03-16,-1,-0.19475028127657582,-0.19475028127657582,-0.01150624022731957,0.0033195510106051266,0.8400797055131773
2012-03-20,1,0.001189589735556625,0.001254536344730214,-0.009195866048090301,0.005631128005480819,0.9881727430734825
2012-03-22,0,0.0,0.0,-0.007916684318349257,0.005631128005480819,0.9888224482591892
2012-03-26,1,0.001434822297018058,0.001485823954931152,-0.011179125262942364,0.005631128005480819,0.9872626423533777
2012-03-28,1,0.0009478461587390239,0.000971569168587394,-0.009218839129754245,0.00906317285263487,0.9864001572113147
2012-03-30,0,0.0,0.0,-0.009218839129754245,0.00906317285263487,0.986626994096012
2012-04-03,0,0.0,0.0,-0.012715077882419885,0.00583026817523968,0.9870707505636352
2012-04-05,0,0.0,0.0,-0.018593288920479154,0.00583026817523968,0.9851229091414265
2012-04-10,1,0.8401081642414258,0.8403265301606068,-0.009218839129754245,0.00906317285263487,0.543236670724603
2012-04-12,0,0.0,0.0,-0.009218839129754245,0.0065551118236704,0.9877708782585914
2012-04-16,-1,-0.003607396023761752,-0.0029139951316857126,-0.015234030428878978,0.0065551118236704,0.9869402704117465
2012-04-18,-1,-0.0024813180119614203,-0.0019049364028216962,-0.01794865944464581,0.004042088232577682,0.9869666189439974
2012-04-20,0,0.0,0.0,-0.01919491333720038,0.004042088232577682,0.983861540996745
2012-04-24,0,0.0,0.0,-0.01794865944464581,0.0065551118236704,0.9846192221788624
2012-04-26,0,0.0,0.0,-0.01794865944464581,0.004042088232577682,0.9853584630677399
2012-04-30,-1,-0.0007239939064593075,-0.0005313105853183536,-0.01794865944464581,0.0065551118236704,0.9850742976915723
2012-05-02,-1,-0.00042399012364271473,-0.00033133369638699896,-0.01919491333720038,0.0014051547105362976,0.9843100890036903
2012-05-04,-1,-0.003650630089329804,-0.003127300083872555,-0.01919491333720038,0.0014051547105362976,0.9868492865904321
2012-05-08,0,0.0,0.0,-0.01919491333720038,0.01058560107584644,0.9840748773544276
2012-05-10,0,0.0,0.0,-0.01919491333720038,0.006994916647018833,0.9840156909659099
2012-05-14,-1,-0.006236230307823379,-0.0052447327122509746,-0.01919491333720038,0.010909666444732746,0.9860526854284735
2012-05-16,0,0.0,0.0,-0.016148308381273093,0.0119659883767972,0.98438511290057
2012-05-18,0,0.0,0.0,-0.011981427667141078,0.0119659883767972,0.9865186125354719
2012-05-22,0,0.0,0.0,-0.011981427667141078,0.012889268043294148,0.9863690125875426
2012-05-24,0,0.0,0.0,-0.016148308381273093,0.012889268043294148,0.9859033525217482
2012-05-29,-1,-0.010039647142878699,-0.008715950868641189,-0.018590622546167754,0.00989904339509935,0.9855535358978135
2012-05-31,0,0.0,0.0,-0.018590622546167754,0.00989904339509935,0.9862780818383887
2012-06-04,0,0.0,0.0,-0.009425951693701126,0.013353966854823771,0.9866010109636252
2012-06-06,-1,-0.00817842686320109,-0.007130333564945823,-0.009425951693701126,0.00989904339509935,0.985679365163107
2012-06-08,-1,-0.007265515359275217,-0.006411487760834934,-0.0103159700156777,0.00989904339509935,0.9864838809530373
2012-06-12,-1,-0.006234370957393449,-0.005560588930908109,-0.008325237896867189,0.007124376614150987,0.987988850479903
2012-06-14,-1,-0.006234597426643413,-0.005573402016724214,-0.008325237896867189,0.007124376614150987,0.9872029721444087
2012-06-18,-1,-0.004746090739339996,-0.004345001739772845,-0.008325237896867189,0.00974364005902082,0.9874478138221496
2012-06-20,-1,-0.004289650592672258,-0.003921025184927575,-0.008325237896867189,0.00974364005902082,0.9875234787576522
2012-06-22,-1,-0.004470299321540694,-0.004097623627284519,-0.008325237896867189,0.007800636677862238,0.9886866787355015
2012-06-26,-1,-0.004886157166073258,-0.004478781956249712,-0.007398272779288394,0.007800636677862238,0.9891437159998061
2012-06-28,-1,-0.0047627872079489195,-0.004443810402611463,-0.006102748468720548,0.012553416582716697,0.9879013194020988
2012-07-02,-1,-0.0029029239218677783,-0.0027977023069785177,-0.006102748468720548,0.010941899029453563,0.9892750590341928
2012-07-05,-1,-0.0020767714059389737,-0.002057733707861108,-0.008325237896867189,0.006856215734693228,0.9849517447440542
2012-07-09,-1,-0.0033309782532504554,-0.0030828889532889645,-0.006102748468720548,0.010941899029453563,0.9829160188780152
2012-07-11,0,0.0,0.0,-0.006094485879894085,0.010941899029453563,0.9825924552215947
2012-07-13,0,0.0,0.0,-0.004853821062276477,0.009731488168906618,0.984535764807639
2012-07-17,0,0.0,0.0,-0.006094485879894085,0.007746899588895966,0.9842179352059777
2012-07-19,0,0.0,0.0,-0.0075552379873231,0.007746899588895966,0.9835720110445008
2012-07-23,0,0.0,0.0,-0.01081791323359802,0.007746899588895966,0.9826505483727772
2012-07-25,0,0.0,0.0,-0.01081791323359802,0.009501507489166516,0.9825516395176892
2012-07-27,0,0.0,0.0,-0.017399014346304,0.009501507489166516,0.9827880140072993
2012-07-31,0,0.0,0.0,-0.017399014346304,0.007746899588895966,0.9830262245606127
2012-08-02,-1,-0.003556120608869144,-0.0033189339115211854,-0.012152730808807266,0.009501507489166516,0.9829972808727035
2012-08-06,-1,-0.0009597172619936228,-0.0007987031381165705,-0.012152730808807266,0.007746899588895966,0.9855286517744237
2012-08-08,1,4.892736001795169e-05,0.000406461837697327,-0.012152730808807266,0.0078281090603714,0.9828970725352018
2012-08-10,1,9.619201615116758e-05,0.0004197901282663567,-0.012152730808807266,0.010169274813521902,0.9812056816862752
2012-08-14,-1,-0.0007634962214791243,-0.0005770485783744762,-0.010523225632907371,0.01178639372758606,0.9814936652420188
2012-08-16,0,-8.454640344674044e-05,0.0001954108615863457,-0.010523225632907371,0.01178639372758606,0.9814807498413635
2012-08-20,-1,-0.001328210219465849,-0.0012171103586191819,-0.005024030250052705,0.01178639372758606,0.9816537423953555
2012-08-22,-1,-0.0009234290774596105,-0.0007728191300049492,-0.005024030250052705,0.016260930867740962,0.9807932436124565
2012-08-24,-1,-0.0005831664213566796,-0.000299940979880095,-0.005024030250052705,0.016260930867740962,0.9815945507675656
2012-08-28,-1,-0.001073846388775526,-0.0008839284873047834,-0.007414134553503454,0.016260930867740962,0.9797331008270576
2012-08-30,1,0.0002766564626435228,0.0005323055743525031,-0.006870905408248211,0.007731394682874436,0.9852881740509432
2012-09-04,1,0.0005799442941484604,0.0009543581532833513,-0.006870905408248211,0.01317294743679974,0.9844161415962076
2012-09-06,1,0.0029076853872083276,0.003571175487526388,-0.007459293996846857,0.012555545193683787,0.9866360505594881
2012-09-10,1,0.005296523269872183,0.006350251079901347,-0.009396689018732118,0.012555545193683787,0.986105702598171
2012-09-12,1,0.005786801444691963,0.006907689688175078,-0.012283174860430832,0.007643076320630097,0.9850777843010485
2012-09-14,1,0.0064039429314603664,0.007533103612635136,-0.012283174860430832,0.005727513690147451,0.9849349169283229
2012-09-18,1,0.006858582859503815,0.008141691871755036,-0.009345242560155294,0.010445778115151263,0.9849683891636143
2012-09-20,1,0.008159440471286484,0.00961870613511078,-0.009345242560155294,0.012882353977012971,0.9850863848236748
2012-09-24,1,0.0074764414745145166,0.00882306731320964,-0.009345242560155294,0.012882353977012971,0.984516214817863
2012-09-26,1,0.0046680683349610745,0.005500119402815397,-0.009345242560155294,0.012882353977012971,0.9865597736603567
2012-09-28,1,0.004748075327117223,0.005630161286454565,-0.009345242560155294,0.012882353977012971,0.9866247686207534
2012-10-02,1,0.004672826101632953,0.00556293746335468,-0.00782829937220927,0.01560834303482525,0.9862955811399846
2012-10-04,1,0.0043040720231092965,0.005076379065190317,-0.00782829937220927,0.01560834303482525,0.9865949493717652
2012-10-08,1,0.0041704934525510304,0.004835446521785988,-0.00782829937220927,0.012108822725411065,0.9876076465763548
2012-10-10,1,0.00247666184604166,0.0028190184489819362,-0.004411314640662348,0.012108822725411065,0.9881367949705364
2012-10-12,1,0.0023378039206598715,0.002665588878549399,-0.0015013287169028172,0.01560834303482525,0.9875031028235627
2012-10-16,1,0.0035076329965799576,0.003987228447546084,-0.005873461725954383,0.012108822725411065,0.9869972774982587
2012-10-18,1,0.004779614653955122,0.005444551105860125,-0.006652849567330324,0.010957356974361137,0.9868904108961958
2012-10-22,1,0.0030188131668134003,0.0033713196122687455,-0.0052849167588506045,0.010957356974361137,0.9886480234357032
2012-10-24,1,0.0013799309332882038,0.0014168961804217645,-0.004411314640662348,0.014068051528440787,0.9887184004688644
2012-10-26,1,0.0022909911702915153,0.0025426674660670103,-0.0046711105877876614,0.01358955667349835,0.9887144463215519
2012-11-01,1,0.003887402816236102,0.00434118053612989,-0.006614363228554358,0.005706404445917862,0.9899162818628254
2012-11-05,1,0.004039944743856595,0.004509498806859792,-0.008303025452313761,0.0035891177982363036,0.988896781565266
2012-11-07,1,0.0032561474974485563,0.0035957827588825476,-0.006614363228554358,0.005706404445917862,0.9894190464251548
2012-11-09,1,0.0033002751703677916,0.0036526301051113645,-0.008303025452313761,0.004074519663047028,0.9892000038521664
2012-11-13,1,0.004616148535686277,0.005163104923182114,-0.008303025452313761,0.0020773356490334017,0.988456377777277
2012-11-15,1,0.0026013596931418223,0.0028496974170595557,-0.007978771038435766,0.003148726851760854,0.9909879235729402
2012-11-19,1,0.002474143463811612,0.0026510361811865786,-0.007978771038435766,0.003795273985666788,0.9910834119209497
2012-11-21,1,0.0019587276736938893,0.0020128539637705627,-0.007978771038435766,0.007858327373933296,0.9895177020471996
2012-11-26,1,0.0033503065482178005,0.003654239405819553,-0.007978771038435766,0.007858327373933296,0.9898018559560992
2012-11-28,1,0.003161904427351571,0.003494544495999098,-0.006244318004130822,0.007858327373933296,0.9900294788484704
2012-11-30,1,0.0023653936881463046,0.002544866064109648,-0.006244318004130822,0.010786357514175114,0.9887222050385768
2012-12-04,1,0.001138605603876379,0.0011496757976821453,-0.005045478174193866,0.01259925812264856,0.9887041148433577
2012-12-06,1,0.0014580748414253326,0.0014635440356021623,-0.005045478174193866,0.010786357514175114,0.9892442963846483
2012-12-10,1,0.0010838901843036007,0.001114248897881756,-0.004645391460676448,0.010786357514175114,0.989865934473065
2012-12-12,1,0.0006694268785216174,0.0007253473902973577,-0.0009568288500388629,0.010786357514175114,0.9900732377702257
2012-12-14,-1,-0.0005283951465019146,-0.0002933668346118757,-0.0006819317685304473,0.010786357514175114,0.9903402355256171
2012-12-18,1,0.0005541871385052917,0.0006868328845447851,-0.0006819317685304473,0.011873022065551683,0.9908570547096769
2012-12-20,1,0.0028230375249886346,0.0030706419300869613,-0.0018768608750250864,0.007465186591643967,0.9931010582732791
2012-12-24,1,0.0034144275403779696,0.003765832250131898,-0.0018768608750250864,0.006055802768209551,0.9934696555868845
2012-12-27,1,9.838798506521095e-05,0.00039958677905305325,-0.0003983097021648797,0.006055802768209551,0.9926363622388268
2012-12-31,1,0.0013240853805268943,0.0013997373104503458,-0.0003983097021648797,0.0043908538546922095,0.9947252394342908
2013-01-03,1,0.0019990460413677816,0.002007559620463951,-0.0003983097021648797,0.0043908538546922095,0.9950886478217229
2013-01-07,1,0.0022136740708764077,0.0022580507894896006,-0.0015962223888415208,0.0043908538546922095,0.9935412956787446
2013-01-09,1,0.0016732447768379854,0.0017419576325330647,-0.0018858116155710924,0.005371351495223935,0.9925727204212246
2013-01-11,1,0.0016646822205049635,0.0017231086999004784,-0.0018858116155710924,0.005371351495223935,0.9924702926985373
2013-01-15,1,0.00055705866768403,0.0008257170164059341,-0.0030220537385788407,0.004070994467602471,0.9924430414400475
2013-01-17,1,0.001610779653022406,0.001749467644222908,-0.0030220537385788407,0.003339439755455674,0.9926040639224959
2013-01-22,1,0.0012433384414962405,0.001466074402179871,-0.007547664561871176,0.004070994467602471,0.9870928160510768
2013-01-24,1,0.000662785443087176,0.0009915349768537124,-0.007547664561871176,0.008737906426024865,0.9862767472847107
2013-01-28,1,0.0012607049586748286,0.0014315691288965362,-0.0030220537385788407,0.017876454737607777,0.9859576517007197
2013-01-30,1,0.0007229341244921639,0.000991388965011186,-0.00221333573781166,0.017876454737607777,0.984760384900153
2013-02-01,1,0.002512991034681053,0.002584480603168413,-0.00221333573781166,0.017062258554992958,0.9856768721302046
2013-02-05,1,0.0037962521443042413,0.004120453044487679,-0.00221333573781166,0.014266518285299738,0.9861479815057114
2013-02-07,1,0.0033949147332053486,0.0036766439083328996,0.0005397361088501348,0.014266518285299738,0.9868385910855064
2013-02-11,1,0.0035699543277853832,0.003937290847352687,0.0005397361088501348,0.015235333186031853,0.9867075076610264
2013-02-13,1,0.002881622298491032,0.0031211645055862587,0.0018994605395991006,0.0187356007121576,0.9845707711516731
2013-02-15,0,0.0,0.0,0.0018994605395991006,0.017062258554992958,0.9833921510822067
2013-02-20,0,0.0,0.0,0.0018994605395991006,0.015235333186031853,0.988571218403458
2013-02-22,0,0.0,0.0,0.0004632920970628093,0.01369784837509238,0.9880302888830061
2013-02-26,0,0.0,0.0,0.0004632920970628093,0.01369784837509238,0.988319897484761
2013-02-28,0,0.0,0.0,-0.0012815182590214156,0.012093748976384204,0.9894345527399097
2013-03-04,0,0.0,0.0,-0.006289566306578526,0.012093748976384204,0.987750364743098
2013-03-06,0,0.0,0.0,-0.00898540587620382,0.007612538728445969,0.987087905968016
2013-03-08,0,0.0,0.0,-0.00898540587620382,0.012416687276628242,0.9863712696894954
2013-03-12,0,0.0,0.0,-0.00898540587620382,0.012631301805962654,0.9855638434517286
2013-03-14,1,0.008249311095605514,0.00905861438145916,-0.010454844686293957,0.006448617852473024,0.9848551718582205
2013-03-18,1,0.008167684436747086,0.009006115639949873,-0.011194833495440404,0.009858027263358556,0.982559665133431
2013-03-20,0,0.0,0.0,-0.01450816610969935,0.006448617852473024,0.983747452020314
2013-03-22,0,0.0,0.0,-0.011422199913172315,0.01082263379242505,0.9844069159337042
2013-03-26,1,0.0073124883201532735,0.007818390175393482,-0.011422199913172315,0.010530972060987886,0.9829890820582636
2013-03-28,1,0.007818456403529453,0.008507754926607259,-0.01450816610969935,0.011745478645289891,0.9821793601483358
2013-04-02,0,0.0,0.0,-0.010992819555452851,0.013915429463197931,0.984395231510353
2013-04-04,0,0.0,0.0,-0.010992819555452851,0.013915429463197931,0.9854203612677562
2013-04-08,0,0.0,0.0,-0.010992819555452851,0.013915429463197931,0.9842727061810095
2013-04-10,1,0.0038123140958967157,0.004030381004014958,-0.010992819555452851,0.012104761012691392,0.9866203330984586
2013-04-12,1,0.0025803470478797203,0.0026190100762142204,-0.005434316588911027,0.013915429463197931,0.9864231385617119
2013-04-16,0,0.0,0.0,-0.005334897756562237,0.013915429463197931,0.9880037402065837
2013-04-18,0,0.0,0.0,0.0007996645458233289,0.013915429463197931,0.9887217661219971
2013-04-22,0,0.0,0.0,-0.0013901994642411914,0.012764726805480317,0.9890948142187262
2013-04-24,0,0.0,0.0,-0.0030767490054056674,0.011770420682809469,0.9896845732240676
2013-04-26,0,0.0,0.0,-0.0023083863839106116,0.011770420682809469,0.9909260026057003
2013-04-30,0,0.0,0.0,-0.0023083863839106116,0.011770420682809469,0.9904098978699272
2013-05-02,-1,-0.0012582698970089847,-0.000774150479232089,-0.0030767490054056674,0.011770420682809469,0.9908449816253377
2013-05-06,0,-0.00012414315633268525,0.0002547168513480577,-0.0030767490054056674,0.01072824953774439,0.9921668882102717
2013-05-08,-1,-0.0007353657015487186,-0.00025136896743877934,-0.003962887900686317,0.01072824953774439,0.9903829219421036
2013-05-10,-1,-0.000948295305084755,-0.0004026425736916386,-0.00599330866732765,0.01072824953774439,0.9891020313641542
2013-05-14,0,-0.0003767807084551992,3.9864764330468623e-05,-0.008246335593713756,0.007614208654188008,0.9890096060699599
2013-05-16,1,0.0007226588014997126,0.0009613768185824432,-0.008246335593713756,0.007614208654188008,0.9889421334238094
2013-05-20,1,0.0007657942951535622,0.0009880620807326862,-0.008246335593713756,0.014864832562718509,0.9881140119892138
2013-05-22,0,-4.140827297525497e-05,0.0003058476094029329,-0.011299098340596845,0.014864832562718509,0.9863702608272388
2013-05-24,1,4.0464594745535085e-05,0.00036456788190044665,-0.012561032387987517,0.014864832562718509,0.9852568038119126
2013-05-29,1,0.0010587693602917198,0.001239748992639823,-0.012561032387987517,0.014864832562718509,0.9846575487022264
2013-05-31,1,0.0003066662978948783,0.0005681828950502807,-0.012561032387987517,0.0175099869676227,0.9844153736505985
2013-06-04,1,0.0008539081467554009,0.0010507077016362614,-0.012561032387987517,0.0175099869676227,0.9840501824631442
2013-06-06,-1,-0.0006732101729596141,-0.0002943521869881744,-0.011299098340596845,0.018067982583887914,0.9841733802696567
2013-06-10,0,-0.00029581052032226496,5.4355851836593414e-05,-0.005811128759044238,0.0175099869676227,0.9854094093058268
2013-06-12,-1,-0.000957836583118608,-0.0005702261860768298,-8.876991073600684e-06,0.018605072094628403,0.984304009277389
2013-06-14,-1,-0.0004874257207449252,-0.00015381314268054884,0.0020887930943433264,0.018605072094628403,0.9847655932472869
2013-06-18,1,0.0003502516093345172,0.0005929911164363367,-0.002817968372475032,0.018605072094628403,0.9863857712228922
2013-06-20,-1,-0.0018129774559596597,-0.0012880479619279306,0.00018040448360665223,0.018605072094628403,0.9870317329045383
2013-06-24,-1,-0.0032008054636866417,-0.0025042787279983946,-8.756934827862731e-05,0.018605072094628403,0.9870545852272482
2013-06-26,-1,-0.0017176161294021463,-0.0012237585886848438,-0.0036523590521003358,0.014115863032702215,0.9883101789524384
2013-06-28,-1,-0.0010860327930010726,-0.000689725841754499,-0.00453196529770961,0.01261198168426105,0.9891456472165645
2013-07-02,-1,-0.0006173211741380266,-0.00024542786145027103,-0.00453196529770961,0.011359993620460083,0.9901191115017756
2013-07-05,1,0.0003402757213588559,0.000624506571383911,-0.00453196529770961,0.011395931867002714,0.9867339580725389
2013-07-09,1,0.0004637869306851261,0.0007581660379670396,-0.0067562781070529855,0.010707843016545277,0.9871776297574866
2013-07-11,1,0.002206237791041162,0.0022646428902820745,-0.0067562781070529855,0.008053501495171795,0.9890068313614252
2013-07-15,1,0.003223984587482851,0.0033956822929715846,-0.0067562781070529855,0.004412786896281981,0.9889362133146081
2013-07-17,1,0.00328210479292456,0.0035000989006166747,-0.0067562781070529855,0.004412786896281981,0.9892324122034466
2013-07-19,1,0.003550594298490542,0.0038491351789955988,-0.008017126969806918,0.0028182550962707266,0.9875941886218926
2013-07-23,1,0.0031322468513156317,0.0034193241996124065,-0.0069687649992979375,0.00414814906989972,0.9879902222609976
2013-07-25,1,0.003202443700743879,0.0035065976965644157,-0.004630968404659954,0.0031681056243769066,0.9888954739626006
2013-07-29,1,0.0025954702011742286,0.0028012148618464165,-0.00354484886197753,0.00414814906989972,0.9888016963623208
2013-07-31,1,0.0028710591682950238,0.003119312086091359,-0.004630968404659954,0.0031681056243769066,0.9867979739049157
2013-08-02,1,0.00677513565402562,0.007554098424734004,-0.004630968404659954,0.002766498336271629,0.9886336282968669
2013-08-06,0,0.0,0.0,-0.0016495952935359623,0.0037249377282592474,0.9910901492168978
2013-08-08,0,0.0,0.0,-0.0016495952935359623,0.004805082728470909,0.990888639869964
2013-08-12,1,0.0072249747256462145,0.008158096736785851,-0.0016495952935359623,0.007527983807520734,0.9882414789180645
2013-08-14,0,0.0,0.0,-0.011479354641268341,0.007527983807520734,0.9883406206831138
2013-08-16,0,0.0,0.0,-0.0016495952935359623,0.010351479952567903,0.9893145010812997
2013-08-20,0,0.0,0.0,-0.0016495952935359623,0.010750585910808146,0.9886881479500705
2013-08-22,0,0.0,0.0,-0.011479354641268341,0.010750585910808146,0.986010757425236
2013-08-26,0,0.0,0.0,-0.01458980160349839,0.010351479952567903,0.9838829164003311
2013-08-28,0,0.0,0.0,-0.011479354641268341,0.010750585910808146,0.9848520484534542
2013-08-30,0,0.0,0.0,-0.011701295718198541,0.01042973464506668,0.9846292335364292
2013-09-04,1,0.0032897818257689574,0.0034827526669767074,-0.013341814270539935,0.010349809454745248,0.98492912731142
2013-09-06,0,0.0,0.0,-0.013341814270539935,0.010349809454745248,0.9843830383659404
2013-09-10,0,0.0,0.0,-0.01458980160349839,0.00908866269757401,0.9848895158438825
2013-09-12,1,0.0017841290117431787,0.0019121036310645338,-0.013865527896661577,0.009939824300257038,0.9842772830702986
2013-09-16,1,0.002527738479797813,0.0025333292065092047,-0.013865527896661577,0.00908866269757401,0.9844249631981827
2013-09-18,1,0.0018194437556646014,0.0019419943124017744,-0.011848143987842341,0.006739465415592232,0.9857972351500488
2013-09-20,0,0.0,0.0,-0.007120640298124612,0.00908866269757401,0.9876515601532141
2013-09-24,0,0.0,0.0,-0.005113056096642138,0.009939824300257038,0.9899166497247538
2013-09-26,-1,-0.001365968331813727,-0.0009409527383165183,-0.007120640298124612,0.009939824300257038,0.9898263516959768
2013-09-30,-1,-0.0021568268987641843,-0.0016349917755818881,-0.006598524295161346,0.009939824300257038,0.9900025644951432
2013-10-02,-1,-0.0022948383053922,-0.0017670106147334903,-0.005113056096642138,0.014883855705597094,0.9870649486049423
2013-10-04,-1,-0.0020970128952743504,-0.0016223685031923909,-0.005049258733392857,0.015868105555227698,0.9861493266260166
2013-10-08,-1,-0.002338426507804609,-0.0018601527957629678,-0.005049258733392857,0.015868105555227698,0.9861290381515638
2013-10-10,-1,-0.0015956421168336384,-0.001204969416178741,-0.00566511776381637,0.014883855705597094,0.986930288264295
2013-10-14,-1,-0.0019832814305031678,-0.0015345517177746968,-0.00566511776381637,0.014883855705597094,0.9860957706112654
2013-10-16,-1,-0.0023426044790463424,-0.0018580684688191934,-0.00580871345545955,0.014883855705597094,0.986002744118664
2013-10-18,-1,-0.0009372690892492593,-0.0006504041077871959,-0.00580871345545955,0.014883855705597094,0.9862188430768846
2013-10-22,-1,-0.0008572180067700996,-0.0005459755220760244,-0.006795400419558841,0.011825952767220052,0.9867650361466136
2013-10-24,-1,-0.00044784100287087133,-0.0002189119043950297,-0.006795400419558841,0.012087845775766408,0.9850251257145478
2013-10-28,-1,-0.001920182549167274,-0.0014529185443504992,-0.006795400419558841,0.01312122589190522,0.9844714519885281
2013-10-30,1,0.0010779804824267362,0.0011721292217641303,-0.006795400419558841,0.010592332319013026,0.988090469449188
2013-11-01,1,0.0011909618166683115,0.0013248106347708297,-0.00825242268824162,0.00943672239556841,0.9891246483659311
2013-11-05,1,0.0009402495909371859,0.0010800972519311057,-0.007306172075771886,0.005922660682311476,0.9902452209170601
2013-11-07,1,0.0006407021190640383,0.0007719227301981526,-0.007306172075771886,0.00943672239556841,0.9889302860195274
2013-11-11,1,0.00020210289462183517,0.0004646898949603425,-0.00825242268824162,0.006685944958769244,0.9887139694993569
2013-11-13,-1,-0.0010466000389800568,-0.0005731089688884201,-0.009576481886900585,0.006857412257393669,0.987252194540603
2013-11-15,1,0.0004696364829915085,0.0007178227147398709,-0.009576481886900585,0.00620005816168446,0.9880622341561371
2013-11-19,0,-6.768465942383448e-05,0.0002307877414696797,-0.009576481886900585,0.010166106921819587,0.9871071623185768
2013-11-21,1,0.0012580567641190894,0.0013730018761626231,-0.008198769308421875,0.010166106921819587,0.9895015661811888
2013-11-25,1,0.0016325365895695175,0.0016437407421365838,-0.0072882876158319706,0.010166106921819587,0.989237961623912
2013-11-27,1,0.001826753922351271,0.001865192473945538,-0.0072882876158319706,0.010166106921819587,0.9889654658880946
2013-12-02,1,0.001886976740763122,0.0020062734050308633,-0.002788644158647848,0.010166106921819587,0.9894471028439629
2013-12-04,1,0.0021128030369222954,0.002276450116829874,-0.0050462058898934304,0.010166106921819587,0.988881692870897
2013-12-06,1,0.0025711596546111825,0.002785265371097655,-0.002788644158647848,0.009251849119189975,0.9908607173304939
2013-12-10,1,0.0023787683596908585,0.0025636689301201266,-0.002788644158647848,0.008757091407820444,0.991404209765414
2013-12-12,1,0.0008656483348987321,0.0009175318318097672,-0.002788644158647848,0.008757091407820444,0.9916624672351366
2013-12-16,1,0.0011940348097645302,0.001206425747339077,-0.003477252502405086,0.008757091407820444,0.9913974656047809
2013-12-18,1,0.0014124224652795334,0.001420375096941829,-0.003477252502405086,0.00815518942928148,0.9917792033852433
2013-12-20,1,0.0018308034163063468,0.0018931062815630562,-0.003477252502405086,0.005186635858372226,0.9922581860946696
2013-12-24,1,0.004624572566719607,0.005281520407572082,-0.008957396720570226,0.0024461936903224036,0.9890318690782717
2013-12-27,1,0.0038544358322509967,0.004365734609320154,-0.008957396720570226,0.0024461936903224036,0.9896294688503413
2013-12-31,1,0.003875916188723634,0.004380333813179331,-0.008957396720570226,0.0024461936903224036,0.9897389337625869
2014-01-03,1,0.0033951527264809303,0.003843542970518043,-0.01121004265575659,0.0024461936903224036,0.9884349609894437
2014-01-07,1,0.0035652489545074753,0.0040349164977241826,-0.01121004265575659,0.0046524996509097,0.9878096809551755
2014-01-09,1,0.002470973624429809,0.0027277369698874704,-0.019317853161972515,0.008656158992392464,0.9846219083001231
2014-01-13,1,0.0020106891688013327,0.002184485186084371,-0.009380694454955991,0.012871918706987765,0.9844786165796375
2014-01-15,1,0.0022449183815527766,0.0024496825262074716,-0.019609704123069296,0.012851966669876147,0.9834584834198538
2014-01-17,1,0.0017998147593459566,0.001957294582279493,-0.010581879389577206,0.012851966669876147,0.9837695353521155
2014-01-22,1,0.0010483148538850341,0.0010644612819993892,-0.01154604034390157,0.012851966669876147,0.9831040000500183
2014-01-24,-1,-0.0008541697200229899,-0.0006302895655178286,-0.00483258159778604,0.012851966669876147,0.9856316038376857
2014-01-28,-1,-0.00020906613471293736,-0.00012084672007184544,-0.00669280652856675,0.014030501696856823,0.9843387655330156
2014-01-30,1,0.00010915452065770497,0.0001628260291534928,-0.00669280652856675,0.016171746260074345,0.9839598617431791
2014-02-03,-1,-0.0006853572329963984,-0.0005892310381417846,-0.005075801868096069,0.017849610474924095,0.9842111064896463
2014-02-05,0,-5.241310425998697e-05,9.222032852891334e-06,-0.006165095808466635,0.017849610474924095,0.9853414674498799
2014-02-07,1,0.0008824354114935576,0.0009664288637529659,-0.007372783915864539,0.01441798144444121,0.9878862525645656
2014-02-11,1,0.0018264096134866618,0.0020381233807899774,-0.0075079172119942176,0.01035131898039352,0.9889962384159606
2014-02-13,1,0.0004018406082061142,0.0004674060410920389,-0.007973535000862512,0.005620380126092068,0.9896753861769418
2014-02-18,-1,-0.000368492181469974,-0.0001563974542771418,-0.007973535000862512,0.008227732597151505,0.989488805144403
2014-02-20,0,-7.142059088338236e-05,9.328724211586843e-05,-0.00893147160308931,0.007702007235137464,0.9889726046593597
2014-02-24,-1,-0.0006589608990714896,-0.00039448748738888913,-0.009359027090975764,0.007702007235137464,0.9883770434703936
2014-02-26,-1,-0.0005076189100238969,-0.00024580616704896277,-0.010900967912345228,0.005928968946415737,0.9885812937251367
2014-02-28,1,5.8422873716981716e-05,0.000259470176504632,-0.010900967912345228,0.005161785675345982,0.9890622934664756
2014-03-04,1,5.6736108440205756e-05,0.00029103274139197026,-0.010900967912345228,0.005161785675345982,0.9884733561925887
2014-03-06,1,0.0001344322050236712,0.000339625902281349,-0.010900967912345228,0.005928968946415737,0.9877839720334044
2014-03-10,-1,-0.0013004523332466411,-0.0009094506863135043,-0.01226123693154708,0.005928968946415737,0.9877849089314271
2014-03-12,-1,-0.002284957958744091,-0.001754466829317629,-0.01226123693154708,0.007702007235137464,0.9872369766177717
2014-03-14,-1,-0.0024526466252345054,-0.0019474688176791982,-0.01977676468809666,0.007702007235137464,0.9853158334095721
2014-03-18,-1,-0.0015134811726400536,-0.0011434396001366147,-0.01977676468809666,0.008547614529733388,0.9841750048660759
2014-03-20,-1,-0.001974064648978392,-0.0015486872362685746,-0.014947544296788825,0.011541218379496999,0.9845292045879147
2014-03-24,-1,-0.003037660295108092,-0.0024596383778452942,-0.011667771793876527,0.01361275154531557,0.9836320731760578
2014-03-26,-1,-0.0024373648925276343,-0.002042194688915717,-0.0055502608591222885,0.01361275154531557,0.9847379474399538
2014-03-28,-1,-0.0014937858713164607,-0.0012573673097656657,-0.011329523377307487,0.01361275154531557,0.9845241255834678
2014-04-01,0,-6.880097740376599e-05,2.2635093415299004e-05,-0.011329523377307487,0.01361275154531557,0.9839173963278532
2014-04-03,-1,-0.00035887989355480094,-0.0002248116753352575,-0.01875058136812561,0.012220803473351022,0.9835034793654368
2014-04-07,-1,-0.0012443354200990134,-0.0010352544303599016,-0.011266764112621064,0.012220803473351022,0.9846401275837856
2014-04-09,-1,-0.0007468145546871742,-0.0005829618884625192,-0.011266764112621064,0.011596038384036875,0.9851277366525778
2014-04-11,-1,-0.0020692573073834803,-0.0017969395870495453,-0.004354229805051184,0.011596038384036875,0.986834165214166
2014-04-15,-1,-0.0007765386892404518,-0.0006328921549199759,-0.007018827085444517,0.009395950448601524,0.9886887115956733
2014-04-17,-1,-0.00010082628875508107,-7.769665386644558e-05,-0.009582871986494665,0.009299155927579893,0.9877007435922173
2014-04-22,1,0.00046562477735896093,0.0005024399241202549,-0.011266764112621064,0.007371195436689206,0.9871887302820423
2014-04-24,1,0.00040092053445814596,0.00043384691794995877,-0.011266764112621064,0.007371195436689206,0.9872763888781478
2014-04-28,-1,-0.0004762938494650409,-0.0003790812772128364,-0.009582871986494665,0.0094795740981551,0.9872668844878859
2014-04-30,1,0.0012639085197945117,0.001395291289653587,-0.00989546750444635,0.008742686922573831,0.989559027501649
2014-05-02,1,0.0005356392112446667,0.0006027233100536167,-0.007018827085444517,0.008742686922573831,0.9906586000541484
2014-05-06,1,0.0002960085075871124,0.00032591457016709134,-0.007018827085444517,0.008742686922573831,0.9901433006285402
2014-05-08,0,-3.3565251364930655e-05,2.252513481463235e-05,-0.007018827085444517,0.008742686922573831,0.9894156886556524
2014-05-12,1,0.0005277287354455802,0.0005553707452031963,-0.007018827085444517,0.0094795740981551,0.9888209155808781
2014-05-14,1,0.00034484427846280725,0.0003753191725587924,-0.0069322019524386425,0.0094795740981551,0.9887818659018845
2014-05-16,1,0.0001937139451722328,0.00022210403194225726,-0.005794895175293763,0.010137940819952443,0.9894096339265505
2014-05-20,1,0.0003855627057557726,0.0004883109883199789,-0.0048294419429172975,0.007813852838304002,0.9908502655156497
2014-05-22,1,0.00034625753085315385,0.0004302031030256375,-0.0048294419429172975,0.009660761066505331,0.9902404370668786
2014-05-27,1,0.0010714741361874907,0.0012628469174166515,-0.006101744174713209,0.0069241208613370605,0.9904960151440643
2014-05-29,1,0.0007975513102885146,0.0009358703408443802,-0.005794895175293763,0.00844398742691889,0.9902857359710859
2014-06-02,1,0.0009405822829513214,0.001110544921589367,-0.006101744174713209,0.00844398742691889,0.9897618072355023
2014-06-04,1,0.00018486649772947092,0.0002462750987285412,-0.005859791885732768,0.00844398742691889,0.989966695819289
2014-06-06,1,0.000869798052608488,0.0010027553314663439,-0.008034558469995814,0.0068525502099628256,0.9904700860990616
2014-06-10,1,0.001343963926220691,0.0015539361621653477,-0.008034558469995814,0.0068525502099628256,0.9911791259838312
2014-06-12,1,0.0006457612280953832,0.0007384758167254838,-0.006063799474132887,0.0068525502099628256,0.9916587048633825
2014-06-16,1,0.0013762690138598378,0.0015657013186410312,-0.006063799474132887,0.0068525502099628256,0.9923848642939221
2014-06-18,1,0.0006404213016678906,0.0006447987973058895,-0.008034558469995814,0.006793796343127453,0.9917063413264435
2014-06-20,1,0.0008859935299362567,0.0009178918660133554,-0.008034558469995814,0.006793796343127453,0.9920510065600827
2014-06-24,1,0.0005096244476987375,0.0005150542066207548,-0.009667741063114414,0.006793796343127453,0.9919353644716383
2014-06-26,0,-2.4086866957542797e-05,0.00010201185747588494,-0.009667741063114414,0.005052538544661136,0.9924580737397372
2014-06-30,1,8.154262929442653e-05,0.0001578702971750162,-0.009667741063114414,0.0024661780740900183,0.9923128680682484
2014-07-02,-1,-0.00012235495025257612,-6.258432360874448e-05,-0.009667741063114414,0.005173879590682669,0.9908606454254214
2014-07-07,1,0.00010690571547224671,0.00011451588939642689,-0.0074045138371096495,0.007167432961696752,0.9906095663397143
2014-07-09,1,9.972893503256527e-05,0.00010677066593766236,-0.0074045138371096495,0.007167432961696752,0.9902605386097665
2014-07-11,-1,-4.195448607835686e-05,-2.078219708012573e-05,-0.008194604653376875,0.007503115265811334,0.9896461236304176
2014-07-15,1,0.0003234380515970904,0.00035627132050484973,-0.008194604653376875,0.00748271705488452,0.9896848196768845
2014-07-17,-1,-0.0001153861603086013,-8.581698774919168e-05,-0.0073034479374428415,0.012571488704983928,0.9885756730606065
2014-07-21,1,0.00028174092669412443,0.0003181387062603103,-0.0073034479374428415,0.013212543008761428,0.9880278345923046
2014-07-23,1,6.715362561271502e-05,0.00010497317778212179,-0.005128111693142219,0.013212543008761428,0.9886606846367108
2014-07-25,1,0.00015105082194946895,0.00022017295745053127,-0.004437554053267982,0.013212543008761428,0.9882643570406217
2014-07-29,-1,-0.00031813020968310705,-0.0003143047986057521,-0.0031858853775494403,0.013212543008761428,0.9889409068236565
2014-07-31,-1,-0.0004368554668960038,-0.0003899055536231971,-0.0028511449217726303,0.011697548967470581,0.9912467404517188
2014-08-04,1,8.549894962950292e-05,9.069768235083819e-05,-0.0028511449217726303,0.010973526039437659,0.9917199130793203
2014-08-06,1,0.00011585964631040666,0.00013638221382972871,-0.0028511449217726303,0.010973526039437659,0.9915034975673087
2014-08-08,1,0.00036580246892814754,0.00040111663622597585,-0.0027268635476354864,0.011187210807363492,0.9917203050335748
2014-08-12,-1,-9.23653901024275e-05,-6.054927952521879e-05,-0.0028511449217726303,0.011187210807363492,0.991595038038076
2014-08-14,1,0.0006231411692268072,0.0006589040366171531,-0.0028511449217726303,0.008727475731138586,0.9935861876773251
2014-08-18,1,0.000570282214436122,0.0005751028802989978,-0.0028511449217726303,0.00797699012648556,0.994360220954125
2014-08-20,1,0.0007483179493509827,0.0007874686855949477,-0.0031858853775494403,0.0064487723947331274,0.9940693286855385
2014-08-22,1,0.0013481067230859244,0.0015166339282565145,-0.003837748170751074,0.0017662455871442894,0.9938322072543545
2014-08-26,1,0.001131031323333783,0.0012714689262616815,-0.004850393821049792,0.0034901278149577233,0.9935074060737916
2014-08-28,1,0.0005257042228032418,0.0005491505540025422,-0.006578001412798204,0.0034901278149577233,0.9933713414227139
2014-09-02,1,0.0010187826549199952,0.0011325037092970113,-0.009467553239466337,0.001662199917562058,0.9931374099174157
2014-09-04,1,0.0004916582441913783,0.000513833621675194,-0.009467553239466337,0.00047775488490930896,0.9927925853552687
2014-09-08,1,0.0009825621578964281,0.001070102286004228,-0.010448869355971746,0.00047775488490930896,0.992057374860613
2014-09-10,1,0.0010048865941260812,0.001091573757254711,-0.012140361105858366,0.001662199917562058,0.9889547357471627
2014-09-12,1,0.0011560033557897844,0.0012900195668851442,-0.01421433946683835,-0.00013426743720522735,0.9862059491128147
2014-09-16,1,0.0012273816403503752,0.0013583354900473796,-0.01694111911103823,0.0010523822941804536,0.9846539669427384
2014-09-18,1,0.0007214044100071233,0.0007605753715427361,-0.01694111911103823,0.0035076225974123966,0.9839791786607168
2014-09-22,1,0.0018541676848973366,0.0021107435126799644,-0.01694111911103823,0.0041112405344618085,0.9841204877539635
2014-09-24,1,0.0009187931079509824,0.000983402824036608,-0.02004291199410326,0.006263387286292653,0.9829741307705093
2014-09-26,1,0.00036392910298030243,0.0003859868555841848,-0.02004291199410326,0.011639147649401185,0.982411502984003
2014-09-30,1,0.00015136277265036794,0.00018739520131547154,-0.02004291199410326,0.014925390531074306,0.980984325025751
2014-10-02,-1,-0.0006421230495334686,-0.000537231627498034,-0.018529635257320678,0.017215209747014456,0.9806076315667557
2014-10-06,-1,-0.0010237313722691755,-0.0008490769288468877,-0.018529635257320678,0.023314234636144928,0.9801809988820428
2014-10-08,-1,-0.000553059467805688,-0.0004137380069543394,-0.0027812293896869794,0.023226813775571016,0.9820682037329156
2014-10-10,-1,-0.003231130639021157,-0.0027611178443935768,0.003031454260039167,0.023226813775571016,0.9815580146359374
2014-10-14,-1,-0.003892913793207463,-0.0033514872821262583,0.0024772815594899487,0.023226813775571016,0.9822665379544957
2014-10-16,-1,-0.0018227622995642605,-0.001565434053226,0.0011959500669832162,0.021103576019844902,0.9845695211199847
2014-10-20,-1,-0.0020195768195914155,-0.001730735408855622,-0.0028490051088840072,0.021103576019844902,0.9845856928316541
2014-10-22,-1,-0.0019270519723650417,-0.0016500659100341926,-0.0028490051088840072,0.016578670379092598,0.985418591780129
2014-10-24,-1,-0.0014664635767549722,-0.001194255553323529,-0.0028490051088840072,0.016578670379092598,0.9858979093020226
2014-10-28,-1,-0.00035039837722834316,-0.0002677287966560655,-0.002562426454673774,0.01475897176668777,0.9880170179836648
2014-10-30,1,0.0008930905664898407,0.0009876787048428725,-0.002562426454673774,0.011270713150612188,0.9898539265663358
2014-11-03,1,0.0014333477264325176,0.0015578446328052694,-0.0028490051088840072,0.011270713150612188,0.9891874930354814
2014-11-05,1,0.0031345377507026265,0.003544804931590824,-0.0028490051088840072,0.01012874552978928,0.990697661858864
2014-11-07,1,0.0038427230296798577,0.004347028301763145,-0.0028490051088840072,0.01012874552978928,0.9915093694974514
2014-11-11,1,0.0031978712878091764,0.0036387656605747264,-0.002562426454673774,0.010221481791329066,0.9915638078454114
2014-11-13,1,0.0030577285708639663,0.0034344819618950823,-0.0031155432817223886,0.010898631611689526,0.9902422522552785
2014-11-17,1,0.002920344759141944,0.003300150464863957,-0.0030124335634292036,0.012058783732882284,0.9901549611007058
2014-11-19,1,0.0026575140828911355,0.0029696179842180264,-0.0004458481157614592,0.012058783732882284,0.9903127755084499
2014-11-21,1,0.0027398726271070086,0.0030215274164575078,-0.002056658280904309,0.012058783732882284,0.9904035565325824
2014-11-25,1,0.002654799637598951,0.0029053590341294906,-0.0002812905601911668,0.012058783732882284,0.9902091533764552
2014-11-28,1,0.003107829144373477,0.0034247305897434697,-0.0025187608967183264,0.012058783732882284,0.9901487831638818
2014-12-02,1,0.002892217119779583,0.0031602071633306944,-0.0030174086648007475,0.010601825300672371,0.9913836055499329
2014-12-04,1,0.0033413308865532397,0.003690141624585758,-0.004501851129164439,0.010586183583338037,0.9909942265901949
2014-12-08,1,0.003431439584121302,0.0037524111311724546,-0.004501851129164439,0.009855466241892102,0.9912552923730511
2014-12-10,1,0.0036571232840678057,0.004018901806112515,-0.005887052091640637,0.009855466241892102,0.9907492861818635
2014-12-12,1,0.0026594105087706828,0.00283259005912826,-0.0030174086648007475,0.009855466241892102,0.9918648784398136
2014-12-16,1,0.00272810853961817,0.0028932087790786614,-0.010560536363938668,0.008663360222622759,0.9908903703141101
2014-12-18,1,0.0028496754219777486,0.002969529253021143,-0.010560536363938668,0.00694124753162577,0.9911782321725447
2014-12-22,1,0.0034803838184039194,0.0036637066038445747,-0.010560536363938668,0.008212233785740462,0.9902326113295892
2014-12-24,1,0.004607331599813171,0.004992760676419041,-0.013708965628187509,0.006395173601779319,0.986063244589913
2014-12-29,1,0.004145676322739224,0.004485364204576989,-0.013708965628187509,0.006395173601779319,0.986621069258638
2014-12-31,1,0.0033463361040283815,0.0035763085142106275,-0.013708965628187509,0.006790872052665004,0.9859520205968011
2015-01-05,1,0.002638524363514253,0.0027313956280423093,-0.008215584548063204,0.008653601801491596,0.9858271669294394
2015-01-07,1,0.003455038215803951,0.003750763680154336,-0.008215584548063204,0.008653601801491596,0.9857240007808881
2015-01-09,1,0.003637747921590462,0.003986325940750661,-0.012190324026088394,0.00768537437512631,0.9857785890338536
2015-01-13,1,0.003183262555664075,0.003508475774724708,-0.012190324026088394,0.00768537437512631,0.9816370690224493
2015-01-15,1,0.0024473667331263906,0.00269806391785007,-0.0058473346484949505,0.011242455449271114,0.982257030161105
2015-01-20,1,0.002190594931191116,0.0023819476564191262,-0.004008571113004565,0.015245254380148817,0.9820332885553804
2015-01-22,1,0.003191648252148894,0.0035015446554847686,-0.004008571113004565,0.01311953279621132,0.9826383783641021
2015-01-26,1,0.0007046204354089677,0.0007206708247854438,-0.0025736115226124034,0.01311953279621132,0.9858514815243503
2015-01-28,1,0.0006803060191316871,0.0006993649799533371,-0.003997836716035685,0.01311953279621132,0.9847669933807008
2015-01-30,1,0.0015640524952310478,0.0017144461543152285,-0.003997836716035685,0.011932408439717719,0.9855197453504088
2015-02-03,1,0.002265627472813005,0.002492652383728496,-0.0071813136506990415,0.01075662182549964,0.9857302805452764
2015-02-05,1,0.002293710794704688,0.002524528014609996,-0.012190324026088394,0.01075662182549964,0.9844307930578284
2015-02-09,1,0.0014817641627781826,0.0016015854125740658,-0.010662800414017525,0.011932408439717719,0.984224496007915
2015-02-11,1,0.0038749867588208043,0.004277983819498956,-0.010662800414017525,0.011932408439717719,0.9885819297617325
2015-02-13,1,0.0038864110299288573,0.004260531258018241,-0.011212961698939507,0.011425613209011571,0.988752649722895
2015-02-18,1,0.004207985423865259,0.004603359048671811,-0.011212961698939507,0.011425613209011571,0.9884642448432542
2015-02-20,1,0.004462817260362368,0.004855427676125498,-0.011212961698939507,0.008949829115979736,0.9886267429544324
2015-02-24,1,0.004094577627866668,0.00441465743875393,-0.011212961698939507,0.008891701317340179,0.9882840943910515
2015-02-26,1,0.0031662741716393314,0.0032976698280356128,-0.011212961698939507,0.005078266366054013,0.9884337758106861
2015-03-02,1,0.0024185987729626896,0.002438724354138835,-0.009629553348941427,0.006507258905176344,0.9893775827534461
2015-03-04,1,0.0019914107906762015,0.0019957986687516183,-0.008241280402926657,0.006507258905176344,0.9897861761969184
2015-03-06,-1,-0.0007681570823492767,-0.00032182670670871487,-0.006539957580844205,0.01066235962180537,0.9912048614124883
2015-03-10,-1,-0.0014519939427492894,-0.0008875652341052266,-0.00652108083386128,0.01066235962180537,0.9914744693114561
2015-03-12,0,-0.00027846550849064335,5.986979285634703e-05,-0.007173443549196034,0.009095223557857982,0.9913116712694696
2015-03-16,-1,-0.0007287553554281884,-0.0003256211988065707,-0.007173443549196034,0.005825723327497747,0.9913755874202873
2015-03-18,-1,-0.0004751864090401048,-8.634172322078792e-05,-0.007481566438366725,0.004283452228666068,0.9913757993164433
2015-03-20,0,-0.00027499260372566196,4.595896840916809e-05,-0.007613560455964892,0.002923522168454383,0.991161082102653
2015-03-24,-1,-0.0008737074135281046,-0.0005171168619980561,-0.007861631686104367,0.005825723327497747,0.990981381178414
2015-03-26,-1,-0.0013145019095353993,-0.0008989012961600825,-0.007556930215016117,0.009083492229288531,0.9915238827322556
2015-03-30,-1,-0.00040379385817559314,-0.00012922385167032056,-0.007861631686104367,0.006065812925959559,0.9914877350744695
2015-04-01,-1,-0.0002685961220430473,-6.567887165605723e-05,-0.007578910115207416,0.009083492229288531,0.9901061211048595
2015-04-06,1,0.0003009178483074329,0.00039935693464059925,-0.007578910115207416,0.010392783448697575,0.988824516847228
2015-04-08,1,0.000192365014727058,0.00034305088538485925,-0.008362496826885429,0.009083492229288531,0.9892942407353348
2015-04-10,1,8.85954078109093e-05,0.00024678979572959205,-0.008362496826885429,0.010392783448697575,0.9888903572429175
2015-04-14,-1,-0.0009636210955240545,-0.0006687443101151143,-0.008362496826885429,0.010805102936777874,0.9889085390069404
2015-04-16,-1,-0.0015309782247181923,-0.0011679490105999948,-0.0072148667015263035,0.011948104853540833,0.9880962631685462
2015-04-20,-1,-0.0016053296244267652,-0.0012527112675085393,-0.0072148667015263035,0.013007973587826648,0.9874606620220719
2015-04-22,-1,-0.0013507691220035578,-0.0010320782286477015,-0.0031019294610789318,0.01285556238597703,0.9884180084565459
2015-04-24,-1,-0.0011056736794012125,-0.0008304103504474064,-0.004917155305050977,0.01285556238597703,0.9888064526107067
2015-04-28,-1,-0.0013760371066162931,-0.0010658474079552945,-0.004592127022072649,0.016028989251729676,0.9885372183394372
2015-04-30,-1,-0.00033002201884565075,-0.00016009136635178957,-0.006263091130188789,0.01285556238597703,0.9894161506739393
2015-05-04,1,0.000890958457168014,0.0008970197939493829,-0.007037763567032491,0.010366515239599028,0.9902988757606064
2015-05-06,1,0.0005404616681165525,0.0005766770818641952,-0.007037763567032491,0.010366515239599028,0.9908043502599913
2015-05-08,1,0.0007524313867897142,0.0007837046662047575,-0.007037763567032491,0.010366515239599028,0.9911876887959954
2015-05-12,1,0.0008165148009436731,0.0008245922991450107,-0.0059354094868435715,0.0093364023141999,0.9915513366897355
2015-05-14,1,0.001965614913815183,0.002139712863657538,-0.0059354094868435715,0.0093364023141999,0.9922632412499092
2015-05-18,1,0.0020147682213854717,0.002198367827929239,-0.0059354094868435715,0.0093364023141999,0.9912949579697244
2015-05-20,1,0.002028711999357123,0.0022387228989258928,-0.0059354094868435715,0.010196122314339015,0.9909064997537281
2015-05-22,1,0.0016348868405814446,0.0017701023619178732,-0.0059354094868435715,0.010196122314339015,0.990978270274226
2015-05-27,1,0.0017068180494401132,0.0018264920932090042,-0.005128464870811964,0.0093364023141999,0.9915712930907233
2015-05-29,1,0.0008120542399269724,0.0008220131773994158,-0.0023629053606403156,0.010196122314339015,0.9918721250818776
2015-06-02,1,0.00084075560108265,0.0008445257741148816,-0.0031726481159545035,0.009676271348937197,0.9914652189626039
2015-06-04,1,0.00040098543607190403,0.0004564738795271993,-0.0027432172320451796,0.01145178133339748,0.9911980534473088
2015-06-08,1,0.0009379474785561064,0.0009607785916517699,-0.0027432172320451796,0.009676271348937197,0.9916704239269195
2015-06-10,1,0.0007644382898701115,0.0008084747073862787,-0.0033129665347922223,0.00844302138990908,0.9910227184867089
2015-06-12,1,0.0010383910164901001,0.0010524894356343589,-0.0033129665347922223,0.012669610203651739,0.9901353062654824
2015-06-16,1,0.001662077848654482,0.001786044879899812,-0.0033129665347922223,0.009222008094441014,0.9915926577813021
2015-06-18,1,0.0004073310049261061,0.0005304229348050858,-0.003985864283924655,0.007675075358136496,0.9918993365493689
2015-06-22,1,0.0003331029279455345,0.000482285239949103,-0.005238378843439738,0.007675075358136496,0.99140302936929
2015-06-24,1,0.00035510122900772573,0.0004734270956105571,-0.00766362718172421,0.007675075358136496,0.9907732462897195
2015-06-26,1,0.00111146729833407,0.0011218504043786516,-0.010943888282517087,0.004319449345989379,0.989851317707398
2015-06-30,1,0.0002690747255626458,0.0003750982126509647,-0.00875907788095141,0.008430736764822172,0.9901822324700659
2015-07-02,1,6.858887075279838e-05,0.0002585537854931628,-0.00875907788095141,0.008430736764822172,0.9884959117169659
2015-07-07,1,0.0020995273826734436,0.002278201377226257,-0.00875907788095141,0.009190676700686427,0.9884790504534533
2015-07-09,1,0.0014140862232278173,0.001529292246836786,-0.00875907788095141,0.010120210705209815,0.9878155585678228
2015-07-13,1,0.002727501961646989,0.0030557497552156105,-0.00875907788095141,0.009190676700686427,0.988987925380049
2015-07-15,1,0.0028753704138322284,0.0032638839408723258,-0.01085683482625778,0.009190676700686427,0.988460408787332
2015-07-17,1,0.0028223343800626373,0.0032018400958055415,-0.01085683482625778,0.00994344112664222,0.9880816484550483
2015-07-21,1,0.002244682750880985,0.0025366477442377478,-0.009021845517035845,0.00994344112664222,0.988157346500967
2015-07-23,1,0.001403805417558736,0.0015572205706935475,-0.009021845517035845,0.00994344112664222,0.9879425873793003
2015-07-27,1,0.0002507381461567006,0.0002852091771535134,-0.01085683482625778,0.00994344112664222,0.9871710491785589
2015-07-29,1,0.0004268737702529209,0.0004728772406783111,-0.012987102344358115,0.009843006642421688,0.9863319078310704
2015-07-31,1,0.001533575665882316,0.0016283197339263162,-0.012987102344358115,0.009843006642421688,0.9879961036303158
2015-08-04,1,0.0020563408096223837,0.0022413158570329895,-0.014000130144540879,0.004362947381193221,0.9868527776113009
2015-08-06,1,0.002155840533347618,0.0023515256875814364,-0.012987102344358115,0.003544036472908467,0.9885241809140521
2015-08-10,1,0.0025247900556105082,0.0028003638225755907,-0.012987102344358115,0.003544036472908467,0.9871971319512773
2015-08-12,1,0.0018655403773670514,0.002041890414056203,-0.0122813665369822,0.003544036472908467,0.9880718079792351
2015-08-14,1,0.0019371522719138755,0.0020832391154735575,-0.0122813665369822,0.0014539806879700936,0.9884504976372928
2015-08-18,1,0.00091839755583373,0.0009355586399913472,-0.0122813665369822,0.003544036472908467,0.9891813274739603
2015-08-20,1,0.0006017248732803223,0.0006350515838278385,-0.0122813665369822,0.003544036472908467,0.988900613578981
2015-08-24,0,-0.0001030816645459051,2.9914851023638738e-05,-0.011590503541873765,0.003544036472908467,0.9896633637230327
2015-08-26,-1,-0.00020315510557500404,-6.823900428734185e-05,-0.01192904040730583,0.002337831806397558,0.9902228637785825
2015-08-28,1,5.930050935872136e-05,0.00014337027840443935,-0.013177964498011445,0.0014834659402104434,0.9893219398652041
2015-09-01,-1,-0.0010017243444867758,-0.0007755052021899364,-0.011802283206568115,0.0028033131481519638,0.9897282884000722
2015-09-03,-1,-0.0013750853498992943,-0.0010645493841845693,-0.011802283206568115,0.0027868398925354333,0.9891175470252657
2015-09-08,-1,-0.0012892185914293078,-0.0009612229900011304,-0.013177964498011445,0.0027868398925354333,0.9896211906895152
2015-09-10,-1,-0.0019480090808791895,-0.001525354284813679,-0.013177964498011445,0.00673156209751215,0.9886912247431616
2015-09-14,-1,-0.0018407630008588807,-0.0014490201398895404,-0.013177964498011445,0.007791871273906211,0.9879032884184002
2015-09-16,-1,-0.001632158014599363,-0.0012606307049501915,-0.013177964498011445,0.00673156209751215,0.987785387654275
2015-09-18,-1,-0.0028262595185909894,-0.0023097015812729117,-0.011639641683746989,0.008053081094377416,0.9884264988274034
2015-09-22,-1,-0.0033591878205617744,-0.0028175909628625033,-0.008819331518811025,0.009570164536973916,0.9885912808525064
2015-09-24,-1,-0.0033083588779895695,-0.0028212940431750076,-0.006224993710592856,0.012222965619634292,0.9872423431347297
2015-09-28,-1,-0.004777654138550481,-0.004093430056449203,-0.005343837877356665,0.012222965619634292,0.9872437734502963
2015-09-30,-1,-0.004278051789530039,-0.0036588538488322967,-0.006526292187556785,0.009570164536973916,0.9867809844663902
2015-10-02,-1,-0.003126756723650907,-0.0026423706675783973,-0.006526292187556785,0.008053081094377416,0.9880775242934488
2015-10-06,-1,-0.003079681711479908,-0.002667515800464692,-0.006526292187556785,0.009570164536973916,0.9864134989825556
2015-10-08,-1,-0.002013244311459957,-0.0017327545814520722,-0.006526292187556785,0.007777177206413233,0.9873889761714018
2015-10-12,-1,-0.001528021110457366,-0.001295579215100007,-0.008500991520621028,0.005480227924508275,0.9872633855008635
2015-10-14,-1,-0.002563265250877099,-0.002198774925254451,-0.007190307632679378,0.005480227924508275,0.98667614786392
2015-10-16,-1,-0.0021878824474819768,-0.0018853033310740801,-0.012300949743574189,0.005480227924508275,0.9848087986456596
2015-10-20,-1,-0.0019392467963692235,-0.0016210175357775464,-0.012300949743574189,0.0029331732014210646,0.9858568365828294
2015-10-22,-1,-0.00047519108595239665,-0.00033186290103234605,-0.012300949743574189,0.005480227924508275,0.9865092415073671
2015-10-26,-1,-0.0010302550508681334,-0.0007982060259585744,-0.012202835624171543,0.0035543147062439898,0.9864858200936852
2015-10-28,-1,-0.002387453821623221,-0.0020264388896572188,-0.007902271018064936,0.00400832705232644,0.9884744791593413
2015-10-30,-1,-0.0019016470097735039,-0.0016295802776621795,-0.007902271018064936,0.0073995719036737215,0.9881052755552868
2015-11-03,-1,-0.002713730434551278,-0.0023750849588767904,-0.007902271018064936,0.004646729357394254,0.9901347275781086
2015-11-05,-1,-0.002207505800715998,-0.001932674414784473,-0.007902271018064936,0.004702648822090926,0.9895343363356466
2015-11-09,-1,-0.002717175677617892,-0.002419701730080861,-0.01052029506956897,0.004702648822090926,0.9893611886538058
2015-11-11,-1,-0.0035325934512831585,-0.003162916863894308,-0.012102797305696356,0.004702648822090926,0.9894711333383038
2015-11-13,-1,-0.004491894385419527,-0.004002194305237628,-0.012591096391623946,0.0034385682874084242,0.9908496211138321
2015-11-17,-1,-0.004045591028783231,-0.00364346158767054,-0.012591096391623946,0.008876831248190071,0.9888113314841871
2015-11-19,-1,-0.003196113195293641,-0.0028544836539274336,-0.01374303937584199,0.0034385682874084242,0.9897643011017415
2015-11-23,-1,-0.003491886979777325,-0.003138639368296705,-0.01374303937584199,0.0034385682874084242,0.9897372426112441
2015-11-25,-1,-0.003000099740917662,-0.0027296169890518706,-0.01374303937584199,0.004702648822090926,0.9887678259327496
2015-11-30,-1,-0.0031392295984783956,-0.0028090459874970724,-0.01374303937584199,0.005013751497177625,0.9886759978886769
2015-12-02,-1,-0.002543687938891821,-0.002352764940972937,-0.01374303937584199,0.008998107898843732,0.9884203673158212
2015-12-04,-1,-0.00144348865994528,-0.0013822458150077686,-0.014623174457799558,0.008236354764376686,0.9874926174812171
2015-12-08,-1,-0.0023903158385559058,-0.0022219258112362887,-0.015292941422711584,0.008236354764376686,0.9866140697707259
2015-12-10,-1,-0.0033936289485073023,-0.003085481975599762,-0.015292941422711584,0.008236354764376686,0.9874951717356922
2015-12-14,-1,-0.004791074048768053,-0.004290328262549204,-0.010528798271119126,0.008975469709331343,0.9869053672878472
2015-12-16,-1,-0.00376613004209537,-0.00333751148996805,-0.010809050419863906,0.007975404146953503,0.988304005681384
2015-12-18,-1,-0.004158178786301488,-0.00372893564714052,-0.010809050419863906,0.007975404146953503,0.9879785904455733
2015-12-22,-1,-0.002518789689115473,-0.002376325262622602,-0.010809050419863906,0.008975469709331343,0.9872349752704107
2015-12-24,-1,-0.0012076707239958902,-0.0011577224336295176,-0.017134488723755052,0.008975469709331343,0.9849484674707123
2015-12-29,-1,-0.0004048143438635974,-0.00021515022285599635,-0.022244083117946872,0.008975469709331343,0.9835111444560212
2015-12-31,1,0.00022030364756867417,0.0005260153697752278,-0.022244083117946872,0.010691314330908669,0.980718358979401
2016-01-05,-1,-0.0007850329209004353,-0.0006538486708932893,-0.021202461913916566,0.014805618314064746,0.9801641837985746
2016-01-07,-1,-0.0017541309597481705,-0.0017075574960199813,-0.021202461913916566,0.014805618314064746,0.9809993128451323
2016-01-11,-1,-0.0018308507321191931,-0.0018023815170757308,-0.022082426567927818,0.020274086386214626,0.9784049639368496
2016-01-13,-1,-0.0019242576187165445,-0.001857261375096915,-0.023696708341589275,0.025046360615923607,0.9746491896071355
2016-01-15,-1,-0.002297842395375925,-0.002133639781970129,-0.023696708341589275,0.025046360615923607,0.9743111570289517
2016-01-20,-1,-0.0026431881119819414,-0.0024592813851421168,-0.021686670321797365,0.025046360615923607,0.9749841828862629
2016-01-22,-1,-0.0014419799544720853,-0.001424310089707943,-0.021686670321797365,0.025046360615923607,0.9743738480387077
2016-01-26,-1,-0.0023995600931171245,-0.0022417145943880758,-0.01847540838568687,0.026970182753336434,0.9754651786521034
2016-01-28,-1,-0.00330840414643518,-0.0030696198643677943,-0.011538678825687003,0.026970182753336434,0.9759658886859746
2016-02-01,-1,-0.0007207038943911912,-0.0006198422656615279,-0.013155577306089851,0.022877100136011283,0.9789539033595024
2016-02-03,-1,-0.00018837249529779466,-2.9742105028646236e-05,-0.010053750107990167,0.019060176118125657,0.9817967189573398
2016-02-05,-1,-0.0009482469967061441,-0.000885681297848002,-0.008616519424368982,0.019060176118125657,0.9818469861063253
2016-02-09,-1,-0.0007334153718649311,-0.0006190108108814164,-0.008616519424368982,0.014833938707991254,0.9834270479535199
2016-02-11,1,0.00024514552111106673,0.0004433173366416778,-0.0033556180905307095,0.014833938707991254,0.9879789594061332
2016-02-16,1,0.0006461104546233833,0.0008543380341378935,-0.007829224356968692,0.011041564855620535,0.9887077654657995
2016-02-18,1,0.00013566371744578155,0.00023405845124220857,-0.00422535631838309,0.012439659027703833,0.9881364715894412
2016-02-22,1,0.0007948161928971144,0.0009315717109094695,-0.004670047197350492,0.01059593859215573,0.9898553780400012
2016-02-24,1,0.0015737100353886643,0.0018531051928221901,-0.004670047197350492,0.01059593859215573,0.9903626868170878
2016-02-26,1,0.0023050840513189714,0.002717828102241039,-0.008695261408430004,0.0102930019891335,0.9904334585097787
2016-03-01,1,0.002252552738415787,0.0026441709373340207,-0.007248261417317803,0.0102930019891335,0.9907718623533035
2016-03-03,1,0.002717380087784908,0.003211550166986399,-0.007248261417317803,0.0102930019891335,0.9904603236926254
2016-03-07,1,0.00269304107075433,0.003209135274481846,-0.007018834190913137,0.0102930019891335,0.9912007216080042
2016-03-09,1,0.002373692564577707,0.0028184129467585424,-0.007018834190913137,0.010962678062912045,0.9900897303519967
2016-03-11,1,0.0030702182043477553,0.0036142003061397964,-0.007018834190913137,0.010501668346198801,0.9906814807382476
2016-03-15,1,0.0030627064849762303,0.003638635020932802,-0.007018834190913137,0.010962678062912045,0.9900305511611354
2016-03-17,1,0.003994584838698034,0.004748351739877333,-0.007751589584944233,0.010501668346198801,0.9896704598620992
2016-03-21,1,0.004027800886084604,0.004783334287750979,-0.007751589584944233,0.010962678062912045,0.9894715846939872
2016-03-23,1,0.003448022698449831,0.004047699050172929,-0.007751589584944233,0.010962678062912045,0.9901472858165902
2016-03-28,1,0.0035404948867914774,0.004156564290050048,-0.007018834190913137,0.012220407382618008,0.9895984151698745
2016-03-30,1,0.0031996740053587126,0.003725163923246641,-0.006950937119598137,0.014277948243329931,0.9898306894313033
2016-04-01,1,0.0030673034021894974,0.00357331232375116,-0.009067939223753079,0.014277948243329931,0.9849884795279448
2016-04-05,1,0.002673351252900754,0.003094421700623173,-0.012583207115941877,0.01437539994152283,0.9826030129457765
2016-04-07,1,0.002634829037257004,0.0030104797665780345,-0.011738556474520491,0.014277948243329931,0.9840024068495841
2016-04-11,1,0.0024986312764098146,0.002822207011564286,-0.011738556474520491,0.014277948243329931,0.9837448779962024
2016-04-13,1,0.002579006551219002,0.002906535261171466,-0.012513570006857216,0.01386001956262112,0.9843774631365609
2016-04-15,1,0.0028100251196484217,0.003205275329587092,-0.012513570006857216,0.014277948243329931,0.9838910805014357
2016-04-19,1,0.0028240605057730777,0.003196770740155194,-0.014610393590935137,0.01386001956262112,0.9832358449709204
2016-04-21,1,0.002739556451335132,0.0030988644546398737,-0.012513570006857216,0.00793589669503841,0.9841961993446834
2016-04-25,1,0.0031027822921850393,0.003518127857996078,-0.013833645770239855,0.004800159155019067,0.9847704990039178
2016-04-27,1,0.0033465590003634595,0.003779695425055372,-0.013833645770239855,0.003991118336206726,0.9849257200272962
2016-04-29,1,0.0014551010186872472,0.0016633091139366051,-0.009206346214739895,0.0050180555020768,0.9898581397625419
2016-05-03,1,0.0009993651734268116,0.0011106547697702284,-0.008473404768977118,0.003991118336206726,0.9922350938463972
2016-05-05,1,0.0004378498049505949,0.0004404231587948358,-0.006251394615858587,0.004752283632946679,0.9923087395792739
2016-05-09,1,0.0002766750429050016,0.00032966960520823497,-0.008473404768977118,0.004047305211659717,0.9921196141380954
2016-05-11,1,0.00041219455438881155,0.0004156386567070651,-0.006251394615858587,0.004752283632946679,0.9916138224319265
2016-05-13,1,0.0005246756366721022,0.0005399974162714667,-0.008473404768977118,0.004752283632946679,0.9910162969736808
2016-05-17,1,9.031357675739509e-05,0.00015383939856052452,-0.006251394615858587,0.0045523290815765675,0.9920211462091656
2016-05-19,1,0.00021232949386599165,0.00024056746448775155,-0.008473404768977118,0.006061659728369944,0.991389831326017
2016-05-23,1,8.827432030090745e-05,0.00011942747576105106,-0.006251394615858587,0.006061659728369944,0.9919781045250118
2016-05-25,1,0.00044463884789421585,0.0004628267516758191,-0.006251394615858587,0.006061659728369944,0.9919770086784292
2016-05-27,1,2.8403714288989968e-05,8.934813840982093e-05,-0.009258105959988917,0.005752548383197267,0.9881781325605713
2016-06-01,-1,-0.0009077216582838683,-0.0006793287942478079,-0.00670975876464829,0.0076396246418267985,0.9867909157487209
2016-06-03,-1,-0.0010482548227461687,-0.0007968318045995645,-0.0064999824713130325,0.01024037732858955,0.9861595292804842
2016-06-07,-1,-0.001534982776731724,-0.0012120594231579541,-0.0064999824713130325,0.011801323261825711,0.9850727922564798
2016-06-09,-1,-0.001008476119632827,-0.0007440750245465811,-0.0064999824713130325,0.011801323261825711,0.9850461583434942
2016-06-13,-1,-0.0014046418258229193,-0.0010660094066753517,-0.003286034537156776,0.01024037732858955,0.9859389908848968
2016-06-15,-1,-0.001336043000970101,-0.001029107246203433,-0.001275068021543362,0.010956010308287318,0.9854725689871298
2016-06-17,-1,-0.0017602522864427217,-0.0013847407029300921,9.884742767232789e-05,0.012981701429081945,0.9851856193408433
2016-06-21,-1,-0.0022329769298011105,-0.001761986182919281,-0.001275068021543362,0.012981701429081945,0.9848746346532209
2016-06-23,-1,-0.0010157034146446077,-0.0007669233880543745,-0.0026775093219907906,0.012981701429081945,0.9855068363795234
2016-06-27,-1,-0.0027237890755553067,-0.0022915359419107945,-0.001275068021543362,0.015517807972213478,0.9882450305815992
2016-06-29,-1,-0.002382330310210996,-0.0019601856713282297,-0.002857313937492022,0.012981701429081945,0.9886489437645328
2016-07-01,-1,-0.0018147574541096567,-0.0014720023155951464,-0.0028961327178876227,0.009927491287915315,0.989914210201363
2016-07-06,-1,-0.0025392458113939675,-0.002083740517028803,-0.0028961327178876227,0.009155128212681541,0.9902319144511877
2016-07-08,-1,-0.0013941662122700978,-0.0011060425816534097,-0.0028961327178876227,0.008450622141848212,0.9912336850599596
2016-07-12,-1,-0.0011327780094418064,-0.0008639290774542177,-0.0032327166354677002,0.008377233892786488,0.9913081221370269
2016-07-14,-1,-0.00022728264780963703,-0.00011707464420055612,-0.0032327166354677002,0.005968807818949975,0.9914499666139952
2016-07-18,1,0.00037467326452002796,0.00039252628095887935,-0.004313917474014574,0.005141781568689675,0.991697936917853
2016-07-20,1,0.000685289172438728,0.0007278158479210172,-0.0058956319128110665,0.004316763809574036,0.9916041979222947
2016-07-22,1,0.0003118272918836509,0.0003175311216478564,-0.004335061564257909,0.004316763809574036,0.9921676865410661
2016-07-26,1,0.0006334472714860114,0.0006721197034953139,-0.004335061564257909,0.005141781568689675,0.9917990111487729
2016-07-28,-1,-0.0006536515534870203,-0.0005236079746287841,-0.003887086404344444,0.005141781568689675,0.9935133797992802
2016-08-01,-1,-0.0008754321630477022,-0.0007121325937488423,-0.004335061564257909,0.005247904211948923,0.9924957480066062
2016-08-03,-1,-0.0010497747281344757,-0.0008959554531287517,-0.003887086404344444,0.005171206654513628,0.9937847805428461
2016-08-05,-1,-0.000933487770257088,-0.0007777041950005162,-0.003887086404344444,0.005964785373863896,0.9928549246561885
2016-08-09,-1,-0.000677626805168192,-0.0005746265154341594,-0.003887086404344444,0.005171206654513628,0.9925691535678933
2016-08-11,-1,-0.00044458355451831356,-0.00036774549096126117,-0.0058956319128110665,0.004371754747876422,0.9909867268070386
2016-08-15,-1,-0.000275101480314667,-0.00023381779062214435,-0.0085497880781285,0.005964785373863896,0.9905395919569457
2016-08-17,-1,-0.0005962352521893849,-0.0005196428006401826,-0.0053783004871900625,0.008033656629503725,0.9900703848059061
2016-08-19,-1,-0.0005848670677695708,-0.0005166303405869101,-0.008962991426904795,0.008361643475967073,0.9894707828959851
2016-08-23,1,0.0003035802126761287,0.0003586946330213245,-0.008962991426904795,0.005964785373863896,0.9907825907161888
2016-08-25,1,0.0002691005681094702,0.00031355866682224496,-0.008962991426904795,0.00715077530377427,0.990638128481721
2016-08-29,1,0.0001921325845919677,0.0002505258859792594,-0.008643812141629965,0.00715077530377427,0.9912393973282433
2016-08-31,1,0.00040488994127340597,0.0005118964254861338,-0.008962991426904795,0.00715077530377427,0.9902096578231638
2016-09-02,1,0.0012943881836406876,0.0015316380880724366,-0.008962991426904795,0.0029911620953131783,0.9911564527874518
2016-09-07,1,0.0007478184891850144,0.0009129276902886007,-0.008962991426904795,0.005781676511271078,0.9914501248253196
2016-09-09,0,-6.779072920244555e-05,1.4609289477665534e-05,-0.008643812141629965,0.005781676511271078,0.9925745713560031
2016-09-13,0,-3.015286162079452e-05,5.764728886516933e-05,-0.00852635721900221,0.005781676511271078,0.9927454454530958
2016-09-15,1,0.0007418497685885652,0.0009609347028927954,-0.00852635721900221,0.0029911620953131783,0.9933635924841072
2016-09-19,1,0.0011315653586731222,0.0014440902939987243,-0.005665608823717404,0.0030316663351373334,0.9938659893624601
2016-09-21,-1,-0.0003655717139055682,-0.00032818514352474167,-0.00852635721900221,0.0030316663351373334,0.9933411179796546
2016-09-23,-1,-0.00012191999362683636,-0.00010525829647712966,-0.009279160957629541,0.002200694577123805,0.9928040355141993
2016-09-27,-1,-0.0005865416501290982,-0.000497495183210669,-0.011469823842453354,0.002200694577123805,0.9924775702000563
2016-09-29,-1,-0.0007651166023019561,-0.0006799253823286044,-0.009234750512710924,0.0034299261324923828,0.9912536851330763
2016-10-03,-1,-0.0012418693606789585,-0.0010785908343497169,-0.007152530480247571,0.007195847552811761,0.9904728853020845
2016-10-05,-1,-0.0008254508558171553,-0.0007549772902756477,-0.006001759886824223,0.005050822555703971,0.9910697366550006
2016-10-07,-1,-0.0019311067756190045,-0.0017007430905928234,-0.006001759886824223,0.005050822555703971,0.9913342346315756
2016-10-11,-1,-0.00173937162864014,-0.001525578764003133,-0.006001759886824223,0.005338281971336219,0.9905593699030744
2016-10-13,-1,-0.002177965890509388,-0.0018964117307997711,-0.006001759886824223,0.00833216285070106,0.9896673071165072
2016-10-17,-1,-0.001432183505749585,-0.0012664611755729147,-0.006001759886824223,0.006674336742911628,0.990214962948797
2016-10-19,-1,-0.0018170251882755734,-0.0016053598460211275,-0.005067855533194561,0.010483737280352652,0.9900358745805188
2016-10-21,-1,-0.0026926207403571213,-0.002365082823540279,-0.003927551127056993,0.012146119696252004,0.9895003096604482
2016-10-25,-1,-0.003374445279097851,-0.0029703157438935026,-0.003150420492708113,0.012146119696252004,0.9891929915116924
2016-10-27,-1,-0.0017870320321402024,-0.0015514373816028501,-0.003150420492708113,0.009327925493817816,0.9915729869410057
2016-10-31,-1,-0.00021548488155333006,-0.00021060327094377852,-0.004416518928986452,0.006943640951818223,0.9922282935523226
2016-11-02,-1,-0.0004108616058910304,-0.00038981535754003963,-0.007970508417579845,0.006943640951818223,0.9907779368259152
2016-11-04,-1,-0.0007896110344034181,-0.0007139943461972138,-0.0045254040243431016,0.009327925493817816,0.9901549125782888
2016-11-08,1,0.00017180986575860357,0.00020721828724769935,-0.0045254040243431016,0.009327925493817816,0.9906020171885994
2016-11-10,1,0.0008335842270576022,0.0009682674881483101,-0.007970508417579845,0.009327925493817816,0.9895185124853325
2016-11-14,1,0.0009249901142866277,0.001106809200346485,-0.007970508417579845,0.009359927257935512,0.9892094265200718
2016-11-16,-1,-0.0006971969174461207,-0.00048037761090179046,-0.011004814001288908,0.009159609918020395,0.9882455731223091
2016-11-18,1,0.00013710518108643423,0.00018546908159252027,-0.010319684394309088,0.007165800995539815,0.9891790940614943
2016-11-22,1,0.0004590326914116453,0.0004979523951372815,-0.008739300063228228,0.007165800995539815,0.9893819186903056
2016-11-25,1,0.0006471566323582603,0.0006930411810993229,-0.011451247225272153,0.005799130965879328,0.9889615286725592
2016-11-29,1,0.0008049159060852808,0.0009346836010661276,-0.011451247225272153,0.005156313573301178,0.9891757109903759
2016-12-01,-1,-0.0002838992522996662,-0.0002570154115674242,-0.008739300063228228,0.005156313573301178,0.990529011454166
2016-12-05,1,0.0010157090083093088,0.0012434888958294734,-0.008739300063228228,0.005828028050598637,0.989869255510041
2016-12-07,1,0.002375632431985023,0.0028256053159503884,-0.008739300063228228,0.003877438946578449,0.9903537120247717
2016-12-09,1,0.003101916687313107,0.003664058419671187,-0.006841789650883038,0.003877438946578449,0.991241505952496
2016-12-13,1,0.002901120189829117,0.0034008187881306613,-0.005297684735591213,0.003877438946578449,0.9915233792587473
2016-12-15,1,0.002179606883828597,0.0026170358326773587,-0.004259761530617804,0.00461208043000696,0.992811583021852
2016-12-19,1,0.0013606411104252745,0.0015907192749777318,-0.004576102159901659,0.005343588726546429,0.9921570128806328
2016-12-21,1,0.001135714066839608,0.0013264186506189188,-0.004259761530617804,0.0055424546078797,0.9924873643218296
2016-12-23,1,0.0001782273056057481,0.0001946548432418339,-0.003856853593383481,0.008107766021511023,0.9923353678958958
2016-12-28,-1,-0.00012051668475967077,-0.00011529975280190744,-0.002682482654637577,0.008107766021511023,0.9930792909946727
2016-12-30,-1,-0.0004778979564630899,-0.00044096555910797994,-0.0018179817147160804,0.008107766021511023,0.9927593642308555
2017-01-04,1,0.001419333685061194,0.0016501217766534577,-0.0018179817147160804,0.007502254324905222,0.9937264910686819
2017-01-06,1,0.0013720094262588806,0.0015938116818904739,-0.002062376563372955,0.007502254324905222,0.9937519409714609
2017-01-10,1,0.0016252649776005291,0.0018491387688418888,-0.0017384186483013855,0.007502254324905222,0.9938208616210006
2017-01-12,1,0.0012999284009442393,0.0014708414129941776,-0.002062376563372955,0.007502254324905222,0.9906445330950826
2017-01-17,1,0.0016992280691284097,0.0019693326637866292,-0.002062376563372955,0.007502254324905222,0.9901328047707236
2017-01-19,1,0.0016206829393433366,0.0018808531830286686,-0.0017384186483013855,0.008838392024742785,0.9903299806073134
2017-01-23,1,0.0016136222331515544,0.001850172246292147,-0.002062376563372955,0.008838392024742785,0.9902050555013034
2017-01-25,1,0.0019745909359986623,0.0022583094445371267,-0.002440026881749383,0.006629286708999692,0.9906095298729749
2017-01-27,1,0.002406178962442009,0.002798723334500144,-0.006456995133192545,0.006629286708999692,0.9893618343156438
2017-01-31,1,0.0015708994619451917,0.0018118014646450414,-0.004520552659242159,0.008838392024742785,0.9893437905427258
2017-02-02,1,0.0015424090014751997,0.0017075026132262225,-0.008720279209521327,0.004349112448681492,0.9894121763737723
2017-02-06,1,0.0013742157155751625,0.0015117230183282148,-0.012334492511892678,0.004349112448681492,0.9876253060659563
2017-02-08,1,0.0019187524437338645,0.002156170753680198,-0.012334492511892678,0.004349112448681492,0.987122760727046
2017-02-10,1,0.0006585585862346915,0.0007265317995564906,-0.009598403810814855,0.004349112448681492,0.9904394557486408
2017-02-14,1,0.00021580172313938851,0.00022153638722931246,-0.008720279209521327,0.00821788788274635,0.9905880970432129
2017-02-16,1,0.0007756113030782824,0.0008693244421747455,-0.008720279209521327,0.004949155941488286,0.9910974772817247
2017-02-21,1,0.000667039470577285,0.000734075294890698,-0.009598403810814855,0.004949155941488286,0.9904052854510632
2017-02-23,1,0.00043865907005210733,0.000453638694862922,-0.009598403810814855,0.004949155941488286,0.9907652460008591
2017-02-27,-1,-0.0005149753462260232,-0.0004047879332819791,-0.01092765423199632,0.004949155941488286,0.9900557015903482
2017-03-01,-1,-0.00033568088788100975,-0.00023854801195925178,-0.01092765423199632,0.004549826302883411,0.9902339110047726
2017-03-03,-1,-0.001348548494227718,-0.00110007754845204,-0.010162419075473026,0.0064387315660556135,0.9905315535003714
2017-03-07,-1,-0.0026494531419571773,-0.0022562705871887858,-0.007512347411332684,0.0064387315660556135,0.9916325826529632
2017-03-09,-1,-0.002426838387239123,-0.0020501762849883197,-0.005215969053835594,0.004549826302883411,0.9926390258057299
2017-03-13,-1,-0.002125613123293118,-0.0017980837955314953,-0.005215969053835594,0.0032604464212445494,0.9931069677696293
2017-03-15,-1,-0.0017273692932786417,-0.0014291436145755015,-0.007346312460477095,0.0014678856167276515,0.9938257149438883
2017-03-17,-1,-0.0020569080363885116,-0.0016873637067527927,-0.007346312460477095,0.0014678856167276515,0.9936094582163317
2017-03-21,-1,-0.0029631521265157316,-0.002456718416430768,-0.005078990855940423,0.0027994861632882864,0.9935298757823813
2017-03-23,-1,-0.0019427964955947468,-0.0016305833042298823,-0.005894201080581463,0.00423521329207985,0.9931260429508848
2017-03-27,-1,-0.00265336939977395,-0.0022973798427074156,-0.004254557659066263,0.006614238314700505,0.9934160459736073
2017-03-29,-1,-0.0028146235612049337,-0.0024294360306014325,-0.004254557659066263,0.006614238314700505,0.9936276679552275
2017-03-31,-1,-0.0028680280052009576,-0.0024671882970640686,-0.004236748371414552,0.004392159269092162,0.9938707743324624
2017-04-04,-1,-0.002761916606839677,-0.0024128265626716617,-0.004236748371414552,0.007390901654185715,0.9938586563052808
2017-04-06,-1,-0.002386477570554274,-0.0021064085785390484,-0.004236748371414552,0.009612404099166052,0.9922238113195442
2017-04-10,-1,-0.002503158720177492,-0.002202407687022847,-0.004347840128295166,0.011126749361344515,0.9873824875389662
2017-04-12,-1,-0.002660311473291756,-0.0023613537161452005,-0.004347840128295166,0.013501121200614065,0.9862576228335362
2017-04-17,-1,-0.002441649203347956,-0.0021718290995034945,-0.004737787941178063,0.013501121200614065,0.9856290814655919
2017-04-19,-1,-0.001883789179819842,-0.0016752999862450497,-0.004737787941178063,0.013511184745919762,0.9857916938458076
2017-04-21,-1,-0.0014373004913392786,-0.001298085135699309,-0.0049291342242419964,0.013511184745919762,0.9852282610578712
2017-04-25,-1,-0.0007435166552769876,-0.0006716122985404114,-0.0049291342242419964,0.012283206586143007,0.9859913826371525
2017-04-27,-1,-0.0018590857649312044,-0.0016016698239979805,-0.004347840128295166,0.012283206586143007,0.9859802573285065
2017-05-01,-1,-0.001420030512289948,-0.0012531057976764449,-0.0023257036366176186,0.012283206586143007,0.9857204931411341
2017-05-03,-1,-0.0008027783031687071,-0.0007439572331635827,-0.0026558944937116577,0.012283206586143007,0.9859302844151466
2017-05-05,1,0.0004412232131627456,0.0005639535527040514,-0.004307183785247009,0.010471552724833482,0.98778332916923
2017-05-09,-1,-0.0016050037616205557,-0.001480047417743985,-0.004307183785247009,0.008186168440218558,0.9917130142098802
2017-05-11,-1,-0.0013592086072020371,-0.0012284999194181244,-0.003923905087327222,0.006593304548384774,0.993154024126757
2017-05-15,-1,-0.0013610799741609419,-0.0012335656944885147,-0.0021518870113948004,0.006593304548384774,0.9933008806065148
2017-05-17,-1,-0.0009027437161982096,-0.0008256039526544053,-0.003923905087327222,0.004480178025926384,0.9938301885464955
2017-05-19,-1,-0.001194986218121508,-0.0010665805375583751,-0.0009507940757325379,0.004676946369322166,0.99450333462679
2017-05-23,-1,-0.001071388741509476,-0.0009394594872901815,-0.003923905087327222,0.004287332760995922,0.994714003657297
2017-05-25,-1,-0.0009836229558870381,-0.0008510797852268044,-0.004483881748766113,0.004287332760995922,0.9948173147974579
2017-05-30,1,1.2692510399861095e-05,5.967814515831974e-05,-0.0052627410631812584,0.004287332760995922,0.9946056197670822
2017-06-01,1,5.437270834008528e-05,0.00010718166215490852,-0.005351823373430071,0.004287332760995922,0.9941101614155773
2017-06-05,1,0.00020851741478541876,0.0003034807397787455,-0.005351823373430071,0.004724504986568332,0.9940040748404987
2017-06-07,1,0.00024861073858984105,0.0003668881005370661,-0.005351823373430071,0.004724504986568332,0.9941758263763899
2017-06-09,1,0.00019168334011662562,0.0003028311823729921,-0.005351823373430071,0.006771753613709522,0.9931902394252347
2017-06-13,1,0.0006985395546625882,0.0008754988670345559,-0.006348159704641478,0.006771753613709522,0.993164499023565
2017-06-15,1,0.0007737626189700704,0.0009747505067999314,-0.005351823373430071,0.006771753613709522,0.9934762680472928
2017-06-19,1,0.0012689247959732568,0.0015581835051809226,-0.006352712936214727,0.006463752068802646,0.9934472869587323
2017-06-21,1,0.0013107392223516336,0.0016079631490310373,-0.007006203077124393,0.006463752068802646,0.9931323633472151
2017-06-23,1,0.0009187499205818374,0.0011433708077886148,-0.007006203077124393,0.006463752068802646,0.993104454114655
2017-06-27,1,0.0014268079321395248,0.0017581238552431533,-0.007006203077124393,0.005328211637864615,0.99359293587997
2017-06-29,1,0.0013328218851375354,0.0016477875993864536,-0.007581890889669168,0.0044178857254040735,0.9932392213228305
2017-07-03,1,0.0018042163517834225,0.002218918689975386,-0.008207391751356513,0.0038361376792573685,0.9929443112302622
2017-07-06,1,0.0013108547657958033,0.0016162367477015951,-0.008207391751356513,0.0038361376792573685,0.9931134125620407
2017-07-10,1,0.0019062010139317262,0.0022592544523470847,-0.008207391751356513,0.0038361376792573685,0.9934357511435326
2017-07-12,1,0.0022559896687580436,0.0026900371149325827,-0.007580576619885458,0.0038361376792573685,0.9928656407792926
2017-07-14,1,0.0024270616723948233,0.0028864302916618285,-0.008207391751356513,0.0034885635361008986,0.9919616650283862
2017-07-18,1,0.0022403683906585883,0.0026740794477130214,-0.008207391751356513,0.004111009357991374,0.9916067597755943
2017-07-20,1,0.0016068377578311193,0.0019048629095150867,-0.008207391751356513,0.0041295760645940795,0.9913892108053145
2017-07-24,1,0.0016352413380833584,0.0019574383216091223,-0.0072168610077862705,0.0038842940439085096,0.9917048640721663
2017-07-26,1,0.0011560480067356377,0.0013793263952246097,-0.0072168610077862705,0.00611449519897377,0.9913236497809198
2017-07-28,-1,-0.000525027994945459,-0.00045231366139507085,-0.005018496418426038,0.00611449519897377,0.9922582211952016
2017-08-01,-1,-0.0005732661833457944,-0.0005132225598259869,-0.006296961069500656,0.00611449519897377,0.9918275444245556
2017-08-03,-1,-0.0006901957079437332,-0.000625225570724579,-0.004821776047196004,0.007582699502523907,0.9917028253986648
2017-08-07,1,0.00020888076829900007,0.0002937456087864657,-0.007058628484620968,0.00834788482736409,0.9909491161907049
2017-08-09,1,0.0010620531759690938,0.001268999026797521,-0.0103643673035013,0.007170827155610298,0.9910603434016944
2017-08-11,1,0.0003150714741578562,0.0003932069745306388,-0.0103643673035013,0.00834788482736409,0.9907204440680342
2017-08-15,1,0.0009467333734633075,0.0011129711300289326,-0.0103643673035013,0.007170827155610298,0.9912971082800301
2017-08-17,1,0.00012541817307178783,0.0001519451179061819,-0.007058628484620968,0.005078156456936141,0.9921673618611155
2017-08-21,0,-3.1803615511009464e-05,1.7303698366526236e-05,-0.012592941849958829,0.005078156456936141,0.9903727510840636
2017-08-23,1,0.00034837707268658654,0.0003513182888919841,-0.012592941849958829,0.005078156456936141,0.9904076421921212
2017-08-25,-1,-0.0003881915874882606,-0.00027506953427906404,-0.012592941849958829,0.005078156456936141,0.990568729553046
2017-08-29,-1,-0.001135930403233024,-0.0009349477859213262,-0.009045663930811746,0.007170827155610298,0.9903927888247199
2017-08-31,-1,-0.0009360028347840894,-0.0007494798501348485,-0.009045663930811746,0.007702949048425614,0.9902097782879113
2017-09-05,-1,-0.001220568691641919,-0.000990663345053198,-0.006497232676682488,0.007702949048425614,0.9903726425562602
2017-09-07,-1,-0.0016206699210505656,-0.0013474350273508131,-0.005361207656658138,0.007441956315339643,0.9910424266321465
2017-09-11,-1,-0.0013621015417706766,-0.0011500220552203076,-0.0047188563542782495,0.006155213277867025,0.9921662969947292
2017-09-13,-1,-0.0014218590321367275,-0.0012114183398386322,-0.005361207656658138,0.007441956315339643,0.9910399171459485
2017-09-15,-1,-0.0008165997757640453,-0.0007243168429193188,-0.005361207656658138,0.009317183049689145,0.9908729934523222
2017-09-19,-1,-0.0026755682398017263,-0.0023401819820537397,-0.00022049719278623538,0.009317183049689145,0.9914786020417057
2017-09-21,-1,-0.002016439247514425,-0.0017544209965346625,-0.004499702769594417,0.0074133970327876835,0.9925003616642343
2017-09-25,-1,-0.002148621257254191,-0.0018795783716859958,-0.004499702769594417,0.009317183049689145,0.9913318140444619
2017-09-27,-1,-0.0009423894189748837,-0.0008801905611682391,-0.004499702769594417,0.0074133970327876835,0.9923584390677124
2017-09-29,-1,-0.002447625581659072,-0.0020712136406358336,-0.0034199003956511373,0.006155213277867025,0.9923486497436035
2017-10-03,-1,-0.001066650336438314,-0.0008882175560794934,-0.00489072458064045,0.0035975836034684923,0.9933439669162981
2017-10-05,-1,-0.0008773948063992099,-0.0007132193395882308,-0.006250212061832992,0.003112686330745608,0.9935694120637026
2017-10-09,-1,-0.000340072033810884,-0.000266644718306061,-0.006884633082103651,0.003112686330745608,0.9932087911387876
2017-10-11,-1,-0.0007744146267842527,-0.000639646965338573,-0.006250212061832992,0.003112686330745608,0.9930296541803333
2017-10-13,-1,-4.034502627562495e-05,-1.1528284463930901e-05,-0.006884633082103651,0.002420507776450328,0.9930872423132078
2017-10-17,-1,-0.00013790025528906115,-0.00011101688526017834,-0.006250212061832992,0.003108165049706474,0.9927922752149836
2017-10-19,1,1.953042097353032e-06,1.2543310109063955e-05,-0.006250212061832992,0.004115801964437038,0.9922175856942596
2017-10-23,1,0.0005623578663320198,0.0006475116246297654,-0.006250212061832992,0.003200894266840382,0.9928385238173612
2017-10-25,1,0.00028912197240425053,0.00033262045778876376,-0.004950004881985068,0.003633313647290754,0.9929174550111868
2017-10-27,1,0.0001790568605728967,0.000194574323546319,-0.004950004881985068,0.005706596407503537,0.991899720448113
2017-10-31,-1,-0.00023586958136672664,-0.00019312790636253794,-0.0036357150451404897,0.007525299003535782,0.9917272714671699
2017-11-02,-1,-0.000100489646590398,-8.963634355229311e-05,-0.0036357150451404897,0.013168822685090797,0.991049450799081
2017-11-06,-1,-0.00020933587725187114,-0.00020096502052005115,-0.0028576147035553594,0.013168822685090797,0.9911391650106735
2017-11-08,1,0.0008180535163104527,0.0009674019265102427,-0.0028576147035553594,0.009211509399371307,0.9922829755085493
2017-11-10,1,0.000459736107952289,0.0005608684849409523,-0.0028576147035553594,0.009211509399371307,0.992447013709297
2017-11-14,1,0.0008705992701511399,0.0010046743690165496,-0.0028576147035553594,0.00881946852723736,0.9927117133966781
