JNU-Tangyin/eata/results/Batch4_SP500/Batch4_SP500-SPG.csv
Date,Action,Predicted_Q25,Predicted_Q75,Actual_Q25,Actual_Q75,RL_Reward
2010-12-14,0,-0.00139531423642811,0.0,-0.005982950739332558,0.013470907270286905,0.9894815488171321
2010-12-16,-1,-0.00240138121540342,-0.002168797615834334,-0.002611101021067693,0.013470907270286905,0.9888818153120482
2010-12-20,0,0.0,0.0,-0.0054914975762411465,0.009727436487220508,0.9899239344727673
2010-12-22,0,0.0,0.0,-0.0054914975762411465,0.00818443597004708,0.9904121399781431
2010-12-27,0,0.0,0.0,-0.002611101021067693,0.00806674804197919,0.991191410193631
2010-12-29,0,0.0,0.0,-0.0001957692202071284,0.0077067043072934546,0.9917132366891429
2010-12-31,0,0.0,0.0,0.0004567010023587548,0.00806674804197919,0.9906948761764369
2011-01-04,0,-0.0005412001699578861,0.0,0.0012027831212990381,0.00806674804197919,0.9922207003732323
2011-01-06,-1,-0.001451336152152319,-0.0011644503260029612,0.0012027831212990381,0.008237978410003982,0.9915059645480635
2011-01-10,-1,-0.0007270099819527996,-0.0005424494680615115,0.0012027831212990381,0.008956836495311668,0.9917448043432098
2011-01-12,-1,-0.0014631641678843352,-0.0011359406563394927,0.001185294713089297,0.008956836495311668,0.9913458041881197
2011-01-14,-1,-0.0012303459271856953,-0.0009166635805858115,0.00035628762707604034,0.008956836495311668,0.9918280317045319
2011-01-19,0,0.0,0.0,0.00035628762707604034,0.009251990177671063,0.9927771326665109
2011-01-21,0,0.0,0.0,-0.00037384807048822146,0.009251990177671063,0.9929434186881502
2011-01-25,0,0.0,0.0,-0.0013302746367411524,0.009251990177671063,0.9930140304330797
2011-01-27,0,0.0,0.0,-0.001700637013097773,0.010492206422999294,0.9921586609478132
2011-01-31,0,0.0,0.0,-0.001700637013097773,0.010492206422999294,0.9908096518935738
2011-02-02,0,0.0,0.0,-0.00340351504821927,0.01202578898617936,0.9898495493154538
2011-02-04,0,0.0,0.0,-0.006622179494191574,0.00968997720204665,0.9906426254461631
2011-02-08,0,0.0,0.0,-0.006665550815546505,0.007532308726499973,0.9910441953702505
2011-02-10,0,0.0,0.0,-0.007184367232603883,0.009758729044111045,0.9899134924527964
2011-02-14,1,0.002496118439900009,0.0025623165177513178,-0.008909021936843328,0.009758729044111045,0.9886954486365961
2011-02-16,0,0.0,0.0,-0.01083389063649918,0.005425291667109369,0.9888527322778872
2011-02-18,0,0.0,0.0,-0.01083389063649918,0.01223204451237255,0.9881129009562484
2011-02-23,0,0.0,0.0,-0.011764247342844324,0.01223204451237255,0.9874223511861041
2011-02-25,0,0.0,0.0,-0.01083389063649918,0.009964755543184215,0.9878210492478179
2011-03-01,0,0.0,0.0,-0.007977236765934384,0.008146852784975817,0.989951594406565
2011-03-03,1,0.001015328463753183,0.0011179966844206504,-0.006873772175634235,0.007579351149784104,0.9911859986092015
2011-03-07,1,0.000762448814661248,0.0008480621708625159,-0.006741022520982328,0.007579351149784104,0.9917119326636886
2011-03-09,1,0.0008496162445715601,0.0009360608440526285,-0.00455279550489118,0.007188505822465097,0.9925578731463882
2011-03-11,1,0.0013041665344777846,0.0014737222668391502,-0.006851679024178016,0.006419411771446585,0.993003155521355
2011-03-15,1,0.000717719187172541,0.0008129834862000891,-0.004469959415636617,0.006419411771446585,0.9933869556106699
2011-03-17,-1,-6.409775754450639e-05,-4.080149044828374e-05,-0.002046224764937349,0.007188505822465097,0.9930052028801211
2011-03-21,1,0.0003882692501467693,0.00040135962161196677,-0.004341243044628952,0.007188505822465097,0.9931780573170703
2011-03-23,-1,-0.0006167173562760113,-0.0004981465419200639,-0.0007233692501366501,0.007579351149784104,0.9933329877692832
2011-03-25,1,0.0004976733263968912,0.0005651414738032025,-0.0007233692501366501,0.007573850115796341,0.9936502357275627
2011-03-29,1,0.0011416995987325006,0.0013281120908523573,-0.0007233692501366501,0.008666984547244018,0.993802410935281
2011-03-31,1,0.0020621990325690714,0.0024794495607269656,-0.0020119903461129967,0.011438009143989035,0.9936538242242673
2011-04-04,1,0.001079986796971057,0.0012287901024783067,-0.0001817552648512718,0.011438009143989035,0.9930559899227591
2011-04-06,1,0.001240692260060758,0.001412785567989693,-0.0037089068771680002,0.011438009143989035,0.9927005220376668
2011-04-08,1,0.00043244151659106267,0.0004669328450436588,-0.002904674738702475,0.011438009143989035,0.9927207543129473
2011-04-12,0,0.0,0.0,-0.002904674738702475,0.011629058822338058,0.9920406560302041
2011-04-14,0,0.0,0.0,-0.0031626736834867303,0.011438009143989035,0.9924889956957827
2011-04-18,1,0.00043410968354183686,0.0004571740020790321,-0.002904674738702475,0.010185120930949523,0.9931641669951521
2011-04-20,1,0.0011533384347013008,0.0012695158471743293,-0.0031496961030443725,0.009518791410926087,0.9933947335076617
2011-04-25,1,0.0016557992564415086,0.0018408745908889846,-0.0037089068771680002,0.00784061769773781,0.9927547695921992
2011-04-27,1,0.0026292856243865267,0.0029846547543620292,-0.0037089068771680002,0.007650684463008308,0.9928979203521147
2011-04-29,1,0.0027524802654040285,0.003112020797118353,-0.0036699741358409265,0.007650684463008308,0.9932379583972673
2011-05-03,1,0.0026903590801576824,0.00298921951462114,-0.0045922198422676625,0.007650684463008308,0.99162580054855
2011-05-05,1,0.0020904994841992684,0.0022881545072018167,-0.006164467765387185,0.008066976531704111,0.9914868667844043
2011-05-09,1,0.0018611854959988802,0.002001343923881475,-0.008115530512696192,0.00886251530696246,0.9908562829408707
2011-05-11,1,0.0013075264472493927,0.0013084504233995165,-0.01139512340931146,0.008066976531704111,0.9909897011185046
2011-05-13,1,0.0011623586338000644,0.0011984967897934956,-0.01139512340931146,0.008066976531704111,0.990324068092718
2011-05-17,1,0.0012592338961601186,0.001345675248665482,-0.012213348852385186,0.00886251530696246,0.9890702509820346
2011-05-19,1,0.001601707533605167,0.00175341257406332,-0.012213348852385186,0.009781028150336326,0.9887565890668756
2011-05-23,1,0.0006598084554696587,0.0006973828812513504,-0.007863442849012801,0.009781028150336326,0.9895421285235345
2011-05-25,1,0.0008662295365655412,0.0008992056736689045,-0.01145708586133501,0.009781028150336326,0.9887680142551031
2011-05-27,1,0.0008877845677461905,0.0009120457476849103,-0.01145708586133501,0.009781028150336326,0.9887464601160725
2011-06-01,0,-0.0001761523170773963,3.133762100443493e-05,-0.007863442849012801,0.009781028150336326,0.9899260882158385
2011-06-03,0,0.0,0.0,-0.0076135329677641285,0.010745967921075426,0.9893507869393051
2011-06-07,0,0.0,0.0,-0.0023919103109788084,0.010745967921075426,0.9897432381666352
2011-06-09,0,0.0,0.0,-0.0014949395617012914,0.011356245336857572,0.9896250064896692
2011-06-13,-1,-0.0011267803168512063,-0.0008736452512896195,-0.0014949395617012914,0.011356245336857572,0.9899597710133141
2011-06-15,-1,-0.0012014529556213845,-0.0009549667292100826,-0.003925402917896976,0.010618187166897863,0.9909649533861181
2011-06-17,-1,-0.0003417491470852558,-0.0002155393546009615,-0.005797807322319952,0.009675348948455235,0.9914375797835354
2011-06-21,-1,-0.00018747166078485303,-8.367641006718515e-05,-0.005797807322319952,0.010912124962033042,0.9908399687775201
2011-06-23,-1,-0.0008961313996573878,-0.0007067260352924832,-0.0002766257492200229,0.010912124962033042,0.9912414633737862
2011-06-27,-1,-0.0004288112565795389,-0.0003156159191703913,-0.003925402917896976,0.010912124962033042,0.9909039074791248
2011-06-29,1,4.838626240903654e-07,5.1770760054999326e-05,-0.0061457747734127285,0.010912124962033042,0.9900217328225355
2011-07-01,1,0.0014018818777299588,0.0015561976226768255,-0.0067493603519858305,0.008928616098192576,0.9909726945207586
2011-07-06,1,0.0014894737824610175,0.0016605986831946104,-0.00811486080028878,0.007494202170991765,0.9895746954302107
2011-07-08,1,0.0019071648264626588,0.0021006720008819066,-0.012641087551834511,0.0051845360919551995,0.9871982916669664
2011-07-12,1,0.0015326632325607483,0.001675877968026928,-0.013137858115257674,0.007494202170991765,0.9793393527861647
2011-07-14,1,0.0011794717313757292,0.0012726962001196039,-0.020427096881199307,0.01110390949384209,0.9758884387372198
2011-07-18,1,0.0010578779602400284,0.0011120757165337767,-0.020427096881199307,0.012869451389918633,0.9759199932772725
2011-07-20,1,0.001614033031979058,0.0017384592996801322,-0.020427096881199307,0.010884755011041523,0.976328494232189
2011-07-22,1,0.0017213758079038498,0.0018632443851212617,-0.02666637802128257,0.010884755011041523,0.9735093113922992
2011-07-26,1,0.0018046559172597443,0.00196037764426719,-0.02666637802128257,0.010884755011041523,0.9735037385649423
2011-07-28,1,0.0011231818475449962,0.001158703127914527,-0.02348243557121754,0.011758603691043954,0.9737759254553038
2011-08-01,1,0.0008534960171905527,0.0008579908014753949,-0.02348243557121754,0.015826018088430156,0.9727232462172817
2011-08-03,-1,-0.00025386691409360186,-0.00013465717669243363,-0.01936578273117763,0.015826018088430156,0.9736431657737132
2011-08-05,-1,-0.002605201387867853,-0.002179782789784066,-0.019141535771844794,0.015826018088430156,0.9749313333911184
2011-08-09,-1,-0.0018133274740017233,-0.0014546855162112066,-0.010263473527055,0.015826018088430156,0.9816970541754286
2011-08-11,-1,-0.0006928700281281899,-0.0004944605332973271,-0.010263473527055,0.015555430959347076,0.9849106042877815
2011-08-15,-1,-0.0011435883101306367,-0.0008514252720460125,-0.010263473527055,0.014082048315973908,0.9854266412205576
2011-08-17,-1,-0.0005557536015859993,-0.00035763842331698343,-0.010263473527055,0.015826018088430156,0.9850499102000083
2011-08-19,-1,-0.002411650469782433,-0.0020171432997774957,-0.006107350923173856,0.015826018088430156,0.9860539643434567
2011-08-23,-1,-0.0010957850630212034,-0.0008674058815522804,-0.009567634345355572,0.014140395127324878,0.9848782697988079
2011-08-25,0,0.0,0.0,-0.009427741025020215,0.014217681668144515,0.9851236419523994
2011-08-29,0,0.0,0.0,-0.009427741025020215,0.010924790917086178,0.9863895869850697
2011-08-31,0,0.0,0.0,-0.015073264063209836,0.012211492320083268,0.9856782000873713
2011-09-02,0,0.0,0.0,-0.01674734915545885,0.012211492320083268,0.9842248250352937
2011-09-07,0,-5.790065762359647e-05,7.946650179644341e-05,-0.01674734915545885,0.008200141399891888,0.9837430856601543
2011-09-09,0,0.0,0.0,-0.01674734915545885,0.012230941257200258,0.9824029075662333
2011-09-13,-1,-0.0007283303807227975,-0.00055054135935423,-0.01674734915545885,0.014466896187762451,0.9796618608879436
2011-09-15,1,0.00044933790503271485,0.00045819465174708933,-0.01840538795899678,0.014466896187762451,0.9788980439358056
2011-09-19,1,0.000524898242571411,0.0005514556891784761,-0.021156595051393775,0.018086156123749964,0.9779395316097246
2011-09-21,-1,-0.0011373569090227568,-0.000981445217989722,-0.01840538795899678,0.021848729579898203,0.9786571145402803
2011-09-23,0,0.0,0.0,-0.01840538795899678,0.02511145327539166,0.9779973836088401
2011-09-27,0,0.0,0.0,-0.01840538795899678,0.02511145327539166,0.976831276807013
2011-09-29,0,0.0,0.0,-0.015944251459681962,0.03014398837547976,0.9752700135819077
2011-10-03,-1,-0.0008042449199167099,-0.000737502470023813,-0.014138978097255474,0.03014398837547976,0.9772773882790969
2011-10-05,-1,-0.00164688352719328,-0.00146162235159562,-0.014582517471614596,0.02511145327539166,0.9776713294860665
2011-10-07,-1,-0.0010454745975147194,-0.0009371043331150312,-0.014138978097255474,0.021848729579898203,0.9795745860240169
2011-10-11,-1,-0.00036258101041638634,-0.00032624772598364917,-0.009256018268456265,0.020653065299131367,0.9818795735007109
2011-10-13,-1,-0.0007576840505277823,-0.0006316380901225591,-0.009256018268456265,0.01906028670472925,0.9813765779807783
2011-10-17,-1,-0.0006052169764380669,-0.000518693717642234,-0.009256018268456265,0.018130865283338668,0.9818349104834052
2011-10-19,0,0.0,0.0,-0.00931772431935557,0.01718935539227832,0.9830348243640061
2011-10-21,0,0.0,0.0,-0.014117977879360295,0.01433497782025108,0.9840541841445085
2011-10-25,1,0.0019699931023139856,0.0021830532966403463,-0.015347685897558078,0.011108420880066973,0.9843068692816735
2011-10-27,1,0.003726048605268221,0.0041580178200412675,-0.02025388106184799,0.0080883726870192,0.9856549697557451
2011-10-31,1,0.003060657409741825,0.0033767609365114148,-0.02025388106184799,0.009336398151957758,0.9853543278667309
2011-11-02,0,0.0,0.0,-0.015347685897558078,0.009336398151957758,0.9843282346054888
2011-11-04,0,0.0,0.0,-0.015347685897558078,0.0080883726870192,0.9850451902810217
2011-11-08,1,0.0027186461855184876,0.0030529880466385433,-0.015347685897558078,0.009336398151957758,0.98517590809042
2011-11-10,1,0.0016714977087524613,0.001880115497259922,-0.015347685897558078,0.01071195486366379,0.9853419271223258
2011-11-14,-1,-0.0007096620007719511,-0.0006962906546673663,-0.015347685897558078,0.009336398151957758,0.9858234390142198
2011-11-16,-1,-0.0007494263349303884,-0.0007416582163769011,-0.011595034930958453,0.009727525703938754,0.9864998446710521
2011-11-18,-1,-0.0005645472851158971,-0.0005029698241777981,-0.010148054199523658,0.009658440574139416,0.9871844244811288
2011-11-22,-1,-0.001142216454892205,-0.001108778868245116,-0.0037040791486768147,0.012523666901533663,0.9867982298198071
2011-11-25,-1,-0.001491748219865738,-0.0014840321606781808,-0.0011993428856359213,0.012523666901533663,0.9870949960030283
2011-11-29,-1,-0.0006538328385940834,-0.0005287027534145658,-0.0037040791486768147,0.011315138848229905,0.9877767642304538
2011-12-01,0,-9.217271605389577e-05,8.515075093139441e-05,-0.002933262471726794,0.009754739142805396,0.989901590569288
2011-12-05,-1,-0.0002166212366667491,-7.091257056347013e-05,-0.007625970238736533,0.009754739142805396,0.9890045412906165
2011-12-07,0,0.0,0.0,-0.008294018279747968,0.009011596523136385,0.988940765300279
2011-12-09,0,0.0,0.0,-0.007077836242123658,0.006879112642451093,0.9908410199627801
2011-12-13,0,0.0,0.0,-0.0023051592677570754,0.006879112642451093,0.9917261872817893
2011-12-15,0,0.0,0.0,-0.0023051592677570754,0.006879112642451093,0.9919177019337352
2011-12-19,0,0.0,0.0,-0.0023051592677570754,0.006974567573270517,0.9912321256643779
2011-12-21,0,0.0,0.0,-0.0023051592677570754,0.006048135035989402,0.9927998574036351
2011-12-23,1,0.0018861817979984488,0.0021255812491354034,-0.0023051592677570754,0.006048135035989402,0.9927719129439889
2011-12-28,1,0.0007997257849204469,0.000813905336912408,-0.0007286091038960432,0.006048135035989402,0.9932011113363972
2011-12-30,1,0.0005561298964376912,0.00061468722868057,-0.0007286091038960432,0.005531042180772375,0.9932473016096133
2012-01-04,1,0.001113763140799396,0.0012357373539834808,-0.00034805120725278714,0.006238055919599701,0.9940104077430347
2012-01-06,1,0.0021721138742159885,0.0024300690800017925,-0.00034805120725278714,0.007547945272815224,0.9941600087961163
2012-01-10,1,0.0008005876888723348,0.0009363451877823059,-0.00024360380413135211,0.007547945272815224,0.9939108326070167
2012-01-12,1,0.0004656026193382126,0.00048173246237232604,-0.00024360380413135211,0.007547945272815224,0.993815274646576
2012-01-17,1,0.00036198772364364113,0.00041264710067392366,-0.00024360380413135211,0.005771619049884808,0.9938890924459546
2012-01-19,1,0.000774077496632399,0.0008511506023367198,-0.00024360380413135211,0.005771619049884808,0.9944495531977329
2012-01-23,1,0.0011959667139094404,0.001378574430140466,-0.002933364401651674,0.005771619049884808,0.993923692462729
2012-01-25,1,0.0019004482879503293,0.0021701008373909234,-0.007034480462411171,0.004876918561081178,0.9946514402925605
2012-01-27,1,0.0013900657197218435,0.0015453707813744095,-0.007034480462411171,0.005145342881740728,0.994608916478005
2012-01-31,1,0.0022378169811118837,0.0025742295044930566,-0.006187284612823194,0.005145342881740728,0.9943365398361919
2012-02-02,1,0.0023176440909560376,0.0026246600787036183,-0.006187284612823194,0.006286056401720816,0.9942311144942493
2012-02-06,1,0.002355437430539174,0.00266844582251762,-0.006187284612823194,0.006286056401720816,0.9940949119088238
2012-02-08,1,0.002455781461067921,0.00281163499848174,-0.006187284612823194,0.00647575473191986,0.9937680472961686
2012-02-10,1,0.002296686798901214,0.0026281026853832807,-0.006187284612823194,0.006614102421075707,0.9927585309894508
2012-02-14,1,0.0003695648346718563,0.00047217265751798573,-0.004354507805009584,0.007205948744558867,0.9925429763405965
2012-02-16,1,0.001081366551564389,0.001088458402160989,-0.004354507805009584,0.006614102421075707,0.9930820347294416
2012-02-21,1,0.0005690301540040117,0.0006270070067972613,-0.0013680258094128828,0.007205948744558867,0.9932657629757898
2012-02-23,1,0.0002765380667190649,0.00038324920972610026,-0.0013680258094128828,0.007205948744558867,0.9931162324717945
2012-02-27,0,-0.00011573326090746764,6.928115850195335e-05,-0.0013680258094128828,0.007205948744558867,0.9927970633160245
2012-02-29,-1,-0.00024451050588311413,-4.454097593272507e-05,-3.077156279138223e-05,0.007205948744558867,0.9930729066826063
2012-03-02,1,9.495678205922347e-05,0.0002520346410050809,-3.077156279138223e-05,0.007035857515664218,0.9933777850661208
2012-03-06,1,3.22067448697064e-05,0.00018185641213552925,-3.077156279138223e-05,0.007085193364212848,0.9938137021312807
2012-03-08,1,0.0002461474973410929,0.00037582942279316994,-0.0009963217535326682,0.006445341196819319,0.9940629741769696
2012-03-12,1,0.00017244157884937773,0.0003314101831710656,-0.0023231048395305045,0.006066666474052203,0.9942670485346795
2012-03-14,1,0.0009060464826694362,0.0009389729321714115,-0.0023231048395305045,0.006445341196819319,0.9936469695431687
2012-03-16,1,0.0014563655585852848,0.0015193058453665574,-0.0033662770338927367,0.007085193364212848,0.9922158326334775
2012-03-20,1,0.0016374667455857838,0.0017084649524512375,-0.00411103517844625,0.006445341196819319,0.9923742121417838
2012-03-22,1,0.001528065002499837,0.00165210034755397,-0.00411103517844625,0.007085193364212848,0.9921449051806575
2012-03-26,1,0.001786669106699623,0.0019401766472499872,-0.006419518456208615,0.009361951232324476,0.9913512407902876
2012-03-28,1,0.002086034753475123,0.0022863868458927,-0.006419518456208615,0.011624771527537723,0.9909007098163821
2012-03-30,1,0.002503712704651468,0.002780746500056333,-0.006419518456208615,0.01245923584206419,0.9902277225042556
2012-04-03,1,0.002849749251691019,0.003177224189938146,-0.006419518456208615,0.01300513802762271,0.989947210322907
2012-04-05,1,0.0023380452795114842,0.0025677544661499934,-0.007049976633885304,0.01300513802762271,0.9893451905619942
2012-04-10,1,0.0004213040814171911,0.00047278228284528445,-0.004418624382305744,0.01300513802762271,0.9903960862472578
2012-04-12,1,0.0014562057127426903,0.0015115518713195212,-0.004940413856659255,0.012179052573308324,0.9915364110980175
2012-04-16,1,0.002702211434663621,0.002945006677260949,-0.004940413856659255,0.00856632389116405,0.992243514745387
2012-04-18,1,0.002050108907493907,0.0021705411032946196,-0.00790024696930488,0.00856632389116405,0.9912439812539479
2012-04-20,1,0.000870384852605364,0.00099319531631808,-0.009552028996045275,0.0061361412648641275,0.9902853147758036
2012-04-24,1,0.0007470647967269019,0.000846923498471391,-0.008722949514733465,0.0061361412648641275,0.9904281710931649
2012-04-26,1,0.0022424181113171204,0.002332490846108856,-0.008722949514733465,0.0061361412648641275,0.9906607027339632
2012-04-30,1,0.0024170768415835726,0.0025286528177879174,-0.008722949514733465,0.0061361412648641275,0.9905489313544257
2012-05-02,1,0.002600145634388494,0.002745505822785553,-0.009665345473126743,0.0061361412648641275,0.9895440557414237
2012-05-04,1,0.0018069844762504286,0.001815963652975065,-0.011133748275210784,0.0061361412648641275,0.9892421391845628
2012-05-08,1,0.0014792223543731936,0.0015605800554260919,-0.011133748275210784,0.007970794829764885,0.9877667059784473
2012-05-10,1,0.0013580546394372827,0.0014377345451811246,-0.011133748275210784,0.009933051539378205,0.9873731490456127
2012-05-14,1,0.00115777005087176,0.001254873959325229,-0.014827009318502856,0.009933051539378205,0.9869010324557176
2012-05-16,1,0.0005677800454307215,0.0006848149463655663,-0.011954954740253912,0.009933051539378205,0.9874441946080481
2012-05-18,-1,-0.0005274570281223805,-0.00030561827068817827,-0.003186338827883094,0.009933051539378205,0.9889226032845265
2012-05-22,-1,-0.00020182220858843227,-6.89650679228126e-06,-0.003186338827883094,0.009933051539378205,0.9891964731283067
2012-05-24,0,-0.0001769969856132206,3.002324484859269e-05,-0.007448149415100391,0.009933051539378205,0.9885284736180308
2012-05-29,-1,-0.00033613368894796385,-8.080728007812802e-05,-0.004528362929571527,0.0089427733531319,0.9892338706227333
2012-05-31,-1,-0.0014713947233855676,-0.0010702299986651183,-0.0018517513706885716,0.007324510901292363,0.9902946418116513
2012-06-04,-1,-0.002353915520589899,-0.0018511025852775754,0.00037170661213676735,0.012422326726980222,0.9889260304519607
2012-06-06,-1,-0.0010343135076428687,-0.0006748666972257716,-0.0018517513706885716,0.007324510901292363,0.9909805797387302
2012-06-08,-1,-0.0006116074370013504,-0.00030827561596191526,0.00037170661213676735,0.006949912881512069,0.9912241150451503
2012-06-12,-1,-0.0011144418573710195,-0.0008438511526967887,0.00037170661213676735,0.006437060328490212,0.991658140745875
2012-06-14,-1,-0.0016371791413388593,-0.0012943199642807784,0.0005181012176791483,0.006949912881512069,0.9917003080212087
2012-06-18,0,-9.921511506765521e-06,9.625048027392331e-05,-0.00047562969872938775,0.007609042577570324,0.9923319096014729
2012-06-20,0,-1.5328385204103206e-05,6.912903690218792e-05,-0.002205636377463199,0.005369167490745343,0.9927632136434159
2012-06-22,-1,-0.0005809591186895575,-0.0004149598784852347,-0.0043618908410851965,0.005369167490745343,0.9931577586986859
2012-06-26,1,0.0002961074972326303,0.0003689062853117786,-0.006695122114611788,0.007609042577570324,0.9925659737068523
2012-06-28,1,0.00018998375475542012,0.0002415753008191423,-0.006695122114611788,0.009593934991059067,0.9916496759777115
2012-07-02,1,0.0017138154052024905,0.0018511346637697153,-0.006695122114611788,0.007609042577570324,0.993353899747573
2012-07-05,1,0.0005864997618056817,0.0006754571110292067,-0.004433885992165204,0.007609042577570324,0.9937622344080687
2012-07-09,1,0.0009611573908669929,0.0010332194785567393,-0.006695122114611788,0.008572274332665698,0.9933577972957954
2012-07-11,1,0.0004303885000543489,0.0004743965815327206,-0.006695122114611788,0.008572274332665698,0.9929675925565101
2012-07-13,1,0.0006473030500840057,0.0007548529614438378,-0.00715543956388032,0.005306255031345594,0.9928985572311182
2012-07-17,1,0.0006734233459715573,0.0007875626263695881,-0.00715543956388032,0.004178963785128064,0.9930371188618163
2012-07-19,1,0.000249163466056415,0.00041191586200408893,-0.006755213074819478,0.005551560462549069,0.9930201689511575
2012-07-23,-1,-0.0007272629971596962,-0.0004192111692817649,-0.0050870287373795025,0.005551560462549069,0.9933458875586387
2012-07-25,-1,-0.000552278616974541,-0.00028474037986292065,-0.004013363869383705,0.004178963785128064,0.9940435238159001
2012-07-27,0,-5.974562529928603e-05,0.00018552050659193507,-0.0050870287373795025,0.0038854798390486364,0.9945201075233587
2012-07-31,1,3.771095407583487e-05,0.0002553136003528957,-0.0050870287373795025,0.0041587017243841454,0.9943359542066095
2012-08-02,1,0.00043743539730241277,0.0005752203617052172,-0.005116028764884206,0.0028479750850093346,0.9941449663151082
2012-08-06,1,0.00040626385954569067,0.0005314261727642441,-0.004889291469633742,0.0028479750850093346,0.9946278594932373
2012-08-08,-1,-0.00028601743762108093,-8.534420755184041e-05,-0.003860247172197774,0.0041587017243841454,0.9951459186697962
2012-08-10,-1,-0.00027968629390729826,-9.951292456956832e-05,-0.003860247172197774,0.00286784189854719,0.9948402864317663
2012-08-14,-1,-0.0005106470552689742,-0.00029116750544207854,-0.003860247172197774,0.005465958204724317,0.9943314048039673
2012-08-16,1,0.00027759458267915036,0.0003784651859015308,-0.003860247172197774,0.005881838245019034,0.9938186440465925
2012-08-20,0,-0.00012162119217857891,3.643531374299163e-05,-0.0038699138480326753,0.005881838245019034,0.9932539932141159
2012-08-22,-1,-0.0002331531274148348,-6.398531762221468e-05,-0.005372030478036871,0.005881838245019034,0.9917093744589351
2012-08-24,-1,-0.00044487140973452507,-0.0003095649623522424,-0.00517209253486842,0.005881838245019034,0.992202749477645
2012-08-28,-1,-0.00024987963603005165,-0.00012475116669059756,-0.006828066011106849,0.005465958204724317,0.9914513632892532
2012-08-30,-1,-0.0014265902918646689,-0.0010885706188238295,-0.006828066011106849,0.005465958204724317,0.9914554817370677
2012-09-04,-1,-0.00042689538902272836,-0.00026013575376750386,-0.006828066011106849,0.005465958204724317,0.9914099639300926
2012-09-06,1,4.354751413882568e-05,0.00010862078680679178,-0.006828066011106849,0.005317016291195343,0.9915627493600728
2012-09-10,-1,-0.0006140959048883498,-0.0004690475090706222,-0.005770058246426749,0.005317016291195343,0.9924003687139976
2012-09-12,1,0.00021131687351877464,0.0002467426572979857,-0.005770058246426749,0.00513975329066364,0.9926836788243903
2012-09-14,1,0.0011651550169037889,0.0012569965554961723,-0.005770058246426749,0.002543528084575218,0.9934708247204542
2012-09-18,1,0.0009996849318833763,0.0010803623520829117,-0.004626824935788707,0.004498096908586726,0.9939297033442659
2012-09-20,1,0.0009454857445272671,0.0010808158061465165,-0.004168903009976378,0.004906463608791833,0.9948581968487114
2012-09-24,1,0.0009629867073977568,0.0011209557387933293,-0.004168903009976378,0.004906463608791833,0.9945326791409239
2012-09-26,-1,-0.00038059165376215303,-0.00031341637145778376,-0.004093291973770426,0.004906463608791833,0.9952485801503453
2012-09-28,1,6.514112014534263e-05,8.168505638590396e-05,-0.004168903009976378,0.004498096908586726,0.9950936157108529
2012-10-02,1,0.00010694846682226524,0.00012201037123640532,-0.004168903009976378,0.004498096908586726,0.9949136850458093
2012-10-04,1,0.0001674544710077648,0.0001861557919204779,-0.004871534859440927,0.004906463608791833,0.9938850826366603
2012-10-08,-1,-0.00036969949127078374,-0.0002701750764309453,-0.004871534859440927,0.004997500381444786,0.9936193581989855
2012-10-10,-1,-0.0009302742684490618,-0.0007021884753486845,-0.007418677490352625,0.004820696173318614,0.9929530026235045
2012-10-12,-1,-0.0007466230526676376,-0.0005690349060659103,-0.007418677490352625,0.004820696173318614,0.9930126347293275
2012-10-16,-1,-0.00012996108001758622,-5.2990502160867514e-05,-0.0085009229242197,0.001997220944552777,0.9918879601893962
2012-10-18,1,0.00031382434567209374,0.00032733951583919244,-0.0085009229242197,0.001997220944552777,0.9920917317469392
2012-10-22,-1,-0.0006768003199085053,-0.000515306821169635,-0.008140299124439476,0.00290327775761599,0.9921736729335874
2012-10-24,-1,-0.0020565045532482482,-0.0016784801658953708,-0.006826410619886104,0.006030508437597045,0.9919203040243366
2012-10-26,-1,-0.0015700417044472157,-0.001315432662391015,-0.006768448874248285,0.006030508437597045,0.9919877655423639
2012-11-01,-1,-0.000699078666346933,-0.0005631100277931824,-0.006768448874248285,0.006044292983450585,0.9921596468367021
2012-11-05,-1,-0.0007449930837629177,-0.0005835317314981495,-0.0057303474774657885,0.005138353314285785,0.9932087099542595
2012-11-07,-1,-0.0006952099929006268,-0.0005235316738416433,-0.0057303474774657885,0.006044292983450585,0.9928057008400583
2012-11-09,-1,-0.0015665556772600422,-0.0013080070211337004,-0.001902510710707094,0.007049554542436451,0.993183982920876
2012-11-13,-1,-0.0011329360783461282,-0.0009610062159905724,-0.0018870830435407401,0.007049554542436451,0.9930850936658608
2012-11-15,-1,-0.0023596248695842295,-0.0020223244359328036,-0.0018329109813495859,0.007049554542436451,0.9933397143508182
2012-11-19,-1,-0.0017635501345303647,-0.001498250568837021,-0.0018329109813495859,0.008209901109366351,0.9935316385772165
2012-11-21,-1,-0.0012263131920845281,-0.0010434721154168594,-0.0018870830435407401,0.008209901109366351,0.9935595514659588
2012-11-26,-1,-4.83762777590368e-05,-3.9976032391903475e-05,-0.0018870830435407401,0.007049554542436451,0.9943129904798327
2012-11-28,-1,-0.0007671671010316288,-0.0006708777276481985,-0.0018329109813495859,0.007049554542436451,0.9941601177630474
2012-11-30,1,3.0064084428842975e-05,4.6199039030751805e-05,-0.0018870830435407401,0.008209901109366351,0.9937099619964141
2012-12-04,-1,-0.00011803429286189628,-0.00010271991984026397,-0.0022327460314455804,0.008865208079036015,0.9930687444822064
2012-12-06,1,0.00045744960366886865,0.0005334199782755291,-0.0022327460314455804,0.008209901109366351,0.9936634966073763
2012-12-10,1,0.0009330652034111448,0.0010910944990088901,-0.00301203669674692,0.007530920521419561,0.993743393394727
2012-12-12,1,0.0007478222263200718,0.0008559169953798367,-0.00301203669674692,0.007530920521419561,0.9939854189291757
2012-12-14,1,2.746512046324851e-05,3.969343963695203e-05,-0.0029480553782985485,0.007530920521419561,0.9942716088840446
2012-12-18,1,0.0006895140309637445,0.0007615700453832263,-0.0030443355167654768,0.005220939953191119,0.9950051921438093
2012-12-20,1,0.0013924313503458213,0.0016062211535326342,-0.0030443355167654768,0.005220939953191119,0.9952347571688189
2012-12-24,1,0.0012892945590046309,0.0014881849280316247,-0.0030443355167654768,0.005220939953191119,0.9952129746090761
2012-12-27,1,0.0015590632235513492,0.001811970387025064,-0.0008272876765965404,0.0047532238328079025,0.9957733129974545
2012-12-31,1,0.0015720347614248318,0.001819269812003538,-0.0008272876765965404,0.004241037232320473,0.9964501624719223
2013-01-03,1,0.0010678982917773062,0.001208710255516006,-0.0008272876765965404,0.004241037232320473,0.9965170637525634
2013-01-07,1,0.0012252442100989915,0.001377120250473162,-0.0030443355167654768,0.0035845554617332915,0.9964285595088043
2013-01-09,0,0.0,0.0,-0.0030443355167654768,0.0033547483480990863,0.9964098270591881
2013-01-11,0,0.0,0.0,-0.0030443355167654768,0.0042017026511460675,0.9956076170734304
2013-01-15,1,0.0011626485591115978,0.001351706050304382,-0.003584930367426367,0.0035845554617332915,0.9956896414877047
2013-01-17,1,0.0010159406895774612,0.0011843527033999315,-0.004868249427766488,0.0035845554617332915,0.9951363011953698
2013-01-22,1,0.0010823227918359984,0.0012412318921775267,-0.005632068254806623,0.0035009476848593675,0.994967050918146
2013-01-24,1,0.0013432065530452541,0.0015501867808814297,-0.005760382192967361,0.0034385422596277726,0.9941602133866498
2013-01-28,1,0.0013238557993814387,0.0015138613730724644,-0.006438330603933989,0.0034385422596277726,0.9933255638970638
2013-01-30,1,0.00123409012117206,0.0014297564888619313,-0.005760382192967361,0.0039508793205242955,0.9933756861973214
2013-02-01,1,0.0013427839163205253,0.001546633595960321,-0.005632068254806623,0.005188200376398354,0.9936172559735061
2013-02-05,1,0.0009293807381305893,0.0010511562496298317,-0.005632068254806623,0.007115544761551856,0.9934512634830862
2013-02-07,1,0.0010195296232668283,0.0011835480150388204,-0.005760382192967361,0.007115544761551856,0.9931726749590273
2013-02-11,1,0.0017752321938258055,0.0020727481680586192,-0.006862621606583746,0.006465732804074292,0.9930326510787305
2013-02-13,1,0.0013952290107630987,0.0016297112036508974,-0.006862621606583746,0.006465732804074292,0.9934260075613985
2013-02-15,1,0.0007732047393622901,0.0008748909010510525,-0.0056147895725141665,0.006465732804074292,0.9937269169815705
2013-02-20,0,0.0,0.0,-0.006386447470168622,0.007115544761551856,0.9933052875385053
2013-02-22,1,0.00019753768814126293,0.0002200038930871251,-0.004545251209371225,0.006902933356182121,0.9938264089086427
2013-02-26,-1,-8.317219727868802e-05,-3.3882942078933796e-05,-0.0030012326727993895,0.006902933356182121,0.9946764261865054
2013-02-28,1,2.7590599735127783e-05,5.927124450522571e-05,-0.004075882083368319,0.00639563911136476,0.9949325557864158
2013-03-04,1,0.0005781850198103593,0.0006151654929545012,-0.004075882083368319,0.00515729427538125,0.9948826774560767
2013-03-06,1,0.0005344389981673508,0.000569155812041204,-0.0029454272334449656,0.006287093890903587,0.9947026587811304
2013-03-08,0,0.0,0.0,-0.0019602467620288464,0.007304766112019851,0.9936778738776987
2013-03-12,0,0.0,0.0,-0.001472211616559253,0.008994428186743437,0.9939527968245022
2013-03-14,0,0.0,0.0,-0.0019602467620288464,0.00983119104339712,0.9930163372582813
2013-03-18,0,0.0,0.0,-0.0012587591986105307,0.00999653824476125,0.9912915772775782
2013-03-20,0,0.0,0.0,-0.0012587591986105307,0.00999653824476125,0.9917204137827026
2013-03-22,0,0.0,0.0,-0.0014779000321057942,0.011786370333267859,0.9911036236020403
2013-03-26,0,0.0,0.0,-0.0014779000321057942,0.011786370333267859,0.990806531764776
2013-03-28,0,0.0,0.0,-0.0025277634848743912,0.011786370333267859,0.99070477746466
2013-04-02,1,0.00044813352075255856,0.00048614347494012485,-0.0025277634848743912,0.012883098608993887,0.9909261187202103
2013-04-04,1,0.0009807662100682962,0.0010992141303498727,-0.0034729169693267143,0.012883098608993887,0.9909753871094871
2013-04-08,0,0.0,0.0,-0.0034729169693267143,0.008655538290703207,0.9919743854152311
2013-04-10,0,0.0,0.0,-0.0034729169693267143,0.008230912855065454,0.9919187623620428
2013-04-12,1,0.0013609378116113905,0.0013970161172620833,-0.00377120533274214,0.007994574971637993,0.9926590460164675
2013-04-16,1,0.0018134455331170543,0.001929068153001894,-0.0036119469027914783,0.005388346388257482,0.9944228793100786
2013-04-18,0,0.0,0.0,-0.0036119469027914783,0.005388346388257482,0.9941327478312215
2013-04-22,0,0.0,0.0,-0.004215723749407445,0.005388346388257482,0.9943366210377457
2013-04-24,0,0.0,0.0,-0.0047572615019747825,0.0073024202783464436,0.9932145568375622
2013-04-26,0,0.0,0.0,-0.00570764598703615,0.0073024202783464436,0.9926192083328705
2013-04-30,1,0.002018352911093204,0.002174171644728981,-0.008094618787833482,0.005943886094121037,0.9921099446538659
2013-05-02,1,0.0020377230333346098,0.002216348650585549,-0.011027394559422065,0.005191998804675099,0.9911678023405839
2013-05-06,1,0.002211978228436241,0.0024265877848723624,-0.011027394559422065,0.0037343535949046686,0.9910949654446194
2013-05-08,1,0.002447187856766791,0.00269063081857347,-0.011027394559422065,0.0037343535949046686,0.9902662572683834
2013-05-10,1,0.0018360522072217724,0.0019592883830875396,-0.011575921221674076,0.004419426051805392,0.9901171665997055
2013-05-14,1,0.001957432026600116,0.0021328634547604112,-0.01436781642958265,0.004419426051805392,0.9885963952349709
2013-05-16,1,0.0017693723871987283,0.0019272131317482294,-0.01436781642958265,0.005608284019036397,0.9875554269714487
2013-05-20,1,0.001693671561220668,0.001832221866285576,-0.01436781642958265,0.005608284019036397,0.9873660595707447
2013-05-22,1,0.0014766824734713346,0.0015671589884853673,-0.016403241766313817,0.005191998804675099,0.9849496023098082
2013-05-24,1,0.0010387698759167854,0.0010786624841147157,-0.016403241766313817,0.005608284019036397,0.9848224978183663
2013-05-29,1,0.0004000644392352645,0.0004412481751654221,-0.012853143926634267,0.00987070902372919,0.985220749519513
2013-05-31,-1,-0.0008019008476863347,-0.0006341536763605926,-0.012853143926634267,0.01218733755325115,0.9852981801468332
2013-06-04,-1,-0.0010116008089684765,-0.0008185660028085333,-0.012853143926634267,0.013392367059898989,0.9840633509928123
2013-06-06,-1,-0.0007301060618985989,-0.0005702454680967221,-0.01608382978565833,0.01218733755325115,0.9840988908476886
2013-06-10,-1,-0.0011261407699154355,-0.0009213641356003215,-0.01608382978565833,0.013392367059898989,0.9840651900897027
2013-06-12,-1,-0.0024703917227200537,-0.002104491215231109,-0.007895826030903937,0.014872709207744401,0.984177968633629
2013-06-14,-1,-0.0008011780255064928,-0.0006435792111695348,-0.007895826030903937,0.013392367059898989,0.9860790088959513
2013-06-18,-1,-0.00044804717193784176,-0.0003428695770182542,-0.0074458397431271875,0.01218733755325115,0.9870053861012618
2013-06-20,-1,-0.003197473453336423,-0.0027773127020357326,-0.0027045100522189486,0.01218733755325115,0.9892495432521277
2013-06-24,-1,-0.003198007487426719,-0.002764022140897472,-0.001603202165099919,0.011829485246947508,0.9897723501266705
2013-06-26,-1,-0.002409528899878101,-0.0020749492567071607,-0.004250571381634028,0.007904186595997072,0.9910356439866538
2013-06-28,-1,-0.002522817143521144,-0.00217182767752654,-0.004250571381634028,0.0050862051234070275,0.9919240086597977
2013-07-02,-1,-0.0014429741996026897,-0.0012073512021372047,-0.006930487431715308,0.0034563372806792956,0.9930963653880313
2013-07-05,-1,-0.0018355644956419186,-0.001585369175020855,-0.007146739916398437,0.0022374891606894813,0.9937218962692426
2013-07-09,-1,-0.0015293809575394374,-0.001298510022971973,-0.007146739916398437,0.0008246338481790226,0.9943231972136649
2013-07-11,-1,-0.0013072700735870307,-0.0010787639196164238,-0.007146739916398437,0.0008246338481790226,0.9952586171797446
2013-07-15,-1,-0.0016756778235892395,-0.0013976797555171642,-0.007146739916398437,0.0019082207495686309,0.9949040975529199
2013-07-17,-1,-0.001686580226826744,-0.0014087420229527995,-0.008680211946613794,0.0019082207495686309,0.9937065921232463
2013-07-19,-1,-0.0014912748215268582,-0.0012130090334988163,-0.009660348265086124,-0.002543918955806721,0.9921377871425348
2013-07-23,-1,-0.001200677428333703,-0.0009636997820728194,-0.011020377530097613,-0.003489527508825382,0.9907524688047238
2013-07-25,-1,-0.0013643998446350005,-0.0011388567629624156,-0.011020377530097613,-0.0016230286116239436,0.9905807777743169
2013-07-29,-1,-0.0015050511908920627,-0.0012674480638176493,-0.011020377530097613,-0.0010658469233451662,0.9908152801249754
2013-07-31,-1,-0.0024044111683517505,-0.0020426154720303213,-0.010407457386591448,-0.0010658469233451662,0.9915571505066713
2013-08-02,-1,-0.003123047204714362,-0.002669379890899058,-0.010407457386591448,0.004287857445956188,0.9917929872971644
2013-08-06,-1,-0.003369031339323695,-0.002891182017314342,-0.010407457386591448,0.004287857445956188,0.9915257642247072
2013-08-08,-1,-0.003489336504900158,-0.0029858888423848584,-0.013476103311582966,0.0074713968261536584,0.990363258832374
2013-08-12,-1,-0.003309965893077324,-0.0028237487589287905,-0.013476103311582966,0.0074713968261536584,0.989455517197819
2013-08-14,-1,-0.004312475980908309,-0.0037182507576738588,-0.008490330723254294,0.0074713968261536584,0.9901843839064773
2013-08-16,-1,-0.006064468174471645,-0.005268688859664889,-0.005803119423492514,0.008273610648722738,0.9900883484660374
2013-08-20,-1,-0.005636178551921349,-0.0048882683767084815,-0.005013540425952971,0.008273610648722738,0.9904486682509487
2013-08-22,-1,-0.005078597435647055,-0.004425291397432063,-0.005013540425952971,0.0074713968261536584,0.9903516954990894
2013-08-26,-1,-0.004595761928549631,-0.004031067526707007,-0.00616705550017616,0.0038080951940662145,0.9906960914427293
2013-08-28,-1,-0.004053965051858237,-0.0036184439295511763,-0.005013540425952971,0.0069831166109672865,0.9902742071976753
2013-08-30,-1,-0.003616977849437298,-0.003251690105874204,-0.007843731826471138,0.003680623432172394,0.9903603225562386
2013-09-04,-1,-0.003291316686284263,-0.0029971480223452635,-0.006057864430187349,0.010055402653925682,0.9894332929509853
2013-09-06,-1,-0.002889230481680747,-0.0026641557538767857,-0.006057864430187349,0.0073511373079102335,0.9900234914251494
2013-09-10,-1,-0.0020199448828851253,-0.001880504335539406,-0.007932573613488607,0.0073511373079102335,0.9905097340746646
2013-09-12,-1,-0.0016342250923505552,-0.0015708174063510149,-0.007932573613488607,0.009795734118004539,0.989575121675263
2013-09-16,-1,-0.0005003758417139272,-0.0004016122124665723,-0.007932573613488607,0.00829775226070567,0.9905528491096848
2013-09-18,1,0.00028168157205089416,0.00047573963528551157,-0.007932573613488607,0.00829775226070567,0.9907542808792374
2013-09-20,-1,-0.0002801482743383192,-0.00012389796281352366,-0.004723700760838959,0.008886774857099747,0.9910767304343658
2013-09-24,-1,-0.0003532251698256529,-0.00020310555950678165,-0.004723700760838959,0.00994321463604217,0.9902462263196469
2013-09-26,1,0.00023787961965686453,0.0004840083061630554,-0.006393779757608258,0.011196469229670063,0.9900484596073292
2013-09-30,0,-0.0001341263475228096,8.457101034801268e-05,-0.005224991669796411,0.011196469229670063,0.9900448160384762
2013-10-02,1,0.0007241446248750077,0.0010502727238530323,-0.005628243638308946,0.009452006906346675,0.9906878868360969
2013-10-04,1,0.00030355378035554984,0.00057762170212765,-0.005628243638308946,0.011196469229670063,0.9906359161469026
2013-10-08,1,0.00023545389553486713,0.000488561834845837,-0.005628243638308946,0.009452006906346675,0.991143774097627
2013-10-10,1,0.0014488948654325653,0.0018847985484438101,-0.005628243638308946,0.008346912433384882,0.9917287751696163
2013-10-14,1,0.0015882026077397304,0.002015178766715621,-0.006422035715761831,0.006849092463505787,0.9909423542691675
2013-10-16,1,0.002226054167099817,0.0027302137360087045,-0.007986917370735461,0.004020597444247683,0.990776264498574
2013-10-18,1,0.0021739681435593793,0.002647971387534426,-0.007986917370735461,0.00700735557438881,0.9904145838395363
2013-10-22,1,0.00206732067935661,0.002462377271252725,-0.007425967467358882,0.004020597444247683,0.9910504902652493
2013-10-24,1,0.0021876246198411125,0.00259128978324247,-0.009342805465829118,0.0035567261222296167,0.9909453357237401
2013-10-28,1,0.0016967130076245985,0.0020516950456926884,-0.007625859903223485,0.0035567261222296167,0.9914279852647279
2013-10-30,1,0.0012348619789578396,0.001511731488236826,-0.007625859903223485,0.006757285210332903,0.9914570132022098
2013-11-01,1,0.00085266746478008,0.0010120562046308232,-0.00856368965340062,0.004729090860241057,0.9915143590579699
2013-11-05,1,0.0012534811488976736,0.0015462331934808348,-0.007166262196549383,0.004729090860241057,0.9920484485432792
2013-11-07,1,0.001486120955276107,0.0018276140578714292,-0.007166262196549383,0.008910559713595822,0.9916227786460384
2013-11-11,-1,-0.0004910659460685516,-0.0004271206377602173,-0.006830007449527603,0.008910559713595822,0.9921771372163144
2013-11-13,-1,-0.0009883119059340127,-0.0008753659603354883,-0.007166262196549383,0.008910559713595822,0.9915686848704
2013-11-15,1,0.00030093129493800603,0.00037867810022417,-0.007166262196549383,0.007027607838077304,0.9915025140972639
2013-11-19,0,-2.839947016097799e-05,1.9611553027164508e-06,-0.006896638261482471,0.008910559713595822,0.991042228130775
2013-11-21,1,0.0003382684797964449,0.00048760243178849283,-0.006780138344054671,0.008910559713595822,0.991479172814791
2013-11-25,-1,-0.0003836556401201748,-0.0003668782913684207,-0.005320872151365208,0.008910559713595822,0.9915553692779256
2013-11-27,1,0.0005599068590473768,0.000728133506143367,-0.006596493664663613,0.0050780862825863145,0.9924211930583271
2013-12-02,1,0.00017436298918112564,0.00032198976448883244,-0.005272992438084646,0.0050780862825863145,0.9928801528141038
2013-12-04,1,0.0003192031188755462,0.00047411946072376936,-0.005272992438084646,0.007271141189227282,0.9924400796865466
2013-12-06,1,0.001085189028704251,0.001343613659846458,-0.005272992438084646,0.0050780862825863145,0.9932071607416216
2013-12-10,1,0.0013874269092299589,0.0017155610421731528,-0.005272992438084646,0.004367683573046816,0.9933157017916974
2013-12-12,1,0.0005654511552989363,0.0007970559312227687,-0.003408459307863563,0.005146662474214785,0.99441296492018
2013-12-16,1,0.0013265592195030177,0.0016341671256883577,-0.003408459307863563,0.006201163448378928,0.9950369875463675
2013-12-18,1,0.001975403857627323,0.00236063971095493,-0.003662478788637751,0.004961903702629425,0.9952438920513432
2013-12-20,1,0.0014946184047831147,0.0017856155230646302,-0.003408459307863563,0.006201163448378928,0.9954615259256931
2013-12-24,1,0.0010819971263564673,0.001286066288699153,-0.003662478788637751,0.006201163448378928,0.9944285758355523
2013-12-27,1,0.0007980173765737629,0.0009516563705424632,-0.003662478788637751,0.006201163448378928,0.9943916314398255
2013-12-31,1,0.0005763866868498525,0.0007002393487359442,-0.003662478788637751,0.006790480756127663,0.9936389705293114
2014-01-03,1,0.0011671396734444558,0.0013824672915509991,-0.005344099778746866,0.006790480756127663,0.9924229815405369
2014-01-07,1,0.0007400570652055585,0.0008413346100262923,-0.005344099778746866,0.007086058726729421,0.9920155090235071
2014-01-09,-1,-0.0002465636836542494,-0.00014741441536815324,-0.005344099778746866,0.009204533494913987,0.9912239781516602
2014-01-13,0,-6.462968732282698e-06,5.3334894067011657e-05,-0.005344099778746866,0.008803367243546295,0.9911980330783658
2014-01-15,1,0.00044772608141419647,0.000452153849090481,-0.007992181873802528,0.008803367243546295,0.991253382330781
2014-01-17,1,0.00024026892470388882,0.0002717930947923509,-0.007992181873802528,0.009072105335834838,0.991060819386921
2014-01-22,1,5.605732540782198e-05,0.00013086519730916985,-0.007992181873802528,0.009072105335834838,0.9914348819227137
2014-01-24,-1,-0.0008599352389873328,-0.000680347452050696,-0.0017801821113857068,0.009072105335834838,0.9923327618625579
2014-01-28,-1,-0.0012551266878659446,-0.0010193828962115562,-0.0017801821113857068,0.009554233546162543,0.9919620269452202
2014-01-30,-1,-0.0010291743130894089,-0.0008176736496427721,-0.0017801821113857068,0.009072105335834838,0.992773219082637
2014-02-03,-1,-0.0009963584770229918,-0.0008292514176126934,-0.0008269951455149665,0.009072105335834838,0.9934995988275869
2014-02-05,-1,-0.00044282892234387286,-0.00033426192450549514,-0.0017801821113857068,0.008803367243546295,0.9944657235562718
2014-02-07,1,0.0006634448374896145,0.000726046478870266,-0.003327723654782891,0.005492064008394767,0.9946631593617188
2014-02-11,1,0.001347198656141006,0.0015440496678932165,-0.003327723654782891,0.005169947549665448,0.9949076572215854
2014-02-13,1,0.0007154188204453432,0.0007727965073035627,-0.003327723654782891,0.004440974002254139,0.9951333995882604
2014-02-18,1,0.0008360978718128091,0.0008958502627348216,-0.003327723654782891,0.004875387277364934,0.9948924512616294
2014-02-20,1,0.0008490389242784028,0.000926035837947382,-0.0036152273186412297,0.004875387277364934,0.9937235203309568
2014-02-24,1,0.00041440609315486433,0.00043167315750787457,-0.004162378306044139,0.00573688611847348,0.9933286948079498
2014-02-26,1,0.001012157462387348,0.0011167764285169085,-0.004418813834537894,0.00573688611847348,0.99285278800287
2014-02-28,1,0.0007081407909799969,0.0007355358481566905,-0.004359093901568814,0.007964033101162175,0.9920369191665939
2014-03-04,1,0.0011390027087011124,0.0012142865100793106,-0.004359093901568814,0.006277389228782822,0.9926900675003376
2014-03-06,1,0.0013895805568786435,0.001549612546654932,-0.004359093901568814,0.006277389228782822,0.9927833885133569
2014-03-10,1,0.0009895668147553503,0.0011083837720478164,-0.0028629469623934734,0.007964033101162175,0.9930004052493061
2014-03-12,1,0.0015257353264915585,0.0017523084003206305,-0.0028629469623934734,0.00702591980378098,0.9933746632775281
2014-03-14,1,0.0012152178637093553,0.001396959914222095,-0.0023395334931274993,0.00702591980378098,0.993399152017051
2014-03-18,1,0.0019840289790175195,0.002295141961335033,-0.0023395334931274993,0.009945388991214605,0.9931540769913894
2014-03-20,1,0.0015893148544004715,0.00185669863732193,-0.0023395334931274993,0.009945388991214605,0.9935270268960517
2014-03-24,1,0.0010885583976199993,0.0012488410354800825,-0.0009172612865808807,0.009945388991214605,0.9938066306172592
2014-03-26,1,0.0006596485983321107,0.0007442623342238521,-0.00012159891628047751,0.009791798030737276,0.9948457741045036
2014-03-28,1,0.0016444779503482759,0.0018713949659708382,-0.0009172612865808807,0.005728084730120356,0.9957856456828937
2014-04-01,1,0.0015985598329625009,0.0017940057970595414,-0.0009172612865808807,0.005788555624772297,0.9956437437252214
2014-04-03,1,0.0014131442500437408,0.0015846489845104733,-0.0005524645377394481,0.005788555624772297,0.9956439679333644
2014-04-07,1,0.0015414954421085379,0.0016931272331611462,-0.0024900797414697797,0.005267626652837839,0.9958281535655693
2014-04-09,1,0.0012333611359740249,0.0013205638541492163,-0.0024900797414697797,0.005669445992465777,0.9951860119425783
2014-04-11,1,0.0012292661615853997,0.001356696619871612,-0.0005680257148127176,0.005669445992465777,0.9954198161466516
2014-04-15,1,0.001685031866585446,0.0018488693187437737,-0.002536763272689588,0.004727980417416092,0.9957905355021284
2014-04-17,1,0.0013522943905720005,0.0014537098184406205,-0.0019426319183781836,0.004727980417416092,0.9963103814224616
2014-04-22,1,0.0011901247465565083,0.0012412948735655272,-0.002536763272689588,0.004713846013340111,0.9961304561136289
2014-04-24,1,0.0014455746502389103,0.0015649943368591828,-0.0033330686039268584,0.004713846013340111,0.9957472256274392
2014-04-28,1,0.0010798683150502805,0.0011107005786593783,-0.0025390873636107047,0.005669445992465777,0.9954831872762328
2014-04-30,1,0.0013179431606670834,0.001389518011407799,-0.003368816055079433,0.004040804177529495,0.995560108800598
2014-05-02,1,0.0014280914847460884,0.0015461094766677569,-0.00256786254199993,0.00601648180056659,0.9955611479656152
2014-05-06,1,0.0013487524515162505,0.0014483292712810067,-0.00256786254199993,0.005839130914829525,0.9954720198332465
2014-05-08,1,0.0012234907889703008,0.001246031045786345,-0.00256786254199993,0.005839130914829525,0.995106722004401
2014-05-12,1,0.001717344012789283,0.0018422102868622284,-0.003966169041439948,0.005839130914829525,0.993980517541141
2014-05-14,1,0.001709083667390149,0.0018710682507304026,-0.004969309427462571,0.005839130914829525,0.9939620854898473
2014-05-16,1,0.0018083889646951414,0.0019624124395035795,-0.004969309427462571,0.0028883808260005083,0.9939688683454811
2014-05-20,1,0.0013850902193113144,0.0014698651494077432,-0.004969309427462571,0.0070903075043084254,0.9937238860079651
2014-05-22,1,0.0009631181870175865,0.0009732447577471049,-0.004093069938792295,0.0070903075043084254,0.9940149394600323
2014-05-27,1,0.001245495393635566,0.0012746641814245126,-0.0046635610216479014,0.004824985546077655,0.9941777463124885
2014-05-29,1,0.0011691956482535583,0.001212824440864826,-0.0046635610216479014,0.004824985546077655,0.9942634405344885
2014-06-02,1,0.0013580624675649472,0.0014279693532535211,-0.0047161379062026386,0.004824985546077655,0.9939386301008378
2014-06-04,1,0.001220467456296947,0.0012600453040160547,-0.004616397081060834,0.0038624686870932868,0.9942934318938264
2014-06-06,1,0.0016662969885308707,0.0017636076101634856,-0.004616397081060834,0.0024821485433345245,0.994829530974027
2014-06-10,1,0.0010484198361839746,0.0010881655743163615,-0.0037033495551131814,0.0038624686870932868,0.9960535189132347
2014-06-12,1,0.0005021438738973956,0.0005439989334918881,-0.0018009760642853333,0.004589185993893752,0.9963135328816366
2014-06-16,1,0.0003866885843781474,0.00043944895550981726,-0.0015642762195214898,0.00473759902917828,0.9962276967626658
2014-06-18,1,0.0004614071579727773,0.0005555493148606343,-0.0018009760642853333,0.003850647256707645,0.9965963168802359
2014-06-20,1,0.00023835466489047447,0.00037312436315441346,-0.0023939229338128393,0.003850647256707645,0.9962296908678228
2014-06-24,0,-2.1214740076458643e-05,0.00014075761797265946,-0.0023939229338128393,0.004702134738021356,0.9960058782285888
2014-06-26,-1,-0.000598443349763071,-0.0003393865885247743,-0.0036333983288052403,0.005112930999349607,0.9951336350844576
2014-06-30,-1,-0.00022871958641227795,-4.4483343361057795e-05,-0.0025340975362129706,0.005112930999349607,0.9952603448692188
2014-07-02,1,0.00022779027984771717,0.0003228834200902157,-0.0036333983288052403,0.005112930999349607,0.994969952755304
2014-07-07,1,0.0002397543855812104,0.0003181372079523642,-0.00322509175266354,0.005112930999349607,0.9948858323156472
2014-07-09,1,0.00044155875094448464,0.000506132647307857,-0.005576483842503811,0.004702134738021356,0.9942761130931704
2014-07-11,1,0.0007131754323062451,0.0007313154257151798,-0.005576483842503811,0.005112930999349607,0.9942607707549209
2014-07-15,1,0.000754647853426197,0.000777521770560356,-0.005654408690368097,0.005266474495570869,0.9937659597973074
2014-07-17,1,0.0003540294177909459,0.0004302417344246029,-0.005337383648196023,0.005576844648277423,0.9939090154840658
2014-07-21,1,0.0006196266935567833,0.0006562764832874971,-0.005337383648196023,0.005576844648277423,0.9939141184539706
2014-07-23,1,0.0005821340465022283,0.0006251946182264908,-0.0036726522544301378,0.005444585799710269,0.9941535136789361
2014-07-25,1,0.0004772556933670223,0.000505068027896658,-0.0036726522544301378,0.0047037059016736245,0.9947223215326059
2014-07-29,1,0.0004891725154137776,0.0005295406254177577,-0.0036726522544301378,0.003928519235092484,0.9951706941315798
2014-07-31,-1,-0.00042637062189463445,-0.00024911377301314267,-0.003100488153941825,0.003928519235092484,0.9957150679436391
2014-08-04,-1,-0.0002279994439103725,-8.425768491589322e-05,-0.0024117603744902853,0.004397676788099818,0.9957084993925142
2014-08-06,-1,-0.0012620466715482794,-0.0009800965436959125,-0.0017450225556202765,0.004481583972008986,0.9960600380776466
2014-08-08,-1,-0.0006946672831749605,-0.0005063905489718147,-0.002347338192987115,0.0045072321628001465,0.9954642625978128
2014-08-12,-1,-0.0010425808575817183,-0.0007823786778935258,-0.002347338192987115,0.0038544785918709383,0.9956393203268664
2014-08-14,-1,-0.0009698274534415598,-0.0007031967989633358,-0.0030259621291108215,0.0036312459718646673,0.9947994343009552
2014-08-18,-1,-0.0008318265382927107,-0.0005572004112542046,-0.0030259621291108215,0.002108744842771679,0.9948872875532081
2014-08-20,-1,-0.00022205784022593023,-6.943274460836918e-05,-0.0034854113473207124,0.0015856679983665618,0.9946300479455024
2014-08-22,-1,-0.0005035456069466759,-0.0003249772323812997,-0.003250030224842192,0.0015856679983665618,0.9947002639583099
2014-08-26,-1,-0.0007285042601906679,-0.0005129814535276289,-0.004517522727930396,0.0015856679983665618,0.9943904924496259
2014-08-28,-1,-0.000528245619918312,-0.00036317219435751954,-0.004632365072189573,0.002285248058655587,0.9937166987842951
2014-09-02,-1,-0.00029960271741477754,-0.00016283885945160315,-0.004632365072189573,0.0006510938351284206,0.9939626772950702
2014-09-04,-1,-0.0005306326440950518,-0.00034926528547832465,-0.004632365072189573,0.0006510938351284206,0.994089446649544
2014-09-08,1,0.0003678159047839808,0.00040419404399816907,-0.004588198693158302,0.001737911956656154,0.9944059557115065
2014-09-10,-1,-0.0001932435857222557,-8.613278765424006e-05,-0.004588198693158302,0.0020568325685642215,0.9935227185826063
2014-09-12,-1,-0.0013128909658590307,-0.0010801554667191663,-0.0038408236131823492,0.003082925668454305,0.9947731560038395
2014-09-16,-1,-0.0008526004004606881,-0.0006779547766310322,-0.004588198693158302,0.003082925668454305,0.9943970136160849
2014-09-18,-1,-0.001204555162644129,-0.0009887413530536163,-0.004588198693158302,0.003082925668454305,0.9938005881411881
2014-09-22,-1,-0.0011786829232665707,-0.0009872523439485767,-0.004588198693158302,0.008883440040027902,0.9926317664619284
2014-09-24,-1,-0.0016223843376356613,-0.0013761433985483517,-0.002767527705476813,0.010261377495544649,0.9922403779456715
2014-09-26,-1,-0.0012598870634690038,-0.0010594372009464924,-0.0017298948058939426,0.008484067919231397,0.9926487512437164
2014-09-30,-1,-0.0009995665609865796,-0.0008587210804510215,-0.0016595246735579125,0.010261377495544649,0.9914857717982922
2014-10-02,-1,-0.0009761984868378444,-0.0008383283792339418,-0.0018802198060037811,0.010261377495544649,0.9912218760392566
2014-10-06,-1,-0.0008161384824086123,-0.0006776635586984642,-0.0018802198060037811,0.012976937892375954,0.9902420249778028
2014-10-08,1,1.2877749754513464e-05,3.3032565676849666e-05,-0.0018802198060037811,0.011827304944539669,0.9915724534500829
2014-10-10,-1,-0.0001464508937629248,-9.644317447408989e-05,-0.004090391118556627,0.011827304944539669,0.9911793696977848
2014-10-14,0,-8.956282359503956e-06,4.131078851356607e-05,-0.0041342520632011905,0.011827304944539669,0.9909262374993665
2014-10-16,-1,-0.00048784608041438777,-0.00041109761015284386,-0.0041342520632011905,0.011827304944539669,0.9910056952286223
2014-10-20,1,0.00035637946731346373,0.0003685630100820373,-0.0063049129105152615,0.008236075043611466,0.9918350992760746
2014-10-22,1,0.0006926046393810755,0.0007680002009121147,-0.00782599061524179,0.0071388264822047215,0.9916229583639593
2014-10-24,1,0.0010072046985034433,0.0011224585901631497,-0.00782599061524179,0.009049457939033253,0.9911999875331499
2014-10-28,1,0.0022162353049253736,0.002528459195634574,-0.00782599061524179,0.005616731296277106,0.9922925880108973
2014-10-30,1,0.0016370992709016504,0.0018157676404409332,-0.00782599061524179,0.0075615507090994035,0.992335130993515
2014-11-03,1,0.0024812543570871437,0.0027433722105819425,-0.00782599061524179,0.004721989822075821,0.9930930725248165
2014-11-05,1,0.0021063371283354406,0.0023083306817587544,-0.004795684941369912,0.004721989822075821,0.993491078855746
2014-11-07,1,0.0019164020387806235,0.002134107383464145,-0.0034364134449174316,0.007252669113854032,0.9934326615249351
2014-11-11,1,0.002072687396769023,0.0023194307409720085,-0.002622369225358533,0.004721989822075821,0.99437629983557
2014-11-13,1,0.0016696511248946396,0.0018450043164861866,-0.002622369225358533,0.002970089314137515,0.9945214322629764
2014-11-17,1,0.0012739999013109634,0.0013871181328557285,-0.002622369225358533,0.002970089314137515,0.9945908235191367
2014-11-19,1,0.0008623768465411935,0.0009242467741375051,-0.0023292649740106197,0.008458350388408519,0.9939860938096047
2014-11-21,1,0.0012180920717826784,0.0013315042491327221,-0.002603570351823628,0.008458350388408519,0.9932172083786661
2014-11-25,1,0.0012108116738127144,0.001316249111019616,-0.006103132077988977,0.008458350388408519,0.9925535807197584
2014-11-28,1,0.0016253168073452745,0.0018001541792699632,-0.006103132077988977,0.008657719282009297,0.9923000325701806
2014-12-02,1,0.001891786008954104,0.0021136403574038357,-0.006503198994351343,0.004521188384533983,0.991413591063782
2014-12-04,1,0.0019713987818834005,0.0022161312624789866,-0.006503198994351343,0.010443354691037354,0.9907262709933151
2014-12-08,1,0.0020045661191137355,0.002240311676947532,-0.006103132077988977,0.014640183536117865,0.9895402497488819
2014-12-10,1,0.002017265895201268,0.0022624071478428774,-0.006103132077988977,0.014640183536117865,0.9892547198220075
2014-12-12,1,0.0015002067524533483,0.0016757075948015691,-0.0053540143370595745,0.014640183536117865,0.9899607380333999
2014-12-16,1,0.0010418758491380898,0.0011341225979154014,-0.003271942135587156,0.014640183536117865,0.9897427677594723
2014-12-18,1,0.0023565516404868304,0.002633533809066734,-0.005317019578813709,0.01027154744596166,0.9909829991257593
2014-12-22,1,0.0024098333742209503,0.002665877796529507,-0.003271942135587156,0.01027154744596166,0.9917061767436794
2014-12-24,1,0.0018740732884280878,0.002058040258143057,-0.001739743789921754,0.01027154744596166,0.9917012072308113
2014-12-29,1,0.0017056043744402365,0.0018203698111586512,-0.0028820511146628366,0.010204495399754814,0.9916900015275419
2014-12-31,1,0.0008315969332177534,0.0008396728267807292,-0.0016629467468364436,0.010204495399754814,0.991011378924867
2015-01-05,1,0.001577079641044929,0.0016919591267080137,-0.0016629467468364436,0.009151354383393501,0.9919547339099235
2015-01-07,1,0.0032009119591886836,0.003540098387052559,-0.0016629467468364436,0.0076112828072888074,0.9938841835043268
2015-01-09,1,0.003483367354085382,0.0038803830227936986,-0.0046249302137169445,0.006977653828016234,0.9919150885516524
2015-01-13,1,0.0034107674232013345,0.0037955171289619886,-0.005158301755273656,0.006977653828016234,0.9914193983688246
2015-01-15,1,0.003665855013552384,0.004062689709477348,-0.005743844437166442,0.006328398612296028,0.9907581252522063
2015-01-20,1,0.0033696506436933144,0.0037187582732164815,-0.005158301755273656,0.007071258835548275,0.9908664125740462
2015-01-22,1,0.003968208707375746,0.0043847783160599636,-0.006354244868471321,0.007071258835548275,0.9898688928660614
2015-01-26,1,0.004056327848888713,0.004491226654798937,-0.009192230779906252,0.007071258835548275,0.9892066663838501
2015-01-28,1,0.003557230350933206,0.003920689450885827,-0.013356707032217372,0.007071258835548275,0.9889745987602796
2015-01-30,1,0.0027954485287359043,0.0030770824988946032,-0.009192230779906252,0.007892097829884932,0.9898555310153612
2015-02-03,1,0.0026917137164937563,0.002930611405427255,-0.011099778054801841,0.007892097829884932,0.988989932094976
2015-02-05,1,0.00246432102166082,0.0026098207827605635,-0.013356707032217372,0.004378845399817936,0.9874327370558988
2015-02-09,1,0.000834376604200947,0.0008731169357860597,-0.011099778054801841,0.004378845399817936,0.9899355785994458
2015-02-11,1,0.0002179847733374458,0.00034637320443859894,-0.00890413483659084,0.00806414487731712,0.9895772633842632
2015-02-13,1,5.317167984119774e-05,0.000216835253243606,-0.005078943501542648,0.00806414487731712,0.989720912331617
2015-02-18,0,-4.868158810218031e-05,0.00014633385004328425,-0.006471572922441837,0.009672440116894741,0.9885450667486465
2015-02-20,-1,-0.0005651473662199618,-0.00030854631387826033,-0.003632240438527784,0.011237068737405391,0.988784869488531
2015-02-24,-1,-0.0011491228222910992,-0.0008166909680521487,-0.0032745643820046386,0.006548735170727031,0.9899896151250972
2015-02-26,-1,-0.001911294059832903,-0.0014803331288889628,-0.003951841689857537,0.006548735170727031,0.990126160212649
2015-03-02,-1,-0.0012883822457312028,-0.000941806591499877,-0.003951841689857537,0.009755448498941999,0.9897510917183977
2015-03-04,-1,-0.0016501933376572434,-0.0012796770530195296,-0.003951841689857537,0.012496519998291098,0.9893394979589374
2015-03-06,-1,-0.00308930966375134,-0.0025517943741542766,-0.0032745643820046386,0.012496519998291098,0.989837617646106
2015-03-10,-1,-0.003118387265179645,-0.002589999822876896,-0.004395508151608468,0.012496519998291098,0.9894160739116478
2015-03-12,-1,-0.002822541684630459,-0.0022925410014211817,-0.006995726245310082,0.009270818251454054,0.989503734024464
2015-03-16,-1,-0.0017509525005371253,-0.0013846297047272423,-0.006995726245310082,0.007506626579511762,0.9900754560265536
2015-03-18,-1,-0.0008173019419318634,-0.0005659410982855003,-0.007338474030025257,0.0069954189500117565,0.9913091858553662
2015-03-20,1,0.000279589188802226,0.00039191485119778586,-0.008202194363585172,0.006025036206479002,0.9921305674596712
2015-03-24,1,0.0004930045927241803,0.0005416583625785956,-0.008202194363585172,0.006025036206479002,0.9922086116881518
2015-03-26,-1,-0.00040588575647741606,-0.0002469213893226494,-0.006866555819992427,0.006025036206479002,0.9932263672827706
2015-03-30,1,0.0009391561051355664,0.000994258862536753,-0.00755307634595817,0.0027862749836491986,0.9933897656979787
2015-04-01,1,0.0009510713378132451,0.0009940012174700138,-0.009002464627752043,0.0015636252169615183,0.9924285433662466
2015-04-06,1,0.001035521406686209,0.001060981676383895,-0.009002464627752043,0.0012853193144971684,0.9920492651124219
2015-04-08,1,0.00048581672411164177,0.000519838591819502,-0.009002464627752043,0.0015636252169615183,0.9920450099700134
2015-04-10,-1,-0.0008789822681555833,-0.0006727571098567841,-0.00755307634595817,0.005845151941742319,0.9921284379765869
2015-04-14,-1,-0.0010566793679955505,-0.0008177429077361415,-0.00863654900849925,0.0029045508291145167,0.9916710764772932
2015-04-16,-1,-0.001562900103367344,-0.0012460416803503674,-0.009014553480371505,0.006243126930586167,0.9902858486468183
2015-04-20,-1,-0.0016972066041654472,-0.0013816079570757496,-0.00863654900849925,0.006243126930586167,0.9903902958340165
2015-04-22,-1,-0.0016080524505739436,-0.0013068066189557753,-0.00863654900849925,0.006243126930586167,0.99049313101726
2015-04-24,-1,-0.001539146869071471,-0.0012606999622921094,-0.00863654900849925,0.006243126930586167,0.9904097536786014
2015-04-28,-1,-0.001515772426301903,-0.001250627281991263,-0.008488390295644304,0.006899345033450867,0.9901618320694229
2015-04-30,-1,-0.0027675634986457876,-0.0023568071293236163,-0.005450526160770746,0.006899345033450867,0.9911734707971277
2015-05-04,-1,-0.0023914860249675696,-0.002029770637897487,-0.007167894710105132,0.006899345033450867,0.9912738300892718
2015-05-06,-1,-0.002764152406715974,-0.002356026808219053,-0.007167894710105132,0.0055703651155149065,0.9914371158903998
2015-05-08,-1,-0.0018703372452532898,-0.0015433164590293194,-0.009581418537610586,0.0007721112659966744,0.9925126884265286
2015-05-12,-1,-0.002652125096134936,-0.0022212276197600836,-0.007167894710105132,0.0015693329466298263,0.9928385694980281
2015-05-14,-1,-0.0018228075862757231,-0.0015500780102845472,-0.006089341096741421,0.0015693329466298263,0.9940759755741486
2015-05-18,-1,-0.001621470320257025,-0.0013914249256384889,-0.006227591315688258,0.0016950470796696427,0.9937582066976292
2015-05-20,-1,-0.002181057711863672,-0.0018610244957370406,-0.006227591315688258,0.008763293070635628,0.9925211759952365
2015-05-22,-1,-0.0019608787377167107,-0.0016812113723925597,-0.009581418537610586,0.008763293070635628,0.9914260154697578
2015-05-27,-1,-0.002371789105797608,-0.002001101386339531,-0.009026322786355016,0.005903800240267611,0.9919512485593978
2015-05-29,-1,-0.0024554928720472696,-0.002115204302034592,-0.007948947932670543,0.008476838236727792,0.9916311629979027
2015-06-02,-1,-0.001216536225527643,-0.0011029566692600603,-0.009954166038597124,0.008476838236727792,0.9907748416917392
2015-06-04,-1,-0.0015712949136683716,-0.0014323498824586945,-0.007948947932670543,0.009258763612018377,0.991122156888649
2015-06-08,-1,-0.002124642284183049,-0.0019247013795876422,-0.007392306847491862,0.010077098811422368,0.9906297578295921
2015-06-10,-1,-0.0014322789441950198,-0.0013442865489615762,-0.007392306847491862,0.009258763612018377,0.9913769992611993
2015-06-12,-1,-0.001306390938771743,-0.0012317047239833693,-0.007392306847491862,0.009258763612018377,0.9912843856485103
2015-06-16,-1,-0.0006235382028007441,-0.0005683879576488127,-0.007392306847491862,0.009258763612018377,0.9914170837895722
2015-06-18,1,0.0003709584796346635,0.0005708079904861661,-0.007392306847491862,0.008165193435549585,0.9922174225009306
2015-06-22,-1,-0.0006241847915354782,-0.0005709778735653847,-0.003193663557845579,0.008165193435549585,0.9932173676781805
2015-06-24,-1,-0.0014225501196436234,-0.0013439578581166307,-0.002044383351428562,0.008165193435549585,0.9932280790745348
2015-06-26,-1,-0.0009817599860267672,-0.0009723685403661875,-0.0014294771375331322,0.008431133618297663,0.9929285146165767
2015-06-30,-1,-0.0007696085813492261,-0.0007181379055139147,-0.0008410336738750052,0.0065224560436537935,0.9941861799286311
2015-07-02,-1,-0.0012260605049441158,-0.0011451729879569095,-0.0013676370803409825,0.006065898280107906,0.9942118088943618
2015-07-07,-1,-0.0004338564306964924,-0.00043235007497686463,-0.0013676370803409825,0.005867967174690819,0.9952239722553188
2015-07-09,-1,-0.0004729974794743221,-0.000467095398060916,0.0002651499294885957,0.0061115199586326855,0.9949336206614057
2015-07-13,0,-6.05727160326651e-05,1.861270579148384e-05,-0.0009750651401040461,0.006276812988298136,0.9944009490956852
2015-07-15,1,0.00019362938521731823,0.00028379630492871764,-0.0009750651401040461,0.006276812988298136,0.9943400328677401
2015-07-17,1,0.00023877262155441834,0.0003146742830274855,-0.0009750651401040461,0.0061115199586326855,0.9944310328326132
2015-07-21,-1,-0.00023916669272865327,-0.00022633247059068696,0.0007441990966567265,0.006371206531880516,0.9937098598481054
2015-07-23,1,7.429093192749388e-05,0.00013107835762548716,2.6114984724267664e-07,0.006371206531880516,0.9937019684259178
2015-07-27,1,0.0005770013705059183,0.0006785405951640955,-0.0054580072363461405,0.006276812988298136,0.9924247274793702
2015-07-29,1,5.56645739425254e-06,3.826481472740262e-05,-0.007001196617970518,0.006371206531880516,0.989701948096277
2015-07-31,0,-1.516739654982504e-05,2.3970210972294474e-05,-0.007734461543940616,0.007161744427148491,0.9886898046216002
2015-08-04,1,0.0005791554115434343,0.0006538745025350659,-0.012040057948237315,0.007161744427148491,0.986559041889726
2015-08-06,1,0.0011019728592610131,0.0012708407432629005,-0.012040057948237315,0.0094954633292453,0.9861490749693006
2015-08-10,1,0.0012446234413147463,0.0014860850315743536,-0.012955839013742417,0.010306170551506181,0.9857383122692461
2015-08-12,1,0.002009077554269414,0.0023837070848553603,-0.016635060462565694,0.007231148765061804,0.9853917340713725
2015-08-14,1,0.001692207705136811,0.00199024995505655,-0.016635060462565694,0.010306170551506181,0.9847599642225965
2015-08-18,1,0.001737157363713843,0.0020168746174915246,-0.016635060462565694,0.012315851096393705,0.98432213896786
2015-08-20,1,0.0017652399900119204,0.002092983951290168,-0.016635060462565694,0.012315851096393705,0.9845549689304444
2015-08-24,1,0.0007179941886633649,0.0009223062055165155,-0.014433725522205952,0.012315851096393705,0.9860162758602551
2015-08-26,1,0.0012229719672689917,0.0014932015202313467,-0.012709223711607454,0.011997897592569326,0.9881052536709274
2015-08-28,1,0.0010193644624368176,0.0012335398637380235,-0.013890841129976442,0.010285996385301466,0.988310869040154
2015-09-01,-1,-0.0003678110585740658,-0.0003610465014100977,-0.006662551753773185,0.011997897592569326,0.9895276644063142
2015-09-03,-1,-0.00012229584813756766,-9.290085947816725e-05,-0.006662551753773185,0.011889210289573668,0.9894281094202265
2015-09-08,1,1.3599510005657704e-05,6.423111824379365e-05,-0.002027288781992041,0.011889210289573668,0.9898888974805987
2015-09-10,-1,-0.0005322465743141387,-0.0005005340411605662,-0.0005919237663829583,0.012119446786548459,0.9897738055655984
2015-09-14,1,8.785520714475842e-06,4.590412982270174e-05,0.0003958747924563368,0.011889210289573668,0.9907743068912807
2015-09-16,1,0.0007119796009498647,0.0008388199722083264,-0.00449834080901374,0.008887930931286538,0.9916132183860383
2015-09-18,1,0.0006633763446974418,0.0007836601453887352,-0.0014156077753901914,0.01026262901591399,0.9911580485216568
2015-09-22,1,2.1676248292116085e-05,2.9642944600237356e-05,-0.0008681217105177567,0.012049344678386028,0.9908923929064194
2015-09-24,1,7.683755448307745e-06,8.386341678715317e-06,0.0003958747924563368,0.012049344678386028,0.9909088198049525
2015-09-28,-1,-0.0001979449254615504,-0.00016852069031077558,0.0003958747924563368,0.012049344678386028,0.9914464879034695
2015-09-30,1,0.0006942554721699257,0.000824491665445479,-0.0008681217105177567,0.012146142671872705,0.9920471642109719
2015-10-02,1,0.0011119964996828616,0.0012795523848719657,-0.002848737961039389,0.00924429051025217,0.9919461407566932
2015-10-06,1,0.0012343414705002422,0.0014184953640876054,-0.0049125821182336785,0.00924429051025217,0.9916247602281081
2015-10-08,1,0.0016542423655436077,0.001882676760711357,-0.0049125821182336785,0.007866610356487794,0.9919317562894776
2015-10-12,1,0.0018023975488122776,0.0020358713179236838,-0.008592369552911028,0.006037163656413418,0.9892588491767843
2015-10-14,1,0.0013762182637991418,0.001559513037262011,-0.006997375782312128,0.009334030759438675,0.9891573072572853
2015-10-16,1,0.00198959792009748,0.002261512246486891,-0.010019035714927937,0.006037163656413418,0.9879430561515856
2015-10-20,1,0.0020988867684790715,0.0023503372259236687,-0.010019035714927937,0.005825480203209679,0.9884335177110889
2015-10-22,1,0.0024585965689767025,0.0027630945754001076,-0.010019035714927937,0.004897990407093164,0.9878567974315445
2015-10-26,1,0.002017982058149939,0.0022359987124468974,-0.010019035714927937,0.00641593400483121,0.9879775756066377
2015-10-28,1,0.002067377619445623,0.0022541920465514774,-0.01319323287865524,0.0063407871692681365,0.9874346363841874
2015-10-30,1,0.001260110531239597,0.0013501660868736071,-0.013957790140834397,0.006751070587582168,0.9874256854272142
2015-11-03,1,0.0015063134708082288,0.0016204773602184362,-0.017992510612690013,0.006751070587582168,0.9867827565051897
2015-11-05,1,0.0013812171426437674,0.001482971510839747,-0.017992510612690013,0.007235134743630673,0.9852873604679011
2015-11-09,1,0.000390687812436976,0.00040209832602592364,-0.008653367062505772,0.007235134743630673,0.9880526246789298
2015-11-11,-1,-0.00010517725135124757,-7.123473985387011e-06,-0.012094996364077303,0.006751070587582168,0.988273277076309
2015-11-13,-1,-0.0014174766856717442,-0.001143821972813935,-0.00626453842597518,0.0070877395935783315,0.9896000219450088
2015-11-17,-1,-0.0013853244897984642,-0.001122493133648166,-0.00626453842597518,0.009256748278617109,0.9881038471623091
2015-11-19,-1,-0.0008720685415970487,-0.0006553829294539259,-0.008414184961195491,0.0075688202415515006,0.9885740418748487
2015-11-23,-1,-0.0009316201828692457,-0.0007127175575715833,-0.008414184961195491,0.0075688202415515006,0.9885477620814762
2015-11-25,-1,-0.0008372367078940899,-0.0006667243794615284,-0.004649820072067391,0.007571258550904747,0.9893275958092331
2015-11-30,-1,-0.0014305795392407605,-0.001176649535343706,-0.002687289682373352,0.007771196017797728,0.990065838535782
2015-12-02,-1,-0.0018227248530383374,-0.0015324696641752546,-0.0033355819944085523,0.007422237861283574,0.9918767115225698
2015-12-04,-1,-0.00038995897387903637,-0.00029083538246197065,-0.0033355819944085523,0.007422237861283574,0.9924628144916537
2015-12-08,-1,-0.0006545589980284142,-0.0005268268567740574,-0.003711323839810669,0.007422237861283574,0.9915453389958245
2015-12-10,-1,-0.0014179133396746073,-0.0011864340449250152,-0.0033355819944085523,0.007422237861283574,0.9906767897428335
2015-12-14,-1,-0.0010198345405423182,-0.0008392094916525286,-0.006411062159643719,0.007052442540829648,0.9906143465039973
2015-12-16,1,0.00042363181610654936,0.0004408988041252308,-0.007139982737396309,0.004703355423249277,0.9916502531920453
2015-12-18,-1,-0.00023505222008586172,-0.00017810238985844376,-0.007139982737396309,0.007052442540829648,0.9904030346017766
2015-12-22,1,8.836271790040249e-05,0.00010642377576316949,-0.007139982737396309,0.00786014543763075,0.9890896663162343
2015-12-24,1,0.0004448715458578216,0.00048179387892715816,-0.008719158712968314,0.009459037613816694,0.9875787760733346
2015-12-29,1,0.0007908993517868497,0.0008936997013981999,-0.010996339998054426,0.008508427492166994,0.9867872329282134
2015-12-31,1,0.0005179966262266875,0.0005692199571771766,-0.010996339998054426,0.009494171666240923,0.9866458655335234
2016-01-05,1,0.0010999104064151025,0.0012546563743226844,-0.01015944276141177,0.009494171666240923,0.9870876655420174
2016-01-07,1,0.0003369988651481773,0.00038762650207163537,-0.01015944276141177,0.009494171666240923,0.9871403340643965
2016-01-11,-1,-5.319726000275888e-05,-2.7941968430470252e-05,-0.01015944276141177,0.009494171666240923,0.9873736639454186
2016-01-13,-1,-0.0006542255602602036,-0.0005871775094270006,-0.01015944276141177,0.011494724710754392,0.9873303763516806
2016-01-15,-1,-0.001926843787625546,-0.001620739767552241,-0.01015944276141177,0.011852524395761833,0.9867409457123254
2016-01-20,-1,-0.0024019490182144525,-0.0020479264275859834,-0.008535899012225841,0.011559712669216146,0.9878363647447959
2016-01-22,-1,-0.0009216167063761777,-0.0007599704599724839,-0.008535899012225841,0.011302822138094783,0.9897617709583969
2016-01-26,-1,-0.0015215701748351894,-0.0012025146403186163,-0.004906034097785152,0.00945326356885718,0.9914315622321811
2016-01-28,-1,-0.0018712005912665008,-0.0015360493079033402,-0.004873615282628781,0.011302822138094783,0.9915163223099264
2016-02-01,-1,-0.0017951687774258932,-0.001461870299272357,-0.004873615282628781,0.011559712669216146,0.9906761594995329
2016-02-03,-1,-0.002087588370722662,-0.0016951555219340514,-0.00359509655142306,0.011302822138094783,0.9907939852737534
2016-02-05,-1,-0.0024589002546251118,-0.002059706974370944,-0.0007513709970460822,0.011302822138094783,0.990786538161181
2016-02-09,-1,-0.00291463346469092,-0.0025031646320427025,0.0002771146050146657,0.011302822138094783,0.9911051260037148
2016-02-11,-1,-0.0023579954043015773,-0.002017011418025726,0.0002771146050146657,0.011302822138094783,0.9912423930955971
2016-02-16,-1,-0.0015053263325030424,-0.0012579886473847988,-0.0007513709970460822,0.00698297800238827,0.9924674026816183
2016-02-18,-1,-0.0012422288384688202,-0.0010055603660359185,-0.0007513709970460822,0.00698297800238827,0.9920079153141264
2016-02-22,-1,-0.0013929777672531639,-0.0011257467452228424,-0.0028962570690195238,0.00698297800238827,0.9917040600909047
2016-02-24,-1,-0.0011001597457130068,-0.0008983935421400991,-0.0037139315841584943,0.00698297800238827,0.9917166003455952
2016-02-26,-1,-0.0004757972750451505,-0.00037933944392511826,-0.003207328761580318,0.006291992887880218,0.9924861159780848
2016-03-01,1,0.0006543263412866634,0.0007381238066495345,-0.003402362286794387,0.006291992887880218,0.992889775756216
2016-03-03,1,0.0013642459404437797,0.0015723513510121716,-0.003402362286794387,0.007114677310256911,0.992926486367654
2016-03-07,1,0.0018475596927441593,0.0021351444873795797,-0.004686058573788838,0.007114677310256911,0.9926430098273967
2016-03-09,1,0.0013294068147091716,0.0015234395157173617,-0.004686058573788838,0.007854867685117164,0.9924904544244518
2016-03-11,1,0.0022448935936686372,0.0026031234683757364,-0.004686058573788838,0.0070357119995486505,0.9929623266273154
2016-03-15,1,0.0022671139895969927,0.0026612961182085402,-0.003402362286794387,0.007133185913588035,0.9931997816427002
2016-03-17,1,0.0033447978352679274,0.003906854586187673,-0.003402362286794387,0.006821473179275028,0.9937100976515362
2016-03-21,1,0.0029134189762285477,0.003405164644534062,-0.003296194657957848,0.006821473179275028,0.9942305564075926
2016-03-23,1,0.002844727649858976,0.0033481674617790976,-0.004367555687279222,0.006821473179275028,0.9924715036592204
2016-03-28,1,0.002753364351570036,0.0032061575769876606,-0.004367555687279222,0.007081461710008356,0.992123552735021
2016-03-30,1,0.0033648064990800365,0.003921266679869646,-0.002662410575899275,0.006821473179275028,0.9931154914130552
2016-04-01,1,0.0037356505662998587,0.004330834679200769,-0.005384075535439858,0.0037232331848242135,0.99215655821804
2016-04-05,1,0.0023560871606668394,0.0026586088738964585,-0.0040178644404687235,0.006059410013403747,0.9927831816450593
2016-04-07,1,0.002416763026415399,0.002744137375137624,-0.002662410575899275,0.006059410013403747,0.9930268324768273
2016-04-11,1,0.0016876005846253842,0.001847522521202941,-0.002662410575899275,0.008309314985915583,0.9923613134431765
2016-04-13,1,0.0017709493368387515,0.0019424688094255508,-0.0040178644404687235,0.008309314985915583,0.9901711133903714
2016-04-15,1,0.0021592917035219246,0.0024184096398514555,-0.006392851172485815,0.008309314985915583,0.9884110767296342
2016-04-19,1,0.0021334660708338935,0.0023872060256412103,-0.014072417490042826,0.01075222674678594,0.9872018767900368
2016-04-21,1,0.0005273791452517192,0.0005392142349294986,-0.005868632047809534,0.01075222674678594,0.9882608576200559
2016-04-25,1,0.0008997434445268535,0.0009371687164148782,-0.005868632047809534,0.0075848386298607035,0.9890133099473604
2016-04-27,1,0.0006420281646375665,0.0006679543504917257,-0.008376639124573279,0.009835644658041435,0.9882078757312657
2016-04-29,1,0.0003903956155440774,0.0004163174414134769,-0.0005526722878520488,0.009835644658041435,0.9886076563714781
2016-05-03,1,0.0009840992200117102,0.0010400306187106165,-0.0024411109880188484,0.007353305761410585,0.9895547558916071
2016-05-05,1,0.0011335228470969335,0.001178785304403163,-0.005201401707654107,0.007353305761410585,0.98959302641908
2016-05-09,1,0.001693438795276358,0.0018146615402971085,-0.005201401707654107,0.004497006627319222,0.9903025684359125
2016-05-11,1,0.0008881001503673125,0.0009702135378432692,-0.004167324127987369,0.005628557339869975,0.9923397184740902
2016-05-13,-1,-0.0004702020781115681,-0.0003619264947093156,-0.004167324127987369,0.006787393739591303,0.9932703974556467
2016-05-17,-1,-0.00046153869751660654,-0.0003702616119014187,-0.001520645004453904,0.00667793830845107,0.9943050252753538
2016-05-19,-1,-0.0006130413463248912,-0.0005177119574231439,-0.0008809783163490893,0.007012097408893489,0.9942819766617019
2016-05-23,-1,-0.00012167739182246515,-9.525606518332454e-05,-0.0008809783163490893,0.007162181231291429,0.9943080085168641
2016-05-25,-1,-0.00020791884068406094,-0.00016006345095445808,0.0004114075836742398,0.006952669918552569,0.9949710323091949
2016-05-27,1,0.00020057653046538673,0.0002141715507934209,-0.0008809783163490893,0.0070420211770373395,0.9945941387733173
2016-06-01,-1,-0.00018258598400539382,-0.00011170520140757777,0.00018778316328486508,0.007664055798595297,0.9930016272293649
2016-06-03,-1,-0.0005620310267221487,-0.00040251969625431023,0.0009365056402388687,0.007664055798595297,0.993043649725763
2016-06-07,-1,-0.0008924595387233309,-0.0006707223880631486,0.0009365056402388687,0.008767569289413864,0.9919955623134699
2016-06-09,-1,-0.0006885963751947662,-0.0004810535103596887,0.00018778316328486508,0.008767569289413864,0.991357012258468
2016-06-13,-1,-0.001246445042574066,-0.0009287029953348917,0.0002600624052328356,0.009310440706845278,0.9913013298400857
2016-06-15,0,-7.702454037277005e-05,4.360511160143458e-05,-0.001335013851673302,0.009790561369925767,0.9912934429427139
2016-06-17,1,0.0003881340078782978,0.000432987581748378,-0.0016871645022855926,0.0093565819354087,0.9916678868281992
2016-06-21,1,0.0004185158673935411,0.0004905183893783228,-0.0016871645022855926,0.0093565819354087,0.992089736263708
2016-06-23,1,0.0004927771682153647,0.0005443289122315768,-0.0016871645022855926,0.0093565819354087,0.9918087921289501
2016-06-27,1,0.00023212234229019974,0.0003148551546382725,-0.0016871645022855926,0.0093565819354087,0.9924824554075719
2016-06-29,1,0.0007992723263544364,0.0008635931755500418,-0.0031302466637270305,0.0093565819354087,0.9930606179625516
2016-07-01,1,0.0003488242030627275,0.0005177893491561025,-0.0031302466637270305,0.010119280975519385,0.9927656415359448
2016-07-06,1,0.0005136651624109279,0.0006466502545977164,-0.0041831448652575355,0.006162016954655514,0.9928743612006561
2016-07-08,1,0.001265821629294223,0.001268150342191268,-0.0041831448652575355,0.004451789896941155,0.9934916291951709
2016-07-12,1,0.0016508351707203554,0.0017203744154178301,-0.0041831448652575355,0.003674441849731537,0.9939477364397847
2016-07-14,1,0.001579736681876108,0.0016336673643411776,-0.006229936683325096,0.0033970504913546948,0.9934954806326574
2016-07-18,1,0.0014399537785732663,0.0014639070288674505,-0.006229936683325096,0.0031856356484889475,0.9934127117257151
2016-07-20,1,0.0015630174016663346,0.0016076205669710805,-0.008540109833726732,0.0034171715173973768,0.9923795161598973
2016-07-22,1,0.002093892839355911,0.0022481976917363804,-0.011503611533975628,0.002600043131748157,0.9918597659744434
2016-07-26,1,0.0020697422681898573,0.002246833164906774,-0.011503611533975628,0.0028383967242081093,0.9920107769469488
2016-07-28,1,0.00209600943471962,0.0022937810086226785,-0.008466459285373908,0.0030310209876494745,0.9925430081524123
2016-08-01,1,0.002319912671226723,0.002519934244201132,-0.009085773195531999,0.0030310209876494745,0.992176945189507
2016-08-03,1,0.0017812882886212953,0.0019414394939426208,-0.007685063355343639,0.0030310209876494745,0.9934235918425768
2016-08-05,1,0.0010967795009842597,0.0011437152692646527,-0.005842333315874212,0.0031068687531509214,0.9940398585167712
2016-08-09,1,0.001663234509110901,0.001840998853236025,-0.005842333315874212,0.004244530022081451,0.993862317717663
2016-08-11,1,0.00038927868009709573,0.000404195258979842,-0.00604877128592691,0.004244530022081451,0.9929015393259897
2016-08-15,1,5.029168860949963e-05,0.00012125518977939775,-0.008352056226445893,0.0062819422700605785,0.9914816660985618
2016-08-17,1,0.00017066449917418563,0.00021412374264270526,-0.003911489837405108,0.004645805522467548,0.9924064278828197
2016-08-19,1,2.0594385666419725e-05,5.9245270645477146e-05,-0.002105520211284614,0.004645805522467548,0.9926148828057754
2016-08-23,1,0.0003418602520407217,0.0003742876364137331,-0.0025672389429427806,0.0062819422700605785,0.9922692489630474
2016-08-25,1,0.0006873215531596741,0.0007425034330084351,-0.0025672389429427806,0.004813121555573886,0.9925605920761725
2016-08-29,1,0.0006740916217979959,0.0007239819227728476,-0.0025672389429427806,0.004604325155316045,0.9926958951021864
2016-08-31,1,0.0005609064968423485,0.0005917413337278816,-0.00534432499332377,0.004604325155316045,0.9915083427473609
2016-09-02,1,0.0007858769770102068,0.0008554434265895952,-0.008501606987228367,0.004604325155316045,0.9903129561964701
2016-09-07,1,0.0011251614425511836,0.001239873386529867,-0.014995839529097468,0.004129168329090474,0.9890773727706373
2016-09-09,-1,-0.00040435801640322097,-0.0003281757451671518,-0.010069519405996206,0.004129168329090474,0.991079967062302
2016-09-13,-1,-0.001992833273252063,-0.0016491346588062422,-0.008859212033203924,0.0039880215612080935,0.9921784708806498
2016-09-15,-1,-0.001296401747485584,-0.0010753926789786943,-0.008859212033203924,0.0039880215612080935,0.9916343141094619
2016-09-19,-1,-0.0009430001816318358,-0.0007693192185427257,-0.009259390812481363,0.003600216450542518,0.9915540842033713
2016-09-21,-1,-0.0010967537255809285,-0.0008718432522812837,-0.009259390812481363,0.003600216450542518,0.9919660095575638
2016-09-23,-1,-0.00025652856722818495,-0.00016227482948293922,-0.009259390812481363,0.00278013284414537,0.9921080516186002
2016-09-27,-1,-5.5581079842398476e-05,-1.6471378600594437e-05,-0.009259390812481363,0.0023897958813746097,0.9925757696520794
2016-09-29,-1,-0.0005189592930051926,-0.0004672207326375339,-0.011083709642372978,0.0023897958813746097,0.9903053118412064
2016-10-03,-1,-0.0025713246203885216,-0.0021955732752561635,-0.009259390812481363,0.00278013284414537,0.9906405362559194
2016-10-05,-1,-0.00445243644712471,-0.0037982308423850793,-0.009259390812481363,0.00278013284414537,0.9901966302861028
2016-10-07,-1,-0.004405398452981596,-0.0037460181119753425,-0.009259390812481363,0.00278013284414537,0.9903221654025962
2016-10-11,-1,-0.004738468749431797,-0.0040306411110255375,-0.006798644935198694,0.004932135710189146,0.9896504082183442
2016-10-13,-1,-0.0037496602331859056,-0.003177272491851327,-0.010160755416577492,0.004932135710189146,0.9900554694002395
2016-10-17,-1,-0.003983707298590445,-0.0033865258097322006,-0.007904680024994601,0.005787003971951759,0.9893020590466791
2016-10-19,-1,-0.003532667288993769,-0.0030014489062634513,-0.00886570352156741,0.005787003971951759,0.98962440183417
2016-10-21,-1,-0.0039326054770248645,-0.0033601324891586503,-0.01263508798005264,0.005787003971951759,0.9890693978215938
2016-10-25,-1,-0.0036802664214442317,-0.003148126461066457,-0.01263508798005264,0.007529849684216575,0.9887879175266057
2016-10-27,-1,-0.006163791867645767,-0.0053425996436581025,-0.007083556595640498,0.007529849684216575,0.9911675869956005
2016-10-31,-1,-0.005148489641102497,-0.004469391193365134,-0.007083556595640498,0.005825921886957125,0.991842036343629
2016-11-02,-1,-0.006367843000167118,-0.005551406083061339,-0.007083556595640498,0.005825921886957125,0.9917523672636499
2016-11-04,-1,-0.005790577487356274,-0.005063574677223135,-0.007083556595640498,0.007942288428228621,0.9909424609860497
2016-11-08,-1,-0.004805057384902923,-0.004214603855770114,-0.007083556595640498,0.007942288428228621,0.9911383763396759
2016-11-10,-1,-0.0043603279934690525,-0.0038435271764210403,-0.0065202312569313334,0.005963401468294474,0.9919388394817187
2016-11-14,-1,-0.003576419172244648,-0.003157881558682872,-0.0065202312569313334,0.007230216833806076,0.9919192164390617
2016-11-16,-1,-0.004379075254993109,-0.0038711397104189884,-0.0065349344919146376,0.007230216833806076,0.9904947401108047
2016-11-18,-1,-0.003861218116657711,-0.0034683508799654037,-0.004976870804294517,0.007495026531119447,0.9901351365458072
2016-11-22,-1,-0.0033562688958058166,-0.0030408751967204314,-0.00515219049983336,0.0072228561425833945,0.9897046010558863
2016-11-25,-1,-0.00326472155090753,-0.002971644173222177,-0.008003747716052782,0.0072228561425833945,0.9896353140255434
2016-11-29,-1,-0.002605950826069878,-0.0024202405345619925,-0.010209823803199087,0.0072228561425833945,0.9897911384797544
2016-12-01,-1,-0.003320538732822682,-0.0030700605131952353,-0.004462144379241841,0.008254967071336564,0.9895607641977878
2016-12-05,-1,-0.0021503554689817506,-0.0020452882882208596,-0.004462144379241841,0.008396929651597393,0.989257737561552
2016-12-07,-1,-0.0012020728307280473,-0.001194379180100848,-0.002999372293361933,0.008396929651597393,0.9898370151841038
2016-12-09,-1,-0.0012168205600262632,-0.001190511863526067,-0.007608618904814426,0.008396929651597393,0.9893059376706905
2016-12-13,0,-1.6491658445273662e-05,0.000193250556776512,-0.009439428253096379,0.007542347391206391,0.9898242223055106
2016-12-15,-1,-0.0013386158006123007,-0.0013046487554895603,-0.006006138358268583,0.007542347391206391,0.9906944524452874
2016-12-19,-1,-0.0006170712766877741,-0.0004820378679527746,-0.009439428253096379,0.007378867436824208,0.9904527922716142
2016-12-21,-1,-0.001001847878857074,-0.0008862613364398635,-0.006006138358268583,0.008196501458731839,0.991097297680238
2016-12-23,-1,-0.0014350019855751616,-0.0014087531098959756,-0.006006138358268583,0.008196501458731839,0.9908349590487083
2016-12-28,-1,-0.0017987258381316836,-0.0017648928356518788,-0.006006138358268583,0.008196501458731839,0.9906142606303526
2016-12-30,-1,-0.0008044848520927422,-0.0006904879283374639,-0.009301186635936307,0.007378867436824208,0.989765958269149
2017-01-04,0,-1.6322474298232075e-05,0.000152412853630533,-0.009552049924710553,0.006811488843928433,0.9906421297159684
2017-01-06,1,0.0006350417423797085,0.0008881211682775797,-0.01038112835039346,0.006811488843928433,0.9898434683751426
2017-01-10,1,0.00013748497378245582,0.00034128806508072816,-0.012005423276980495,0.007349554791059244,0.9893519973318098
2017-01-12,0,-4.561417203914999e-05,0.00010900223383253306,-0.010442380287553203,0.007658164421589241,0.9898087428208671
2017-01-17,1,0.0003508065502718956,0.000559465611045659,-0.010442380287553203,0.007658164421589241,0.9900737446462211
2017-01-19,1,0.0003196639587310713,0.0005640400495182899,-0.010442380287553203,0.007658164421589241,0.990554523125535
2017-01-23,1,0.0009254059248379968,0.0012607708592670941,-0.010442380287553203,0.008086184684260003,0.989416486604286
2017-01-25,1,0.0005176598571561469,0.0007984674121088421,-0.010442380287553203,0.008086184684260003,0.9900354231348127
2017-01-27,1,0.00034132025706630313,0.000614556071343005,-0.005478717067773522,0.009199035681683228,0.9901334007787691
2017-01-31,1,0.0017502368973659466,0.0022387663478069877,-0.010235881258083251,0.008086184684260003,0.9911509604969592
2017-02-02,1,0.0007555268472997502,0.0010316998206806377,-0.009753188035705837,0.00786681952844365,0.9912500592580179
2017-02-06,1,0.0004071634974107378,0.0006194425702550235,-0.008735398498242258,0.00458473138419427,0.9921558823916774
2017-02-08,1,0.0005833732876076624,0.0008406101230228869,-0.009753188035705837,0.0020737768935320715,0.9910513914683168
2017-02-10,1,0.0010693352334117687,0.0014095766544978403,-0.009753188035705837,0.001950653644344443,0.9907377211751537
2017-02-14,1,0.0011764012599302614,0.0015647380638548207,-0.009753188035705837,0.0032152578637015435,0.9899317432849879
2017-02-16,1,0.001126874887824728,0.0015289036587662226,-0.008892691651783496,0.001950653644344443,0.9900595562373017
2017-02-21,1,0.0023912609404964117,0.0029465433456868015,-0.008892691651783496,0.0007942615282803315,0.9905762438960852
2017-02-23,1,0.0018787921235857044,0.0023288953184429514,-0.009753188035705837,0.0011747551850034889,0.9894777752165881
2017-02-27,1,0.0017796811190390043,0.0021681299791503636,-0.010235881258083251,0.0009836017464186684,0.9896061099139011
2017-03-01,1,0.0005819721559533784,0.0007573096287671871,-0.008892691651783496,0.0035831633314010736,0.9902274448244626
2017-03-03,1,0.000259706669521686,0.00040510682760466727,-0.008497675681226042,0.006484834427412012,0.990580640228318
2017-03-07,0,-4.85555454008286e-05,4.753587941595122e-05,-0.009170600077199319,0.010936818301898975,0.9895685950789453
2017-03-09,-1,-0.0010795047098393984,-0.0010787748821021192,-0.007130529889086579,0.010936818301898975,0.9914225365080562
2017-03-13,-1,-0.0010298785360091708,-0.0010281967406907207,-0.004683670275220903,0.010936818301898975,0.9913234319761713
2017-03-15,-1,-0.0004162449977098496,-0.00031191740216516834,-0.003040402261464934,0.010789471119517955,0.9921922376369191
2017-03-17,-1,-0.0010095441703438569,-0.0010037220875743467,-0.0006986485998250649,0.010789471119517955,0.9919675449492693
2017-03-21,-1,-0.0005544132132523454,-0.0004765210692937192,-0.001616522334322923,0.010789471119517955,0.9924373228617406
2017-03-23,-1,-0.002020249456370821,-0.0018034535505293205,-0.001616522334322923,0.01011274017873063,0.9926946662905795
2017-03-27,-1,-0.002041262173145795,-0.0018576534277243723,-0.0020070609366068864,0.01011274017873063,0.9923734101800588
2017-03-29,-1,-0.001832144721492623,-0.001606086405063154,-0.003489887660540485,0.005622859520479009,0.992053293006242
2017-03-31,-1,-0.0012708672558999201,-0.0011250116656096245,-0.007882479289825585,0.005622859520479009,0.991130122146485
2017-04-04,-1,-0.0013291961023343814,-0.0012072250775963269,-0.007882479289825585,0.0034736439090137204,0.9916949382226151
2017-04-06,-1,-0.0013689424169114393,-0.001249461966409597,-0.007967432021004535,0.0034736439090137204,0.9915613199851888
2017-04-10,-1,-0.0004481690859834076,-0.00042243550737400926,-0.01154561664039868,0.0020978662896133067,0.9915869913907286
2017-04-12,-1,-0.000568963786011564,-0.0005363661904325017,-0.015595454140708351,0.0020978662896133067,0.99005773118085
2017-04-17,-1,-0.0005163717600924764,-0.00047324222458027985,-0.016223035198244345,0.000954230706850652,0.9887982666666592
2017-04-19,-1,-0.00044477866178354436,-0.00041758905013268403,-0.016223035198244345,0.0008994095990669216,0.9882188485214006
2017-04-21,-1,-0.0009776744222682843,-0.0008858009523735912,-0.01607992087765573,0.0008994095990669216,0.9879918902187552
2017-04-25,-1,-0.0016667616145076643,-0.0015071915538943646,-0.01363654702909311,0.0008994095990669216,0.9891602377374642
2017-04-27,-1,-0.0021673629633583943,-0.001896907250075814,-0.010908549194370112,0.002240108102829725,0.9897286228408257
2017-05-01,-1,-0.0012793112854724616,-0.0011606211564860222,-0.013374178647838728,0.0008994095990669216,0.9896729074681575
2017-05-03,-1,-0.0017413033867952471,-0.0016044213854169906,-0.010908549194370112,0.0015725677573918307,0.9903793417783805
2017-05-05,-1,-0.002009401092487269,-0.00183421805568949,-0.013285749995227724,0.0015725677573918307,0.9900157342468424
2017-05-09,-1,-0.0016534468706189056,-0.0015729783730081882,-0.013285749995227724,0.005527887015557901,0.989232281698181
2017-05-11,-1,-0.0026938900282281034,-0.002413484451039677,-0.009536344850877796,0.005527887015557901,0.9908624117382347
2017-05-15,-1,-0.003665876230860721,-0.0033070188584473177,-0.0049881958595122365,0.0059843391214436355,0.9904910626429735
2017-05-17,-1,-0.004393230963891541,-0.0039060960431274317,-0.004558756535963817,0.006704689438214973,0.9900193832891049
2017-05-19,-1,-0.0034134807372590992,-0.00302484192637669,-0.0049881958595122365,0.0059843391214436355,0.9915711779441693
2017-05-23,-1,-0.003924004811886605,-0.0034598550690704295,-0.0049881958595122365,0.0059843391214436355,0.9913328445693327
2017-05-25,-1,-0.0023705018077781175,-0.0021302779289192764,-0.0049881958595122365,0.0052825905876347475,0.9926105141051852
2017-05-30,-1,-0.002976854226505083,-0.0027423641836137108,-0.003320188681373685,0.006704689438214973,0.992623504849678
2017-06-01,-1,-0.002289955165055209,-0.002174464729668737,-0.003320188681373685,0.00732265352516524,0.9924188816924776
2017-06-05,-1,-0.003168308736476135,-0.0029233198209127178,-0.003320188681373685,0.009043966625983786,0.9914378757842619
2017-06-07,-1,-0.002274859036432609,-0.002133114745770837,-0.005238289390434218,0.00732265352516524,0.9903295776165275
2017-06-09,-1,-0.0016609452875518955,-0.0016189205240370848,-0.0062285363087012935,0.00732265352516524,0.9902922589510124
2017-06-13,-1,-0.0010337266817042879,-0.001022585677831794,-0.007501300819962401,0.00732265352516524,0.9909478050979048
2017-06-15,-1,-0.00016700357564818752,-1.0713744215175465e-05,-0.007501300819962401,0.009881874361394954,0.9899843179207652
2017-06-19,-1,-0.0007481145274677022,-0.0006942451967088435,-0.007501300819962401,0.009881874361394954,0.9892767693183242
2017-06-21,-1,-0.000967199536857608,-0.000963958440317187,-0.007501300819962401,0.009881874361394954,0.9888366722150675
2017-06-23,-1,-0.0003027680437701215,-0.000153241719243152,-0.007501300819962401,0.009881874361394954,0.9889612638225042
2017-06-27,1,0.0005319643679665375,0.000781381004233665,-0.007501300819962401,0.009736086279997294,0.9890275143964343
2017-06-29,1,0.0005255927461565512,0.0007681466346004471,-0.00815815064142713,0.011101905557160188,0.9873480014539704
2017-07-03,1,0.0010814189143800365,0.0013747141929709764,-0.010383551174127838,0.011101905557160188,0.9862249568479231
2017-07-06,-1,-0.0005725989147281412,-0.0004856185529740815,-0.00815815064142713,0.011101905557160188,0.9875744194545467
2017-07-10,-1,-0.000607854371002575,-0.0005314865354063983,-0.004934653637165064,0.014120193071391072,0.9868248948304311
2017-07-12,-1,-0.000617597342689174,-0.0005553931192459019,-0.006254049040697458,0.014120193071391072,0.986972669098399
2017-07-14,1,0.0011017243562617693,0.0014597643166921876,-0.013735865764133631,0.009965985726958048,0.9871992502024522
2017-07-18,1,0.001012860497722489,0.0013553547875018457,-0.013735865764133631,0.011791603898042445,0.986685000870972
2017-07-20,1,0.0014526862653654626,0.001867004560525317,-0.013735865764133631,0.011791603898042445,0.9865435512143318
2017-07-24,1,0.0010432577561975442,0.001367793748956772,-0.014816394801137875,0.011791603898042445,0.9855184260511178
2017-07-26,1,0.001556263496931918,0.0019204983924074456,-0.014816394801137875,0.012266789707161089,0.9846946461149007
2017-07-28,1,0.0008401484329330834,0.0010910786392668397,-0.013735865764133631,0.012185528791096661,0.9861492725907166
2017-08-01,1,0.0010462154848025441,0.001241824974889629,-0.0138466823265471,0.007679285467150415,0.9876134137494281
2017-08-03,1,0.0004827265521383287,0.0006011259976285131,-0.013735865764133631,0.007679285467150415,0.9885270158608429
2017-08-07,1,0.0014312686101867927,0.0016907073559587057,-0.013735865764133631,0.005323836610295764,0.9887410823365811
2017-08-09,1,0.0007066138524120779,0.0008481282173566543,-0.010007611604620726,0.009355476366855473,0.9887320747479017
2017-08-11,-1,-0.00013209026461000244,-8.846081598588135e-05,-0.007853898925207494,0.009355476366855473,0.9898146947536663
2017-08-15,-1,-0.000274303591695828,-0.00026254488804627093,-0.007853898925207494,0.009355476366855473,0.989687271809021
2017-08-17,-1,-0.0005372567825864935,-0.0005044881490414699,-0.007853898925207494,0.012104560462194975,0.9887049275151533
2017-08-21,-1,-0.000486390349667579,-0.000470710908347663,-0.008394219307936041,0.012104560462194975,0.9886852694435412
2017-08-23,1,0.0004305974396042496,0.0005911430885364339,-0.007853898925207494,0.009355476366855473,0.9904241798213713
2017-08-25,1,0.0005763097574395511,0.0007409183143029761,-0.007853898925207494,0.009036302648024491,0.9907023141287459
2017-08-29,0,-1.013400991647901e-05,7.248418553668833e-05,-0.007853898925207494,0.010834872948214561,0.9895802724725906
2017-08-31,1,0.0003366607238837052,0.00048783760041802966,-0.007853898925207494,0.010834872948214561,0.9893185987845006
2017-09-05,1,0.0005773222240422829,0.0007795905214373483,-0.007833157489814294,0.010834872948214561,0.9895283363979364
2017-09-07,1,0.0015363618677272691,0.0018819903548831526,-0.007833157489814294,0.00897380904248033,0.9900721835865685
2017-09-11,1,0.0014398075074356044,0.0017721968794091327,-0.00679339080615633,0.00897380904248033,0.9902179100111441
2017-09-13,1,0.0013901699686453956,0.0016951981177236774,-0.005200174889772284,0.009561638513066363,0.9907978679939555
