JNU-Tangyin/eata/results/Batch4_SP500/Batch4_SP500-RXMD.csv
Date,Action,Predicted_Q25,Predicted_Q75,Actual_Q25,Actual_Q75,RL_Reward
2010-12-14,0,0.0,0.0,0.0,0.0,0.9900136943587189
2010-12-16,0,0.0,0.0,0.0,0.0,0.9900990099009901
2010-12-20,-1,-0.0032795386700432507,-0.0029968334567349085,0.0,0.0,0.9876962835423762
2010-12-22,-1,-0.000888465213810112,-0.0008279204546114415,0.0,0.0,0.9894376711049238
2010-12-27,-1,-0.0008234971746546029,-0.0007729506595445378,0.0,0.0,0.9894827855926726
2010-12-29,0,0.0,0.0,0.0,0.0,0.9926731255885035
2010-12-31,0,0.0,0.0,0.0,0.0,0.9926731255885035
2011-01-04,1,0.001310456731035697,0.0013825957612443585,0.0,0.0,0.9914874718253616
2011-01-06,1,0.0004531900234539173,0.0005929832264107027,0.0,0.0,0.9922232002559859
2011-01-10,0,0.0,0.0,0.0,0.0,0.9926731255885035
2011-01-12,0,0.0,0.0,0.0,0.0,0.9926731255885035
2011-01-14,0,0.0,0.0,0.0,0.0,0.9926731255885035
2011-01-19,1,0.004581519075698072,0.004823146264198918,0.0,0.0,0.9890247548363869
2011-01-21,1,0.003627856003985126,0.0039473339795356305,0.0,0.0,0.9897555382146701
2011-01-25,1,0.0034091828346025943,0.00368998651700704,0.0,0.0,0.9899349193032727
2011-01-27,1,0.0016469515237599857,0.0016863108017044286,0.0,0.0,0.9935458939614592
2011-01-31,1,0.0014047261851055717,0.0014077988223598166,0.0,0.0,0.988860164917461
2011-02-02,1,0.002625158019739198,0.002632944822056022,0.0,0.0,0.9831857869894575
2011-02-04,1,0.002709457264944057,0.002744150105628479,0.0,0.0,0.9785698580377439
2011-02-08,1,0.0019119189508628879,0.002030795964636462,0.0,0.0,0.9790981719574335
2011-02-10,1,0.002060132591579351,0.002141753812008338,0.0,0.0,0.9744375101900226
2011-02-14,-1,-0.0015411024377264678,-0.0012897094116381923,0.0,0.0,0.9744226469043644
2011-02-16,-1,-0.0006661795555678923,-0.00044414114302900043,0.0,0.0,0.9799334706864063
2011-02-18,0,-0.00013193146915401084,0.0001718558230037956,0.0,0.0,0.9734038973394024
2011-02-23,-1,-0.0005162745599171389,-0.00016694144657359731,0.0,0.0,0.9732635359510686
2011-02-25,-1,-0.0009735613016559489,-0.0005863360345203783,0.0,0.0,0.9682720420085092
2011-03-01,-1,-0.0017801762547423343,-0.001403449839009012,0.0,0.0,0.9677368809916889
2011-03-03,-1,-0.003808906684454545,-0.003195607207416932,0.0,0.0,0.971239142079729
2011-03-07,-1,-0.0036521730522719583,-0.0030553940871880228,0.0,0.0,0.9760734690193069
2011-03-09,-1,-0.003413608083093262,-0.0028375696442073895,0.0,0.0,0.9762203710205974
2011-03-11,-1,-0.0035875724312441426,-0.002994044353265771,0.0,0.0,0.9809020017893733
2011-03-15,-1,-0.0033790015180926733,-0.002806806318869539,0.0,0.0,0.981029801121559
2011-03-17,-1,-0.0035065066990613574,-0.002822993010864635,0.0,0.0,0.9762217394685649
2011-03-21,1,0.0011407286590018446,0.0011629810273516522,0.0,0.0,0.9843321221684109
2011-03-23,-1,-0.0009687633366531406,-0.0009544433975927887,0.0,0.0,0.9843837257111625
2011-03-25,1,0.004051555528041224,0.004322987256951355,0.0,0.0,0.9816033774022722
2011-03-29,1,0.002414998000904608,0.002444108820347293,0.0,0.0,0.9879629684372021
2011-03-31,1,0.0020581330763570767,0.002073966669468637,0.0,0.0,0.9882810995722029
2011-04-04,1,0.0015657819206964661,0.0016420564823987564,0.0,0.0,0.9852951866355075
2011-04-06,1,0.00030188915389535524,0.00038954337800147236,0.0,0.0,0.9863968463199722
2011-04-08,1,0.0009966260447790572,0.0011203464106015891,0.0,0.0,0.985776586735495
2011-04-12,1,0.002225527507840723,0.002304651813165257,0.0,0.0,0.9813201277897188
2011-04-14,-1,-0.00026976240530423814,-0.00012093772904876222,0.0,0.0,0.9877846071327303
2011-04-18,-1,-0.00017939660699522293,-5.140466744524253e-05,0.0,0.0,0.9878431657000445
2011-04-20,-1,-0.0002964522377708172,-0.00015125442024635082,0.0,0.0,0.9877616882300749
2011-04-25,-1,-0.0009303833732297896,-0.0007173977549708811,0.0,0.0,0.9887817746729004
2011-04-27,1,0.001459806518030056,0.001504937211015207,0.0,0.0,0.9880872583251494
2011-04-29,1,0.001557485973168985,0.001600582656329064,0.0,0.0,0.9880021312515529
2011-05-03,-1,-0.0018786299597629284,-0.0015550423349852526,0.0,0.0,0.9913247524944276
2011-05-05,-1,-0.001769386825988244,-0.0014444700309841217,0.0,0.0,0.9914221008074503
2011-05-09,-1,-0.0018787667344003255,-0.0015336711220332662,0.0,0.0,0.991336256694916
2011-05-11,-1,-0.000816720508832019,-0.0005850712876821371,0.0,0.0,0.9934472111298842
2011-05-13,1,0.00034136811583643776,0.00036526422062566,0.0,0.0,0.9937355263277468
2011-05-17,0,0.0,0.0,0.0,0.0,0.994047277352073
2011-05-19,0,0.0,0.0,0.0,0.0,0.994047277352073
2011-05-23,0,0.0,0.0,0.0,0.0,0.9975062368233418
2011-05-25,1,0.004219361119193929,0.0044310785361152535,0.0,0.0,0.9936688156095193
2011-05-27,1,0.0038231051096066088,0.003966688009042331,0.0,0.0,0.9940446326886428
2011-06-01,1,0.0034268491000192885,0.0035022974819694077,0.0,0.0,0.9944207341520868
2011-06-03,1,0.0029594147369712276,0.0029665568121080843,0.0,0.0,0.9925096086372525
2011-06-07,1,0.0024612642958024233,0.0025194320862295836,0.0,0.0,0.9894992311694079
2011-06-09,1,0.002368032425267624,0.0024343241816358035,0.0,0.0,0.9917827018752432
2011-06-13,1,0.002696067131876895,0.0027101907662179605,0.0,0.0,0.9915103375266924
2011-06-15,1,0.002291497123399249,0.002293593066938214,0.0,0.0,0.9918725651859375
2011-06-17,1,0.0019393532485942437,0.0019892307146964793,0.0,0.0,0.9921679991320765
2011-06-21,0,0.0,0.0,0.0,0.0,0.9939064092242907
2011-06-23,0,0.0,0.0,0.0,0.0,0.9939064092242907
2011-06-27,0,0.0,0.0,0.0,0.0,0.9939064092242907
2011-06-29,1,4.671937271730876e-05,6.247318290967543e-05,0.0,0.0,0.9938594280479286
2011-07-01,-1,-0.00011530089701173994,-0.00011065825662313847,0.0,0.0,0.9961518855180618
2011-07-06,1,0.0001406279009008738,0.00016919353093584416,0.0,0.0,0.9998451132776945
2011-07-08,1,0.0001455911511203005,0.00017494333024195937,0.0,0.0,0.9998397584407914
2011-07-12,1,6.489268263348906e-05,7.04866372758061e-05,0.0,0.0,0.9999323149216252
2011-07-14,1,1.961580879256725e-05,3.053511945252559e-05,0.0,0.0,0.9964988534573137
2011-07-18,1,4.979097074994291e-06,1.8015652566550705e-05,0.0,0.0,0.9915717693129298
2011-07-20,0,-7.900693279009459e-06,6.999025712350697e-06,0.0,0.0,0.9915782277856178
2011-07-22,0,0.0,0.0,0.0,0.0,0.9915830738282898
2011-07-26,0,0.0,0.0,0.0,0.0,0.9915830738282898
2011-07-28,0,0.0,0.0,0.0,0.0,0.9915830738282898
2011-08-01,-1,-0.00195811330124971,-0.0017390647640464852,0.0,0.0,0.9901718125615733
2011-08-03,1,0.00016485151236882503,0.00021243936037635802,0.0,0.0,0.9865305099765138
2011-08-05,1,0.00035065277296468685,0.0004438855340494456,0.0,0.0,0.9844173266998529
2011-08-09,0,0.0,0.0,0.0,0.0,0.9847082814355589
2011-08-11,0,-8.724662854888823e-06,8.400744926505993e-07,0.0,0.0,0.9880990920864293
2011-08-15,-1,-2.8237022614682466e-05,-1.5398659335327713e-05,0.0,0.0,0.9929868987729069
2011-08-17,1,0.00023289926330250773,0.00025283345445997654,0.0,0.0,0.9928205862897806
2011-08-19,-1,-5.1999560059189714e-05,-3.5606333233386385e-05,0.0,0.0,0.9929652214267088
2011-08-23,1,0.00023052978431647325,0.0002488930691165251,0.0,0.0,0.9928227807426382
2011-08-25,-1,-7.553976577215606e-05,-5.569276359078238e-05,0.0,0.0,0.9929437143987377
2011-08-29,1,8.939678322666229e-05,0.000105524675361903,0.0,0.0,0.9929345487104747
2011-08-31,1,0.000206765531869409,0.00022104265561521453,0.0,0.0,0.9977730699732924
2011-09-02,0,0.0,0.0,0.0,0.0,1.0
2011-09-07,1,3.4438656225485896e-05,4.829901540170327e-05,0.0,0.0,0.9999586328754961
2011-09-09,0,0.0,0.0,0.0,0.0,1.0
2011-09-13,1,0.00042346810378661795,0.00042576493416692266,0.0,0.0,0.9995755637036859
2011-09-15,0,0.0,0.0,0.0,0.0,1.0
2011-09-19,0,0.0,0.0,0.0,0.0,1.0
2011-09-21,0,0.0,0.0,0.0,0.0,1.0
2011-09-23,0,0.0,0.0,0.0,0.0,1.0
2011-09-27,0,0.0,0.0,0.0,0.0,1.0
2011-09-29,0,0.0,0.0,0.0,0.0,1.0
2011-10-03,0,0.0,0.0,0.0,0.0,1.0
2011-10-05,0,0.0,0.0,0.0,0.0,1.0
2011-10-07,0,0.0,0.0,0.0,0.0,1.0
2011-10-11,0,0.0,0.0,0.0,0.0,1.0
2011-10-13,0,0.0,0.0,0.0,0.0,1.0
2011-10-17,1,0.0009219062972563054,0.001031025773206813,0.0,0.0,0.999024486520548
2011-10-19,1,0.0008838077806763362,0.0009863763804728214,0.0,0.0,0.9990657814997465
2011-10-21,0,0.0,0.0,0.0,0.0,0.9900990099009901
2011-10-25,1,6.248717022681096e-06,1.2964397191828547e-05,0.0,0.0,0.9803874260512454
2011-10-27,0,0.0,0.0,0.0,0.0,0.9756097560975611
2011-10-31,0,0.0,0.0,0.0,0.0,0.9756097560975611
2011-11-02,1,0.0008040763048397311,0.0008316632167015409,0.0,0.0,0.9657343643113285
2011-11-04,1,0.0007176317516409602,0.000730019825879276,0.0,0.0,0.9657822175796545
2011-11-08,0,0.0,0.0,0.0,0.0,0.9661835748792271
2011-11-10,0,0.0,0.0,0.0,0.0,0.9661835748792271
2011-11-14,-1,-0.0021314495937810435,-0.0018273615240792808,0.0,0.0,0.9649678456862417
2011-11-16,-1,-0.0021191223619040096,-0.0018171608320664639,0.0,0.0,0.9649746562277571
2011-11-18,1,0.001142311064908654,0.0012320282556831574,0.0,0.0,0.9748423062331372
2011-11-22,0,0.0,0.0,0.0,0.0,0.9852216748768474
2011-11-25,0,0.0,0.0,0.0,0.0,0.9900990099009901
2011-11-29,0,0.0,0.0,0.0,0.0,0.9803921568627451
2011-12-01,0,0.0,0.0,0.0,0.0,0.9852216748768474
2011-12-05,0,0.0,0.0,0.0,0.0,0.9842709648945948
2011-12-07,-1,-0.0026831675809291296,-0.0025480909551176146,0.0,0.0,0.9822726299970309
2011-12-09,0,0.0,0.0,0.0,0.0,0.9842709648945948
2011-12-13,0,0.0,0.0,0.0,0.0,0.9794507402686402
2011-12-15,1,0.00010504578267648659,0.00018106054763202456,0.0,0.0,0.9793547791777292
2011-12-19,1,0.00015110142846500813,0.0002346728213826655,0.0,0.0,0.9793179158115817
2011-12-21,1,0.0001998597325394482,0.0002916563120084508,0.0,0.0,0.9792788467873599
2011-12-23,1,0.00024330907458978296,0.00034270505601146555,0.0,0.0,0.9792439798848489
2011-12-28,-1,-0.0007032000896852878,-0.000682808097489925,0.0,0.0,0.9886005158928431
2011-12-30,-1,-0.0017777268615840126,-0.0016349461982401925,0.0,0.0,0.9927347626799041
2012-01-04,-1,-0.0022574843963786614,-0.002042495174722037,0.0,0.0,0.9931339763142031
2012-01-06,-1,-0.0008029285146998844,-0.000783187736212972,0.0,0.0,0.9943206608904532
2012-01-10,-1,-0.0006946227839852495,-0.0006905635885321544,0.0,0.0,0.9944085125827822
2012-01-12,-1,-0.0013933887115296563,-0.001311148658611449,0.0,0.0,0.9986495574760654
2012-01-17,-1,-0.0012580618667571068,-0.0011955189857589662,0.0,0.0,0.9987747127444166
2012-01-19,-1,-0.0011269980974560824,-0.0010834895785951136,0.0,0.0,0.9988959763772803
2012-01-23,-1,-0.000997932764794657,-0.0009733604723473333,0.0,0.0,0.9990153239240737
2012-01-25,-1,-0.0024744137761250015,-0.0022949826888659236,0.0,0.0,0.9976209750241594
2012-01-27,-1,-0.0025775842407486176,-0.0023741213971917377,0.0,0.0,0.992579620843465
2012-01-31,-1,-0.0025169696263032744,-0.0022961463706139243,0.0,0.0,0.9926478957877998
2012-02-02,0,0.0,0.0,0.0,0.0,0.9950248756218907
2012-02-06,0,0.0,0.0,0.0,0.0,0.9950248756218907
2012-02-08,1,0.0008615487169764693,0.0008675935856145825,0.0,0.0,0.9942556783240349
2012-02-10,1,0.0007214029793175639,0.0007480521052725652,0.0,0.0,0.9920790695948795
2012-02-14,1,0.0004208281309478319,0.00046669260400096534,0.0,0.0,0.98760560048387
2012-02-16,1,0.00027081696815869,0.00032532482577899677,0.0,0.0,0.9845126487174877
2012-02-21,1,0.0003663093822282623,0.0003901378429229172,0.0,0.005102035851341669,0.9825318166214785
2012-02-23,1,6.67674156393182e-05,0.0001451063516255116,0.0,0.005102035851341669,0.9826840408769917
2012-02-27,-1,-0.0001451076089182837,-3.968203759158439e-05,0.0,0.004999995231628418,0.9865127413386519
2012-02-29,-1,-0.00023358120765330797,-0.00011555769868932077,0.0,0.019705863834939632,0.9854889313402156
2012-03-02,1,0.0013358720611615898,0.0014065084524000717,0.0,0.019705863834939632,0.9841955756632105
2012-03-06,0,0.0,0.0,0.0,0.020102021546226922,0.9809090203232368
2012-03-08,-1,-0.0014390244004794522,-0.0012181352213126218,0.0,0.020102021546226922,0.9765914747484103
2012-03-12,-1,-0.0014497883360548832,-0.0012273170153853158,0.0,0.020102021546226922,0.9786631745183008
2012-03-14,-1,-0.002311861073652356,-0.0019883211311152484,0.0,0.019705863834939632,0.9827487843225178
2012-03-16,-1,-0.002226957177417659,-0.0019154082605935792,0.0,0.019705863834939632,0.9822397046711983
2012-03-20,-1,-0.0036085273126470565,-0.003137245309634245,0.0,0.0,0.983254730947086
2012-03-22,-1,-0.0037759268307330954,-0.003288336709352047,0.0,0.0,0.9800084035606407
2012-03-26,0,0.0,0.0,0.0,0.0,0.983228287103022
2012-03-28,0,0.0,0.0,0.0,0.0,0.9841769829308511
2012-03-30,0,0.0,0.0,0.0,0.0,0.981318210088689
2012-04-03,-1,-0.00350377908793554,-0.003228812663784522,0.0,0.0,0.9825529927750604
2012-04-05,-1,-0.0034256209709684782,-0.002995320779823789,0.0,0.0,0.9858764319501002
2012-04-10,-1,-0.003350168180856119,-0.002930962758721819,0.0,0.0,0.9827537559481986
2012-04-12,-1,-0.0031904705647524865,-0.0027928600198589026,0.0,0.0,0.9828648635841053
2012-04-16,-1,-0.002741785174330968,-0.002546992250324313,0.0,0.0,0.9869009576819388
2012-04-18,-1,-0.0036614560565038858,-0.0032937443248793824,0.0,0.0,0.9862840336926053
2012-04-20,-1,-0.002322833072710276,-0.0021158983803220783,0.0,0.0,0.9905553793625709
2012-04-24,-1,-0.0021797275279213,-0.0019937090474678064,0.0,0.0,0.990670478732015
2012-04-26,0,0.0,0.0,0.0,0.0,0.9924987575996077
2012-04-30,0,0.0,0.0,0.0,0.0,0.9963768097358614
2012-05-02,0,0.0,0.0,0.0,0.0,0.9904748443563505
2012-05-04,0,0.0,0.0,0.0,0.0,0.9904748443563505
2012-05-08,0,0.0,0.0,0.0,0.0,0.9940551612215345
2012-05-10,0,0.0,0.0,0.0,0.0,0.9855938149540245
2012-05-14,0,0.0,0.0,0.0,0.0,0.9855938149540245
2012-05-16,-1,-0.001447428211729328,-0.0013217430107225494,0.0,0.0,0.9800028727740082
2012-05-18,-1,-0.0011591076938434564,-0.0009834071294873748,0.0,0.0,0.9801996457988872
2012-05-22,-1,-0.000996813430228661,-0.0009689399685808485,0.0,0.0,0.9802027530414471
2012-05-24,-1,-0.0017146123154802642,-0.0016051746524422068,0.0,0.0,0.9798389996816118
2012-05-29,-1,-0.001455202253513488,-0.0013894216379291453,0.0,0.0,0.97756681260774
2012-05-31,-1,-0.0024467828865272767,-0.0022665898487505107,0.0,0.0,0.9825714657532881
2012-06-04,-1,-0.0022650709008657705,-0.0021123648189125,0.0,0.0,0.9826778693813463
2012-06-06,-1,-0.001528891179194549,-0.0014858339800264825,0.0,0.0,0.9831102065328023
2012-06-08,-1,-0.0002274525101364884,-9.778696068496803e-05,0.0,0.0,0.9924244384213127
2012-06-12,-1,-0.0006471846054039537,-0.0006399334920137883,0.0,0.0,0.9919862631665025
2012-06-14,1,0.00028634230814344227,0.00046879157574192796,0.0,0.0,0.9971863759177738
2012-06-18,1,0.000387392121305456,0.0005873738488933957,0.0,0.0,0.9970898496008783
2012-06-20,1,3.605182502963483e-06,0.00012401365074610904,0.0,0.0,0.9974455318619433
2012-06-22,0,0.0,0.0,0.0,0.0,0.9975062368233418
2012-06-26,0,0.0,0.0,0.0,0.0,1.0
2012-06-28,0,0.0,0.0,0.0,0.0,1.0
2012-07-02,0,0.0,0.0,0.0,0.0,1.0
2012-07-05,0,0.0,0.0,0.0,0.0,1.0
2012-07-09,0,0.0,0.0,0.0,0.0,1.0
2012-07-11,-1,-0.0005263796924570171,-0.0004179506510148884,0.0,0.0,0.9995280576629987
2012-07-13,-1,-0.0005599815238004791,-0.00044649037239597486,0.0,0.0,0.9994970171709425
2012-07-17,-1,-0.0005930484852970661,-0.0004748220520386207,0.0,0.0,0.9944965206299187
2012-07-19,-1,-0.0008889635024403755,-0.0007139113088085397,0.0,0.0,0.9942320251394859
2012-07-23,-1,-0.0009370789517539166,-0.0007548098433505361,0.0,0.0,0.9941880320439591
2012-07-25,-1,-0.0013629315675716845,-0.001299785936383994,0.0,0.0,0.9937084751489512
2012-07-27,-1,-0.0010263195036202377,-0.0010090409228449017,0.0,0.0,0.9940183156503203
2012-07-31,-1,-0.0008861791841548671,-0.0008829374191522389,0.0,0.0,0.994149867146197
2012-08-02,-1,-0.0009646586097779252,-0.0008737672257291059,0.0,0.0,0.9941156179922399
2012-08-06,-1,-0.0002836517593936514,-0.00014202630236370825,0.0,0.0,0.9948141937423874
2012-08-08,-1,-3.092907124609735e-05,-1.3693687860772593e-05,0.0,0.0,0.9950027861842595
2012-08-10,0,-7.52547418454791e-06,5.956520651972485e-06,0.0,0.0,0.9950191000312888
2012-08-14,-1,-4.272198185075041e-05,-3.381570247993207e-05,0.0,0.0,0.9999617326222828
2012-08-16,1,0.00025077468125203313,0.0002980725252143895,0.0,0.0,0.9997256516844201
2012-08-20,0,0.0,0.0,0.0,0.0,1.0
2012-08-22,0,0.0,0.0,0.0,0.0,1.0
2012-08-24,0,0.0,0.0,0.0,0.0,1.0
2012-08-28,0,0.0,0.0,0.0,0.0,1.0
2012-08-30,0,0.0,0.0,0.0,0.0,1.0
2012-09-04,0,0.0,0.0,0.0,0.0,1.0
2012-09-06,0,0.0,0.0,0.0,0.0,1.0
2012-09-10,0,0.0,0.0,0.0,0.0,1.0
2012-09-12,1,0.0004869938143734902,0.0005543500975243376,0.0,0.0,0.9994795990022565
2012-09-14,1,0.00047438290930516846,0.00053957157631935,0.0,0.0,0.9994932796528722
2012-09-18,1,0.000461228722827743,0.0005239908446570047,0.0,0.0,0.9995076327611767
2012-09-20,1,0.0008611325790990772,0.0010100769326051734,0.0,0.0,0.999065269782185
2012-09-24,1,0.0007059136306531916,0.0007944286625667025,0.0,0.0,0.9942827042822628
2012-09-26,0,-6.521189453449592e-05,6.595932331211177e-05,0.0,0.0,0.9900556251419556
2012-09-28,1,3.2376438247555626e-05,0.00022956108254407496,0.0,0.0,0.9899678305399393
2012-10-02,0,-0.00018521030997863455,4.4183634165090606e-05,0.0,0.0,0.9864345530082584
2012-10-04,0,0.0,0.0,-0.018518527716765754,0.0,0.9768451501982481
2012-10-08,0,0.0,0.0,-0.1,0.0,0.9673951971318152
2012-10-10,0,0.0,0.0,-0.1,0.0,0.9673951971318152
2012-10-12,0,0.0,0.0,-0.1,0.0,0.9673951971318152
2012-10-16,0,0.0,0.0,-0.1,0.0,0.9627384543476649
2012-10-18,0,0.0,0.0,-0.1,0.0,0.9627384543476649
2012-10-22,0,0.0,0.0,-0.08055558315029726,0.0,0.9673951971318152
2012-10-24,0,0.0,0.0,-0.018518527716765754,0.0,0.9720972079825531
2012-10-26,0,0.0,0.0,-0.018518527716765754,0.0,0.9673951971318152
2012-11-01,0,0.0,0.0,0.0,0.0,0.970873786407767
2012-11-05,0,0.0,0.0,0.0,0.0,0.9803921568627451
2012-11-07,0,0.0,0.0,0.0,0.0,0.9852216748768474
2012-11-09,0,0.0,0.0,0.0,0.0,0.9852216748768474
2012-11-13,-1,-0.029601407651772327,-0.02602725587480348,0.0,0.0,0.9618385890189889
2012-11-15,-1,-0.023940380305491976,-0.021050085822571986,0.0,0.0,0.9709146210883942
2012-11-19,0,0.0,0.0,0.0,0.0,0.9900990099009901
2012-11-21,0,0.0,0.0,0.0,0.0,0.9900990099009901
2012-11-26,0,0.0,0.0,0.0,0.0,0.9900990099009901
2012-11-28,0,0.0,0.0,0.0,0.0,0.990544800546044
2012-11-30,0,0.0,0.0,0.0,0.0,0.9856630833346077
2012-12-04,0,0.0,0.0,0.0,0.0,0.980829247433358
2012-12-06,0,0.0,0.0,0.0,0.0,0.9856630833346077
2012-12-10,0,0.0,0.0,0.0,0.0,0.9760425928940032
2012-12-12,0,0.0,0.0,-0.02272726810914415,0.0,0.9713024301818087
2012-12-14,0,0.0,0.0,-0.09318179873949727,0.0,0.9666080862656924
2012-12-18,-1,-0.0010449628713509274,-0.0009363298207178993,-0.09318179873949727,0.0,0.9662828323861067
2012-12-20,0,0.0,0.0,-0.09318179873949727,0.0,0.9619589000086742
2012-12-24,0,0.0,0.0,-0.09999998323619444,0.0,0.9573542229326197
2012-12-27,0,0.0,0.0,-0.1,0.0,0.9523809533946368
2012-12-31,0,0.0,0.0,-0.1,0.0,0.9478673005863967
2013-01-03,0,0.0,0.0,-0.1,0.0,0.9478673005863967
2013-01-07,-1,-1.0288511055135088e-14,-8.778999780636504e-15,-0.1,0.0,0.9478673005863965
2013-01-09,1,6.650108298207575e-15,7.552651521207777e-15,-0.1,0.0,0.956937800066465
2013-01-11,1,0.0014344982389350135,0.001561955375472638,-0.09999998323619444,0.0,0.9562790333543685
2013-01-15,0,0.0,0.0,-0.09318179873949742,0.0,0.9527934189167081
2013-01-17,0,0.0,0.0,-0.09318179873949742,0.025,0.9450289533430221
2013-01-22,0,0.0,0.0,-0.09318179873949742,0.0,0.9495155517834462
2013-01-24,0,0.0,0.0,-0.07707504372745422,0.0,0.954044954389915
2013-01-28,-1,-0.0013915296383467887,-0.0007982567443789877,-0.05003076570105655,0.0,0.9607376018446933
2013-01-30,-1,-0.028565401106616622,-0.026230298213244532,-0.0026315843134378353,0.0,0.956551401107172
2013-02-01,0,0.0,0.0,-0.0026315843134378353,0.0,0.970099014890519
2013-02-05,0,0.0,0.0,-0.0026315843134378353,0.0,0.970099014890519
2013-02-07,0,0.0,0.0,-0.0026315843134378353,0.0,0.970099014890519
2013-02-11,0,0.0,0.0,0.0,0.0,0.9743956515706446
2013-02-13,0,0.0,0.0,0.0,0.0,0.983983544439837
2013-02-15,1,5.7777713337050086e-05,0.00017603041090903177,0.0,0.0,0.9922890439330161
2013-02-20,0,-7.493160623498412e-05,6.297857090483523e-05,0.0,0.0,0.9923709043026064
2013-02-22,-1,-0.00021284670107791896,-5.42100488311305e-05,0.0,0.0,0.9874537071527981
2013-02-26,0,0.0,0.0,0.0,0.0,0.9900990099009901
2013-02-28,0,0.0,0.0,0.0,0.0,0.9860312250766746
2013-03-04,0,0.0,0.0,0.0,0.0,0.990916598615081
2013-03-06,0,0.0,0.0,0.0,0.0,0.990916598615081
2013-03-08,0,0.0,0.0,0.0,0.0,0.990916598615081
2013-03-12,0,0.0,0.0,0.0,0.0,0.990916598615081
2013-03-14,-1,-0.003507642253644766,-0.0033749106790465725,0.0,0.0,0.9878977179562451
2013-03-18,-1,-0.0024711222371447596,-0.002452306031017564,0.0,0.0,0.9887477275492523
2013-03-20,-1,-0.0018453094701744038,-0.0017999482272012684,0.0,0.0,0.9893129510703436
2013-03-22,-1,-0.0032567775584466515,-0.0032522769275269733,0.0,0.0,0.9929546981162806
2013-03-26,0,0.0,0.0,0.0,0.0,0.9958506231763138
2013-03-28,0,0.0,0.0,0.0,0.0,1.0
2013-04-02,1,0.0008546256048077743,0.0008715357959068797,0.0,0.0,0.9991376635655764
2013-04-04,0,0.0,0.0,0.0,0.0,1.0
2013-04-08,0,0.0,0.0,0.0,0.0,1.0
2013-04-10,0,0.0,0.0,0.0,0.0,1.0
2013-04-12,0,0.0,0.0,0.0,0.0,1.0
2013-04-16,0,0.0,0.0,0.0,0.0,1.0
2013-04-18,0,0.0,0.0,0.0,0.0,1.0
2013-04-22,0,0.0,0.0,0.0,0.0,1.0
2013-04-24,0,0.0,0.0,0.0,0.0,0.9950248756218907
2013-04-26,0,0.0,0.0,0.0,0.0,0.9900990099009901
2013-04-30,0,0.0,0.0,0.0,0.0,0.9900990099009901
2013-05-02,-1,-0.316448659565219,-0.29795805614251497,0.0,0.0,0.7708891546923149
2013-05-06,0,0.0,0.0,0.0,0.0,0.9900990099009901
2013-05-08,0,0.0,0.0,0.0,0.0,0.9900990099009901
2013-05-10,-1,-0.0020735811126548482,-0.0013524736496197294,0.0,0.0,0.9888910051098302
2013-05-14,-1,-0.002514199924530776,-0.0017285786644820633,0.0,0.0,0.9885835828369902
2013-05-16,-1,-0.0029559058218459762,-0.002105466137547698,0.0,0.0,0.9882756776329765
2013-05-20,-1,-0.001491410492883964,-0.0011336733287544759,0.0,0.0,0.9891370479242573
2013-05-22,1,0.0007407509694404543,0.0007793239985056415,0.0,0.0,0.9942729505356144
2013-05-24,1,0.0011073591010229587,0.0011674105425374473,0.0,0.0,0.998863907352753
2013-05-29,1,0.0021085650407466454,0.0021767187957042215,0.0,0.0,0.9978619391805102
2013-05-31,1,0.001880831101169234,0.0019099324300586285,0.0,0.0,0.9981082039101988
2013-06-04,1,0.0012950133388673099,0.0013002572815641732,0.0,0.0,0.9987040463649816
2013-06-06,1,0.0023612233483794438,0.0025984657597546055,0.0,0.0,0.9975262898625457
2013-06-10,1,0.0018673976554246085,0.0020462330313224994,0.0,0.0,0.9933019165813843
2013-06-12,1,0.0017559269635735951,0.0019157375466905288,0.0,0.0,0.9934074817464292
2013-06-14,1,0.0012250217739411618,0.0012498017111276833,0.0,0.0,0.9939259272537022
2013-06-18,1,0.00186661263408127,0.002024677799870918,0.0,0.0,0.9933097862452529
2013-06-20,1,0.003220221971024966,0.003682654872455669,0.0,0.0,0.9920043937073851
2013-06-24,1,0.001931125906431601,0.0022069027141449586,0.0,0.0,0.993211858592891
2013-06-26,0,0.0,0.0,0.0,0.0,0.9921633469336885
2013-06-28,0,0.0,0.0,0.0,0.0,0.9921633469336885
2013-07-02,0,0.0,0.0,0.0,0.0,0.9921633469336885
2013-07-05,0,0.0,0.0,0.0,0.0,0.9872657027141003
2013-07-09,0,0.0,0.0,0.0,0.0,0.9921633469336885
2013-07-11,0,0.0,0.0,0.0,0.0,0.9921633469336885
2013-07-15,0,0.0,0.0,0.0,0.0,0.9921633469336885
2013-07-17,0,0.0,0.0,0.0,0.0,0.9914607111792684
2013-07-19,-1,-0.0021462527246824134,-0.0018427963067636,0.0,0.0,0.9899510475785746
2013-07-23,-1,-0.0021341368918478803,-0.0018324580864684968,0.0,0.0,0.9899595195919201
2013-07-25,-1,-0.0035037665243275885,-0.003009128669481784,0.0,0.0,0.9914776309834981
2013-07-29,-1,-0.0034843616987043123,-0.002992474241804303,0.0,0.0,0.9914933121230198
2013-07-31,-1,-0.003463138132948335,-0.0029741050965014695,0.0,0.0,0.9915105467029349
2013-08-02,-1,-0.0038084701969403013,-0.0032798364407024133,0.0,0.0,0.9961636148750509
2013-08-06,-1,-0.003776319430302443,-0.0032529256057428754,0.0,0.0,0.9916436040881417
2013-08-08,-1,-0.0036994383854491754,-0.0031471753137128473,0.0,0.0,0.9917208257515087
2013-08-12,-1,-0.003423811094855839,-0.0029274048848475422,0.0,0.0,0.9919053426720549
2013-08-14,-1,-0.0008117307005168703,-0.0008082263518140856,0.0,0.0,0.9893852514733404
2013-08-16,0,0.0,0.0,0.0,0.0,0.9900990099009901
2013-08-20,0,0.0,0.0,0.0,0.0,0.9900990099009901
2013-08-22,1,0.0006277214631876069,0.0007321898258228839,0.0,0.0,0.9895096998125772
2013-08-26,0,0.0,0.0,0.0,0.0,0.9900990099009901
2013-08-28,0,0.0,0.0,0.0,0.0,0.9900990099009901
2013-08-30,0,0.0,0.0,0.0,0.0,0.9900990099009901
2013-09-04,0,0.0,0.0,0.0,0.0,0.9950248756218907
2013-09-06,0,0.0,0.0,0.0,0.0,0.9950248756218907
2013-09-10,0,0.0,0.0,0.0,0.0,0.9950248756218907
2013-09-12,0,0.0,0.0,0.0,0.0,1.0
2013-09-16,0,0.0,0.0,0.0,0.0,1.0
2013-09-18,0,0.0,0.0,0.0,0.0,1.0
2013-09-20,0,0.0,0.0,0.0,0.0,1.0
2013-09-24,1,0.000512967565735931,0.0006156443656163849,0.0,0.0,0.9944664842092494
2013-09-26,1,0.000524130828892419,0.0006287271038857531,0.0,0.0,0.9944544951475036
2013-09-30,1,0.0005352940920489067,0.0006418098421551209,0.0,0.0,0.9944425063748291
2013-10-02,1,0.0005469264173128669,0.0006554547199785015,0.0,0.0,0.9944300080179118
2013-10-04,1,0.0005580992626694892,0.0006685486880661266,0.0,0.0,0.9944180095454809
2013-10-08,1,0.0005692721080261111,0.0006816426561537514,0.0,0.0,0.9944060113625857
2013-10-10,1,0.0005804449533827326,0.0006947366242413759,0.0,0.0,0.9943940134692162
2013-10-14,1,8.750669881431856e-05,0.00014089381322855867,0.0,0.0,0.989987072497884
2013-10-16,1,0.0008047950649324889,0.000873643078589515,0.0,0.0,0.989277009768463
2013-10-18,-1,-0.00014031374319272013,-0.00013696496650554302,0.0,0.0,0.9899909176163795
2013-10-22,-1,-0.00011723035759276607,-0.0001154348099956177,0.0,0.0,0.9949214040229172
2013-10-24,-1,-9.667822333789223e-05,-9.610820433295198e-05,0.0,0.0,0.9900140285763567
2013-10-28,1,0.0014181976135370323,0.0015467641476075882,0.0,0.0,0.9888053625620677
2013-10-30,1,0.0013292828462506618,0.0014425608682991267,0.0,0.0,0.9888888431102414
2013-11-01,1,0.0012403680789642912,0.0013383575889906656,0.0,0.0,0.9889723377554062
2013-11-05,1,0.0011507339769724892,0.0012333763537588213,0.0,0.0,0.9890564998806174
2013-11-07,1,0.0010606010428067811,0.0011278359370411122,0.0,0.0,0.9891411362490916
2013-11-11,1,0.0015983927938511802,0.0017472862236614173,0.0,0.0,0.9886398692556414
2013-11-13,1,0.001501258890817712,0.0016334505635452713,0.0,0.0,0.9887310367950244
2013-11-15,1,0.0013991447203402971,0.0015144165028113075,0.0,0.0,0.9888266784172111
2013-11-19,1,0.001304426266399317,0.0014031917464647245,0.0,0.0,0.9889156875300201
2013-11-21,1,0.0010974092711884553,0.001164501620725436,0.0,0.0,0.9939064041188957
2013-11-25,1,0.0010028396345349157,0.0010538739236675046,0.0,0.0,0.9940077665420867
2013-11-27,1,0.0008470532556585402,0.0008665180397166931,0.0,0.0,0.9941773165611083
2013-12-02,1,0.0007503532810883718,0.0007529805414456301,0.0,0.0,0.9942812255743699
2013-12-04,1,0.000638738666149427,0.0006528727620132333,0.0,0.0,0.9943858904576524
2013-12-06,1,0.0005244967908532243,0.0005553922429380951,0.0,0.0,0.9944905773787461
2013-12-10,1,0.001256386930584863,0.0013136488151883176,0.0,0.0,0.9987166312788577
2013-12-12,1,0.0011356762806684199,0.0011719636055452136,0.0,0.0,0.9988475098230435
2013-12-16,1,0.001254462400193745,0.0013199982118289055,0.0,0.0,0.9987144245256998
2013-12-18,1,0.0011386485978542344,0.0011842707240192528,0.0,0.0,0.998839887762629
2013-12-20,1,0.0010280327668911909,0.0010537790488674237,0.0,0.0,0.9989601764505964
2013-12-24,1,0.0008416180210936245,0.0008512603633922111,0.0,0.0,0.9991542766611369
2013-12-27,1,0.000700603563953148,0.0007309352860638509,0.0,0.0,0.9992847425344165
2013-12-31,1,0.000559589106812672,0.000610610208735491,0.0,0.0,0.9994152424836487
2014-01-03,1,0.00041932455300257033,0.0004911468959623094,0.0,0.0,0.9995449714207825
2014-01-07,0,0.0,0.0,0.0,0.0,1.0
2014-01-09,0,0.0,0.0,0.0,0.0,1.0
2014-01-13,0,0.0,0.0,0.0,0.0,0.9985315737892854
2014-01-15,0,0.0,0.0,0.0,0.0,0.9985315737892854
2014-01-17,0,0.0,0.0,0.0,0.0,0.9985315737892854
2014-01-22,0,0.0,0.0,0.0,0.0,0.9985315737892854
2014-01-24,0,0.0,0.0,0.0,0.0,0.9985315737892854
2014-01-28,0,0.0,0.0,0.0,0.0,0.9985315737892854
2014-01-30,0,0.0,0.0,0.0,0.0,0.9985315737892854
2014-02-03,0,0.0,0.0,0.0,0.0,0.9971092261474976
2014-02-05,0,0.0,0.0,0.0,0.0,0.9971092261474976
2014-02-07,0,0.0,0.0,0.0,0.0,0.9971092261474976
2014-02-11,0,0.0,0.0,0.0,0.0,0.9985734689023688
2014-02-13,0,0.0,0.0,0.0,0.0,0.9985734689023688
2014-02-18,0,0.0,0.0,0.0,0.0,0.9985734689023688
2014-02-20,0,0.0,0.0,0.0,0.0,0.9985734689023688
2014-02-24,0,0.0,0.0,0.0,0.0,0.9985734689023688
2014-02-26,0,0.0,0.0,0.0,0.0,0.9985734689023688
2014-02-28,0,0.0,0.0,0.0,0.0,0.9985734689023688
2014-03-04,0,0.0,0.0,0.0,0.0,1.0
2014-03-06,0,0.0,0.0,0.0,0.0,1.0
2014-03-10,0,0.0,0.0,0.0,0.0,1.0
2014-03-12,0,0.0,0.0,0.0,0.0,1.0
2014-03-14,0,0.0,0.0,0.0,0.0,1.0
2014-03-18,0,0.0,0.0,0.0,0.0,1.0
2014-03-20,0,0.0,0.0,0.0,0.0,1.0
2014-03-24,0,0.0,0.0,0.0,0.0,1.0
2014-03-26,0,0.0,0.0,0.0,0.0,1.0
2014-03-28,0,0.0,0.0,0.0,0.0,1.0
2014-04-01,0,0.0,0.0,0.0,0.0,1.0
2014-04-03,0,0.0,0.0,0.0,0.0,1.0
2014-04-07,0,0.0,0.0,0.0,0.0,1.0
2014-04-09,0,0.0,0.0,0.0,0.0,1.0
2014-04-11,0,0.0,0.0,0.0,0.0,1.0
2014-04-15,0,0.0,0.0,0.0,0.0,1.0
2014-04-17,0,0.0,0.0,0.0,0.0,1.0
2014-04-22,0,0.0,0.0,0.0,0.0,1.0
2014-04-24,0,0.0,0.0,0.0,0.0,1.0
2014-04-28,0,0.0,0.0,0.0,0.0,1.0
2014-04-30,0,0.0,0.0,0.0,0.0,1.0
2014-05-02,0,0.0,0.0,0.0,0.0,1.0
2014-05-06,0,0.0,0.0,0.0,0.0,1.0
2014-05-08,0,0.0,0.0,0.0,0.0,1.0
2014-05-12,0,0.0,0.0,0.0,0.0,1.0
2014-05-14,0,0.0,0.0,0.0,0.0,1.0
2014-05-16,0,0.0,0.0,0.0,0.0,1.0
2014-05-20,0,0.0,0.0,0.0,0.0,1.0
2014-05-22,0,0.0,0.0,0.0,0.0,1.0
2014-05-27,0,0.0,0.0,0.0,0.0,1.0
2014-05-29,0,0.0,0.0,0.0,0.0,1.0
2014-06-02,0,0.0,0.0,0.0,0.0,1.0
2014-06-04,0,0.0,0.0,0.0,0.0,1.0
2014-06-06,0,0.0,0.0,0.0,0.0,1.0
2014-06-10,0,0.0,0.0,0.0,0.0,1.0
2014-06-12,0,0.0,0.0,0.0,0.0,1.0
2014-06-16,0,0.0,0.0,0.0,0.0,1.0
2014-06-18,0,0.0,0.0,0.0,0.0,1.0
2014-06-20,0,0.0,0.0,0.0,0.0,1.0
2014-06-24,0,0.0,0.0,0.0,0.0,1.0
2014-06-26,0,0.0,0.0,0.0,0.0,1.0
2014-06-30,0,0.0,0.0,0.0,0.0,1.0
2014-07-02,0,0.0,0.0,0.0,0.0,1.0
2014-07-07,0,0.0,0.0,0.0,0.0,1.0
2014-07-09,0,0.0,0.0,0.0,0.0,1.0
2014-07-11,0,0.0,0.0,0.0,0.0,0.9950248756218907
2014-07-15,0,0.0,0.0,0.0,0.0,0.9950248756218907
2014-07-17,0,0.0,0.0,0.0,0.0,0.9950248756218907
2014-07-21,0,0.0,0.0,0.0,0.0,0.9950248756218907
2014-07-23,0,0.0,0.0,0.0,0.0,0.9950248756218907
2014-07-25,0,0.0,0.0,0.0,0.0,0.9950248756218907
2014-07-29,0,0.0,0.0,0.0,0.0,0.9950248756218907
2014-07-31,0,0.0,0.0,0.0,0.0,0.9950248756218907
2014-08-04,0,0.0,0.0,0.0,0.0,0.9950248756218907
2014-08-06,0,0.0,0.0,0.0,0.0,0.9950248756218907
2014-08-08,0,0.0,0.0,0.0,0.0,1.0
2014-08-12,0,0.0,0.0,0.0,0.0,1.0
2014-08-14,0,0.0,0.0,0.0,0.0,1.0
2014-08-18,0,0.0,0.0,0.0,0.0,1.0
2014-08-20,0,0.0,0.0,0.0,0.0,1.0
2014-08-22,0,0.0,0.0,0.0,0.0,1.0
2014-08-26,0,0.0,0.0,0.0,0.0,1.0
2014-08-28,0,0.0,0.0,0.0,0.0,1.0
2014-09-02,0,0.0,0.0,0.0,0.0,1.0
2014-09-04,0,0.0,0.0,0.0,0.0,1.0
2014-09-08,0,0.0,0.0,0.0,0.0,1.0
2014-09-10,0,0.0,0.0,0.0,0.0,1.0
2014-09-12,0,0.0,0.0,0.0,0.0,1.0
2014-09-16,0,0.0,0.0,0.0,0.0,1.0
2014-09-18,0,0.0,0.0,0.0,0.0,1.0
2014-09-22,0,0.0,0.0,0.0,0.0,1.0
2014-09-24,0,0.0,0.0,0.0,0.0,1.0
2014-09-26,0,0.0,0.0,0.0,0.0,1.0
2014-09-30,0,0.0,0.0,0.0,0.0,1.0
2014-10-02,-1,-0.0009079894666436422,-0.0008481319206393772,0.0,0.0,0.9894219835815572
2014-10-06,-1,-0.0012454985767474946,-0.001172809799027838,0.0,0.0,0.9797188327314591
2014-10-08,-1,-0.001204039028504659,-0.0011447551373373807,0.0,0.0,0.9797345158906478
2014-10-10,-1,-0.001079710868080974,-0.0010386681741959354,0.0,0.0,0.9797949729743556
2014-10-14,-1,-0.0009553827076572896,-0.0009325812110544904,-0.025,0.0,0.9751692741448849
2014-10-16,-1,-0.0008657108470305912,-0.0008609603759566327,-0.025,0.0,0.9752008447552242
2014-10-20,-1,-0.0007504494172887562,-0.0007361980040668807,-0.025,0.0,0.9752614818518051
2014-10-22,-1,-0.0006581894005495895,-0.0006239877243342758,-0.1,0.0,0.9660193555406782
2014-10-24,-1,-0.0005559015808956649,-0.0005010333729111577,-0.1,0.0,0.9660601233541807
2014-10-28,-1,-0.0004398896942465801,-0.00036506512673820915,-0.1,0.0,0.9614599673980935
2014-10-30,-1,-0.008643154861505749,-0.007760211716679763,-0.025,0.0,0.9673497112589117
2014-11-03,-1,-0.016649241170849656,-0.01484843622575259,0.0,0.0,0.97036428568306
2014-11-05,-1,-0.012167258678196645,-0.010871207432793293,0.0,0.0,0.9683208266931213
2014-11-07,-1,-0.008737429596494753,-0.007822343468700721,0.0,0.0,0.9656701442129617
2014-11-11,-1,-0.010770483857512472,-0.00963040088421106,0.0,0.0,0.964474277292062
2014-11-13,-1,-0.01902422412241224,-0.01704563834383438,0.0,0.0,0.9522408480597243
2014-11-17,-1,-0.01705171353135314,-0.015312793399339938,0.0,0.025,0.9486553474195983
2014-11-19,-1,-0.024805998619861984,-0.02219318337833783,0.0,0.025,0.9471953922104169
2014-11-21,-1,-0.022324694689468953,-0.020015601260126015,0.0,0.025,0.9461415642623592
2014-11-25,-1,-0.017310913786378643,-0.015616639948994903,0.0,0.025,0.9484898285453316
2014-11-28,-1,-0.015743316291629166,-0.014244426642664268,-0.025,0.025,0.9461585910785838
2014-12-02,-1,-0.015084118121812179,-0.013692831293129312,-0.1,0.025,0.9432713811966522
2014-12-04,-1,-0.010522297749774978,-0.009691359855985598,-0.1,0.025,0.9445766179179291
2014-12-08,-1,-0.005964436978697869,-0.005689349699969997,-0.1,0.1,0.9414341889266954
2014-12-10,-1,-0.009467818091809185,-0.00881227875787579,-0.025,0.1,0.9351814000620841
2014-12-12,-1,-0.008890015601560157,-0.008330518331833184,-0.025,0.1,0.9353799502661309
2014-12-16,-1,-0.003969872487248724,-0.003946465946594658,-0.1,0.1,0.9337607441249598
2014-12-18,-1,-0.006920977317731776,-0.006598083348334835,-0.09642858409962902,0.1,0.9298162859732527
2014-12-22,-1,-0.01007420279027903,-0.009415085778577859,-0.08150184399169541,0.1,0.9240312182073249
2014-12-24,-1,-0.005421800090008996,-0.0053387576057605714,-0.08150184399169541,0.1,0.9239496773747937
2014-12-29,-1,-0.008669830468046797,-0.00824294954995499,-0.05114561248111438,0.1,0.9183330582885224
2014-12-31,-1,-0.014575521077107712,-0.013306406015601561,-0.05114561248111438,0.1,0.9126160803446701
2015-01-05,-1,-0.009666650225022503,-0.00899734401440144,-0.05114561248111438,0.1,0.9139325832955413
2015-01-07,-1,-0.0010370597959795979,-0.0006587551455145507,-0.08150184399169541,0.1,0.9199935427103442
2015-01-09,1,0.006331684158415842,0.007701452475247525,-0.1,0.1,0.9199855043332194
2015-01-13,1,0.006666467206720671,0.008096516771677168,-0.09642858409962902,0.1,0.92099815050143
2015-01-15,1,3.9852107266599626e-05,0.0005916716913456663,-0.08112983323888452,0.1,0.9206936047740355
2015-01-20,1,0.0011710016343142,0.0018733399304652941,-0.05535235777535126,0.1,0.924135465405433
2015-01-22,1,0.0082587550771503,0.009911931240294637,-0.1,0.1,0.923652923740253
2015-01-26,1,0.009972235183736623,0.011836963449891717,-0.1,0.1,0.9248408202583305
2015-01-28,1,0.01617380955166501,0.018845825306021746,-0.1,0.0999999832361938,0.9225078624459931
2015-01-30,1,0.01601456044473173,0.018659369973777512,-0.1,0.0999999832361938,0.9246354551211756
2015-02-03,1,0.018294759945301945,0.021214106567076233,-0.1,0.09318182972713791,0.9225906280746217
2015-02-05,1,0.014204468862472851,0.016574035643546696,-0.1,0.09318182972713791,0.926022138080583
2015-02-09,1,0.008208993752808142,0.009789931089111633,-0.09161934700754001,0.09318182972713791,0.9309774464717254
2015-02-11,1,0.014204599944887823,0.01658430922009698,-0.09531255184119637,0.059239140940772074,0.9313597038635213
2015-02-13,1,0.01430367386047883,0.01669274291715662,-0.09318182972714123,0.05312500880390869,0.9370544197714771
2015-02-18,1,0.017418261563480836,0.020218501188105448,-0.1,0.012500002328306831,0.9342872355848671
2015-02-20,1,0.011154559137914785,0.013125177530994108,-0.062200968525760396,0.012500002328306831,0.9457848916777535
2015-02-24,1,0.00824991821011525,0.009830702959932049,-0.06447369195004665,0.05312500880390869,0.9430380398126018
2015-02-26,1,0.007846387019149217,0.009348400327789858,-0.1,0.012500002328306831,0.942337290709321
2015-03-02,1,0.01301968961105877,0.015198206803558208,-0.1,0.0,0.9394606733120633
2015-03-04,1,0.009804936108371508,0.011541056774174625,-0.1,0.012500002328306831,0.9432126548881414
2015-03-06,1,0.010080556181851212,0.01186243160830922,-0.1,0.0,0.9431931061100095
2015-03-10,1,0.007121210784557176,0.008502681362592307,-0.1,0.0156250018189882,0.9466820888293692
2015-03-12,1,0.004431362573606854,0.005446575377700739,-0.1,0.0156250018189882,0.947841328159955
2015-03-16,1,0.006287817226015942,0.007560025556266096,-0.1,0.017857128602206056,0.9421817312268588
2015-03-18,1,0.0038310124574430114,0.004779774832428101,-0.1,0.07280215779277818,0.9402424654710819
2015-03-20,1,0.003947425025656661,0.0049085303488090575,-0.1,0.07692308794464003,0.9329812127236267
2015-03-24,1,0.0040878099826359825,0.005065282449110357,-0.08750000970127861,0.07692308794464003,0.9373216081022818
2015-03-26,-1,-0.003360583742367878,-0.003097908384363226,-0.07440477226598628,0.07692308794464003,0.9417899984360714
2015-03-30,-1,-0.007090796446691843,-0.0061406848902905205,-0.08333334626837148,0.07692308794464003,0.9416651098661135
2015-04-01,-1,-0.004951184499181008,-0.004253404299617002,-0.08522728627699246,0.07692308794464003,0.9372936342820765
2015-04-06,-1,-0.006600058147576332,-0.005715158809735411,-0.09090910630285538,0.08041959253419391,0.9316294649101736
2015-04-08,-1,-0.006119679819322951,-0.00516768975166937,-0.09090910630285538,0.08041959253419391,0.935055167737858
2015-04-10,-1,-0.008586731442583298,-0.0073502341552018294,-0.09090910630285538,0.08041959253419391,0.9349815231363929
2015-04-14,-1,-0.007768587944050434,-0.00663018775340115,-0.1,0.01923077198616001,0.9343902060461898
2015-04-16,-1,-0.011427923694623159,-0.009618819673181924,-0.09318182972714154,0.09318182972714165,0.9327667340921161
2015-04-20,-1,-0.011703213204369274,-0.009844505526369477,-0.09318182972714154,0.1,0.9335810724244016
2015-04-22,-1,-0.007683361023220791,-0.006415590974173043,-0.1,0.025,0.9342580337707855
2015-04-24,-1,-0.010618091489735249,-0.008995149078638753,-0.1,0.025,0.9344212243553327
2015-04-28,-1,-0.015345001784757287,-0.013166481037523822,-0.1,0.025,0.9366684035455026
2015-04-30,-1,-0.013445541111672957,-0.01161806454786941,-0.1,0.025,0.9362605589713917
2015-05-04,-1,-0.011830765077249516,-0.010322189306201573,-0.1,0.025,0.9362424740520096
2015-05-06,-1,-0.012887511377167163,-0.011140060417795363,-0.1,0.025,0.936269416182233
2015-05-08,-1,-0.015447041946436936,-0.013405530259227442,-0.1,0.1,0.931830394369782
2015-05-12,-1,-0.018789709281290916,-0.01649638049662107,-0.1,0.1,0.9344504959020337
2015-05-14,-1,-0.014712319893004294,-0.012778522369936342,-0.1,0.025,0.9393642439947462
2015-05-18,-1,-0.014782889973883398,-0.012722393079663172,-0.1,0.0,0.9418772847867342
2015-05-20,-1,-0.015532831073881061,-0.013516603174547998,-0.1,0.0,0.9417204812389836
2015-05-22,-1,-0.01911838980698375,-0.01657267311750864,-0.1,0.025,0.9397309255080519
2015-05-27,-1,-0.022643395229724503,-0.01957752040104289,-0.1,0.025,0.9415409078621224
2015-05-29,-1,-0.02077629020219955,-0.01806011323135362,-0.1,0.025,0.9420041535146675
2015-06-02,-1,-0.01710774811051443,-0.01507544011274833,-0.1,0.0,0.9473840486768328
2015-06-04,-1,-0.013580245213575221,-0.01221534940094501,-0.1,0.025,0.9437918253948686
2015-06-08,-1,-0.013082480748865682,-0.011798731178893126,-0.1,0.0,0.9483988604580115
2015-06-10,-1,-0.01812482229117692,-0.016035894464184915,-0.1,0.0,0.9470516515870921
2015-06-12,-1,-0.013980091687023386,-0.012418815520147234,-0.1,0.0,0.9449901689967729
2015-06-16,-1,-0.012531510978821683,-0.011384188318311946,-0.1,0.0,0.945145773518074
2015-06-18,-1,-0.013183290821676266,-0.012045606951935742,-0.1,0.025,0.9405219169311716
2015-06-22,-1,-0.0071557881432098265,-0.006971562321957909,-0.1,0.025,0.9378050921511369
2015-06-24,-1,-0.006256624359159893,-0.006212040054717064,-0.1,0.1,0.9297134732038663
2015-06-26,-1,-0.004539865711979983,-0.00415477984308197,-0.1,0.025,0.9343750274488969
2015-06-30,-1,-0.007366216316800581,-0.007244381737069159,-0.1,0.1,0.9333586573490741
2015-07-02,-1,-0.0067498926279936,-0.006477429152538553,-0.1,0.025,0.9379234726630138
2015-07-07,-1,-0.005514069433690465,-0.005405219964957644,-0.1,0.025,0.9380538052915409
2015-07-09,-1,-0.007067887085279545,-0.007065197902565826,-0.1,0.1,0.9371028955279185
2015-07-13,-1,-0.004864315883625632,-0.004396738185841864,-0.1,0.025,0.9423603297082561
2015-07-15,-1,-0.008760853635176893,-0.008528067729016356,-0.1,0.1,0.9360185735840751
2015-07-17,-1,-0.009512080919599274,-0.009150462633269445,-0.09318182972714154,0.1,0.9362260678172464
2015-07-21,-1,-0.008438623872066803,-0.008237180901923507,-0.022727276575713846,0.1,0.9401722431521037
2015-07-23,-1,-0.0050513899242448385,-0.004474779435371224,-0.022727276575713846,0.1,0.9467501840039649
2015-07-27,-1,-0.007484765294350968,-0.007368879818668679,-0.022727276575713846,0.1,0.9453953114985925
2015-07-29,-1,-0.004122010311797394,-0.003495760588238179,-0.09090910630285538,0.025,0.9475640812055015
2015-07-31,-1,-0.0044277930995636795,-0.0039595205683451064,-0.09090910630285538,0.025,0.9473632226692882
2015-08-04,-1,-0.007110041974349195,-0.007103743258265514,-0.09090910630285538,0.025,0.9461356613776937
2015-08-06,-1,-0.0030409064498015644,-0.0023755975490512976,-0.09090910630285538,0.0,0.9524897404402134
2015-08-10,-1,-0.005747517937474864,-0.00556149337170167,-0.022727276575713846,0.0,0.9552514988667359
2015-08-12,0,-0.00021293671042752925,0.0007373027091281846,-0.022727276575713846,0.0,0.9669793987115028
2015-08-14,1,0.0007164705162387053,0.0018585351562236448,-0.022727276575713846,0.0,0.9703179718781609
2015-08-18,1,0.0012794653156454599,0.0022553307556460855,-0.09318182972714154,0.0,0.965215070613767
2015-08-20,-1,-0.0008657596108914913,-0.00013220639965061875,-0.025,0.0,0.9708888941838061
2015-08-24,-1,-0.0017011637223786342,-0.0009279138174603904,-0.025,0.0,0.9705420691125157
2015-08-26,-1,-0.004658439946823193,-0.00435394751059198,-0.025,0.0,0.9641965823350315
2015-08-28,-1,-0.0027186942564331913,-0.0019548610282242723,-0.025,0.0,0.9607376537205151
2015-09-01,-1,-0.00644669415088729,-0.0062688590205236296,0.0,0.0,0.9626911327388586
2015-09-03,-1,-0.0049536095506148604,-0.004483904818954484,0.0,0.0,0.9636946932209636
2015-09-08,-1,-0.004337169245936636,-0.003768977574768154,-0.025,0.0,0.9552902656676789
2015-09-10,-1,-0.0033494813915910674,-0.002521948718410271,-0.1,0.0,0.9516482471526293
2015-09-14,-1,-0.0036661920766471556,-0.00263095526412329,-0.025,0.025,0.9513248542925195
2015-09-16,-1,-0.004223512277975573,-0.0033950306098909345,-0.025,0.025,0.9509521662370382
2015-09-18,-1,-0.006122391815626667,-0.005850105591468072,-0.025,0.025,0.9497707625688104
2015-09-22,-1,-0.008205481275172503,-0.008131691936861344,-0.025,0.025,0.948716947955191
2015-09-24,-1,-0.007134080745994777,-0.006860578142442449,0.0,0.0,0.9577569144817579
2015-09-28,-1,-0.0026929651805003216,-0.0017873610384227536,0.0,0.0,0.9605787581447253
2015-09-30,-1,-0.0035625891502117668,-0.0029128198456797308,0.0,0.025,0.9553619062310663
2015-10-02,-1,-0.0065427717776409345,-0.006447257095282507,-0.025,0.1,0.9449921897990997
2015-10-06,-1,-0.0019052974816058986,-0.0009502227533122144,0.0,0.025,0.9564481829779643
2015-10-08,-1,-0.003421086127901273,-0.002537320900514802,0.0,0.025,0.959832708437678
2015-10-12,0,-0.0007523971763647489,0.00031303518961169324,0.0,0.0,0.9616637598923921
2015-10-14,-1,-0.0017477050674136836,-0.0010116235449721444,0.0,0.0,0.9701502377761335
2015-10-16,-1,-0.0027960648655708143,-0.002377403826934943,0.0,0.0,0.9692755765120465
2015-10-20,-1,-0.005329377276550064,-0.005225549388410889,0.0,0.0,0.9716262798189826
2015-10-22,-1,-0.004675786535327001,-0.004441159580304107,0.0,0.025,0.9628324316586073
2015-10-26,0,-0.0005721552269312585,0.00024451558532277923,0.0,0.025,0.9661672985552211
2015-10-28,1,0.0034070508060969574,0.004769820383823615,0.0,0.025,0.9622008483588236
2015-10-30,1,0.0022494082741456385,0.003284062591008134,0.0,0.0,0.9670344724358254
2015-11-03,1,0.004773166340818308,0.006408226659706516,0.0,0.017857128602206056,0.9629281069748105
2015-11-05,1,0.0034422576330225777,0.004709820379736751,0.0,0.07280215779277818,0.9557804607294446
2015-11-09,-1,-0.0014788316439167295,-0.001041355202469426,0.0,0.1,0.9515110077914741
2015-11-11,1,0.0010965125618172073,0.002140416611573528,0.0,0.1,0.9435624440167184
2015-11-13,1,0.0017664445946977908,0.0029305252114823583,0.0,0.1,0.9393352150621901
2015-11-17,1,0.002474041949822028,0.003755304728836945,-0.013888865893269845,0.1,0.9340933079994639
2015-11-19,1,0.008365458559063031,0.010217001600437595,-0.08522728627698921,0.1,0.9336669229791269
2015-11-23,1,0.01393844572786095,0.01673671673604922,-0.08522728627698921,0.1,0.9323576515153976
2015-11-25,1,0.013830694803962425,0.01640546659133678,-0.08522728627698921,0.09642858409962556,0.9348838881074416
2015-11-30,1,0.008534922504713055,0.010199510563686212,-0.08522728627698921,0.09642858409962556,0.9329663989464689
2015-12-02,1,0.01159470397169845,0.013686434377500178,-0.08522728627698921,0.09642858409962556,0.9318055280063658
2015-12-04,1,0.008721476314377776,0.010204887792966022,-0.058333343552012445,0.09642858409962556,0.9349811561163693
2015-12-08,1,0.01601829270472625,0.018461931489657996,-0.060307028517138477,0.05417954852243871,0.9366225574531001
2015-12-10,1,0.01570500658646515,0.018096228239966417,-0.050657904301602844,0.05336258371339103,0.9430383163156068
2015-12-14,1,0.01887836046114912,0.02167167174480826,-0.060307028517138477,0.05065790430160404,0.9407558718058381
2015-12-16,1,0.01481851752184445,0.016835254865386808,-0.050657904301602844,0.05336258371339103,0.944632163036408
2015-12-18,1,0.009771500768622637,0.011335563830689722,-0.048214294378121324,0.0563725318624093,0.9496442558547264
2015-12-22,1,0.015418122077358612,0.017722223759062447,-0.048214294378121324,0.0563725318624093,0.9483972062830478
2015-12-24,1,0.016626131651014033,0.018851930944739703,-0.0500000093132275,0.0563725318624093,0.94445980441716
2015-12-29,1,0.012704898215791023,0.014610608126167022,-0.048214294378121324,0.06334834170332522,0.9484822878093869
2015-12-31,1,0.010508911185209331,0.011901506463796634,-0.048214294378121324,0.06334834170332522,0.9486282645990626
2016-01-05,1,0.014246517732557782,0.016550332656555377,-0.04134616030754979,0.06334834170332522,0.9499232964137807
2016-01-07,1,0.01075115092546763,0.012609175100236538,-0.009615385993080972,0.07943144991433451,0.9497855665484126
2016-01-11,1,0.014532097818011104,0.017101596806523227,-0.03739316760345989,0.07943144991433451,0.9491191335366554
2016-01-13,1,0.009737018698520278,0.011497240528784572,-0.009259260536792973,0.07943144991433451,0.952751241795595
2016-01-15,1,0.009897744856790399,0.011458772101460646,-0.03198649477966115,0.08902692990076327,0.9494235148815782
2016-01-20,1,0.013142440998857596,0.014900959601351942,-0.03198649477966115,0.08865489004412444,0.9494769733151213
2016-01-22,1,0.01893125864357368,0.021434914794630614,-0.03198649477966115,0.06208792168567286,0.9537946504568281
2016-01-26,1,0.0171665055002522,0.019196782575674087,-0.0075757447476227265,0.06208792168567286,0.9569497493046297
2016-01-28,1,0.01921532580101988,0.021486452391232848,-0.0075757447476227265,0.05916149004332886,0.9584393162010464
2016-02-01,1,0.01598853165267556,0.017802951840954543,-0.00480770195156529,0.062222744928144585,0.9590148046705995
2016-02-03,1,0.013904041641291276,0.015416108416731973,-0.00480770195156529,0.062222744928144585,0.9562282071934006
2016-02-05,1,0.013324397718421843,0.014513475210068969,-0.00480770195156529,0.058163284560954424,0.9594161503029116
2016-02-09,1,0.011219156931210127,0.012100893971719363,-0.00480770195156529,0.058163284560954424,0.9565348113221387
2016-02-11,1,0.013049221096445268,0.014138868653395947,-0.01952513813745413,0.058163284560954424,0.9540128330052349
2016-02-16,1,0.01267067591666483,0.013450522482589447,-0.01952513813745413,0.05482626322969205,0.9538579486974876
2016-02-18,1,0.016752922634949912,0.018037206735482297,-0.01952513813745413,0.05482626322969205,0.9550693338514755
2016-02-22,1,0.019194564703162987,0.020971639767728784,-0.02155608637089545,0.058163284560954424,0.9522863655184306
2016-02-24,1,0.023106910234480617,0.025348682496380136,-0.03958330513495431,0.058163284560954424,0.9497857084116825
2016-02-26,1,0.024895129816557206,0.027315419339425336,-0.03958330513495431,0.046200616507581914,0.9490795965422655
2016-03-01,1,0.024678088719806226,0.027023003491138127,-0.03958330513495431,0.032697084838941376,0.9503597807500376
2016-03-03,1,0.018471425960766168,0.019735916816998662,-0.02369188474233832,0.032697084838941376,0.9540588036414747
2016-03-07,1,0.019549670178408765,0.021112256189386724,-0.024107102286006002,0.025645579633376585,0.9546446586523902
2016-03-09,1,0.01506247661751696,0.016006199037894075,-0.024107102286006002,0.03634450142508602,0.9537348047405474
2016-03-11,1,0.01068568802099307,0.011009176637903925,-0.024107102286006002,0.03634450142508602,0.9558444907110336
2016-03-15,1,0.004850767964742371,0.005497443567617739,-0.024107102286006002,0.05375940851655449,0.9549400269978274
2016-03-17,1,0.008706553912255005,0.008951400999447377,-0.030113606855718917,0.031450548663866075,0.9555641270370773
2016-03-21,1,0.012036952209966898,0.012352405004113422,-0.029220751051242215,0.023954729735489982,0.9598988138545356
2016-03-23,1,0.011879987486662566,0.012336809288957928,-0.029220751051242215,0.0238095723819055,0.9636267108806618
2016-03-28,1,0.010450718098128666,0.010684887141802105,-0.04599567888017491,0.0238095723819055,0.9601289175343098
2016-03-30,1,0.009380534553238121,0.009412320670528948,-0.04599567888017491,0.023954729735489982,0.959975171007395
2016-04-01,1,0.007114903646615614,0.00739459551379385,-0.04599567888017491,0.025645579633376585,0.9584698289904983
2016-04-05,1,0.0034716292350635393,0.004416134720302583,-0.04599567888017491,0.02941171314477608,0.9592260271961636
2016-04-07,1,0.003995190911910617,0.0049276044610522315,-0.046590917191877516,0.02941171314477608,0.9604536119171395
2016-04-11,1,0.0015712000439395495,0.002829198088452934,-0.03455886936240343,0.02941171314477608,0.9631074339362772
2016-04-13,-1,-0.0017710964271272518,-7.991094557784247e-05,-0.028781490613965763,0.028781463222125506,0.9684589957506698
2016-04-15,1,0.0015425957106160295,0.0025018638116541267,-0.02857137991457809,0.027976221428764464,0.9695300407554764
2016-04-19,1,0.002658408962619092,0.0033437001173612906,-0.02857137991457809,0.028781463222125506,0.9642645196897709
2016-04-21,1,0.000682168083889767,0.0015322163773856864,-0.02857137991457809,0.028781463222125506,0.9657976292518724
2016-04-25,-1,-0.006683623388180969,-0.004761187659615769,-0.02797614381854727,0.03721030257572455,0.9614680855426191
2016-04-27,-1,-0.006065095603650124,-0.0043109758537658634,-0.027214744034547485,0.047066417658220436,0.9612582122965254
2016-04-29,-1,-0.006296585953131371,-0.0044572575347274854,-0.026493579574927525,0.032697084838941376,0.9648941302373443
2016-05-03,-1,-0.0026116127396053884,-0.0015487766325494767,-0.021885033252371365,0.0320668349162908,0.9669723824746829
2016-05-05,-1,-0.003057116568298789,-0.0019370523133437688,-0.01952513813745413,0.0320668349162908,0.9685863480371726
2016-05-09,0,-0.0004950776309630488,0.0001647209426278854,-0.01980788992933281,0.031471676430479954,0.9697306404567898
2016-05-11,-1,-0.0019547710546633026,-0.0010321865278992127,-0.020102062457608826,0.0309085355556322,0.9703148107621032
2016-05-13,-1,-0.008809807470654749,-0.006737386295149363,-0.019325058403554057,0.0309085355556322,0.969764459805886
2016-05-17,-1,-0.0021357652464741497,-0.001070259479718403,-0.020102062457608826,0.02083329776198488,0.9725817302461196
2016-05-19,-1,-0.001731687443042728,-0.0008544350424519076,-0.020102062457608826,0.026263273301847974,0.9644051890372224
2016-05-23,1,0.001697455212817914,0.002445183511535015,-0.02040812913103303,0.00520832444049622,0.9703429307107486
2016-05-25,1,0.0015382837462886417,0.002376115697056513,-0.02040812913103303,0.00520832444049622,0.9647951372385319
2016-05-27,1,0.00047156659145918553,0.0014045924232461019,-0.027210860864879012,0.02083329776198488,0.9562018173869268
2016-06-01,-1,-0.0021333112906209636,-0.000687841071842759,-0.04790941566311863,0.00520832444049622,0.9546461472960365
2016-06-03,0,-0.0005684457953233093,0.0006304661066725468,-0.04790941566311863,0.0,0.9553104413553142
2016-06-07,-1,-0.004682620672348058,-0.0027859219090683555,-0.04790941566311863,0.00520832444049622,0.9561429693111954
2016-06-09,-1,-0.006221870555988098,-0.004187380925075221,-0.0568556315860715,0.00520832444049622,0.9541739026948237
2016-06-13,-1,-0.0032345583301830877,-0.0017672842444538643,-0.0568556315860715,0.006944458816706879,0.950603772527921
2016-06-15,-1,-0.003919799019043501,-0.002692158884644709,-0.04790941566311863,0.04166672703016927,0.9489171057895565
2016-06-17,-1,-0.004409872210821788,-0.0030929068747838863,-0.04790941566311863,0.027214694391979762,0.9539274303323908
2016-06-21,-1,-0.005260477334886852,-0.0039601474001699725,-0.032465434701219154,0.027214694391979762,0.9548897094774488
2016-06-23,-1,-0.008404768836835351,-0.006563291316495442,-0.027214744034547485,0.006756745191757628,0.9617313560912991
2016-06-27,-1,-0.009949018542666012,-0.00783413195424818,-0.027214744034547485,0.006756745191757628,0.9653098891626903
2016-06-29,-1,-0.012202735532909811,-0.009926590585801578,-0.027214744034547485,0.027214694391979762,0.9590519904600926
2016-07-01,-1,-0.01585441635154365,-0.013063002332100452,-0.03912599561745427,0.027214694391979762,0.9563609307531684
2016-07-06,-1,-0.013348407195708747,-0.010983150655312864,-0.03912599561745427,0.02741308055391671,0.9561627063150725
2016-07-08,-1,-0.01520931178302427,-0.012761490245959729,-0.03645831521080665,0.02741308055391671,0.9568856058376272
2016-07-12,-1,-0.008090749013183456,-0.006764629038685183,-0.04062502102751761,0.006756745191757628,0.9601620601850729
2016-07-14,-1,-0.0016098936218901406,-0.001136864360658204,-0.04062502102751761,0.0,0.9640295192584024
2016-07-18,-1,-0.0021335293361945647,-0.0018980223532370681,-0.02916663372544065,0.029241021293511457,0.9634908461714511
2016-07-20,-1,-0.00101645559780376,-0.0009250647097785096,-0.04062502102751761,0.029241021293511457,0.9606276560000759
2016-07-22,-1,-0.0019692163478329376,-0.0018936591945977932,-0.04062502102751761,0.029241021293511457,0.9626149094056012
2016-07-26,-1,-0.006620316169418282,-0.005996994764695458,-0.03333333954215161,0.007812486357579969,0.9656388691372463
2016-07-28,-1,-0.005287129524214822,-0.004878744652907082,-0.008333334885537903,0.007812486357579969,0.9729965798103783
2016-08-01,-1,-0.010652510904014994,-0.009456045943623436,0.0,0.007812486357579969,0.9740983762289553
2016-08-03,-1,-0.011288703329884669,-0.009842636657462125,0.0,0.031249945430319875,0.9707832645589813
2016-08-05,-1,-0.015592073481202614,-0.013504626143967986,0.0,0.031249945430319875,0.9674079679944555
2016-08-09,-1,-0.013224164844067628,-0.01170593169972104,0.0,0.031249945430319875,0.9683993719281134
2016-08-11,-1,-0.009370261562742429,-0.008467466660031168,0.0,0.031249945430319875,0.9702036781224993
2016-08-15,-1,-0.0050716209906954985,-0.0046472345875520505,-0.008333334885537903,0.0,0.9743133212594066
2016-08-17,-1,-0.008482317948132295,-0.007675183602012926,0.0,0.03177079395827778,0.9714682709400797
2016-08-19,-1,-0.008095479092691479,-0.007349892682011546,-0.007812515461409044,0.03252693269766234,0.9694273952705389
2016-08-23,-1,-0.009638378619176952,-0.008678740077692244,-0.007812515461409044,0.03252693269766234,0.9659582302718094
2016-08-25,-1,-0.0075324734233007265,-0.006829509350424539,-0.007812515461409044,0.03225813041616596,0.9684012158001899
2016-08-29,-1,-0.00600014491653165,-0.0056014940364274325,-0.03177088126976503,0.03252693269766234,0.9663220108055829
2016-08-31,-1,-0.001969435008993052,-0.0019281741835992755,-0.03333333954215161,0.03252693269766234,0.969210608200343
2016-09-02,-1,-0.006738742194555164,-0.006135567049063489,-0.03177088126976503,0.034482765265085,0.9643329981347848
2016-09-07,-1,-0.007515926776483063,-0.006833657122414492,-0.02808282654932228,0.034482765265085,0.9617344097884232
2016-09-09,-1,-0.005571667469676174,-0.005127067390478728,-0.03177088126976503,0.034482765265085,0.9605647623008366
2016-09-13,-1,-0.009160870033092645,-0.00821187099456908,-0.02808282654932228,0.034482765265085,0.9607078511391384
2016-09-15,-1,-0.007078653700625008,-0.006167839558516913,-0.02808282654932228,0.03281428912839572,0.9649498467949306
2016-09-19,-1,-0.006826126230211464,-0.005951098616687962,-0.02860364597345114,0.03281428912839572,0.963326313474482
2016-09-21,-1,-0.007110737990016093,-0.006267141896361783,-0.02860364597345114,0.034482765265085,0.9587622724771486
2016-09-23,-1,-0.0068007112956611025,-0.006000814102895774,-0.02860364597345114,0.040147790515317715,0.9528976734108946
2016-09-27,-1,-0.006493795440585787,-0.0057421933724189165,-0.027623266765945433,0.040147790515317715,0.9547280794501769
2016-09-29,-1,-0.005513311938156443,-0.004937833474667506,-0.006756770362637746,0.037013035475061046,0.9561932340519788
2016-10-03,1,0.0008922361704191816,0.0010958734378236075,-0.029411822712128784,0.03030309187807611,0.9614378453997919
2016-10-05,1,0.0008464405162855042,0.0009194562674811784,-0.029634611781719312,0.03030309187807611,0.9609189226369821
2016-10-07,1,0.00017154941202505243,0.0004039294956762713,-0.029634611781719312,0.03030309187807611,0.962103243006707
2016-10-11,1,0.0008344367456803903,0.0010992906287020125,-0.030539749704277225,0.03079185151259857,0.9589700597269741
2016-10-13,1,0.005356351766422889,0.006610407068772594,-0.030539749704277225,0.03079185151259857,0.959278922923637
2016-10-17,1,0.0027538416748790887,0.0037177486404870418,-0.030539749704277225,0.03252693269766234,0.9602777610505988
2016-10-19,1,0.0033513802154327616,0.004402587418551873,-0.029634611781719312,0.03252693269766234,0.9675196834645116
2016-10-21,1,0.008252023131035662,0.010004725926808917,-0.030539749704277225,0.03079185151259857,0.9696493332569188
2016-10-25,1,0.008408469783950559,0.010284306158023143,-0.03150206396693689,0.03252693269766234,0.9647278206221739
2016-10-27,1,0.009304503901591675,0.011266819307142593,-0.037707068302524696,0.03252693269766234,0.9618535610509175
2016-10-31,1,0.005961501991707548,0.007413201633495423,-0.03150206396693689,0.03252693269766234,0.9640327009719434
2016-11-02,1,0.007773444263077825,0.009521516531786685,-0.03150206396693689,0.03252693269766234,0.9635743306720841
2016-11-04,1,0.006131549519650323,0.00745416463290608,-0.03150206396693689,0.031060653794094957,0.9647687727500313
2016-11-08,1,0.0052483537354555965,0.006447893327282192,-0.031250061845636175,0.007575772969519027,0.9674859152829212
2016-11-10,1,0.004656729018401751,0.005694794611277336,-0.03150206396693689,0.007575772969519027,0.9662328287140797
2016-11-14,1,0.003644860891358497,0.004527237287527576,-0.031250061845636175,0.007575772969519027,0.9697622671826026
2016-11-16,1,0.004784431559891406,0.005820204038317773,-0.03150206396693689,0.007575772969519027,0.9677347095182054
2016-11-18,1,0.0027296126637043035,0.0033631735644748043,-0.03150206396693689,0.007575772969519027,0.9686432225357053
2016-11-22,1,0.0033234900931303065,0.0039340278808167,-0.031250061845636175,0.007575772969519027,0.9740549843792804
2016-11-25,1,0.0029974529189902895,0.003619727730040971,-0.031250061845636175,0.0,0.9764872960911327
2016-11-29,-1,-0.00018257955425740428,-0.00013512012896453986,-0.03150206396693689,0.008333334885537873,0.9777883899005827
2016-12-01,1,0.002410387970125878,0.0029698786864951043,-0.03150206396693689,0.0,0.9810214607340473
2016-12-05,1,0.0037014964046363005,0.004670802388137923,-0.03150206396693689,0.0,0.9817491749437195
2016-12-07,1,0.0013971782378226854,0.0018852700659773686,-0.008064517582709759,0.0,0.9845787935715338
2016-12-09,1,0.00022067559962234324,0.0005131252880137304,0.0,0.0,0.9868247569953893
2016-12-13,1,0.0004965976543029472,0.0007317886376714447,0.0,0.0,0.9866615101323888
2016-12-15,-1,-0.0004656176612288878,-0.0004512862880456085,0.0,0.0,0.9883052910654302
2016-12-19,-1,-0.0012787006706832939,-0.0011776117988988501,0.0,0.0,0.9893325013201392
2016-12-21,-1,-0.001823365501357233,-0.001531261788640545,0.0,0.0,0.9892586869643747
2016-12-23,-1,-0.0022059308228969013,-0.0019162626751097374,0.0,0.0,0.98544333739043
2016-12-28,-1,-0.003289251158923109,-0.0027829184990176897,0.0,0.0,0.9879166460046055
2016-12-30,-1,-0.003741036539331823,-0.003140568882693915,-0.008064517582709759,0.0,0.983434809420683
2017-01-04,-1,-0.0030311552451898803,-0.0025657973778906206,-0.008064517582709759,0.0,0.9819052150551857
2017-01-06,-1,-0.001338308351282026,-0.001199092652278376,-0.008064517582709759,0.0,0.9825189323618737
2017-01-10,-1,-0.002588321401535411,-0.002195248315829638,-0.03252688763366718,0.0,0.9772977500162557
2017-01-12,-1,-0.001751118111940382,-0.0014569108374798718,-0.03362067991559828,0.0,0.9757094811199136
2017-01-17,-1,-0.0031115761105207787,-0.0026160305561531436,-0.03479059839343682,0.00892855598572289,0.970264146397994
2017-01-19,-1,-0.0026970315849672148,-0.002287714587835405,-0.03479059839343682,0.00892855598572289,0.9703301722759883
2017-01-23,-1,-0.003580738585911912,-0.00306723263250652,-0.03604497838624228,0.036044928493962576,0.9659254098981355
2017-01-25,-1,-0.0010915050442751257,-0.0009899842209843057,-0.03739316760345989,0.00892855598572289,0.9695404423645572
2017-01-27,-1,-0.002325829383487004,-0.001974057583292524,-0.038846159469359265,0.00892855598572289,0.9648736389982503
2017-01-31,-1,-0.0045856430709339665,-0.003947453595728535,-0.038846159469359265,0.036044928493962576,0.9628003422033012
2017-02-02,-1,-0.003415863569404545,-0.002948337598379371,-0.038846159469359265,0.00892855598572289,0.9647467164486184
2017-02-06,-1,-0.0045914498597837234,-0.0039075771419865455,-0.04315476886724412,0.00892855598572289,0.9591330862352402
2017-02-08,-1,-0.003913373002301905,-0.0034254769798450825,-0.04315476886724412,0.0,0.9616140039028144
2017-02-10,-1,-0.004028575913995855,-0.0035298889050725552,-0.048214294378121324,0.0,0.9561046301010673
2017-02-14,-1,-0.006429002358144031,-0.005612002121140344,-0.047619056066419266,0.0,0.9557794105382735
2017-02-16,-1,-0.006620084394143936,-0.005781563138138431,-0.048214294378121324,0.020833336567092835,0.9476927608882603
2017-02-21,-1,-0.005120581889851011,-0.004463558354172944,-0.0500000093132275,0.0,0.95091097210985
2017-02-23,-1,-0.006062653545747858,-0.005300584622584254,-0.0500000093132275,0.0,0.9521841974698262
2017-02-27,-1,-0.005645509479557018,-0.005148101525253751,-0.048214294378121324,0.02272727657571264,0.9515889381926494
2017-03-01,-1,-0.0036376308329006037,-0.003431058116988431,-0.048214294378121324,0.0,0.9575073004387662
2017-03-03,-1,-0.0048089540257044774,-0.004365299338698131,-0.048214294378121324,0.025,0.9510302086838867
2017-03-07,-1,-0.008062709327239903,-0.007297470942963494,-0.048214294378121324,0.0850000089406953,0.9478612015522463
2017-03-09,-1,-0.0086484278642526,-0.00787321344456782,-0.048214294378121324,0.0850000089406953,0.9460522648720283
2017-03-13,-1,-0.009453892017209755,-0.00845173609887761,-0.047619056066419266,0.05750000996515226,0.9503517194643558
2017-03-15,-1,-0.0073497685122911,-0.006616774435784184,-0.050657904301602844,0.012500002328306831,0.9514069167460611
2017-03-17,-1,-0.0044380329666467684,-0.0042301369323505065,-0.050657904301602844,0.012500002328306831,0.9512349463915752
2017-03-21,-1,-0.006036850174706957,-0.0056255380367766705,-0.04887218936649667,0.012500002328306831,0.9527842252050059
2017-03-23,-1,-0.004970945404744917,-0.004738715398254967,-0.04887218936649667,0.0513888987482609,0.9504563054710714
2017-03-27,-1,-0.003152586023378874,-0.0030227951989387223,-0.052631589266728875,0.0513888987482609,0.9487985277441239
2017-03-29,-1,-0.0023453467712962013,-0.002300634844011132,-0.052631589266728875,0.0513888987482609,0.946651830215351
2017-03-31,-1,-0.0006040542546119575,-0.00030096482429816046,-0.052631589266728875,0.050000009313227324,0.9515624584213819
2017-04-04,-1,-0.001362324753342933,-0.0011942194345457991,-0.04887218936649667,0.04821429437812141,0.9574066333747773
2017-04-06,-1,-0.0036002218049013797,-0.003500776840926401,-0.047619056066419266,0.050000009313227324,0.9562643407361215
2017-04-10,-1,-0.0037170633445553153,-0.0035759932917674457,-0.04887218936649667,0.050000009313227324,0.9518136931274884
2017-04-12,-1,-0.007446502116928604,-0.006942985023118079,-0.047619056066419266,0.050000009313227324,0.9532851062885366
2017-04-17,-1,-0.00745576109290557,-0.006914701323322636,-0.045995678880175486,0.050000009313227324,0.9571926797615318
2017-04-19,-1,-0.005767044618610585,-0.005503795425065546,-0.047619056066419266,0.050000009313227324,0.9519622000062937
2017-04-21,-1,-0.004106019708270221,-0.004026038987200452,-0.047619056066419266,0.050000009313227324,0.9524146766033735
2017-04-25,-1,-0.0031728055162217545,-0.0031239061890507196,-0.047619056066419266,0.04821429437812141,0.9592514466216636
2017-04-27,-1,-0.0007747815460983036,-0.00044117763979457936,-0.047619056066419266,0.011904764016604858,0.9602527967659552
2017-05-01,1,0.0004706832568009537,0.0009291804775415006,-0.047619056066419266,0.0,0.962163901541399
2017-05-03,-1,-0.0010530732994104884,-0.0008388472736386094,-0.047619056066419266,0.0,0.9621243673195732
2017-05-05,-1,-0.0011568601229973116,-0.0010058175478852784,-0.047619056066419266,0.0,0.9640520371181821
2017-05-09,0,-0.0001839715847905491,0.00017075067196195147,-0.047619056066419266,0.0,0.9711722063167502
2017-05-11,-1,-0.0027603088189163535,-0.0027210546874727078,-0.047619056066419266,0.0,0.9700700805402661
2017-05-15,1,2.1796947328279765e-05,0.0003812676756873765,-0.047619056066419266,0.0,0.9733251921717969
2017-05-17,-1,-0.003559545355610829,-0.003529119501522379,-0.011904764016604816,0.0,0.9762905660180374
2017-05-19,-1,-0.002204999034191578,-0.002095598619366619,-0.011904764016604816,0.0,0.9768595541200519
2017-05-23,-1,-0.0018146261750542109,-0.001639395979616046,-0.047619056066419266,0.0,0.974877427637285
2017-05-25,-1,-0.0028683626427083077,-0.0028159284633167423,-0.011904764016604816,0.0,0.9763946167684814
2017-05-30,-1,-0.002447393944617759,-0.002322608526404031,-0.011904764016604816,0.0,0.9766398140719221
2017-06-01,-1,-0.0035531178318716416,-0.0035493802534373084,-0.011904764016604816,0.0,0.975913077803003
2017-06-05,-1,-0.0014261729788084883,-0.0011568130160096153,-0.048214294378121324,0.0,0.9725987750710277
2017-06-07,1,0.0009519599420879149,0.0016142500634081462,-0.0500000093132275,0.0,0.9654164010379798
2017-06-09,-1,-0.002047656335762961,-0.0018151887102264748,-0.012500002328306874,0.0,0.9696793979195373
2017-06-13,0,-6.296032404788372e-05,0.00044808123869013376,-0.0500000093132275,0.0,0.9705040923847591
2017-06-15,-1,-0.0016112908350921808,-0.001369193812856568,-0.012500002328306874,0.0,0.9696292021621108
2017-06-19,1,0.0008048522082829248,0.0014362405625303687,-0.0500000093132275,0.0,0.9672022250900427
2017-06-21,0,-0.00017605330459531123,0.00030762392938279894,-0.052631589266728875,0.0,0.9650242359482615
2017-06-23,-1,-0.0012827275509390808,-0.0010935462161900935,-0.052631589266728875,0.013888891763340405,0.961939282509587
2017-06-27,-1,-0.00041088902330058694,-3.933782954169203e-05,-0.052631589266728875,0.013888891763340405,0.9622875653239863
2017-06-29,-1,-0.0014221004781366587,-0.0011738550195853994,-0.052631589266728875,0.013888891763340405,0.9617997103400635
2017-07-03,0,-0.00026281601564678934,0.0001176996157462014,-0.052631589266728875,0.013888891763340405,0.9635090228226573
2017-07-06,1,0.00011362553541013659,0.0005637481287366305,-0.052631589266728875,0.013888891763340405,0.9699828856775055
2017-07-10,-1,-0.0004708768832153808,-0.00017885334657287216,-0.052631589266728875,0.05555556705336162,0.9673678008432803
2017-07-12,-1,-0.0016474978170441844,-0.0014956918627764806,-0.052631589266728875,0.05555556705336162,0.9644050775896761
2017-07-14,1,0.0008236401188794838,0.0013730259427238486,-0.053362557843316505,0.05555556705336162,0.9579199362357063
2017-07-18,1,0.0006558049468893762,0.001123163293901771,-0.05555546357307938,0.0563725318624093,0.9576792965282614
2017-07-20,-1,-0.0037840090921600284,-0.003560145768840569,-0.05555546357307938,0.05882342628955233,0.9563036643936551
2017-07-24,-1,-0.0007793550146755514,-0.0005509778403444457,-0.05555546357307938,0.0563725318624093,0.9571977594818354
2017-07-26,-1,-0.000495507526440369,-0.00022148381398691896,-0.05637248164403437,0.0563725318624093,0.9544565561933885
2017-07-28,-1,-0.0038680720675496457,-0.0035244231446425003,-0.05882353585689932,0.0563725318624093,0.9536800666144211
2017-08-01,-1,-0.004334118929369085,-0.003873707941437619,-0.05637248164403437,0.013888891763340405,0.9588637030762817
2017-08-03,-1,-0.002244659911911061,-0.0020389939427276614,-0.05882353585689932,0.0,0.9587266154687947
2017-08-07,1,0.00015937279822542805,0.0003246343634208908,-0.05882353585689932,0.0,0.9612699926214575
2017-08-09,-1,-0.0022717469601771256,-0.00215444842371995,-0.05974266826357918,0.0,0.9591801713964073
2017-08-11,-1,-0.002965325419580234,-0.0027085659966146203,-0.05882353585689932,0.0,0.9634823292720481
2017-08-15,-1,-0.0025966471346514563,-0.0023837708744127144,-0.06354170336174624,0.0,0.9626955996834283
2017-08-17,-1,-0.0008555294579891946,-0.0007083133338226391,-0.06354170336174624,0.0,0.9616541087070889
2017-08-21,-1,-0.002109225764191088,-0.0021090981307559362,-0.06666661699612868,0.017857128602206056,0.9547429190004256
2017-08-23,-1,-0.002697509703583865,-0.0026819791939570277,-0.06666661699612868,0.017857128602206056,0.9544011020693024
2017-08-25,-1,-0.004411391431127728,-0.004210809926649371,-0.06785710798006098,0.017857128602206056,0.9538222462696629
2017-08-29,-1,-0.005426195946919876,-0.0050038971184133635,-0.06785710798006098,0.017857128602206056,0.9536721632296177
2017-08-31,-1,-0.007177236332974974,-0.006570590384383582,-0.06666661699612868,0.07280215779277818,0.949177588802507
2017-09-05,-1,-0.009917704975158542,-0.008800739238504598,-0.06666661699612868,0.07692308794464003,0.9424068454937701
2017-09-07,-1,-0.00913065733828867,-0.008115221678017906,-0.06666661699612868,0.07692308794464003,0.9402711599737513
2017-09-11,-1,-0.005910069628897535,-0.005281100170502729,-0.06666661699612868,0.07280215779277818,0.9430123804555721
2017-09-13,-1,-0.00862075618687028,-0.0077648240257551125,-0.05833325192884171,0.07280215779277818,0.9433535292528044
2017-09-15,-1,-0.002785750834243538,-0.0026748271369011686,-0.06785710798006098,0.06473213405917065,0.9446236551515458
2017-09-19,-1,-0.0016948432534995986,-0.0015865197251116194,-0.06078430614170666,0.05509869376903882,0.9512591976468512
2017-09-21,-1,-0.0023804980211328194,-0.0022731456864213476,-0.05637248164403437,0.05509869376903882,0.9538819022041045
2017-09-25,-1,-0.004514104384030607,-0.0043078212567260535,-0.05637248164403437,0.0625000072759528,0.9509025494614137
2017-09-27,-1,-0.0038629851251459984,-0.003737185462202215,-0.05882353585689932,0.06354169075008412,0.9456288010820325
2017-09-29,1,0.0001552476904300936,0.000535935078993043,-0.05882353585689932,0.0625000072759528,0.9488373651851288
2017-10-03,1,0.00018597659574653394,0.00045669810866927145,-0.05974266826357918,0.0625000072759528,0.9482966378427975
2017-10-05,1,0.0016378190570190538,0.002238102219769693,-0.05882353585689932,0.05509869376903882,0.9568779075715614
2017-10-09,1,0.001166109285127778,0.00150091125519731,-0.05974266826357918,0.0156250018189882,0.9564036485740193
2017-10-11,0,-0.0002106134003058305,1.2625991283280662e-05,-0.05882353585689932,0.0156250018189882,0.9615471410937145
2017-10-13,-1,-0.0007634027146261501,-0.0006036592607715832,-0.05882353585689932,0.0,0.9657542066816509
2017-10-17,-1,-0.002401270694110674,-0.002304214357418696,-0.01470588396422483,0.06354169075008412,0.9612066502281004
2017-10-19,-1,-0.0022192533758839104,-0.00215948763224092,-0.05974266826357918,0.06354169075008412,0.9568734487057715
2017-10-23,-1,-0.0026665139670839725,-0.0025057756356225533,-0.06250006548361875,0.06666674117247809,0.9555335283195511
2017-10-25,-1,-0.0014925653759141242,-0.0014428348595191143,-0.06354170336174624,0.016666685293119522,0.9585425181178924
2017-10-27,1,0.0014620617630655723,0.001974601211018938,-0.06354170336174624,0.0,0.962886687629435
2017-10-31,-1,-0.0001872523002799437,-1.6273581202270364e-05,-0.06354170336174624,0.0,0.9678997025497108
2017-11-02,1,0.0006030378076623434,0.0009556997833988128,-0.06354170336174624,0.0,0.9628836343572909
2017-11-06,-1,-0.0010865916036169713,-0.0010178766385459473,-0.01666665424903217,0.06785718448156462,0.9564140564105967
2017-11-08,-1,-0.00027070163836926124,-1.1886309333274071e-05,-0.05238094629884662,0.06785718448156462,0.9547484491206087
2017-11-10,-1,-0.0021701274875247927,-0.002133678277473292,-0.05952374291277401,0.06785718448156462,0.9500946001619279
2017-11-14,1,0.0011957215752098228,0.001617445891631802,-0.07142858093185789,0.01923077198616001,0.9473907164967015
2017-11-16,-1,-0.0009114988181535461,-0.0007562225155450389,-0.06473219434567853,0.01923077198616001,0.9494807743135669
2017-11-20,-1,-0.0011985046254046237,-0.0011447225995592925,-0.06250006548361875,0.016666685293119522,0.9502390216077572
2017-11-22,-1,-0.0019851428331074516,-0.0019489824116093336,-0.05729161405071422,0.016666685293119522,0.9531425370201774
2017-11-27,-1,-0.0017284029369708952,-0.0016485825115838144,-0.06250006548361875,0.06666674117247809,0.9475583922577123
2017-11-29,-1,-0.003419319092253746,-0.0033078409192448836,-0.06250006548361875,0.06785718448156462,0.9445354103645474
2017-12-01,-1,-0.0013431158587849069,-0.001249743089277467,-0.06250006548361875,0.06666674117247809,0.9465040741839215
2017-12-05,1,0.0045735457322719185,0.0055347317235756085,-0.06250006548361875,0.016666685293119522,0.9504279795647649
2017-12-07,1,0.0036894336358017877,0.004556711668870322,-0.06250006548361875,0.016666685293119522,0.9529725577510602
2017-12-11,-1,-0.001639004464914446,-0.0016296506702141397,-0.06250006548361875,0.06666674117247809,0.9580066137401582
2017-12-13,-1,-0.0005364111600546655,-0.0002664977499935065,-0.015625016370904687,0.06666674117247809,0.9631325231006681
2017-12-15,-1,-0.001874873142925884,-0.0017771516294487165,-0.015625016370904687,0.06666674117247809,0.9579689824407162
2017-12-19,-1,-0.00228906083596255,-0.002252000327935079,-0.015625016370904687,0.06078425501028377,0.9565343371232086
2017-12-21,-1,-0.0018446392769224061,-0.0018275273088675177,-0.015625016370904687,0.06666674117247809,0.9521710874154939
2017-12-26,-1,-0.0007065955911389302,-0.0004480316296008838,-0.012500002328306874,0.06785718448156462,0.9518838039443103
2017-12-28,1,0.00046817865455582087,0.000989799904278523,0.0,0.06785718448156462,0.953889655495244
2018-01-02,-1,-0.002331279786730006,-0.002324975282353868,0.0,0.07857138580661817,0.9465049900791503
2018-01-04,0,-0.00022205441412266765,8.589429525597027e-05,-0.012500002328306874,0.1,0.9420943866033604
2018-01-08,1,0.00011910987313850773,0.000501981028032325,-0.03669355507643615,0.1,0.9378250003532601
2018-01-10,1,0.00224747278762448,0.0029323528912256714,-0.05362904215034017,0.1,0.9364561730950184
2018-01-12,1,0.004350414151035598,0.005225519472456813,-0.05362904215034017,0.1,0.9324070883870686
2018-01-17,1,0.0024496361380930472,0.002976184938528156,-0.03669355507643615,0.1,0.9371051114837593
2018-01-19,1,0.00022106670071319478,0.00033841981092243994,-0.03669355507643615,0.1,0.9363621778512516
2018-01-23,1,0.003090400349426355,0.003588475566851793,-0.03669355507643615,0.1,0.9340939491562887
2018-01-25,1,0.0034326909739350805,0.003848922670119069,-0.03150206396693689,0.1,0.9355520689905759
2018-01-29,1,0.006120124542638253,0.006883443841751583,-0.04032258791354883,0.1,0.9352004687320978
2018-01-31,1,0.006058861601601151,0.006818152988745814,-0.03150206396693689,0.1,0.935733560201361
2018-02-02,1,0.007639991028481327,0.008780319305082314,-0.007812515461409044,0.1,0.9370426509184026
2018-02-06,1,0.006291647838697767,0.0069921537070799615,-0.001543212999405015,0.1,0.9360040603084152
2018-02-08,1,0.005641413664779459,0.0065228408894807835,0.017241414747113964,0.1,0.9336452382619829
2018-02-12,1,0.011372871705244298,0.013001878081338267,-0.001543212999405015,0.1,0.9392354876553023
2018-02-14,1,0.011546740412284085,0.013064013313127306,-0.03610195916046846,0.1,0.9346420001855748
2018-02-16,1,0.01078877484138058,0.012060486899724556,-0.011813540399797755,0.1,0.9388330636652702
2018-02-21,1,0.015151471543450309,0.016977681649124644,-0.011813540399797755,0.1,0.9397352424337045
2018-02-23,1,0.02098859104159309,0.023834766997338327,-0.03610195916046846,0.1,0.9400797621367769
2018-02-27,1,0.019021839941655544,0.02167145308949605,-0.03610195916046846,0.1,0.9393342437715542
2018-03-01,1,0.0243018511434335,0.027623101575760714,-0.05947355007522495,0.08805312732191901,0.9393339086213915
2018-03-05,1,0.029549953944456406,0.03362732766323289,-0.06569752026975921,0.05824821815339516,0.9375360273282849
2018-03-07,1,0.030898368749455712,0.03493773208628777,-0.07968749393670195,0.05824821815339516,0.9331821762333169
2018-03-09,1,0.03151780253071082,0.03552344540196484,-0.1,0.051904787683883985,0.9329710508588247
2018-03-13,1,0.02919760380552762,0.032735810354916614,-0.1,0.05681962923538759,0.9341681478265284
2018-03-15,1,0.02406770080521987,0.026885825042389025,-0.07968749393670195,0.05681962923538759,0.9373859444808176
2018-03-19,1,0.02666320938296629,0.029778095845180805,-0.08990386888583152,0.026142938642289122,0.9302816968883683
2018-03-21,1,0.032600234332493296,0.036441513239154025,-0.08990386888583152,0.00926876602116726,0.9267297406943457
2018-03-23,1,0.030043983101665426,0.03370763895386806,-0.08990386888583152,0.002212393902576572,0.9263966336567905
2018-03-27,1,0.025674805386303873,0.028639762631869986,-0.08990386888583152,0.03150200133862359,0.9347552140513851
2018-03-29,1,0.02078514868955112,0.023061710444767906,-0.08990386888583152,0.03150200133862359,0.9342996117125213
2018-04-03,1,0.017672251559926598,0.01936194282433453,-0.08990386888583152,0.03150200133862359,0.9346294387851344
2018-04-05,1,0.016859934946663047,0.018395775807820054,-0.08163466766542525,0.029551671397003484,0.9388751340918255
2018-04-09,1,0.01154123042581547,0.012180809003205721,-0.08083336941345709,0.029551671397003484,0.9413558207052585
2018-04-11,1,0.016517027764641066,0.01807259341088209,-0.08083336941345709,0.03150200133862359,0.9407620920151725
2018-04-13,1,0.010848442909401863,0.011395191116606106,-0.08083336941345709,0.05800866741665503,0.9384551424334224
2018-04-17,1,0.005711536117899535,0.005855656140191423,-0.08083336941345709,0.05800866741665503,0.9391306933423744
2018-04-19,1,0.005277137427018487,0.005621352142197068,-0.08083336941345709,0.03847925332418339,0.9405483340902562
2018-04-23,0,-0.0008390065015262669,0.00025548684762900266,-0.08083336941345709,0.03847925332418339,0.9408626655482493
2018-04-25,0,-0.001243620948136885,9.301733139907087e-05,-0.08083336941345709,0.06732955140519657,0.9354858195264993
2018-04-27,-1,-0.006314268005424718,-0.004545149944604924,-0.08083336941345709,0.06732955140519657,0.936236580834273
2018-05-01,-1,-0.002931475837745711,-0.001913204407510992,-0.05614453319013728,0.05800866741665503,0.9412676758771487
2018-05-03,-1,-0.006619810184075783,-0.005066266746941681,-0.046530938028076355,0.05800866741665503,0.9456707188610861
2018-05-07,-1,-0.01358152285118552,-0.010910222304533927,-0.046530938028076355,0.05800866741665503,0.9490494449282342
2018-05-09,-1,-0.009700068400899778,-0.007470103652878024,-0.046530938028076355,0.024351949573942003,0.9515599707359214
2018-05-11,-1,-0.004492769981610609,-0.0027057241196399018,-0.046530938028076355,0.011307123721938728,0.9570096921887109
2018-05-15,-1,-0.009237479042047957,-0.006844499041501297,-0.0445825556395065,0.022223458382468576,0.9608541125367719
2018-05-17,-1,-0.014036173701037238,-0.011053097015810937,-0.037865243118433124,0.022223458382468576,0.9643516367258834
2018-05-21,-1,-0.019791213267981958,-0.016127831079263143,-0.030803530861396117,0.022223458382468576,0.9658712426397309
2018-05-23,-1,-0.013132245508635851,-0.010228503430819802,-0.031114089975873244,0.014760702093952135,0.9752370028926381
2018-05-25,-1,-0.01683524576607725,-0.013355708932501579,-0.028674899619402214,0.003676450447177508,0.9809014699761475
2018-05-30,-1,-0.019482931603538728,-0.01577459351783094,-0.018172278495692556,0.014760702093952135,0.9789351938348065
2018-06-01,-1,-0.0214309864753037,-0.017470490157961798,-0.028674899619402214,0.014760702093952135,0.9748600752721163
2018-06-05,-1,-0.023838016545764014,-0.01967877722662234,-0.01868124435545542,0.014925403009678442,0.9691107270728221
2018-06-07,-1,-0.023224681039846637,-0.01931309533987414,-0.019642824023885487,0.014760702093952135,0.9681091792950042
2018-06-11,-1,-0.023659156430409334,-0.019559693755144325,-0.028674899619402214,0.014760702093952135,0.9662647148605952
2018-06-13,-1,-0.02467566285615281,-0.02028225123701677,-0.02943138895769693,0.003676450447177508,0.9688959153156589
2018-06-15,-1,-0.02461110813133676,-0.02041520611682273,-0.031013393831615912,0.003676450447177508,0.9686823874316968
2018-06-19,-1,-0.02325286451821329,-0.01930434612667753,-0.032142862214798396,0.0037313507524196106,0.9692475542398461
2018-06-21,-1,-0.021634589800497928,-0.018074205378831754,-0.032142862214798396,0.0039062286268758,0.9669734086568612
2018-06-25,-1,-0.021859671361459353,-0.018299475985106207,-0.03362067991559705,0.016182963873488852,0.9642438329775987
2018-06-27,-1,-0.02308100435638629,-0.019381551834089475,-0.032142862214798396,0.01785711197144581,0.9623372709789567
2018-06-29,-1,-0.0273623495937593,-0.023219408651134116,-0.031013393831615912,0.01785711197144581,0.9644016629628537
2018-07-03,-1,-0.02608141075306631,-0.021880683272897924,-0.032142862214798396,0.01785711197144581,0.9670025055953112
2018-07-06,-1,-0.025959351105639388,-0.022172023746896752,-0.031013393831615912,0.01785711197144581,0.9691197369246668
2018-07-10,-1,-0.022228266988321504,-0.01896152341978998,-0.021094381487974115,0.01785711197144581,0.9742813968513959
2018-07-12,-1,-0.022685697957026307,-0.019431071048158485,-0.017543829837627308,0.01785711197144581,0.9686721730794685
2018-07-16,-1,-0.020532546521655846,-0.01785811431186932,-0.017543829837627308,0.02655072269579734,0.9634351677024289
2018-07-18,-1,-0.017739074467897215,-0.01565008956662422,-0.025062636394824995,0.02655072269579734,0.9606827517963389
2018-07-20,-1,-0.01715045933166252,-0.014990716946732034,-0.025062636394824995,0.01785711197144581,0.9639220804114177
2018-07-24,-1,-0.013603763281182474,-0.012276295526077495,-0.017543829837627308,0.01656107689892377,0.9644805758220268
2018-07-26,-1,-0.005449072500782962,-0.005412607953649698,-0.025062636394824995,0.01656107689892377,0.9609953091672847
2018-07-30,-1,-0.003997926764756575,-0.003544527560117308,-0.025062636394824995,0.01656107689892377,0.96094527368232
2018-08-01,-1,-0.0021805957188221945,-0.00137651210240263,-0.017316970347883615,0.01656107689892377,0.9625543510429272
2018-08-03,-1,-0.002020497940263667,-0.0011860147744813237,-0.024351896834806395,0.01656107689892377,0.9613113134483809
2018-08-07,-1,-0.003602540097934227,-0.003214638568654357,-0.023098810295563106,0.027969817125569913,0.9589154816008102
2018-08-09,1,0.0023648745781514238,0.003776226565148505,-0.045486837386362264,0.027969817125569913,0.9570986504234438
2018-08-13,1,0.008573039241326567,0.011241099309950271,-0.023098810295563106,0.015937052140997797,0.9615742328034852
2018-08-15,1,0.0016078975810419512,0.003191531722997982,-0.015687035138439213,0.019789122469429692,0.9680404159413439
2018-08-17,1,0.0002815391147748792,0.0015263851201370465,-0.019181474696952656,0.0307692942534695,0.9661704607165721
2018-08-21,1,6.441579342122408e-05,0.0010667174333861625,-0.019181474696952656,0.038949988909609726,0.963456835069661
2018-08-23,1,0.0005053557203912496,0.0015377355247572027,-0.032662072573367805,0.0307692942534695,0.9664209146450945
2018-08-27,1,0.0011560067065074764,0.00226721621210301,-0.032662072573367805,0.03427099514668804,0.9643792338896404
2018-08-29,1,0.001796932911470097,0.0028278066121546364,-0.041536184949125095,0.03427099514668804,0.9601769548928394
2018-08-31,1,0.0027672197188507047,0.004160576013824359,-0.032662072573367805,0.03427099514668804,0.9618816476434848
2018-09-05,1,0.0035659442595421392,0.004920499059998343,-0.041536184949125095,0.03427099514668804,0.9597652270630043
2018-09-07,1,0.0029795242840623217,0.004016751494401477,-0.032662072573367805,0.03379125146267634,0.9637413865293578
2018-09-11,1,0.004093037003351027,0.005420743363402582,-0.032662072573367805,0.03379125146267634,0.9637930980193473
2018-09-13,1,0.0018258185061976336,0.0026080152677142037,-0.02889123644077155,0.03379125146267634,0.966597108564665
2018-09-17,1,0.003380171728850456,0.004511416841600169,-0.02797614381854687,0.021908333029833048,0.9677557901451608
2018-09-19,1,0.0037456334067427722,0.004612876721687611,-0.03170250299478267,0.021428588154364492,0.9629367169513594
2018-09-21,1,0.0010650441795922783,0.0015659896774734964,-0.02797614381854687,0.021428588154364492,0.965463377204522
2018-09-25,1,0.0008503210732578512,0.0012227241270114939,-0.028079663523372583,0.014134758433756472,0.9659782546166163
2018-09-27,1,0.0008307070804534984,0.0010681045892311238,-0.028079663523372583,0.0035211075466087937,0.9698947157096712
2018-10-01,1,0.003394532700339854,0.004201894185995593,-0.028079663523372583,0.0035211075466087937,0.9640467423456294
2018-10-03,1,0.006547097579269489,0.008149920549119737,-0.028079663523372583,0.0,0.9647316636052244
2018-10-05,1,0.006924175457101507,0.008479229235127228,-0.028079663523372583,0.0,0.9655605946491645
2018-10-09,1,0.004807866714913926,0.005881558861425398,-0.028079663523372583,0.0,0.9658482700143504
2018-10-11,1,0.003020776129288698,0.003598768152811042,-0.03293311850699542,0.0,0.9636816160879441
2018-10-15,1,0.005523601471640259,0.006807330387470021,-0.04567884223315616,0.008333334885537873,0.9560876473689297
2018-10-17,1,0.005573613181791254,0.0068198730282179095,-0.03293311850699542,0.0,0.9629165528955046
2018-10-19,1,0.002836649879791394,0.003553218456898055,-0.04567884223315616,0.008333334885537873,0.959944693832773
2018-10-23,1,0.0007611857425853625,0.001162073162714383,-0.03709677352001091,0.008333334885537873,0.9621108709542938
2018-10-25,-1,-0.002751851931515406,-0.0025874466147181334,-0.03709677352001091,0.033474582265523044,0.9607616370835728
2018-10-29,-1,-0.0003324606561585976,-0.0002535105567627247,-0.03709677352001091,0.008333334885537873,0.9652269912296788
2018-10-31,-1,-0.0012313280585219528,-0.0011900685097157582,-0.03709677352001091,0.033474582265523044,0.9611497830728291
2018-11-02,-1,-0.0007866520638726546,-0.0006100429510950359,-0.048790301157479815,0.033474582265523044,0.9579197826867314
2018-11-06,-1,-0.0006903868707022406,-0.0005740712352972581,-0.048790301157479815,0.03495298457909797,0.9558241093161043
2018-11-08,-1,-0.0006931384505097203,-0.0005476852856069823,-0.03881578834070442,0.03495298457909797,0.9580149814179743
2018-11-12,0,-0.0001448811748271736,5.3090233317570554e-05,-0.033771935914419106,0.03495298457909797,0.9636625552239247
2018-11-14,-1,-0.0006071934350167483,-0.0004843824994277516,-0.035244366389902915,0.03495298457909797,0.9627920577612298
2018-11-16,-1,-0.0003327135213220003,-0.00021038465102999596,-0.035244366389902915,0.03495298457909797,0.9652065030710485
2018-11-20,-1,-0.003000131757067431,-0.0026371973995172483,-0.03653199242764855,0.03495298457909797,0.9639206285949498
2018-11-23,-1,-0.0024828202145084346,-0.00231857078231283,-0.03587662847973431,0.024090884925782548,0.9673954996817821
2018-11-27,-1,-0.004630531887577362,-0.004065061033684477,-0.03653199242764855,0.024090884925782548,0.9669656165311936
2018-11-29,-1,-0.0019367526514769665,-0.001775970567587402,-0.03587662847973431,0.024090884925782548,0.9712607710642991
2018-12-03,-1,-0.004546175578243357,-0.004046125574025828,-0.03587662847973431,0.024090884925782548,0.9727459417036698
2018-12-06,-1,-0.002708899724875752,-0.0023663829715363737,-0.03587662847973431,0.019705903862090212,0.9733328506709626
2018-12-10,-1,-0.004050778544264791,-0.0035303125133712334,-0.03587662847973431,0.024090884925782548,0.9700554555336681
2018-12-12,-1,-0.0028471608366336483,-0.0025384188700186367,-0.03587662847973431,0.0325921046845992,0.9663414669201501
2018-12-14,-1,-0.004814355282719901,-0.004209439995420519,-0.03653199242764855,0.04503532075089655,0.9617465782591342
2018-12-18,-1,-0.0031278343009196645,-0.0028010448846055814,-0.036706695812753924,0.041975881948682986,0.9616888887750606
2018-12-20,-1,-0.005756990227204505,-0.00507971420764322,-0.01561625993064831,0.041975881948682986,0.9627359834507696
2018-12-24,-1,-0.005462527768365224,-0.004828487896708552,-0.003571435793930042,0.041975881948682986,0.9634791464341336
2018-12-27,-1,-0.006862700626828079,-0.00604664477523782,0.0,0.05220684589810867,0.9577456245825591
2018-12-31,-1,-0.005342207612945318,-0.004709718038764602,-0.003571435793930042,0.07286636042975611,0.9518178352402163
2019-01-03,-1,-0.004005893157263503,-0.0036775246799484376,-0.003571435793930042,0.07286636042975611,0.9509821590303819
2019-01-07,-1,-0.0005547937346708727,-0.0003742127025356441,-0.024227822936185858,0.05220684589810867,0.953192598070259
2019-01-09,-1,-0.0005814990511994421,-0.0004930239616604442,-0.05482626322969145,0.045809637785432615,0.9506636572731321
2019-01-11,1,0.0024905474649059185,0.002769310766181074,-0.05482626322969145,0.039844629564867555,0.9550237939625588
2019-01-15,1,0.003205721700902372,0.0036228955464784737,-0.035714251502436636,0.03188168722332739,0.9589734484625326
2019-01-17,1,0.0031059108492732194,0.003516569688372307,-0.017857152360434253,0.03188168722332739,0.9613457985353355
2019-01-22,1,0.0029233678405968305,0.003306134303518629,-0.007142844978644126,0.03919527910505918,0.95977527430211
2019-01-24,1,0.003863797274977042,0.004441680543869294,-0.04409005026462222,0.03919527910505918,0.9550147685373952
2019-01-28,1,0.006726059648806112,0.007605568872983374,-0.061965505616488364,0.026212712121223954,0.9573430873527985
2019-01-30,1,0.0070650033034628645,0.008055334252384916,-0.04409005026462222,0.026212712121223954,0.96442238992689
2019-02-01,1,0.006299846735284657,0.00723589685050249,-0.04355202403341912,0.019181359584793757,0.9648586687954203
2019-02-05,1,0.0043916392764033925,0.005050035941413367,-0.03104391495899679,0.033102301885073286,0.9651214027776343
2019-02-07,1,0.002780519619283498,0.003202771742609298,-0.018012351511562465,0.019181359584793757,0.9701952091633039
2019-02-11,1,0.0037932570571138757,0.0043473829524647775,-0.018012351511562465,0.022432966653201616,0.9701268253606672
2019-02-13,1,0.004559993273906328,0.005346391958311452,-0.017813939479552586,0.022432966653201616,0.9705911320376748
2019-02-15,1,0.004886480614746845,0.005588954535994983,-0.02797614381854687,0.0156249145075032,0.9709043912093059
2019-02-20,1,0.00693003939473279,0.007925379749654689,-0.02797614381854687,0.014935579968408323,0.9724100697947003
2019-02-22,1,0.004097647467032261,0.004763899043369118,-0.003623168844306113,0.014935579968408323,0.978500181550469
2019-02-26,1,0.002893194218996654,0.00342283274579519,-0.003571435793930042,0.014705801788710032,0.9815265067819925
2019-02-28,1,0.003899004618624269,0.004545798251503828,-0.003571435793930042,0.014546037964668525,0.9826530018924273
2019-03-04,1,0.0032961151443389727,0.003910898644568038,-0.003571435793930042,0.014492783356654689,0.9845964415765688
2019-03-06,1,0.004632881605177781,0.005402543201717848,-0.014337476226096239,0.014337503220953948,0.984105348403875
2019-03-08,1,0.004837868098766929,0.005656485580411479,-0.017658740328424374,0.014337503220953948,0.9832967791031652
2019-03-12,1,0.0053520022120264925,0.006190462625517542,-0.027777731786536995,0.014134758433756472,0.9816597354505479
2019-03-14,1,0.00459571770500211,0.005339781418347172,-0.019041186788700114,0.014337503220953948,0.9821933025887482
2019-03-18,1,0.0033838395715089153,0.0039044525609562204,-0.019041186788700114,0.014492783356654689,0.9818941149878703
2019-03-20,1,0.002819317860282388,0.0031730180491843464,-0.028296000344741917,0.014492783356654689,0.9788414987251525
2019-03-22,1,0.001982634914501518,0.0021042177946586646,-0.028296000344741917,0.014657474002250525,0.9788206468289947
2019-03-26,1,0.002942293537005083,0.003308342019871574,-0.028296000344741917,0.015462013101945222,0.9785524039598875
2019-03-28,1,0.002632026340925868,0.002864395923706081,-0.028296000344741917,0.015462013101945222,0.9786056651940205
2019-04-01,1,0.0016601704894023202,0.0017315011937126764,-0.01996268055008053,0.015462013101945222,0.9786876819129836
2019-04-03,1,0.000336341170896847,0.0004149781564594812,-0.01996268055008053,0.016393414590666792,0.9795646741402239
2019-04-05,-1,-0.0004423224559963995,-0.000249487093864868,-0.01646176642749755,0.016393414590666792,0.9802050154245611
2019-04-09,-1,-0.0016663645765076344,-0.001369929945667554,-0.01646176642749755,0.016532341854890456,0.9797283029336161
2019-04-11,-1,-0.001157235219030545,-0.0008983425100126311,-0.01666663872698848,0.016393414590666792,0.9806814009103018
2019-04-15,-1,-0.001340780125197628,-0.0010789530035156137,-0.01666663872698848,0.016393414590666792,0.9813506275828374
2019-04-17,-1,-0.002370519498812013,-0.001941716847311915,-0.01646176642749755,0.016393414590666792,0.983253701296382
2019-04-22,-1,-0.0030670561324657795,-0.0024702532002159735,-0.01646176642749755,0.01673730652326271,0.9823855742240812
2019-04-24,-1,-0.0034945328845922396,-0.0028206125221236777,-0.01646176642749755,0.01673730652326271,0.9828047326932824
2019-04-26,-1,-0.003271132112505146,-0.0026861882518757745,-0.01646176642749755,0.01673730652326271,0.9820493994743255
2019-04-30,-1,-0.006179019743587554,-0.005111295423797765,-0.00396826194632573,0.01673730652326271,0.9819195455763916
2019-05-02,-1,-0.005426662014579945,-0.004567854292874157,-0.00396826194632573,0.01673730652326271,0.9782145033408773
2019-05-06,-1,-0.005210880553156622,-0.004311647165896954,-0.01607144552072431,0.016461736146790876,0.9775177521385693
2019-05-08,-1,-0.004932464467789238,-0.00409113488483356,-0.015331921400604413,0.016195152553729015,0.9796115203570065
2019-05-10,-1,-0.00622884236934207,-0.005180365278111504,-0.015331921400604413,0.016461736146790876,0.9756048262366489
2019-05-14,-1,-0.007161232432948798,-0.006029774764582045,-0.015331921400604413,0.016461736146790876,0.9740844284915526
2019-05-16,-1,-0.007377414707349634,-0.006109872909421367,-0.019480530586600275,0.016461736146790876,0.9712735836594223
2019-05-20,-1,-0.006247268165308375,-0.005121469160985916,-0.019480530586600275,0.015570751647071916,0.9722624737919062
2019-05-22,-1,-0.0066708902913335845,-0.005432655784558059,-0.019480530586600275,0.015384647126734858,0.9721905235960954
2019-05-24,-1,-0.00591735505588686,-0.004837175058024496,-0.029963849262140595,0.015209821235962238,0.9720646892363835
2019-05-29,-1,-0.006510507072038596,-0.005324972135389853,-0.030791751825579007,0.015384647126734858,0.9690557641296123
2019-05-31,-1,-0.0034085075982840953,-0.0026816870021018928,-0.030663743352622883,0.015209821235962238,0.9732994421933215
2019-06-04,-1,-0.003997970549085416,-0.0033386581524078246,-0.029963849262140595,0.015209821235962238,0.9756343103764265
2019-06-06,-1,-0.0011471238244244266,-0.0010073348499785723,-0.029963849262140595,0.015209821235962238,0.9738049728544697
2019-06-10,1,9.45599186842007e-05,0.00013043042586573835,-0.01996268055008053,0.01498193874201834,0.977241139636294
2019-06-12,-1,-0.0009112357602930382,-0.0008110418127722442,-0.01646176642749755,0.01498193874201834,0.9785707070687101
2019-06-14,-1,-0.00030819655136769277,-0.00028051412132145824,-0.01646176642749755,0.0037313507524196106,0.9822195655314867
2019-06-18,-1,-4.544274869406141e-05,-1.9868132690442245e-05,-0.01996268055008053,0.003787886484759508,0.9756524223232368
2019-06-20,1,0.0018378360583138256,0.002318326562489652,-0.030324613624271142,0.0,0.9738449786211524
2019-06-24,1,0.0008684018674981548,0.0012163938141152891,-0.02043648815499499,0.0,0.976544444027014
2019-06-26,1,0.00021749228255137033,0.0004198205697021923,-0.01646176642749755,0.0,0.9805418915179152
2019-06-28,-1,-0.0011215890759228822,-0.0010686512369044669,-0.016393475661000575,0.0,0.9803753460212595
2019-07-02,-1,-0.002046047682051231,-0.001827321474093814,-0.01619512275731601,0.0,0.9808031242071594
2019-07-05,-1,-0.0010101450784002573,-0.0009648434521469046,-0.02035962432846019,0.0,0.9788541427400279
2019-07-09,-1,-0.0015396001377606613,-0.0014234402298817352,-0.03573200943710042,0.0,0.9724762691332697
2019-07-11,1,3.2154780329063035e-05,0.00017974768438201228,-0.04671213893031183,0.0,0.9677315452967395
2019-07-15,1,0.0002860627177516847,0.0005734255417362305,-0.04671213893031183,0.004098353647666698,0.9682237610106216
2019-07-17,-1,-0.00019208952625121247,-0.00012228373244886154,-0.023635210531037006,0.01684052472471198,0.9715840692698027
2019-07-19,-1,-0.001971990530339949,-0.0017645542615340828,-0.021025326458548953,0.01684052472471198,0.9714881610610472
2019-07-23,-1,-0.0011892226447069866,-0.0011267410781910583,-0.03888248671284767,0.01684052472471198,0.9674992224621607
2019-07-25,-1,-0.0017988400572627318,-0.0016216142525278818,-0.04900216511099457,0.01684052472471198,0.9619055482185113
2019-07-29,-1,-0.0007684514200849178,-0.000747740163225199,-0.04900216511099457,0.0045454637817118875,0.9612270495893613
2019-07-31,-1,-0.0006404052299013396,-0.0006004158578681341,-0.05642827233994955,0.018636382776968004,0.9555028394411957
2019-08-02,-1,-0.002389996150655753,-0.002292228047159158,-0.05162603425009547,0.018636382776968004,0.9590331062941231
2019-08-06,-1,-0.0032389192604598224,-0.003012907840059874,-0.0461538521299852,0.0045454637817118875,0.9636416040648444
2019-08-08,-1,-0.004865776875254588,-0.00442448935828766,-0.03789683034029725,0.0045454637817118875,0.9675412420627831
2019-08-12,-1,-0.004030356477012084,-0.003720192554525999,-0.0461538521299852,0.0045454637817118875,0.9612096248625456
2019-08-14,-1,-0.001115518283405342,-0.0010343953580185471,-0.0461538521299852,0.0,0.9632549801823873
2019-08-16,-1,-0.001770101045292192,-0.0017692690060857254,-0.0461538521299852,0.00531915989786722,0.9629839828591062
2019-08-20,-1,-0.003560568276557314,-0.0033921931938309755,-0.02986108105871001,0.00531915989786722,0.9655937957132467
2019-08-22,-1,-0.00706543177717237,-0.006462751989292038,-0.02339426614084609,0.00531915989786722,0.9703484757904106
2019-08-26,-1,-0.008394396848828894,-0.007567236722824248,-0.022916689302977238,0.021639309420740962,0.9687601843874198
2019-08-28,-1,-0.00877794228035282,-0.007902979337444771,-0.02185988669112563,0.00531915989786722,0.9738843070538803
2019-08-30,-1,-0.010294814064843543,-0.009178604014531095,-0.02185988669112563,0.00531915989786722,0.9727163266041264
2019-09-04,-1,-0.010343970317619418,-0.009272792757042424,-0.021392193613367437,0.022859432595992768,0.970748647383055
2019-09-06,-1,-0.008069359151061047,-0.007247104392281156,-0.02185988669112563,0.022859432595992768,0.9703429903474948
2019-09-10,-1,-0.007450975234171828,-0.006701232605968999,-0.0223485083410736,0.021639309420740962,0.9766212980720167
2019-09-12,-1,-0.0055500870084056395,-0.0050485805824552225,-0.0223485083410736,0.021639309420740962,0.9776525474188656
2019-09-16,-1,-0.005230326888203375,-0.004776298370024653,-0.022859390755390327,0.005681829727139302,0.9763372109751106
2019-09-18,-1,-0.006395246779688401,-0.005800835156307698,-0.02369188474233832,0.005681829727139302,0.976571066186814
2019-09-20,-1,-0.007186553245126384,-0.006470691472052986,-0.029619535545787248,0.005681829727139302,0.9751067347921726
2019-09-24,-1,-0.007732055348922776,-0.006944030616012944,-0.02369188474233832,0.023394223339200954,0.974984551492544
2019-09-26,-1,-0.0059035869137399,-0.005361662875411273,-0.029619535545787248,0.024436140199015997,0.9709482142566485
2019-09-30,-1,-0.006941248193681016,-0.006297551595100583,-0.02369188474233832,0.02649362792951824,0.971089099170639
2019-10-02,-1,-0.005357659303748076,-0.004898945137722928,-0.029619535545787248,0.02649362792951824,0.9678412024487439
2019-10-04,-1,-0.0058139806616878545,-0.005278495441609309,-0.052350409865592924,0.024436140199015997,0.967135407298343
