JNU-Tangyin/eata/results/Batch4_SP500/Batch4_SP500-PFE.csv
Date,Action,Predicted_Q25,Predicted_Q75,Actual_Q25,Actual_Q75,RL_Reward
2010-12-14,0,-0.002225153068884614,0.0,-0.001862680334380657,0.008374741367284715,0.9937511721841138
2010-12-16,-1,-0.0007615987054726779,-0.0005882475035185822,-0.0027334372539711367,0.008374741367284715,0.9927940054038328
2010-12-20,0,0.0,0.0,-0.002459016577076203,0.008374741367284715,0.9936658646522278
2010-12-22,0,0.0,0.0,-0.003538771158650502,0.006607193973806365,0.9942409262152303
2010-12-27,-1,-0.0006539352154753379,-0.000563743334379611,-0.002459016577076203,0.006607193973806365,0.9942212872359864
2010-12-29,-1,-0.000560746991486138,-0.00047302604377236126,-0.003538771158650502,0.006607193973806365,0.9940042018733909
2010-12-31,0,0.0,0.0,-0.003538771158650502,0.006607193973806365,0.9934088023750073
2011-01-04,0,0.0,0.0,-0.004363223636040398,0.0065807267602085075,0.991381512239055
2011-01-06,0,0.0,0.0,-0.004363223636040398,0.006634951498580533,0.991021839056859
2011-01-10,0,0.0,0.0,-0.004763998080676691,0.0065807267602085075,0.9906972983115593
2011-01-12,0,0.0,0.0,-0.005794750317193021,0.006546671777641424,0.9908755838221157
2011-01-14,0,0.0,0.0,-0.005794750317193021,0.006546671777641424,0.9905103949640653
2011-01-19,0,0.0,0.0,-0.005794750317193021,0.006629535011635384,0.9901853564608332
2011-01-21,0,0.0,0.0,-0.00678988959244186,0.006597285524716684,0.9900375667463822
2011-01-25,1,0.0017352464020951048,0.0018633881995121196,-0.00959699858433595,0.006597285524716684,0.9891174301969732
2011-01-27,1,0.0016025558473013023,0.001671079501332814,-0.00959699858433595,0.006951710029197363,0.9892454221928306
2011-01-31,1,0.0009940683781745976,0.0009952566353095096,-0.007484684813811558,0.008366029878084304,0.9890962390532397
2011-02-02,1,0.003211266199053841,0.0035643611534676364,-0.0060263487243162545,0.008366029878084304,0.9910410957985344
2011-02-04,1,0.003938876604461265,0.004395497474193397,-0.0060263487243162545,0.00659255012950497,0.9906590298166096
2011-02-08,1,0.0036032809688943635,0.004023695649714587,-0.005608274823899302,0.00536676032930608,0.9914529370139608
2011-02-10,1,0.0033108383481217337,0.003703803315523212,-0.005893492256704769,0.00612712245354385,0.9912249548114453
2011-02-14,1,0.0031460510408284383,0.003502758009629456,-0.005289071978514563,0.00612712245354385,0.9913553524741849
2011-02-16,1,0.00376470296845043,0.004225377833250175,-0.005893492256704769,0.00612712245354385,0.9891987655383614
2011-02-18,0,0.0,0.0,-0.005893492256704769,0.009369667095386567,0.9890105882939706
2011-02-23,1,0.0020132367239706047,0.0021971455978467493,-0.0032068344706817913,0.009369667095386567,0.9898533063458427
2011-02-25,1,0.0017434216542035225,0.0018447246774485615,-0.0032068344706817913,0.015683587201191392,0.9894321680098062
2011-03-01,1,0.0027294627590912493,0.003011172920448263,-0.0028902734277764103,0.00803407819072445,0.9902374286460782
2011-03-03,1,0.004264743126128534,0.004773862215800165,-0.0028902734277764103,0.005490538557624058,0.9906442966436342
2011-03-07,1,0.0037728436100051333,0.004213337486773289,-0.0021325066786783546,0.006224145504275534,0.991411184544904
2011-03-09,1,0.003971841496934841,0.004459963303694093,-0.004043804727774885,0.006224145504275534,0.9906431727314577
2011-03-11,1,0.0036108413817093656,0.004066963372221462,-0.0028758301530722183,0.006758531673190592,0.9915504916970252
2011-03-15,1,0.00392031074474924,0.004391057171418108,-0.004043804727774885,0.006758531673190592,0.991442479304744
2011-03-17,1,0.0038545371814772385,0.004286737794152659,-0.0024842928570429712,0.005668667280595744,0.9937320891567899
2011-03-21,1,0.003880785361905347,0.00430769877157567,-0.0024842928570429712,0.003941627720124651,0.9943147069808764
2011-03-23,0,0.0,0.0,-0.004043804727774885,0.005663181835468174,0.9945513619520029
2011-03-25,1,0.0032923176133734956,0.0036676896943380437,-0.0048692765492224935,0.005663181835468174,0.9929505309625452
2011-03-29,1,0.0031546162285851706,0.003502782187404065,-0.0048692765492224935,0.006377984708493842,0.992507913873619
2011-03-31,1,0.0024762857139631446,0.0026834897239614,-0.0048692765492224935,0.007003524029775,0.9925413764376028
2011-04-04,1,0.002481000390860467,0.0026593368758622725,-0.006453938558632358,0.006476105162738024,0.9913299919827622
2011-04-06,1,0.0018915095216971828,0.0019835509184647562,-0.006453938558632358,0.00746446850481242,0.9910902748649161
2011-04-08,1,0.0017267213177688905,0.0017640129672489425,-0.006453938558632358,0.008308934398091989,0.990931362186928
2011-04-12,1,0.0011759002882606646,0.001242378825761092,-0.006453938558632358,0.008308934398091989,0.9906083259677161
2011-04-14,1,0.0014163668080503487,0.0014303608887891442,-0.006453938558632358,0.009717110425365631,0.9901210297723669
2011-04-18,1,0.0007229888665243002,0.0008494079425313099,-0.0006277436269969444,0.009717110425365631,0.9898828305772889
2011-04-20,1,0.00035882644295232675,0.00054353154246155,-0.000693453012867485,0.009717110425365631,0.9899478726251916
2011-04-25,-1,-0.0005644133738676714,-0.00023511924230680992,-0.005395426348475034,0.008308934398091989,0.9909217077759617
2011-04-27,1,0.0006340503949414137,0.000788144370157849,-0.005395426348475034,0.008308934398091989,0.9916210623331346
2011-04-29,1,0.0011494915867208781,0.0012398477258914078,-0.005395426348475034,0.007681545759456941,0.9921866115680344
2011-05-03,0,-0.0001953264458559973,6.817652334186234e-05,-0.005395426348475034,0.008331463362175235,0.9912323028931572
2011-05-05,0,-0.00013062610453571982,9.820462391076177e-05,-0.005395426348475034,0.007681545759456941,0.991822560540009
2011-05-09,1,0.00014494491225581856,0.00033579561355100954,-0.005395426348475034,0.006237664863910539,0.99208050855623
2011-05-11,1,7.69629183597065e-05,0.0002724844869422537,-0.004807166691641236,0.0039823832799664345,0.9929857019323907
2011-05-13,1,0.0003331100972208279,0.0005122177118453156,-0.005395426348475034,0.0039823832799664345,0.9912993818009453
2011-05-17,1,0.000992287071024364,0.0010626978789183917,-0.007216366033712702,0.0039823832799664345,0.9903794267194876
2011-05-19,1,0.00048272999117457627,0.0006264730445120125,-0.005529643575434038,0.0039823832799664345,0.990835578773096
2011-05-23,-1,-0.0003680602807008314,-0.00013078495090445902,-0.003749413170341437,0.005797365147704068,0.9915048448233864
2011-05-25,-1,-0.00032772004154833605,-8.478754181196878e-05,-0.0054344051660418485,0.005797365147704068,0.9910485858117406
2011-05-27,1,0.0003121933008878172,0.0004341696962032069,-0.0074113589986358735,0.0048278164208908235,0.9898115750194394
2011-06-01,1,0.0005686339105612063,0.0006497828111713037,-0.0054344051660418485,0.005845839332408814,0.9907613892434742
2011-06-03,1,0.00014280176606215638,0.00027160923462868955,-0.0037395446468684052,0.006219270942739602,0.9907425090377535
2011-06-07,0,-5.553755490145148e-05,9.146680984507567e-05,-0.0030163885820179695,0.006219270942739602,0.9908733589826106
2011-06-09,-1,-0.00022364425143421953,-4.8742696887768414e-05,-0.004430699076448391,0.006219270942739602,0.9896850334112067
2011-06-13,-1,-0.0008590437420160868,-0.0006046178671804427,-0.004083253670587398,0.005845839332408814,0.9916028713477926
2011-06-15,-1,-0.0014205259551993582,-0.0011004167757106957,-0.00359566062127708,0.004821370153954326,0.9925803716254338
2011-06-17,-1,-0.0012862252230462815,-0.0009883756188045238,-0.005665307462438681,0.004821370153954326,0.9923243420842928
2011-06-21,-1,-0.0010856320624691594,-0.0008094550522976219,-0.005665307462438681,0.004821370153954326,0.9919672185336836
2011-06-23,-1,-0.001112510475790564,-0.0008075030781677362,-0.004393895208353465,0.004821370153954326,0.9926746825953432
2011-06-27,-1,-0.0011810306679616365,-0.0009327118589442364,-0.005665307462438681,0.002544199553071538,0.9932506007021115
2011-06-29,1,1.1630635206930128e-05,9.268783699110407e-05,-0.0064733012762314916,0.0003614504289011529,0.9931095912257052
2011-07-01,0,-9.613497975452767e-05,1.1576086261477086e-05,-0.008298682533976007,-0.0003750550709003603,0.9927957350233805
2011-07-06,-1,-0.000313841432919669,-0.0001583600726259038,-0.009931648224865749,-0.0018701392365121747,0.9904614973941586
2011-07-08,-1,-0.001503700514761341,-0.0012108497087680139,-0.009931648224865749,-0.0012444356728616576,0.9903645860887681
2011-07-12,-1,-0.0014385851974816483,-0.0011829757692333309,-0.012589355273646265,0.00040213094542817943,0.9855298909155594
2011-07-14,-1,-0.0017142590999444933,-0.0014184272994443498,-0.013918747015067227,0.004203663255826537,0.9821458692012297
2011-07-18,-1,-0.002765918141839379,-0.0023049079903257642,-0.013918747015067227,0.008128893917923772,0.9812123403985632
2011-07-20,-1,-0.0022112946242225746,-0.0018247519920874809,-0.013918747015067227,0.008073965516964168,0.9814189065482501
2011-07-22,0,0.0,0.0,-0.02042073768964187,0.004203663255826537,0.9793415833680466
2011-07-26,0,0.0,0.0,-0.02042073768964187,0.008073965516964168,0.978852719001828
2011-07-28,0,0.0,0.0,-0.02534921452040425,0.008625409247523098,0.9782931790643145
2011-08-01,0,0.0,0.0,-0.02534921452040425,0.017158815452837078,0.9767374048436703
2011-08-03,0,0.0,0.0,-0.007539530870523172,0.017158815452837078,0.9789621049701975
2011-08-05,0,0.0,0.0,-0.008611657953702176,0.017158815452837078,0.9797852514200521
2011-08-09,-1,-0.004099541745623133,-0.003587994601929775,-0.0026159778674504893,0.015265634049775071,0.9820352434071611
2011-08-11,-1,-0.0027170696605169275,-0.002377802514006922,-0.005264760514300964,0.011199346669341439,0.9846974260032376
2011-08-15,-1,-0.0017771452983817878,-0.0015432960292772605,-0.005264760514300964,0.009946077642155394,0.9862552612801608
2011-08-17,-1,-0.0010656917956554323,-0.0009473067074988227,-0.005264760514300964,0.008740887303912835,0.9863084878833893
2011-08-19,-1,-0.002602187797137053,-0.002310439462680079,-0.006217654777301394,0.008740887303912835,0.9870515595764072
2011-08-23,-1,-0.001406186731676243,-0.0012511804796975158,-0.012093120628527665,0.008659457771224054,0.9874395912604632
2011-08-25,-1,-0.0017100694168917896,-0.0015403626095423918,-0.012093120628527665,0.006464180749758125,0.9880507574352642
2011-08-29,-1,-0.00033430052056702486,-0.00030775180617025034,-0.012093120628527665,0.0046118190623231185,0.9895359669919636
2011-08-31,-1,-0.0005331397558606653,-0.0005066591679861014,-0.012625234332459651,0.005779356705926903,0.9881720300509367
2011-09-02,-1,-0.0008104883548373193,-0.0007430855124713665,-0.017110971820561344,0.005779356705926903,0.9878032748684135
2011-09-07,1,0.00021812736747918248,0.0002821017647529666,-0.017110971820561344,0.005779356705926903,0.9872317455062607
2011-09-09,-1,-0.0012531165366900874,-0.001133267287240231,-0.012199457973258589,0.012115697245720721,0.9879501496851886
2011-09-13,-1,-0.0010727036352259248,-0.0009759129802115671,-0.012199457973258589,0.014178912366783758,0.9867900056056642
2011-09-15,-1,-0.0008503877858470181,-0.0007689839816586501,-0.012199457973258589,0.014178912366783758,0.9871296068827242
2011-09-19,-1,-0.0010613778662493033,-0.0009925048085767682,-0.012199457973258589,0.014944788145785357,0.986581770957304
2011-09-21,-1,-0.0010515261726657512,-0.0010130656188222658,-0.009001805943211132,0.014986631749753994,0.9869797792682371
2011-09-23,-1,-0.0022701225234365288,-0.002053583621277222,-0.005298444594627854,0.015656864893756395,0.9868114536040636
2011-09-27,-1,-0.0015307250412741396,-0.0014045503668171308,-0.009001805943211132,0.015187103648436699,0.9858759077777062
2011-09-29,-1,-0.000744834891130434,-0.0007310084096917105,-0.005298444594627854,0.016209522537349603,0.9849625976307864
2011-10-03,-1,-0.001813875458000204,-0.0016789726548231414,-0.0038381372154112437,0.016209522537349603,0.9851840297817166
2011-10-05,-1,-0.00017995785156246574,-8.4462591917772e-05,-0.0038381372154112437,0.015170850964285063,0.9865404245832409
2011-10-07,1,0.0007487674683727343,0.0009879943866747533,-0.005298444594627854,0.016209522537349603,0.9864539866580753
2011-10-11,1,0.0014205135011936725,0.0017434755196882932,-0.005298444594627854,0.016209522537349603,0.98695320670605
2011-10-13,1,0.0009347237281794224,0.0011504217474329215,-0.0090923542343089,0.017694406201222077,0.9843104530830062
2011-10-17,1,0.0010570977926644986,0.0013054667357218976,-0.00882699391096703,0.017694406201222077,0.9849801327684051
2011-10-19,1,0.001423142456624137,0.0017325036809819282,-0.010270324338256816,0.017694406201222077,0.9852568918375124
2011-10-21,1,0.0019060497560683932,0.002290292806319806,-0.010270324338256816,0.016285122465262994,0.9860098614329065
2011-10-25,1,0.0015525338372652854,0.0018729533812112168,-0.010270324338256816,0.012240229643811773,0.9861980892915347
2011-10-27,1,0.0028627793756562754,0.0033493675314550057,-0.012074336494933925,0.0055583412120120464,0.9869659869334704
2011-10-31,1,0.0020677145781208897,0.0024479686458020195,-0.010270324338256816,0.01181966247445829,0.9864864721155665
2011-11-02,1,0.002333581942252267,0.002732972323379241,-0.010270324338256816,0.016659504476901798,0.9851523699983603
2011-11-04,1,0.0022826397971423907,0.0026501177277824762,-0.007743394785215533,0.011639290525085286,0.9858437043899342
2011-11-08,1,0.0028558326189410685,0.0033028984126204377,-0.007743394785215533,0.012957376339708969,0.9855207047213723
2011-11-10,1,0.002581155704991265,0.003004450818470544,-0.007743394785215533,0.012957376339708969,0.9869104888753805
2011-11-14,1,0.002730417620341905,0.0031919382677727853,-0.007309284652824883,0.016715766078545587,0.9866065928580953
2011-11-16,1,0.002042973295853155,0.0023718512291351886,-0.005579727735258332,0.016715766078545587,0.9868731557515249
2011-11-18,1,0.002302386766389048,0.00270398660650988,-0.005649941422222713,0.016715766078545587,0.9868012297804527
2011-11-22,1,0.0014847804423779288,0.0017865343628322026,-0.003186271278009543,0.016715766078545587,0.9874017450511176
2011-11-25,1,0.0011628223719637497,0.001460574266601664,-0.002358153674677875,0.016715766078545587,0.9880547820853752
2011-11-29,1,0.0016804060867574347,0.0019603846203033416,-0.003362193138820887,0.013851427321012886,0.9896677649902302
2011-12-01,0,0.0,0.0,-0.00371910061981866,0.012253357706411226,0.9905689792642834
2011-12-05,0,0.0,0.0,-0.00371910061981866,0.013851427321012886,0.9898409829087788
2011-12-07,0,0.0,0.0,-0.005854794272623318,0.011044444137879816,0.9909357784544802
2011-12-09,1,0.0030856881437623268,0.0035360884163924884,-0.00371910061981866,0.0105862775283623,0.9922252921885321
2011-12-13,0,0.0,0.0,-0.00286742364391876,0.00949769500973137,0.9926767267302886
2011-12-15,0,0.0,0.0,-0.00371910061981866,0.008581926230419696,0.9930138396664353
2011-12-19,0,0.0,0.0,-0.003897526778820631,0.008581926230419696,0.9931691482425103
2011-12-21,1,0.004011828819291444,0.0045583931179660735,-0.006143154876719869,0.004808897866037189,0.9932167982396097
2011-12-23,0,0.0,0.0,-0.006143154876719869,0.004226903999484217,0.9941785206832215
2011-12-28,0,0.0,0.0,-0.006143154876719869,0.004226903999484217,0.9943116961681333
2011-12-30,0,0.0,0.0,-0.006849660904939624,0.004226903999484217,0.9942419154786991
2012-01-04,0,0.0,0.0,-0.006849660904939624,0.0031049297904972525,0.9947741231180776
2012-01-06,0,0.0,0.0,-0.006849660904939624,0.0041480668235300625,0.9944349151804636
2012-01-10,0,0.0,0.0,-0.006849660904939624,0.0031049297904972525,0.9949502108477801
2012-01-12,1,0.0016566483560733678,0.0017623347339307304,-0.006849660904939624,0.00314335475845073,0.9944049619414279
2012-01-17,0,0.0,0.0,-0.006171537496378792,0.00314335475845073,0.9946336746106539
2012-01-19,0,0.0,0.0,-0.007286374289386904,0.00436136339217914,0.993968756954599
2012-01-23,1,0.0012338268267833366,0.001351768303503187,-0.006656362327526131,0.00436136339217914,0.994071869447041
2012-01-25,1,0.0010890619697873699,0.0011937231077951624,-0.007286374289386904,0.0046848960982254755,0.9932420219508743
2012-01-27,1,0.0013363711154509073,0.0014147370510690805,-0.007007927852996644,0.005126868771295845,0.9934851864958493
2012-01-31,1,0.0011625650989915174,0.0012011462873955314,-0.0048339266568130776,0.005126868771295845,0.993668412671686
2012-02-02,0,0.0,0.0,-0.004245348789294429,0.006290075766930335,0.993294565352824
2012-02-06,0,0.0,0.0,-0.004245348789294429,0.006290075766930335,0.9933515250488255
2012-02-08,1,8.9420744245947e-05,0.00012431707755220948,-0.004245348789294429,0.006290075766930335,0.993279531457277
2012-02-10,-1,-0.0004920782288051686,-0.00018070332505873844,-0.003852319419870436,0.005175507512665094,0.9936202146389435
2012-02-14,-1,-0.0004528201069590762,-0.0001101671297651255,-0.003852319419870436,0.005175507512665094,0.9930875067776158
2012-02-16,0,0.0,0.0,-0.0036566847677072445,0.004333975148974101,0.993882931028324
2012-02-21,0,0.0,0.0,-0.0036400962318041867,0.004333975148974101,0.9939613820327909
2012-02-23,0,0.0,0.0,-0.002959749012853714,0.0042055702542151555,0.9948925886719744
2012-02-27,-1,-0.0015425677585932153,-0.0011295653883856783,-0.002959749012853714,0.0042055702542151555,0.9946249874856554
2012-02-29,-1,-0.0012206240777647452,-0.0008987839649703789,-0.002959749012853714,0.004333975148974101,0.9938446622136083
2012-03-02,-1,-0.0005633794928841988,-0.00035154578127234823,-0.002061798559523209,0.004333975148974101,0.9943154552106499
2012-03-06,0,0.0,0.0,-0.002322330201631892,0.004333975148974101,0.9947965740538819
2012-03-08,0,0.0,0.0,-0.002670471922031881,0.0031304471586540168,0.9947978119111796
2012-03-12,0,0.0,0.0,-0.002959749012853714,0.0020623897960102486,0.9942055338053502
2012-03-14,0,0.0,0.0,-0.0027244657451004346,0.0006769677431718198,0.995307324438816
2012-03-16,0,0.0,0.0,-0.002849434935108264,0.0013701021175802218,0.9949675648582618
2012-03-20,0,0.0,0.0,-0.0026670384205021956,0.006031016137361825,0.9942306976932085
2012-03-22,0,0.0,0.0,-0.002839134430519207,0.007168378398327568,0.9936609572495324
2012-03-26,0,0.0,0.0,-0.0033950712725623437,0.007168378398327568,0.993689313335251
2012-03-28,1,0.00018204847857289266,0.00039222870804670764,-0.002839134430519207,0.00836224663907524,0.9937902657277538
2012-03-30,1,0.0008229999997820857,0.000835365989616277,-0.003620025861988302,0.006673189588049619,0.9936535420782261
2012-04-03,1,0.0007561654069320515,0.0007743253660714434,-0.005247077230153014,0.006673189588049619,0.9933904228166452
2012-04-05,1,0.00023704846337382982,0.0002894687646469376,-0.005247077230153014,0.006673189588049619,0.9933341668988009
2012-04-10,1,0.00034871832731866206,0.0004017784197358996,-0.00498487390574418,0.006673189588049619,0.9939050063732146
2012-04-12,-1,-0.0003543258063954702,-0.00021245256015269812,-0.00498487390574418,0.00836224663907524,0.9932154943735013
2012-04-16,-1,-0.000709304475617321,-0.0005014084295576894,-0.005247077230153014,0.00836224663907524,0.9932098918154836
2012-04-18,0,0.0,0.0,-0.0059006280175937665,0.00836224663907524,0.9927669855109292
2012-04-20,0,0.0,0.0,-0.0059006280175937665,0.004312616637521382,0.9932980470819147
2012-04-24,0,0.0,0.0,-0.005836408670904291,0.0017855318676171564,0.9938053476451439
2012-04-26,0,0.0,0.0,-0.007606315081055418,0.000985034232015012,0.9940095382398192
2012-04-30,0,0.0,0.0,-0.005836408670904291,0.001568440083265133,0.9943038257590292
2012-05-02,0,0.0,0.0,-0.007584893499826517,0.001568440083265133,0.9941299889907294
2012-05-04,0,0.0,0.0,-0.007584893499826517,0.001568440083265133,0.9941536736142785
2012-05-08,0,0.0,0.0,-0.007584893499826517,0.001568440083265133,0.9936424491546214
2012-05-10,1,0.0004282871475516538,0.00044249948302321805,-0.007584893499826517,0.0015918005086233815,0.993904321651799
2012-05-14,0,0.0,0.0,-0.0066195338475489385,0.0022604585976550053,0.9942566388207223
2012-05-16,0,0.0,0.0,-0.004228169628773096,0.0022604585976550053,0.9948209243825105
2012-05-18,0,0.0,0.0,-0.002933011502666601,0.0022604585976550053,0.9948861560028501
2012-05-22,0,0.0,0.0,-0.0017726681878192999,0.002692330782768924,0.9950411448359554
2012-05-24,0,0.0,0.0,-0.0017726681878192999,0.00400214624831629,0.9953353075467037
2012-05-29,1,0.0002887657389244099,0.0003082157888432685,-0.002126956013455006,0.00400214624831629,0.994817599641132
2012-05-31,-1,-0.0005639184748642835,-0.0004618486686900406,-0.0017726681878192999,0.004492333648164622,0.9949765151619822
2012-06-04,-1,-0.00044802380715575324,-0.0003946517423729503,-0.0014416808539799212,0.006208118771981289,0.9944382471082985
2012-06-06,0,0.0,0.0,-0.002126956013455006,0.004492333648164622,0.9945586145295617
2012-06-08,0,0.0,0.0,-0.0032004043574350776,0.004274345877607501,0.994552199038901
2012-06-12,-1,-0.0004640237840134968,-0.0003964415289399338,-0.004755320719048451,0.004204132791881166,0.9941993280961042
2012-06-14,-1,-0.0001378213742438739,-4.4613873525576405e-05,-0.004755320719048451,0.00509829327885925,0.9940015182127278
2012-06-18,-1,-0.0004296695626394696,-0.0003755394796701577,-0.004755320719048451,0.0065255467127267605,0.9923755839732877
2012-06-20,-1,-0.00048819066094854633,-0.0004718653288914809,-0.004755320719048451,0.0065255467127267605,0.9922166271067954
2012-06-22,0,0.0,0.0,-0.004755320719048451,0.0065255467127267605,0.9922761393674419
2012-06-26,0,0.0,0.0,-0.004755320719048451,0.0065255467127267605,0.9923407915648358
2012-06-28,0,0.0,0.0,-0.004755320719048451,0.008650813843816954,0.9918379241636655
2012-07-02,0,0.0,0.0,-0.005189791566423466,0.008623118413171788,0.9919317460421724
2012-07-05,0,0.0,0.0,-0.004278665092506653,0.008623118413171788,0.9923945088397558
2012-07-09,0,0.0,0.0,-0.0042060753472928855,0.013945882426347131,0.9921356074041212
2012-07-11,0,0.0,0.0,-0.004170224958250968,0.013945882426347131,0.991570057356054
2012-07-13,0,0.0,0.0,-0.004170224958250968,0.008623118413171788,0.992373800257979
2012-07-17,-1,-0.13410681920317413,-0.1302482277109106,-0.0042060753472928855,0.005833629932401764,0.8826334389643704
2012-07-19,0,0.0,0.0,-0.0042060753472928855,0.004557799257303118,0.9933269059394163
2012-07-23,0,0.0,0.0,-0.004378731849298849,0.00549761124633859,0.9930212026562657
2012-07-25,0,0.0,0.0,-0.004378731849298849,0.00549761124633859,0.9931117948133447
2012-07-27,0,0.0,0.0,-0.004378731849298849,0.0041043044886398495,0.9935198536767945
2012-07-31,1,0.0015408050150219658,0.001558608959280989,-0.004369293922857455,0.0031471791703431475,0.9940241136147773
2012-08-02,1,0.0016141352354168814,0.0016415877420021298,-0.00500052632786227,0.0039963370960176695,0.9939538368368259
2012-08-06,1,0.0017390846247226296,0.0018004910707626882,-0.00500052632786227,0.0031471791703431475,0.994436834339486
2012-08-08,1,0.0011692152027192267,0.0011796801534019329,-0.003764133542394891,0.004720214299808782,0.9946934091445001
2012-08-10,1,0.0011499301042089318,0.0011705833422589887,-0.00500052632786227,0.004720214299808782,0.9942080683040176
2012-08-14,1,0.0009322637156486263,0.0009843994863401302,-0.004352513890549523,0.003331492154118531,0.9949120827206236
2012-08-16,1,0.0010628238959424145,0.0010697906141869825,-0.00500052632786227,0.004720214299808782,0.9937459656322623
2012-08-20,1,0.0013127998659757504,0.0013863395888521293,-0.004352513890549523,0.004930993890190374,0.9939681673692355
2012-08-22,1,0.0011447798945201525,0.0012031607493659705,-0.004115712925992571,0.0065550954193289565,0.9938423933546368
2012-08-24,0,0.0,0.0,-0.004115712925992571,0.0065550954193289565,0.9936884333901235
2012-08-28,0,0.0,0.0,-0.0035417812030557896,0.0065550954193289565,0.9938184651649125
2012-08-30,1,0.0005062686314417865,0.0005587785110731198,-0.0035417812030557896,0.0065550954193289565,0.9939487982617425
2012-09-04,1,0.0004076660206615323,0.00043703321990056073,-0.0013393450455903052,0.00752011744799049,0.9936281090034051
2012-09-06,1,0.0011228472778779263,0.0011853719657617732,-0.0013393450455903052,0.00752011744799049,0.9945672928557141
2012-09-10,1,0.0010751804167579366,0.0011690524900747213,-0.00040599031693068814,0.00752011744799049,0.994604840052087
2012-09-12,1,0.0010488308913136264,0.0011455557098210092,-0.0011980609984990976,0.00752011744799049,0.9943711785293959
2012-09-14,1,0.0006850977725428954,0.0007374452200315753,-0.0007096776159249684,0.006941077093574319,0.9953762669070529
2012-09-18,1,0.0012461738874124883,0.0014059713094308085,-0.0006993707431964654,0.007724837046102855,0.9948151025387758
2012-09-20,0,0.0,0.0,-0.0006993707431964654,0.007669375984730594,0.9947169394206873
2012-09-24,0,0.0,0.0,-0.003759257778053326,0.006941077093574319,0.9945647157987654
2012-09-26,0,0.0,0.0,-0.004480774337000282,0.006941077093574319,0.9937374530089407
2012-09-28,0,0.0,0.0,-0.005008258860856656,0.007669375984730594,0.9932814803280439
2012-10-02,0,0.0,0.0,-0.006415495988645691,0.006964587756075266,0.9920966261424331
2012-10-04,1,0.0017805115619453638,0.001958754935043831,-0.006415495988645691,0.005249369245508427,0.9921009744577605
2012-10-08,1,0.001869024910167264,0.0020657224851603835,-0.007959548884811193,0.0048950557044775194,0.9912968500746487
2012-10-10,1,0.001398789060664139,0.00152127385644189,-0.007959548884811193,0.0048950557044775194,0.9919252783491035
2012-10-12,1,0.0010708269433253623,0.001128455179799559,-0.007959548884811193,0.0048950557044775194,0.9918242160154165
2012-10-16,0,0.0,0.0,-0.01017253990287948,0.0013041041420046079,0.9924944955531486
2012-10-18,1,0.0018215171317605208,0.001948283778436402,-0.01017253990287948,0.0021074528610320444,0.9912414104567472
2012-10-22,1,0.0008899339189112444,0.0009120687029340756,-0.0077661799639449315,0.0048950557044775194,0.9922399681712754
2012-10-24,1,0.0001429609845989458,0.0002656573566986641,-0.006482031755548328,0.005416529719715407,0.9929877531046433
2012-10-26,1,0.0004371563199300361,0.0005017196500298227,-0.007174893185104099,0.005416529719715407,0.992519334665034
2012-11-01,-1,-0.0004893315753428973,-0.0003242089882406187,-0.002483930191312292,0.006954830146144554,0.9935605331790875
2012-11-05,0,0.0,0.0,-0.002483930191312292,0.006954830146144554,0.993326987214843
2012-11-07,0,0.0,0.0,-0.001843578712935005,0.0073202949165826646,0.9936872291203331
2012-11-09,0,0.0,0.0,-0.002483930191312292,0.0073202949165826646,0.9933420820338922
2012-11-13,0,0.0,0.0,-0.00273181176601142,0.007657420170957253,0.9928908159540405
2012-11-15,0,0.0,0.0,-0.00273181176601142,0.007657420170957253,0.9930535613239443
2012-11-19,0,0.0,0.0,-0.00273181176601142,0.0073202949165826646,0.993152118751728
2012-11-21,0,0.0,0.0,-0.0052698362614767,0.0073202949165826646,0.99286695806507
2012-11-26,0,0.0,0.0,-0.005881922065322085,0.007185487955605491,0.9926333633898222
2012-11-28,0,0.0,0.0,-0.0052698362614767,0.006917885009381871,0.9934606408778006
2012-11-30,0,0.0,0.0,-0.005881922065322085,0.006571805907062919,0.9932908869658583
2012-12-04,0,0.0,0.0,-0.005881922065322085,0.0072698015944618576,0.9918415067701124
2012-12-06,0,0.0,0.0,-0.005881922065322085,0.006571805907062919,0.9925708740923169
2012-12-10,0,0.0,0.0,-0.0052831384894873245,0.0072698015944618576,0.9920286685780525
2012-12-12,-1,-0.0002997562020647591,-0.00019752242713735202,-0.006205388678401357,0.0072698015944618576,0.9917451230003521
2012-12-14,1,0.0002834166207540908,0.0003421993673799401,-0.004093421223945552,0.0077991103356679185,0.9918435465568359
2012-12-18,1,0.0007107129174806887,0.0007503044982741153,-0.004093421223945552,0.007792076949567899,0.9923147292434454
2012-12-20,1,0.0007840989869994232,0.0008010170953130149,-0.004093421223945552,0.007792076949567899,0.9922274824239671
2012-12-24,0,0.0,0.0,-0.0027272426721207995,0.007792076949567899,0.9923956235917002
2012-12-27,0,0.0,0.0,-0.0028586743995640536,0.007792076949567899,0.992337966861489
2012-12-31,0,0.0,0.0,-0.0028586743995640536,0.008274607420414599,0.9912891975504513
2013-01-03,0,0.0,0.0,-0.004847263050222618,0.008274607420414599,0.9919883214596793
2013-01-07,0,0.0,0.0,-0.006159226558343458,0.008960734017818432,0.9908021696801047
2013-01-09,1,0.0015368963583135909,0.0016842976654495852,-0.007270073584783772,0.008274607420414599,0.9906581387147596
2013-01-11,1,0.0015107259444812166,0.0016591344689094963,-0.006871040670136646,0.008274607420414599,0.9910187518459179
2013-01-15,1,0.0014544160402029773,0.0015821525649420225,-0.006871040670136646,0.007695389359798792,0.9912382045629455
2013-01-17,1,0.0013403959436460717,0.001432108135928306,-0.006871040670136646,0.00775341839237109,0.9912817743399815
2013-01-22,1,0.0014036440262635633,0.001520545649688408,-0.006159226558343458,0.0087929223297105,0.9910731118115614
2013-01-24,1,0.0012134392357390118,0.001285619590448644,-0.006159226558343458,0.0087929223297105,0.9910322753421054
2013-01-28,1,0.0011369342302090788,0.0011975363292163828,-0.006871040670136646,0.0087929223297105,0.9902924494523501
2013-01-30,1,0.001753854725652505,0.001887800304889861,-0.006079182772934033,0.0087929223297105,0.9913482881924625
2013-02-01,1,0.0020798544448351283,0.00229949912946906,-0.0055960176343164735,0.0087929223297105,0.9918550878778573
2013-02-05,1,0.0016134710675940857,0.0017371521146878803,-0.005170981700263139,0.0087929223297105,0.9927504203524266
2013-02-07,1,0.000825803754148314,0.0008387264441564425,-0.0028642383613893376,0.0087929223297105,0.9934465768872376
2013-02-11,1,0.0009216451833411179,0.0009259120316674679,-0.003385468905986339,0.007434155846763274,0.9934192952654344
2013-02-13,1,0.0007947473111726685,0.0007961075104873119,-0.0018019477098284301,0.007434155846763274,0.9935294296535587
2013-02-15,1,0.0012667279980063666,0.001360626214784921,-0.0029228022076949033,0.005770453346481862,0.9938269825404109
2013-02-20,1,0.0016403936774749858,0.0018024639958249798,-0.002044871196378972,0.005770453346481862,0.9942547806054793
2013-02-22,1,0.0014486915532168285,0.0015868792232697137,-0.002044871196378972,0.007710527021240769,0.9939434705086764
2013-02-26,1,0.0008694708060396727,0.0009302493086972217,-0.002044871196378972,0.0098834080872386,0.9940117380964055
2013-02-28,1,0.001405116247064626,0.0015475222629482883,-0.002044871196378972,0.008162470576328067,0.9945672594741599
2013-03-04,1,0.0019491567620566318,0.002175488936576482,-0.002044871196378972,0.008162470576328067,0.9944443470045397
2013-03-06,1,0.002255967735011131,0.002522833385756661,-0.0029228022076949033,0.005921101198177628,0.9944689822824676
2013-03-08,1,0.0020687579408586176,0.0022941929381807566,-0.0023436489844452643,0.005279012714835466,0.994652881527241
2013-03-12,1,0.0017076999381148252,0.001868470066975893,-0.0018518201219624255,0.008162470576328067,0.9938285201132994
2013-03-14,1,0.0022544845268756396,0.0025261828668858236,-0.0018518201219624255,0.0098834080872386,0.992773096607435
2013-03-18,1,0.002331609823476316,0.002623511794616797,-0.0018518201219624255,0.011419310628049267,0.9919914043613868
2013-03-20,1,0.0021523226849094156,0.002377759647860222,-0.0032875088664440087,0.01058461095387472,0.9918093732068318
2013-03-22,1,0.0018895539652883447,0.0020253965785460024,-0.002743208010530014,0.01398331955190024,0.9916410356281266
2013-03-26,1,0.002066048044036019,0.002248126313285053,-0.002743208010530014,0.009141906667689036,0.9917845258042592
2013-03-28,1,0.0014990331765654028,0.001649150645448634,-0.005924036103398249,0.007017973261260873,0.9911671461667891
2013-04-02,1,0.0015904693618027212,0.0017640653634064898,-0.006925046206097456,0.0064620994747215344,0.9891107293350095
2013-04-04,1,0.0016832513574363216,0.001742967469230557,-0.0061792357213180035,0.01167524317568777,0.9886890352576448
2013-04-08,1,0.0015105602507931135,0.0015521548677684188,-0.008483026530890156,0.01167524317568777,0.9878442401395762
2013-04-10,1,0.002088825754386116,0.002180899718248439,-0.009386276106550262,0.010920241311693364,0.9881016720303741
2013-04-12,1,0.0022295678445860786,0.002301262986628321,-0.009386276106550262,0.006335705218019229,0.9887555684024713
2013-04-16,1,0.0022503622249737455,0.002399213038823808,-0.009386276106550262,0.006335705218019229,0.988855162315055
2013-04-18,1,0.002221521861012525,0.002321206957357775,-0.010372395711036174,0.006780129792526065,0.9888477377127691
2013-04-22,1,0.002745493397208006,0.0028938535259922693,-0.010372395711036174,0.004997799463864231,0.9885172880168809
2013-04-24,1,0.0021047860719129244,0.002187253582670794,-0.010019439960762051,0.006780129792526065,0.9888684296806813
2013-04-26,1,0.0018447868057268183,0.0019964678895699156,-0.009212008904806971,0.006780129792526065,0.9893302306179697
2013-04-30,1,0.00044313098568016056,0.0004699233978426008,-0.009212008904806971,0.004507396769359837,0.990915781623554
2013-05-02,1,0.0005177454003814197,0.0005198018093531271,-0.010019439960762051,0.003139530980587435,0.9899321956077651
2013-05-06,-1,-0.000657256449795237,-0.0005111035260666143,-0.009212008904806971,0.004507396769359837,0.9901010232307345
2013-05-08,-1,-0.0006047686677238928,-0.00046605122397314205,-0.0071251601559212995,0.004507396769359837,0.9896808681061259
2013-05-10,-1,-0.0008818894702284952,-0.0006853720188853674,-0.0071251601559212995,0.005362688363275407,0.9896595027309686
2013-05-14,1,3.762075759503283e-05,9.505826371835965e-05,-0.0071251601559212995,0.00425342008558641,0.9905609146216223
2013-05-16,-1,-0.0004308339918329539,-0.00030127204331057734,-0.00649037604646065,0.00425342008558641,0.9902480206829837
2013-05-20,-1,-0.001216750984866021,-0.0009558385994041038,-0.0026143311010023373,0.0060597374366300714,0.9904783238309166
2013-05-22,-1,-0.0009105914573213342,-0.0006911191822206053,-0.00649037604646065,0.00425342008558641,0.9904464297406471
2013-05-24,-1,-0.0010790939751276374,-0.0008406564160684212,-0.007431721432913771,0.00425342008558641,0.9892927281956942
2013-05-29,-1,-0.0012121074391923331,-0.000978890791264083,-0.006340595751430646,0.0060597374366300714,0.9896566909690242
2013-05-31,-1,-0.002479758960150345,-0.0020968528666051476,-0.0060956861315585,0.0060597374366300714,0.9906588085946936
2013-06-04,-1,-0.0018940161819175844,-0.0016033802881994224,-0.006340595751430646,0.004281527343468049,0.9915061345872266
2013-06-06,-1,-0.0011527587211260105,-0.0009383963392890768,-0.0060956861315585,0.004281527343468049,0.9923964672345421
2013-06-10,-1,-0.0010915669035174453,-0.0008886080788909689,-0.0060956861315585,0.006245503410509615,0.9921894048420788
2013-06-12,-1,-0.0008734014319733562,-0.0007005072208064039,-0.0060956861315585,0.007923232820997918,0.991591472671306
2013-06-14,-1,-0.00030433058782167145,-0.00019776225899375557,-0.0060956861315585,0.006245503410509615,0.9927299951634393
2013-06-18,-1,-0.0001584463411846732,-6.894981982866617e-05,-0.0060956861315585,0.004377581280404765,0.9930824207302983
2013-06-20,-1,-0.0010067393537930107,-0.0008184630449807591,-0.004373731657508507,0.006245503410509615,0.9929357542473823
2013-06-24,-1,-0.0014875123557945898,-0.0012689285077095718,-0.0020737113665567097,0.008100072439729426,0.9936248865662763
2013-06-26,-1,-0.0010407800989741922,-0.0008772721716777214,-0.0032605508553285494,0.006245503410509615,0.9942725452560771
2013-06-28,-1,-0.0015485149335471978,-0.0013150571475516958,-0.0029282713410151992,0.0065800886872687744,0.993914522011468
2013-07-02,-1,-0.002006472584818334,-0.0016800686322690618,-0.0021222242385028622,0.0065800886872687744,0.9932219830331375
2013-07-05,-1,-0.0015128978668530239,-0.0012549238180465283,-0.0032605508553285494,0.0065800886872687744,0.9934092912685961
2013-07-09,-1,-0.0012070860738669165,-0.0009707483152949282,-0.003891936114560781,0.005882812573316538,0.9937446606915962
2013-07-11,-1,-0.0008074931982834001,-0.0006349562731636787,-0.00418980772273507,0.005301119623130219,0.9943490807843739
2013-07-15,-1,-0.0006354859459322554,-0.0004898730611153179,-0.00418980772273507,0.005301119623130219,0.9942720814113835
2013-07-17,-1,-0.0009410726421183882,-0.0007570180143865227,-0.004521873363377998,0.005301119623130219,0.9939231014377828
2013-07-19,-1,-0.0005543006267852917,-0.00039127888829873384,-0.005101139569801562,0.004585269531175343,0.9942139459260633
2013-07-23,1,0.00015557927784564497,0.00024834925222821355,-0.005101139569801562,0.003479445750593989,0.9943923549758956
2013-07-25,0,-1.4969154965164058e-05,4.355852091589293e-05,-0.006577241105044163,0.003479445750593989,0.9941379641284688
2013-07-29,1,0.00010859361775531914,0.00013438549881553707,-0.007991991174196423,0.002852807899535451,0.9938151166578892
2013-07-31,-1,-0.00038027926938223545,-0.00029845876695627977,-0.006577241105044163,0.002852807899535451,0.9944786030837115
2013-08-02,-1,-0.00021095483092378918,-0.0001314413823081166,-0.006577241105044163,0.002852807899535451,0.9947025179124699
2013-08-06,-1,-0.00028883164921609725,-0.00021182041253552065,-0.007297948858874359,0.002852807899535451,0.9942879427805924
2013-08-08,-1,-0.00041080147977171213,-0.00030962189727611224,-0.007297948858874359,0.002852807899535451,0.9944504099225615
2013-08-12,-1,-0.0003307664603251799,-0.0002501238989067412,-0.007297948858874359,0.0033578995373143017,0.9942772523911995
2013-08-14,-1,-0.0004899450634632967,-0.0003911570585624819,-0.007297948858874359,0.004261032582085787,0.9938247635002213
2013-08-16,-1,-0.0011903904707527258,-0.000991631956785486,-0.0036184860452181736,0.006547805812957758,0.9940479866632569
2013-08-20,-1,-0.0007141894889506494,-0.0006056803923395208,-0.0036184860452181736,0.007027444760964872,0.9936653813620775
2013-08-22,-1,-0.0008617240411393908,-0.000753320649233754,-0.0036184860452181736,0.007027444760964872,0.9936363897835061
2013-08-26,-1,-0.0010980545400192429,-0.0009512891011975663,-0.0036184860452181736,0.007027444760964872,0.9941244359212918
2013-08-28,-1,-0.0004986703670414829,-0.00043929877052098824,-0.004391538909141312,0.005729026438734094,0.9941425593617036
2013-08-30,-1,-0.0002588398801898214,-0.0002450703639083137,-0.005362469327427235,0.007027444760964872,0.9936464821836496
2013-09-04,1,0.00017896887668078287,0.0002840188439206095,-0.003942129517980148,0.0059305661368589556,0.9942672790322692
2013-09-06,1,0.0002975157021271695,0.00044200490931769484,-0.005362469327427235,0.007027444760964872,0.9937022743155032
2013-09-10,1,0.00022611338495767382,0.0003343309062550112,-0.0070809618799910065,0.007027444760964872,0.9926087362787639
2013-09-12,1,0.00024146956946893817,0.0003753183256679956,-0.006122882703704058,0.007027444760964872,0.9927281866100307
2013-09-16,1,0.0005030211919423426,0.0006572022028119571,-0.006122882703704058,0.00617540860685053,0.9922365212835845
2013-09-18,1,0.0012950296091412642,0.0016267802316126533,-0.0065769461259472285,0.00617540860685053,0.9916953994098615
2013-09-20,1,0.0006574908780865418,0.0007473038931886517,-0.006019522864831007,0.009351979800190388,0.9910760128777317
2013-09-24,1,0.0005083031817102535,0.0005894456510639445,-0.005513823801508292,0.010063535552331767,0.9909214368308041
2013-09-26,-1,-0.0001279604101821961,-7.993944184765756e-05,-0.004002509006260562,0.010063535552331767,0.9910606634009763
2013-09-30,1,0.00011344133469535281,0.00013298670188511,-0.002857008307479634,0.008498934627330507,0.991758051666583
2013-10-02,1,0.0004971375114391308,0.000510365186039551,-0.0043224298347825235,0.010766921520395782,0.9909224427982343
2013-10-04,1,0.0009446202259666401,0.0010747700633782018,-0.0043224298347825235,0.015487230706111786,0.9906327865723257
2013-10-08,-1,-7.123322214752382e-05,-5.9654161963550985e-05,-0.001955310867085991,0.015487230706111786,0.9916420700899787
2013-10-10,1,0.0004941684347171592,0.0005244337146984653,-0.002857008307479634,0.010766921520395782,0.9920547462193942
2013-10-14,1,0.0012803354606174824,0.0013509419196987879,-0.002857008307479634,0.01022394592388905,0.9923827304087446
2013-10-16,1,0.0017007061573678934,0.0018210095070908463,-0.00256758927360696,0.01022394592388905,0.9929486765465398
2013-10-18,1,0.0020164526766919513,0.0021249618616865262,-0.00256758927360696,0.006990151454319818,0.9936020366741757
2013-10-22,1,0.0012584947433932417,0.0013445470445026587,-0.003430817265840639,0.004923596102123166,0.9932631643316665
2013-10-24,1,0.0013881071814796347,0.0014250407534255806,-0.0033908546908143003,0.00674059258213288,0.9931352411163346
2013-10-28,1,0.0017240481636847638,0.0017596150528532565,-0.0033908546908143003,0.00674059258213288,0.9931592528487204
2013-10-30,1,0.0021077024407630605,0.002241061246726269,-0.0033908546908143003,0.005081431737573135,0.9939195993128334
2013-11-01,1,0.0024453626884949464,0.0026323337424111254,-0.00309198672652478,0.004534060521557835,0.9946794968087532
2013-11-05,1,0.0026609665997816678,0.0029645926116714364,-0.005004009624594099,0.004534060521557835,0.9937360580546856
2013-11-07,1,0.002414922554177635,0.0027056361434237867,-0.00309198672652478,0.005081431737573135,0.9940695725316397
2013-11-11,1,0.002134140969990546,0.002361655265105389,-0.005004009624594099,0.004534060521557835,0.9943110195512036
2013-11-13,1,0.0022707549430993706,0.0024656485349157497,-0.007644456860770062,0.003383468036828712,0.9930520561873969
2013-11-15,1,0.0025871129927259495,0.0028274963241523158,-0.007644456860770062,0.0015751905166244305,0.9928885391525504
2013-11-19,1,0.00189037274605944,0.0020713857677674484,-0.005428801390425602,0.001989087374195747,0.9931244247674341
2013-11-21,1,0.0017845340189913863,0.0018823398842838519,-0.007644456860770062,0.00135156426777775,0.992471653718749
2013-11-25,1,0.002017591112921614,0.0021824434679420164,-0.007644456860770062,0.00135156426777775,0.9922766203544761
2013-11-27,1,0.0018907390073216713,0.0020523897308957783,-0.005428801390425602,0.0029974237613195264,0.9925873023557117
2013-12-02,1,0.0021025268860686286,0.0023201388499843037,-0.004627219684952663,0.0019603802310096496,0.9926602820462909
2013-12-04,1,0.0014871138327253318,0.0015993315013803967,-0.004114793608666897,0.0022138238013475727,0.993596787757943
2013-12-06,1,0.001595948546869316,0.0017114487631193329,-0.004114793608666897,0.0022138238013475727,0.9937904739734246
2013-12-10,1,0.001591900338548521,0.0017395289448859476,-0.002391812345888647,0.003035972397118471,0.9939130512798007
2013-12-12,1,0.00021465964268575113,0.00021811756395086592,-0.002391812345888647,0.003035972397118471,0.9951679326121738
2013-12-16,1,7.825705144235356e-05,0.00011119515815299615,-0.002391812345888647,0.0059096722849248705,0.9941815624688091
2013-12-18,1,0.0007831159644554142,0.0008871823291640884,-0.002124360923658962,0.003930969445552101,0.9952806031973013
2013-12-20,-1,-0.0003186160462427036,-0.00026588883523831995,-0.0019605347628255335,0.0048288695798662205,0.9957470535664595
2013-12-24,-1,-0.00012880967252324897,-0.00010989136023750059,-0.0031468159679073683,0.0048288695798662205,0.9941579617461561
2013-12-27,1,0.0006668474361100983,0.000716238984572863,-0.005053206153434185,0.0048288695798662205,0.9927849136459223
2013-12-31,1,0.0003435713820603572,0.0003526718365556181,-0.006102413882683472,0.0059096722849248705,0.9912787965259188
2014-01-03,1,7.193273254782394e-05,8.116186171122408e-05,-0.007898255602690545,0.006309209028479581,0.9906559383036813
2014-01-07,1,0.0003436663119105144,0.00036748995074472197,-0.008783733367936038,0.006642069370086721,0.9884069791667577
2014-01-09,1,0.0001426126913682858,0.00018919640622869487,-0.008783733367936038,0.008014602420348684,0.9879143705580334
2014-01-13,0,-6.646589972231632e-05,2.4383318582147805e-05,-0.008783733367936038,0.012498302896214758,0.9875219193016592
2014-01-15,1,6.377112133115547e-05,0.00015728087138846858,-0.00889960842585346,0.009086189504462045,0.9880055558867382
2014-01-17,-1,-0.0003391039229992906,-0.000201594049262732,-0.00889960842585346,0.009086189504462045,0.9876420955865052
2014-01-22,-1,-0.00014251712373721589,-3.070719435470089e-05,-0.010779796292073918,0.009086189504462045,0.9872373066472032
2014-01-24,-1,-0.0018851063892016415,-0.0015651783372021399,-0.00889960842585346,0.012498302896214758,0.9879016578165526
2014-01-28,-1,-0.0017086143775640172,-0.0014254733232349627,-0.00446180763952517,0.009086189504462045,0.9895593094536768
2014-01-30,-1,-0.0014551605245749183,-0.001196681640650577,-0.003275318771403129,0.007680137411866475,0.9906994917755628
2014-02-03,-1,-0.0008982698349198818,-0.0006931564127457488,-0.003275318771403129,0.009086189504462045,0.9904805767057944
2014-02-05,-1,-0.0009238992581836145,-0.0007040809004724584,-0.003275318771403129,0.007680137411866475,0.9925432770638396
2014-02-07,-1,-0.0002540210959010417,-0.00012381763958979055,-0.003275318771403129,0.007519520579882581,0.9934686067353569
2014-02-11,1,0.0002811731855767753,0.0003300307321170812,-0.0038046030693730183,0.002919329517574616,0.9937186412771379
2014-02-13,1,0.00012181032966818151,0.0002038436491995228,-0.0038046030693730183,0.0032355094137046002,0.9928071115898852
2014-02-18,1,7.172411757174645e-05,0.00016834063275274696,-0.0038046030693730183,0.004171969133980568,0.9921974359700787
2014-02-20,-1,-0.00030423318994541703,-0.00015280079084154842,-0.0038046030693730183,0.0061397623038617335,0.9923032949278376
2014-02-24,0,-1.590301034370235e-05,7.986896398221884e-05,-0.004758948487074787,0.0061397623038617335,0.9917723649837175
2014-02-26,1,0.00010405146720686992,0.00017802355718031355,-0.004758948487074787,0.007742103473890729,0.9910113101933175
2014-02-28,1,9.24777494832818e-05,0.00017164485932522874,-0.006862725094583176,0.0068457181400070274,0.9910931491134515
2014-03-04,1,8.268945073225967e-05,0.00019749589538825248,-0.006862725094583176,0.006612448506724855,0.9917715853159648
2014-03-06,0,-0.0001105004186646621,4.693182051164512e-06,-0.005682859036222815,0.007761471065861175,0.991600869363556
2014-03-10,1,9.315040217642477e-06,8.830673790011188e-05,-0.007019449052536514,0.007761471065861175,0.9898696840838401
2014-03-12,-1,-0.0003685220097331665,-0.00030419098055253286,-0.007019449052536514,0.00896584111044711,0.9894454069011736
2014-03-14,-1,-0.0009171223374127495,-0.0008077620058587346,-0.008199766296390118,0.00896584111044711,0.9888204872659534
2014-03-18,-1,-0.0003511055889454602,-0.00030916027154087437,-0.008199766296390118,0.007761471065861175,0.9898286892511712
2014-03-20,-1,-0.0006285410120382866,-0.0005659400443004598,-0.008199766296390118,0.007761471065861175,0.9898387396958375
2014-03-24,-1,-0.000859579685673374,-0.0007750321900876623,-0.006992034894342453,0.00826603221060059,0.9900018298349618
2014-03-26,-1,-0.0004332839224271614,-0.0004109000723858811,-0.006992034894342453,0.005660813896400085,0.9907409517327076
2014-03-28,-1,-0.0005136745809907121,-0.0004904644552358106,-0.0069456517411107055,0.00690043133130526,0.9889810165651118
2014-04-01,-1,-0.00018813098563098148,-0.00018053511443062245,-0.009198514076188779,0.005660813896400085,0.9885143314455429
2014-04-03,-1,-2.7900935303425503e-05,-1.1291821008196348e-05,-0.011142957762992655,0.004731814055324428,0.9883947878467793
2014-04-07,-1,-0.0009210165710664658,-0.0008455937086123966,-0.01340911969920542,0.004731814055324428,0.9882100426768768
2014-04-09,-1,-0.0006241080078253538,-0.0006116180494462864,-0.014226858007269177,0.004694685515091926,0.9883053530424541
2014-04-11,-1,-0.0016067184822492974,-0.0014922922105418525,-0.009764542009063999,0.004694685515091926,0.990064124554373
2014-04-15,-1,-0.0017078772346204702,-0.0015656627117829505,-0.009764542009063999,0.004694685515091926,0.9900017785852514
2014-04-17,-1,-0.0012161080607720738,-0.0011455642093307487,-0.009764542009063999,0.0026634549802037463,0.990455282275772
2014-04-22,-1,-0.0005805616221679287,-0.0005661243071454345,-0.009764542009063999,0.002149245503681734,0.9912566668361041
2014-04-24,-1,-0.000849060081467106,-0.0008237511316755398,-0.009764542009063999,0.0031438806555395037,0.9909495449925145
2014-04-28,-1,-0.00027716993091734296,-0.00023028306244048154,-0.009764542009063999,0.0031438806555395037,0.992572720606737
2014-04-30,-1,-0.0009718965018005978,-0.0009089463656212322,-0.005032496834728854,0.0031438806555395037,0.993724972578825
2014-05-02,-1,-0.0012181279496592087,-0.0011373260315733682,-0.003768375683727692,0.0031438806555395037,0.9941387913982703
2014-05-06,-1,-0.002446132883179496,-0.0022182470658771215,-0.0018870934407271868,0.0031438806555395037,0.9953841960989008
2014-05-08,-1,-0.0029857515104556465,-0.0026477462217714587,-0.0018870934407271868,0.0031438806555395037,0.9953668885907168
2014-05-12,-1,-0.0029738348510473323,-0.0026409369361055876,-0.0016257421488252378,0.003294839029504218,0.9953453807650293
2014-05-14,-1,-0.0026399090486747103,-0.0023677496017487547,-0.0016241460847579185,0.003294839029504218,0.9956116792343089
2014-05-16,-1,-0.002751151401411795,-0.0024498043720358113,-0.001361674762886818,0.003294839029504218,0.995317767048894
2014-05-20,-1,-0.0025411546701497915,-0.0022690977481772344,-0.00237448515876119,0.003294839029504218,0.9953196381965057
2014-05-22,-1,-0.001982931883841025,-0.0017910075832795241,-0.0027942289728551174,0.003049536515164371,0.9958927989100225
2014-05-27,-1,-0.001958394677814911,-0.0017738436733974938,-0.0040390958385310245,0.0027109556296636013,0.9957693320849113
2014-05-29,-1,-0.0019761798755636114,-0.001790446234260665,-0.004126932466907675,0.003049536515164371,0.9947450575270245
2014-06-02,-1,-0.0016942346482301388,-0.0015517247965416558,-0.004126932466907675,0.003049536515164371,0.9947818236055043
2014-06-04,-1,-0.0015542666485173907,-0.0014390842002714476,-0.004126932466907675,0.005438317269664461,0.993770945640358
2014-06-06,-1,-0.0018020885758312,-0.001643148340143733,-0.0027942289728551174,0.005556522385861687,0.9941426448791996
2014-06-10,-1,-0.001356981403852664,-0.0012776128076633674,-0.004126932466907675,0.005556522385861687,0.9940126021743401
2014-06-12,-1,-0.0013110310339424227,-0.00123755680227799,-0.004126932466907675,0.005556522385861687,0.9939690911977194
2014-06-16,-1,-0.0009785915824625797,-0.0009542785482805694,-0.004126932466907675,0.005845397566004215,0.9936853208985037
2014-06-18,-1,-0.0013525136282807717,-0.0012237040035292033,-0.004302665864446139,0.005845397566004215,0.9927633903005469
2014-06-20,-1,-0.0012231233753764584,-0.0011065740258271184,-0.005581782678799564,0.005713125084712385,0.992385130741964
2014-06-24,-1,-0.0014235532767905641,-0.0012979654340694374,-0.0032890304380759996,0.005713125084712385,0.9926341480635319
2014-06-26,-1,-0.001221695782145039,-0.0011159962469580705,-0.0032890304380759996,0.005629616676250082,0.993651441348069
2014-06-30,-1,-0.0011639060105126026,-0.0010677407100712537,-0.003723568889691087,0.005629616676250082,0.9932683596967523
2014-07-02,-1,-0.0001358694194258609,-7.606467356779907e-05,-0.01143652928028234,0.004776732934139148,0.9925853864318083
2014-07-07,1,0.0002990477093384804,0.0004592193311897093,-0.01143652928028234,0.00485337153056459,0.992351098943675
2014-07-09,-1,-0.00012660433473614543,-2.6950459549888843e-05,-0.011942699213448836,0.00485337153056459,0.99236202143078
2014-07-11,1,6.139045457505954e-05,0.00019730046973016988,-0.011942699213448836,0.005586581734280588,0.9915709979763496
2014-07-15,1,0.00027755725877886054,0.0004209431826674685,-0.011942699213448836,-8.072502461903231e-05,0.9915314426577947
2014-07-17,1,0.0007154236665931425,0.0009384571284217611,-0.009321433653151948,0.004617065180049746,0.9918256486624119
2014-07-21,1,0.0006132923647747528,0.0008261075823925714,-0.006634929221185907,0.004617065180049746,0.9922640650129021
2014-07-23,1,0.0007854480529065673,0.0010304068689063175,-0.006634929221185907,0.0037579871302011003,0.9923367260661068
2014-07-25,1,0.0009142775157016241,0.0012016504478988702,-0.006634929221185907,0.003759739414636083,0.9924450066537784
2014-07-29,1,0.00042509219514411047,0.0006382026418241649,-0.004936295876069447,0.004865971776895675,0.9928476553143851
2014-07-31,-1,-0.000625338884015674,-0.000545826621668313,-0.0037504368191069353,0.00592697131469085,0.9939891461400865
2014-08-04,-1,-0.0006545918065598344,-0.0005953954132857181,-0.003903369962788217,0.005218052263146317,0.9942069995739199
2014-08-06,-1,-0.0015795601249690874,-0.0014677827951420557,-0.003143379223586486,0.005334279998090543,0.9945555239005437
2014-08-08,-1,-0.000938744954203045,-0.0009353544903986437,-0.003143379223586486,0.005334279998090543,0.9946695735966855
2014-08-12,-1,-0.001120623151311144,-0.0011071326937767152,-0.0026003376760729982,0.0070334981068077085,0.9943507251248309
2014-08-14,-1,-0.0005240254560405814,-0.00046264657351569353,-0.003281958296455885,0.0065861504177215065,0.9950445740360324
2014-08-18,1,8.027598585413703e-05,0.00026789748819776164,-0.002749711694060278,0.006636435751086439,0.9946031865645287
2014-08-20,1,9.931893546902124e-05,0.00027386351413516614,-0.002749711694060278,0.008067072653251687,0.9940021106285447
2014-08-22,1,0.0002902286914721135,0.0004982018969795676,-0.004762997423225523,0.008067072653251687,0.9936628018557564
2014-08-26,1,0.0009807757132468259,0.001311550405956354,-0.004762997423225523,0.007846758687992767,0.9936161807093071
2014-08-28,1,0.0006605844824583336,0.0009420112556079707,-0.006102129834439127,0.007282825711297739,0.9932019084942223
2014-09-02,1,0.0006605328997786005,0.0009498858834583415,-0.00672608219487442,0.007282825711297739,0.9930735904573148
2014-09-04,0,-4.2410941765035255e-05,5.612473357862477e-05,-0.006871628789056843,0.007282825711297739,0.9924074331806657
2014-09-08,1,0.00011555557423128599,0.00023951542653333712,-0.00672608219487442,0.006636435751086439,0.9929332355625758
2014-09-10,1,0.00040011711613234936,0.0005849323269007193,-0.006871628789056843,0.006734907355481671,0.991921264811889
2014-09-12,1,0.000873513594355273,0.0011699040298892836,-0.0075957471525563754,0.006023931465102677,0.9916854000859545
2014-09-16,1,0.0014224641205732888,0.0017655060609054135,-0.009226211563747587,0.004998407587482349,0.991222759627143
2014-09-18,1,0.0030092704135473557,0.0035707600399184913,-0.01142239365793301,0.00015716538873397125,0.9894923080213793
2014-09-22,1,0.0019263704319703225,0.0022914822421791336,-0.01142239365793301,0.003868190126092379,0.9908105112392951
2014-09-24,1,0.0017428637088404615,0.002046378070966231,-0.01142239365793301,0.003868190126092379,0.9909236904485574
2014-09-26,1,0.00010564147805596764,0.0001162024595483756,-0.010372001354941898,0.004998407587482349,0.9908712768852563
2014-09-30,-1,-0.0005000875256039146,-0.0004286537771964811,-0.010372001354941898,0.004998407587482349,0.9910673083835522
2014-10-02,-1,-0.0012944766017578832,-0.001127576958433559,-0.004432884306206692,0.010917625402510095,0.9903895101693272
2014-10-06,-1,-0.0010384423123793764,-0.0008936265048065811,-0.004432884306206692,0.010917625402510095,0.9901314552145657
2014-10-08,-1,-0.0007021274591451867,-0.0005987159006088628,-0.00404263754793905,0.008660218647850946,0.9913472212990363
2014-10-10,-1,-0.0008773518544085362,-0.0007605083434180713,-0.0030598205947078333,0.008660218647850946,0.9919805099361279
2014-10-14,-1,-0.0014959809515042812,-0.0013353133806478159,-0.0006870464550723345,0.009668914727806618,0.9920594489406137
2014-10-16,-1,-0.002644660941793713,-0.0023482953447866006,0.0005304347677730108,0.009668914727806618,0.9922119850608159
2014-10-20,-1,-0.0022252726928062303,-0.0019797367546574634,-0.0001648065781363432,0.009668914727806618,0.9930051049380613
2014-10-22,-1,-0.0016314569476233397,-0.0014697456614807469,-0.001151879345102534,0.009018326072254943,0.9934380076619611
2014-10-24,-1,-0.000525420571913695,-0.0004897783815883141,-0.001151879345102534,0.004983468591953675,0.9952805209390111
2014-10-28,-1,-0.0006688795705515527,-0.0006023582039857464,-0.001151879345102534,0.008078214739850575,0.994697511993152
2014-10-30,1,0.0003554194693177329,0.0004213031368087005,-0.001151879345102534,0.004983468591953675,0.9951527633102863
2014-11-03,1,0.0006888695799603796,0.000797522731119457,-0.001151879345102534,0.005048291947480618,0.9950884829779822
2014-11-05,1,0.0005363081083814444,0.0006407844139536212,-0.0011243543408809107,0.006344389859689232,0.9952192935459928
2014-11-07,1,0.00044000051314162285,0.0005418613769581804,-0.0006337248400918343,0.0084307623379976,0.9949325823892563
2014-11-11,1,0.000981936323384015,0.0011596254382665,-0.0011243543408809107,0.006344389859689232,0.9953067092341096
2014-11-13,1,0.0007565095466928476,0.0008670223094767855,-0.0026766132236357497,0.006344389859689232,0.9939587724607225
2014-11-17,1,0.0011163845594985558,0.0012672538807912657,-0.0034068551449879404,0.006344389859689232,0.9936186349219019
2014-11-19,1,0.0013144430398778404,0.0014968792153453635,-0.002839691506997442,0.008683730709661107,0.9923444726998545
2014-11-21,1,0.0013756561537301311,0.0016461532284685625,-0.002839691506997442,0.008683730709661107,0.9922358781411285
2014-11-25,1,0.0014893823525774686,0.0017890939048930037,-0.002839691506997442,0.006755435762918935,0.9918308102865793
2014-11-28,1,0.0018675504381624906,0.002182153292526804,-0.003720156148869117,0.006106260013484153,0.9919361489030416
2014-12-02,1,0.0022849298188679914,0.002655757442644051,-0.006265397392261951,0.004947680772389109,0.9916526821057929
2014-12-04,1,0.002552085109804034,0.0029782865304205323,-0.006265397392261951,0.00496689979590775,0.9914141535149145
2014-12-08,1,0.003010084359989042,0.0035048739148183477,-0.006265397392261951,0.006163917084040075,0.9910333023345925
2014-12-10,1,0.002767313863557384,0.0032252696145341673,-0.006265397392261951,0.007576147887254498,0.9906407966208102
2014-12-12,1,0.0016226421671433388,0.0019312792477668866,-0.005608793252335148,0.007576147887254498,0.9915951987518673
2014-12-16,1,0.0011707989068903291,0.0014089481806317545,-0.0032038174705985127,0.007576147887254498,0.9919440220272467
2014-12-18,1,0.0020838490309760677,0.0024076395007116376,-0.0032038174705985127,0.007576147887254498,0.9929977401818989
2014-12-22,1,0.0012900152961802139,0.0014249616477841278,-0.005901992211509401,0.007576147887254498,0.9922361798677167
2014-12-24,1,0.0003928379096391724,0.00040958521602498893,-0.005901992211509401,0.008544655520952137,0.9920898589974825
2014-12-29,0,-7.030621444518238e-05,5.379794125461777e-06,-0.006405588872185225,0.008544655520952137,0.9915217116315329
2014-12-31,-1,-0.00039486734024594137,-0.0002830483532597517,-0.007090746954368954,0.008544655520952137,0.990806224940564
2015-01-05,-1,-0.0006268334009928629,-0.00046843282368638355,-0.007090746954368954,0.01101198617539445,0.9901017229417169
2015-01-07,1,0.0005378760814002356,0.0005583509184448872,-0.007090746954368954,0.01101198617539445,0.989845443231545
2015-01-09,1,0.0005705497817392065,0.0006314044459938769,-0.007090746954368954,0.009556217137300404,0.990629376743371
2015-01-13,1,0.00026317482638374347,0.0002869598382780981,-0.004341289962059023,0.01101198617539445,0.9895346109205652
2015-01-15,1,0.00023755821796505626,0.0002582752293283067,-0.006222177808921703,0.011854197051627323,0.9885006171967536
2015-01-20,1,0.001023390619794948,0.0011661222910338978,-0.006222177808921703,0.01101198617539445,0.9893401696676772
2015-01-22,1,0.000855237826995057,0.0009804260446396288,-0.004341289962059023,0.01101198617539445,0.9899538446990896
2015-01-26,1,0.000877357983974368,0.0009964115125176245,-0.004046656330326432,0.007014747249815725,0.9906125726286976
2015-01-28,-1,-0.00011673538801660448,-0.00011171717084584717,-0.0029226383541648654,0.009911497853804484,0.9913679733807808
2015-01-30,-1,-0.000948607821296336,-0.0008505625053313254,-0.0022455196388998983,0.011967777428253109,0.9913792647387357
2015-02-03,-1,-0.00010492080054349241,-0.0001039739251337035,-0.0029226383541648654,0.006421791489329904,0.9922116057544591
2015-02-05,1,0.00033620624695685864,0.0003949893015071647,-0.0049105435364799185,0.004633448432861814,0.9927019948151347
2015-02-09,1,0.0007602234238654054,0.000912987683225692,-0.0051991963171810875,0.0032859614390243156,0.9926243395830473
2015-02-11,1,0.0017443841292459183,0.0020551975043611426,-0.0051991963171810875,0.002825903058584721,0.9932666218225882
2015-02-13,1,0.0018000570658389715,0.002087413255438224,-0.0049105435364799185,0.002825903058584721,0.99381931612492
2015-02-18,1,0.0015593292681859684,0.0018178694155748041,-0.0051991963171810875,0.0048058370018014985,0.9936204976170245
2015-02-20,1,0.0012497993838937761,0.0014246162186123076,-0.006202176507174892,0.003732603181899057,0.9934887439072093
2015-02-24,1,0.0009468156783532327,0.0010702727224655437,-0.006854076761071979,0.006938957196148958,0.9920471095986465
2015-02-26,1,0.0007799269706491587,0.0008422052078209093,-0.006854076761071979,0.003732603181899057,0.9919978554635982
2015-03-02,1,0.000987826370444329,0.001081572420578626,-0.006452322117185333,0.007317167622914702,0.9918993261063986
2015-03-04,1,0.0009993363604655634,0.0011079209547302897,-0.006854076761071979,0.007317167622914702,0.9912654992718287
2015-03-06,1,0.00013931847348171755,0.0001526873168732196,-0.006452322117185333,0.007317167622914702,0.9921656881571055
2015-03-10,-1,-0.0007459251246201376,-0.0005799980411601668,-0.0060932947957318215,0.007317167622914702,0.9923311702359604
2015-03-12,-1,-0.0013172002245347618,-0.00102838368216066,-0.0060932947957318215,0.010938195496708027,0.9917989516554586
2015-03-16,-1,-0.0008355294268042387,-0.0006103614109128368,-0.006452322117185333,0.007317167622914702,0.9921200402018354
2015-03-18,-1,-0.0007572366961579525,-0.0005552895140629967,-0.0060932947957318215,0.006561648900431026,0.9925104790388448
2015-03-20,-1,-0.00045263084437073125,-0.000321854302172727,-0.0046969340178216685,0.006561648900431026,0.992772795067004
2015-03-24,-1,-0.0004931194812720876,-0.00035486154766994633,-0.004126877601667804,0.003466071445341674,0.9944503354048033
2015-03-26,-1,-0.0005391827080690598,-0.0004348126904054404,-0.0027658276132898675,0.006561648900431026,0.9941664688319283
2015-03-30,1,0.0003485973931221218,0.0003654319086263801,-0.0036363700697638695,0.0028986093785145673,0.994232228003574
2015-04-01,-1,-0.0005458128857139126,-0.00044830577033837,-0.0036363700697638695,0.0028986093785145673,0.9945170988686579
2015-04-06,-1,-0.0005066938034820237,-0.0004051669143610885,-0.0036363700697638695,0.004600249043464772,0.9941642102730913
2015-04-08,-1,-0.0001205936480078989,-8.423026580964521e-05,-0.00558963810687513,0.004600249043464772,0.9931007550985348
2015-04-10,1,0.0005742416565296973,0.0006229602616823511,-0.00558963810687513,0.00379498427512636,0.9932085516264494
2015-04-14,1,0.0001331020304935784,0.0001491627891556712,-0.005352909823479062,0.00379498427512636,0.993551646896817
2015-04-16,1,0.0002737852676192303,0.0002748652704923166,-0.00558963810687513,0.00379498427512636,0.9928184947828005
2015-04-20,1,5.18375629726834e-05,7.950925805604367e-05,-0.00558963810687513,0.00379498427512636,0.9930651663529377
2015-04-22,-1,-7.035633313329061e-05,-2.7680750811823093e-05,-0.00558963810687513,0.005007816965951494,0.9928532029352003
2015-04-24,1,0.0005047258289429438,0.0005655248121592905,-0.00558963810687513,0.00379498427512636,0.9933363895626316
2015-04-28,-1,-0.00014437145827952806,-0.00013844375619713267,-0.005352909823479062,0.00470818499326396,0.9939500021491804
2015-04-30,-1,-0.0006521081158694847,-0.000593055561444954,-0.0029859911138845397,0.0058697797056651065,0.9939639541893095
2015-05-04,-1,-0.00011725355870562962,-9.76280340037728e-05,-0.005044449567568894,0.004453771470581257,0.9942979043026148
2015-05-06,-1,-0.0011837273535927027,-0.00107386245795965,-0.0029813364308172914,0.004453771470581257,0.9951478634489695
2015-05-08,-1,-0.0015006395809180877,-0.0013056447774739944,-0.004520755863023366,0.0029935000329912222,0.9958927855316869
2015-05-12,-1,-0.0019332627903161513,-0.0016720301331987599,-0.0035152316858644214,0.004453771470581257,0.9954783316148115
2015-05-14,-1,-0.0012731394564948647,-0.0011444053437098243,-0.0035152316858644214,0.004154209765497364,0.9958654103326188
2015-05-18,-1,-0.0010948687777182664,-0.0009946378747045567,-0.004520755863023366,0.004154209765497364,0.9957831430800481
2015-05-20,-1,-0.0012932841726400626,-0.0011220239738962733,-0.004520755863023366,0.004154209765497364,0.9957486596513455
2015-05-22,-1,-0.001288809510094584,-0.0011199394396305257,-0.004945161664007585,0.004154209765497364,0.9954867102174161
2015-05-27,-1,-0.0014366632323767688,-0.0012388984218488794,-0.004947698494836604,0.004154209765497364,0.9953744073631148
2015-05-29,-1,-0.0010376905285379415,-0.0008853308888629923,-0.0050938450870428005,0.0016129446185506886,0.9956965327498888
2015-06-02,-1,-0.0009024588922900756,-0.0007997459114189592,-0.0051089576172629325,0.0016129446185506886,0.9954408127324693
2015-06-04,-1,-0.0008503207823532696,-0.000773441883513569,-0.005679755895233608,0.003945454111006068,0.9949913266098936
2015-06-08,-1,-0.00120137902663918,-0.0010671665423808252,-0.005679755895233608,0.004471897569322793,0.9944579056957058
2015-06-10,-1,-0.000878313848562634,-0.0007835012244980086,-0.006414928484510604,0.004471897569322793,0.9939518183671278
2015-06-12,-1,-0.000594042823219172,-0.0005573652019631651,-0.005679755895233608,0.0070226741941955655,0.9930005618578991
2015-06-16,-1,-0.0008453793949752719,-0.0007697854834433382,-0.005679755895233608,0.008469513589072884,0.9927797887778322
2015-06-18,-1,-0.0004658379709884826,-0.00044893166164165034,-0.005679755895233608,0.006020075641640879,0.9931565710001495
2015-06-22,-1,-0.0010638837098731388,-0.0009267312164536631,-0.00423077011843592,0.006020075641640879,0.9933394862611067
2015-06-24,-1,-0.0016308137971982098,-0.0013938256310906507,-0.00423077011843592,0.005502289549748443,0.9936922937733362
2015-06-26,-1,-0.001524893975166022,-0.0013333676221400658,-0.004546752330164063,0.005502289549748443,0.9931154829855386
2015-06-30,-1,-0.0016290884478180117,-0.0014086851597238607,-0.003049293352001772,0.011763042275777217,0.9913748295707709
2015-07-02,-1,-0.001735128735921129,-0.0015047522626104866,-0.0028547025779195874,0.011763042275777217,0.9914833799605735
2015-07-07,-1,-0.0007982095483193515,-0.0007185941262823335,-0.0028409660226272676,0.009826588491905536,0.9923624193300402
2015-07-09,-1,-0.00043129480597902455,-0.0004127938330190701,-0.0028547025779195874,0.007909186008667397,0.9921292304256925
2015-07-13,1,0.00017104764992327375,0.0002312257470715222,-0.0028547025779195874,0.004835017164271297,0.9932720390719669
2015-07-15,1,0.00034097501464955065,0.00042985525891544804,-0.003847111790212862,0.004835017164271297,0.9931099591707824
2015-07-17,1,0.0003192461919414113,0.00039684774759472856,-0.003847111790212862,0.004835017164271297,0.9932099896081927
2015-07-21,1,0.0005189579218719212,0.0006390867942670094,-0.003847111790212862,0.004897217134110837,0.9933626658305322
2015-07-23,1,0.0003203082734678488,0.0004279292337340655,-0.0068500679198229796,0.004897217134110837,0.9925140017623959
2015-07-27,-1,-0.0004260719891348746,-0.0003560962248913835,-0.007286498533546411,0.004897217134110837,0.9898703576756225
2015-07-29,1,0.0017852185640360497,0.0019408441233937067,-0.010559765190991785,0.0030795835784801543,0.9883576531978142
2015-07-31,1,0.0017990676668351725,0.001944768204456323,-0.01806633642126754,0.0030795835784801543,0.9867135637586539
2015-08-04,1,0.0019173603073443274,0.00208597535590265,-0.018713231084350277,0.0016341979356039268,0.9846945684039241
2015-08-06,1,0.0013049336805254959,0.0014175643558679823,-0.018633254098499984,0.004897217134110837,0.9853259455763256
2015-08-10,1,0.0013527407574463052,0.0014637066699194775,-0.018633254098499984,0.005601791572770564,0.9829331279161743
2015-08-12,1,0.001219350312130013,0.0012977063700819898,-0.018633254098499984,0.008685036357001547,0.9818060414312679
2015-08-14,1,0.00133424839379252,0.0014477431892489319,-0.018633254098499984,0.012910066020369865,0.9810795292735017
2015-08-18,1,0.0012343063645729707,0.0013123930034938675,-0.018633254098499984,0.015410090317499785,0.9806532215161778
2015-08-20,1,0.0008547918975174668,0.0009347343357810068,-0.0182340595482929,0.015410090317499785,0.9808318597345278
2015-08-24,1,0.0011276181722188875,0.0012086923598019091,-0.016610120273276387,0.015410090317499785,0.9833475187776131
2015-08-26,1,0.000981935652793555,0.0010505770877823324,-0.014180622454676639,0.01188525019046071,0.9856879203458602
2015-08-28,1,0.0015431940937930442,0.0016914024815640227,-0.016610120273276387,0.010837027686922096,0.9847975667382198
2015-09-01,1,0.0007752593556494441,0.0008754970401014825,-0.013893883574829465,0.011512637159164233,0.9861148231758934
2015-09-03,1,0.001123796075102476,0.0012423168753932787,-0.013893883574829465,0.012851859178686274,0.9847487773681767
2015-09-08,1,0.002356389087104474,0.002646343086042282,-0.014197952229065378,0.012212059316250166,0.9859594582709001
2015-09-10,1,0.002293816627463193,0.0025613017180008977,-0.009186878731850815,0.012212059316250166,0.9867670895934132
2015-09-14,1,0.0022708561294836112,0.002526469457463822,-0.007778296886211285,0.012212059316250166,0.9874149911053232
2015-09-16,1,0.0028932881796288803,0.003247753655993572,-0.008690858377315668,0.0113924900126937,0.9875784713857748
2015-09-18,1,0.0022444052119670577,0.0024680678872095363,-0.006311973825285689,0.012212059316250166,0.9871536182964907
2015-09-22,1,0.0012976758788754996,0.001359541173561214,-0.006311973825285689,0.012212059316250166,0.9870951166011176
2015-09-24,1,0.0019233669336263938,0.002089831851952614,-0.009041597493639418,0.012212059316250166,0.9866408242367227
2015-09-28,-1,-0.00016414212437362906,-2.6963095306840944e-05,-0.004415896071262768,0.012851859178686274,0.9880465886330069
2015-09-30,1,0.0009504773300704417,0.000981986267347646,-0.004415896071262768,0.01407958132985961,0.9874112801254177
2015-10-02,1,0.0027270497671446573,0.0029757727913832495,-0.009041597493639418,0.012355610667044537,0.987693602181734
2015-10-06,1,0.002650465113211124,0.0028962809700437972,-0.006311973825285689,0.013672160113169183,0.9873813024050836
2015-10-08,1,0.0027726506741150092,0.0030305908054830922,-0.009041597493639418,0.010549049632226408,0.9869817340876748
2015-10-12,1,0.002925272378133473,0.0032161249953708217,-0.00981238498095572,0.010549049632226408,0.9861934226300485
2015-10-14,1,0.0025789418924680113,0.00281680384214793,-0.00981238498095572,0.010549049632226408,0.9865346969370151
2015-10-16,1,0.0038523449669171303,0.00425315372286586,-0.011403304026361659,0.0034629720469891855,0.9867503027954176
2015-10-20,1,0.0035732276242780208,0.003956801458970538,-0.009152484952931804,0.0034629720469891855,0.9868873928584778
2015-10-22,1,0.002739721323451771,0.002992202726806865,-0.009152484952931804,0.006406998491301769,0.9863590048943263
2015-10-26,1,0.003368620546956436,0.0036804616834005812,-0.01257561818442305,0.0012597790714786955,0.9852417184437604
2015-10-28,1,0.004560791340576382,0.005000646831857433,-0.01257561818442305,0.0012597790714786955,0.9840571393802986
2015-10-30,1,0.0032571919179782524,0.0035394285773788074,-0.00837556084558448,0.0012597790714786955,0.9868632276053331
2015-11-03,1,0.004210468251804738,0.004604931444837806,-0.009152484952931804,0.0012597790714786955,0.9859737988105136
2015-11-05,1,0.0033277996170370744,0.0035858762174622236,-0.009152484952931804,0.0062848781279609125,0.9865488343312028
2015-11-09,1,0.0028568437759626223,0.0030635841919614652,-0.009152484952931804,0.0062848781279609125,0.9870339998650587
2015-11-11,1,0.002695873914730024,0.0028686573668624533,-0.009152484952931804,0.0047904518665219855,0.9868306804293199
2015-11-13,1,0.0020431466067289163,0.002117625956793239,-0.008876790450856748,0.005971781606197867,0.9873815773242717
2015-11-17,1,0.0012592638296850497,0.0013072832147814975,-0.007851053215030589,0.010604127565226667,0.987837519421919
2015-11-19,1,0.0006309030197641359,0.0007782066778079557,-0.008072751453811445,0.005287082559448149,0.9891348222186502
2015-11-23,-1,-0.0003285254128745559,-5.4870809048472905e-05,-0.007451737249061236,0.010604127565226667,0.9899911780156102
2015-11-25,1,0.0018212832147130834,0.0018328154863966016,-0.007451737249061236,0.002800246649296901,0.9920315937331448
2015-11-30,1,0.0015014418700823836,0.001551287181754059,-0.007451737249061236,0.005287082559448149,0.9914574215941664
2015-12-02,1,0.0021062377621128957,0.00218165437977544,-0.007451737249061236,0.002800246649296901,0.9927012204358833
2015-12-04,1,0.0019936878359928124,0.0020545004397940292,-0.007451737249061236,0.002800246649296901,0.9932595421687868
2015-12-08,1,0.0015507919678074485,0.0015530229208028025,-0.008072751453811445,0.002800246649296901,0.9925197566993388
2015-12-10,1,0.0012062395858606313,0.0012473814920337598,-0.009508788245140218,0.002800246649296901,0.992303194230422
2015-12-14,1,0.0005869678123147748,0.0007254768970433947,-0.010296425732551875,0.002315055569980502,0.9918177943283195
2015-12-16,1,0.0005406929430787339,0.0007037355284946459,-0.010296425732551875,0.0019508109353096625,0.9907086252644376
2015-12-18,1,0.0007587069801313616,0.000822382334947581,-0.009788160962695799,0.0019508109353096625,0.9912801980702249
2015-12-22,1,0.0013679886313809596,0.0013897416768155276,-0.009788160962695799,0.0019465532528579418,0.9914679378789545
2015-12-24,1,0.0013282705467476791,0.0013413661906438853,-0.009788160962695799,0.0027563318256544475,0.990901878696953
2015-12-29,1,0.0009549519269758101,0.001031450281478608,-0.010288512986144336,-0.0001686292570190766,0.9911295703105083
2015-12-31,1,0.0003279086839618656,0.0004728363804847951,-0.010288512986144336,0.0027563318256544475,0.9913308226446127
2016-01-05,1,0.0001611357153202006,0.00033098129392630137,-0.01048748260878179,-0.0001686292570190766,0.9914111831339874
2016-01-07,-1,-0.0007700232310360209,-0.00048365285492096713,-0.01048748260878179,0.0013403900405774074,0.9918736856304351
2016-01-11,-1,-0.0011635485130596156,-0.000835822816126794,-0.01048748260878179,0.001838649923748488,0.9910503089851833
2016-01-13,-1,-0.002463856065585121,-0.001943276745817548,-0.01048748260878179,0.00458178312317438,0.991042775001111
2016-01-15,-1,-0.0017968367822642987,-0.0014420234085754026,-0.01048748260878179,0.006154255191278372,0.991273122753148
2016-01-20,-1,-0.002121627032912128,-0.001742295265362117,-0.01048748260878179,0.006154255191278372,0.9911876993180284
2016-01-22,-1,-0.0018302661381525537,-0.0014916504303194556,-0.01048748260878179,0.008322385227161005,0.9904452377467767
2016-01-26,-1,-0.0026762331363887094,-0.002226353315798091,-0.01048748260878179,0.008322385227161005,0.9909045501617367
2016-01-28,-1,-0.002863255354984014,-0.00240986375383316,-0.010813594624598999,0.01055251988832622,0.9898902921711716
2016-02-01,-1,-0.002495995936367108,-0.002169963032666656,-0.011878315802984244,0.012703458323758157,0.9893222394911023
2016-02-03,-1,-0.0028740133534541487,-0.002516098543872749,-0.007470832229708598,0.012703458323758157,0.9899637318738044
2016-02-05,-1,-0.0034191410539321774,-0.003005564612612383,-0.006026131198515538,0.012703458323758157,0.9905529234085476
2016-02-09,-1,-0.0029223881234595054,-0.002591141155486881,-0.006026131198515538,0.012588625102238897,0.9910481304152494
2016-02-11,-1,-0.002987371496618498,-0.002638105310139354,-0.0052883047997302835,0.012588625102238897,0.9905460244019008
2016-02-16,-1,-0.002386145591072925,-0.002066122481349842,-0.007470832229708598,0.005137158869449204,0.9906251159431103
2016-02-18,-1,-0.0023676013347930878,-0.0020731317056692307,-0.012105120925660746,0.01086557459091827,0.9894877683832197
2016-02-22,-1,-0.0023474658949639146,-0.0018990227663570486,-0.012105120925660746,0.01086557459091827,0.9891832669324592
2016-02-24,-1,-0.002112201473890616,-0.0017041496434119178,-0.012105120925660746,0.01086557459091827,0.9885861597756355
2016-02-26,-1,-0.0008534971357022178,-0.0007128754782445839,-0.01075874140321255,0.010314584456775444,0.9892523427331832
2016-03-01,-1,-0.0009458888021931423,-0.0007787232145900078,-0.007183880284315724,0.009377165673756387,0.9902405634423029
2016-03-03,-1,-0.0010375357488932354,-0.0008815442119452857,-0.01075874140321255,0.010314584456775444,0.9890349180721898
2016-03-07,-1,-0.0010444682879504554,-0.0008650674909559336,-0.01075874140321255,0.013080895107267254,0.9872560073893698
2016-03-09,-1,-0.0012212911840790593,-0.0010492608549990282,-0.007183880284315724,0.015329797785676325,0.9858794062843232
2016-03-11,1,0.00037255609974965056,0.00045700153681012295,-0.01075874140321255,0.011121752655394623,0.9863879208006299
2016-03-15,-1,-0.0005908077626959285,-0.000543167431150193,-0.006674657393747788,0.014658395588435718,0.9868114000391837
2016-03-17,-1,-0.0009777314104279407,-0.0008491701464400816,-0.005435333039131549,0.014658395588435718,0.9877234262227487
2016-03-21,1,0.00026540181379458696,0.0003339564672722118,-0.005435333039131549,0.011105764034933338,0.9885571449483509
2016-03-23,1,0.0011612454948850466,0.001398500192922957,-0.004736241168869745,0.011126932006598752,0.9890948576690825
2016-03-28,1,0.00011638274078396897,0.00019683580787382716,-0.002501131725448461,0.011126932006598752,0.9893840323294593
2016-03-30,1,0.0010443460851804467,0.001313421138534404,-0.004650100449809786,0.011126932006598752,0.9897109153345748
2016-04-01,1,0.0008215552813522843,0.0010176636767117771,-0.004650100449809786,0.009024086821387986,0.9905129596705139
2016-04-05,1,0.0020597780666402315,0.0023982499469970553,-0.004650100449809786,0.0046850355329965425,0.9911004716970528
2016-04-07,1,0.003280266104017713,0.00380935990086466,-0.004650100449809786,0.0038109245629247097,0.9927974078316917
2016-04-11,1,0.0023389788167542894,0.0027188113424841936,-0.002034398925418946,0.005604169995741092,0.9943272693844881
2016-04-13,1,0.0027253892148559515,0.003134637081054514,-0.0031939796641798184,0.0038109245629247097,0.9938020025140936
2016-04-15,1,0.0022339321835558867,0.0025964276700827134,-0.002034398925418946,0.0038109245629247097,0.9940992562135723
2016-04-19,1,0.001672347409435595,0.0019533675605142983,-0.00324990204972124,0.0033360308412809653,0.9938404938433639
2016-04-21,1,0.002640010901068094,0.003131191450587138,-0.00324990204972124,0.004451400037004027,0.9937538832624714
2016-04-25,1,0.0026125154911309186,0.003095914632250041,-0.00324990204972124,0.005248521140198608,0.9934719238785432
2016-04-27,1,0.0024893326224110354,0.002961749799955644,-0.002237878007622499,0.006535022312540064,0.9933827611444216
2016-04-29,1,0.0021764758694670216,0.002600579487900513,-0.00014786322042824754,0.006535022312540064,0.9938820648249735
2016-05-03,1,0.0028850562409631158,0.0033878671314830403,-0.00014786322042824754,0.0058761563489636666,0.99506967362051
2016-05-05,1,0.002696061605856819,0.003166531684348085,-0.00014786322042824754,0.0058761563489636666,0.9953395586806597
2016-05-09,1,0.002809835335140091,0.003283573751139894,-0.0009622784251463837,0.0058761563489636666,0.9951987785619717
2016-05-11,1,0.0023935321757745168,0.0028371303811706404,0.000678537040856366,0.006477834891175804,0.9959555159726002
2016-05-13,1,0.0021179736801694715,0.0024941055530309716,-0.0009435599759319575,0.006477834891175804,0.995036719513868
2016-05-17,1,0.0022708072408042894,0.0026996498640772574,-0.0009435599759319575,0.00698786337618943,0.9952531041670332
2016-05-19,1,0.002682716663522154,0.0031731168845584266,-0.002200205653599187,0.00698786337618943,0.994420432062108
2016-05-23,1,0.0030447372216701597,0.003593183520810531,-0.001506496057729911,0.00720878811778722,0.9945818686546276
2016-05-25,1,0.0033370844071172463,0.003882419264855716,-0.0032229422275411286,0.005650560219049854,0.9945472072390218
2016-05-27,1,0.0034703335348770167,0.004017734369037388,-0.00530053224792014,0.004340598093289837,0.9931104874497927
2016-06-01,1,0.003122119595493149,0.003570332150750165,-0.00530053224792014,0.00720878811778722,0.9920120667658767
2016-06-03,1,0.0028271390500337855,0.0032082621131161275,-0.0051823344162813655,0.007480344377543718,0.9919486879770173
2016-06-07,1,0.002479452616033922,0.0027584452816408235,-0.0051823344162813655,0.007480344377543718,0.992099697807193
2016-06-09,1,0.003227263386358121,0.0036442808302636458,-0.0051823344162813655,0.007480344377543718,0.9920615284686852
2016-06-13,1,0.002471051907712237,0.0027742317279538108,-0.0031334271527494037,0.007480344377543718,0.992961567174559
2016-06-15,1,0.0024730630217798914,0.0027749961195114295,-0.001489790791870311,0.008582974140451513,0.992864498122942
2016-06-17,1,0.001799123596872379,0.002003657583871038,-0.0027661545063612236,0.008582974140451513,0.9931827695488796
2016-06-21,1,0.0019046773625080054,0.0020854097442529105,-0.0027661545063612236,0.007506616458516158,0.9936073253165344
2016-06-23,1,0.0016402165948799993,0.0017780586483563516,-0.0006274340961546637,0.007506616458516158,0.994073317928493
2016-06-27,1,0.0003920387842945375,0.0004517456637391202,0.0008177552274103618,0.007506616458516158,0.9949644762766832
2016-06-29,1,0.0009649904771856642,0.0010004226495727185,0.00040725462349443784,0.0032953455835934126,0.9965978503508042
2016-07-01,1,0.0013239288055834672,0.0013328541583544661,0.00040725462349443784,0.0033670668382156724,0.9964992689365755
2016-07-06,1,0.0014384894062223152,0.0014433357333963088,-0.0027661545063612236,0.0020710810042740475,0.993877444041092
2016-07-08,1,0.0018930247847288328,0.0019728137034823777,-0.003643313838127829,0.0020710810042740475,0.99371574603157
2016-07-12,1,0.0016367210668078289,0.0016603854688802997,-0.003990980672207432,0.002522255468135313,0.9929673724360129
2016-07-14,1,0.0023067572465815768,0.002441562747648372,-0.003990980672207432,0.0013758583428634512,0.9932693481861978
2016-07-18,1,0.0018471491993438348,0.0019122003034903327,-0.004184395627248381,0.001998122823493439,0.993681115811125
2016-07-20,1,0.0017535296843014469,0.0018183761994728558,-0.004848527581870397,0.0038609037429707246,0.9929067493749165
2016-07-22,1,0.0015221266702360335,0.0015365067855337758,-0.005155372083046339,0.0038609037429707246,0.9926813843729227
2016-07-26,1,0.0012891969330552002,0.0013181750431307414,-0.005155372083046339,0.004720590229799468,0.9922125123148903
2016-07-28,1,0.0008434870563446383,0.0009373019109379182,-0.006399353299831701,0.004720590229799468,0.9920507547238665
2016-08-01,1,0.001175652768989146,0.0012439642713689817,-0.006399353299831701,0.0038609037429707246,0.9923812231963255
2016-08-03,-1,-0.0004407845080353211,-0.0002201168474155119,-0.005119278224714997,0.0038609037429707246,0.9947966384892376
2016-08-05,-1,-0.0011379972060075445,-0.0007796855152408927,-0.005119278224714997,0.0028754578692435674,0.9951739611725705
2016-08-09,-1,-0.0018134772757949643,-0.001358586652836359,-0.004210849246948668,0.0021587101449250354,0.9958689215062775
2016-08-11,-1,-0.001419418131031447,-0.001048221998613884,-0.005119278224714997,0.0021587101449250354,0.9951704491783635
2016-08-15,-1,-0.0015621782303732255,-0.0011808288598815445,-0.006113425241462663,0.0021587101449250354,0.9939439315640635
2016-08-17,-1,-0.0019563380890613817,-0.0015019984951682702,-0.004493631175903715,0.0021587101449250354,0.9945014983934055
2016-08-19,-1,-0.002085152920389308,-0.0016267663537397213,-0.006031407302427137,0.0021587101449250354,0.9943380430166181
2016-08-23,-1,-0.0020469559794364565,-0.001584718484876929,-0.006031407302427137,0.0031350659006436406,0.9937895563144307
2016-08-25,-1,-0.0016435417170426107,-0.0013160659738793708,-0.004308812539411301,0.0036045759058365378,0.9936822400383515
2016-08-29,-1,-0.0006336496610276068,-0.000489528691423619,-0.006031407302427137,0.0036045759058365378,0.9929520790027178
2016-08-31,-1,-0.0013630527761478075,-0.0010901423589296114,-0.006529810649314998,0.0047358510846311035,0.9921959790331547
2016-09-02,-1,-0.001143958338457208,-0.0009300181909395475,-0.006529810649314998,0.004978160319831424,0.9913749598606478
2016-09-07,-1,-0.00115985005484755,-0.000941724077700403,-0.006529810649314998,0.0054155730008196585,0.9911554213205497
2016-09-09,-1,-0.001627119120153851,-0.0013677086447116235,-0.00623736173528063,0.0054155730008196585,0.991729801468376
2016-09-13,-1,-0.0015098717213057646,-0.0012784251529692004,-0.00623736173528063,0.0049006744157361485,0.992599410096822
2016-09-15,-1,-0.0014789019715227207,-0.0012509100199650115,-0.0076670955765585766,0.0047358510846311035,0.9926149246249091
2016-09-19,-1,-0.0019696593193774797,-0.0016727061298073055,-0.006050919565006937,0.0047358510846311035,0.9930132599857887
2016-09-21,-1,-0.0015830746861799,-0.001319325883994691,-0.006050919565006937,0.003598236204466882,0.9935948843331545
2016-09-23,-1,-0.0009524452909448041,-0.0007550291169812109,-0.007874493401711658,0.002299808859096665,0.9932323625794467
2016-09-27,-1,-0.001386343004621452,-0.0011307096712129942,-0.006050919565006937,0.002284563861512174,0.9942450150053886
2016-09-29,-1,-0.0017041045861618004,-0.0014220723099729498,-0.005076624166920893,0.002781208996283862,0.9951036512498145
2016-10-03,-1,-0.00180527110127085,-0.0014832875458490025,-0.0070112661052139785,0.0017347125509324986,0.9952090528502461
2016-10-05,-1,-0.0015044299730444114,-0.0011986478071823944,-0.009796356483951581,-0.0007928268066893847,0.9939810588940369
2016-10-07,-1,-0.002152820306948345,-0.0017653431707144304,-0.011837888844287214,0.0017347125509324986,0.9932232034441848
2016-10-11,-1,-0.0023161361146505524,-0.0019364627268423568,-0.011424547249401666,0.0027718685138011507,0.9927720696056279
2016-10-13,-1,-0.002119031591191219,-0.0018562409198935044,-0.011424547249401666,0.003955225998221697,0.9873222700579625
2016-10-17,-1,-0.0018968820976832017,-0.0016855357982810105,-0.012921555358539342,0.003955225998221697,0.9860552774746175
2016-10-19,-1,-0.0016923290609629125,-0.0015143541029332666,-0.012921555358539342,0.0036894360858729684,0.9859588575282853
2016-10-21,-1,-0.001864948924002944,-0.0016731881039232471,-0.012921555358539342,0.0036894360858729684,0.9858922972596158
2016-10-25,-1,-0.001759828695547539,-0.0015817277786255171,-0.012921555358539342,0.0030642700212894828,0.985667345643225
2016-10-27,-1,-0.0015499219610813275,-0.0014044928910785862,-0.012921555358539342,0.003074536115829919,0.9853393792649479
2016-10-31,-1,-0.001853326547454001,-0.001689478226856281,-0.009410053310362716,0.004908380424287407,0.9856077634360523
2016-11-02,-1,-0.0028528420909738764,-0.002557109408107964,-0.008003579972888978,0.0073174850872366045,0.9859014769870378
2016-11-04,-1,-0.003327604406887178,-0.0029845384648971673,-0.007671389691544486,0.0073174850872366045,0.9868169675706875
2016-11-08,-1,-0.0034572743300673313,-0.0030838484928072526,-0.007671389691544486,0.005775796296175078,0.9875342314340176
2016-11-10,-1,-0.002546019069798927,-0.0022987185633688957,-0.007913082259884477,0.003505424717541615,0.991658607112765
2016-11-14,-1,-0.0035309949103795295,-0.003170756819686399,-0.007671389691544486,0.0073174850872366045,0.9910489957277913
2016-11-16,-1,-0.0043112123799749595,-0.0038349726729510042,-0.007297909391835622,0.0073174850872366045,0.9909762377885531
2016-11-18,-1,-0.004030075883732019,-0.0036265241016388682,-0.0027829775544039137,0.0073174850872366045,0.9908491522563607
2016-11-22,-1,-0.0037321702188596673,-0.003386472699281938,-0.0027829775544039137,0.0073174850872366045,0.9907699501421908
2016-11-25,-1,-0.003233746052957596,-0.0029624962073652884,-0.0027829775544039137,0.005775796296175078,0.9914090581465034
2016-11-29,-1,-0.002743860083519699,-0.002544850277367547,-0.0029829803641911908,0.004597676446160925,0.9920816185522905
2016-12-01,-1,-0.0029061595461891613,-0.002698267903846756,-0.001922119938402298,0.004327968199931936,0.9929029550876214
2016-12-05,-1,-0.002284328766533286,-0.0021780242797190975,-0.001922119938402298,0.00544373649732949,0.9921891841776607
2016-12-07,-1,-0.0025575605128494105,-0.002418883136400469,-0.001922119938402298,0.008994047423034592,0.9919149521414725
2016-12-09,-1,-0.002039026784554433,-0.0019703143989117508,-0.0011352213369915944,0.00544373649732949,0.993631842395085
2016-12-13,-1,-0.0012875293714406523,-0.0012459820209870277,-0.002566621159472479,0.0031429997462249152,0.994758302161814
2016-12-15,-1,-0.0010992318006923499,-0.0010224234894916826,-0.004284285313010705,0.0031429997462249152,0.9942125972467898
2016-12-19,-1,-0.0008898900111805882,-0.0007847973684933392,-0.005901481287907812,0.0022364914814157954,0.9939976225402762
2016-12-21,-1,-0.0008259980687925562,-0.0006775503167784076,-0.005901481287907812,0.0027380613684410684,0.9941272017273202
2016-12-23,-1,-0.001563642334555432,-0.00153124341300257,-0.007693779947453255,0.0027380613684410684,0.9936179541767923
2016-12-28,-1,-0.0014175781841094894,-0.001415065266395803,-0.007693779947453255,0.004364643030265061,0.9936196340105163
2016-12-30,-1,-0.0013255953764837159,-0.001324562201634179,-0.007693779947453255,0.004480387638439684,0.9931314192206607
2017-01-04,-1,-0.0006188605552089222,-0.0005138314293532265,-0.007693779947453255,0.0019729736262456294,0.9942825000460547
2017-01-06,-1,-0.0003567293849597588,-0.00021279224638418373,-0.007693779947453255,0.00274684284997944,0.9940994487428163
2017-01-10,-1,-0.00022514090810221254,-5.620483995789232e-05,-0.007693779947453255,0.00274684284997944,0.9937958166840131
2017-01-12,-1,-0.000889729968047567,-0.0008088166742550995,-0.0037892773201600406,0.004390987474880176,0.9945902389205595
2017-01-17,-1,-0.0011559373280815013,-0.0010985057423996587,-0.0022934896619514083,0.004480387638439684,0.9945225690721343
2017-01-19,-1,-0.0014236063003808582,-0.001405960678677506,-0.0011676270835217566,0.005237638558162212,0.9934051708448588
2017-01-23,-1,-0.0013064644380548574,-0.0012505824116840294,-0.0004713076372586355,0.005237638558162212,0.9939486587438837
2017-01-25,-1,-0.0013995979031640763,-0.0013623323881050932,-0.00046276457314386966,0.0076097962805974605,0.9938044727185552
2017-01-27,-1,-0.0011056993101415452,-0.0010201318903296877,-0.00022308436263381717,0.0076097962805974605,0.9939236158760143
2017-01-31,-1,-0.0005932381346413767,-0.00042981009208850173,-0.00022308436263381717,0.0076097962805974605,0.9944382801558178
2017-02-02,-1,-0.0007127308327344861,-0.0005984768166276213,0.0,0.0076097962805974605,0.9943200474200328
2017-02-06,-1,-0.00022368898384716941,-3.824582491990583e-05,-0.0009008805146500345,0.006270860882001223,0.9947153264980969
2017-02-08,0,-6.53367782538259e-05,0.00014790965221102715,-0.0009008805146500345,0.006270860882001223,0.9947977546660101
2017-02-10,1,5.2978417116783245e-05,0.0002666553842837372,-0.00022308436263381717,0.004687842077909519,0.9951548608063515
2017-02-14,1,0.0007429620629086879,0.001079966661108571,-0.00022308436263381717,0.004564448446359356,0.9951360470566338
2017-02-16,1,0.0014685712352937334,0.0019096992631572544,-0.0025639553044637512,0.003450750087080355,0.9957100624542635
2017-02-21,1,0.0014262554885862693,0.0018515133177601053,-0.003341535798033904,0.003450750087080355,0.9956113888500419
2017-02-23,1,0.00159254858642333,0.002014859977653459,-0.0040028295571393775,0.003450750087080355,0.9957268523224543
2017-02-27,1,0.0020259382544956005,0.0025310021808987986,-0.004731731568391386,0.003450750087080355,0.9952056556850291
2017-03-01,1,0.002335194398688111,0.0028976494112859285,-0.004067134890781063,0.003450750087080355,0.9955029920260128
2017-03-03,1,0.0023731060667318573,0.002928595053910919,-0.004287940367364776,0.003450750087080355,0.9951693980189867
2017-03-07,1,0.0018109638791239044,0.002270090429176288,-0.003341535798033904,0.003450750087080355,0.9962506190132369
2017-03-09,1,0.0018277845592366965,0.002278860200544886,-0.0038548991567971735,0.0029966790652212784,0.9960115481458623
2017-03-13,1,0.0018668058952177732,0.0023153237560444824,-0.0038548991567971735,0.0029966790652212784,0.9958062681730525
2017-03-15,1,0.0023890529501198327,0.002915281824132487,-0.0038548991567971735,0.0010947353605103324,0.9956069113093813
2017-03-17,1,0.00205536268697859,0.002519720754318969,-0.00336898938140401,0.002041365083330445,0.99627663244294
2017-03-21,1,0.00209039405038754,0.002564225343771805,-0.00414879878549528,0.0013878261661651957,0.9957908881452039
2017-03-23,1,0.002312812918371053,0.002828613273457386,-0.003442591206931915,0.0013878261661651957,0.9959253057198663
2017-03-27,1,0.0017805731518590977,0.0021715166298407786,-0.0030307827391876908,0.0013878261661651957,0.9967359490206777
2017-03-29,1,0.001539855326721284,0.0018537660002021985,-0.0030307827391876908,0.0013241296443027555,0.9970030444579148
2017-03-31,1,0.0010095203824446802,0.0012036491443590672,-0.0030307827391876908,0.0019954817214853588,0.9972489913614694
2017-04-04,1,0.0016149501075152046,0.001927830301365768,-0.004136889104987674,0.0008875583548072602,0.9964727451174301
2017-04-06,1,0.001751699380463562,0.002037448635479121,-0.003455508043451422,0.0011156606805030494,0.9967382458930019
2017-04-10,1,0.0010843381080485708,0.0012469554606039503,-0.003455508043451422,0.0011156606805030494,0.9970342488237065
2017-04-12,1,0.0006062888495236776,0.0006613324675630527,-0.004136889104987674,0.0011156606805030494,0.996901995610232
2017-04-17,1,0.0003034588244024581,0.00032485720219394665,-0.004136889104987674,0.0011156606805030494,0.9970112849589462
2017-04-19,-1,-0.00046667559105882444,-0.00032118993862869337,-0.004136889104987674,0.0011156606805030494,0.9963775005752907
2017-04-21,-1,-0.00027830299057008946,-0.00016660388564599863,-0.004136889104987674,0.0011156606805030494,0.9962969735769843
2017-04-25,0,-4.766839338759635e-05,2.7369058386158987e-05,-0.0043822126490547664,0.0006912385435656613,0.9958831374730066
2017-04-27,-1,-0.0003660654472601931,-0.00022027596680243566,-0.0043822126490547664,0.0006912385435656613,0.995837793063404
2017-05-01,-1,-0.00045593858185185573,-0.000304677199325019,-0.0043822126490547664,0.0003827274744376067,0.9961405231785494
2017-05-03,-1,-0.001226178840536054,-0.0009497951830578057,-0.002269567469123412,0.0011320783547653119,0.9955411992080786
2017-05-05,-1,-0.0009496688696620538,-0.0007309356452254235,-0.005357649723274297,0.0009264443768931476,0.995254736128335
2017-05-09,-1,-0.00017474558802428762,-0.00014301909860084093,-0.006543060078889457,0.0009264443768931476,0.9946913776341421
2017-05-11,-1,-0.0006308467941207898,-0.0005415179417450485,-0.006332333438415702,0.002211338071558054,0.993354433117476
2017-05-15,-1,-0.000513764434614292,-0.00043714097937956034,-0.006332333438415702,0.0009264443768931476,0.9933054547869874
2017-05-17,-1,-0.0018822945796321319,-0.0016202454406237285,-0.00405158607751283,0.0033902648731642063,0.9941843055751328
2017-05-19,-1,-0.001548996403382801,-0.0013323715152871642,-0.00405158607751283,0.0034918128340492736,0.9939287259917448
2017-05-23,-1,-0.0020335255890398213,-0.0017501962763102957,-0.0030175943559502946,0.005553074019296014,0.9932991806277853
2017-05-25,-1,-0.001928922889075642,-0.0016624552992040558,-0.0025544769430020445,0.005880280406867596,0.9930117893370799
2017-05-30,-1,-0.0013506258667975047,-0.0011992324712766854,-0.004152617207889818,0.005880280406867596,0.9927446419397099
2017-06-01,-1,-0.00046245207890687303,-0.0004284444198687241,-0.004152617207889818,0.004985611771234544,0.9935382235039404
2017-06-05,-1,-0.0008923481542942837,-0.0008062438941632445,-0.0035841284288366682,0.005696444630864994,0.9936437216748871
2017-06-07,-1,-0.0018488824557452847,-0.0015502891119680594,-0.0037033874879290516,0.005696444630864994,0.9932701461441739
2017-06-09,-1,-0.0011740309369744793,-0.0009350419865822337,-0.0035841284288366682,0.004985611771234544,0.9949415200631092
2017-06-13,-1,-0.0016329237238123739,-0.0013133081035952366,-0.0036178054722956644,0.004985611771234544,0.9945624339642801
2017-06-15,-1,-0.0015725786942078744,-0.001244419039771455,-0.0036178054722956644,0.004985611771234544,0.994628031605642
2017-06-19,-1,-0.0012988124559684218,-0.0010027137155895387,-0.004183889759456566,0.004061758361223042,0.9950271033695014
2017-06-21,-1,-0.00047541408130280527,-0.0002825458990600854,-0.004183889759456566,0.0034595233389370116,0.9956280459083533
2017-06-23,1,6.406240022585705e-05,0.00018595585965389572,-0.00491479119715904,0.002181691275512272,0.9956615525363841
2017-06-27,-1,-0.0004934931915278307,-0.0003034793228777659,-0.005337825942937671,0.002181691275512272,0.9957394575490909
2017-06-29,-1,-0.00017762520007331772,-3.6511779508863684e-05,-0.005337825942937671,0.0034866815990297656,0.9954534528594262
2017-07-03,-1,-0.00015153113199342216,-5.442225903949226e-06,-0.005337825942937671,0.003317325593941975,0.9957198263612476
2017-07-06,-1,-0.0006716209550781936,-0.0004780544914759137,-0.004793400541186568,0.0034866815990297656,0.9955616314035571
2017-07-10,-1,-0.00024233604403411913,-0.00011871604838969838,-0.004973653975020257,0.0036351651262379325,0.9950690101662902
2017-07-12,1,0.00032069971059696015,0.0003231513059565118,-0.004793400541186568,0.004516769720458338,0.9951366367192809
2017-07-14,1,0.0005154410302612159,0.0005364281845076841,-0.004899255284200002,0.003644725903848728,0.9950372946606958
2017-07-18,1,0.000704023486698612,0.0007836004838279618,-0.004793400541186568,0.003644725903848728,0.9953131229642458
2017-07-20,1,0.0010973615564192716,0.001242512802157725,-0.004899255284200002,0.002412184080749902,0.9950073974637199
2017-07-24,1,0.0008808304979296391,0.0010191758401422914,-0.005401207488287617,0.002902263237880869,0.9949352539480181
2017-07-26,1,0.00047409285709119117,0.0005698253285833629,-0.0030186324051089644,0.003644725903848728,0.9950212381258952
2017-07-28,1,0.0004824302641934162,0.0005542157208746703,-0.0030186324051089644,0.003269884287816395,0.9950943998289703
2017-08-01,1,0.00044690715369097224,0.0005186173592164155,-0.0018846666268331068,0.003269884287816395,0.9951350014577032
2017-08-03,1,0.000920962162919153,0.0010591907390783187,-0.0010486256007001733,0.003269884287816395,0.9954480490362653
2017-08-07,1,0.0011989457295412242,0.0014102473773005093,-0.0010486256007001733,0.0027249393648900704,0.9959783276654269
2017-08-09,1,0.0011620136690066538,0.001347439507851747,-0.0010457534296889545,0.0027249393648900704,0.9959891160955924
2017-08-11,1,0.0009048946828489621,0.0010519384022935475,-0.0003754470852486006,0.0036308836996810367,0.9959848459764293
2017-08-15,1,0.0009294792761802837,0.00108837967744308,-0.0008224906640030389,0.00501656463783706,0.9941442042911659
2017-08-17,1,0.0005465933103105463,0.0006411235270336228,-0.0005988090154097614,0.0058289201593729545,0.9932765212360564
2017-08-21,1,0.0004560437358522178,0.0005500565786319018,-0.0005988090154097614,0.0058289201593729545,0.9934006778817835
2017-08-23,1,0.0007852605576306991,0.0009276140717519133,-0.0007899039707938212,0.0058289201593729545,0.9933896624182733
2017-08-25,1,0.00101370973915142,0.0011940011721208394,-0.0018226573986700983,0.0058289201593729545,0.9929531880118828
2017-08-29,1,0.0009706914355313273,0.0011357065690989492,-0.0032875564020231436,0.0058289201593729545,0.9925183626357966
2017-08-31,1,0.001385612637366528,0.001600975525617557,-0.0032875564020231436,0.005435353693289214,0.9930797758497935
2017-09-05,1,0.0011963204769281433,0.0013781878929025428,-0.001119984914977398,0.0058289201593729545,0.9928799738144426
2017-09-07,1,0.001430731569233272,0.0016475098284551533,-0.0033548488702650975,0.005642919462644426,0.9928850765186752
2017-09-11,1,0.0015307628473909289,0.0017377634464928035,-0.0033548488702650975,0.004530305267801189,0.9931523984488744
2017-09-13,1,0.00227162422715493,0.0025781841812340302,-0.001119984914977398,0.004530305267801189,0.9948115377269282
2017-09-15,1,0.0025807983332696693,0.0029318947138623633,-0.0011026213428798203,0.004235804161179872,0.9957906012254031
2017-09-19,1,0.0026400859091484,0.0030086684689023284,-0.0011026213428798203,0.004235804161179872,0.9953830110136795
2017-09-21,1,0.003072650298280328,0.0034914486842535135,-0.0033027581539723646,0.004235804161179872,0.9949327604241259
2017-09-25,1,0.0023798171515717107,0.0026857040901138267,-0.001097783573508167,0.0044287047375084244,0.995783372299451
2017-09-27,1,0.002246276639032718,0.0025336716198375783,-0.00281580115495074,0.004415219695302168,0.9957313204234494
2017-09-29,1,0.002336625981892968,0.0026344594038543428,-0.003657779336573762,0.0031141194367785745,0.9947731194004106
2017-10-03,1,0.0024368468288465334,0.002734445942325941,-0.0041829838196538035,0.001665821207037471,0.9941156716011441
2017-10-05,1,0.002297027695918407,0.0025752044629465225,-0.003657779336573762,0.005143259656645719,0.9943373489402497
2017-10-09,1,0.001671338189080008,0.0018185855748985963,-0.004555247548186864,0.005143259656645719,0.9940940251446516
2017-10-11,1,0.0020319648598556297,0.0022393691421000467,-0.004555247548186864,0.0031452730041077025,0.9941036721782477
2017-10-13,1,0.0015777877033551699,0.0016952657792116597,-0.0045885847012221885,0.0031452730041077025,0.9941870348774206
2017-10-17,1,0.001288978368771993,0.0013654424846406337,-0.003928192548084211,0.002756303365679571,0.9949371173845285
