JNU-Tangyin/eata/results/Batch4_SP500/Batch4_SP500-TYL.csv
Date,Action,Predicted_Q25,Predicted_Q75,Actual_Q25,Actual_Q75,RL_Reward
2010-12-14,0,0.0,0.0,-0.004473318482471664,0.0035722043233306737,0.9942766293556444
2010-12-16,0,0.0,0.0,-0.0039084561383053735,0.0035722043233306737,0.9942814151131649
2010-12-20,1,0.0011285748898388548,0.001421524889171764,-0.004473318482471664,0.0018767469471969553,0.9933061586919092
2010-12-22,1,0.0009231021374809856,0.0011970315947365901,-0.006649962402501255,0.002671448957487589,0.9927498784713111
2010-12-27,1,0.0015923952246303867,0.0017192921100121568,-0.006649962402501255,0.002832367372227702,0.9924666940154959
2010-12-29,1,0.0009220532710039302,0.0011534870111633813,-0.006439422351812436,0.005271317968211051,0.9916244689328948
2010-12-31,0,-0.0001334060118547769,0.00020436414060386824,-0.006439422351812436,0.005271317968211051,0.9918756595309958
2011-01-04,-1,-0.0019075128605571116,-0.001283943721732509,-0.00183386934183072,0.008141786525430926,0.9905288976128003
2011-01-06,-1,-0.002158711533326395,-0.0015254877913770419,-0.0022253484373954656,0.008141786525430926,0.9905106296304612
2011-01-10,-1,-0.0015832603196170877,-0.0010709983668803454,-0.0022253484373954656,0.008141786525430926,0.9904896706545446
2011-01-12,-1,-0.000880259564158664,-0.00042314929119255016,-0.005879042397528197,0.006357296928564592,0.9906912968206383
2011-01-14,-1,-0.0010373713085882253,-0.000542872153207793,-0.005879042397528197,0.006357296928564592,0.9911133424053731
2011-01-19,-1,-0.002121371522316948,-0.0015040413627014138,-0.0026031820573129373,0.006738625563137438,0.9916054570489796
2011-01-21,-1,-0.003471001930713535,-0.002652026062798175,-0.0019986465242577724,0.006738625563137438,0.9916004074408719
2011-01-25,-1,-0.002777474382318174,-0.0021014897357481393,-0.0038755479774573694,0.006738625563137438,0.9914883953999527
2011-01-27,-1,-0.0011976346217343209,-0.0007248284374190386,-0.0038755479774573694,0.006250570256978609,0.9903141008975701
2011-01-31,-1,-0.001822389905022186,-0.0012784083363370276,-0.0026031820573129373,0.006680814593868694,0.9906696154804066
2011-02-02,-1,-0.0008159129111224032,-0.000411679790569936,-0.0026031820573129373,0.006680814593868694,0.9907148590897902
2011-02-04,-1,-0.0010810164143211008,-0.0006530243987219627,-0.00319544223804429,0.006885372670089154,0.9897320066654596
2011-02-08,-1,-0.0011748097056627224,-0.0007507166552740635,-0.00319544223804429,0.0070900400083370035,0.9893305912729424
2011-02-10,-1,-0.0013837300870805508,-0.0009730616703062568,-0.002776130123258437,0.007921532396191226,0.9882853443668939
2011-02-14,-1,-0.001714976949081657,-0.0012493007761481302,-0.005886298032661407,0.0070900400083370035,0.9885427610808336
2011-02-16,-1,-0.0009367415648506277,-0.0005881680304957984,-0.006846985445697638,0.0070900400083370035,0.988771730909267
2011-02-18,-1,-0.0013794188850772327,-0.0009548643615255664,-0.006846985445697638,0.009236916648273313,0.9868407967460326
2011-02-23,-1,-0.0019557944899376177,-0.001469739290510993,-0.0020408549094971347,0.009236916648273313,0.9872534538280637
2011-02-25,1,0.00022175002049947587,0.00047392335430609565,-0.001691343592316588,0.009436134628464762,0.989889709640169
2011-03-01,1,0.0006893063580212448,0.0008746615079651545,-0.001949561322741359,0.009436134628464762,0.9902361099435505
2011-03-03,1,0.0015444915641223255,0.001635582053796217,-0.001949561322741359,0.008393715751268828,0.9915822182131246
2011-03-07,1,0.0006513915378845187,0.0008758861098819114,-0.0014226094048767606,0.010324107524875456,0.9913958113001212
2011-03-09,1,0.0014870058264858407,0.0015876152237068871,-0.001949561322741359,0.009436134628464762,0.9915715327035043
2011-03-11,1,0.0009988536581531087,0.0011414634567572669,-0.003776653748309696,0.009436134628464762,0.9925211348516766
2011-03-15,1,0.0005840787051722747,0.0007881288088738624,-0.007135529516494227,0.009436134628464762,0.9916903076003533
2011-03-17,1,0.0006000648878796281,0.0007163129254486712,-0.0030149874064448363,0.01044794359145744,0.9914579164878208
2011-03-21,1,0.002140904366870572,0.0022072059082590043,-0.007215490528114445,0.008695956168778834,0.9922637109501454
2011-03-23,1,0.002366428852424561,0.0025265393275353673,-0.007215490528114445,0.009436134628464762,0.991331795019802
2011-03-25,1,0.0029887325433481287,0.0032321058589939817,-0.007215490528114445,0.005831671261959356,0.9915535947011479
2011-03-29,1,0.0029876097329720355,0.003246239596383404,-0.007215490528114445,0.009487165052072711,0.9913320719315435
2011-03-31,1,0.0032384827389623466,0.0035476360833519545,-0.007215490528114445,0.012754412242229757,0.9904805508880132
2011-04-04,1,0.003924569258174577,0.004304499855721127,-0.007466863512725557,0.008786528033231196,0.9904094782350148
2011-04-06,1,0.003553629537421522,0.0038633189332882853,-0.007507273110114985,0.008786528033231196,0.9900844004359795
2011-04-08,1,0.0029942211866598144,0.00324937692074287,-0.007104344277246683,0.009833066804485788,0.9905111762814849
2011-04-12,1,0.0015695730087574226,0.001593294590329488,-0.006876372503054418,0.010647765259156686,0.9906008461891154
2011-04-14,1,0.0022660775694929186,0.0024131393398105,-0.007104344277246683,0.010647765259156686,0.989971275412709
2011-04-18,1,0.002043102356075053,0.0021934563719428306,-0.007104344277246683,0.010647765259156686,0.9900355600375522
2011-04-20,1,0.0024549856915545825,0.0026469078429863435,-0.007104344277246683,0.010647765259156686,0.9905023361959123
2011-04-25,1,0.0018011711109320815,0.001854096537210042,-0.007321565844698086,0.010647765259156686,0.9891080740512469
2011-04-27,1,0.0026516077708670103,0.002852795294725793,-0.007321565844698086,0.010777778355254794,0.9892965806019823
2011-04-29,1,0.003663577587540174,0.004026650623101687,-0.007321565844698086,0.009629124501497506,0.9899926246329536
2011-05-03,1,0.0030073002448443844,0.003299614054227101,-0.00711781414304316,0.010777778355254794,0.9893541142931346
2011-05-05,1,0.002500673440784287,0.0027248221044241703,-0.007605270105199676,0.010777778355254794,0.9892568089503078
2011-05-09,1,0.002238765955008345,0.002402480619759178,-0.009381928671943558,0.010402743898522441,0.9891646255801806
2011-05-11,1,0.0024766793810251818,0.002672145478652386,-0.009603873904847415,0.006370325742546471,0.989870754116704
2011-05-13,1,0.002317935816106638,0.002491943088366048,-0.009623404322793624,0.003997313825354711,0.9903488031122306
2011-05-17,1,0.001547813999899801,0.0016082630546612369,-0.009623404322793624,0.006370325742546471,0.990016824503091
2011-05-19,1,0.0021686449166302846,0.002309209968491481,-0.009623404322793624,0.0038097945863809273,0.9905737003607835
2011-05-23,1,0.0011747664453014368,0.001177765115423497,-0.005054518198251481,0.007315174333702576,0.9898644671305133
2011-05-25,1,0.001023376558392294,0.0010759144921112904,-0.005054518198251481,0.008638930289165434,0.9891134059178507
2011-05-27,1,0.0010192204698395934,0.0010995793970422182,-0.005255232960186172,0.015527970300646177,0.9881894498849282
2011-06-01,0,0.0,0.0,-0.005255232960186172,0.012331042330088842,0.9892861869524708
2011-06-03,1,0.0009263827935996969,0.0010001754066105617,-0.004064875435056473,0.012331042330088842,0.9894430747407038
2011-06-07,1,0.0005360147904495661,0.000634953435962153,-0.0037291445064458395,0.012331042330088842,0.9897627718882378
2011-06-09,1,0.0006430155516574208,0.0006890023624444908,-0.0037291445064458395,0.012331042330088842,0.989234851209495
2011-06-13,-1,-0.0008088688082862843,-0.0005237649996253232,-0.0037291445064458395,0.012331042330088842,0.98906616284941
2011-06-15,-1,-0.0012193997555053082,-0.000866948649924469,-0.0037291445064458395,0.010184176260782371,0.9894577404596274
2011-06-17,-1,-0.0011712870743415542,-0.0008238420426760056,-0.004064875435056473,0.010184176260782371,0.9892830430495999
2011-06-21,1,0.00134813642607905,0.0013513467303446001,-0.005230578735845657,0.008785501782817399,0.9895728195550415
2011-06-23,1,0.0020523743734838216,0.0021075082724364798,-0.005230578735845657,0.007762800815738392,0.9906164683963689
2011-06-27,1,0.002426652459829723,0.0025781611041860567,-0.008685163815242272,0.006318986240485432,0.990283273395566
2011-06-29,1,0.0020676977015376217,0.0021560256499083812,-0.012833852902679006,0.004040962615226866,0.9902039850319102
2011-07-01,0,0.0,0.0,-0.012833852902679006,0.004040962615226866,0.989842535699895
2011-07-06,0,0.0,0.0,-0.013597623886576113,0.004442794935786516,0.9883864321861172
2011-07-08,0,0.0,0.0,-0.01565116437224716,0.004442794935786516,0.9864923802973623
2011-07-12,0,0.0,0.0,-0.016209251050295557,0.007893865889421255,0.9813088588193974
2011-07-14,0,0.0,0.0,-0.017129648820052554,0.011405506910831517,0.9789469734612618
2011-07-18,0,0.0,0.0,-0.017129648820052554,0.02608253913007856,0.9767439027758072
2011-07-20,0,0.0,0.0,-0.016266599559745562,0.020363879769774138,0.9775184766428127
2011-07-22,0,0.0,0.0,-0.02448442130531046,0.020363879769774138,0.9729839385502066
2011-07-26,1,0.0016738311445347375,0.0018684950632851202,-0.02448442130531046,0.025643909568257794,0.9727562538173647
2011-07-28,-1,-0.00025275341063503453,-0.00011674812720197298,-0.02448442130531046,0.025643909568257794,0.972311480003905
2011-08-01,1,0.0008847969426805213,0.0008982226207323917,-0.02448442130531046,0.025643909568257794,0.9720728322545917
2011-08-03,-1,-0.0002786473689884438,-0.00010657638113182943,-0.01811763784280425,0.026135713543451268,0.9717173168122663
2011-08-05,-1,-0.0012615589768073298,-0.0009578450873719931,-0.01811763784280425,0.026135713543451268,0.9721403835035246
2011-08-09,-1,-0.0023471127754842187,-0.0019129244747136606,-0.01811763784280425,0.026135713543451268,0.9751757014453293
2011-08-11,-1,-0.002233869334548713,-0.0018706056175887419,-0.013442527227957544,0.026135713543451268,0.9784206989941431
2011-08-15,-1,-0.0005566428774864461,-0.00039966692770236785,-0.013442527227957544,0.01542255249856602,0.9803769501298791
2011-08-17,-1,-0.00039259340055560464,-0.0002753720006874066,-0.007830532354790337,0.015285161256214059,0.9805022446258577
2011-08-19,-1,-0.003244067196382045,-0.0027913508248829785,-0.0015411960583107717,0.015285161256214059,0.9833427587763327
2011-08-23,-1,-0.0017920572117845306,-0.001519771671003737,-0.006808757490615862,0.01411961771463084,0.9847364269143672
2011-08-25,-1,-0.0018318074232752482,-0.0015961955829472117,-0.006808757490615862,0.01411961771463084,0.9838549966799955
2011-08-29,-1,-0.0005031474488530846,-0.0004190649451984085,-0.006808757490615862,0.015285161256214059,0.9833494203593378
2011-08-31,1,0.00020342271320398684,0.00023355105366244325,-0.012045960043164446,0.01411961771463084,0.9834564005456571
2011-09-02,-1,-0.001644959418270819,-0.001362498770281688,-0.01744796772960167,0.01411961771463084,0.9828776053766661
2011-09-07,-1,-0.0009807467749443867,-0.0007912267981713401,-0.012045960043164446,0.016321228257616838,0.9806487155890072
2011-09-09,-1,-0.001642448114550756,-0.0013556254613961657,-0.017293647742157654,0.016321228257616838,0.9797355028373195
2011-09-13,-1,-0.0006223699978831074,-0.0004734823986875901,-0.017293647742157654,0.020997680337627302,0.9786779610050813
2011-09-15,1,3.259386125002456e-05,0.00011709746725882168,-0.017293647742157654,0.020997680337627302,0.9790403799336288
2011-09-19,1,4.836619986441158e-05,0.00010044785988195796,-0.017293647742157654,0.02154244836363175,0.9780970048363608
2011-09-21,-1,-0.0006936739382985223,-0.000589853988077193,-0.017293647742157654,0.02567723151478985,0.9770139423224217
2011-09-23,-1,-0.0009910147217151218,-0.0008327978344159628,-0.014694241153965804,0.02567723151478985,0.9775194261843697
2011-09-27,1,0.0003913697184028928,0.0004121143238873857,-0.017293647742157654,0.020757277057973214,0.9783065635789053
2011-09-29,1,0.0007370433926116257,0.0007719518851088885,-0.01556880846036825,0.020757277057973214,0.9754446328387101
2011-10-03,-1,-0.0013151989248002753,-0.001115591705004811,-0.0074550402138749495,0.020757277057973214,0.9766643321442752
2011-10-05,1,0.0018984645028729008,0.002105590329400526,-0.015024056659183573,0.020757277057973214,0.980004966710594
2011-10-07,0,0.0,0.0,-0.015024056659183573,0.023259106210797,0.97833228269053
2011-10-11,1,0.001463309811971526,0.0016124334349493143,-0.015024056659183573,0.020757277057973214,0.9796661602209369
2011-10-13,1,0.002419396666565727,0.0026332999664214107,-0.018271153674506255,0.023259106210797,0.977422477325184
2011-10-17,1,0.00269883173883912,0.002972751450899508,-0.018271153674506255,0.025467799336720425,0.9777081442129064
2011-10-19,1,0.002859110157342922,0.003161978736025169,-0.018271153674506255,0.023259106210797,0.9786127992798838
2011-10-21,1,0.0037301820010072788,0.004196587463251726,-0.018271153674506255,0.020263416063131406,0.9790518988963409
2011-10-25,1,0.0031750713655082675,0.003541192082966503,-0.018271153674506255,0.017539747533309114,0.9794536905261041
2011-10-27,1,0.005921129064822096,0.00661990459684105,-0.02102777324512639,0.007235595898160645,0.9802250021371405
2011-10-31,1,0.004909511415629901,0.00544962824254434,-0.019429339591486478,0.017539747533309114,0.9798043525252798
2011-11-02,1,0.004531973272272383,0.004993364345846032,-0.024708913219800992,0.017539747533309114,0.9772448847106132
2011-11-04,1,0.004262949692657684,0.004675651370091193,-0.017130932761457527,0.012241047346572059,0.9788433406488171
2011-11-08,1,0.0041813849575970015,0.004578982702857924,-0.017130932761457527,0.004762456366064228,0.9791541432263968
2011-11-10,1,0.004573183019742092,0.005103505190783375,-0.013317799054069629,0.004762456366064228,0.9790305125846821
2011-11-14,1,0.005379156171362264,0.006063660962827249,-0.020792328017957735,0.0020311263629492044,0.9772277451703725
2011-11-16,0,0.0,0.0,-0.020792328017957735,0.003618065821012769,0.9793642731690391
2011-11-18,0,0.0,0.0,-0.020792328017957735,0.003618065821012769,0.9790248902528622
2011-11-22,0,0.0,0.0,-0.020499991574373412,0.00791941942342052,0.977027502780035
2011-11-25,1,0.001606340648657782,0.0018223415282382417,-0.017924904493674336,0.01107990391250831,0.9787612680411664
2011-11-29,1,0.002577652446535438,0.002914256475955759,-0.020095580558268707,0.008923141253192556,0.9793569613752844
2011-12-01,1,0.0031300868013990233,0.0035099969277613014,-0.017924904493674336,0.008923141253192556,0.9826236037995953
2011-12-05,1,0.0029103492956196243,0.003245828915255225,-0.017924904493674336,0.007787611906024875,0.9832021784547136
2011-12-07,1,0.00255549525086638,0.0028381616320754008,-0.017924904493674336,0.012920896058580017,0.9819762392036363
2011-12-09,0,0.0,0.0,-0.017924904493674336,0.009876556932505613,0.9838832621246624
2011-12-13,0,0.0,0.0,-0.00892914112536763,0.018497083589141563,0.984385884603739
2011-12-15,0,0.0,0.0,-0.0014703828300109659,0.018497083589141563,0.9853107169528735
2011-12-19,0,0.0,0.0,0.0017212738646619592,0.018568032125524395,0.9849603318082975
2011-12-21,1,0.0013955755581602377,0.001516457814708209,0.0012482880424423202,0.018497083589141563,0.9888077090223186
2011-12-23,1,0.001510851285312739,0.001611366004468202,0.0012482880424423202,0.018497083589141563,0.9890002042578099
2011-12-28,1,0.0006141032526760971,0.0006649057100724115,0.0012482880424423202,0.018497083589141563,0.989125974008192
2011-12-30,1,5.013169222000416e-05,0.00020942539973920594,0.0005656078682871587,0.01690343097287563,0.9901095209715076
2012-01-04,1,5.163465429433643e-05,0.00024446704277397767,0.0011546850451038784,0.018497083589141563,0.9893163553124417
2012-01-06,1,0.001997094320733266,0.002105114321411216,-0.00035170488914609745,0.01690343097287563,0.9912167635016176
2012-01-10,1,0.0015859596588863253,0.0016301008696407199,-0.00035170488914609745,0.018497083589141563,0.9904670790261363
2012-01-12,1,0.0006231254012084013,0.0008325972908521755,-0.002308992184805494,0.01637598406949302,0.989640287467416
2012-01-17,1,0.0016196817080978468,0.0016684911489309442,-0.0031140298615311155,0.01637598406949302,0.9895422957250034
2012-01-19,1,0.0017378007280619329,0.0018146059354007425,-0.00539497514385188,0.015339543780916549,0.989589032629407
2012-01-23,1,0.0018603299394267412,0.0018658037520833848,-0.0031140298615311155,0.015339543780916549,0.9898422775570447
2012-01-25,1,0.002501567056265849,0.002633709406392966,-0.0031140298615311155,0.01637598406949302,0.9870723360741955
2012-01-27,1,0.0022660107279092153,0.002287195895720613,-0.00539497514385188,0.015340932264740686,0.9873382164703023
2012-01-31,1,0.001921100445372641,0.0019439704440064151,-0.0077181293487555425,0.015340932264740686,0.9862071100089455
2012-02-02,1,0.0021583378421897044,0.0021760091650484784,-0.008979333277750351,0.008492846528650688,0.9860928694253608
2012-02-06,1,0.002539409342128933,0.0025828204917287476,-0.008979333277750351,0.0065558122564054935,0.9864166251920355
2012-02-08,1,0.0031535723921142164,0.0032972469438466287,-0.008979333277750351,0.005264574677677312,0.9874629500679513
2012-02-10,1,0.0021678503830941526,0.0021708539132987027,-0.0077181293487555425,0.005264574677677312,0.9890488329917588
2012-02-14,1,0.0015607989138109201,0.0017036269858104244,-0.007827001115517469,0.004603381832759252,0.9896514991292941
2012-02-16,1,0.0010722924981930964,0.001294170438099354,-0.007761209674638702,0.004603381832759252,0.9901576279606586
2012-02-21,1,0.0014184160894563109,0.001561787458977372,-0.008027554568023395,0.00549476706677048,0.9892294548321363
2012-02-23,1,0.0036526371423991127,0.003783884163576327,-0.008027554568023395,0.00549476706677048,0.9912345377301633
2012-02-27,1,0.002012442150390647,0.002180227977792195,-0.008027554568023395,0.007441207453586485,0.9910394118936143
2012-02-29,1,0.0020071366150437317,0.002023373378232708,-0.00678656131687257,0.007441207453586485,0.9919052805174109
2012-03-02,1,0.0008172490727926349,0.0010267456512533316,-0.006476999341941386,0.007441207453586485,0.9927528992516226
2012-03-06,1,0.0016562548184790294,0.0017202890486463982,-0.004258901066854472,0.009365160659612449,0.9918667025281528
2012-03-08,1,0.0012410242400662623,0.0013538039919619694,-0.0070330772023510756,0.009365160659612449,0.9911858369485922
2012-03-12,1,0.0012798968929437662,0.0013982675961361692,-0.008027554568023395,0.008842601217196329,0.9907744855927879
2012-03-14,1,0.0007337642691575493,0.0009147942671864581,-0.0070330772023510756,0.009127237005096836,0.9909817103922816
2012-03-16,1,0.0007242836021730244,0.000883423898078707,-0.007104490164872244,0.009127237005096836,0.9907677037043083
2012-03-20,1,0.00039882214405847897,0.0006057583526910831,-0.007104490164872244,0.009129142872840407,0.9899867836178794
2012-03-22,1,0.002191890310878128,0.0024222663462058567,-0.007104490164872244,0.00999149100051339,0.9893632373079199
2012-03-26,1,0.0020284782109096173,0.00215316628867714,-0.008522003077192721,0.009158819536655217,0.9895393017428419
2012-03-28,1,0.0018315640429306674,0.0019185624264979684,-0.007379078264835661,0.00999149100051339,0.9884154771771898
2012-03-30,1,0.0011864742833028058,0.0011978026453074084,-0.010211990249940149,0.01118507717359863,0.9869332247296726
2012-04-03,1,0.002065585584775314,0.002190751137959742,-0.012026216877215725,0.00977677574855924,0.9873515386148896
2012-04-05,1,0.0017650229934730508,0.001788462548031376,-0.01614787786230635,0.00977677574855924,0.985820527793327
2012-04-10,1,0.0013008454360244589,0.0013155973950280619,-0.01339682006581025,0.00977677574855924,0.9861363058686085
2012-04-12,1,0.0010486488922179637,0.0011281120437117986,-0.01339682006581025,0.00977677574855924,0.9864725748409836
2012-04-16,1,0.0006944856393387069,0.0008222570180941417,-0.01565716810219243,0.00977677574855924,0.986400326812636
2012-04-18,1,9.7298695504501e-05,0.00032894621103780907,-0.013114242519000782,0.00977677574855924,0.9876116461033562
2012-04-20,1,0.0002538888999830142,0.0005144861324712676,-0.013114242519000782,0.002053651752058158,0.9886531651496047
2012-04-24,1,0.0003560502956262273,0.0005811873090302825,-0.010608350280364177,0.0042625395520712525,0.9887706479704383
2012-04-26,1,0.001222899476111068,0.0013322809148875881,-0.010608350280364177,0.002684324755889293,0.9900275844341268
2012-04-30,1,0.0008935710948637263,0.0010299025142958252,-0.009110238052086786,0.002684324755889293,0.9916666387904101
2012-05-02,1,0.0008826044219203502,0.0010352734428798688,-0.008889732665877387,0.002684324755889293,0.9920793163599426
2012-05-04,1,0.0006826475190552338,0.0007977725528516066,-0.006247881523943121,0.004456403364375781,0.9932626397137512
2012-05-08,-1,-0.0008635164820996197,-0.000499005304482801,-0.004349188919905179,0.005451378887109805,0.9934350024703195
2012-05-10,-1,-0.001411911363148139,-0.0009599053441728914,-0.005440781496290938,0.00824028213172456,0.9924531626428611
2012-05-14,-1,-0.0025021582656980907,-0.0018954457527028752,-0.005440781496290938,0.011521123311151899,0.9902954720876528
2012-05-16,-1,-0.0021966168411213733,-0.00163269802045966,-0.005851803114534177,0.008574506934220062,0.9902334542199859
2012-05-18,-1,-0.0022040345317314736,-0.0016674939492983404,-0.005440781496290938,0.010636711120037364,0.989978912549378
2012-05-22,-1,-0.002634185970844741,-0.002012569650071443,-0.005459585825336814,0.011572928588535456,0.9887973910014991
2012-05-24,-1,-0.0024293453708002337,-0.0018354497144964501,-0.005851803114534177,0.01638051747348425,0.9868372175259522
2012-05-29,-1,-0.002262589182249302,-0.0017005093570019762,-0.0072231206784218235,0.01638051747348425,0.9864601631413484
2012-05-31,-1,-0.0014371337424116106,-0.001055948901720126,-0.005851803114534177,0.01638051747348425,0.9869182656498517
2012-06-04,-1,-0.0016111865691299132,-0.0011943971693367042,-0.005681386560031657,0.01664566365583619,0.9853459593794843
2012-06-06,-1,-0.0006588459933762596,-0.0004054032040359734,-0.005681386560031657,0.016485471251919483,0.985265004924329
2012-06-08,-1,-0.00030431406728711737,-0.00010833884626922129,-0.006481735283109517,0.013577651206294759,0.9852761801291494
2012-06-12,0,0.0,0.0,-0.0044205309706440085,0.010603655239993882,0.9878573412308878
2012-06-14,0,0.0,0.0,-0.003718338813617811,0.013577651206294759,0.9876881786597677
2012-06-18,-1,-0.00015797407766643222,-2.680562603464277e-05,-0.004455117469204767,0.013577651206294759,0.9876186600858025
2012-06-20,1,0.0004050798842550542,0.0004685403510520129,-0.004487318897973793,0.013450161576761776,0.9884397765416508
2012-06-22,1,5.7079731734148615e-05,0.00017819620665318094,-0.00638082600405285,0.0058055023697104954,0.9891707042214121
2012-06-26,-1,-0.00032366902795249384,-0.0002001509233703747,-0.00638082600405285,0.01274193786330289,0.9888529516569458
2012-06-28,0,-6.877632121147337e-05,1.2431037717999625e-05,-0.011007820895390284,0.014501252571277004,0.9839615753638742
2012-07-02,1,0.001621943195790503,0.0018039461401140912,-0.012592439856560693,0.006155866034548904,0.9850738166634778
2012-07-05,1,0.0015882318358367079,0.0017062520450485752,-0.017529145724146242,0.0034244731191395462,0.9843315396270257
2012-07-09,1,0.0009830653694899493,0.0010316768294637792,-0.012592439856560693,0.008185132447351836,0.9843412521336461
2012-07-11,1,0.0005686552528041443,0.0005888771369994999,-0.012592439856560693,0.008185132447351836,0.9844187805590275
2012-07-13,1,0.0012391392076929874,0.0013018735946940397,-0.012592439856560693,0.005597896402714128,0.9846107178668247
2012-07-17,1,0.002197667457591808,0.002571258749960077,-0.012592439856560693,0.005597896402714128,0.9846903889474409
2012-07-19,1,0.002069208445279753,0.0023672278240075674,-0.012592439856560693,0.005597896402714128,0.9846093417385487
2012-07-23,1,0.00045383643537731465,0.0004544506064316849,-0.009351291337224309,0.006066577336124529,0.9854947509937954
2012-07-25,1,0.00017799716683337459,0.0002255599563981563,-0.008582104796076294,0.00551481096680128,0.9867941026453946
2012-07-27,1,0.0008231246281051829,0.000851567897310777,-0.00830894057301117,0.005313890486513675,0.9917426680336595
2012-07-31,-1,-0.0006688216562612298,-0.0005155084841541627,-0.002504230227076229,0.00551481096680128,0.9919642323334397
2012-08-02,-1,-0.0009432363951934861,-0.0007805072052515928,-0.002504230227076229,0.005313890486513675,0.9928911594514513
2012-08-06,-1,-0.0002922440561532595,-0.0001886478185528942,-0.002504230227076229,0.004207840988983904,0.9938407492688066
2012-08-08,-1,-0.00015875757677443825,-6.30410467033581e-05,-0.002504230227076229,0.005470117464317142,0.9927263384334931
2012-08-10,-1,-0.00038642064301523183,-0.00026817373578412994,-0.004888620638012894,0.004378965800948751,0.9926321366973481
2012-08-14,-1,-0.0006900881571778328,-0.0005463752430462398,-0.0017840355287636292,0.005134827529627337,0.9928132414721025
2012-08-16,1,0.0010994852295664803,0.0012325628229435156,-0.0017840355287636292,0.004026920461762354,0.9942947255072723
2012-08-20,1,0.0005259087720666542,0.0005707414060160195,-0.0016964178582924985,0.004026920461762354,0.9945624925663114
2012-08-22,1,0.00047936154839747064,0.0004921296709409833,-0.0016964178582924985,0.004015703987544329,0.994711887919392
2012-08-24,1,0.0011415516099360546,0.0012996660271020757,-0.0016964178582924985,0.0053763507629036545,0.9942658565393038
2012-08-28,1,0.0013607240720410379,0.0015508094454208437,-0.0016964178582924985,0.003933689774394244,0.9943820114883372
2012-08-30,1,0.0003707336167384804,0.0003810452676677904,-0.00113083059291738,0.0055643438487984875,0.9932061829555344
2012-09-04,1,0.0012295380586357582,0.0013712842483658326,-0.00113083059291738,0.00770710921077439,0.9932192971978399
2012-09-06,1,0.001860754029973914,0.0020840731192274886,-0.00113083059291738,0.00770710921077439,0.9939851837314138
2012-09-10,1,0.0012722593686941123,0.0014098859174253124,-0.0007731496554316071,0.00770710921077439,0.9942223698567857
2012-09-12,0,0.0,0.0,-0.0007731496554316071,0.00770710921077439,0.9933309045041997
2012-09-14,0,0.0,0.0,-0.001297272828729117,0.00770710921077439,0.9932395962426754
2012-09-18,0,0.0,0.0,-0.001297272828729117,0.007926223257449447,0.992975357314563
2012-09-20,0,0.0,0.0,-0.0036658067360435123,0.007926223257449447,0.9917800116418563
2012-09-24,0,0.0,0.0,-0.005059550481088032,0.004838615037764593,0.9918097715176832
2012-09-26,0,0.0,0.0,-0.005059550481088032,0.008598120408937395,0.9905062570339275
2012-09-28,0,0.0,0.0,-0.005059550481088032,0.009194255057783098,0.9869568091116913
2012-10-02,0,0.0,0.0,-0.006789145702056498,0.011137084136406121,0.9860182547954228
2012-10-04,0,0.0,0.0,-0.011267455450388642,0.01213514110367267,0.9849398066801051
2012-10-08,0,0.0,0.0,-0.013595968422582838,0.013672539845448223,0.983690795927824
2012-10-10,0,0.0,0.0,-0.013595968422582838,0.013672539845448223,0.9836407200918823
2012-10-12,0,0.0,0.0,-0.013595968422582838,0.014672723565783967,0.9828058609844503
2012-10-16,0,0.0,0.0,-0.01602387847268473,0.014672723565783967,0.9820178778098579
2012-10-18,0,0.0,0.0,-0.013595968422582838,0.015297115175615774,0.9820211984714828
2012-10-22,0,0.0,0.0,-0.014253145249441108,0.015297115175615774,0.981113626140808
2012-10-24,0,0.0,0.0,-0.014253145249441108,0.014672723565783967,0.9819449451785565
2012-10-26,1,0.0058492344573743285,0.00642674143231576,-0.01463611850451475,0.012425049992403053,0.9857426321050532
2012-11-01,0,0.0,0.0,-0.01463611850451475,0.009013838777768735,0.9875607315064804
2012-11-05,1,0.004412490261814365,0.0048622314136836185,-0.008932330009296665,0.00684383213918788,0.9881840490945605
2012-11-07,1,0.0037595263170371544,0.004106316924029934,-0.006949864626042679,0.005753735678010155,0.9894418752606159
2012-11-09,1,0.0030494079454367238,0.003315409823217223,-0.006191553762178777,0.00684383213918788,0.9904691156612369
2012-11-13,0,0.0,0.0,-0.006191553762178777,0.0066285386148868825,0.9914279641198952
2012-11-15,0,0.0,0.0,-0.006184720908237313,0.0066285386148868825,0.9923154841523166
2012-11-19,1,0.0012438018679337083,0.001276479634049248,-0.006184720908237313,0.007461673870771785,0.9924746318713006
2012-11-21,1,0.0021796957112614626,0.0022696653467348914,-0.0035954646834586773,0.0066285386148868825,0.9941451226261923
2012-11-26,1,0.0033437246165691306,0.003690128132961357,-0.006184720908237313,0.0057599215512754345,0.9937477604564976
2012-11-28,0,0.0,0.0,-0.006184720908237313,0.00553284573809344,0.9938628840742046
2012-11-30,0,0.0,0.0,-0.0035954646834586773,0.005965868795136736,0.9938823103709938
2012-12-04,1,0.0018619100655239006,0.0020017552854753673,-0.0035954646834586773,0.008133403585059328,0.9920956372991087
2012-12-06,1,0.0017376334625565026,0.001901070129644902,-0.002188730583298207,0.011008986480758412,0.9916083413182621
2012-12-10,1,0.0017959968905858156,0.0019305181718175315,-0.0034526728074151043,0.011874838036569618,0.9909724546499006
2012-12-12,1,0.002010523306222145,0.0021813511240963233,-0.0034526728074151043,0.011874838036569618,0.9904135952450893
2012-12-14,1,0.0013759685314709055,0.0014056447319692616,-0.003216992297435756,0.011874838036569618,0.9904338643879289
2012-12-18,1,0.0021775968594829036,0.0023064218089933787,-0.0032711391276950366,0.010539834498819487,0.9914419912143353
2012-12-20,1,0.0021677457304614942,0.002322817227255692,-0.0032711391276950366,0.010539834498819487,0.9914302893175659
2012-12-24,1,0.0010904369478647916,0.0011589613914702885,-0.003216992297435756,0.01164153226739065,0.9909777124271516
2012-12-27,1,0.00021240979383319101,0.00041550133246412576,-0.003216992297435756,0.014247325883721672,0.9900609317524797
2012-12-31,1,0.0010668354344486213,0.001131889856584094,-0.0032711391276950366,0.013347084066510237,0.9903739407684438
2013-01-03,1,0.0011929523549745944,0.0012384273173745412,-0.003216992297435756,0.010539834498819487,0.9926026060224276
2013-01-07,1,0.0013430832500370363,0.0013895841327332802,-0.0032711391276950366,0.010539834498819487,0.9924472070890862
2013-01-09,1,0.0016081132241818712,0.0016513412407673355,-0.002898848784382122,0.010539834498819487,0.9928247839997985
2013-01-11,0,0.0,0.0,-0.0032711391276950366,0.0065321875149090425,0.9929618887811846
2013-01-15,0,0.0,0.0,-0.00290009027495149,0.009509094299597398,0.9924371462088242
2013-01-17,0,0.0,0.0,-0.002805617760662169,0.009509094299597398,0.992255158998525
2013-01-22,0,0.0,0.0,-0.0030703996369356636,0.009509094299597398,0.9921167115414796
2013-01-24,0,0.0,0.0,-0.0039439371951307456,0.009509094299597398,0.9915758668529884
2013-01-28,0,0.0,0.0,-0.0039439371951307456,0.0069004712653243875,0.9922705200154999
2013-01-30,0,0.0,0.0,-0.0030703996369356636,0.008789104323141101,0.9921385610988833
2013-02-01,0,0.0,0.0,-0.0030703996369356636,0.010379257050248416,0.9909408788986478
2013-02-05,0,0.0,0.0,-0.0030703996369356636,0.009168949705105428,0.9916612660956687
2013-02-07,0,0.0,0.0,-0.0030703996369356636,0.010342273309847935,0.9914154079300157
2013-02-11,1,0.0017633958324051935,0.001797002362693588,-0.0030703996369356636,0.010342273309847935,0.9909064636690254
2013-02-13,1,0.0021922913569395433,0.002292675781139926,-0.0030703996369356636,0.009168949705105428,0.9915806370019633
2013-02-15,1,0.0020339730783851947,0.0020917371960391183,-0.002622380999247249,0.009168949705105428,0.9917507019089117
2013-02-20,1,0.0019304243593405432,0.0019783929625458814,-0.0026663363318613015,0.009168949705105428,0.9917524781332924
2013-02-22,1,0.0023548027225385277,0.002448481047215008,-0.0026663363318613015,0.009168949705105428,0.9926079484383356
2013-02-26,1,0.0025382027711781546,0.002703189579908216,-0.0021123493218817603,0.010016751010671603,0.9925800956996069
2013-02-28,1,0.002713928735730767,0.0029226781298570884,-0.00166850366584524,0.01067924906745635,0.9923609572929508
2013-03-04,1,0.0036350397137194994,0.003966830672473903,-0.0024790702950817584,0.009278131418505742,0.9925013258693982
2013-03-06,1,0.0032851533121428154,0.0035446840691312855,-0.0024790702950817584,0.009278131418505742,0.9923409809222546
2013-03-08,1,0.003543822335581991,0.0037862167526998758,-0.003855970285964518,0.007484255583544675,0.9918319699414089
2013-03-12,1,0.0023968542378372372,0.0024681744231224443,-0.003855970285964518,0.009278131418505742,0.9906684654053463
2013-03-14,1,0.0022652571378876797,0.0023360277657780023,-0.004634692900519055,0.009278131418505742,0.9903563585938419
2013-03-18,1,0.0016490841897318163,0.0017245974339647387,-0.007232700080583858,0.010439777478335724,0.9873533815996879
2013-03-20,1,0.0005973529922440036,0.0008343099901376601,-0.011917649943707809,0.010439777478335724,0.9862646248301397
2013-03-22,1,0.0011552116324342085,0.0012733650459480007,-0.011917649943707809,0.011709050177203008,0.9858201352855279
2013-03-26,1,0.003369894304847926,0.003721672315983959,-0.011917649943707809,0.011709050177203008,0.9858394374052937
2013-03-28,1,0.004287332941055778,0.0047758591624297575,-0.011917649943707809,0.011892092014837156,0.9826729026188126
2013-04-02,1,0.003259185082750967,0.003570837732056071,-0.009554059063180766,0.015997995183970652,0.9822898709992758
2013-04-04,1,0.002667157679472964,0.002861656848521163,-0.010029076691660371,0.017659062371028027,0.9816425003024712
2013-04-08,1,0.0019418682203722576,0.0019874520732733295,-0.008781713427208186,0.017659062371028027,0.9823982206200873
2013-04-10,1,0.0024570671980298974,0.0025917268953043948,-0.006779723322327738,0.017659062371028027,0.9837855521497487
2013-04-12,1,0.001208563973713708,0.0012991773291110187,-0.007657608974446301,0.017659062371028027,0.984013022164228
2013-04-16,1,0.0013545167417529191,0.00139814967592853,-0.006193010224348971,0.015997995183970652,0.9865127301916946
2013-04-18,0,-0.00016671223218415868,7.757894375550768e-05,-0.004968103514376117,0.017659062371028027,0.9864771109761761
2013-04-22,1,0.00033583543964454455,0.0005191967183623441,-0.005349145318419265,0.016088814520636346,0.9865527200658525
2013-04-24,1,0.0003528826782136542,0.0005546211425350536,-0.007657608974446301,0.014761591477175248,0.9868449364089287
2013-04-26,1,0.0019267599666581321,0.0019641166102541416,-0.005349145318419265,0.01302874532064248,0.9900003407608573
2013-04-30,1,0.0021423989028215152,0.0021584984892326015,-0.0050932099407084725,0.01302874532064248,0.9907790877453352
2013-05-02,1,0.0018324482402862269,0.0019134746442881511,-0.0050932099407084725,0.01302874532064248,0.9900839246568731
2013-05-06,1,0.001717656793109691,0.0017993862226670483,-0.0025759251972078435,0.01302874532064248,0.990023140160991
2013-05-08,1,0.002474854217344915,0.0024843950946594274,-0.006568329503346039,0.009830316481799013,0.9902810069696624
2013-05-10,1,0.0018381687610367068,0.001917254027173712,-0.006203747172190398,0.009830316481799013,0.9902585790160023
2013-05-14,1,0.0025865522593212253,0.0026469004877932266,-0.011100059407514231,0.008824538898470416,0.9895796228089718
2013-05-16,1,0.0032555537289510024,0.003382087097904471,-0.011100059407514231,0.0059046560329280625,0.9908198625703493
2013-05-20,1,0.0025953904057917287,0.00260733953435065,-0.007435582427851422,0.0059046560329280625,0.9907683304002294
2013-05-22,1,0.001627212323365936,0.0017580023456671913,-0.011134428414378844,0.0059046560329280625,0.9899555969276597
2013-05-24,1,0.0018054576885711967,0.0019005794761698923,-0.011134428414378844,0.0059046560329280625,0.9897694382534334
2013-05-29,1,0.0021884181083608343,0.0022513701060708474,-0.011134428414378844,0.005363378247575245,0.9905175796814215
2013-05-31,1,0.0027635736991570093,0.0027874240730779484,-0.008789984744070119,0.005363378247575245,0.9917527902101144
2013-06-04,1,0.0033379307751201823,0.0034602642396255557,-0.008789984744070119,0.005204346724549537,0.9912542118301552
2013-06-06,1,0.002984351357545263,0.0030959041704350255,-0.0069787515092585035,0.005657830510137562,0.9917822325517237
2013-06-10,1,0.0026152681575758365,0.002660780124404274,-0.0069787515092585035,0.007166250616130639,0.9917795677773045
2013-06-12,1,0.0013466573451407491,0.001468491893310187,0.0013589129422155969,0.010351655110454522,0.9909350490326891
2013-06-14,1,0.0014673157028560367,0.0015637272903093187,-0.0015437744199055471,0.010351655110454522,0.9906173596374611
2013-06-18,1,0.002434897021454714,0.0024864339367292455,-0.005839813134592188,0.008055463376487309,0.9913777954196167
2013-06-20,1,0.0014263708181105133,0.0014815971840680725,0.0013589129422155969,0.010351655110454522,0.9917162597394168
2013-06-24,1,0.0010409120728749426,0.0011538261388305746,0.002430945418647603,0.010351655110454522,0.9908966864736938
2013-06-26,1,0.0010084584037412334,0.0011351200518604251,-0.0007065750316844126,0.012240581547480056,0.9896615874304289
2013-06-28,1,0.0005425114817397277,0.0007219612503211174,-0.0038376767181123386,0.010584626702876392,0.9881940859785607
2013-07-02,1,0.00150165614305052,0.0015431846393594584,-0.0052957444206930705,0.009521694795815727,0.9888892675196281
2013-07-05,1,0.0016646625342050874,0.0017077303686305638,-0.0052957444206930705,0.01030665133643882,0.9889019609550777
2013-07-09,1,0.0022030379184176216,0.002246490775469924,-0.006102251390537801,0.009265656862780528,0.9889732368198167
2013-07-11,1,0.0034269309861788004,0.0036257977170055253,-0.0067032547584856515,0.009265656862780528,0.9898671724577566
2013-07-15,1,0.002952879825147627,0.003078489553135212,-0.005785416716483028,0.009265656862780528,0.9900976271977986
2013-07-17,1,0.0030363634553715758,0.003193999607097275,-0.006538062763859512,0.009265656862780528,0.990010864017339
2013-07-19,1,0.003380893496445576,0.003558952248739554,-0.007355558945545874,0.0029163749574553986,0.9890957542232127
2013-07-23,1,0.0029804757297567847,0.0031070344694354847,-0.006561860965159644,0.0029163749574553986,0.989088832562337
2013-07-25,1,0.004958856852757208,0.005403097195625131,-0.006561860965159644,0.004052588557843145,0.9892321778061345
2013-07-29,1,0.0026344667861987643,0.002766725898942977,-0.0054960788766756875,0.004052588557843145,0.9924334929058028
2013-07-31,1,0.002602351622313292,0.0027731495561417723,-0.00639435281819759,0.004693183185029161,0.9916554501389504
2013-08-02,1,0.002438529172471094,0.0025309507971314257,-0.006561860965159644,0.004693183185029161,0.9912550541601698
2013-08-06,1,0.0019218507114219401,0.0019326630727462184,-0.00639435281819759,0.01102545994821148,0.9900492700417621
2013-08-08,1,0.001858666424733546,0.001860153527407495,-0.006561860965159644,0.010984287153575007,0.9899447887052076
2013-08-12,1,0.0016114777573843578,0.0016645735106614874,-0.006561860965159644,0.013200473813818572,0.9888288141566375
2013-08-14,1,0.0010993442171715264,0.0012101407946474105,-0.0066468109547923055,0.013200473813818572,0.9887131577593197
2013-08-16,1,0.00036766374837456984,0.0005313964498501629,-0.005078959319839243,0.013200473813818572,0.9894164516583471
2013-08-20,1,0.0011515818860196494,0.001188405814104936,-0.0021540090387461596,0.013200473813818572,0.9899815017696033
2013-08-22,1,0.0010799527013401816,0.001170475952352157,-0.0021540090387461596,0.01373555855535843,0.9886473218686609
2013-08-26,1,0.0005308797912634357,0.00070773670327959,0.0012781613267002674,0.015561834029183694,0.9871864880031073
2013-08-28,-1,-0.0006364598756716611,-0.00030300795384677174,0.0012781613267002674,0.015561834029183694,0.9874814808593079
2013-08-30,-1,-0.0006045545795488824,-0.00028810925323529313,-0.000624668753224064,0.015561834029183694,0.9883143187272395
2013-09-04,1,0.000423145881931816,0.0006448734983445538,-0.0043191162255228465,0.015561834029183694,0.9891668973403175
2013-09-06,0,-6.250731899098798e-06,0.00029176186271438276,-0.0043191162255228465,0.015561834029183694,0.9886403737178078
2013-09-10,1,0.00032920302134958293,0.000610651695281339,-0.007125129468953568,0.013376529194707505,0.9883989020896977
2013-09-12,1,7.741828966633681e-05,0.00041258043342121055,-0.006546696735101909,0.013975912588067782,0.9873179248027296
2013-09-16,0,-0.00014362616142503198,0.00021308635583025277,-0.006546696735101909,0.015972347944185297,0.9855952706307689
2013-09-18,1,0.001407782519490679,0.0014924860572682512,-0.007892603728735726,0.015759694327068103,0.985209664780594
2013-09-20,1,0.0029828162616994487,0.003118466553680372,-0.007892603728735726,0.017562349642079866,0.985795495292942
2013-09-24,1,0.0038980954361211625,0.004160684886893036,-0.009575573485502243,0.015438914325257829,0.9863418261015122
2013-09-26,1,0.003491396064530802,0.003690681739368372,-0.010280104161160035,0.017562349642079866,0.9817263963646989
2013-09-30,1,0.004351467762061578,0.004653238609232866,-0.011306022424568461,0.017562349642079866,0.9809860334230276
2013-10-02,1,0.0036879561821792275,0.003909617747448198,-0.014160625121913446,0.015438914325257829,0.9813846273514618
2013-10-04,1,0.003648474936986284,0.0038801970148201756,-0.01475375569843771,0.015438914325257829,0.9809312282754596
2013-10-08,1,0.0023048359415989562,0.002421757877904116,-0.011479671740891931,0.017562349642079866,0.981033881236164
2013-10-10,1,0.003087752665136005,0.003257278717502753,-0.015208658094181074,0.015438914325257829,0.9801797882338877
2013-10-14,1,0.0036884230159993417,0.003931196791008078,-0.015208658094181074,0.013596999755486157,0.9803192493293709
2013-10-16,1,0.0033282861892127034,0.003525459571439421,-0.011479671740891931,0.017380779166809787,0.9808189601565076
2013-10-18,1,0.004423035917096448,0.004760360168912785,-0.011479671740891931,0.004511501013371791,0.9814552475340431
2013-10-22,1,0.004137008005360077,0.004461357662665208,-0.011479671740891931,0.011432382844257452,0.9813764973075486
2013-10-24,1,0.007308548510404245,0.008076142399247864,-0.009316652252032542,0.011234174582043073,0.9847096803054363
2013-10-28,1,0.005862337200357415,0.006399483020112789,-0.006769462173602007,0.011234174582043073,0.9859962531761925
2013-10-30,1,0.004826204340725293,0.005208514109718287,-0.006421982740373157,0.011234174582043073,0.987413470533143
2013-11-01,1,0.002968770973966828,0.003036719718644054,-0.003964756337968708,0.011234174582043073,0.9880677622785551
2013-11-05,1,0.0035478001224741674,0.003698232580789155,-0.003964756337968708,0.008738938625885028,0.9894716846756637
2013-11-07,1,0.0020216888667520827,0.002032465650264619,-0.0007241293131432747,0.008738938625885028,0.9912830885871762
2013-11-11,1,0.002207719985739952,0.0022650159960675123,-0.003890116114008783,0.007920841445369801,0.991802211490023
2013-11-13,1,0.0027869401600433843,0.002796385489144162,-0.004072228930381295,0.007419412098208181,0.9925223405178818
2013-11-15,1,0.0025594886183005535,0.0025949269646823765,-0.004072228930381295,0.007573183599352676,0.9918169947335245
2013-11-19,1,0.003249095919018274,0.0032491109700606906,-0.004072228930381295,0.007573183599352676,0.99198612473062
2013-11-21,1,0.003920070037625013,0.004039490353099999,-0.006147319456253832,0.007573183599352676,0.9904088742528732
2013-11-25,1,0.0038973622603939084,0.004034304775477641,-0.0064661970335575525,0.007419412098208181,0.9905077755527321
2013-11-27,1,0.003863659793306961,0.004050985279196618,-0.0064661970335575525,0.007419412098208181,0.9902968078566313
2013-12-02,1,0.004178297649198726,0.00445541847088084,-0.0064661970335575525,0.007419412098208181,0.9901525020555152
2013-12-04,1,0.0034252683570925226,0.003583315236504766,-0.0064661970335575525,0.007470801068265075,0.9904765758771438
2013-12-06,1,0.0037127827136996805,0.003897565358123347,-0.0064661970335575525,0.005751909603873121,0.9902357385980728
2013-12-10,1,0.0031293800307162292,0.0032793279589069385,-0.006017642885377774,0.005834580972149117,0.9908553712954243
2013-12-12,1,0.002747999263122338,0.002827307721555886,-0.007791256797659446,0.006031522417134909,0.9899227812082649
2013-12-16,1,0.004059887969845589,0.004396193935288187,-0.007791256797659446,0.007333952586771097,0.9876694121209294
2013-12-18,1,0.0027031671337892863,0.0027881839576455493,-0.009918223582436329,0.006031522417134909,0.9870176151373138
2013-12-20,1,0.0026851828448996714,0.002740451920604724,-0.008390468905084901,0.006031522417134909,0.9886927801669991
2013-12-24,1,0.002433999822860798,0.0024735265753867536,-0.009918223582436329,0.006031522417134909,0.9877077887384283
2013-12-27,1,0.001893979612624117,0.0019442022118290154,-0.009918223582436329,0.010237208039810004,0.9865673048632815
2013-12-31,1,0.0008845851986398828,0.0010560108171827364,-0.009918223582436329,0.012263092907102875,0.9860184164808875
2014-01-03,1,0.0007387259367488915,0.0009169037185315245,-0.013335424300007455,0.012263092907102875,0.9850708751387686
2014-01-07,1,0.00019992542250737034,0.0004678053463290497,-0.013335424300007455,0.012263092907102875,0.9852642148798131
2014-01-09,-1,-0.0005444070865911115,-8.650786673868797e-05,-0.015164239201359661,0.012263092907102875,0.9811270118307364
2014-01-13,-1,-0.0011477496563486766,-0.000627585976818719,-0.015164239201359661,0.012263092907102875,0.9815808125096099
2014-01-15,1,0.0012831982246545672,0.0015041493858282862,-0.015164239201359661,0.012263092907102875,0.9817193187989249
2014-01-17,0,-0.00014966680681780518,0.00025886190335437957,-0.013291504893764166,0.01540834172240899,0.9825445098196478
2014-01-22,-1,-0.0007007010658753034,-0.0001836379094363259,-0.013291504893764166,0.016779790925870775,0.9825043834867967
2014-01-24,-1,-0.0020780526461904986,-0.001395968488003119,-0.0071264733749766464,0.016779790925870775,0.9836218057171875
2014-01-28,0,-0.00030886762242397737,0.00011278357429052939,-0.013291504893764166,0.008971803718879475,0.9835108363701807
2014-01-30,-1,-0.0006473902257783056,-0.00018133151327350884,-0.008667787151171747,0.006470012481273317,0.9849625964607703
2014-02-03,-1,-0.0013381288185336346,-0.0008470855635990713,-0.008246810225950212,0.008971803718879475,0.9852925957820395
2014-02-05,-1,-0.001515316044582582,-0.0010047930707818005,-0.010435438780453714,0.008964206365399824,0.9850812536101164
2014-02-07,-1,-0.004831436638248351,-0.003927073568052674,-0.007457955578357626,0.008964206365399824,0.9894954960028117
2014-02-11,-1,-0.005125647620659746,-0.0042119308000333495,-0.007457955578357626,0.008964206365399824,0.9894795592382569
2014-02-13,-1,-0.0027304728441131703,-0.002166425031673324,-0.007457955578357626,0.0007442799229339986,0.9919429256428675
2014-02-18,-1,-0.0019093866419265314,-0.0014936902472393611,-0.007457955578357626,0.003373498458582637,0.9913792923181607
2014-02-20,-1,-0.0015006361184617765,-0.0011205901559447114,-0.008246810225950212,0.003373498458582637,0.9911860383863219
2014-02-24,-1,-0.0017498646944623549,-0.0013325593045408993,-0.010435438780453714,0.0007442799229339986,0.9902363591500071
2014-02-26,-1,-0.002754913501917009,-0.002231763542021565,-0.010435438780453714,0.0016002720470694937,0.9911877256063656
2014-02-28,-1,-0.003183621093596228,-0.0026043257241974297,-0.013334745911352364,0.0016002720470694937,0.9893399181564457
2014-03-04,-1,-0.003742372294570274,-0.003028776135963225,-0.013334745911352364,0.003958531473833267,0.9886746984776827
2014-03-06,-1,-0.00403226340245132,-0.0033153262631912457,-0.014903487509726684,0.003958531473833267,0.988381643079569
2014-03-10,-1,-0.003945247299266357,-0.0033188299605629223,-0.016052840004299105,0.003958531473833267,0.9858620672078514
2014-03-12,-1,-0.004773308466843132,-0.004038286984927902,-0.014903487509726684,0.00935430064444163,0.9849307897396163
2014-03-14,-1,-0.004986457330738963,-0.0044134023652938744,-0.016052840004299105,0.00935430064444163,0.9821222747985524
2014-03-18,-1,-0.00421002097533679,-0.0037148665305538715,-0.016052840004299105,0.004669008285936882,0.9825930254614642
2014-03-20,-1,-0.0019111835992437157,-0.0017229488325237645,-0.016052840004299105,0.010195219975420954,0.9819386569964115
2014-03-24,-1,-0.003590197119408083,-0.0031638913010730556,-0.014312238004619258,0.010613039084014552,0.9817375226247574
2014-03-26,-1,-0.004304529764862466,-0.0037698132837230315,-0.016015584008533028,0.010613039084014552,0.9812352565046509
2014-03-28,-1,-0.006780624681715711,-0.005903334360297552,-0.014312238004619258,0.010613039084014552,0.9825067130554049
2014-04-01,-1,-0.004656206278414138,-0.004069210466426376,-0.014312238004619258,0.01169462264620629,0.9822861709998716
2014-04-03,-1,-0.006345704644520305,-0.005486931650407751,-0.010650807106363448,0.01169462264620629,0.9821403283452406
2014-04-07,-1,-0.007680108606898583,-0.006728008123361178,-0.005714077542908811,0.01169462264620629,0.9826383811089463
2014-04-09,-1,-0.005787911195728278,-0.005107078223172837,-0.011720145288059175,0.010195219975420954,0.9845851621670446
2014-04-11,-1,-0.007889501926309016,-0.006973784294602379,-0.009781251277644417,0.01569440985101513,0.983791419745045
2014-04-15,-1,-0.006837481342761948,-0.006080386052051895,-0.011994995087905429,0.01569440985101513,0.9841206815053205
2014-04-17,-1,-0.005000501530648849,-0.0044941651297439635,-0.011994995087905429,0.01690796803556309,0.984976865568629
2014-04-22,-1,-0.00444522366870803,-0.004016485817678055,-0.011994995087905429,0.010827484196102213,0.9856710242711767
2014-04-24,-1,-0.004978184155036589,-0.004516295418468227,-0.009228656393702716,0.016837637757716913,0.9852882170721259
2014-04-28,-1,-0.005050787562305904,-0.004563598743307283,-0.009228656393702716,0.016837637757716913,0.9845671357616392
2014-04-30,-1,-0.003012758317072072,-0.0027547311947020803,-0.0103633742115863,0.009538493024636874,0.9865818197301878
2014-05-02,-1,-0.002504891748297204,-0.002339702617663064,-0.012821710703999546,0.009538493024636874,0.9855414436576473
2014-05-06,-1,-0.004012503270563334,-0.0036441073145531966,-0.0103633742115863,0.009538493024636874,0.986692223304883
2014-05-08,-1,-0.004903114174697349,-0.004438719091179025,-0.005912474430214285,0.016837637757716913,0.9843430429642792
2014-05-12,-1,-0.0020134397270291857,-0.001936670929617294,-0.009320272993651468,0.009538493024636874,0.987085875497981
2014-05-14,-1,-0.002935289914886313,-0.0027852392150525184,-0.005912474430214285,0.009538493024636874,0.9880072194608778
2014-05-16,-1,-0.0019380586490725703,-0.001917712707759301,-0.0034681328084109416,0.009538493024636874,0.9881267516481593
2014-05-20,-1,-0.00169775666020462,-0.0016861510645221343,-0.001426009381684479,0.014782524187865858,0.9864488291707683
2014-05-22,-1,-0.0007239259074464991,-0.0005796695133689991,-0.003086139261573725,0.014782524187865858,0.9860515429414437
2014-05-27,-1,-0.00020443643192358902,-1.4435258325423694e-05,-0.003086139261573725,0.014782524187865858,0.9864808453794501
2014-05-29,-1,-0.0005426233123005349,-0.00038491598986903054,-0.0019402611796445744,0.014782524187865858,0.9870853919485708
2014-06-02,-1,-0.001172460900035817,-0.001089506962749676,-0.0011059299681451308,0.014782524187865858,0.9877495128541235
2014-06-04,-1,-0.0009945595955416333,-0.000892941690652045,0.0015593042206319572,0.017108731000258733,0.985449794228896
2014-06-06,1,0.0008407565308053489,0.0011698790241734447,-0.00391534755458812,0.009977169319783524,0.9871359389112381
2014-06-10,1,0.0021148277071899096,0.0027318498861549382,-0.00391534755458812,0.009977169319783524,0.987559310423073
2014-06-12,1,0.00130885922777816,0.0017799298592346795,-0.007619585880433289,0.009977169319783524,0.9869025632330188
2014-06-16,1,0.0024474732716777735,0.0030967605456185617,-0.00868855371599384,0.0071550988961664504,0.9870341830265916
2014-06-18,1,0.0036914046812801054,0.004447700791496534,-0.009846006476039625,0.006376642209295384,0.9876533303600447
2014-06-20,1,0.005510337637405259,0.006586709090617196,-0.009846006476039625,0.006376642209295384,0.988220716055392
2014-06-24,1,0.006476946867978976,0.007714919323901347,-0.009846006476039625,0.006918509376261574,0.987545710974016
2014-06-26,1,0.005426276291321575,0.006515833382810981,-0.009846006476039625,0.0083633099315869,0.9833365726606373
2014-06-30,1,0.0055123455648670005,0.0066130115096030805,-0.011467627602756776,0.0083633099315869,0.9815031179076684
2014-07-02,1,0.0044496171588605995,0.005352282584273151,-0.013259220975528181,0.0009870951611270608,0.9817285517996979
2014-07-07,1,0.002702366610563561,0.0033284514142178133,-0.011467627602756776,0.00504751992615418,0.9844086930371966
2014-07-09,1,0.002819389847108559,0.0035549677376660524,-0.009273475302201257,0.00504751992615418,0.9848272176865822
2014-07-11,1,0.002542976375452576,0.0032742974165380794,-0.006733261693141839,0.008522644982621147,0.9855705718345199
2014-07-15,1,0.0025904381300898313,0.0033732378345367915,-0.006733261693141839,0.008522644982621147,0.9855788395166857
2014-07-17,1,0.0022002500474277683,0.0029439387660629,-0.004696528264769722,0.008522644982621147,0.9865404307808081
2014-07-21,1,0.002114995599199032,0.0027742573860173804,-0.005456751611890608,0.00700324268296967,0.9867852175473326
2014-07-23,1,0.0028154634647895855,0.0035621045391857017,-0.006204103179422693,0.005884774949211232,0.9861200890000651
2014-07-25,1,0.005042977411599878,0.006091967604199876,-0.005594054401692479,0.005787785510516039,0.9904504381760243
2014-07-29,1,0.003806856905428708,0.004663359771138877,-0.005594054401692479,0.006265042670843321,0.9915592876655852
2014-07-31,1,0.00245905538144131,0.003113999743092081,-0.007057917469120243,0.006265042670843321,0.991982254314098
2014-08-04,1,0.0024670380497366206,0.0030839876274257132,-0.007057917469120243,0.006265042670843321,0.992155349387798
2014-08-06,1,0.0022605519562687833,0.0028499789068884797,-0.010779816932529291,0.006265042670843321,0.9915202110886132
2014-08-08,1,0.0032261819227954363,0.0039999232451703405,-0.010779816932529291,0.006738914958120964,0.9905468004465265
2014-08-12,1,0.002964346915163567,0.0036947591687754517,-0.00882379921751434,0.006447946642035387,0.9907725933836076
2014-08-14,1,0.0024480668705666843,0.003042721818377418,-0.010779816932529291,0.00771140585354925,0.9896200344496071
2014-08-18,1,0.0022245926747680193,0.0027616186969656635,-0.012765102802043507,0.009246166177543015,0.9883992405295706
2014-08-20,1,0.0011038707467738796,0.0013707693806523764,-0.010779816932529291,0.009246166177543015,0.9884679343091973
2014-08-22,1,0.0022470671887040825,0.0027566236961616285,-0.010779816932529291,0.009246166177543015,0.9878909879336137
2014-08-26,1,0.0018091663784761893,0.002211844151908671,-0.010105896258849757,0.009246166177543015,0.9876327197934928
2014-08-28,-1,-0.0007482845794413112,-0.0006427336214396427,-0.010418470212534605,0.009246166177543015,0.9880429550108962
2014-09-02,1,0.0003011061911539271,0.00038415535127468844,-0.010418470212534605,0.010312693785158668,0.9876398906229639
2014-09-04,-1,-0.002807640949116592,-0.0023844843216236896,-0.010380075291315176,0.01174871790585796,0.9873549997515164
2014-09-08,-1,-0.0011374787721757408,-0.0009164411776425059,-0.010380075291315176,0.01174871790585796,0.9870772024504199
2014-09-10,-1,-0.0008174068892962509,-0.000682492017239969,-0.01109937520766241,0.014903859751258451,0.9852141153420729
2014-09-12,-1,-0.0009675064822326668,-0.0008350981789920136,-0.01109937520766241,0.014903859751258451,0.9859638462442288
2014-09-16,-1,-0.0019937168221841393,-0.0016428930001634937,-0.010360043366710035,0.01939534889945589,0.9861788190338708
2014-09-18,-1,-0.0012515932717910836,-0.0009984998971746457,-0.011093157601765548,0.02114651442138872,0.9854899151332438
2014-09-22,-1,-0.0008214961786385993,-0.0007090990099768155,-0.011222354492240277,0.02114651442138872,0.9849273603426225
2014-09-24,-1,-0.00048241709132554545,-0.0004006917374141356,-0.011894894748289121,0.013573433585993534,0.985159826454597
2014-09-26,-1,-0.002140749039733471,-0.0017494070492172116,-0.011093157601765548,0.022353850111159767,0.9804586335790667
2014-09-30,-1,-0.0028263170837694264,-0.002289925367461765,-0.012206011860958852,0.02338814104123939,0.9787031101177157
2014-10-02,-1,-0.0014826792410050085,-0.0012034734201622382,-0.012206011860958852,0.026283376585191708,0.9783063243355694
2014-10-06,-1,-0.0012262172771742193,-0.0008952546329815899,-0.015294126176192264,0.02338814104123939,0.9786084312982761
2014-10-08,1,5.80560221541377e-05,0.00021749080366926393,-0.015294126176192264,0.022353850111159767,0.980238482987682
2014-10-10,-1,-0.0012612072900548385,-0.0009773637306885793,-0.012324501252345953,0.022353850111159767,0.9802102676703061
2014-10-14,1,3.33889170381264e-05,0.00011262835889202388,-0.012324501252345953,0.017322429424853954,0.9815906007078369
2014-10-16,1,0.0008700770009118776,0.0009260643761067397,-0.01444248735114043,0.014116171297297937,0.9821816223979054
2014-10-20,-1,-0.0007897262842097268,-0.0006073769099390375,-0.014447697315976617,0.014116171297297937,0.9818859551139071
2014-10-22,-1,-0.002208522341971269,-0.0017883375629700656,-0.009766412461405072,0.014116171297297937,0.9827723928890272
2014-10-24,1,0.001609634212838672,0.0016354179166195779,-0.009766412461405072,0.007789944659396702,0.9881811026214488
2014-10-28,1,0.003416234274290505,0.003808298224225252,-0.005441917300871851,0.007789944659396702,0.989436892378518
2014-10-30,1,0.003591530737446979,0.00395895646053353,-0.004275314899648317,0.005830062454447051,0.9911485728756915
2014-11-03,1,0.002086439679946548,0.0022108888600287546,-0.004275314899648317,0.005830062454447051,0.9911727758773732
2014-11-05,1,0.00225695742581888,0.002403382577170521,-0.005441917300871851,0.005830062454447051,0.9908323881788299
2014-11-07,1,0.003355124725676102,0.0037442651479751435,-0.008451123874296114,0.005830062454447051,0.9888555998685421
2014-11-11,1,0.0041451110262223255,0.004766249873356656,-0.009209014332175181,0.007789944659396702,0.9869772065068494
2014-11-13,1,0.004107894419148792,0.004759069147874224,-0.008451123874296114,0.00762381992931521,0.9875369042375869
2014-11-17,1,0.003584310211441619,0.00418580794211231,-0.009209014332175181,0.0057746875444198865,0.9863192336568349
2014-11-19,1,0.003368844240292636,0.003949042193368143,-0.009209014332175181,0.012114138109094556,0.9856612008908642
2014-11-21,1,0.004415820560148215,0.005252080191987684,-0.010706552975562103,0.017916467253982722,0.9841414562675028
2014-11-25,1,0.003995881997675739,0.004657659926887676,-0.010706552975562103,0.012465555024317398,0.9845073829678515
2014-11-28,1,0.0033794925514791974,0.003911327833766313,-0.010706552975562103,0.016900867902267806,0.984109317810111
2014-12-02,1,0.00362188716521998,0.004122238220632632,-0.012922345970848292,0.011775604991856252,0.9843169885116247
2014-12-04,1,0.002855476488070055,0.003218550418720995,-0.01542089505570247,0.011775604991856252,0.9832372600392336
2014-12-08,1,0.002090164566161523,0.0022886093154031823,-0.014651438314060648,0.010391818137338676,0.984796902970354
2014-12-10,1,0.0032504323087687217,0.0036346842698161234,-0.015179922548579824,0.010391818137338676,0.9844957734641532
2014-12-12,1,0.003856575733990182,0.0043535716728080286,-0.015179922548579824,0.010391818137338676,0.9845491236213165
2014-12-16,1,0.003121235807512765,0.0035721352399360933,-0.015179922548579824,0.010391818137338676,0.9850417203055308
2014-12-18,1,0.0035827056778988376,0.004043730927001195,-0.015179922548579824,0.010051226491865923,0.9845882021924152
2014-12-22,1,0.0027386676341294896,0.002986237829624322,-0.015247056615340097,0.010051226491865923,0.9844973657187848
2014-12-24,1,0.003027095787657896,0.0033448220724959545,-0.015247056615340097,0.011796426962930234,0.9844249159637752
2014-12-29,1,0.0029173012683724525,0.0031831259081937647,-0.015247056615340097,0.010051226491865923,0.9841118105562516
2014-12-31,1,0.0014479640274546652,0.0015371229123035102,-0.014673816336314073,0.011796426962930234,0.9838382311466071
2015-01-05,-1,-0.0002995120626657343,-0.0001331922911709391,-0.010408551828507275,0.015228382719487354,0.983825812235201
2015-01-07,-1,-0.00037861689241279906,-0.0001948332354279425,-0.010258752431514683,0.017187723830565334,0.9829819805412122
2015-01-09,0,-0.00016495476704959542,5.78831772854308e-07,-0.006432495995413097,0.015228382719487354,0.9846113820779824
2015-01-13,1,0.0001140613089698246,0.0002599901328308485,-0.010258752431514683,0.015228382719487354,0.9842855883134686
2015-01-15,-1,-0.001862776827392135,-0.0015119656821206606,-0.006432495995413097,0.01670706957046732,0.984148544356649
2015-01-20,-1,-0.00023720641363226386,-6.767889327622935e-05,-0.008513736133655901,0.015228382719487354,0.9861523667142039
2015-01-22,-1,-0.0005003790339960177,-0.0002390792168300858,-0.006002716271065424,0.014353882719527476,0.9870427520190754
2015-01-26,1,5.759121072722339e-05,0.00023045218642661852,-0.006002716271065424,0.013617309504424692,0.9875766241535887
2015-01-28,-1,-0.001715999760714249,-0.0012834502600774405,-0.00011757064938610565,0.013617309504424692,0.9871811646492592
2015-01-30,-1,-0.001895389242688384,-0.0015260454787143689,-0.00011757064938610565,0.012241037649478715,0.9889515161116526
2015-02-03,-1,-0.00037756551258773935,-9.348607086210096e-05,-0.0050781705467190736,0.010889165450598589,0.9896935359606693
2015-02-05,1,0.0007711939533421919,0.0009542169263842376,-0.006002716271065424,0.008388529119879836,0.9907542289594657
2015-02-09,0,-0.00014939068147264915,0.00010153302501797544,-0.005771917259466675,0.0070071983542341326,0.9910881344770435
2015-02-11,-1,-0.00032155050795944825,-1.6223942836277906e-05,-0.003854671419514519,0.011629084031550418,0.9902481026264047
2015-02-13,1,0.00046639207534308945,0.0007214888577261622,-0.003854671419514519,0.010889165450598589,0.9908794102990366
2015-02-18,0,-8.400670931840942e-05,0.00015381482694533898,-0.0011946320674163674,0.010889165450598589,0.9909955766858496
2015-02-20,0,-0.0001868238855719281,0.00012662128837962372,-0.0011946320674163674,0.010889165450598589,0.9908712027494704
2015-02-24,-1,-0.0004180124721631759,-8.32101512868278e-05,-0.0015768207751958023,0.010889165450598589,0.9904255325934549
2015-02-26,0,-8.488697707579684e-05,0.00021105828101760044,-0.006763942214918535,0.00889067808654636,0.9888031460542249
2015-03-02,1,0.0008015015018032019,0.0009345519649516187,-0.0066826729908929915,0.01207777864736134,0.9877519170152956
2015-03-04,-1,-0.0003880999573433109,-0.00017263755528282114,-0.001549731033853955,0.01207777864736134,0.9881632279118128
2015-03-06,-1,-0.001887407144986951,-0.001444809808215451,0.002163487891868149,0.01207777864736134,0.9874576663693964
2015-03-10,-1,-0.001396562463965997,-0.0009515433973023295,0.0015822698860348521,0.013148653748842066,0.9873410245356806
2015-03-12,1,0.00018101151330674782,0.00037095752070037506,0.0009869859314649253,0.009059816050141223,0.9892993044624524
2015-03-16,1,0.00026279202789668873,0.0005463420799790153,-0.0032933850513538463,0.008087929888487314,0.989655966433514
2015-03-18,0,-0.00015248691306138297,0.000163045620916803,-0.0032933850513538463,0.008087929888487314,0.9894480092702308
2015-03-20,1,0.0025371395930034683,0.0028234683040238885,-0.0066826729908929915,0.007965675631610976,0.9884630264236206
2015-03-24,1,0.002394132752608376,0.002709793428517679,-0.0032933850513538463,0.009059816050141223,0.9886569733924624
2015-03-26,1,0.000900763967613363,0.0010208678888288688,0.0011965303602204879,0.01292967991222755,0.9890526572567844
2015-03-30,1,0.0019121726512309786,0.002115475727266216,-0.005528045873901366,0.009416774417301465,0.9892839566097184
2015-04-01,1,0.0013402187393392426,0.0014632845232724493,-0.01278194754844268,0.009416774417301465,0.9880714313445995
2015-04-06,1,0.0020366948186671834,0.0022722906229915778,-0.01278194754844268,0.008957087340573574,0.9883502686783873
2015-04-08,1,0.0023198101890325746,0.0025912984303394756,-0.015104189562264201,0.007100266556868129,0.9876346840057363
2015-04-10,1,0.0023379938305254696,0.0025913993375946565,-0.015104189562264201,0.007100266556868129,0.9874692342858927
2015-04-14,1,0.001578734616982335,0.0016955583246416172,-0.014054615243031369,0.007100266556868129,0.9877379791148505
2015-04-16,1,0.0014356594601293887,0.001509383047621289,-0.014054615243031369,0.011194532723757762,0.9871105264808075
2015-04-20,1,0.0016201399966618221,0.0017219838949190467,-0.008369711326690933,0.011072464995752557,0.9887179408330774
2015-04-22,1,0.0022004515129432456,0.0024027223399829584,-0.008369711326690933,0.008424147845602246,0.9890792270331147
2015-04-24,1,0.003240926622257368,0.003566236528008207,-0.008369711326690933,0.005891792368328234,0.9900980373165467
2015-04-28,1,0.002253172551852019,0.002490749387559007,-0.005654325102349086,0.007100266556868129,0.9900846277931322
2015-04-30,1,0.0004435960449409896,0.00046571393887149057,-0.004277092540520173,0.007100266556868129,0.9906949193798101
2015-05-04,1,0.0008001434215128487,0.0008150798978621208,-0.004277092540520173,0.005499534271907432,0.9908858607330492
2015-05-06,1,0.000148984501965503,0.00017078958330766752,-0.003904343854239206,0.006791343713575536,0.9906709024800701
2015-05-08,1,0.0003349050533011976,0.00034549376814747726,-0.004730845935818477,0.010829567435276884,0.9898645636580305
2015-05-12,-1,-0.0008194445384518335,-0.0005964975329395432,-0.004665923638381047,0.010829567435276884,0.9901184478402092
2015-05-14,1,0.0008090152752300424,0.0008513946703916853,-0.004665923638381047,0.0034176669215005735,0.9909532179680439
2015-05-18,1,0.0009698271544371745,0.0010417767116764679,-0.0036254355677108495,0.0034176669215005735,0.9905988769270176
2015-05-20,1,0.0008905501941375923,0.0009392268548482465,-0.0036254355677108495,0.010396015119711936,0.989196491690756
2015-05-22,1,0.0010879026720177938,0.001174361389870582,-0.0036254355677108495,0.010396015119711936,0.9887325317434373
2015-05-27,1,0.0002926759177817707,0.00037771813868027406,-0.0036254355677108495,0.009422598844288449,0.9904180784256736
2015-05-29,-1,-0.0017039583099916719,-0.0013149590845890368,-0.0034934355262909024,0.009422598844288449,0.9913688208181269
2015-06-02,-1,-0.0021280239647931787,-0.0016899749536045396,-0.003298749076440673,0.010324069502602957,0.9903207406417174
2015-06-04,-1,-0.002355364570797828,-0.0019016217422601909,-0.0005612333277056412,0.009422598844288449,0.9912921896424178
2015-06-08,-1,-0.001839488262728061,-0.0014587523178561858,0.0004889188738179326,0.009422598844288449,0.9912960149808892
2015-06-10,-1,-0.0026451589360077478,-0.0020714633519394897,0.0008257808860337511,0.010324069502602957,0.989519029825441
2015-06-12,-1,-0.0018917170717052678,-0.0015092164847674723,0.002196346163648563,0.010324069502602957,0.9894249858003963
2015-06-16,-1,-0.001186743062028133,-0.0008968277739703899,0.002196346163648563,0.010324069502602957,0.9900145567172739
2015-06-18,1,0.00021854545399798076,0.000319201081789042,0.0008257808860337511,0.009838431134864071,0.991173009643387
2015-06-22,1,0.00021354089182247044,0.000354343328796601,-0.000311411392542768,0.007606779373686569,0.9917010761009206
2015-06-24,-1,-0.0005884633429136247,-0.00030367104956535794,-0.002762141337349723,0.007606779373686569,0.9906601699386182
2015-06-26,1,8.995742145944275e-05,0.0002578631663969038,-0.005346742420342741,0.007606779373686569,0.9892910401594386
2015-06-30,1,0.000644324971852049,0.0006934217787901973,-0.0032154172093169686,0.013367422779569484,0.989102623408442
2015-07-02,1,0.0008669211484367052,0.0008986658536920073,-0.004401217806835941,0.014970598648760337,0.9884177386178916
2015-07-07,1,0.0012706915964734644,0.00128382238932385,-0.004401217806835941,0.013367422779569484,0.989499238709136
2015-07-09,1,0.002776088933627822,0.003012533608632376,-0.0057951033373009565,0.011107730570851623,0.9893142287694268
2015-07-13,1,0.0029664763240430355,0.003220517595814384,-0.0057951033373009565,0.012942263794919839,0.9889471129877347
2015-07-15,1,0.003316358662213909,0.003652045227945342,-0.005820195050600561,0.011107730570851623,0.9892353838884771
2015-07-17,1,0.003753887919918234,0.004143382361964024,-0.005820195050600561,0.010854385253441083,0.9900359083787554
2015-07-21,1,0.0038844625530152534,0.004313805139710167,-0.005820195050600561,0.010854385253441083,0.99002246677757
2015-07-23,1,0.002988259612217604,0.0033054169138502926,-0.007302651291214053,0.010854385253441083,0.9901236550787822
2015-07-27,1,0.0008891509668201978,0.000912061587644193,-0.007302651291214053,0.010854385253441083,0.9889759679657825
2015-07-29,1,0.0014357640188868625,0.0014897317321850123,-0.007302651291214053,0.010854385253441083,0.9874722339201533
2015-07-31,1,0.0016063015215273166,0.0016411207188863045,-0.007302651291214053,0.007815099460934226,0.988066894882578
2015-08-04,1,0.0021143102283869676,0.00220329552195366,-0.009337893057452036,0.007815099460934226,0.9862191994664298
2015-08-06,1,0.002029908079432957,0.002134899672439047,-0.007302651291214053,0.008164974245193177,0.9868109511474389
2015-08-10,1,0.002462763830668376,0.002630533244968517,-0.007302651291214053,0.008164974245193177,0.9853565844767657
2015-08-12,1,0.0023629501091749694,0.0025507375774955735,-0.006849152779918006,0.013963060534166342,0.9845000191618903
2015-08-14,1,0.0026091567185675003,0.0028048726757582774,-0.006849152779918006,0.010851799514594395,0.9847980128638648
2015-08-18,1,0.0018450440771454633,0.001846109366112325,-0.006849152779918006,0.01595085930173789,0.9838667370044035
2015-08-20,1,0.0016757683646765112,0.0017188752391179606,-0.0067495098920849475,0.01595085930173789,0.9838839076556828
2015-08-24,1,0.00017784892707115957,0.0003382216911128791,-0.00620968525437635,0.01595085930173789,0.9860457684968342
2015-08-26,1,0.0022560689447953595,0.0023734812432892392,-0.0067495098920849475,0.014283362210058048,0.987686162271385
2015-08-28,1,0.002509985492179616,0.0026656910009081377,-0.007263374285392595,0.014283362210058048,0.9857882466007704
2015-09-01,1,0.0014995828973760079,0.0015486830695324288,-0.0067495098920849475,0.014952534032186708,0.9861557579408375
2015-09-03,1,0.0020358113143128438,0.002116444471831742,-0.0067495098920849475,0.016980102032313288,0.9816436032095118
2015-09-08,1,0.002954765754799139,0.0031604050066317275,-0.007263374285392595,0.014952534032186708,0.9831658856194453
2015-09-10,1,0.003379126589099537,0.0036557117836061442,-0.009862795694035063,0.014624994161715647,0.9836248091687088
2015-09-14,1,0.003808521395743269,0.004170070173221229,-0.009862795694035063,0.014952534032186708,0.9828289934046786
2015-09-16,1,0.004900372537105473,0.005470007791322693,-0.009862795694035063,0.014952534032186708,0.9830773188811759
2015-09-18,1,0.004043324444642967,0.004424822897342475,-0.008623098081832769,0.016980102032313288,0.9833184906616548
2015-09-22,1,0.00312908483205576,0.0033207237681191384,-0.009862795694035063,0.016980102032313288,0.9826890883780172
2015-09-24,1,0.0035267020539512016,0.0037856898037863128,-0.009716795079521976,0.016980102032313288,0.9821037537799582
2015-09-28,1,0.0022097549211538945,0.0022472340303778,-0.008623098081832769,0.016980102032313288,0.9835175478643656
2015-09-30,1,0.0028890524929789836,0.0030127432693631195,-0.008623098081832769,0.022163229898762456,0.9831378515245366
2015-10-02,1,0.007278110446194529,0.007967821526602675,-0.009716795079521976,0.004911095176408658,0.9847310159546736
2015-10-06,1,0.007013092138437444,0.007696798924038805,-0.008623098081832769,0.006615059782602788,0.985598031339512
2015-10-08,1,0.006168593742984892,0.006732345973032407,-0.006976073956159725,0.006615059782602788,0.986320466355579
2015-10-12,1,0.006316152880274232,0.006878931947279529,-0.006976073956159725,0.006417192201670356,0.986740853445371
2015-10-14,1,0.005838275716723542,0.006321825719954808,-0.006002556972307247,0.010324456682465137,0.987181507824515
2015-10-16,1,0.006514104103007467,0.007078008338764822,-0.009032204918548278,0.009346977021584716,0.9858305476520861
2015-10-20,1,0.0054136392672744825,0.005781110739832913,-0.007040642196704212,0.009346977021584716,0.9871726377305093
2015-10-22,1,0.0058170542824332455,0.00620654686856976,-0.006002556972307247,0.008674848500522138,0.9889449704928166
2015-10-26,1,0.00506051716558183,0.005318887931038803,-0.006518544934453064,0.009346977021584716,0.9887575764622503
2015-10-28,1,0.005483924029892217,0.005790764834213884,-0.00798206069079317,0.009346977021584716,0.9891315560317029
2015-10-30,1,0.004123156384946113,0.004235358578355776,-0.006316363137003567,0.010263769180777826,0.9903531262857866
2015-11-03,1,0.003996899402712799,0.0040738892400541005,-0.00798206069079317,0.010263769180777826,0.9898790127227
2015-11-05,1,0.0034673193718848735,0.0035004524350255952,-0.00798206069079317,0.010707279050791937,0.9887059065118449
2015-11-09,1,0.0036849374599004113,0.003800183027806618,-0.008739144776447896,0.011777151086025476,0.9879285930841352
2015-11-11,1,0.004273232329984413,0.00448682928592053,-0.010251274400719733,0.010707279050791937,0.987074589837104
2015-11-13,1,0.00290751761818089,0.0029142906588326177,-0.008132599384099406,0.010707279050791937,0.9887644646845899
2015-11-17,1,0.0030593842141732014,0.0030775098056993666,-0.008132599384099406,0.011902289673935874,0.9886513577987016
2015-11-19,1,0.0027979256393648962,0.0028243398534017754,-0.008132599384099406,0.011902289673935874,0.9884945742904352
2015-11-23,1,0.0023914857301370164,0.0024674755352460326,-0.006500145406205744,0.011902289673935874,0.989462798891484
2015-11-25,1,0.002729599543546084,0.002740584037966512,-0.005433820822243942,0.009057101022221223,0.9900432743255421
2015-11-30,1,0.00395503619654227,0.004141704309993258,-0.005433820822243942,0.008414318205715797,0.9905443020840129
2015-12-02,1,0.0038123774805961016,0.003988343014345868,-0.007849573660237585,0.00652183121485669,0.989446045450679
2015-12-04,1,0.0038568088433948455,0.004050863631878292,-0.007849573660237585,0.00652183121485669,0.9890383821039366
2015-12-08,1,0.0037200767626960436,0.003919183447090111,-0.013080280814736906,0.004567366512207636,0.9889411133794505
2015-12-10,1,0.0025983736370761906,0.0026370503121000495,-0.013080280814736906,0.004029098779360987,0.9897909738157812
2015-12-14,1,0.001833673837135202,0.001923960770169561,-0.01381927096821767,0.00652183121485669,0.9871861700085197
2015-12-16,1,0.0014209132195823048,0.0016355027827555293,-0.01639666437721657,0.00652183121485669,0.985884031542289
2015-12-18,1,0.001329930136705282,0.001516508767591196,-0.01639666437721657,0.00652183121485669,0.9857543681418096
2015-12-22,1,0.0014606922411472502,0.0016233496982309375,-0.01639666437721657,0.008078368615386904,0.9843915217285283
2015-12-24,1,0.0011720774858694646,0.001362567223967656,-0.01858853158641513,0.0037486520716430083,0.9836903525761126
2015-12-29,1,0.0009767461412108491,0.0012219972792536027,-0.019954165542281476,0.0015518501426708435,0.9824901434631014
2015-12-31,0,-7.764813252343779e-05,0.0002713696232964568,-0.01858853158641513,0.008095127067860343,0.9829693363130328
2016-01-05,-1,-0.0014883573301063264,-0.0009435543009957568,-0.01858853158641513,0.009751224263508785,0.9833849414213985
2016-01-07,-1,-0.0023542364240688295,-0.0017250771019244574,-0.022019217131735103,0.009751224263508785,0.9792428517584892
2016-01-11,-1,-0.0034756265529622193,-0.002824087736821934,-0.02484227889976722,0.009751224263508785,0.9781504047073992
2016-01-13,-1,-0.004655180434345641,-0.0038576262930338136,-0.022019217131735103,0.009751224263508785,0.9789512049381704
2016-01-15,-1,-0.0063284892429971065,-0.005200967644658428,-0.022019217131735103,0.009751224263508785,0.9789868855518212
2016-01-20,-1,-0.004550747766466152,-0.003830702534374678,-0.02484227889976722,0.018713582059729457,0.9730680450799494
2016-01-22,-1,-0.003499378425567849,-0.0028838374738240228,-0.02484227889976722,0.009751224263508785,0.9741204408788754
2016-01-26,-1,-0.005258420289462161,-0.0043693591942222535,-0.022019217131735103,0.016602578899996362,0.9743819208825945
2016-01-28,-1,-0.006159392040256425,-0.005196523163096154,-0.021052970238954603,0.016602578899996362,0.9745881574249882
2016-02-01,-1,-0.004590670980770557,-0.003854533949800326,-0.021052970238954603,0.016602578899996362,0.9741982024387459
2016-02-03,-1,-0.004641489254764781,-0.003926200866012475,-0.014027968593741301,0.011566946200850218,0.9755155593595232
2016-02-05,-1,-0.010983755721584956,-0.009512147528963708,-0.011677544170397146,0.011566946200850218,0.9796550385384301
2016-02-09,-1,-0.010335644068164555,-0.009011494156324719,-0.011677544170397146,0.011566946200850218,0.9808946892893428
2016-02-11,-1,-0.009463540212511824,-0.008236184647445799,-0.011677544170397146,0.011566946200850218,0.9819817816292971
2016-02-16,-1,-0.008154355239330672,-0.007079347810573447,-0.011677544170397146,0.011566946200850218,0.9831488020449066
2016-02-18,-1,-0.011384453509214496,-0.009953946406169829,-0.011677544170397146,0.009886641575907927,0.9881302457658029
2016-02-22,-1,-0.012774233881391222,-0.0111318675303028,-0.011677544170397146,0.013118066618439455,0.985119430723196
2016-02-24,-1,-0.011573551263918062,-0.010128903774889304,-0.011773321365026145,0.009886641575907927,0.9864771055447854
2016-02-26,-1,-0.009806005747352565,-0.008768402133747702,-0.011106126720835875,0.012276232963301985,0.9860670331369692
2016-03-01,-1,-0.008431439722072241,-0.00752306001066125,-0.011106126720835875,0.012276232963301985,0.9850493120030863
2016-03-03,-1,-0.00861779967805569,-0.00767483977895508,-0.012222865541062609,0.01569857924348777,0.9835424393991239
2016-03-07,-1,-0.00893074405704659,-0.007992662033073649,-0.013406086108369837,0.019347927577301628,0.9818064719412786
2016-03-09,-1,-0.009059806306930939,-0.008110861934720739,-0.013832391254044858,0.022943266102543984,0.9801909970994641
2016-03-11,-1,-0.00733120524848169,-0.006632553698855171,-0.013832391254044858,0.019347927577301628,0.9821592675018982
2016-03-15,-1,-0.007064481924334883,-0.006403048769601983,-0.013832391254044858,0.022943266102543984,0.9813675697649219
2016-03-17,-1,-0.006573882273046984,-0.006016970669959449,-0.010506422481854268,0.022943266102543984,0.9812998377906095
2016-03-21,-1,-0.006133066799211976,-0.005614085982969869,-0.0070413861955440585,0.022943266102543984,0.9823848561398377
2016-03-23,-1,-0.005684951589437909,-0.00527855603429308,-0.0070413861955440585,0.022943266102543984,0.9820220782333252
2016-03-28,-1,-0.005264492520437652,-0.004860285037737732,-0.010327167091734977,0.022943266102543984,0.9826615267827608
2016-03-30,-1,-0.0034298976251800374,-0.0032648972384395772,-0.010327167091734977,0.01313509598915748,0.9851395370886348
2016-04-01,-1,-0.00256478906168841,-0.0024954518600342262,-0.0070413861955440585,0.013202527318703333,0.9858945724696491
2016-04-05,-1,-0.0024847931916535345,-0.0024475182212143113,-0.0070413861955440585,0.010158322358304554,0.9873541685534883
2016-04-07,-1,-0.001926972858110776,-0.0018477748672016273,-0.0070413861955440585,0.00925910917021779,0.9893869855883903
2016-04-11,-1,-0.003299810150528969,-0.0032339446292243106,-0.002067548573147255,0.00925910917021779,0.9886420076710392
2016-04-13,-1,-0.0010420242576590327,-0.0008618935217833341,-0.0029046147396465196,0.00925910917021779,0.9897679686697627
2016-04-15,-1,-0.0005432179868765694,-0.00028168542657858175,-0.0029046147396465196,0.009085532735755634,0.9897778897094832
2016-04-19,1,0.00015382717406096143,0.0005078565408367694,-0.005868673642054731,0.008662540077869976,0.9889479684507855
2016-04-21,0,-0.0001344380703199601,0.00032103514002458514,-0.004834848928076124,0.008662540077869976,0.9893311150856012
2016-04-25,1,6.03049487319545e-05,0.0006052554516032913,-0.0029046147396465196,0.00910825118911732,0.9892345222345613
2016-04-27,1,0.0011407673535159708,0.0018351181846453274,-0.004834848928076124,0.010913894597344646,0.9878226675834054
2016-04-29,1,0.002129451237115338,0.0029668612305747176,-0.004834848928076124,0.009328838490494713,0.9888816785726764
2016-05-03,1,0.002562586695862165,0.0033803827247904784,-0.0029046147396465196,0.010711067408761172,0.988980009575967
2016-05-05,1,0.001896767959212422,0.0025771572257614708,0.0010080408573846448,0.011794563305946571,0.9888091150414178
2016-05-09,1,0.002446168296417684,0.0032169400067770804,0.0024729802734964365,0.011794563305946571,0.9893582744273755
2016-05-11,1,0.0034201126834033646,0.004362528208811056,0.0024729802734964365,0.010711067408761172,0.9911125188035059
2016-05-13,1,0.0039429603854088035,0.004941831218421007,-0.0026957963815467277,0.010711067408761172,0.9896918891065825
2016-05-17,1,0.0029897761359185186,0.0038890901384286674,-0.0026957963815467277,0.010711067408761172,0.9915059995964044
2016-05-19,1,0.003109927966954872,0.004161689399630342,-0.0030110035372645553,0.010252952112823274,0.9908260771318755
2016-05-23,1,0.0037802821062856776,0.0049479920357541705,-0.0030110035372645553,0.010252952112823274,0.9907143164590777
2016-05-25,1,0.004444527796215753,0.005504210804044108,-0.0019925763554964034,0.010252952112823274,0.9916236950489524
2016-05-27,1,0.0040718458047551715,0.00504713943174935,-0.004128416419348709,0.010252952112823274,0.9898008811298821
2016-06-01,1,0.004868020366734777,0.005880563183702744,-0.004128416419348709,0.01522428478801181,0.9881666878491936
2016-06-03,1,0.00535853001573075,0.006404254288263998,-0.008252034143498139,0.01203824715296218,0.9874765942794327
2016-06-07,1,0.005135892028988576,0.006115516575800794,-0.008252034143498139,0.017212689664941525,0.9870379732841698
2016-06-09,1,0.005201179567681075,0.006266380589823305,-0.008252034143498139,0.017212689664941525,0.9872712776510052
2016-06-13,1,0.004682743563734673,0.005628195582867401,-0.004128416419348709,0.017212689664941525,0.9886184842322221
2016-06-15,1,0.004729641165486063,0.005773885319214452,-0.0038655019475511893,0.017212689664941525,0.9884800085938894
2016-06-17,1,0.0037064487211791496,0.0045721266539097425,-0.0038655019475511893,0.017212689664941525,0.9895672278612276
2016-06-21,1,0.003868002040034154,0.0046898686818618,-0.0038655019475511893,0.01123194345503329,0.9899645011278643
2016-06-23,1,0.005119536997119881,0.006165797314680862,-0.006446830489876306,0.01123194345503329,0.9894514386619808
2016-06-27,1,0.004924332606322445,0.005941440381297633,-0.006446830489876306,0.010346358914022762,0.9902892278950073
2016-06-29,1,0.0040393423066808695,0.004588596350867522,-0.007670165889936486,0.006144818489684581,0.9917320449601261
2016-07-01,1,0.002979112486015144,0.0032754982265599027,-0.007670165889936486,0.00524299797302503,0.9918965235459976
2016-07-06,1,0.003835546252758953,0.004274064839207415,-0.009537464880320784,0.004247766884764175,0.9909276224814643
2016-07-08,1,0.004198283626351046,0.004741559033261247,-0.009537464880320784,0.0032961716782923195,0.9906205295925511
2016-07-12,1,0.0037488117448206625,0.003957607876597156,-0.009537464880320784,0.004319917207343439,0.9905531468487238
2016-07-14,1,0.0026600809530724547,0.0026678146564315473,-0.009537464880320784,0.00436096205848285,0.9913171996021355
2016-07-18,1,0.002165106975907815,0.0022334505393461854,-0.007665438011722668,0.00436096205848285,0.9919065584242863
2016-07-20,1,0.0019529066224585768,0.002061379535881865,-0.007665438011722668,0.0034961187809834067,0.991843372502373
2016-07-22,1,0.0025483949007941535,0.0025623438407805935,-0.007355178001668796,0.0034961187809834067,0.9928462019313727
2016-07-26,1,0.0019358777980262097,0.0020113597819569696,-0.007308099225998727,0.0034961187809834067,0.9940451394985218
2016-07-28,1,0.0008836944971541075,0.0011321784044301705,-0.004087873042761536,0.00436096205848285,0.9942271584893602
2016-08-01,0,-0.0004083609310045976,3.142947279368346e-05,-0.002585633412740567,0.0038468233859011245,0.9950390013654523
2016-08-03,-1,-0.0011091884202220769,-0.0006104168799452568,-0.0023693008604778664,0.0039260729425790045,0.9946496170830943
2016-08-05,-1,-0.001158753009196126,-0.0006532492766609924,-0.0023693008604778664,0.007185078870840364,0.9933440048892909
2016-08-09,-1,-0.0012766465035646546,-0.0007511838064553635,-0.0023693008604778664,0.0059812384806527,0.9938380286169607
2016-08-11,-1,-0.0011278241533123673,-0.0006272188921217343,-0.002585633412740567,0.0059812384806527,0.9935816560054639
2016-08-15,-1,-0.002158984604590866,-0.0014687829809985802,-0.0029225586820919996,0.007185078870840364,0.9930646504283438
2016-08-17,-1,-0.00241707064653912,-0.0017208687238291988,-0.0024816092835950104,0.008193760138396615,0.992231536038924
2016-08-19,-1,-0.0008037994666696326,-0.0004412277119919029,-0.0029225586820919996,0.007185078870840364,0.9930764426955427
2016-08-23,-1,-0.0003836095091799414,-8.389780069062468e-05,-0.0029225586820919996,0.007529777626663547,0.9929260358462434
2016-08-25,-1,-0.00035072303175350515,-3.654565764180367e-05,-0.0033967413656018955,0.01001993783156793,0.9920494030009853
2016-08-29,-1,-0.00043708959415806464,-0.00010788600749890749,-0.005241737169464017,0.01001993783156793,0.9914734733809758
2016-08-31,-1,-0.0016741674457407191,-0.0011666208113089143,-0.005241737169464017,0.01001993783156793,0.9919988593374574
2016-09-02,0,-6.99556032562849e-05,0.00020262384162773493,-0.005241737169464017,0.006360570528706411,0.9930874553510013
2016-09-07,1,4.482237990912014e-05,0.00028182626808106103,-0.004665058099532285,0.0057153591565939,0.9935017540008082
2016-09-09,1,0.00028065230001948207,0.0004292823079006278,-0.004665058099532285,0.005329512422415795,0.9937237262438435
2016-09-13,1,0.00012677478691523367,0.00031733982999660327,-0.005122257340696952,0.0036326496745536876,0.993945129444748
2016-09-15,1,0.00024702248003867445,0.0004521988771479594,-0.005122257340696952,0.0035953460401405082,0.9944480787256453
2016-09-19,1,0.00011935514288352893,0.0003222534206995533,-0.005611539423571175,0.0035953460401405082,0.9941353557197532
2016-09-21,1,0.0010747361505643305,0.0011124093273598198,-0.008207777174071717,0.0034727533183370987,0.9935146184866783
2016-09-23,1,0.0005807345985618306,0.0007016714622328083,-0.008207777174071717,0.0034727533183370987,0.9936524449422455
2016-09-27,-1,-0.00027583209473777616,-2.9731646933725954e-05,-0.005611539423571175,0.0034727533183370987,0.9937914270481811
2016-09-29,-1,-0.0006668053726597369,-0.0003811950544314154,-0.00564121545092071,0.003741268520191237,0.9925053837046661
2016-10-03,0,-8.53082728484233e-06,0.00013949127851923724,-0.008835079177413229,0.003741268520191237,0.9918365192904711
2016-10-05,1,0.000278820145784147,0.0003684953334633222,-0.011386704671713634,0.003741268520191237,0.9910339984155466
2016-10-07,-1,-0.0012962102431182151,-0.0009087433054662483,-0.014630728222763976,0.0040675890450971725,0.9894838301188591
2016-10-11,-1,-0.0014134928630689428,-0.001018655573806675,-0.014630728222763976,0.0053450173233287246,0.9887325807973909
2016-10-13,-1,-0.0010291910547356637,-0.0007204849430768373,-0.01612363775265346,0.008175776910946266,0.9868979537395709
2016-10-17,-1,-0.0012695155013409773,-0.000972753821725564,-0.017282040694265158,0.008175776910946266,0.986482466678234
2016-10-19,-1,-0.0015625421838956373,-0.0012594086062189121,-0.017282040694265158,0.009957717518575179,0.9856600581556055
2016-10-21,-1,-0.001643513171148352,-0.0013625175040612152,-0.014822800673297588,0.010412434605395222,0.9858363074790335
2016-10-25,-1,-0.0008517342616236618,-0.0007008884550604686,-0.014822800673297588,0.009957717518575179,0.9859054296865128
2016-10-27,-1,-0.0019980383631451348,-0.0017318380860453586,-0.013379783471673063,0.009957717518575179,0.9869360105864
2016-10-31,-1,-0.0020903085278302135,-0.0018202006819002664,-0.01222913654181924,0.00838838201428209,0.9879029296073328
2016-11-02,-1,-0.0035397901991781585,-0.0030406933234307133,-0.014607167590438471,0.00838838201428209,0.9861261147472766
2016-11-04,-1,-0.004468527919416165,-0.0038718184413063465,-0.01222913654181924,0.00838838201428209,0.987490852555468
2016-11-08,-1,-0.005459338302489127,-0.004682455557324314,-0.009638788861981155,0.009241752253877787,0.9870713079635355
2016-11-10,-1,-0.0060471404222919925,-0.005240672782205443,-0.012078576526812209,0.009241752253877787,0.9881886234246673
2016-11-14,-1,-0.0064852053880739054,-0.005649477617113145,-0.009638788861981155,0.010596862772585506,0.9866941012368876
2016-11-16,-1,-0.0055663172802714505,-0.0048554864206456355,-0.012078576526812209,0.009415008998183885,0.9871537777245059
2016-11-18,-1,-0.003717991114580329,-0.003326530141311638,-0.012648046693752572,0.009415008998183885,0.9870989222524126
2016-11-22,-1,-0.004592344324292941,-0.004091874281954589,-0.013513756363368207,0.010596862772585506,0.9855644201461763
2016-11-25,-1,-0.0036644053222326953,-0.003318264681350583,-0.013513756363368207,0.010596862772585506,0.986075624626396
2016-11-29,-1,-0.0036993327112409646,-0.003362192431373914,-0.013513756363368207,0.010596862772585506,0.9856701213056103
2016-12-01,-1,-0.006695349589303148,-0.006004105351580923,-0.009218760985130765,0.010596862772585506,0.9874958289850991
2016-12-05,-1,-0.0062915117833994465,-0.0056458732650365075,-0.009218760985130765,0.011266107918127731,0.9868187198763669
2016-12-07,-1,-0.005543179479429771,-0.0049738505666407536,-0.009218760985130765,0.011266107918127731,0.9875517052509185
2016-12-09,-1,-0.006253985958736558,-0.005619948261493768,-0.004752663340955067,0.011266107918127731,0.9867383404070313
2016-12-13,-1,-0.004411549452305728,-0.0040087011808839015,-0.004752663340955067,0.010762273701200325,0.9885527423681986
2016-12-15,-1,-0.006194568063538578,-0.005582169031400515,-0.00447262109164779,0.010762273701200325,0.9894953308912356
2016-12-19,-1,-0.0056942718131072455,-0.005149029238907938,-0.00447262109164779,0.009801188495897553,0.9907397982191721
2016-12-21,-1,-0.005480045102718549,-0.004942621724749579,-0.00447262109164779,0.006372298570725509,0.9927206602004285
2016-12-23,-1,-0.00621212660416222,-0.005554166374693879,-0.0027229440575496106,0.006372298570725509,0.9916634288350411
2016-12-28,-1,-0.005997945639274643,-0.0053795156858946125,-0.002570440125620771,0.009801188495897553,0.9913096208721242
2016-12-30,-1,-0.005621179883274555,-0.005068225981421624,-0.004015109295861271,0.009801188495897553,0.991489283772857
2017-01-04,-1,-0.004289025123985267,-0.003904353448267487,-0.006100732427040113,0.004831614315549822,0.9932830089127649
2017-01-06,-1,-0.0038163640948669347,-0.003496147088494496,-0.006100732427040113,0.004831614315549822,0.9932224945751609
2017-01-10,-1,-0.0031692938730887047,-0.002918683242710174,-0.008268759761421756,0.0029410563292586894,0.9939359760885293
2017-01-12,-1,-0.0017375136653938043,-0.0016560077278502954,-0.009240926988259046,0.0029410563292586894,0.9890864478815035
2017-01-17,-1,-0.0017547647609605166,-0.0016898947626687129,-0.009927725209611741,0.0029410563292586894,0.9887634931620909
2017-01-19,-1,-0.002028685696937542,-0.0019472189569290682,-0.009927725209611741,0.0029410563292586894,0.9886683504724797
2017-01-23,-1,-0.002300636120164969,-0.0021942249055518924,-0.009240926988259046,0.004014497665634009,0.9879681117767867
2017-01-25,-1,-0.0022802136342814053,-0.002150725277624328,-0.009240926988259046,0.0029410563292586894,0.9880324709072181
2017-01-27,-1,-0.0011298800309101223,-0.0010524094754213677,-0.009240926988259046,0.0029410563292586894,0.9877429935309906
2017-01-31,-1,-0.0016585873382503878,-0.0016528920346387584,-0.008677871818336385,0.004823102941435749,0.9870236719485614
2017-02-02,-1,-0.0018557152357932013,-0.0018343532807292974,-0.008154259456871768,0.005131380214746259,0.9871503405149279
2017-02-06,-1,-0.0009510718937312309,-0.0008289801411025369,-0.008154259456871768,0.0047117190789787815,0.9874546339843233
2017-02-08,-1,-0.0006635407113999643,-0.0004524191485144901,-0.00621480217644477,0.0047117190789787815,0.9876140156998383
2017-02-10,1,0.0019202858364855608,0.002458889117952965,-0.005177085097940017,0.005848441082664026,0.9929209089910443
2017-02-14,1,0.0018579011741390204,0.0024216249542319563,-0.005177085097940017,0.006654054873796168,0.9928600907043963
2017-02-16,1,0.0015048150818135694,0.002020652969251395,-0.004805615904890374,0.006654054873796168,0.9931518455532744
2017-02-21,1,0.0021960475865924816,0.0027935474502125465,-0.005177085097940017,0.005848441082664026,0.9930705129439749
2017-02-23,1,0.0016430446363943918,0.0021502891052388702,-0.004890569449131778,0.005848441082664026,0.9935005091291831
2017-02-27,1,0.002203909397603524,0.0028025421437425026,-0.004219776696780739,0.004583068193857226,0.9942220373405374
2017-03-01,1,0.0016885908584956754,0.00223003484266766,-0.003418038575156326,0.0037207852376942778,0.9958250664546568
2017-03-03,1,0.0017547375255918358,0.0022979442356624493,-0.003581483239103067,0.004099692572256027,0.9954746662938095
2017-03-07,1,0.002037353221298711,0.0026251649400791765,-0.00565819151440386,0.0034252923427180474,0.9950949246329882
2017-03-09,1,0.0024880868349478353,0.003146243646190445,-0.00565819151440386,0.004099692572256027,0.9943393415788078
2017-03-13,1,0.002793260544010189,0.00346875859154607,-0.006303776989214909,0.0027191773236900684,0.9938267466674268
2017-03-15,1,0.0028442507939912113,0.0035000637643842385,-0.00565819151440386,0.0027191773236900684,0.9942374165271022
2017-03-17,1,0.002533373884069462,0.0031338742808283884,-0.00565819151440386,0.0030796100734105988,0.9946175608885993
2017-03-21,1,0.0023977336096701156,0.003001775908100573,-0.0036962837234646123,0.006535321305630985,0.9948671363931415
2017-03-23,1,0.0018733385185562585,0.0023248880002230054,-0.0027155401676761445,0.006535321305630985,0.9950281063465422
2017-03-27,1,0.0018515908452349566,0.0022923964565799877,-0.0027155401676761445,0.007577884697376205,0.9944454892756391
2017-03-29,1,0.001772722832207798,0.0021709258385441024,-0.0027155401676761445,0.00786240168125036,0.9930793419812528
2017-03-31,1,0.001331922201645601,0.0016425586970216515,-0.0027155401676761445,0.00786240168125036,0.9927131094045295
2017-04-04,1,0.0008882827815140187,0.0011274660473994647,-0.0006250367193613093,0.009367815215074873,0.9927140301112386
2017-04-06,1,0.0010854074181023549,0.0012861989984939062,-0.001256927833101112,0.00786240168125036,0.9932441834572625
2017-04-10,1,0.0004495619639861461,0.0005277399062520817,-0.00064665836676491,0.00786240168125036,0.9932825774265693
2017-04-12,1,0.0012494593991141095,0.0015088982174645865,-0.0004956931178120224,0.008559383326808053,0.9935800353773453
2017-04-17,1,0.0018153997134749981,0.0021868546440606306,-0.0004956931178120224,0.009165656295840107,0.9935541181671877
2017-04-19,1,0.0021004569299097925,0.002463545493507762,-0.0008688970284532514,0.008559383326808053,0.9933321092913145
2017-04-21,1,0.002258972197378691,0.002662770250975033,-0.0008688970284532514,0.009165656295840107,0.9926422857136272
2017-04-25,1,0.0028114301008683147,0.003268346432089574,-0.0008688970284532514,0.005396933162170948,0.9929902862440672
2017-04-27,1,0.0023374092324124096,0.0025487086114852216,-0.0008688970284532514,0.004990219444874551,0.9942446358048354
2017-05-01,1,0.0016656401634120533,0.001807772322333675,-0.0008688970284532514,0.004990219444874551,0.9951368772457415
2017-05-03,1,0.0022789812895633406,0.0025341956021747397,-0.0008688970284532514,0.0035224813579702993,0.9956009480876983
2017-05-05,1,0.0017189924111479858,0.0018380112455194959,-0.0006227833785017932,0.004990219444874551,0.9953402097571412
2017-05-09,1,0.0021403084365639105,0.0023826308377772228,-0.0008839974513946641,0.004990219444874551,0.9946303636725828
2017-05-11,1,0.0016013684198676766,0.0016695721340380095,-0.0018674634080568446,0.004180975770877344,0.9935432109433686
2017-05-15,1,0.0018275934701943548,0.0019538719402411127,-0.0018674634080568446,0.004990219444874551,0.9930543921243812
2017-05-17,1,0.0014414987571072894,0.001516181130898176,-0.0018674634080568446,0.004990219444874551,0.9936495915921938
2017-05-19,1,0.0016998284155162887,0.001775656573963526,-0.0012741179913753726,0.004990219444874551,0.994263449051796
2017-05-23,1,0.0015718261419972518,0.0016185739068102956,-0.0036107495157093814,0.007287963436300721,0.9938159268740707
2017-05-25,1,0.0016913951527511273,0.001738414953706957,-0.0036107495157093814,0.008678820136724734,0.9927654471315557
2017-05-30,1,0.0019117267312590077,0.0020382884960426745,-0.0036107495157093814,0.008678820136724734,0.9924521823771328
2017-06-01,1,0.0020555018022244075,0.002211943896382375,-0.0036107495157093814,0.009949806543603392,0.9919092906678447
2017-06-05,1,0.002685531402666253,0.002953557764288609,-0.005584572016311111,0.008678820136724734,0.9901494862769847
2017-06-07,1,0.0021574394727450165,0.0023720628565056957,-0.005584572016311111,0.008678820136724734,0.9906029318544827
2017-06-09,1,0.0008410006553563906,0.0008629877209885029,-0.005380612890801956,0.010294702846416717,0.9910826344952993
2017-06-13,1,0.001243135064385319,0.0012828876214077774,-0.005380612890801956,0.009284646362256663,0.9909055422270606
2017-06-15,1,0.0007421876860471647,0.000794166259102853,-0.005631226511655964,0.009786707077584408,0.9904900762379044
2017-06-19,1,0.0010691880089581066,0.0010771516456574677,-0.005631226511655964,0.009786707077584408,0.9907504129991126
2017-06-21,1,0.0011434088096457075,0.0011583718099929668,-0.005631226511655964,0.009786707077584408,0.9910180504654356
2017-06-23,1,0.0016300158200787918,0.001653239526023525,-0.005631226511655964,0.00847971838802321,0.991503625742767
2017-06-27,1,0.0008054565519862384,0.0009070630761780535,-0.0027531462896653175,0.00847971838802321,0.992052666093889
2017-06-29,1,0.0014855188220276186,0.0015034242826145316,-0.005631226511655964,0.008295109706983996,0.9894693526621944
2017-07-03,-1,-0.00037795080744244347,-0.00011471502092398687,-0.0010537957745061484,0.00847971838802321,0.9908816399731258
2017-07-06,1,0.0013022740006743475,0.0014059913692331142,-0.0018396026335543237,0.008472386554012385,0.9909383496091906
2017-07-10,1,0.0011981934678485856,0.0012555572709086447,-0.0018396026335543237,0.00603016811136767,0.9913930139308983
2017-07-12,1,0.0016612946504988323,0.0017495095086002607,-0.003830515641047176,0.00603016811136767,0.9913680069996873
2017-07-14,1,0.0019791504564689684,0.0021417182911111755,-0.003830515641047176,0.00603016811136767,0.9910509935080544
2017-07-18,1,0.0015846496348785233,0.0016609951682788286,-0.005836013540099059,0.008887308472078023,0.9892774223447738
2017-07-20,1,0.0018737719846505698,0.001999931021560774,-0.010543509716030167,0.010724642401085649,0.9884771970913058
2017-07-24,1,0.0019343628130559691,0.00202619082407762,-0.010543509716030167,0.0066248108211319715,0.9891017428611049
2017-07-26,1,0.001948348561308572,0.0020361585008914856,-0.010543509716030167,0.009236272347360752,0.9886623528162067
2017-07-28,-1,-0.00034079899277538036,-0.0001534783465476923,-0.007011438111142728,0.009236272347360752,0.9916030412745729
2017-08-01,1,0.00019517274684330765,0.0003122653485917964,-0.007955387669058494,0.00607987196961842,0.9918346829664623
2017-08-03,-1,-0.0003799294792356085,-0.00022041213286745647,-0.0062799357739944765,0.009236272347360752,0.9915426984827665
2017-08-07,-1,-0.00023667493717336385,-9.349821488395516e-05,-0.007284245772861364,0.009236272347360752,0.9913965252581481
2017-08-09,-1,-0.00044030364908340027,-0.0002477472828268778,-0.0062799357739944765,0.007291501377965907,0.9924979845790148
2017-08-11,-1,-0.0008594823944822195,-0.0005902243337076807,-0.005645584986849914,0.007223260368934141,0.9931364766546168
2017-08-15,-1,-0.0002530331203204766,-2.511134953329529e-05,-0.005645584986849914,0.004329970623240926,0.994161687552594
2017-08-17,-1,-0.0006562338247373176,-0.00037727891861069303,-0.004137884856794468,0.003842256260985496,0.9950362224150745
2017-08-21,-1,-0.0010555417380891665,-0.0007717552945564505,-0.004137884856794468,0.003842256260985496,0.9949600818909666
2017-08-23,-1,-0.001092912413025069,-0.0007929709250055915,-0.0039057209401231097,0.002551742742697721,0.9954522618247215
2017-08-25,-1,-0.0017358232629206135,-0.0013310769993664397,-0.0039057209401231097,0.003842256260985496,0.9945242360218389
2017-08-29,-1,-0.0018184019429109675,-0.0014141649774659314,-0.0039057209401231097,0.005339541774069133,0.9934153229760577
2017-08-31,-1,-0.0012339709626949251,-0.0008941067797634365,-0.0039057209401231097,0.004994278355222951,0.9940302669750923
2017-09-05,-1,-0.0018338457137007675,-0.001425603992716258,-0.0020853857366683734,0.005600746135291794,0.9939849549050815
2017-09-07,-1,-0.0019812955607633777,-0.001565451648143099,-0.001176754284710041,0.0062290332503556955,0.9933846496681874
2017-09-11,-1,-0.0013214169181085538,-0.001020961786442454,-0.0008662612261215923,0.005613871388698904,0.9935340965330679
2017-09-13,-1,-0.0018510515966105895,-0.0014840880700621752,-0.0008662612261215923,0.005613871388698904,0.9934227534071215
2017-09-15,-1,-0.0013142169607123322,-0.0010470271027695622,0.000748257143566164,0.0062290332503556955,0.9933485727502697
2017-09-19,-1,-0.0004256556628091986,-0.000314822707594771,-0.0008662612261215923,0.0062290332503556955,0.9928963415637531
2017-09-21,-1,-0.0007833555821400213,-0.0005719486656928631,-0.00017788948168150515,0.0062290332503556955,0.9926522498932865
