JNU-Tangyin/eata/results/Batch4_SP500/Batch4_SP500-HAL.csv
Date,Action,Predicted_Q25,Predicted_Q75,Actual_Q25,Actual_Q75,RL_Reward
2010-12-14,0,0.0,0.0,-0.007820771820795379,0.006854566682952702,0.9884974440201569
2010-12-16,0,0.0,0.0,-0.007820771820795379,0.006854566682952702,0.9881505141796566
2010-12-20,0,0.0,0.0,-0.008313865865877111,0.006479417896632132,0.9878929968072572
2010-12-22,0,0.0,0.0,-0.008313865865877111,0.006479417896632132,0.9878222459120332
2010-12-27,1,0.26965025004119936,0.2740139137445722,-0.006148201077937881,0.01012719791303016,0.786612531030539
2010-12-29,1,0.003639480892750239,0.003930291130671491,-0.005795275243407076,0.01012719791303016,0.9845440986568704
2010-12-31,0,0.0,0.0,-0.005795275243407076,0.016437867152924324,0.9832530301358989
2011-01-04,0,0.0,0.0,-0.004765276741407849,0.017178251610975047,0.9830550431595262
2011-01-06,0,0.0,0.0,-0.004765276741407849,0.017178251610975047,0.9836205727253997
2011-01-10,0,0.0,0.0,-0.004765276741407849,0.017178251610975047,0.9827233575963786
2011-01-12,0,0.0,0.0,-0.00811108638798263,0.017113163502325394,0.9828613158225479
2011-01-14,0,0.0,0.0,-0.004765276741407849,0.017113163502325394,0.9833526865050123
2011-01-19,1,0.0021691562247068146,0.0029504973273716986,-0.0036585377516487796,0.01993483184432554,0.9833073921123241
2011-01-21,0,0.0,0.0,-0.003836650948806386,0.0204455668615781,0.9813133992060966
2011-01-25,0,0.0,0.0,-0.0056265793403469525,0.0204455668615781,0.9802723072359616
2011-01-27,0,0.0,0.0,-0.009551585842350614,0.0204455668615781,0.9809742080551874
2011-01-31,0,0.0,0.0,-0.014342418531207483,0.019282876132169745,0.9822780353762097
2011-02-02,0,0.0,0.0,-0.014342418531207483,0.019282876132169745,0.9828355880006708
2011-02-04,0,0.0,0.0,-0.012734453576152,0.019282876132169745,0.9828763495708157
2011-02-08,1,9.889195184915005e-05,0.0001435427524181788,-0.012734453576152,0.019282876132169745,0.983189634171175
2011-02-10,1,0.0004917858692541662,0.0005141551822920373,-0.012734453576152,0.017119815664029682,0.9826897025858606
2011-02-14,1,0.0007807824896569658,0.0008025094798475288,-0.013622389103557859,0.01596703627412383,0.9820727588264789
2011-02-16,0,0.0,0.0,-0.01745344809413069,0.01596703627412383,0.9816745273868325
2011-02-18,0,0.0,0.0,-0.01745344809413069,0.01596703627412383,0.9810831436819087
2011-02-23,0,0.0,0.0,-0.013622389103557859,0.015380966102414552,0.9826020387882772
2011-02-25,0,0.0,0.0,-0.012734453576152,0.013896105800883709,0.9854938652560775
2011-03-01,1,0.003129346364560758,0.0032884768933488535,-0.010543782834045952,0.017912532078553454,0.982772057443828
2011-03-03,1,0.002959370997763136,0.00310667408980542,-0.010543782834045952,0.015380966102414552,0.9834072946982988
2011-03-07,1,0.0026638158542838493,0.002764307438825637,-0.009889927756601616,0.015380966102414552,0.9840605700881809
2011-03-09,0,0.0,0.0,-0.009298252681476073,0.015380966102414552,0.9835791995632728
2011-03-11,0,0.0,0.0,-0.0051376535013689184,0.013896105800883709,0.9857128012414142
2011-03-15,-1,-0.0005245845306159401,-0.00016844355384047739,-0.009298252681476073,0.0114276707167753,0.9848261988819885
2011-03-17,0,-0.00029450636831056503,2.3213261154761996e-05,-0.0051376535013689184,0.011113845070625137,0.9867250220537317
2011-03-21,1,0.0012384963200897249,0.0013435332538180179,-0.00505209376388872,0.011113845070625137,0.9877140105461898
2011-03-23,-1,-0.0009401503688044582,-0.00039281682148374023,-0.00505209376388872,0.013713824142836449,0.985642000590209
2011-03-25,-1,-0.002311730928813949,-0.0015820588733502835,-0.002484586598647015,0.014066791905609083,0.984705218658779
2011-03-29,1,5.180479698723827e-05,0.0004979011431815736,-0.005045352210234512,0.011070741323390164,0.9877839100039889
2011-03-31,0,-3.706009675110084e-05,0.0004359542507643469,-0.00582104881203791,0.008543689767471451,0.9881547470996466
2011-04-04,1,6.693062860724957e-05,0.00046745472707100384,-0.0120336921346909,0.008543689767471451,0.9862274538423873
2011-04-06,1,0.0012190756943244016,0.0013198353775980313,-0.010738711755514076,0.008543689767471451,0.986505057688561
2011-04-08,1,3.652884329974403e-05,0.00032945436842494536,-0.010738711755514076,0.013713824142836449,0.9852669538477723
2011-04-12,-1,-0.002771360672018025,-0.002134669719484378,-0.009409917953784874,0.013713824142836449,0.9854924837227904
2011-04-14,-1,-0.0005516325470179989,-0.00029630611146407623,-0.010738711755514076,0.00856746173010964,0.9857129202950572
2011-04-18,-1,-0.0009895097733397366,-0.0005861687747456075,-0.011554719224951108,0.006604970472896676,0.9862449839608288
2011-04-20,1,0.0005888889479875086,0.0008193362293771538,-0.011554719224951108,0.005021647370967615,0.9867236302115273
2011-04-25,1,0.0019629192615531425,0.001971154926826712,-0.012724001790879406,0.004884719263619428,0.9857630872370166
2011-04-27,1,0.0029478644869488347,0.0032215788768078808,-0.012724001790879406,0.006194186150852116,0.9827971255776025
2011-04-29,1,0.0025698271794102195,0.0027855761904307685,-0.012724001790879406,0.00911008307720675,0.9820377411681893
2011-05-03,1,0.00016613522107217286,0.000291182494311385,-0.011554719224951108,0.00911008307720675,0.9838979495586055
2011-05-05,-1,-0.0007853739543156256,-0.0005444444260204922,-0.010648135172608608,0.017591707797439744,0.9837639918954323
2011-05-09,1,0.0006335957148180985,0.0006727847603365348,-0.012724001790879406,0.00911008307720675,0.9831381286893754
2011-05-11,-1,-0.0015251746610680083,-0.001197415531739295,-0.010648135172608608,0.017591707797439744,0.9837090511922076
2011-05-13,-1,-0.002118473516645906,-0.0017113300468772521,-0.014295512645096507,0.017591707797439744,0.982599067443482
2011-05-17,-1,-0.0024239680493655614,-0.0019920069774120434,-0.02041095302658822,0.022196058995317024,0.9808808438249981
2011-05-19,-1,-0.001722839039389473,-0.0013476464799885585,-0.02041095302658822,0.017375989516615672,0.9821812629783633
2011-05-23,-1,-0.0018669922823586823,-0.0015247706122000087,-0.01255235010413514,0.017375989516615672,0.9821730137097324
2011-05-25,1,0.0010589351709439972,0.0010728012192056688,-0.01255235010413514,0.01045099377106266,0.9857238451723025
2011-05-27,0,-8.618392186507135e-05,0.0001226401122602157,-0.020589381850965885,0.008113501877909502,0.9856619892032586
2011-06-01,-1,-0.0017941618848969843,-0.0013290918582481784,-0.011394968576424597,0.01680244181773283,0.98299149334255
2011-06-03,-1,-0.0009421290188300745,-0.0005552248989028083,-0.011394968576424597,0.01680244181773283,0.9829164714704178
2011-06-07,-1,-0.002125692936094211,-0.0016615906278477487,-0.00822464324956785,0.018070644668785128,0.9834723015828081
2011-06-09,-1,-0.0010102526302204172,-0.0007049926595264522,-0.008013097740821191,0.018070644668785128,0.983682079755783
2011-06-13,-1,-0.0033374110408169446,-0.0027061022693094126,-0.005851842594841135,0.018070644668785128,0.9836854788912937
2011-06-15,0,0.0,0.0,-0.005851842594841135,0.01549920980249689,0.9852473252813622
2011-06-17,0,0.0,0.0,-0.001833867735059582,0.018377577871691364,0.984821846545331
2011-06-21,0,0.0,0.0,-0.002686761408826527,0.02332737345251673,0.9838265083301454
2011-06-23,0,0.0,0.0,-0.002686761408826527,0.02379328135558067,0.9822077457761126
2011-06-27,-1,-0.0009086435266931162,-0.0007420541224589076,-0.002686761408826527,0.02379328135558067,0.9829036478797436
2011-06-29,0,0.0,0.0,-0.0048770984576593564,0.018496877798090196,0.9854108971978346
2011-07-01,1,0.0028909158604713946,0.003064991006019631,-0.0052282442379420965,0.011526440506785383,0.9861465436561541
2011-07-06,1,0.003722463086101679,0.003978879852508596,-0.007254092502214257,0.007611909512753226,0.9849778853001235
2011-07-08,1,0.004876166773636194,0.0053433989659451035,-0.016152704426284574,0.005455987639146942,0.980356667405094
2011-07-12,1,0.004700620068401018,0.005174415063639415,-0.016152704426284574,0.007611909512753226,0.9752077057062826
2011-07-14,1,0.004458567677446729,0.004939369365077695,-0.021486443508624067,0.0117262718415653,0.9727255951124433
2011-07-18,1,0.004968849588399158,0.0054643185637018865,-0.021486443508624067,0.013205538831442539,0.9716552050689596
2011-07-20,1,0.006256650491753538,0.006905924418790063,-0.02852497852230004,0.006044460509815207,0.9704913559835674
2011-07-22,1,0.007104164232775968,0.007806850109942248,-0.033364580481572204,0.002299654389678947,0.962633456905542
2011-07-26,1,0.006995721381953259,0.007715841826241172,-0.033364580481572204,0.006044460509815207,0.9594370144692381
2011-07-28,1,0.004890944005509039,0.005261423974385006,-0.033364580481572204,0.008246695656230305,0.9609059215848039
2011-08-01,1,0.003668561815959142,0.0037864256367198894,-0.033364580481572204,0.03432587218428587,0.9589034138559572
2011-08-03,1,0.00227255648220149,0.002370287685935908,-0.03327713943001424,0.03432587218428587,0.9594206181811509
2011-08-05,-1,-0.003340757808169302,-0.0025690180973740144,-0.032902336872716986,0.03432587218428587,0.962034346256382
2011-08-09,-1,-0.004314111873524311,-0.003392870998641908,-0.030920010295004106,0.03304607827990065,0.9668984331353441
2011-08-11,0,0.0,0.0,-0.03142009548192326,0.024373385068444522,0.9671119765586506
2011-08-15,-1,-0.0017975042989702987,-0.0015066492865024152,-0.03142009548192326,0.01627292735560017,0.9699829093132049
2011-08-17,-1,-0.0022652116223036717,-0.0019253783273191832,-0.02239354834802076,0.021226509010851134,0.9709402429037413
2011-08-19,-1,-0.008212563210652356,-0.007079765866110525,-0.018410914316222833,0.021226509010851134,0.9766601121536551
2011-08-23,-1,-0.004314891086719057,-0.0036797799359502845,-0.021088374810684644,0.016133765994309993,0.9778413904543238
2011-08-25,0,0.0,0.0,-0.032668521853086094,0.016133765994309993,0.9734007489063852
2011-08-29,0,0.0,0.0,-0.032668521853086094,0.016133765994309993,0.9727133051613392
2011-08-31,-1,-0.0016861517486330521,-0.001684097015828781,-0.03595742767009785,-0.0023334093642503276,0.9723273412646507
2011-09-02,-1,-0.0035322212666014613,-0.0032187434426060625,-0.04855866341004607,-0.0023334093642503276,0.9708650314231815
2011-09-07,0,0.0,0.0,-0.04855866341004607,0.003944744665280021,0.965576551283059
2011-09-09,-1,-0.005892943216788408,-0.0050190928088008286,-0.04387729919959872,0.02115040529991587,0.9656308672806339
2011-09-13,-1,-0.004271503754113256,-0.0037118586758879525,-0.04387729919959872,0.027409249052020426,0.9621708080781268
2011-09-15,-1,-0.0024928035897648134,-0.0021917718218112327,-0.04387729919959872,0.027409249052020426,0.9624607060858362
2011-09-19,0,0.0,0.0,-0.054669560818298255,0.04953654782197523,0.9571838246396226
2011-09-21,-1,-0.004279932604033325,-0.0038427573396275228,-0.043376841177215415,0.04953654782197523,0.9584414785526935
2011-09-23,0,0.0,0.0,-0.034589557540262404,0.04953654782197523,0.9605876908017837
2011-09-27,0,0.0,0.0,-0.034589557540262404,0.047795783366162505,0.9618215910740402
2011-09-29,0,0.0,0.0,-0.029305632622378317,0.05606911355504314,0.959850665560124
2011-10-03,-1,-0.007783767117054543,-0.006927125291775858,-0.01570196304460865,0.05606911355504314,0.9610953127868134
2011-10-05,0,0.0,0.0,-0.029305632622378317,0.03970247666282087,0.964245433432422
2011-10-07,0,0.0,0.0,-0.020707475948856458,0.03547138599583572,0.9662850677323035
2011-10-11,0,0.0,0.0,-0.020707475948856458,0.02629852258352874,0.967198167882976
2011-10-13,-1,-0.0042632694782111825,-0.0038327424179878107,-0.031093998781220947,0.02638478341447912,0.9632723313721258
2011-10-17,-1,-0.0035670860183380218,-0.003258763915829968,-0.020707475948856458,0.02638478341447912,0.9683392494005394
2011-10-19,-1,-0.003390467732707114,-0.003134478138903816,-0.008804356639996659,0.02638478341447912,0.9704517038019705
2011-10-21,-1,-0.0023821799661614016,-0.0019703718060616352,-0.020961793381623333,0.02638478341447912,0.96955145176473
2011-10-25,1,0.0009809198702557436,0.001027145525568008,-0.03126111571963058,0.023259119392939613,0.9697685765062507
2011-10-27,0,0.0,0.0,-0.03608456320751824,0.02176425460508882,0.9720214033140391
2011-10-31,0,0.0,0.0,-0.03126111571963058,0.024266083866382303,0.9716959464897138
2011-11-02,0,0.0,0.0,-0.029515662646282144,0.024266083866382303,0.9711933884146864
2011-11-04,0,0.0,0.0,-0.029515662646282144,0.023259119392939613,0.9729060142447662
2011-11-08,-1,-0.0008560278274500965,-0.0008045293907599167,-0.034748976373386684,0.014923028002256256,0.9703791901072586
2011-11-10,-1,-0.001458772010606484,-0.0014336110811794599,-0.03126111571963058,0.015582177936513992,0.9727207155089714
2011-11-14,-1,-0.00021620819750894026,-1.3487553243683465e-06,-0.034748976373386684,0.010403952834787573,0.9712925947266686
2011-11-16,-1,-0.00036146535254031004,-0.00018749718833906907,-0.034748976373386684,0.009297426291184057,0.9702325252068128
2011-11-18,-1,-0.002152495381023813,-0.0021350616030845837,-0.03126111571963058,0.01302001489941595,0.9720541803203483
2011-11-22,-1,-0.0030511234371548993,-0.0030219679493667705,-0.027801517888088684,0.018557044557861384,0.9702394361839203
2011-11-25,-1,-0.003807891301221262,-0.0037444858009280544,-0.02287237387533216,0.018557044557861384,0.9719533628135449
2011-11-29,-1,-0.0014124259988364534,-0.0011328468141729793,-0.026300110641298297,0.01293578166239699,0.9733939318636156
2011-12-01,-1,-0.0004650304222080534,-0.000124368458754837,-0.026300110641298297,0.015742181809706463,0.9765940638647645
2011-12-05,1,0.00015358226807888698,0.0005684458778226992,-0.026300110641298297,0.016056318400176593,0.9756064273323664
2011-12-07,-1,-0.0018582541887928654,-0.001656035213906292,-0.017333644454667545,0.016056318400176593,0.9787720291513039
2011-12-09,1,0.00019007937060975047,0.0007545206150197908,-0.017333644454667545,0.016056318400176593,0.9791300797423204
2011-12-13,-1,-0.001196223299608112,-0.0007556477921469135,-0.01655194698217588,0.016056318400176593,0.9798272549050578
2011-12-15,-1,-0.0005489163805519547,-3.290010440130378e-05,-0.01655194698217588,0.016056318400176593,0.9805249225362553
2011-12-19,-1,-0.0011556471206378644,-0.0007639506022145996,-0.011810065240104419,0.02269383877289253,0.9791885340186599
2011-12-21,1,0.002598320480433205,0.0034344197422665067,-0.01655194698217588,0.017507472270805464,0.9830491435414729
2011-12-23,1,0.002505322919716848,0.0033152899422650888,-0.01655194698217588,0.022470857706879874,0.9824950131090651
2011-12-28,1,0.0006864455967710982,0.001027432738419016,-0.011810065240104419,0.025968453030889307,0.9823626706829496
2011-12-30,1,0.001980164067002736,0.0024899284545448898,-0.01267904421504893,0.025968453030889307,0.9833907217578436
2012-01-04,1,0.002896194006796371,0.003539460520511294,-0.01267904421504893,0.015604399465624351,0.9845676944579098
2012-01-06,1,0.0033210547670225045,0.0040990297072189315,-0.008047260473890334,0.018097234723010492,0.9850939367352202
2012-01-10,1,0.0034503921360173944,0.004147013604402082,-0.010918996945845943,0.009821525758889591,0.9856221388385977
2012-01-12,0,0.0,0.0,-0.007823491056367496,0.009821525758889591,0.987220729443174
2012-01-17,0,0.0,0.0,-0.007823491056367496,0.009821525758889591,0.9877429388618121
2012-01-19,0,0.0,0.0,-0.010918996945845943,0.004233941267092542,0.9899224242496075
2012-01-23,1,0.004565717768755713,0.0050364002333008065,-0.007823491056367496,0.012597479543389708,0.9886361867796994
2012-01-25,0,0.0,0.0,-0.007823491056367496,0.012597479543389708,0.9888269934214566
2012-01-27,0,0.0,0.0,-0.010918996945845943,0.008861850721303842,0.9890849676606515
2012-01-31,1,0.008155879556579133,0.009258039815182147,-0.011065130068903615,0.008861850721303842,0.9862819848774838
2012-02-02,1,0.0069434126630159,0.007721424612965501,-0.01221332527441847,0.008861850721303842,0.9863791611644199
2012-02-06,0,0.0,0.0,-0.01470127359715284,0.0036266841992796286,0.9864010051132502
2012-02-08,0,0.0,0.0,-0.01470127359715284,0.008797947153315406,0.9860231480569964
2012-02-10,1,0.0034090850572442034,0.003792830467478858,-0.012537916023917264,0.008797947153315406,0.9863872537105443
2012-02-14,1,0.0007701538693821533,0.0009383628649093972,-0.014807747765449608,0.012893799959874306,0.9851099119445091
2012-02-16,0,0.0,0.0,-0.01418036377091314,0.017055834249213312,0.9850264957209568
2012-02-21,0,0.0,0.0,-0.01418036377091314,0.00921796238673548,0.9859225924538865
2012-02-23,0,0.0,0.0,-0.021502192469888968,0.0041192931718693655,0.9850311572554353
2012-02-27,0,0.0,0.0,-0.020294026196624067,0.008491121870088564,0.9853884897182416
2012-02-29,0,0.0,0.0,-0.019685274252297467,0.008491121870088564,0.9851823223778874
2012-03-02,0,0.0,0.0,-0.019685274252297467,0.012941874730599566,0.9848448366350256
2012-03-06,0,-7.457615686989796e-05,0.00028176324023280834,-0.00858978973643759,0.012941874730599566,0.9870653821054574
2012-03-08,1,5.419013041056057e-05,0.0004242379339191734,-0.012460062013437979,0.009900585929946217,0.9867760462534547
2012-03-12,1,4.1405021922202336e-05,0.00044838691923036224,-0.013497658229571989,0.009900585929946217,0.9859950720481974
2012-03-14,-1,-0.0007533173503110541,-0.000234484212696824,-0.011936960606042057,0.009900585929946217,0.9867696214159581
2012-03-16,-1,-0.0009240762604725665,-0.0003631004108079121,-0.013497658229571989,0.008107462084940412,0.9864845939969039
2012-03-20,1,5.475753188320166e-05,0.0004390857782768367,-0.013497658229571989,0.009900585929946217,0.9841612653181652
2012-03-22,1,0.00026957494989235506,0.0005227129430822928,-0.011936960606042057,0.009900585929946217,0.9853526746893408
2012-03-26,1,0.00013399636381513226,0.0004887941325478911,-0.011936960606042057,0.009900585929946217,0.9852250241855534
2012-03-28,-1,-0.001367726896393457,-0.0010660749233799335,-0.01107459435207408,0.009900585929946217,0.9865689784535381
2012-03-30,-1,-0.0004500317266572482,-0.0002765047809640147,-0.01107459435207408,0.009137833357521335,0.985856255517597
2012-04-03,1,0.0006224879777099719,0.0006349586458837712,-0.011936960606042057,0.014466278911231843,0.9843185975031404
2012-04-05,-1,-0.000663886138977754,-0.0004927170205604532,-0.01215023118864596,0.014466278911231843,0.9830543957962621
2012-04-10,0,0.0,0.0,-0.011216164302425516,0.014466278911231843,0.9834504387362121
2012-04-12,0,0.0,0.0,-0.011216164302425516,0.009508676505995838,0.9846804725386942
2012-04-16,-1,-0.002307512209584126,-0.0018540712274045651,-0.010776808695194888,0.009508676505995838,0.9860457957891294
2012-04-18,-1,-0.0012764695020175063,-0.0008484247180967691,-0.013064574053969205,-0.0008142045509393,0.9869232019729641
2012-04-20,0,0.0,0.0,-0.01243664383695703,-0.0005516712030475823,0.9870647849313094
2012-04-24,0,0.0,0.0,-0.012478545365201531,-0.0005516712030475823,0.9855725391465162
2012-04-26,0,0.0,0.0,-0.012478545365201531,0.004237227854703367,0.9849444380692092
2012-04-30,0,0.0,0.0,-0.012478545365201531,0.004237227854703367,0.9856281409574508
2012-05-02,-1,-0.0006104924217242536,-0.0002794530571272205,-0.012478545365201531,-0.00023669413024188994,0.9848865495828455
2012-05-04,0,0.0,0.0,-0.012447799110836991,-0.00023669413024188994,0.9864563763301598
2012-05-08,0,0.0,0.0,-0.013876623262091839,-0.0020683544238769085,0.9846658321727566
2012-05-10,0,0.0,0.0,-0.013876623262091839,-0.0006881931091948489,0.9848860382452959
2012-05-14,-1,-0.004931488059956096,-0.004044381485651395,-0.013916336070080474,0.0015190711814308424,0.9856029671842154
2012-05-16,-1,-0.004365869097295943,-0.003684709881525884,-0.012771538982335663,0.006474710460227857,0.9858662613947174
2012-05-18,0,0.0,0.0,-0.013916336070080474,0.016611355492249055,0.9835981443844565
2012-05-22,0,0.0,0.0,-0.013916336070080474,0.01521119089036506,0.9851955713880696
2012-05-24,0,0.0,0.0,-0.016498638310282324,0.008305426324878452,0.983246518118152
2012-05-29,0,0.0,0.0,-0.017328918221140566,0.00393071321520915,0.982367570402436
2012-05-31,0,0.0,0.0,-0.016498638310282324,0.01521119089036506,0.9835601774510073
2012-06-04,0,-0.0032096164240684706,0.0,-0.016498638310282324,0.016635555530079716,0.9839175495022329
2012-06-06,-1,-0.007135913563141498,-0.0061949177856346176,-0.013632075209377396,0.018005735436064953,0.981411110019281
2012-06-08,-1,-0.007923199572500591,-0.006854842468404194,-0.013632075209377396,0.018005735436064953,0.981571202478395
2012-06-12,-1,-0.005304963528679867,-0.004714539274053477,-0.013678671333145029,0.016635555530079716,0.9821050580908992
2012-06-14,-1,-0.004656619645626213,-0.004130461293750019,-0.013678671333145029,0.015546214775725447,0.9826136896672497
2012-06-18,-1,-0.003083710302377189,-0.002823100854659278,-0.01095653111821044,0.014056837047005687,0.9833117598063774
2012-06-20,-1,-0.0013098863925587226,-0.0013066742030628737,-0.01095653111821044,0.01475497451715083,0.9830248786407152
2012-06-22,-1,-0.004059989136252833,-0.003739887808228352,-0.009156478813853694,0.0186779807927726,0.9830404246388215
2012-06-26,-1,-0.005714208740340165,-0.005187546409585092,-0.0051355787336926795,0.0186779807927726,0.983479149008726
2012-06-28,-1,-0.0030420744496832057,-0.0029253882862836813,-0.0051355787336926795,0.02435700388105935,0.9826592042271618
2012-07-02,-1,-0.0017081936662356465,-0.0016772022088466386,-0.00814186727726088,0.019915063488522247,0.9843256265365873
2012-07-05,0,0.0,0.0,-0.00814186727726088,0.014979056302720048,0.9863202211460425
2012-07-09,0,0.0,0.0,-0.002613095774936323,0.019915063488522247,0.9858276530074096
2012-07-11,0,0.0,0.0,0.00043153384580650914,0.019915063488522247,0.9860474097038212
2012-07-13,0,0.0,0.0,0.0013116923021627475,0.019915063488522247,0.9861212516548922
2012-07-17,-1,-0.0010709217818271476,-0.0008720508387655267,-0.0026271911653762345,0.019915063488522247,0.986366325114653
2012-07-19,0,-2.6182895069504545e-05,0.00029303865843477775,-0.0045524932803504715,0.019108017711923227,0.9867955447942732
2012-07-23,0,0.0,0.0,-0.005179980163388568,0.013528912436922634,0.9882687101979407
2012-07-25,0,0.0,0.0,-0.005179980163388568,0.013528912436922634,0.9878140610827114
2012-07-27,1,0.007154498363219195,0.008124118567491975,-0.0060036812851864815,0.0071288624680384645,0.9891159988088856
2012-07-31,1,0.0070506724242411015,0.00805137250006718,-0.0060036812851864815,0.0071288624680384645,0.9896172234451582
2012-08-02,1,0.006597188101245619,0.007534851568580507,-0.008495587927796184,0.005611306516868017,0.9884645886791986
2012-08-06,1,0.006580955080470151,0.007560398561747979,-0.01153921372240914,0.00474167220589406,0.9879866118043678
2012-08-08,0,0.0,0.0,-0.01153921372240914,0.00474167220589406,0.9901473893503129
2012-08-10,0,0.0,0.0,-0.01153921372240914,0.00474167220589406,0.9890067291999955
2012-08-14,0,0.0,0.0,-0.01153921372240914,0.008752698642811535,0.9874159547878999
2012-08-16,0,0.0,0.0,-0.01153921372240914,0.012304769680832123,0.9865029899598589
2012-08-20,1,0.0068540947412644385,0.007718986388678963,-0.01420186972831533,0.012304769680832123,0.9854418697646591
2012-08-22,0,0.0,0.0,-0.011804744412234325,0.012304769680832123,0.9860953270233147
2012-08-24,0,0.0,0.0,-0.010009229775353293,0.012304769680832123,0.9861303419367748
2012-08-28,0,0.0,0.0,-0.01691003304505207,0.012304769680832123,0.984734842393513
2012-08-30,0,0.0,0.0,-0.011196210276125497,0.012304769680832123,0.98537924953923
2012-09-04,-1,-0.0015870317166132644,-0.001433553103362424,-0.008461342460450414,0.013152555259894554,0.9857404193594027
2012-09-06,-1,-0.00179757959918565,-0.0016228257038543178,-0.011196210276125497,0.013877851203087127,0.9841941365168508
2012-09-10,1,0.006545845430366246,0.0075250356804048,-0.01566378191633663,0.011032272265664087,0.9839009298778807
2012-09-12,1,0.007764608592235829,0.008829767757136023,-0.01566378191633663,0.007563423666914714,0.9837367662111562
2012-09-14,1,0.009667340325943036,0.01098401105133551,-0.01566378191633663,0.006496917561733709,0.9829235072736854
2012-09-18,1,0.005908711170465159,0.006784312778750524,-0.012065091326121349,0.007563423666914714,0.9861097889826267
2012-09-20,0,0.0,0.0,-0.012065091326121349,0.00997741467153,0.9865391478563206
2012-09-24,1,0.0018339601150936297,0.002335227921108406,-0.01566378191633663,0.00997741467153,0.9860728341951334
2012-09-26,1,0.0036664141100769747,0.004196581080662595,-0.01566378191633663,0.00997741467153,0.9854458260568514
2012-09-28,1,0.003412662907188627,0.0039191275716672245,-0.01589453721040688,0.00997741467153,0.9855624174645886
2012-10-02,1,0.0035552782727177904,0.004046822952031352,-0.01589453721040688,0.010026906083611585,0.9853960961086758
2012-10-04,0,0.0,0.0,-0.01589453721040688,0.007688116219692633,0.9872083976105013
2012-10-08,0,0.0,0.0,-0.01620728850015716,0.010026906083611585,0.9860338594640508
2012-10-10,0,0.0,0.0,-0.017779859155387174,0.010026906083611585,0.9848998941806391
2012-10-12,0,0.0,0.0,-0.017779859155387174,0.007150820484753086,0.9852689558774319
2012-10-16,0,0.0,0.0,-0.017779859155387174,0.007150820484753086,0.9849919905834829
2012-10-18,0,0.0,0.0,-0.017779859155387174,0.005809311579582567,0.9843618892375054
2012-10-22,0,0.0,0.0,-0.01620728850015716,0.005809311579582567,0.9858410774136596
2012-10-24,-1,-0.0008778617432846798,-0.0007367812787878051,-0.009981759513937495,0.007811874191999442,0.9877808268566165
2012-10-26,-1,-0.0023383273257104025,-0.0019527845001770909,-0.004667029979582685,0.01165787721631911,0.9878398501604632
2012-11-01,-1,-0.002585860227142469,-0.0021638443733841438,-0.003055903120243179,0.01225605593334031,0.9868656630180699
2012-11-05,-1,-0.0025773103325234014,-0.0021238287689599707,-0.0029591463797272537,0.01225605593334031,0.9876477226925048
2012-11-07,-1,-0.0029632333096107607,-0.0025346938545134975,-0.0007651843596940038,0.01225605593334031,0.9886600344769777
2012-11-09,-1,-0.0046635053965184935,-0.003986719975870095,-0.0007651843596940038,0.01225605593334031,0.9892562692623751
2012-11-13,-1,-0.0043745814174429905,-0.0037521724654436066,-0.00038763093793424104,0.01225605593334031,0.9889687175014308
2012-11-15,-1,-0.0055230924123966215,-0.004630458835070718,-0.0007651843596940038,0.01165787721631911,0.9890029233677913
2012-11-19,-1,-0.004162626366615288,-0.003411823038614203,-0.0007651843596940038,0.01165787721631911,0.9900980273792996
2012-11-21,-1,-0.004097652664649362,-0.003384392078112964,-0.0018232750398417003,0.01225605593334031,0.9895300576577449
2012-11-26,-1,-0.0031643789662928494,-0.0025908928090482104,-0.004050674364848037,0.011926518040209501,0.9903050436949565
2012-11-28,-1,-0.0027879401312279595,-0.0022080123409080298,-0.004050674364848037,0.010618476609957316,0.9908209528908432
2012-11-30,-1,-0.0013290724175727166,-0.0009316201452073461,-0.005463269929669077,0.006917870209052345,0.990711228358251
2012-12-04,-1,-0.0031346663990131406,-0.0024706038974025577,-0.004050674364848037,0.013737962694841128,0.9885030878757342
2012-12-06,-1,-0.0027975579236283517,-0.0021824329927573145,-0.004050674364848037,0.011109125093025456,0.9888495766614318
2012-12-10,-1,-0.002419075247770716,-0.0019361444614282373,-0.005463269929669077,0.011109125093025456,0.9883050998695121
2012-12-12,-1,-0.002096225352987978,-0.0016257220353208834,-0.006002452017666436,0.012391052395852847,0.9881820089474449
2012-12-14,0,0.0,0.0,-0.006002452017666436,0.012391052395852847,0.9877599372324278
2012-12-18,0,0.0,0.0,-0.006002452017666436,0.00990116470661137,0.9896536849721558
2012-12-20,0,0.0,0.0,-0.006002452017666436,0.011478309207359571,0.9884778156490894
2012-12-24,0,0.0,0.0,-0.003299598305825774,0.011478309207359571,0.9891235694648548
2012-12-27,0,0.0,0.0,-0.0009227484083972821,0.01477449189469185,0.986394572265465
2012-12-31,1,0.0021808248744050094,0.0023613402811958287,-0.0009227484083972821,0.01429791849408295,0.9873503113434563
2013-01-03,0,0.0,0.0,-0.0009227484083972821,0.011619981034956043,0.9878536847792752
2013-01-07,0,0.0,0.0,-0.004107103616726859,0.011619981034956043,0.9879895771130172
2013-01-09,0,0.0,0.0,-0.004107103616726859,0.01218022410135776,0.987647963639322
2013-01-11,0,0.0,0.0,-0.004107103616726859,0.01218022410135776,0.9876049352206887
2013-01-15,0,0.0,0.0,-0.003746957309811485,0.01218022410135776,0.988571436591774
2013-01-17,0,0.0,0.0,-0.004274994645393928,0.013199684027542421,0.9850791893564387
2013-01-22,0,0.0,0.0,-0.006379635072288677,0.01218022410135776,0.9857662672185522
2013-01-24,0,0.0,0.0,-0.010667197561543895,0.01218022410135776,0.9845752887650108
2013-01-28,0,0.0,0.0,-0.014400629481542207,0.010883610871017387,0.9854438763480539
2013-01-30,1,0.004454877104432931,0.004787841319557596,-0.010667197561543895,0.010883610871017387,0.9861563992801763
2013-02-01,1,0.005134309570964003,0.00561506564274177,-0.01512230925524501,0.008887448089123862,0.9843224192540879
2013-02-05,1,0.0050576011118680176,0.005685684377162608,-0.01512230925524501,0.011123548078678326,0.9836316497725153
2013-02-07,1,0.006264293564024976,0.007044957118783523,-0.014856635232534122,0.015228323441513826,0.983848239809955
2013-02-11,1,0.006770874286158945,0.007698939906204768,-0.014856635232534122,0.015228323441513826,0.9839131058497239
2013-02-13,1,0.006228652370523997,0.0070364091816978004,-0.014856635232534122,0.016090158831369553,0.983781621925548
2013-02-15,1,0.00762626825566144,0.008608554759541759,-0.01747345425127031,0.015228323441513826,0.9843074892034003
2013-02-20,1,0.006459249202258169,0.007217339231280179,-0.01747345425127031,0.015228323441513826,0.9842702942503682
2013-02-22,1,0.006144445127902284,0.006846303422702223,-0.015406068507778916,0.015228323441513826,0.9847394058884944
2013-02-26,0,0.0,0.0,-0.009651737991005981,0.013122357188784389,0.9873985418693142
2013-02-28,0,0.0,0.0,-0.009651737991005981,0.012686369838329317,0.9876776384889258
2013-03-04,1,0.0005324613354652456,0.0005899928080393091,-0.006574936956619919,0.012686369838329317,0.9888079054141484
2013-03-06,1,0.004638655610863491,0.00507957236092282,-0.008860134866255974,0.012207638897092222,0.9871055093086012
2013-03-08,1,0.005602453777002712,0.00614905326755602,-0.008860134866255974,0.0009597263369046984,0.9869064266220938
2013-03-12,1,0.004212541904466356,0.0046266516832470985,-0.008860134866255974,0.012207638897092222,0.9862753229573564
2013-03-14,1,0.00500136244454908,0.005553548347453687,-0.008860134866255974,0.012207638897092222,0.9856486402927755
2013-03-18,0,0.0,0.0,-0.007610797014983231,0.012686369838329317,0.9854148369481834
2013-03-20,0,0.0,0.0,-0.007610797014983231,0.012686369838329317,0.984487134233458
2013-03-22,-1,-0.00031820613314865467,-6.726542812598676e-05,-0.008616830951330664,0.01446139483693501,0.9816891451502158
2013-03-26,1,6.262393459955946e-05,0.0002702475023344844,-0.008616830951330664,0.018496250716516137,0.9808702840154816
2013-03-28,1,0.0002809312749655046,0.00045020088105163615,-0.008616830951330664,0.018496250716516137,0.9813338212709748
2013-04-02,-1,-0.0006858452713197886,-0.0003825924702086504,-0.005946922336650218,0.025147189843206432,0.9794318603436826
2013-04-04,0,0.0,0.0,-0.005574107234880133,0.025147189843206432,0.9798238285017422
2013-04-08,0,0.0,0.0,-0.005195312979817025,0.025147189843206432,0.9793898539981312
2013-04-10,0,0.0,0.0,-0.005195312979817025,0.02064594952214275,0.981126380662392
2013-04-12,0,0.0,0.0,-0.004220098706934638,0.015151650877704769,0.9820771565457864
2013-04-16,0,0.0,0.0,-0.003965632091913548,0.012662552985336516,0.9850700737181525
2013-04-18,0,0.0,0.0,-0.003965632091913548,0.012662552985336516,0.9871604183655253
2013-04-22,0,0.0,0.0,-0.0033784125805090826,0.012662552985336516,0.9886536958025234
2013-04-24,0,0.0,0.0,-0.004220098706934638,0.009266751811827708,0.9890103821783156
2013-04-26,0,0.0,0.0,-0.007598329869220902,0.009266751811827708,0.9883126843690493
2013-04-30,0,0.0,0.0,-0.007598329869220902,0.007737345180334936,0.990307761114456
2013-05-02,0,0.0,0.0,-0.011391097594138868,0.007006291859689062,0.9895172467441545
2013-05-06,1,0.0004003586095357039,0.000711548125080941,-0.011391097594138868,0.007006291859689062,0.9892879482745809
2013-05-08,0,0.0,0.0,-0.011391097594138868,0.007006291859689062,0.988949051213495
2013-05-10,0,0.0,0.0,-0.011391097594138868,0.009327598481788109,0.9879769912471229
2013-05-14,0,0.0,0.0,-0.012568415106663833,0.007006291859689062,0.9874972885070374
2013-05-16,0,0.0,0.0,-0.012568415106663833,0.009327598481788109,0.9859938819343944
2013-05-20,0,0.0,0.0,-0.012568415106663833,0.010963101824410458,0.9865857061982879
2013-05-22,0,0.0,0.0,-0.013170667509905809,0.010963101824410458,0.9856956026756544
2013-05-24,0,0.0,0.0,-0.01823607756623919,0.010963101824410458,0.9858174434016667
2013-05-29,1,0.0009258400201553028,0.0010894566583214192,-0.01823607756623919,0.010963101824410458,0.9857061597460828
2013-05-31,1,0.00035862675706507916,0.0005616003384076508,-0.009634190687539533,0.010963101824410458,0.987246317123865
2013-06-04,-1,-0.0004148981492284132,-7.445729525442442e-05,-0.008465341296828507,0.01126937896413456,0.9872060741812808
2013-06-06,1,0.0002338059924725613,0.0005127886670767192,-0.008465341296828507,0.011755450872758231,0.9867618981039058
2013-06-10,0,-0.00029774877014822104,6.097360054702896e-05,-0.005168537312823797,0.00927066135892863,0.9874383341701279
2013-06-12,0,-0.00026837957102185416,7.798051557081169e-05,-0.003324315961264341,0.00927066135892863,0.9885543801983776
2013-06-14,1,0.000360706036772662,0.0006035220404733319,-0.0034694074017100843,0.00927066135892863,0.9894243146002099
2013-06-18,1,0.0006868019622796216,0.0008869066838955708,-0.005767190304213571,0.008890412650103277,0.9895758233083554
2013-06-20,-1,-0.0008273700178824764,-0.0005297321034659947,-0.00296897700621716,0.010731239215645439,0.9899798142725142
2013-06-24,-1,-0.0016603367021553728,-0.001254433797177216,-0.00296897700621716,0.011240835951106917,0.9893496308354442
2013-06-26,-1,-0.0006996711560792083,-0.00045309883965188803,-0.00572409502413612,0.011240835951106917,0.9890332381927711
2013-06-28,-1,-0.0007356458014393948,-0.00046716154286734874,-0.010017534044341673,0.01216516565538392,0.9873310804750629
2013-07-02,1,0.0005365130840498512,0.0006452296220108806,-0.010017534044341673,0.011240835951106917,0.9882517066072932
2013-07-05,1,0.0011990688320796528,0.001222713025473493,-0.010017534044341673,0.011240835951106917,0.9881396040019913
2013-07-09,1,0.0011977300829351754,0.0012324011759587885,-0.010017534044341673,0.011240835951106917,0.9880985296624664
2013-07-11,1,0.0018379308649284273,0.002054696026720865,-0.010017534044341673,0.012116317810170672,0.987313969097383
2013-07-15,1,0.0014804152690649486,0.0016014483570162003,-0.007681175514558235,0.012116317810170672,0.9881526069951181
2013-07-17,1,0.001232307683574581,0.0013145577408340827,-0.006686602641977975,0.012475932414575985,0.9885958023714672
2013-07-19,1,0.0014562928333384131,0.0015364480923894587,-0.006686602641977975,0.0071109017560632625,0.9898304326270526
2013-07-23,1,0.0019377215584776594,0.0021178957118435935,-0.006439581397120731,0.007380216613510248,0.9900181230536389
2013-07-25,1,0.0007981447763769159,0.0008476609669690793,-0.005647116093637196,0.012475932414575985,0.9904760178287138
2013-07-29,1,0.0013579057401737044,0.0014094971161667203,-0.005435430880364573,0.012475932414575985,0.991477550659987
2013-07-31,1,0.0019242919580179656,0.0020865576030204666,-0.005435430880364573,0.01379965339962188,0.9908767472225535
2013-08-02,1,0.0020635888394109235,0.00226214422095764,-0.006392224871782561,0.012475932414575985,0.9911986665584561
2013-08-06,1,0.0016667018099115068,0.0018282354551204891,-0.006392224871782561,0.01379965339962188,0.9909869368770514
2013-08-08,1,0.001840852359468096,0.0019152345055994291,-0.005754704364134142,0.01429531168803792,0.9910252268866985
2013-08-12,1,0.000982194085165546,0.0010772676464700977,-0.005754704364134142,0.014651566414224984,0.9905918299590349
2013-08-14,1,0.00209232037854243,0.002119296540918078,-0.006392224871782561,0.014651566414224984,0.9900225296957306
2013-08-16,1,0.0016146271473729702,0.0016317746520308812,-0.006392224871782561,0.014651566414224984,0.9900377066047863
2013-08-20,1,0.0024235031005849094,0.002444270769412425,-0.005757169231964693,0.014177402776838745,0.9907813841090204
2013-08-22,1,0.002155947960542644,0.0022368212683608565,-0.004851691197011468,0.010984142315165285,0.9914748582916999
2013-08-26,1,0.002164450775572745,0.0023137043233519075,-0.005065841278114641,0.008069501255280678,0.9913756300556371
2013-08-28,0,0.0,0.0,-0.0043211274802409175,0.006547379662519657,0.9922655129645671
2013-08-30,0,0.0,0.0,-0.0043211274802409175,0.006547379662519657,0.9926081553577584
2013-09-04,1,0.0023020678500755144,0.002395300148328655,-0.0043211274802409175,0.007916107429378687,0.9926144320984813
2013-09-06,1,0.0021254332192005418,0.002167525248197358,-0.004405729927383317,0.007916107429378687,0.9921850237857404
2013-09-10,1,0.0009443768545576591,0.001043310873904335,-0.00536211544461963,0.0038599080159906797,0.9925367945403907
2013-09-12,1,0.0019900317451179463,0.002021228341833314,-0.004405729927383317,0.007916107429378687,0.9919996541634029
2013-09-16,1,0.0033172266368457965,0.003403504266283003,-0.004405729927383317,0.009529882882012302,0.990990065039178
2013-09-18,1,0.00319613598714994,0.003228581205581584,-0.004405729927383317,0.010911745379467814,0.9904346084197242
2013-09-20,1,0.0034701315371437167,0.0036113738573617608,-0.004847765181917425,0.013405016592541888,0.9902315211682624
2013-09-24,1,0.002612088135992538,0.0026122951018019815,-0.004847765181917425,0.013474222188540502,0.9887808575224002
2013-09-26,1,0.0025523054368262422,0.002569802656761739,-0.00536211544461963,0.013474222188540502,0.9877625110157847
2013-09-30,1,0.002508304029301326,0.0025334204785106736,-0.003977669919008741,0.013474222188540502,0.98793614099697
2013-10-02,1,0.0027823583561228113,0.0028233175621555397,-0.003977669919008741,0.013852559977998927,0.9875392103170293
2013-10-04,1,0.002775603094812897,0.002833105335338139,-0.0038546604012076897,0.013690422112723824,0.9885045461305157
2013-10-08,1,0.0021200254037161397,0.002162344742213691,-0.0038546604012076897,0.014680122021519644,0.9874741199408351
2013-10-10,1,0.0036555384334407814,0.0038702125334259953,-0.0044414389110541755,0.014680122021519644,0.9878078496401218
2013-10-14,1,0.003785613879999218,0.00395458219372114,-0.0044414389110541755,0.015370933794055422,0.9874281429103864
2013-10-16,1,0.003576483428651836,0.0037067486150278834,-0.0059056446515386675,0.016370532283235796,0.9866405208193608
2013-10-18,1,0.0038805175165221176,0.004045148572859488,-0.005536616098135515,0.016370532283235796,0.9869545605979992
2013-10-22,1,0.0033463642690013725,0.0033732281227736387,-0.009516258518463161,0.013526939381870641,0.9871167574118879
2013-10-24,1,0.002524805933609121,0.0026025028889572724,-0.005536616098135515,0.013526939381870641,0.987740539239089
2013-10-28,1,0.002894406029301938,0.0029202112660219434,-0.009516258518463161,0.013526939381870641,0.9864348024172463
2013-10-30,1,0.0035460272009726146,0.003626573585310621,-0.011441410817269484,0.011919491898788003,0.9863897264166439
2013-11-01,1,0.002635763501795294,0.002716159163623626,-0.01311153429988435,0.011919491898788003,0.9860119077198974
2013-11-05,1,0.0025626198914857432,0.0025718555456804193,-0.01311153429988435,0.009723978322490251,0.9859960818874008
2013-11-07,1,0.003148304447732502,0.003264103108008316,-0.01311153429988435,0.006428318540878074,0.987162217546116
2013-11-11,1,0.0031646875092712144,0.0032168646254028405,-0.013214813607094051,0.005103745209107596,0.9870305029774016
2013-11-13,1,0.0026811040312206555,0.002726703209556137,-0.012752763181394308,0.005103745209107596,0.9878938878733929
2013-11-15,1,0.0028995638377523262,0.0029130679297657783,-0.012752763181394308,0.005103745209107596,0.9875318417492789
2013-11-19,1,0.0013869493433882594,0.0015774692215945333,-0.012752763181394308,0.006428318540878074,0.9891598217478463
2013-11-21,1,0.0018984447026857006,0.002002108205792706,-0.012752763181394308,0.006428318540878074,0.9881288183036243
2013-11-25,1,0.0011331601916871638,0.0012784312604739241,-0.010542863288270674,0.007943057631933767,0.9896172799925185
2013-11-27,1,0.0010069982833610979,0.0011568486962591589,-0.009667402880566498,0.008280457518373103,0.9901535046613817
2013-12-02,1,0.0005130466769737467,0.0007307413268357412,-0.009667402880566498,0.008280457518373103,0.9901509138493326
2013-12-04,-1,-0.0003717605259758337,-4.556120924549328e-05,-0.009667402880566498,0.008280457518373103,0.9908300079500073
2013-12-06,-1,-0.0006299889009075863,-0.00027407637407348003,-0.009667402880566498,0.008280457518373103,0.990779552183437
2013-12-10,-1,-0.0006059621162975946,-0.00031221291948209124,-0.009130513116109169,0.008280457518373103,0.9910145114121758
2013-12-12,-1,-0.0008424649374962575,-0.0005060686507657218,-0.01069139324046208,0.008280457518373103,0.9902612264932384
2013-12-16,-1,-0.0026447930718633468,-0.0022348328506463532,-0.01069139324046208,0.008280457518373103,0.9899332541186043
2013-12-18,-1,-0.0012960289567922507,-0.0009088188545782749,-0.006015986628254781,0.007096983798536966,0.9909020851765732
2013-12-20,-1,-0.0011018786413210938,-0.0007172579748317067,-0.006889674399575208,0.007096983798536966,0.9909119744126562
2013-12-24,-1,-0.0004960601729242832,-0.00021013724454033177,-0.013470401939228098,0.005586846075076571,0.9896705301526828
2013-12-27,-1,-0.0005389394708270026,-0.00021706444539539992,-0.013470401939228098,0.004854977535949459,0.9900785686043372
2013-12-31,-1,-0.0008124750582435745,-0.0004642890745263199,-0.009867148226215774,0.004854977535949459,0.9897177631534821
2014-01-03,-1,-0.0017837140317154858,-0.001361135604048278,-0.009991725141081874,0.004854977535949459,0.9897208761513677
2014-01-07,-1,-0.001476946536209516,-0.0011178338829906645,-0.009991725141081874,0.007667547300452804,0.9888057594263739
2014-01-09,-1,-0.0018909101491818591,-0.0014725517275313003,-0.00855544305717342,0.016989958338328462,0.9869024508510833
2014-01-13,-1,-0.001873304464140246,-0.001475333163073963,-0.0056633999694489755,0.01773213730120001,0.9867475368818142
2014-01-15,-1,-0.0010843156785816834,-0.0007990770817501542,-0.00855544305717342,0.016778361280948693,0.9867806660005162
2014-01-17,-1,-0.0008498657506184384,-0.000608963855063682,-0.00855544305717342,0.016778361280948693,0.9865206645107566
2014-01-22,-1,-0.0007984673002881538,-0.0005866457811561365,-0.0046017641810338255,0.01701879127442912,0.9869062600763594
2014-01-24,-1,-0.0025100131793622162,-0.002063653299486375,-0.0025239200569518324,0.019839697265715134,0.987461552253725
2014-01-28,-1,-0.0022974416500103033,-0.0019220921004716165,-0.003906574633884341,0.019839697265715134,0.9867329747888112
2014-01-30,-1,-0.001172596523994861,-0.0009444764639888884,-0.0033323508961667463,0.019839697265715134,0.9865640987465488
2014-02-03,-1,-0.0016899285575701388,-0.0014372336691030616,-0.0018485641101813005,0.019839697265715134,0.9864188824682117
2014-02-05,-1,-0.0015274465897502725,-0.001260343938221103,-0.0033323508961667463,0.016528094182065422,0.9863775454567304
2014-02-07,1,0.0006752083488333398,0.0006877832935468747,-0.00838682643881049,0.01108813526677818,0.9885900467103489
2014-02-11,1,0.0017854509391284478,0.001940020311648696,-0.01127740124565512,0.009819701789604753,0.9897242014361791
2014-02-13,1,0.0014118520273717005,0.001486508189136258,-0.00838682643881049,0.009819701789604753,0.9902931434172064
2014-02-18,1,0.001503870238609394,0.0015581233486939867,-0.00838682643881049,0.010454199265059194,0.9893839418093394
2014-02-20,1,0.0020897829491142244,0.0022132998308077565,-0.00838682643881049,0.009760016555951509,0.9897299241203117
2014-02-24,1,0.002375919387684817,0.002506498316071695,-0.00838682643881049,0.009760016555951509,0.9898896962358117
2014-02-26,1,0.0018642453890636793,0.0019601983659990416,-0.0071611702276031,0.01071208249038411,0.9893777455417124
2014-02-28,1,0.002780440411696,0.0029888807690910154,-0.0071611702276031,0.01071208249038411,0.9893847574934954
2014-03-04,1,0.0024576023148589377,0.002591548295312254,-0.006838444542590948,0.012294186862861878,0.9892815975383851
2014-03-06,1,0.0029173664116136483,0.0031523208797173325,-0.005097606963223039,0.01071208249038411,0.9901779758336097
2014-03-10,1,0.002977926480397827,0.00327669215957922,-0.006490362745388177,0.01071208249038411,0.9887345331738224
2014-03-12,1,0.002449279798224982,0.002705121243399237,-0.004803383414488732,0.012294186862861878,0.9890549347525387
2014-03-14,1,0.002496511087452314,0.002770254756295106,-0.005933815527625745,0.012294186862861878,0.9882560233071652
2014-03-18,1,0.0033017311277258425,0.00367031234462405,-0.005933815527625745,0.013190449150143871,0.9878300628155429
2014-03-20,1,0.0032632064853991673,0.003582521974257369,-0.005933815527625745,0.013190449150143871,0.9879846604324333
2014-03-24,1,0.0035880473140294136,0.003999426856766285,-0.005933815527625745,0.016310425173867073,0.9872874757504013
2014-03-26,1,0.004280449313617421,0.004829514154447786,-0.005933815527625745,0.016310425173867073,0.9873287379476087
2014-03-28,1,0.004909749482191405,0.005535172844056423,-0.008542026111935457,0.013190449150143871,0.9877735968314431
2014-04-01,1,0.0048646876675141285,0.005475634491666855,-0.005933815527625745,0.010394375947953326,0.9885639780925333
2014-04-03,1,0.005073799125320015,0.0057380538826508985,-0.005933815527625745,0.015073469079608128,0.9880813326519576
2014-04-07,1,0.004044744030581465,0.004620329505581392,-0.003197755862607572,0.015073469079608128,0.9898481806382792
2014-04-09,1,0.004865130921422368,0.005558187626134395,-0.005410909915925744,0.015073469079608128,0.9886803329726793
2014-04-11,1,0.004344735954788669,0.004992131317671559,-0.0015887392544026266,0.015073469079608128,0.9896939045861308
2014-04-15,1,0.004788725432157722,0.005402542046501369,-0.0019212293691162575,0.00926608682244955,0.9905163546723555
2014-04-17,1,0.005331519263103486,0.0060288379688282195,-0.0034282265132765523,0.008409788432954046,0.9890084651840529
2014-04-22,1,0.006134006620677015,0.00686068870206473,-0.005441076683607286,0.006219950230572943,0.9894562755497843
2014-04-24,1,0.005871439391150913,0.006545328361249219,-0.0032078114518347524,0.00489091819659714,0.991311780359973
2014-04-28,1,0.005174030574431398,0.005720456392198979,-0.0019212293691162575,0.006219950230572943,0.9923381319784856
2014-04-30,1,0.0047107223459317005,0.005122294065691139,-0.0032078114518347524,0.007978815409641146,0.9919179021384683
2014-05-02,1,0.004879910053859132,0.005299988490470046,-0.002592179425893169,0.007978815409641146,0.9924768563146329
2014-05-06,1,0.003935160880680707,0.0041830250633671205,-0.0019733046487395447,0.00866733119697978,0.992647304749432
2014-05-08,1,0.003649878334082285,0.0038508945765151088,-0.001247140447429334,0.00866733119697978,0.993736185773013
2014-05-12,1,0.003985791199578747,0.004245049129402982,-0.001247140447429334,0.0079255057507665,0.993967599239964
2014-05-14,1,0.0034160164055783756,0.003588719780151646,-0.0025861360396440543,0.0079255057507665,0.9936845730248698
2014-05-16,1,0.0028141223686064393,0.002924608933681602,-0.0013031965003720658,0.00866733119697978,0.9945461599068354
2014-05-20,1,0.002785241255464329,0.0028774386603116872,-0.0006919923796463775,0.008986011642827717,0.994421477524516
2014-05-22,1,0.002972816291493133,0.003092246283131239,-0.0006919923796463775,0.00959669715368899,0.9936242722640072
2014-05-27,1,0.0028867629120782256,0.002972584637803412,-0.0013031965003720658,0.009120442746016998,0.992348674346949
2014-05-29,1,0.002452681019966391,0.0024631374920082386,-0.00022330489887332114,0.010790923854741613,0.9922681987332407
2014-06-02,1,0.0027474992335795277,0.0027638757493548055,-0.00022330489887332114,0.01317975969543063,0.9920462503894016
2014-06-04,1,0.002315257753954076,0.002385207377983662,-0.0005408643195820504,0.01317975969543063,0.9922301637735007
2014-06-06,1,0.0028026596623074453,0.002820072070251117,-0.0012332285161379976,0.00903806708832582,0.992382208023246
2014-06-10,1,0.002990435612036062,0.0030195908909887094,-0.0023232232623062047,0.01317975969543063,0.9914695466313279
2014-06-12,1,0.002255400057531751,0.0023168344855423457,-0.002987708647712375,0.01317975969543063,0.9907989544352438
2014-06-16,1,0.0023946679379183056,0.0024559658447927536,-0.002987708647712375,0.012096611682790715,0.9907814042099856
2014-06-18,1,0.0016197043458581676,0.00183254876714896,-0.005674943435710744,0.012112647349025398,0.9893758344267711
2014-06-20,1,0.002013454260133249,0.002208300111372671,-0.005674943435710744,0.009118615416722086,0.9900521441468046
2014-06-24,1,0.0011195555486132398,0.0014155441006725956,-0.002987708647712375,0.012112647349025398,0.9897812933906326
2014-06-26,1,0.0009653945270994431,0.0013423478353693035,-0.005674943435710744,0.010405506449956537,0.9901747468734058
2014-06-30,1,0.0017733853476840664,0.0020338166913353105,-0.008802964083869713,0.008673481710933496,0.9892883640450395
2014-07-02,1,0.002467002165575538,0.002548558635610265,-0.010720128555488732,0.008673481710933496,0.9876347861275548
2014-07-07,1,0.0025085246691342396,0.002515552297723372,-0.008802964083869713,0.010405506449956537,0.98713435682747
2014-07-09,1,0.002140410756617159,0.0022012052032932433,-0.012536408999626623,0.008673481710933496,0.9864612948814594
2014-07-11,1,0.00110950176390612,0.0012786356067656815,-0.009133415688946173,0.010405506449956537,0.9868837301150057
2014-07-15,1,0.00199093037511328,0.002007468129031578,-0.009133415688946173,0.010958459659392948,0.9863539747127072
2014-07-17,1,0.0021888214479363994,0.002217771843406797,-0.009133415688946173,0.008673481710933496,0.9865448957638855
2014-07-21,1,0.001736684433424339,0.0018157697160129252,-0.009133415688946173,0.010958459659392948,0.9860796403013095
2014-07-23,1,0.003753744849257722,0.003992324491224759,-0.009133415688946173,0.006816346099713216,0.9871430216226114
2014-07-25,1,0.0031921107343044403,0.0033304559585587536,-0.011049417539645954,0.006816346099713216,0.9867854091433873
2014-07-29,1,0.0016888735763880567,0.0017515462448348179,-0.007225176070587879,0.01446632558435054,0.9873263735437107
2014-07-31,0,-0.00020370585258609871,9.980132213036801e-05,-0.00969374136033527,0.01446632558435054,0.9874265279904577
2014-08-04,0,-0.0002996610196080939,6.18162192637941e-05,-0.00969374136033527,0.009138762878930479,0.9883669055347151
2014-08-06,-1,-0.002008367022376836,-0.001433511858638118,-0.00969374136033527,0.009138762878930479,0.9894601133275379
2014-08-08,-1,-0.0015820135754109528,-0.0011843850637079565,-0.013358090201352263,0.009031476298376123,0.9890205022600901
2014-08-12,-1,-0.0011877803938537927,-0.0008475150816889231,-0.013358090201352263,0.008992513618241254,0.989059693922896
2014-08-14,-1,-0.0024037518747498615,-0.0019232930319863354,-0.013358090201352263,0.00827474934773648,0.989784448629529
2014-08-18,-1,-0.0013927926516075703,-0.0010440648950550842,-0.013358090201352263,0.00812478270498352,0.9898831742028396
2014-08-20,-1,-0.0011710782456552894,-0.0008789000970043037,-0.015331919555375518,0.00812478270498352,0.9891018259111174
2014-08-22,-1,-0.0020826553367048295,-0.0016892571328334298,-0.015718903205486422,0.00812478270498352,0.9884079537528653
2014-08-26,-1,-0.0008255137548763358,-0.0005784275371165933,-0.015718903205486422,0.003909269702533601,0.9900675145496038
2014-08-28,-1,-0.0036396778565860838,-0.002972051776394159,-0.015331919555375518,0.00564166008235634,0.9887871208999587
2014-09-02,-1,-0.003818263756358677,-0.003185341921459763,-0.01579767650635666,0.00564166008235634,0.9884844549088595
2014-09-04,-1,-0.0052379370518596275,-0.004390969156044056,-0.01655739492974498,0.00564166008235634,0.9873262724188286
2014-09-08,-1,-0.0032096097586924114,-0.002505254527293951,-0.016405688092600235,0.00564166008235634,0.9883362096472381
2014-09-10,-1,-0.002674175694420208,-0.0020703607433168692,-0.016405688092600235,0.0033844069250015428,0.9885091009535615
2014-09-12,-1,-0.0022925118525928523,-0.001898866316923704,-0.01655739492974498,0.00206992470178645,0.9846521896261566
2014-09-16,-1,-0.0013711850150499008,-0.0010754509221744923,-0.019452956662301808,-0.0005862581779351333,0.981491383664943
2014-09-18,-1,-0.0023778678324578965,-0.001950606629181974,-0.019452956662301808,0.00206992470178645,0.9810641296197953
2014-09-22,-1,-0.003310318272211933,-0.0027834294632910345,-0.01655739492974498,0.006271725908242064,0.9808969083012994
2014-09-24,-1,-0.0029857799664723,-0.00252145321603881,-0.018098896823450433,0.007743480147925556,0.9775557513365741
2014-09-26,-1,-0.0023748490881438894,-0.0019718752231275695,-0.018098896823450433,0.007743480147925556,0.9784267080808002
2014-09-30,-1,-0.0031198533937415755,-0.0026326909318073895,-0.024479589388365006,0.012001058673638218,0.975636780391962
2014-10-02,-1,-0.00464486042713544,-0.0040019293228219475,-0.01532692236603508,0.017542291810682883,0.9761218440163485
2014-10-06,-1,-0.004591952439108312,-0.003949607968306853,-0.02228655873861559,0.020707906418013483,0.9745597051839385
2014-10-08,-1,-0.006348411017748976,-0.005511241996345907,-0.029666013983720832,0.021991492978640493,0.971597398526939
2014-10-10,-1,-0.010224158057664502,-0.008942396128941238,-0.014925685219747012,0.021991492978640493,0.9731071908220563
2014-10-14,-1,-0.01365404209001633,-0.011997167695227705,-0.005499691182334297,0.021991492978640493,0.9736731034234184
2014-10-16,-1,-0.01069518426930768,-0.009339605792177224,-0.009138000556503018,0.021991492978640493,0.9765773509849293
2014-10-20,-1,-0.009104772347372458,-0.007979881376809862,-0.012415460869714425,0.021991492978640493,0.9739155383109707
2014-10-22,-1,-0.004796218366440404,-0.004160732738870919,-0.010394803242565077,0.017899638087723976,0.977811432297867
2014-10-24,-1,-0.003787509443219866,-0.0032776710970258225,-0.010394803242565077,0.017899638087723976,0.9770060015587221
2014-10-28,-1,-0.004556875158850891,-0.004002709761669993,-0.0142152000381631,0.01752425702850049,0.978731468450735
2014-10-30,-1,-0.004402785997459864,-0.0038488366895352323,-0.020010250634878896,0.01548335387630605,0.9749486800851955
2014-11-03,-1,-0.004286243530959913,-0.003729146415071753,-0.021698455209699798,0.013551943645570594,0.9753716476577979
2014-11-05,-1,-0.004323681391592133,-0.0038017105410585983,-0.019575365772822394,0.011134629141645716,0.9780005329578614
2014-11-07,-1,-0.002832825976050695,-0.0025114691258440454,-0.021698455209699798,0.003799527388307059,0.9772130517544324
2014-11-11,-1,-0.002220258582578122,-0.002021519799942732,-0.025714316602653508,0.010252806407887016,0.9745270890324687
2014-11-13,-1,-0.002570356859848573,-0.0022929459977763474,-0.025714316602653508,0.0047051317022102825,0.9750659725115366
2014-11-17,-1,-0.003918922791244896,-0.0035216393441835935,-0.021698455209699798,0.004081211540031521,0.9807206248723269
2014-11-19,-1,-0.003629681902317083,-0.0033002150110272846,-0.021698455209699798,0.00829184501324721,0.9792948317985111
2014-11-21,-1,-0.0018621873531121805,-0.001742294724056403,-0.021698455209699798,0.004081211540031521,0.9787502573335132
2014-11-25,-1,-0.0033914828950661093,-0.0030858152467301836,-0.020281568254809968,0.0056972375396559015,0.9807294739805454
2014-11-28,-1,-0.00634802667892354,-0.005712054570430824,-0.011812780908642323,0.007013894015584515,0.9851466236674608
2014-12-02,-1,-0.007896952457564624,-0.007051911152053525,-0.008155927981381737,0.007013894015584515,0.9859037329334668
2014-12-04,-1,-0.006734187919642106,-0.006071002484111904,-0.00974904539335088,0.005479227261161257,0.9862155420039092
2014-12-08,-1,-0.008152798709848549,-0.007344520841623781,-0.008339543928692423,0.007013894015584515,0.9858819351316379
2014-12-10,-1,-0.007879196089569152,-0.007135011686019264,-0.008339543928692423,0.007013894015584515,0.9872755384870822
2014-12-12,-1,-0.006327480744286516,-0.005841745437106414,-0.009911501850275742,0.007013894015584515,0.9869946309254802
2014-12-16,-1,-0.005720718620046357,-0.005299266867337991,-0.01058485636255636,0.005479227261161257,0.9865658262127582
2014-12-18,-1,-0.004761196458545485,-0.004413548525537935,-0.01058485636255636,0.009569189469261472,0.9848934589117644
2014-12-22,-1,-0.004449681168844065,-0.0040984095668716415,-0.009911501850275742,0.009569189469261472,0.985814574210134
2014-12-24,-1,-0.0035269950362337935,-0.00332192601342589,-0.009911501850275742,0.013071887304898172,0.9851922657140241
2014-12-29,-1,-0.003522973728783457,-0.0032803653736340503,-0.01058485636255636,0.013071887304898172,0.9834976742664453
2014-12-31,-1,-0.0037403892822720996,-0.0034921370884552676,-0.009911501850275742,0.013071887304898172,0.9829474734188547
2015-01-05,-1,-0.0033741060032402405,-0.0031930472649231174,-0.00731920366622222,0.02159263500685693,0.9799065914481864
2015-01-07,-1,-0.002872507616638618,-0.0027220437482410337,-0.00741419137531336,0.02159263500685693,0.9797238620078207
2015-01-09,-1,-0.0016138290140678172,-0.0015640942644908487,-0.0014486443645899771,0.018814750888854783,0.9813416201459634
2015-01-13,-1,-0.0022964168340399525,-0.002285100949634783,-0.0024677799099180886,0.018814750888854783,0.9813101155286175
2015-01-15,-1,-0.0029845095993457057,-0.0028682761712273967,0.0007812880276367852,0.021855470018739793,0.9797825045660707
2015-01-20,1,0.0001009234404741211,0.00046023500121612857,-0.0024677799099180886,0.016938999068547247,0.9836374178954581
2015-01-22,1,0.0008507854310342332,0.0012503588536954902,-0.010596871970067053,0.0148790351244451,0.9838566014683613
2015-01-26,1,0.001651570199721645,0.002180589906229881,-0.010596871970067053,0.0148790351244451,0.9841230560739627
2015-01-28,1,0.00019563186511995412,0.0005296091877435643,-0.010596871970067053,0.0148790351244451,0.9848190585924931
2015-01-30,1,0.0007930483556213188,0.0012083041501026862,-0.010596871970067053,0.0148790351244451,0.9851692183374511
2015-02-03,1,0.0037503482934650918,0.004576773914609074,-0.010596871970067053,0.007462180366750237,0.9882043663929965
2015-02-05,1,0.0037752155158986066,0.004585250288290167,-0.010596871970067053,0.0039996572617635225,0.9891157905191277
2015-02-09,1,0.004375716242755112,0.005318721552606818,-0.011283519797309823,0.0034986310951591526,0.9874213958303169
2015-02-11,1,0.003427767690877405,0.004223641774985241,-0.0086913818976842,0.0034986310951591526,0.9890222729556025
2015-02-13,1,0.004782595903299545,0.005733057019562372,-0.011283519797309823,0.0015711953957679935,0.9887482241378404
2015-02-18,1,0.005231585056860222,0.006248365057367618,-0.009277340882367417,0.0015711953957679935,0.9878323654874216
2015-02-20,1,0.0051387998813736116,0.006178680127419466,-0.007815389464375804,0.0034986310951591526,0.9881127473643972
2015-02-24,1,0.004745389058553632,0.0057052818648131685,-0.008469106196738059,0.003704619328239263,0.9882817888520524
2015-02-26,1,0.003997348919719038,0.004810979490602009,-0.007815389464375804,0.003704619328239263,0.9889899815811732
2015-03-02,1,0.004668444446059285,0.005574909069919096,-0.007815389464375804,0.004414960907536665,0.9883507898850211
2015-03-04,1,0.004709757578023379,0.0055908736779524855,-0.007815389464375804,0.004414960907536665,0.9882361186855926
2015-03-06,1,0.0028841177187836652,0.0033181522548416794,-0.006768583676917675,0.00958269783195498,0.9881948194796476
2015-03-10,1,0.00047338306001371087,0.0005191224431175984,-0.006516640305209816,0.00958269783195498,0.987779636253042
2015-03-12,1,0.0009458632186799577,0.0010490210711643858,-0.006052951253627522,0.015175493367860685,0.9861412555716781
2015-03-16,1,0.0012527970273929394,0.0013872899427961973,-0.006052951253627522,0.018010781040997657,0.9859165989454739
2015-03-18,1,0.002788342927474932,0.0031796930404525553,-0.006516640305209816,0.018010781040997657,0.9853759994502751
2015-03-20,1,0.004242112147242032,0.0048804072031772925,-0.007281394961196829,0.017662407032193697,0.9847941661585389
2015-03-24,1,0.003496492737584101,0.0039886968857330805,-0.007281394961196829,0.017662407032193697,0.9844595577273068
2015-03-26,1,0.0044022949024468145,0.00501763659872798,-0.007281394961196829,0.017662407032193697,0.9844337713273127
2015-03-30,1,0.004618014730842044,0.005281764578913032,-0.007281394961196829,0.017662407032193697,0.9846500225105101
2015-04-01,1,0.004742319203499592,0.0054020071084850615,-0.007281394961196829,0.017662407032193697,0.9842465633101204
2015-04-06,1,0.006622912794658068,0.00760718437893387,-0.007281394961196829,0.013751203734554325,0.9855047641974988
2015-04-08,1,0.0053502884587817824,0.0061557724745527525,-0.008003978582726588,0.013751203734554325,0.9860665168328522
2015-04-10,1,0.007248750662726807,0.008308804273934952,-0.010862222995207501,0.013751203734554325,0.9841741710160391
2015-04-14,1,0.0068542242309983445,0.007867251717390052,-0.010862222995207501,0.009908706044034135,0.9845751215516617
2015-04-16,1,0.007737028694701567,0.00882413033332759,-0.01703273584094599,0.007007592877150079,0.984915407352962
2015-04-20,1,0.00862419158626864,0.009934931844475452,-0.009956203537452291,0.005788337017071344,0.9856637058958037
2015-04-22,1,0.007066604091649022,0.008065808946060547,-0.010270041519013673,0.005788337017071344,0.9856056925775207
2015-04-24,1,0.005259698831187827,0.0058710851131238235,-0.010270041519013673,0.005788337017071344,0.9863188763028109
2015-04-28,1,0.004742207878380497,0.0051894869795696815,-0.012008250194199791,0.004204917276300625,0.985972569235728
2015-04-30,1,0.005047373865689264,0.00553394933284706,-0.012008250194199791,0.0033865621488892842,0.985928578151273
2015-05-04,1,0.003917829715099813,0.004136117407052445,-0.012008250194199791,0.004204917276300625,0.9858341528644663
2015-05-06,1,0.0024667187871197584,0.002482033967635201,-0.012008250194199791,0.004204917276300625,0.9866222335033464
2015-05-08,1,0.002641273431597268,0.0026441777638024693,-0.007589108299390832,0.004204917276300625,0.9883097792794668
2015-05-12,1,0.0019335807393589459,0.0020167128569801903,-0.006594550979603635,0.004204917276300625,0.9886638060274309
2015-05-14,1,0.0012407938787515004,0.0013312722448336992,-0.006594550979603635,0.004204917276300625,0.9892157102870247
2015-05-18,1,0.0015643510108928002,0.0016143080000426014,-0.006594550979603635,0.002089431962888179,0.9891102752546391
2015-05-20,0,-1.6433740089992922e-06,0.00022793465322875,-0.006594550979603635,0.00440146849109161,0.9900166783664257
2015-05-22,1,0.0006413347661758618,0.0007791398957396232,-0.007589108299390832,0.004287588608058692,0.99032344520488
2015-05-27,0,-0.00020931000199955914,6.081557428996322e-05,-0.006594550979603635,0.0060432332531116205,0.9905307008807461
2015-05-29,-1,-0.0008873339868650323,-0.0005041919424796449,-0.009903833406200872,0.0060432332531116205,0.9898519280714074
2015-06-02,-1,-0.0004160760637165758,-0.00013381609342159103,-0.010831224360616506,0.0060432332531116205,0.9896653229262278
2015-06-04,-1,-0.0013111690164101944,-0.0009442342422903956,-0.010831224360616506,0.006894035226199967,0.9890225016983482
2015-06-08,-1,-0.0025638099890489072,-0.002089034852231643,-0.01415005523439803,0.006894035226199967,0.9879767717497324
2015-06-10,-1,-0.002422916517747898,-0.001918679550597918,-0.016518636166377894,0.006894035226199967,0.987609710169851
2015-06-12,-1,-0.001683997330225492,-0.0013819671336460337,-0.016518636166377894,0.008469854315012564,0.9872357061612628
2015-06-16,-1,-0.0012909883216606303,-0.001074803583841291,-0.018323149133572057,0.008686489839984112,0.9849021347020916
2015-06-18,-1,-0.001745856831920967,-0.001502523060469707,-0.017946832855415557,0.008686489839984112,0.9853001707413925
2015-06-22,-1,-0.0032072011842156417,-0.002690316606553519,-0.017946832855415557,0.010044637330520998,0.984122552189387
2015-06-24,-1,-0.003019991884197466,-0.0025347294812984146,-0.017946832855415557,0.013919033903956084,0.983494115110888
2015-06-26,-1,-0.0018124280422606295,-0.0015146461569979564,-0.018537970428767286,0.013919033903956084,0.9830862645930278
2015-06-30,-1,-0.001695052020637076,-0.0013925036978029927,-0.018537970428767286,0.018445372514715647,0.9811660454157817
2015-07-02,-1,-0.0025019684027880696,-0.0020922759781183582,-0.018537970428767286,0.018445372514715647,0.9817827823135414
2015-07-07,-1,-0.003094356319799256,-0.002566066950964267,-0.018537970428767286,0.01692336664262057,0.9823041267812037
2015-07-09,-1,-0.002577311768946222,-0.0022005616165306644,-0.015242281972912402,0.018445372514715647,0.9819601530051327
2015-07-13,-1,-0.0019298907735399219,-0.0016332384674088627,-0.018537970428767286,0.01999787315430842,0.9792089218065335
2015-07-15,-1,-0.002867112425299326,-0.0024212189884627857,-0.015242281972912402,0.01999787315430842,0.9803360247494688
2015-07-17,-1,-0.003807342824671763,-0.0032464530559354267,-0.015242281972912402,0.01999787315430842,0.9799881459847702
2015-07-21,-1,-0.002378904073154872,-0.0019725860876517783,-0.01693732402002005,0.01834203297924667,0.9815557309687564
2015-07-23,-1,-0.0019218568145534117,-0.001581885752750981,-0.022457295221536895,0.010475884753163906,0.9789665598761049
2015-07-27,-1,-0.004784798790935366,-0.004299090042817266,-0.030002683431091755,0.010475884753163906,0.975708645861138
2015-07-29,-1,-0.0005329866693907788,-0.00018940037291656313,-0.030002683431091755,0.00641459742810613,0.976024699053245
2015-07-31,-1,-0.005020567902909686,-0.004537606654869079,-0.030002683431091755,0.015373024622396567,0.972486838498333
2015-08-04,-1,-0.006874055635922839,-0.006171039255156045,-0.028906765468053482,0.01851111846739098,0.9718653185614354
2015-08-06,-1,-0.006099975043009445,-0.005475709211746243,-0.028906765468053482,0.015373024622396567,0.9732190214109891
2015-08-10,-1,-0.005131161016396027,-0.0046835962928118285,-0.03311990209422368,0.015373024622396567,0.9737512295596737
2015-08-12,-1,-0.0038603231754304125,-0.003595447955718966,-0.03311990209422368,0.012295639777099333,0.9738142627044674
2015-08-14,-1,-0.004588577738562813,-0.004228055935759206,-0.03311990209422368,0.012295639777099333,0.9747075567136272
2015-08-18,-1,-0.004730938865261506,-0.004386571075891362,-0.03311990209422368,0.01576737770930583,0.9726934415201474
2015-08-20,-1,-0.007084391019921477,-0.00648991432369364,-0.023885387976561923,0.01576737770930583,0.9741809025658248
2015-08-24,-1,-0.0065048732194217685,-0.005596764498802397,-0.00897955399443541,0.01576737770930583,0.9785479332673642
2015-08-26,-1,-0.004683081235394124,-0.004080390255187309,-0.00897955399443541,0.012295639777099333,0.9805672030145154
2015-08-28,-1,-0.001088820854294151,-0.0008601189969841701,-0.01285392922350536,0.004092911640819537,0.9839301916098927
2015-09-01,-1,-0.0007185492735462801,-0.0006045191658413284,-0.00897955399443541,0.004092911640819537,0.9852376662054617
2015-09-03,-1,-0.0006582191363876013,-0.0005512318292039287,-0.010695572296411878,0.0055373296240964,0.982400837586486
2015-09-08,1,0.0003977038792944155,0.0004949586018343018,-0.00897955399443541,0.01351088856824869,0.9824242068136122
2015-09-10,1,5.56303646802876e-05,0.0001391375734203495,-0.008231601155482658,0.019740602163495727,0.9823403852109612
2015-09-14,-1,-0.0005005333147057221,-0.0004906840880797362,-0.009192795783712238,0.019740602163495727,0.9812935668452969
2015-09-16,1,0.001191120519926292,0.0014554891967499838,-0.010829720690643837,0.015178565891579284,0.9828577569604207
2015-09-18,1,0.0006290115868768699,0.0008422132881817609,-0.010829720690643837,0.015289514141178712,0.9821486263128609
2015-09-22,1,0.0009110828213500588,0.001185236994775892,-0.012037954974451214,0.015289514141178712,0.9812402603651822
2015-09-24,1,0.0008460517651506067,0.0011203155962019437,-0.012037954974451214,0.019740602163495727,0.979469687395551
2015-09-28,-1,-0.0006570914178809048,-0.0006446511976638807,-0.012483012282812792,0.019740602163495727,0.9804740479528036
2015-09-30,-1,-0.0002312056450675526,-0.00011761923969490727,-0.013651574641200927,0.02102255076387522,0.9794968458273553
2015-10-02,1,0.0008880998946806732,0.001131571890994053,-0.013651574641200927,0.019582256885218387,0.9825400594035534
2015-10-06,1,0.002535861240080451,0.00296024715384698,-0.013651574641200927,0.019167059670384526,0.9836179176740971
2015-10-08,1,0.003848352666721529,0.004462090954679626,-0.019023437305143037,0.015236732381752932,0.9827282485422819
2015-10-12,1,0.0022288713942475546,0.002573021119469698,-0.013651574641200927,0.019167059670384526,0.9833656085823874
2015-10-14,1,0.00253496802706137,0.0029577443821518163,-0.017725062765927016,0.019167059670384526,0.9827086299576042
2015-10-16,1,0.0017626705977049997,0.002076540080720165,-0.016215920720324385,0.019167059670384526,0.9841003502990606
2015-10-20,1,0.0017791589787349582,0.0020907077062785463,-0.016215920720324385,0.019776959119373636,0.983185516994383
2015-10-22,1,0.0036755447414945222,0.004262550134772207,-0.017725062765927016,0.019558646488353197,0.983079837697153
2015-10-26,1,0.002464001719820079,0.0028429866837339185,-0.017108546280878646,0.019558646488353197,0.9845592174944358
2015-10-28,-1,-0.0006224639419220202,-0.00014970085406697383,-0.012117858342327334,0.019558646488353197,0.9852806811992858
2015-10-30,0,-0.00010574297306741942,0.00046833250874730027,-0.012117858342327334,0.019558646488353197,0.9844484956457824
2015-11-03,1,0.001006097690555494,0.0016873987289574063,-0.017108546280878646,0.01495140968579429,0.9838059050592289
2015-11-05,1,2.4840391517048314e-05,0.0005842824060780995,-0.012117858342327334,0.01495140968579429,0.984747341949341
2015-11-09,1,0.00038740654578424123,0.0009432117719194203,-0.01721213791902933,0.010358323045012593,0.9839523567458671
2015-11-11,0,-0.00028063303677083396,0.00016991943361492146,-0.012117858342327334,0.01495140968579429,0.9825431398501027
2015-11-13,0,-0.0003726539642378559,8.670984306136304e-05,-0.013721037705212222,0.01495140968579429,0.9814342970344354
2015-11-17,1,7.08221329121495e-05,0.00047968263291171516,-0.02223709787717797,0.014113340036908336,0.980848450545361
2015-11-19,1,1.3912993670289753e-05,0.0004376864064753287,-0.025898355849997095,0.010358323045012593,0.979550726513818
2015-11-23,0,-9.96676740872526e-05,0.00023493362749286593,-0.025898355849997095,0.014113340036908336,0.9791181729353824
2015-11-25,1,0.0004829415484686485,0.0009005218339792145,-0.025898355849997095,0.014113340036908336,0.9787496899845466
2015-11-30,1,0.002023592321942727,0.0023541636673500375,-0.025934786484172426,0.007823653046390378,0.9778031713197625
2015-12-02,1,0.00030145404603170627,0.0006675997312203107,-0.024145710245464518,0.0005606673405355251,0.9801495475125566
2015-12-04,-1,-0.0005333063345084979,-0.0003314609485059254,-0.02228313773292268,0.0076046768113407544,0.9810620870525599
2015-12-08,-1,-0.0008152808082320924,-0.0007352698839404141,-0.02228313773292268,0.0076046768113407544,0.9811204621323721
2015-12-10,1,0.0010700880319247208,0.0013302618013898782,-0.025145230683439535,0.0005606673405355251,0.9811839920527471
2015-12-14,1,8.363815127511204e-05,0.00023761021331013938,-0.025145230683439535,0.0005606673405355251,0.9820132660218364
2015-12-16,-1,-0.0008886730425645671,-0.0008614220674992873,-0.025145230683439535,0.0005606673405355251,0.9811186325648579
2015-12-18,-1,-0.001872533529954058,-0.001822349815201537,-0.028147992174789124,0.0005606673405355251,0.9810615781322518
2015-12-22,-1,-0.0018065408298572365,-0.0017186601562799654,-0.028147992174789124,0.0076046768113407544,0.9790374811040211
2015-12-24,-1,-0.0015844961190427224,-0.001441012951688291,-0.02890195773127134,-0.00028236454583131267,0.9795229556470716
2015-12-29,-1,-0.0014568374857949259,-0.001382507050500783,-0.02890195773127134,0.006341336966371559,0.9782671303404251
2015-12-31,-1,-0.0013396758771567513,-0.0013134588168812586,-0.02890195773127134,0.01680471154560134,0.9763665467109492
2016-01-05,-1,-0.00043916980911663843,-0.0003010848723507528,-0.030380058632525637,0.029012594101375508,0.9729755307085785
2016-01-07,-1,-0.001848916711700814,-0.001788893021707063,-0.031343234566493516,0.029012594101375508,0.9729792714615837
2016-01-11,-1,-0.003462820038783237,-0.003185779392981323,-0.032396173109943305,0.029012594101375508,0.9725830295510941
2016-01-13,-1,-0.00589286995234358,-0.005209126776255779,-0.0316453418703015,0.029012594101375508,0.9731138372744488
2016-01-15,-1,-0.007802092755264397,-0.006717187567986276,-0.030932443016214218,0.028458928791386673,0.9743801884293462
2016-01-20,-1,-0.009822969187413448,-0.008547337039293168,-0.01911476210174475,0.029066200737793292,0.9738099734908477
2016-01-22,-1,-0.005496573225371251,-0.004918688306314894,-0.01911476210174475,0.032386044584100805,0.9752856488360041
2016-01-26,-1,-0.0072761575302318325,-0.00647426004501386,-0.018446899951034556,0.032386044584100805,0.9745251382886173
2016-01-28,-1,-0.005085538341211193,-0.004553732105091761,-0.018446899951034556,0.018157574583643803,0.9771247391290279
2016-02-01,-1,-0.0035545424672450915,-0.003202150929192179,-0.018446899951034556,0.01676055679276117,0.9779467801003191
2016-02-03,-1,-0.0031002542404023315,-0.002789315351043878,-0.016262001629019147,0.016209142480542248,0.9800324077271179
2016-02-05,-1,-0.004040025124398565,-0.0035913193613526175,-0.006183962442511492,0.02131502601375454,0.979355824052932
2016-02-09,-1,-0.004804140812066276,-0.004353077199480405,-0.0007151799734450501,0.02131502601375454,0.9791391227792735
2016-02-11,-1,-0.006242688085281461,-0.005576605893269323,0.00020905562395700703,0.024074075370474776,0.9771289635913729
2016-02-16,-1,-0.0044532477679231925,-0.0040058273493988866,-0.007483155642958673,0.02131502601375454,0.9793609233815094
2016-02-18,-1,-0.002737830334616438,-0.0024746814061141244,-0.007483155642958673,0.02131502601375454,0.9804336177138292
2016-02-22,-1,-0.0022045512151874997,-0.0019121475212383564,-0.007483155642958673,0.019731267042383954,0.9828504039344922
2016-02-24,-1,-0.0023396782585343857,-0.0020535238381621875,-0.012043980480833296,0.019731267042383954,0.9829307184725716
2016-02-26,-1,-0.0009944773963486574,-0.0009353291045766238,-0.012043980480833296,0.019731267042383954,0.9832391492939176
2016-03-01,1,0.00033941841318481413,0.0005602698256456856,-0.006709099169121855,0.019731267042383954,0.9838700158437063
2016-03-03,1,0.002035737645283914,0.0025485849700642776,-0.012043980480833296,0.015483280244773112,0.9841502436500436
2016-03-07,1,0.002931671442535789,0.003496311568941118,-0.015065856545105947,0.007509033265851213,0.9839364637367205
2016-03-09,1,0.0020037257996649398,0.0024419070796865136,-0.012043980480833296,0.012253110936039702,0.9831749583927176
2016-03-11,1,0.002850595082848805,0.003358183922624899,-0.012043980480833296,0.012253110936039702,0.9838751801024544
2016-03-15,1,0.0019215886618668106,0.0023019324891572915,-0.005992680999936268,0.014603576737555395,0.9846409784468689
2016-03-17,1,0.0039379942540182485,0.004681204834080299,-0.005992680999936268,0.011778954072190602,0.9856114781978788
2016-03-21,1,0.0035542402706058543,0.0041978526220624104,-0.005992680999936268,0.01764823039082835,0.984250682093357
2016-03-23,1,0.002413227350065795,0.0028972730356235476,-0.0031328096084020447,0.01764823039082835,0.985987936822873
2016-03-28,1,0.0025636542237142813,0.0030750125733056493,-0.0035135341569174894,0.01764823039082835,0.9848793702120796
2016-03-30,1,0.004059430125644311,0.004846468806461516,-0.0035135341569174894,0.01764823039082835,0.9857235725553929
2016-04-01,1,0.0026869481539362732,0.0032194529712670397,-0.0009024114520884369,0.01764823039082835,0.9866705374882522
2016-04-05,1,0.002450020444119897,0.0029829853953892886,-0.0009024114520884369,0.018138395365110922,0.9859742108853374
2016-04-07,1,0.0035425385148128916,0.004172218881596657,-0.0009024114520884369,0.017423120892804737,0.9884206403447183
2016-04-11,1,0.003997397825689757,0.004654919084615517,-0.005279263577711443,0.01379915639476998,0.9881202844694857
2016-04-13,1,0.00504515594518035,0.005872542787528729,-0.005279263577711443,0.013962544719530838,0.9882926919149251
2016-04-15,1,0.0050197446143267245,0.005841982453336878,-0.012974630659778264,0.014152037508586466,0.9870539485400013
2016-04-19,1,0.006328150923341195,0.007334167203124738,-0.012974630659778264,0.014152037508586466,0.9866022518189297
2016-04-21,1,0.006909826571640698,0.008035437909435724,-0.015510697095188652,0.014152037508586466,0.9849382389082818
2016-04-25,1,0.006839994866943826,0.00797685088390467,-0.012974630659778264,0.01794063355704444,0.9856913920022237
2016-04-27,1,0.00724907376552218,0.00840327077861295,-0.012974630659778264,0.01794063355704444,0.9851361754247565
2016-04-29,1,0.008110293554591912,0.009097543123048685,-0.012974630659778264,0.01794063355704444,0.984733185728392
2016-05-03,1,0.006791078597980865,0.00751470201874194,-0.01017528251951111,0.01458876447166341,0.9864111567926575
2016-05-05,1,0.007066113686032187,0.00790599350383325,-0.00495527073537152,0.017323092389909686,0.9868637927475852
2016-05-09,1,0.005560797211933368,0.006141548452011869,-0.001075373634015562,0.020546921411575995,0.9861333208800046
2016-05-11,1,0.0057511256240398,0.0063431445277951125,-0.0019242179799691683,0.020546921411575995,0.9856278342095115
2016-05-13,1,0.0037945585745793034,0.003986214195507723,-0.002558902882456647,0.020546921411575995,0.9856581791421696
2016-05-17,1,0.0055538707178340255,0.006003423188939724,-0.0042440331618321765,0.014355569725994693,0.9866467660794012
2016-05-19,1,0.005171682027674242,0.0055618874317869315,-0.0033272807838323234,0.017613141154655364,0.9866282973821824
2016-05-23,1,0.005800284226243523,0.006285682630100241,-0.006725521093679176,0.017555936586711604,0.9861821493650984
2016-05-25,1,0.006105720917375385,0.006588709480480627,-0.006725521093679176,0.017555936586711604,0.9860776857009281
2016-05-27,1,0.005744766613060717,0.006242477683784927,-0.01131217298513735,0.017555936586711604,0.9817964941984315
2016-06-01,1,0.004795181855718586,0.005075715952004094,-0.009707522947679233,0.022581420539038048,0.9804993412909354
2016-06-03,1,0.004332233937933496,0.004473827430252944,-0.009707522947679233,0.022581420539038048,0.9807487406794175
2016-06-07,1,0.0057371936439906705,0.006000471998111488,-0.017290438176834812,0.016512466491185665,0.9810971518113623
2016-06-09,1,0.005580772123239699,0.005787302593333988,-0.009931620664314383,0.019540858495967896,0.980533641328697
2016-06-13,1,0.003113573928878165,0.003355584128079169,-0.008494453555315851,0.022581420539038048,0.9803658716732879
2016-06-15,1,0.0033497739520564314,0.0034207609043818534,-0.013614162834855151,0.022581420539038048,0.9794241620688545
2016-06-17,1,0.0021457268874171534,0.0024265748333498717,-0.008783742938239907,0.020821005293504828,0.9808441316796229
2016-06-21,1,0.0028226819841394102,0.00296772001646612,-0.014140452091459392,0.018379418370567002,0.9803907026011771
2016-06-23,1,0.003992253246227532,0.004042898883723026,-0.016013957936627257,0.013878239316766412,0.9802692620330082
2016-06-27,1,0.0014224922637673157,0.0016683953830307725,-0.014140452091459392,0.015887732803112842,0.9827520850076293
2016-06-29,1,0.0026602734561503665,0.002821213845503279,-0.014140452091459392,0.00831328494511075,0.9848486770739322
2016-07-01,1,0.002232445488270675,0.0025427565331686895,-0.016013957936627257,0.00831328494511075,0.9832340608631214
2016-07-06,0,-0.00015639588243993247,0.0004251013196128997,-0.014140452091459392,0.014067367936339533,0.9848289326609645
2016-07-08,1,0.001149313008965492,0.0015347221669490682,-0.014140452091459392,0.014067367936339533,0.9855024567333497
2016-07-12,1,0.0023234628839846564,0.002493826053675501,-0.014140452091459392,0.012755049589159368,0.986634929791605
2016-07-14,1,0.002567933639229976,0.0026422842351037827,-0.009128598864248614,0.008630249998606962,0.9873866967821053
2016-07-18,1,0.0016552329760885932,0.001865670750445456,-0.008948848587289646,0.012915748694815302,0.9872080646481153
2016-07-20,1,0.0006757104531151941,0.0009986131251033992,-0.005729375167346783,0.012915748694815302,0.9883017042703743
2016-07-22,1,0.0003201711385531882,0.0006847232521888875,-0.005263679484749668,0.014549465253307336,0.9875929624074994
2016-07-26,0,-4.8229781688201474e-05,0.0003047473102250892,-0.005263679484749668,0.012915748694815302,0.987805228699263
2016-07-28,1,0.00021047595996709681,0.0004793276590004511,-0.005263679484749668,0.012915748694815302,0.9874087880167602
2016-08-01,-1,-0.0008825028789697764,-0.0004290203754226884,-0.004859338635900963,0.01121385232584411,0.9896031862597583
2016-08-03,1,2.222409089559633e-05,0.0003355114411831763,-0.005729375167346783,0.008985103001277807,0.9891070297195514
2016-08-05,0,-0.00033722895567465916,6.212462793199567e-05,-0.005729375167346783,0.007583097234769071,0.9896444627744979
2016-08-09,1,6.0809814176084184e-05,0.00033788761693172363,-0.005729375167346783,0.007583097234769071,0.9898209758575125
2016-08-11,0,-0.00020133680298839907,0.0001159524877348614,-0.007639876490014154,0.00866184032681418,0.9874763174559499
2016-08-15,-1,-0.0008085109462734226,-0.0003456203336675947,-0.014412954902377883,0.00866184032681418,0.9863953368275391
2016-08-17,-1,-0.0006741110224937456,-0.00022838904354656074,-0.014412954902377883,0.00866184032681418,0.9863419410438098
2016-08-19,1,0.0008084361321286737,0.0010674267689550893,-0.015600754641079607,0.005182401892072446,0.9870625568632314
2016-08-23,-1,-0.001093863224682725,-0.0005771337358584487,-0.014412954902377883,0.006752037561268326,0.9871860532137957
2016-08-25,-1,-0.0022215633472679594,-0.001634908250661871,-0.015600754641079607,0.006752037561268326,0.9869885618799641
2016-08-29,-1,-0.0013606666047645637,-0.000944212904183911,-0.015600754641079607,0.006752037561268326,0.9864767134986437
2016-08-31,-1,-0.0023553925756370072,-0.0018508683060111893,-0.01054218592153076,0.01113547853878482,0.9841814998755268
2016-09-02,-1,-0.001746001447960485,-0.0013501699973298854,-0.01054218592153076,0.012426355911491724,0.9838520391851152
2016-09-07,-1,-0.0017204323388001097,-0.0013221488202691636,-0.01054218592153076,0.01342858310526255,0.9829350844810236
2016-09-09,-1,-0.0021256408975732837,-0.0017506789449101157,-0.007776071628019906,0.014623764474453784,0.9849933729063105
2016-09-13,-1,-0.0026526069370879585,-0.002227024737093744,-0.007776071628019906,0.01728745505757956,0.9851603740972001
2016-09-15,-1,-0.002307591403995674,-0.0019106677021677402,-0.007776071628019906,0.01728745505757956,0.9856472904124194
2016-09-19,-1,-0.0022405320411816986,-0.001888585484921625,-0.007776071628019906,0.01728745505757956,0.9861520415995731
2016-09-21,-1,-0.0010352622864129714,-0.0008332764620136094,-0.007776071628019906,0.017548019581258435,0.9851837983187264
2016-09-23,-1,-0.0021858676805280664,-0.0018136246146130122,-0.006649137722251696,0.017548019581258435,0.9854361182271064
2016-09-27,-1,-0.0023477315121461714,-0.001828275531306856,-0.006531991522746087,0.017548019581258435,0.9858662146928282
2016-09-29,0,-6.774280301319823e-05,0.0002346098619705237,-0.006531991522746087,0.014623764474453784,0.9896110029633134
2016-10-03,1,0.0005823618371711436,0.0007796154692958747,-0.007613940700791419,0.008700023367843129,0.9885475300915253
2016-10-05,1,0.0007252434570525167,0.0009324931135665815,-0.007358816446295945,0.005465256789312834,0.989524034158135
2016-10-07,1,0.0019646062491255074,0.001973696955388518,-0.007358816446295945,0.005465256789312834,0.9889375736522493
2016-10-11,1,0.0015452815835932776,0.0016262329014657742,-0.006609411309470621,0.005465256789312834,0.9893699600203066
2016-10-13,1,0.002195314218867766,0.002233443169553995,-0.006609411309470621,0.014327928671714793,0.9878586821258337
2016-10-17,1,0.0019272639547529605,0.0019701254526843267,-0.006609411309470621,0.014327928671714793,0.9879252142752871
2016-10-19,1,0.0039347039857706104,0.004245136725454129,-0.007494761462448194,0.007287993415843852,0.9873270995997092
2016-10-21,1,0.0032545355228061025,0.0034465561551303564,-0.007494761462448194,0.014266281040726535,0.9876637916979067
2016-10-25,1,0.0028624899925830567,0.0030281835567331477,-0.006553296252578686,0.014670761241310632,0.9876936650520365
2016-10-27,1,0.003638244716246467,0.0040699627745587885,-0.00691495088562964,0.014670761241310632,0.9875496964920282
2016-10-31,1,0.0025792530974284304,0.0028474288073794536,-0.00691495088562964,0.014670761241310632,0.9875850246981868
2016-11-02,1,0.0023705958500754142,0.0025328951201642187,-0.00691495088562964,0.015147036054613124,0.983365350646541
2016-11-04,1,0.0023597955188364257,0.002503225317645557,-0.00691495088562964,0.01638277452456275,0.9831620712687927
2016-11-08,1,0.00264852425904671,0.0028461050543545515,-0.00778919826859524,0.015147036054613124,0.9840257131830197
2016-11-10,1,0.00364432357938928,0.0039826669326365706,-0.00778919826859524,0.014962093161648352,0.9841146551136296
2016-11-14,1,0.0035704773519610288,0.003920178025525442,-0.005748124202069345,0.014962093161648352,0.9849325522899305
2016-11-16,1,0.002503994252283571,0.0025845269163442784,-0.005748124202069345,0.009295513419778235,0.9861342206238223
2016-11-18,1,0.003756253859388765,0.004117733321160317,-0.005748124202069345,0.005894006080466007,0.9864430000379958
2016-11-22,1,0.004284984667569602,0.0047449781644509715,-0.0073008244751752,0.005894006080466007,0.9855127544849221
2016-11-25,1,0.0033018000257505147,0.0035521796387526696,-0.005565664426726123,0.005894006080466007,0.9859261723548239
2016-11-29,1,0.002820235692740709,0.00306374379325636,-0.00498841874720319,0.005894006080466007,0.9872438494009947
2016-12-01,1,0.0072123527691204635,0.00807599909890503,-0.00498841874720319,0.005262179154617519,0.989387284224307
2016-12-05,1,0.00721226942225099,0.008053849944990015,-0.004841370693365813,0.005262179154617519,0.9892338918629606
2016-12-07,1,0.006649942058305739,0.007396400257918275,-0.004366247527965197,0.0061752235124260925,0.9905732659924654
2016-12-09,1,0.00634348870260153,0.00698373989909034,-0.005565664426726123,0.005444309465853532,0.9892807231282512
2016-12-13,1,0.0063171931579983735,0.006921791997245584,-0.005565664426726123,0.005355918298604214,0.988544598588848
2016-12-15,1,0.0051626588572024484,0.00558179006304475,-0.005565664426726123,0.00629557183351364,0.9897435469141455
2016-12-19,1,0.004632251136763363,0.0049486559787332626,-0.0054061006994627556,0.00629557183351364,0.9902835595228816
2016-12-21,1,0.00483040765437579,0.005133638709862372,-0.006194385209355655,0.00629557183351364,0.9896410501907289
2016-12-23,1,0.004801323363335788,0.005093774177959157,-0.006194385209355655,0.009894662550058721,0.9884354600446628
2016-12-28,1,0.0044520933958402745,0.0047191094786002506,-0.004040506882023707,0.01192312396587063,0.9889995305953794
2016-12-30,1,0.004174493212674275,0.0044153745954308606,-0.005446709307101338,0.01192312396587063,0.9878293956408764
2017-01-04,1,0.004822154320918736,0.005135379592393286,-0.007110939756582108,0.00929363451880786,0.9883180540158905
2017-01-06,1,0.004939822047015499,0.005267380472660364,-0.008965964735670264,0.00929363451880786,0.9877917006958573
2017-01-10,1,0.0038650754323667864,0.0040756830935443945,-0.0066285971736093465,0.010483551694496628,0.9886628888938136
2017-01-12,1,0.0045408266008985735,0.004894024607434488,-0.008788613024629195,0.010483551694496628,0.9878766677373914
2017-01-17,1,0.0036013181819989845,0.0037561572964024525,-0.0066285971736093465,0.010483551694496628,0.9889333750005532
2017-01-19,1,0.0033110493826892223,0.003396127114153713,-0.01068236045995825,0.010483551694496628,0.986736978252229
2017-01-23,1,0.0029722908447475643,0.0030138398922242584,-0.010039621994296335,0.006414940363399053,0.9884403025733454
2017-01-25,1,0.0036802307542359754,0.0037342043561325194,-0.011690469521574447,0.0035152988578005884,0.9892618376347361
2017-01-27,1,0.0038368478340567035,0.00390888898475939,-0.011690469521574447,0.0035152988578005884,0.9890148027344697
2017-01-31,1,0.0027552653918726626,0.002823205422111587,-0.010039621994296335,0.004953366860824139,0.9900419756249739
2017-02-02,1,0.0015833702517556083,0.0018580679980833101,-0.011690469521574447,0.004953366860824139,0.9897181585513327
2017-02-06,1,0.0008844822035376241,0.001278605181471158,-0.013835850506742775,0.004151500377911626,0.9895203880119526
2017-02-08,1,0.000388110404511797,0.0008236282642377184,-0.013835850506742775,0.0035152988578005884,0.989151847544518
2017-02-10,1,0.00028275288554601113,0.000746794411887659,-0.013835850506742775,0.00268374717912505,0.9906831320391398
2017-02-14,1,0.0007416106061236905,0.0010998660086562596,-0.014658937416347533,0.0024278205367260198,0.9880193111138404
2017-02-16,-1,-0.0010419269358074178,-0.0004311586814009804,-0.012643995368006769,0.0024278205367260198,0.9898504658557162
2017-02-21,-1,-0.0016560039329936997,-0.000945084632034303,-0.012643995368006769,0.000907261317732261,0.9901240706159393
2017-02-23,-1,-0.0005949603327316403,-0.00015544920413278402,-0.010264463637117404,9.825337985629932e-05,0.9901961995874463
2017-02-27,-1,-0.000502240186004892,-8.93472485232439e-05,-0.012815585513063789,-0.0004419384117087154,0.9888529614486942
2017-03-01,1,0.000395333305442624,0.0006824956075213234,-0.012815585513063789,-0.0004419384117087154,0.9881999425111299
2017-03-03,0,-0.00016746439372508637,0.00018135132634217004,-0.010264463637117404,-0.00034368503185241604,0.9889395357260806
2017-03-07,-1,-0.0007813529127896107,-0.00036597688967431,-0.008268141416545785,0.0020358369340232746,0.9896521315489495
2017-03-09,-1,-0.0017112482631386852,-0.0011976001549064718,-0.006121453622710648,0.005137019463971141,0.9909567979006733
2017-03-13,-1,-0.0022070711871318657,-0.0016063657484313566,-0.007128615461944992,0.005568523519201091,0.9904297995353456
2017-03-15,-1,-0.00034241662646424225,-5.633721377463314e-05,-0.007128615461944992,0.005137019463971141,0.992153145575529
2017-03-17,-1,-0.0013176960916063906,-0.0008918511861409526,-0.007128615461944992,0.005568523519201091,0.9915193915626163
2017-03-21,-1,-0.0021251299047803608,-0.0015764207318770252,-0.007128615461944992,0.005568523519201091,0.9907685074341265
2017-03-23,-1,-0.0026865325402721614,-0.002059750435129379,-0.010331496156189304,0.005570639753175205,0.990087076237674
2017-03-27,-1,-0.004043629021037809,-0.003202301857686836,-0.007283500330279832,0.0057909025186562236,0.9910136153129928
2017-03-29,-1,-0.003267019321318853,-0.002508462195020057,-0.010167897739213075,0.005555148095773995,0.9923025535750625
2017-03-31,-1,-0.003314416999699516,-0.002556407619800215,-0.01154414597366192,0.005555148095773995,0.9922547484571772
2017-04-04,-1,-0.0031058721613082406,-0.0023912228294612546,-0.01154414597366192,0.005555148095773995,0.9924138086227969
2017-04-06,-1,-0.0021264935224787136,-0.0015744786282805077,-0.012719464165290484,0.0019707484812944345,0.9912528648030742
2017-04-10,-1,-0.0027741727879630317,-0.0021161233145401167,-0.012719464165290484,-0.0002783947405368717,0.9917985727801442
2017-04-12,-1,-0.0032457369296719552,-0.0025490421380039126,-0.01154414597366192,0.0008919314903473129,0.9915606121664762
2017-04-17,-1,-0.0034338997801240155,-0.0027256223119939004,-0.01053031477814902,0.0008919314903473129,0.9910180819157488
2017-04-19,-1,-0.004234681725881105,-0.003446749974332227,-0.010277767248840386,0.005555148095773995,0.9915201422525445
2017-04-21,-1,-0.004708689822123293,-0.003848862271849449,-0.009621465261524811,0.005782861454410065,0.9905826039085289
2017-04-25,-1,-0.005367749717292557,-0.004391985050347127,-0.010277767248840386,0.006900596858327371,0.9899960611604917
2017-04-27,-1,-0.0024980838915631574,-0.002076925439546457,-0.010277767248840386,0.006900596858327371,0.9878856165283493
2017-05-01,-1,-0.002799035680331634,-0.002378935837375818,-0.010277767248840386,0.00832732680239631,0.9873016207316626
2017-05-03,-1,-0.003276667046256409,-0.002791100874145032,-0.009630470963446712,0.00832732680239631,0.9871169709618474
2017-05-05,-1,-0.0024158129766746693,-0.0020566332356779164,-0.00780780436656975,0.006905908406503287,0.9886783685456536
2017-05-09,-1,-0.00245008334914868,-0.0021056221830855343,-0.009630470963446712,0.00832732680239631,0.9866013705415598
2017-05-11,-1,-0.002406140005223705,-0.0020410229212327333,-0.009630470963446712,0.00832732680239631,0.9865876009796453
2017-05-15,-1,-0.0015974829566499263,-0.0013250892822135821,-0.006912243344830319,0.00832732680239631,0.9874477927708849
2017-05-17,-1,-0.0012756652260884857,-0.0010837858243763045,-0.01345108957528927,0.00832732680239631,0.9864652589295858
2017-05-19,-1,-0.0001078870228225521,-5.427464093655035e-05,-0.01345108957528927,0.006905908406503287,0.987587110807555
2017-05-23,-1,-0.0003340168503563369,-0.00023304910158394567,-0.014180229460347638,0.004892411270521608,0.9868437094888516
2017-05-25,-1,-0.002120813992932237,-0.001806754067756595,-0.013055120129911512,0.004892411270521608,0.9887608459488163
2017-05-30,-1,-0.0011660611485259543,-0.001017656982479279,-0.010400775793005877,0.00443755899364701,0.9891849178898087
2017-06-01,-1,-0.0005247908203993333,-0.0004779460388263469,-0.010400775793005877,0.006054366071858766,0.9884011726948722
2017-06-05,-1,-0.0013681856333507005,-0.0011629493334164576,-0.010400775793005877,0.010209158172878409,0.9871719315273928
2017-06-07,-1,-0.0017712385064679577,-0.0015369564017193858,-0.013904999545922461,0.007567209304755399,0.9878597767224337
2017-06-09,-1,-0.0014072262152065211,-0.0012342805365129852,-0.013904999545922461,0.007567209304755399,0.9879795356206514
2017-06-13,-1,-0.0002372518377067288,-0.00020483903549825945,-0.013904999545922461,0.0074311864996188205,0.9883468478769064
2017-06-15,-1,-0.0019689671962593164,-0.001767180031349545,-0.008247371187625665,0.009889941286549402,0.9884898316722496
2017-06-19,-1,-0.000465629450951175,-0.0003714718758687484,-0.008247371187625665,0.009889941286549402,0.9889165244480539
2017-06-21,-1,-0.0011854175200336943,-0.0011435071990123654,-0.004718830941348383,0.01060024860287391,0.9887572215884639
2017-06-23,-1,-0.00213728179294525,-0.0020145318607009757,-0.004718830941348383,0.01060024860287391,0.986426563922845
2017-06-27,-1,-0.002059386506513523,-0.0019526980593914248,-0.004718830941348383,0.011899641124858851,0.985737685943444
2017-06-29,-1,-0.0009674713155780184,-0.0009382448071935848,-0.005409888013424783,0.010941990465871826,0.9866883551730549
2017-07-03,1,0.00040451235475248313,0.000603699363308435,-0.007137196519817493,0.009481872871139666,0.9876138456680279
2017-07-06,-1,-0.0005570434071068186,-0.0004366398951718727,-0.005409888013424783,0.009637355172821922,0.9881754804262127
2017-07-10,1,0.00046897544238908614,0.000751270271823785,-0.006835478730000388,0.009267314023232005,0.9883923448550034
2017-07-12,1,0.00043302319723959905,0.0006170929174367867,-0.010453045410665433,0.007108358305562765,0.9880303089113227
2017-07-14,1,0.0018155431675590985,0.0021781167959259396,-0.012286851465867686,0.0012353341221973092,0.9873824098455263
2017-07-18,1,0.0014106036856080337,0.0017089518031314828,-0.012286851465867686,0.0012353341221973092,0.987239890789074
2017-07-20,1,0.0027799760165435794,0.0032659778659409906,-0.013650771514299252,-0.0006548048836323053,0.9871765436062658
2017-07-24,1,0.0011827236170378016,0.0015244177998725362,-0.011584408149108409,0.0012353341221973092,0.9907056547620459
2017-07-26,1,0.0018333837339091878,0.0022283382272535353,-0.011584408149108409,-0.0006548048836323053,0.9905331736493306
2017-07-28,1,0.0013198814804811611,0.0016087819538643904,-0.011584408149108409,0.0015946322900222815,0.9908545560747444
2017-08-01,1,0.00032744558538311285,0.00044447650855120995,-0.010623484890229533,0.0007041502962549831,0.9915010482512207
2017-08-03,1,0.0002939622186215076,0.0003986411998724785,-0.009298417659126139,0.0007041502962549831,0.9924756893026152
2017-08-07,1,0.0003635486272517067,0.0005300942119690169,-0.007064002906693829,0.005837843113707842,0.9919166575821784
2017-08-09,-1,-0.00011871839752425502,-3.2839477394969695e-05,-0.006214771195704846,0.00742502793605776,0.9910765149008702
2017-08-11,-1,-0.0016653379892687626,-0.0015418898424129147,-0.0058988244202751155,0.007755023351033549,0.9912560778260066
2017-08-15,-1,-0.0021288266555463025,-0.0019412388030076665,-0.005683488019607892,0.008721763628842295,0.9900485757130025
2017-08-17,-1,-0.0037837451610072356,-0.003369669290172933,-0.0018697097313466872,0.00921084811555673,0.9892726482693847
2017-08-21,-1,-0.0027407307021965473,-0.0025267606093138184,-0.0017983294561776189,0.00921084811555673,0.9896049275818461
2017-08-23,-1,-0.0021394339825726383,-0.0020060180307327723,-0.0017983294561776189,0.010090140864372172,0.9894867939940692
2017-08-25,-1,-0.0016081915710080916,-0.0015564212912312831,-0.0014176122273079819,0.013692248244999518,0.988778722720019
2017-08-29,-1,-0.0013512517880364108,-0.0013428568055473729,0.0020318406511819387,0.016056612507760554,0.9880023752315941
2017-08-31,-1,-0.0009146965875672275,-0.0008495572690327041,0.004043428908894446,0.016056612507760554,0.9881511275971406
2017-09-05,-1,-0.0001536593745977137,-3.3661291408049643e-06,0.0020318406511819387,0.013692248244999518,0.9887476654555787
2017-09-07,1,0.001367241642427314,0.0016986925756551825,-0.0013371099267458016,0.010729543599521602,0.9909118613180029
2017-09-11,1,0.00030504191216771705,0.0004341899117304791,-0.0013371099267458016,0.010729543599521602,0.9914262428479025
2017-09-13,1,0.0014495008351767494,0.0017351645824107344,-0.0013371099267458016,0.009304069054883955,0.9927487592449185
2017-09-15,1,0.0019179091598714197,0.00226232243345566,-0.002239274456961173,0.007980979301772715,0.9923239631882994
2017-09-19,1,0.00184171234378767,0.0022146578097602893,-0.0030763713240864565,0.0066590261653239075,0.9922278401591844
2017-09-21,1,0.002435229187548704,0.0028243459117538693,-0.007654457657806795,0.005504698910129443,0.9918386560290763
2017-09-25,1,0.0033409345204787055,0.0038113369821881774,-0.008712917872079262,0.004107736635986625,0.9909816503158494
2017-09-27,1,0.004059991480218672,0.004676349789378681,-0.011441383747359651,0.0026748261132613586,0.990350192782768
2017-09-29,1,0.004183880184225958,0.004787411619260192,-0.011441383747359651,0.0021880325276513305,0.9886487840830142
2017-10-03,1,0.003510761701032074,0.0040556013657030605,-0.007654457657806795,0.0026748261132613586,0.9899045144352913
2017-10-05,1,0.00408899316339276,0.004766132061473223,-0.008087893468376055,0.0026748261132613586,0.9891749927103308
2017-10-09,1,0.004114867754312411,0.004773879396892045,-0.008087893468376055,0.008104713523947097,0.987559027044429
2017-10-11,1,0.005368483646192003,0.0062711530864907016,-0.008087893468376055,0.00497429935816626,0.9869737814899765
2017-10-13,1,0.00461440150668136,0.005407034624710689,-0.008087893468376055,0.00497429935816626,0.9875880751127166
2017-10-17,1,0.0035218259425332304,0.004057100404207049,-0.008660126486625272,0.00497429935816626,0.9865471979390696
2017-10-19,1,0.0022015882063404065,0.00255960764141705,-0.008660126486625272,0.00497429935816626,0.9865370551308382
2017-10-23,1,0.0012355187381702386,0.0014855225416714013,-0.00831540633631434,0.00651097730752979,0.9877448408117487
2017-10-25,1,0.0005757715601937112,0.0007284451228148957,-0.00831540633631434,0.006549773019654129,0.9881686726962955
2017-10-27,1,0.0011611279526278781,0.001349905347422995,-0.008660126486625272,0.006276534571921906,0.9889615607305642
2017-10-31,1,0.0017101006728594142,0.0020030817680144397,-0.008660126486625272,0.006276534571921906,0.9892949554094916
2017-11-02,1,0.0022432067874568213,0.0026702091896418064,-0.008613149159024117,0.006442974895946811,0.988188232911952
2017-11-06,1,0.0037271779096288704,0.0042500673297375295,-0.008613149159024117,0.006276534571921906,0.989118082185548
2017-11-08,1,0.0036693370233045006,0.004169260225837348,-0.008613149159024117,0.006276534571921906,0.9889044212207859
2017-11-10,1,0.0022345421835208486,0.002457365443897532,-0.006517833682185902,0.008024997838708659,0.98844120496083
2017-11-14,1,0.00016371088553679278,0.00023818458797967795,-0.005778467238928448,0.008024997838708659,0.9896397070759241
2017-11-16,-1,-0.0012743286309873773,-0.001028542663935652,-0.005778467238928448,0.008024997838708659,0.9905123760181965
2017-11-20,-1,-0.0006781226182887951,-0.0005497088111695661,-0.005778467238928448,0.011765494343680995,0.9896616379443535
2017-11-22,-1,-2.4602974113710463e-05,-3.4103676060716776e-06,-0.0023455618496926135,0.01668092970495179,0.9881389725925461
2017-11-27,-1,-0.0013261609093629563,-0.0010986112381136293,-0.0017434529117932827,0.016691406081536533,0.9875908516630711
2017-11-29,-1,-0.0007287851389553168,-0.0005827497071449327,-0.0037713878355450812,0.016691406081536533,0.9878754865931212
2017-12-01,1,0.0014007627494897186,0.0015381560886885354,-0.0037713878355450812,0.0158196040816684,0.9896880350998193
