JNU-Tangyin/eata/results/Batch4_SP500/Batch4_SP500-ALB.csv
Date,Action,Predicted_Q25,Predicted_Q75,Actual_Q25,Actual_Q75,RL_Reward
2010-12-14,0,0.0,0.00235379149913614,-0.006262961504910885,0.008730917236037066,0.9913456511197607
2010-12-16,0,0.0,0.0,-0.006249547397108728,0.009172134900171934,0.9900401076586949
2010-12-20,0,0.0,0.0,-0.006249547397108728,0.009107266383847033,0.9878299855135091
2010-12-22,0,0.0,0.0,-0.006249547397108728,0.009107266383847033,0.9881239072189202
2010-12-27,0,0.0,0.0,-0.006304907696341296,0.009107266383847033,0.9876190749825352
2010-12-29,1,0.0023836572155879307,0.002735791754524507,-0.006304907696341296,0.00841609311429449,0.987306204568351
2010-12-31,1,0.0021743697994669325,0.00248454555222692,-0.0064182558253577,0.011167655371270737,0.9864970541688376
2011-01-04,0,0.0,0.0,-0.006304907696341296,0.013429372841475265,0.9857583849469088
2011-01-06,0,0.0,0.0,-0.004593354133147584,0.013429372841475265,0.9858363334394847
2011-01-10,0,0.0,0.0,-0.006378013501951229,0.013429372841475265,0.9858174899074177
2011-01-12,0,0.0,0.0,-0.006378013501951229,0.006912466475456121,0.9887801690225229
2011-01-14,0,0.0,0.0,-0.006219039949114081,0.004834100733569344,0.9899013417082119
2011-01-19,0,0.0,0.0,-0.004540362948868534,0.004834100733569344,0.9925197565495439
2011-01-21,1,6.109118961200046e-05,0.0004476231642813078,-0.002698374485197613,0.005244861713944088,0.993135432798405
2011-01-25,1,0.0002984993427862054,0.0005701230199328182,-0.004540362948868534,0.005244861713944088,0.9914966131111169
2011-01-27,0,-2.5051201436509726e-05,0.00023365381242100233,-0.0063100471216776055,0.0063954857946018845,0.9900668003287818
2011-01-31,-1,-0.0007221804984209683,-0.00032924493250424637,-0.0063100471216776055,0.005627409122082186,0.9903925161961579
2011-02-02,-1,-0.0011453650470917478,-0.0006390277056590515,-0.0063100471216776055,0.005627409122082186,0.9895697763562209
2011-02-04,-1,-0.0006134890060418066,-0.00020906872186612934,-0.007023330798961591,0.005207943252951451,0.988707122814934
2011-02-08,-1,-0.000989972521971536,-0.0005690113918265063,-0.0065056041387703,0.005207943252951451,0.9887944828175191
2011-02-10,-1,-0.0008472180896404934,-0.0004902813593831907,-0.008380053424484361,0.005207943252951451,0.9876965940347119
2011-02-14,-1,-0.0016182871400754865,-0.0011763559453871959,-0.014685379724954864,0.006284730411623975,0.9857476647639121
2011-02-16,-1,-0.0005719558973953541,-0.0002687522664461162,-0.0224894844526768,0.006284730411623975,0.9845318407507605
2011-02-18,0,-0.00013825330324783078,8.790806383338827e-05,-0.0224894844526768,0.007724606542833539,0.9836005265264759
2011-02-23,-1,-0.0011663273090143835,-0.0008788819319229888,-0.014685379724954864,0.009366734497998587,0.9851361700185549
2011-02-25,-1,-0.0013183739490795292,-0.0010001230210763302,-0.010054027455155282,0.012281957536400096,0.9853611709833354
2011-03-01,-1,-0.0016100802279726037,-0.0012709606785600365,-0.005844914716390769,0.012622657546230053,0.9854390792234943
2011-03-03,-1,-0.0006289035598928592,-0.00039157999880253794,-0.004962229240660497,0.012622657546230053,0.9867757473598474
2011-03-07,-1,-0.001817277019167229,-0.001451176108692448,-0.004583472121633574,0.012622657546230053,0.987151260961934
2011-03-09,-1,-0.001850565375875481,-0.0014838656838029197,-0.0008523905860918241,0.012622657546230053,0.9868874550352891
2011-03-11,-1,-0.0025122844097944137,-0.0020599788882227563,-0.0022003890846321993,0.012622657546230053,0.9879370976580809
2011-03-15,-1,-0.0032638216246254725,-0.0027361704265807477,-0.002866429052071306,0.011780525322454945,0.9884588606837859
2011-03-17,-1,-0.00406637429576716,-0.003455814771092251,-0.0022003890846321993,0.009731353439857532,0.9898370869145908
2011-03-21,-1,-0.0024505040565173733,-0.002064049768908619,-0.002866429052071306,0.008106533876558752,0.9910991504821673
2011-03-23,-1,-0.0025159667006518747,-0.0020804853753043804,-0.0022003890846321993,0.011780525322454945,0.9857827390455404
2011-03-25,-1,-0.0015650111870979637,-0.0012473548008689066,-0.0022003890846321993,0.009844920109800852,0.9839572579522805
2011-03-29,-1,-0.0002546333982270941,-9.862642801648997e-05,-0.005115077566879126,0.006974221971609469,0.984350178057162
2011-03-31,1,0.000864004519808486,0.0009020393214254155,-0.005115077566879126,0.008076229823190373,0.9836615226470957
2011-04-04,1,0.0003344090462798696,0.0003896840982319346,-0.010045893526490556,0.008076229823190373,0.9825751239040422
2011-04-06,1,0.0007982684930718943,0.0008239685877203847,-0.015151246602447647,0.010935919237936421,0.9799641851558474
2011-04-08,1,0.00014166928804853265,0.00023914093488041905,-0.015151246602447647,0.015586977493688203,0.9794353959711667
2011-04-12,-1,-0.0015954906670537943,-0.0012724496458521744,-0.010045893526490556,0.018596262084636946,0.978857324926003
2011-04-14,-1,-0.0006279948682689708,-0.00048268251811374165,-0.0136477547793337,0.018596262084636946,0.9779829719031768
2011-04-18,-1,-0.0016365159382993127,-0.0013419853639148618,-0.010904426149262228,0.018596262084636946,0.9787078062456553
2011-04-20,1,0.0014316596978357248,0.0015434046887966622,-0.010904426149262228,0.01819308231506713,0.9823253100286046
2011-04-25,1,0.0037481804155215484,0.004171054811312283,-0.0136477547793337,0.01080152598141315,0.9836405899361429
2011-04-27,1,0.0032233490548548385,0.00359331386426786,-0.010904426149262228,0.014907174325460584,0.9842601887699851
2011-04-29,1,0.004284399499939744,0.004796405566739171,-0.010904426149262228,0.014907174325460584,0.9847471226312874
2011-05-03,1,0.002640877496885313,0.0028959401968363468,-0.010904426149262228,0.014907174325460584,0.984864958869427
2011-05-05,1,0.0033233350731885986,0.003700109457116467,-0.0102419689338142,0.011492731542461337,0.9865824526310931
2011-05-09,1,0.0036038493767260767,0.004018970681549463,-0.011178029113603914,0.006086596412752904,0.985933366747109
2011-05-11,1,0.0036257955686386924,0.0040406982618393155,-0.0102419689338142,0.006086596412752904,0.9867564736741323
2011-05-13,1,0.002653305006498139,0.002929889529587712,-0.009329422491942806,0.006086596412752904,0.9869780965847659
2011-05-17,1,0.002463919231356781,0.0027236799010672084,-0.009542909453662655,0.011492731542461337,0.9866844687074798
2011-05-19,1,0.002978677361878897,0.0033005213172315243,-0.010594119096407114,0.006086596412752904,0.987409045283392
2011-05-23,1,0.0022339101104200945,0.002458591227167142,-0.009542909453662655,0.014830749298465392,0.9871160867455531
2011-05-25,1,0.00277870002852141,0.0030462565870501943,-0.009542909453662655,0.007269521182691761,0.9872603472109829
2011-05-27,1,0.003223360124151898,0.003531344980542478,-0.010594119096407114,0.0030774222039159395,0.9870114082858127
2011-06-01,1,0.0016778579559247506,0.0017489868425107006,-0.009542909453662655,0.015703633413276907,0.9879050866704143
2011-06-03,1,0.0016001667744836153,0.001686021750636548,-0.009005201677111729,0.01745217263456703,0.9877864053887038
2011-06-07,1,0.0017962395958997994,0.0020286090542229974,-0.007727966708774779,0.01745217263456703,0.9885460222842197
2011-06-09,1,0.0025023706425170264,0.0028570814411039733,-0.006300900120253048,0.015703633413276907,0.9895280697092657
2011-06-13,1,0.000462627060752266,0.00047739583292398047,-0.006061291565519273,0.015703633413276907,0.9894782615437498
2011-06-15,1,0.0007019145490729027,0.0007340429858791568,-0.006061291565519273,0.011229807049047085,0.9901655183639517
2011-06-17,1,1.6459959245325613e-05,9.371627505105751e-05,-0.006061291565519273,0.011229807049047085,0.990238137036403
2011-06-21,1,0.0014930186287759315,0.001582950199864345,-0.006675120736090635,0.006220410282626499,0.9905685050630959
2011-06-23,1,0.0011765541077177687,0.0012181151453338156,-0.008486444084303204,0.011864847702151727,0.9878298598219399
2011-06-27,1,0.0008918134881343756,0.0009187064199448304,-0.006675120736090635,0.017721601729115105,0.9869687305073984
2011-06-29,1,0.0018715628884869234,0.0020330422884706455,-0.007684934611680218,0.006220410282626499,0.98772646366874
2011-07-01,1,0.0025336921730839917,0.002754921078405703,-0.008747373551522334,0.002345305500910085,0.9877600544641084
2011-07-06,1,0.002008860427845857,0.002144876772381992,-0.011158629851643988,0.0026272414812513853,0.9858377226572554
2011-07-08,1,0.002077970971452017,0.0022199437876997906,-0.014265117881934585,3.0281731828882817e-05,0.9803638757548916
2011-07-12,1,0.0003998474977529065,0.0004713098185022152,-0.014265117881934585,0.0026272414812513853,0.9741621300133699
2011-07-14,1,0.0005135797117355269,0.0005822200796972353,-0.02556186473493719,0.008067308251662767,0.9681402486277867
2011-07-18,-1,-0.00020923082233675937,-4.328329614678816e-05,-0.02556186473493719,0.022303485604397395,0.9670550159127524
2011-07-20,1,0.00018688683454369076,0.00032658938574214104,-0.04498714311782798,0.02045775826230399,0.9641386886251446
2011-07-22,-1,-0.0010922907292778491,-0.0007815510062974837,-0.052355301935023864,0.006692920902536546,0.9612260094371532
2011-07-26,1,0.0004236790477718034,0.0004928246361361457,-0.052355301935023864,0.006692920902536546,0.9599148685043136
2011-07-28,-1,-0.0010461511288646693,-0.0007419353948876984,-0.052355301935023864,0.02045775826230399,0.9588678694874042
2011-08-01,-1,-0.0014237126691015254,-0.0010689742825553518,-0.052355301935023864,0.03025070194513627,0.955352923484967
2011-08-03,-1,-0.003212349544851594,-0.0026112985467035606,-0.046680101412342266,0.03025070194513627,0.9572252074910935
2011-08-05,-1,-0.007639585468680876,-0.006493455717081164,-0.043603514128134256,0.03025070194513627,0.9602544414790382
2011-08-09,-1,-0.007507192427592364,-0.006349269365870061,-0.027933221219482114,0.03025070194513627,0.9657379901486546
2011-08-11,-1,-0.006006868257277873,-0.005084870928218788,-0.02708371625020866,0.024542273459773008,0.9695858584416922
2011-08-15,-1,-0.005240171172486749,-0.0044159874877017224,-0.028821978394749828,0.022819212272060272,0.9696803198504574
2011-08-17,-1,-0.008479961309856513,-0.0073118684778429605,-0.02337043598060623,0.022819212272060272,0.9724143211313742
2011-08-19,-1,-0.013387506838827275,-0.011695009908763293,-0.018517916587238104,0.022819212272060272,0.9785134514537713
2011-08-23,-1,-0.01158254563264631,-0.010137869967079344,-0.02085814499341979,0.016032657274694093,0.9792562887365769
2011-08-25,0,0.0,0.0,-0.02337043598060623,0.015237130811370729,0.9742595118503302
2011-08-29,-1,-0.005396041279770419,-0.00468932740684189,-0.02337043598060623,0.015237130811370729,0.9764606568975501
2011-08-31,-1,-0.004939310261517475,-0.004294429629791609,-0.02764351667541309,0.018199726537834207,0.9724134293894762
2011-09-02,0,0.0,0.0,-0.03465872668358985,0.018199726537834207,0.9703273352899426
2011-09-07,0,0.0,0.0,-0.03465872668358985,0.02354751953052351,0.9688392698305107
2011-09-09,0,0.0,0.0,-0.027638291798799938,0.02354751953052351,0.9707583963997648
2011-09-13,0,0.0,0.0,-0.022891443271836866,0.032464398829419004,0.9699572702791898
2011-09-15,-1,-0.0068573452699472615,-0.004224113965552971,-0.022891443271836866,0.032464398829419004,0.9712023491876995
2011-09-19,0,0.0,0.0,-0.02717048119792695,0.032464398829419004,0.9685241174735947
2011-09-21,-1,-0.00720767718720257,-0.0065453709619258,-0.02717048119792695,0.032464398829419004,0.9632937105980277
2011-09-23,-1,-0.0143878937892847,-0.012952225074191274,-0.005220446899845742,0.032464398829419004,0.9622514370602339
2011-09-27,0,0.0,0.0,-0.005220446899845742,0.032464398829419004,0.9672054845972313
2011-09-29,-1,-0.0057925199404745015,-0.005290562942237046,0.003253537969450014,0.03707829643987463,0.9650942507022063
2011-10-03,-1,-0.013648253370759242,-0.012419048792815144,0.003253537969450014,0.03707829643987463,0.962155070082089
2011-10-05,-1,-0.009296506055482007,-0.008542912605671202,0.0003604719112845616,0.03546713514379721,0.9658635525667373
2011-10-07,-1,-0.008053757088185938,-0.007430098612683303,-0.0010017551299583702,0.03546713514379721,0.9661970779961269
2011-10-11,-1,-0.0036578294224942124,-0.003625871643288093,-0.001549650734032055,0.03282776248371795,0.9711311069106041
2011-10-13,-1,-0.002565099438954569,-0.0025115921280420162,-0.007933384561519454,0.03282776248371795,0.970538171070549
2011-10-17,-1,-0.0016400792963371584,-0.0013827660951097596,-0.004318209061592915,0.03282776248371795,0.9716304670314109
2011-10-19,-1,-0.002916464333710349,-0.002748273022432957,-0.004704521982708423,0.029609338545673505,0.97583149281271
2011-10-21,0,0.0,0.0,-0.012259062476839645,0.029609338545673505,0.9765361541899307
2011-10-25,1,0.002455052142311008,0.003238736387837346,-0.015150258551131762,0.015343929000778099,0.9793319122349933
2011-10-27,1,0.005838170577720726,0.0070320504378962225,-0.022136364605779082,0.004396101104313472,0.9790764843546146
2011-10-31,1,0.004657092399306947,0.005724424987499048,-0.015150258551131762,0.00888126201493846,0.9797548953003475
2011-11-02,1,0.004098545617627961,0.005038173128492035,-0.015150258551131762,0.00888126201493846,0.9786326229074201
2011-11-04,1,0.005638012024788579,0.006809232249908646,-0.015150258551131762,0.008051602429511875,0.9788609384875785
2011-11-08,1,0.00560125128704812,0.006738483208135315,-0.015150258551131762,0.009461655768009202,0.9785995314049507
2011-11-10,1,0.005280064569678961,0.0065034433208401785,-0.015150258551131762,0.008051602429511875,0.9797050722834125
2011-11-14,1,0.0059144541174583724,0.007202766661001234,-0.01851461548240763,0.005634739922506742,0.9781396437650977
2011-11-16,0,0.0,0.0,-0.021037145732024202,0.008051602429511875,0.9782820390063406
2011-11-18,1,0.0028947734201331416,0.0036568999715765054,-0.021037145732024202,0.010374558842582001,0.9763887795725118
2011-11-22,1,0.00281828044523921,0.0036232141210390287,-0.021037145732024202,0.01560938946356743,0.9756870005908216
2011-11-25,1,0.0020126649996685736,0.0027153573053466467,-0.010909528345667033,0.01644008730960294,0.9769157983048703
2011-11-29,1,0.003956389247478174,0.00493494863272891,-0.020575525662729924,0.01560938946356743,0.9778760079572778
2011-12-01,1,0.00571046328313108,0.0068832816361745095,-0.012596390844004289,0.01560938946356743,0.9817859821221866
2011-12-05,1,0.005795517936134965,0.006964959427597428,-0.012596390844004289,0.01644008730960294,0.9811575058872702
2011-12-07,1,0.006237651940487053,0.007457621621343483,-0.012596390844004289,0.016418659386641103,0.9812333143158329
2011-12-09,1,0.005785499110719813,0.006969637020768598,-0.005509000824351844,0.020072109279983746,0.9816820236173188
2011-12-13,1,0.004335685176650986,0.005305096371619791,-0.0010743291502509163,0.024341213178282296,0.9827700295659292
2011-12-15,1,0.003946827483218769,0.004905801317793764,-0.0010743291502509163,0.024341213178282296,0.9847220696006214
2011-12-19,1,0.0035340507167234436,0.004424115487312878,0.00010424476068891407,0.024341213178282296,0.9860769488088293
2011-12-21,0,0.0,0.0,0.00010424476068891407,0.021224615567026685,0.9858769130661881
2011-12-23,0,0.0,0.0,-0.0010743291502509163,0.024341213178282296,0.9846386586039585
2011-12-28,0,0.0,0.0,0.00010424476068891407,0.024341213178282296,0.9853106127051569
2011-12-30,0,0.0,0.0,0.0009344959604937147,0.021224615567026685,0.9857951936238922
2012-01-04,0,0.0,0.0,-0.0010743291502509163,0.022054419851501632,0.98554232650089
2012-01-06,0,0.0,0.0,0.0018287635289688875,0.022054419851501632,0.9843701455877815
2012-01-10,0,0.0,0.0,-0.003778003907255675,0.02017651685148409,0.9853588643674861
2012-01-12,0,0.0,0.0,-0.00783880121631008,0.01625882129141336,0.9863710515532903
2012-01-17,0,0.0,0.0,-0.00783880121631008,0.01625882129141336,0.9860842340032612
2012-01-19,1,0.004351654346071009,0.00512007876527922,-0.008429123645845806,0.014269629603088212,0.9872785720994649
2012-01-23,1,0.006087981859952492,0.006922112636703889,-0.008429123645845806,0.014269629603088212,0.9867771298770436
2012-01-25,1,0.006500686076016028,0.007342736989625656,-0.007839964939576335,0.013971285684815841,0.9891328720810755
2012-01-27,1,0.0056761370568574835,0.006300057117657713,-0.007839964939576335,0.011992330774111784,0.9889580297216449
2012-01-31,1,0.006355932383725433,0.007098820236434182,-0.007839964939576335,0.008544727234622343,0.9884192197948705
2012-02-02,1,0.005606128957676145,0.006137793663869842,-0.007839964939576335,0.008544727234622343,0.9886049196394211
2012-02-06,1,0.00595137290883394,0.006505493829141361,-0.010030723638452622,0.006015584138939503,0.9841565348617392
2012-02-08,1,0.005823287924104906,0.006385560906175062,-0.009570981001022966,0.011992330774111784,0.9837221805938926
2012-02-10,1,0.004531364687954828,0.004875235337379124,-0.007839964939576335,0.011992330774111784,0.9848755344614549
2012-02-14,1,0.0032848080518938154,0.0033706892061328877,-0.006880136046506709,0.012130184506048382,0.9857762824519695
2012-02-16,1,0.002415247610863208,0.0025374300880962003,-0.005220744233757174,0.010932203967800225,0.9868370094411713
2012-02-21,1,0.002928279379473225,0.002966192856442675,-0.004966539423438005,0.010932203967800225,0.9869317060901691
2012-02-23,1,0.0023141199235139076,0.002430765268533721,-0.00584601322457706,0.010932203967800225,0.986551092972793
2012-02-27,0,0.0,0.0,-0.007189292746819582,0.011722805665848424,0.9857103034761623
2012-02-29,0,0.0,0.0,-0.012292152845493096,0.011722805665848424,0.9846943989495353
2012-03-02,0,0.0,0.0,-0.007189292746819582,0.008992628490430862,0.9862496484445042
2012-03-06,0,0.0,0.0,-0.004966539423438005,0.011722805665848424,0.9891610149589372
2012-03-08,0,0.0,0.0,-0.01022172559484763,0.0051437902465838875,0.9904124690258094
2012-03-12,1,0.0003953264835398902,0.0005388208517573349,-0.011740474783841378,0.0051437902465838875,0.9894524369361251
2012-03-14,0,-0.00028004968243509475,3.6408538256617155e-05,-0.011740474783841378,0.008992628490430862,0.9885375411129582
2012-03-16,0,0.0,0.0,-0.01201331490239947,0.008303098121605687,0.9880186886779146
2012-03-20,0,0.0,0.0,-0.01201331490239947,0.011154858681251182,0.9868627118455718
2012-03-22,-1,-6.882154913505513e-05,-5.636139785460137e-05,-0.01201331490239947,0.013282275977817979,0.9852600022803242
2012-03-26,1,0.0015635017621067014,0.0016442018060320355,-0.014175042516363284,0.011154858681251182,0.9855832938869139
2012-03-28,1,0.0009266548004020782,0.0009439982662210882,-0.01249439849076953,0.013282275977817979,0.9854769741533943
2012-03-30,0,0.0,0.0,-0.013750639834098745,0.017072835288087618,0.9844438907612167
2012-04-03,1,0.0015274486226393722,0.0016158083770515857,-0.013750639834098745,0.01309883344120783,0.9854468254162082
2012-04-05,1,0.0003296722262219705,0.0004497262593902029,-0.014466381514180449,0.01309883344120783,0.9847488631724777
2012-04-10,-1,-0.0003258798807666564,-0.00014234888532368387,-0.014422534707594522,0.01309883344120783,0.9848582088552194
2012-04-12,1,0.00023338873723644882,0.0003835351186754421,-0.014422534707594522,0.011802587304621668,0.9860532117600331
2012-04-16,0,0.0,0.0,-0.015608049141216279,0.011802587304621668,0.9849751879004678
2012-04-18,0,0.0,0.0,-0.015608049141216279,0.012452079519117105,0.9849511147319207
2012-04-20,-1,-0.0010712040631921536,-0.0006745594891779689,-0.015608049141216279,0.009898911075720173,0.9848643605492029
2012-04-24,-1,-0.0013663027331114858,-0.0009852070284263469,-0.014422534707594522,0.012452079519117105,0.9827754184364306
2012-04-26,1,0.0002432251455176034,0.00038635313572355173,-0.014422534707594522,0.009898911075720173,0.9834549219168571
2012-04-30,1,0.00010662101012860433,0.0002677634795582904,-0.012393888742612678,0.012452079519117105,0.9824554660417756
2012-05-02,1,0.0006953238159364358,0.0007573334965391538,-0.01869605309672807,0.010559312079047704,0.9807060258865266
2012-05-04,-1,-0.0010823411164472038,-0.0007713682192079096,-0.020264491429520328,0.010559312079047704,0.9791874704112277
2012-05-08,-1,-0.0022901844721760606,-0.0017478743339208725,-0.017094177837502656,0.015526036416623637,0.9774218563512761
2012-05-10,-1,-0.0032322741355662408,-0.0025294622707106524,-0.017094177837502656,0.015526036416623637,0.9773992141533533
2012-05-14,-1,-0.005003606156265462,-0.004043339560627855,-0.017094177837502656,0.016043767991167537,0.9763788906949058
2012-05-16,-1,-0.003581828836459451,-0.0028534396362602642,-0.0332144434401649,0.016043767991167537,0.9768176969133532
2012-05-18,-1,-0.004729070212953077,-0.003902143440669298,-0.010314768354279427,0.017924381546509015,0.9764002689205152
2012-05-22,-1,-0.005400906642813862,-0.004448477809486944,-0.001689498073828973,0.017924381546509015,0.9780129652210829
2012-05-24,-1,-0.004232830074132311,-0.0034586575242521126,-0.012145011532437083,0.017924381546509015,0.9777303200790901
2012-05-29,-1,-0.002317962110648893,-0.0018045248900779895,-0.021486568539493316,0.017546872954183324,0.9794714384676443
2012-05-31,-1,-0.004001111141098966,-0.003277763888136123,-0.013661809947841035,0.017546872954183324,0.9805881369836045
2012-06-04,-1,-0.005077563945578508,-0.004278699426335299,-0.007015817229442664,0.017924381546509015,0.9812628594087918
2012-06-06,-1,-0.00277538253980367,-0.0023052225081590257,-0.007076913529067547,0.017546872954183324,0.9832719257842989
2012-06-08,-1,-0.0028102558251326556,-0.0023178986503722097,-0.013661809947841035,0.017546872954183324,0.9823870935784347
2012-06-12,-1,-0.002454009997483153,-0.0020740513506728726,-0.013661809947841035,0.014394640192686539,0.9833840426839016
2012-06-14,-1,-0.0034079062198947166,-0.0029175359279070895,-0.012595034238393617,0.018983896867979206,0.9833310061831916
2012-06-18,-1,-0.0013840665504257226,-0.0011830072219376074,-0.012595034238393617,0.010252713246790768,0.9848117371409837
2012-06-20,-1,-0.0004685691733090394,-0.00040032577747094113,-0.01450482925248557,0.010252713246790768,0.9827841743937229
2012-06-22,-1,-0.0014735572987717286,-0.0013178525538367738,-0.012595034238393617,0.010252713246790768,0.9848255852915598
2012-06-26,-1,-0.0011950558265333595,-0.0010955680598433684,-0.012595034238393617,0.006408330683606229,0.9843764686391518
2012-06-28,-1,-0.0007179622878270203,-0.0007113250789767111,-0.01138504341570357,0.02296576197740828,0.9822727908620806
2012-07-02,1,8.184978476906077e-05,0.00016869799717815232,-0.01138504341570357,0.009679545999097611,0.9839586718829835
2012-07-05,1,0.00029762024876947514,0.0003841184441211815,-0.015359930723092975,0.00265807454290156,0.9840797319650901
2012-07-09,-1,-0.0005095467256608736,-0.0004927090230486277,-0.01138504341570357,0.013008821533356515,0.9837174009339555
2012-07-11,0,0.0,0.0,-0.008729812680365474,0.01978749154239924,0.9844663213903123
2012-07-13,0,0.0,0.0,-0.008015071390686095,0.013336111813341994,0.9856765377641177
2012-07-17,-1,-0.0010885491440140093,-0.001041718955752754,-0.008015071390686095,0.013336111813341994,0.9854998037750939
2012-07-19,0,0.0,0.0,-0.006861388742177165,0.010298504805859728,0.9881573325398125
2012-07-23,-1,-0.0011137609300219701,-0.0010853549996741574,-0.0012342557631022438,0.010298504805859728,0.9882122129009734
2012-07-25,-1,-0.0020116340544121475,-0.0018706370024773825,-0.0038531678304554538,0.010298504805859728,0.9873193164543487
2012-07-27,-1,-0.0019135937283920993,-0.0016437432267755528,-0.008633648085195478,0.005844689748724357,0.9890959128259387
2012-07-31,0,0.0,0.0,-0.014577463676810743,0.005844689748724357,0.9876715270493616
2012-08-02,0,0.0,0.0,-0.011307823154181041,0.005844689748724357,0.9886146118062451
2012-08-06,0,-1.2137086256607904e-05,4.944579567261063e-05,-0.012478119039542055,0.004244190516429557,0.9899823992776214
2012-08-08,1,0.0006520498386415676,0.0008153635725299353,-0.012478119039542055,0.004244190516429557,0.9893837709752491
2012-08-10,1,0.0009837308870830623,0.0011829724318369048,-0.012478119039542055,0.004244190516429557,0.9887434793175318
2012-08-14,1,0.0006161410280774233,0.0007521297586605505,-0.014577463676810743,0.004244190516429557,0.9875078224499625
2012-08-16,1,0.0012444747491136394,0.001492280254468703,-0.01642686967204607,0.0023109918488440325,0.9863861832638213
2012-08-20,1,0.0009471072677741054,0.0011225250515002466,-0.01642686967204607,0.0013594048084491794,0.9854854186741946
2012-08-22,-1,-0.0003432769106032698,-0.0003165456123699348,-0.01435994206413959,0.004405370469598085,0.9864727312691725
2012-08-24,-1,-0.000904434708271508,-0.0008769999162986785,-0.013106422908764327,0.004405370469598085,0.9872474707215123
2012-08-28,-1,-0.0022584862736938116,-0.002043687185494328,-0.012085877462800834,0.004405370469598085,0.9879778817144078
2012-08-30,-1,-0.002727906590480963,-0.0024208447076149698,-0.012085877462800834,0.006466208518496067,0.987243212774707
2012-09-04,-1,-0.002077444042547931,-0.0019090887830511914,-0.009162962340510587,0.00618604243697048,0.9875554923333448
2012-09-06,0,0.0,0.0,-0.009162962340510587,0.00618604243697048,0.9883114376938079
2012-09-10,0,0.0,0.0,-0.013031488542118465,0.00618604243697048,0.9882541519998466
2012-09-12,0,0.0,0.0,-0.014135138964202007,0.00618604243697048,0.988478212743901
2012-09-14,0,0.0,0.0,-0.013031488542118465,0.006632487006748358,0.9891648500772415
2012-09-18,0,0.0,0.0,-0.008357754934594194,0.009879835210185081,0.9885944578244321
2012-09-20,0,0.0,0.0,-0.006518737702097434,0.009879835210185081,0.9889584152735796
2012-09-24,0,0.0,0.0,-0.006336147273684726,0.011861987322837187,0.9885152581221713
2012-09-26,0,0.0,0.0,-0.007143743274662,0.011861987322837187,0.98870539251927
2012-09-28,-1,-0.0022615421820059035,-0.0021657760279377544,-0.007143743274662,0.009879835210185081,0.9889101289095924
2012-10-02,0,0.0,0.0,-0.007143743274662,0.011861987322837187,0.9881624117498589
2012-10-04,0,0.0,0.0,-0.008148098790455869,0.010526799003989312,0.9878682213213305
2012-10-08,0,0.0,0.0,-0.008148098790455869,0.009667847441771679,0.9876227345517024
2012-10-10,-1,-0.002623697610222245,-0.0023408472797256516,-0.007143743274662,0.009667847441771679,0.9879835468434298
2012-10-12,-1,-0.002278352549528687,-0.002042459896266727,-0.007143743274662,0.011576694211933167,0.9872483817618128
2012-10-16,-1,-0.0006314265616675442,-0.0006236718985845671,-0.008148098790455869,0.009927653673710964,0.9878457335216874
2012-10-18,1,0.0011341439817162398,0.0014529743230093524,-0.008148098790455869,0.009927653673710964,0.9876680694729596
2012-10-22,1,0.0007906611558425254,0.0009854382821460005,-0.008148098790455869,0.005639362766761754,0.9886343214049015
2012-10-24,-1,-0.0008198647671674511,-0.000726208792280202,-0.004873144815198311,0.009927653673710964,0.9884663672650846
2012-10-26,1,0.0003679734984083729,0.0005066454507940959,-0.004873144815198311,0.011886641266926404,0.9874971595281193
2012-11-01,0,0.0,0.0,-0.005432802268370001,0.011875319294116043,0.9879141194558302
2012-11-05,0,0.0,0.0,-0.005432802268370001,0.011488161732251097,0.9880073257412658
2012-11-07,-1,-0.00010524501200201399,-8.785975306514419e-05,-0.004873144815198311,0.011488161732251097,0.9892797453831603
2012-11-09,1,3.6054710872343945e-05,0.00015809582124997316,-0.00021723686246524906,0.011488161732251097,0.990062556105086
2012-11-13,1,0.0010144289044828015,0.0012859439784895102,-0.001847875110781477,0.007844044253258431,0.9910260204869887
2012-11-15,-1,-0.00033155601066755267,-0.00031377097614847536,-0.00021723686246524906,0.007844044253258431,0.991791685719807
2012-11-19,1,0.0010109963850431017,0.0012068315475504562,-0.00021723686246524906,0.01054748470160354,0.9924024640841631
2012-11-21,1,0.0006128015544496554,0.000739197820591493,3.6232945669273766e-05,0.01054748470160354,0.9921998545607218
2012-11-26,1,0.001831357085626534,0.00219006152592466,-0.00025166124556978654,0.007844044253258431,0.9930598669285486
2012-11-28,1,0.0032074033897437747,0.003771551581195765,-0.0025649738770391443,0.0038864230725587194,0.9935606920363822
2012-11-30,1,0.002643244616519446,0.0030818286542753735,-0.0025649738770391443,0.0038864230725587194,0.9932380118550451
2012-12-04,1,0.0016419764441029036,0.0018832170730247336,-0.0025649738770391443,0.0056489989263393365,0.9922277788035552
2012-12-06,1,0.001949230677175438,0.0022565130967144263,-0.0025649738770391443,0.010029739578047531,0.9917323397144207
2012-12-10,1,0.0022060060961867395,0.0025194350103710933,-0.0047200531648765465,0.0070515585472711575,0.9910176771754289
2012-12-12,1,0.0021693956172008227,0.0025210604389083904,-0.003387086021547857,0.0070515585472711575,0.9912273028161882
2012-12-14,1,0.0017752976830666366,0.0020274533993379657,-0.003387086021547857,0.010673131532302663,0.9907461017367383
2012-12-18,1,0.0025681447180120978,0.0028577632162377713,-0.0047200531648765465,0.007969234293218136,0.9917003830739733
2012-12-20,1,0.0033530990859763268,0.0038569032978121084,-0.006346911137253115,0.007969234293218136,0.9909121686439923
2012-12-24,1,0.003146280879904051,0.0036044780941168796,-0.006780646528441216,0.007969234293218136,0.9892348389174513
2012-12-27,1,0.0027145754716888792,0.003068915092312341,-0.006780646528441216,0.010124607780217976,0.9891525727122159
2012-12-31,1,0.003677205873586546,0.004230050150429157,-0.006780646528441216,0.007969234293218136,0.9900863333581356
2013-01-03,1,0.004461090734556068,0.005148744130381421,-0.008414550340154672,0.007200511502750442,0.9909195164640647
2013-01-07,1,0.0053004450747057945,0.0061271572748087515,-0.008414550340154672,0.007200511502750442,0.9904091229216746
2013-01-09,0,0.0,0.0,-0.007322591165022785,0.007200511502750442,0.9912233116790701
2013-01-11,0,0.0,0.0,-0.007322591165022785,0.007969234293218136,0.9904753100247259
2013-01-15,0,0.0,0.0,-0.007322591165022785,0.00789756196993153,0.9885957520438451
2013-01-17,0,0.0,0.0,-0.00821029242292567,0.005758048329287974,0.9889011505020803
2013-01-22,0,0.0,0.0,-0.00821029242292567,0.006609175596717355,0.9879640570099134
2013-01-24,0,0.0,0.0,-0.004704284039069519,0.00810162950825029,0.98944070610461
2013-01-28,0,0.0,0.0,-0.00821029242292567,0.007196342018645094,0.9887057529871685
2013-01-30,0,0.0,0.0,-0.004704284039069519,0.008160793379220857,0.9881249206442487
2013-02-01,1,0.0012700136041446704,0.0013797891799124415,-0.008162922575324014,0.008160793379220857,0.9881900157775237
2013-02-05,1,0.0014987373043898714,0.001656792006254155,-0.008162922575324014,0.008833188686831323,0.9879668894614178
2013-02-07,1,0.00014978974484349352,0.00024953774182568983,-0.007595920210269809,0.014383283287966637,0.98730516513364
2013-02-11,1,0.0007532771620720836,0.0007736049380836611,-0.008683485032370288,0.008833188686831323,0.9875192307985994
2013-02-13,1,0.001981273218858582,0.0020869947236174316,-0.008683485032370288,0.007673062826326324,0.9895776893292841
2013-02-15,1,0.0016708190648738424,0.001743651721173296,-0.011200860964612803,0.007673062826326324,0.9878500373597257
2013-02-20,1,0.0002919218174543247,0.0004073533688554694,-0.008683485032370288,0.007673062826326324,0.9892955597579596
2013-02-22,1,0.0005659577007417765,0.000688308152775072,-0.011200860964612803,0.0038558606257699853,0.9890510583492058
2013-02-26,1,0.00032398890047695243,0.0004478198774182682,-0.008683485032370288,0.004536496022106936,0.9900532751245227
2013-02-28,1,0.0004764630944005513,0.0005828176102021757,-0.008683485032370288,0.004536496022106936,0.9903488526941172
2013-03-04,-1,-0.00017759209185305843,-6.722899495326064e-06,-0.006898501254869221,0.004536496022106936,0.9905631336158204
2013-03-06,0,-3.9171693577283884e-05,0.00013052239165575405,-0.009006847414297952,0.004536496022106936,0.9900197194205771
2013-03-08,0,-2.1225193998687707e-05,0.000195569202369195,-0.009006847414297952,0.007330974033602106,0.9905228717982713
2013-03-12,-1,-0.0008603703388161705,-0.0005425851363599962,-0.007956760200492357,0.007330974033602106,0.9905955007699481
2013-03-14,1,0.0004178525279976948,0.0005219687005923082,-0.012815099516548828,0.005575858490434836,0.9898602703319347
2013-03-18,-1,-0.0004977900921130208,-0.0003302972294404127,-0.00859023546587382,0.007756077919468591,0.9890845537509498
2013-03-20,-1,-0.000813073197663544,-0.0006109187473900758,-0.016580049044730528,0.007756077919468591,0.9865216093691489
2013-03-22,-1,-0.0022093971136514083,-0.00178493969457362,-0.015315674212469172,0.010918019868976572,0.9863153060084304
2013-03-26,-1,-0.0014985785149033476,-0.0011702643065551604,-0.015315674212469172,0.00804794860852091,0.9868549482125902
2013-03-28,-1,-0.0005230654694035763,-0.0003555998392634421,-0.015315674212469172,0.005575858490434836,0.9869214380889315
2013-04-02,-1,-0.0014116857370735248,-0.0011349931131865417,-0.00899262345360332,0.010721096618413254,0.9859102754812418
2013-04-04,-1,-0.0020513026406071746,-0.0016508956520297326,-0.009592772353379273,0.010721096618413254,0.9849713723055076
2013-04-08,-1,-0.00209288011499832,-0.001648567078180319,-0.009592772353379273,0.01094366777547625,0.9845460555703583
2013-04-10,-1,-0.0015754457205759465,-0.0012272894402019672,-0.009592772353379273,0.01414497073421649,0.9833159044863808
2013-04-12,-1,-0.003225700203297025,-0.0026408761259435554,-0.0036601170094080386,0.01414497073421649,0.9830132370645961
2013-04-16,-1,-0.0017099498255932117,-0.0013672566373171403,-0.0025903517110155753,0.012991127874536148,0.9859079626557893
2013-04-18,-1,-0.004098347317901028,-0.00347075973266299,0.0011453495628722167,0.014173398102026308,0.9861225769713151
2013-04-22,-1,-0.002958526147834783,-0.0024938972650849238,-0.0021519371583021644,0.014173398102026308,0.986736922533865
2013-04-24,-1,-0.0023653071473178928,-0.002019265534652877,-0.0025903517110155753,0.014173398102026308,0.9864328363872324
2013-04-26,-1,-0.002405872569725058,-0.002053661145652739,-0.0025269050921073997,0.014173398102026308,0.9867405949374741
2013-04-30,-1,-0.0011810477908457922,-0.0009730502004541038,-0.002615588450278972,0.014173398102026308,0.9880564873985884
2013-05-02,-1,-0.0017205246801925318,-0.0014452844616137323,-0.002615588450278972,0.015252996575870923,0.9876849887149586
2013-05-06,-1,-0.000817075376788804,-0.0006604435074692836,-0.003063863707117822,0.014173398102026308,0.9883666370872256
2013-05-08,-1,-9.910719272374904e-05,-7.141829231493372e-06,-0.006766538810167516,0.01270971886147175,0.9889387984465747
2013-05-10,1,0.00011562306969382745,0.00018134023212735282,-0.008208636861149927,0.01048968113394093,0.9889728198957857
2013-05-14,1,0.0009630332154957953,0.0010773629711636867,-0.011582015318389368,0.007350016360988834,0.988373372664986
2013-05-16,1,0.0013227516037252916,0.0014871232004726282,-0.011582015318389368,0.004369381358002478,0.9877775756894241
2013-05-20,1,0.0012383292379845585,0.0013859778069215322,-0.01008204709071573,0.006147893520608639,0.9886765328352206
2013-05-22,1,0.000950278556209749,0.0010489551861493256,-0.011614493561333232,0.003302461117008061,0.9881056487372141
2013-05-24,1,0.0012951345249488672,0.001449901108797255,-0.012775186336136963,0.002525194041603219,0.987338017375365
2013-05-29,1,0.0018707400525067338,0.002140311520402053,-0.012775186336136963,0.00561912398624173,0.9873191772572939
2013-05-31,1,0.0016167153568644457,0.0018871388048971624,-0.010780595976043911,0.002525194041603219,0.9895124928304952
2013-06-04,1,0.001231037802338256,0.0014312664304225544,-0.01008204709071573,0.00561912398624173,0.9900356911996896
2013-06-06,1,0.0006137241110457751,0.0007299103682265074,-0.009409685429660938,0.008150310238055597,0.9905787306491314
2013-06-10,1,0.0005302340780064611,0.0006606152325535243,-0.007803045224944903,0.011145354987881925,0.9900731789040502
2013-06-12,-1,-0.00012902734282576342,-8.555114394451636e-05,-0.005033210396963426,0.011145354987881925,0.9908130939897758
2013-06-14,1,0.00033977883894798736,0.00042308972083660105,-0.0045514251053265405,0.008753841523453381,0.9919745181494444
2013-06-18,1,0.00016415453745993958,0.00017849435373092497,-0.0045514251053265405,0.0074347532012568485,0.9926324561605128
2013-06-20,-1,-0.00034042561600886197,-0.0002996507947016011,-0.0041216632008931,0.0074347532012568485,0.9923884274547953
2013-06-24,-1,-0.0009580549002402306,-0.0008224537359317422,-0.0032595552600189035,0.0074347532012568485,0.9927001636606465
2013-06-26,-1,-0.0004915563034050513,-0.00039978663716308565,-0.0032595552600189035,0.002076284987602889,0.9937426175998758
2013-06-28,-1,-0.0007311215201707962,-0.0006176460619944204,-0.0032595552600189035,0.0020423635981338894,0.9935940061444456
2013-07-02,-1,-0.00044341204304221293,-0.0003463637553077857,-0.0032595552600189035,0.002101917049517834,0.9939722378974606
2013-07-05,1,0.00028161310183183127,0.0003009323069251053,-0.0030290118851901207,0.002101917049517834,0.9943702245935454
2013-07-09,1,0.0014542709265874206,0.0017280072355687073,-0.002592358731100391,0.002101917049517834,0.9946108366774569
2013-07-11,1,0.0011875257721774874,0.0014017748372146628,-0.002592358731100391,0.0015685216779119638,0.995099151790947
2013-07-15,1,0.0006705209912979008,0.0007657397288728332,-0.002592358731100391,0.002101917049517834,0.9950497468337703
2013-07-17,1,0.0010652589756170933,0.001255808541820019,-0.003058918016097976,0.002101917049517834,0.9945209326435415
2013-07-19,1,0.0001871754041126826,0.00022171887981640095,-0.003058918016097976,0.002101917049517834,0.9957899453434275
2013-07-23,1,0.0003721842040779523,0.00046850574176544494,-0.002597879510005217,0.0017290788747475585,0.9960947870170972
2013-07-25,-1,-0.00012765708145881876,-0.00012007235976550204,-0.002950190617559662,0.002101917049517834,0.9955936474651886
2013-07-29,-1,-7.602276859029099e-05,-4.744409705863549e-05,-0.002178276748966322,0.0023771753993039363,0.9959721502211465
2013-07-31,1,0.00017321154885697863,0.00025948367109309935,-0.002950190617559662,0.0020020949540072576,0.995903424810404
2013-08-02,1,0.00018972884907322073,0.0002478546221904728,-0.004398069471810963,0.0020020949540072576,0.9957576010187801
2013-08-06,1,0.0008441400143765778,0.001018328529220931,-0.004398069471810963,0.001726965568094031,0.9962128329959961
2013-08-08,1,3.727713359327305e-05,4.261209191245448e-05,-0.005316513846344895,0.001726965568094031,0.9959845100035005
2013-08-12,1,8.674676483984661e-05,9.781020019856889e-05,-0.005316513846344895,0.002367472073553749,0.9948839424231305
2013-08-14,-1,-0.0006336586800247872,-0.0005099265503175714,-0.005655793718500371,0.002367472073553749,0.9946128869881709
2013-08-16,-1,-0.0004246970627858547,-0.00034097968529713294,-0.005310838987141627,0.003233970061695781,0.9946502036302622
2013-08-20,-1,-0.00027468554157664474,-0.00023334697178666036,-0.005310838987141627,0.003233970061695781,0.9945761503544771
2013-08-22,-1,-0.0005402197133979706,-0.0004248550051418616,-0.005310838987141627,0.003233970061695781,0.9948553943770171
2013-08-26,-1,-0.000559610132907812,-0.00044567972389374837,-0.005655793718500371,0.0024085819039561013,0.9946230546318041
2013-08-28,-1,-0.0003456234886070054,-0.00028278705108505736,-0.005655793718500371,0.0034863481395523968,0.9941062626279054
2013-08-30,-1,-0.0004929921492473341,-0.0004162322638512954,-0.004263273331151201,0.0029995766894549717,0.9943388555189174
2013-09-04,-1,-0.000982266290504825,-0.0008077214048063681,-0.003778457749897105,0.004209475488083067,0.9940316046242776
2013-09-06,-1,-0.0008852591669653762,-0.0007511567811239147,-0.0029449500058784522,0.005577098446310926,0.9936076218047678
2013-09-10,-1,-0.0009850712860484132,-0.0007333627427389404,-0.005744044788024847,0.0034213415447612683,0.9945123206453932
2013-09-12,-1,-0.0010744676476504662,-0.0008495532914889153,-0.003545962341573764,0.005577098446310926,0.9943409368235245
2013-09-16,-1,-0.0009877779144505938,-0.0007534702052862352,-0.003850253329586007,0.005723245058184962,0.9941921335100381
2013-09-18,-1,-0.0012690759907619817,-0.0010116082996751842,-0.003850253329586007,0.005723245058184962,0.9938841135009566
2013-09-20,-1,-0.0007059559770133311,-0.0005775749228553001,-0.003302979217304637,0.008160587379964791,0.9920137301097587
2013-09-24,-1,-0.0013492885971018883,-0.0011090785693876942,-0.003302979217304637,0.008160587379964791,0.9917673363738171
2013-09-26,-1,-0.0007672684138580223,-0.0006321671057318758,-0.0030463803352158664,0.006301887313492148,0.9921419424899854
2013-09-30,-1,-9.836168467213278e-05,-8.850031449376589e-05,-0.003850253329586007,0.006301887313492148,0.9921864966193747
2013-10-02,1,0.0003443418729120596,0.00040391755288244626,-0.005209534195336495,0.004427336363108405,0.9922562181557268
2013-10-04,1,0.0008191335495430585,0.000957592929818638,-0.005209534195336495,0.004427336363108405,0.9924033725518107
2013-10-08,1,0.0004215624181503185,0.0005365068896530485,-0.004273596830620089,0.005878024777158992,0.9928576888193268
2013-10-10,1,0.0007356748794613655,0.0008886846460856325,-0.004878353909171675,0.005842774924487888,0.9930104784351189
2013-10-14,1,0.0007984644772242361,0.0009576613534406908,-0.004878353909171675,0.005842774924487888,0.9929930693106793
2013-10-16,1,0.0010305203565639858,0.0012345617315252988,-0.004878353909171675,0.005842774924487888,0.9930291927354993
2013-10-18,1,0.0025128066896629546,0.0029401940759480206,-0.004878353909171675,0.0037973948285479307,0.9952385462339534
2013-10-22,1,0.002254179392202602,0.002622908232561673,-0.004202396483651733,0.003011484871790212,0.9954639232283666
2013-10-24,1,0.0021905334033301416,0.0025294759334464354,-0.004202396483651733,0.003356520465087894,0.9949371249804387
2013-10-28,1,0.0015551951260815993,0.0017759303398803099,-0.0022678831969270546,0.0037665935077821665,0.9955500269919589
2013-10-30,1,0.0009583557665105185,0.0010771206631459101,-0.0012006468012937337,0.005842774924487888,0.9951948187361617
2013-11-01,1,0.0008803946679855134,0.0009430579659140304,-0.0022756791000623565,0.0037665935077821665,0.9953139716917627
2013-11-05,1,0.001023400933202264,0.0011376229628330759,-0.004225784193057639,0.0027335597055427475,0.9951695049911246
2013-11-07,1,0.0011308753881344442,0.0012873720364784172,-0.0022756791000623565,0.003705052888908588,0.9947964073959714
2013-11-11,1,0.0011172050818805037,0.0012216118289501729,-0.0022756791000623565,0.0027335597055427475,0.9951892912826851
2013-11-13,1,0.0009313656816781777,0.0009846888819147232,-0.00446605426982113,0.0027335597055427475,0.9938976779835689
2013-11-15,1,0.0011988020041772207,0.0013180887308013502,-0.00446605426982113,0.003705052888908588,0.9936983813494923
2013-11-19,1,0.0008692172760456479,0.0009307342921527009,-0.0055970815168681866,0.0056397538108266835,0.9899798041542138
2013-11-21,1,0.001342586709435022,0.0014858613442577618,-0.007858035979930846,0.0056397538108266835,0.9897327083009168
2013-11-25,1,0.0016301639644218067,0.0018240857446348555,-0.009108456454626879,0.0056397538108266835,0.9888279185531949
2013-11-27,1,0.0019773363050191372,0.0022428911669993296,-0.009108456454626879,0.0056397538108266835,0.9894041212803794
2013-12-02,1,0.0018907473393512285,0.0021480801705636788,-0.009108456454626879,0.0056397538108266835,0.9894106448488585
2013-12-04,1,0.0013703592446439828,0.0015468101550690002,-0.005814069158981621,0.0056397538108266835,0.9899364030858102
2013-12-06,1,0.0020421504059134525,0.0023096150134944964,-0.005814069158981621,0.0038451328855222924,0.9904561981925882
2013-12-10,1,0.0016103795324521877,0.0017746907954507684,-0.005814069158981621,0.00693176298923524,0.9890946068930234
2013-12-12,1,0.0007231449712929213,0.0007640738076048992,-0.004137879211670215,0.007971343588021639,0.9892660157801954
2013-12-16,1,0.0007831254268660192,0.0008202513187971308,-0.004137879211670215,0.01012731233892157,0.9889220729732746
2013-12-18,-1,-0.0013278647279910357,-0.0010960135002100082,-0.004925955355239807,0.007971343588021639,0.9920500407479536
2013-12-20,-1,-0.0014412397489947278,-0.0011990257122485577,-0.004137879211670215,0.007616569642522282,0.9925574901680909
2013-12-24,-1,-0.0017622941960110119,-0.0014910698344674117,-0.004925955355239807,0.007616569642522282,0.9914411690444003
2013-12-27,-1,-0.0011213054031737582,-0.0009434056098326254,-0.0055515838047233475,0.005020373249441022,0.991801489997995
2013-12-31,-1,-0.001211077945621377,-0.0010220991023879014,-0.00571439432878111,0.007616569642522282,0.9900649244338788
2014-01-03,-1,-0.0011498518652631453,-0.0009760701771267451,-0.007520588786094489,0.007616569642522282,0.9886254338336057
2014-01-07,-1,-0.0012377905511655653,-0.0010402311127810462,-0.007520588786094489,0.005882135286362204,0.9887622311976073
2014-01-09,-1,-0.00034182906301832264,-0.00023252636746949932,-0.007520588786094489,0.004935941555629092,0.9897738920107987
2014-01-13,-1,-0.00036207051296747837,-0.0002528485448792319,-0.006302041365202461,0.004906064024461433,0.9903020437168207
2014-01-15,1,7.072757416769389e-05,0.00013336868358804967,-0.006302041365202461,0.005398353850948286,0.9905141994331241
2014-01-17,-1,-0.00030798773585045394,-0.00020551720400038636,-0.007520588786094489,0.005859575031347091,0.9900912561761603
2014-01-22,-1,-0.00028384394558557163,-0.0001714096275221167,-0.007520588786094489,0.005859575031347091,0.9902724915509449
2014-01-24,-1,-0.0019132746054475337,-0.001606119160572387,-0.006302041365202461,0.005859575031347091,0.9917014460863813
2014-01-28,-1,-0.002138615194149877,-0.0017990268927081813,-0.0025237328449002772,0.006403793730841954,0.9906259602259241
2014-01-30,-1,-0.001364281677886209,-0.0011106737095375682,-0.0010880237331513376,0.0062437028184663705,0.992563023456604
2014-02-03,-1,-0.0019234768301473791,-0.0016600923842888993,-0.0005124476049431002,0.0062437028184663705,0.9934658089971696
2014-02-05,-1,-0.002047692289977301,-0.0017461772645630032,-0.0002714007877633416,0.006411936311390114,0.9932060683952113
2014-02-07,-1,-0.001515070496942307,-0.0012829762467558119,-0.0010880237331513376,0.006154070224963393,0.9940567271641566
2014-02-11,-1,-0.0013284437926513368,-0.0011100618959873853,-0.004470869388824496,0.005892166756030804,0.9941823133254489
2014-02-13,-1,-0.0008880963191344979,-0.0007232743959177182,-0.00812117069422702,0.004985570052671801,0.9938536033733393
2014-02-18,-1,-0.0013330279874452016,-0.0011013732116513604,-0.0069102505733099635,0.006281749907191965,0.9937133379080523
2014-02-20,-1,-0.0013129106798551288,-0.0010896803684474223,-0.0073490132643304765,0.006281749907191965,0.9934104472936388
2014-02-24,-1,-0.0016310364853645474,-0.0013707718656602247,-0.0066643730300838915,0.006501649835922418,0.9931220290114637
2014-02-26,-1,-0.0004814080972107075,-0.00037198628233160535,-0.007216318156668192,0.006281749907191965,0.9938107592976543
2014-02-28,-1,-9.816891710741165e-05,-5.519039036456696e-05,-0.007216318156668192,0.006447335222807408,0.9934994175599992
2014-03-04,-1,-0.000573785310801926,-0.0004401289229609161,-0.007216318156668192,0.007050432011402062,0.9929224623299834
2014-03-06,-1,-0.00016909701926248966,-9.369780301464873e-05,-0.007216318156668192,0.0067744644229200705,0.992877075304224
2014-03-10,-1,-0.0004989573273824056,-0.0003853132259413323,-0.007688560571021836,0.0067744644229200705,0.9920654390550334
2014-03-12,-1,-0.0009136091889568218,-0.0007593477263352724,-0.007216318156668192,0.007363481798167949,0.9918949157874318
2014-03-14,-1,-0.0006923373292814874,-0.0006421219379434957,-0.004884911687673294,0.007363481798167949,0.9920807597234542
2014-03-18,-1,-6.026402284191368e-05,-3.807772406870024e-05,-0.004884911687673294,0.007363481798167949,0.9924997408516039
2014-03-20,-1,-0.00025241818492135223,-0.00024090795984337796,-0.003820231620930461,0.008438985694945673,0.9921516042651897
2014-03-24,-1,-0.0002022385238901145,-0.00019893687042449185,-0.0023812106524421844,0.008085523576455693,0.9919903481284211
2014-03-26,-1,-0.0004843847003835565,-0.00043455632842842856,-0.003608353233656037,0.008085523576455693,0.992000521740312
2014-03-28,1,0.0001047209584508541,0.00014314665184835868,-0.00558181077361433,0.007857724517873609,0.9918648201193084
2014-04-01,1,0.000675851871685035,0.000785182243082345,-0.00558181077361433,0.007857724517873609,0.992256912736574
2014-04-03,1,0.0007106742065824331,0.0008202172175596379,-0.00558181077361433,0.0081852319973739,0.9919950144887042
2014-04-07,1,0.0001402054154304251,0.0001955614185980837,-0.003608353233656037,0.0081852319973739,0.9925710387181339
2014-04-09,1,0.0006757946385806534,0.0008048986385694094,-0.004312284504237591,0.007857724517873609,0.9930747055280389
2014-04-11,1,0.00023633892743618078,0.0003137673984293591,-0.0005142123735040153,0.0081852319973739,0.9930096121967058
2014-04-15,1,0.0005726446496277303,0.0006873439574752576,-0.0036172516548329116,0.007857724517873609,0.9933916245445938
2014-04-17,1,0.001306631732166769,0.0015429706670067643,-0.004338979767768215,0.007125822496670169,0.9933064958973344
2014-04-22,1,0.0017557856605143253,0.0020565030286512184,-0.00492334108122033,0.005675295187973401,0.9935513435880244
2014-04-24,1,0.001487335803130264,0.0017730683052849345,-0.004338979767768215,0.00679378875216809,0.9939230515195853
2014-04-28,1,0.0011514310544048782,0.0013879605689182861,-0.00202250401623508,0.007334660805046116,0.9942356419989092
2014-04-30,1,0.0014300876106239165,0.0016799252400102368,-0.002576326242217822,0.0073431266219744894,0.9941354024777133
2014-05-02,1,0.0022716376986267306,0.002675447950397966,-0.002576326242217822,0.00682008824954441,0.9942429844987657
2014-05-06,1,0.002238329607397161,0.002632364350936256,-0.002024839880518132,0.007261581520062486,0.9942370901610709
2014-05-08,1,0.0017797627483465014,0.0020650012239384146,-0.0014820594247753466,0.008786395446554957,0.9939478650881992
2014-05-12,1,0.0024518251406152936,0.0028363716106444333,-0.0014820594247753466,0.008688435100146105,0.9944391631108144
2014-05-14,1,0.0014062811741368914,0.0015407596543629955,-0.002024839880518132,0.008688435100146105,0.9937607009059203
2014-05-16,1,0.0007673019762399463,0.0008162259632596178,-0.002024839880518132,0.008688435100146105,0.9942559823617347
2014-05-20,1,9.188942918833006e-05,0.00015534041857566695,-0.002024839880518132,0.008786395446554957,0.9938253378890795
2014-05-22,1,0.0007200699128722915,0.0007529124600511119,-0.002024839880518132,0.008688435100146105,0.9940725409257998
2014-05-27,1,0.0008144786041226779,0.0008525186715629628,-0.003886835069166483,0.0072824101866798725,0.9938163693214338
2014-05-29,1,0.0011409592825385845,0.0012154399034192294,-0.003886835069166483,0.0072824101866798725,0.9940053523065826
2014-06-02,1,0.001266936694979979,0.0013624065097985205,-0.0046783194362337195,0.00893738692692438,0.9936688806510439
2014-06-04,1,0.0022525406873587627,0.0025469811008021295,-0.0046783194362337195,0.008691255588797096,0.9938114451117513
2014-06-06,1,0.0027033993301166966,0.0030456039483772613,-0.0046783194362337195,0.0043743997283214545,0.9938246121440932
2014-06-10,1,0.0028891530878742146,0.0032838056011797357,-0.0046783194362337195,0.0043743997283214545,0.9936407642777964
2014-06-12,1,0.0018506866575740744,0.002087507473906905,-0.003886835069166483,0.006032024634128193,0.9944518455155823
2014-06-16,1,0.0018661583140570153,0.0021034061323447328,-0.003886835069166483,0.00767898059668688,0.9927727130692681
2014-06-18,1,0.0015611367455024157,0.0016345879720840372,-0.0046783194362337195,0.006032024634128193,0.9926035927809586
2014-06-20,1,0.001675676656480521,0.0017616290535669306,-0.005318257297177476,0.00767898059668688,0.9914360772065487
2014-06-24,1,0.0013879966980532095,0.001483767904111383,-0.005318257297177476,0.00767898059668688,0.9916384272798182
2014-06-26,1,0.0007447377116340033,0.0008291960003031473,-0.007308963262783971,0.00767898059668688,0.9906071038010738
2014-06-30,1,0.000963290790491239,0.0010105710796527543,-0.010050607412002158,0.006032024634128193,0.9899332530464744
2014-07-02,1,0.0015587012317046268,0.0016146864580758123,-0.012748621047882748,0.005305737794263741,0.9858367939614168
2014-07-07,1,0.0017206902388020608,0.0018163901328248982,-0.012748621047882748,0.005305737794263741,0.9859795616066853
2014-07-09,1,0.0016695895788431752,0.0017773674637767702,-0.012748621047882748,0.005305737794263741,0.9855502810870796
2014-07-11,1,0.0014288317699303848,0.0014889910499266239,-0.012748621047882748,0.00522921517948284,0.9854046091299896
2014-07-15,-1,-0.000735529386584818,-0.0005354263371291998,-0.011429632070961895,0.003975107734354089,0.9879649880370602
2014-07-17,-1,-0.0007724586353330216,-0.0005458996735567966,-0.01125453683677237,0.003992210391147294,0.9876338401676442
2014-07-21,-1,-0.00037937155045332554,-0.00024907511791374764,-0.009717586286233851,0.00563140575656135,0.9879316257557137
2014-07-23,-1,-0.000805422196040618,-0.0006365751886423412,-0.008946519924263924,0.00563140575656135,0.9882227868841102
2014-07-25,-1,-0.0003053123019035583,-0.00019022096710404214,-0.00807977077237772,0.005090825411916215,0.9897666314807148
2014-07-29,-1,-0.0015790105473336893,-0.001336923028151147,-0.006564823824695993,0.00563140575656135,0.9904813939564141
2014-07-31,-1,-0.0063126349440464115,-0.005496724605618836,-0.0020645103544290615,0.006994911452849402,0.9915247490502902
2014-08-04,-1,-0.005437530038764397,-0.004695660990954474,-0.0020645103544290615,0.006372032066999379,0.9919858895283388
2014-08-06,-1,-0.006727854938509495,-0.0057776606491106415,-0.000928224805671175,0.006372032066999379,0.9911383101327835
2014-08-08,-1,-0.006294083884322406,-0.005446749369551352,-0.000530693912257386,0.006372032066999379,0.9913335766367847
2014-08-12,-1,-0.006908975809290967,-0.005966075691859642,-0.0003973749734654883,0.00796474061696562,0.9898599801240685
2014-08-14,-1,-0.006579089063111908,-0.005686139833209614,-0.000928224805671175,0.006372032066999379,0.9912434316904656
2014-08-18,-1,-0.005727669898732916,-0.004934151512398448,-0.000928224805671175,0.006349715557671469,0.9917607972543433
2014-08-20,-1,-0.005038040752595925,-0.004357853491180834,-0.0009057995829781928,0.006349715557671469,0.9923448638615883
2014-08-22,-1,-0.004534621168493465,-0.003960349114326979,-0.005465167040645688,0.006349715557671469,0.9920198776506997
2014-08-26,-1,-0.0038702188277442346,-0.003387129756077843,-0.005465167040645688,0.005474038805040009,0.9927156826163139
2014-08-28,-1,-0.0038919175545095858,-0.0033486833188504685,-0.005907627311805899,0.004429412354389359,0.9916254871731665
2014-09-02,-1,-0.0028290427850086717,-0.0024479382508938038,-0.0096103250364124,0.0022383159574554646,0.9912628766174899
2014-09-04,-1,-0.003627258866278032,-0.003111635991093471,-0.012741122827794491,0.0031554922628341166,0.9897204451110813
2014-09-08,-1,-0.003243597152771804,-0.002799705312915475,-0.012741122827794491,0.005052083157808824,0.989421953274167
2014-09-10,-1,-0.0019703457002937944,-0.0017117616836663592,-0.014276789486965435,0.00398157251802915,0.9895878373333402
2014-09-12,-1,-0.0020640408293169667,-0.0018342589862329433,-0.017939029830709066,0.00398157251802915,0.987171423751577
2014-09-16,-1,-0.0016589170161042967,-0.0014534192260364865,-0.018829284682249765,0.002291816264504552,0.9862387589744869
2014-09-18,-1,-0.0019324433450047642,-0.0016647357723655694,-0.018829284682249765,0.0039269923704152495,0.9859941126594994
2014-09-22,-1,-0.0026177784211200237,-0.0023021736182828214,-0.018829284682249765,0.004738495642481159,0.9856269082213671
2014-09-24,-1,-0.002176584578688498,-0.0019489295701105216,-0.01977356676784988,0.007184420825819009,0.9837279533851165
2014-09-26,-1,-0.003328982322249297,-0.0029765209867758362,-0.018829284682249765,0.00998691656689459,0.9838128038114595
2014-09-30,-1,-0.004789455194318071,-0.00427632446713502,-0.017944438511020802,0.013268366854462097,0.9829430863417555
2014-10-02,-1,-0.004214215670766354,-0.00380814273998062,-0.014757670931196686,0.00998691656689459,0.9840660243524055
2014-10-06,-1,-0.0035237375901359764,-0.0031958363721452583,-0.014757670931196686,0.013268366854462097,0.9835766931135104
2014-10-08,-1,-0.004338161806482256,-0.003873252220749669,-0.012233874478574429,0.015068852128732609,0.982393321084353
2014-10-10,-1,-0.0068068688977394095,-0.00605425582336047,0.0016560047081299386,0.015068852128732609,0.9830137803205213
2014-10-14,-1,-0.0074094940043724165,-0.006614048750031194,0.0025509443863084985,0.015068852128732609,0.9832434690913076
2014-10-16,-1,-0.006692991787583867,-0.006005668572583587,0.0016560047081299386,0.015068852128732609,0.9840410659595804
2014-10-20,-1,-0.005023983945203174,-0.00455815446849107,-0.0022637315360786565,0.011690963448526524,0.9864110326371709
2014-10-22,-1,-0.004658763929712471,-0.004255438740901697,-0.0022637315360786565,0.00768203641867732,0.9883063296819571
2014-10-24,-1,-0.0024403477334153712,-0.002335005622697593,-0.0022637315360786565,0.005442267429289997,0.9911921423267195
2014-10-28,-1,-0.0017190736799220156,-0.0016389907971999518,-0.0022637315360786565,0.005213122683160584,0.9928837335510237
2014-10-30,-1,-0.0011932435977422245,-0.001061978656302447,-0.0022637315360786565,0.00537040745713626,0.9915597294812352
2014-11-03,-1,-0.0005319495920837641,-0.0003684293263651715,-0.00226806958402268,0.005213122683160584,0.9920303151982934
2014-11-05,1,0.0007628200194419447,0.0011137616910639656,-0.00226806958402268,0.00537040745713626,0.9917093945129718
2014-11-07,1,0.001175694285258267,0.0016009068901189155,-0.003636285401616264,0.0059094584115569095,0.9911348354122715
2014-11-11,1,0.0023106665697205132,0.0029144517066214256,-0.007944977138540376,0.0059094584115569095,0.9885035613016757
2014-11-13,1,0.002139121602341554,0.0026972391814760353,-0.009576782416492896,0.0059094584115569095,0.9860542222439745
2014-11-17,1,0.002339030271926469,0.0029434932055148657,-0.012669265183702295,0.0059094584115569095,0.9855825546789102
2014-11-19,1,0.002582220888446923,0.0032421349354053736,-0.012669265183702295,0.008500321950527821,0.9828205787634987
2014-11-21,1,0.002929513023091159,0.0036501183033480294,-0.012669265183702295,0.009288361269001883,0.9818317624596751
2014-11-25,1,0.0029133996716030333,0.003648750318507717,-0.012669265183702295,0.010455522654991486,0.9815821072695763
2014-11-28,1,0.0015159221209280946,0.0020674252828309808,-0.009576782416492896,0.010455522654991486,0.9833920746369033
2014-12-02,1,0.001764488657437643,0.0023590359711438344,-0.009367613807019691,0.010455522654991486,0.9836205107642201
2014-12-04,1,0.0029131913527883583,0.003571150247301519,-0.012041759355282683,0.008532582531923004,0.9839382871358339
2014-12-08,1,0.002824257326049009,0.003450686652416308,-0.016119077740185433,0.007146422469305617,0.9833637340353311
2014-12-10,1,0.0011163000694413207,0.0015165136356583855,-0.012041759355282683,0.008500988938197814,0.9850019609315482
2014-12-12,-1,-0.0005295998754773123,-0.0003516702461200358,-0.00441487809003675,0.015652010000385255,0.9860754368504898
2014-12-16,-1,-0.0008320620017573945,-0.0006870363672994086,-0.006947628388571541,0.015652010000385255,0.9846483414632906
2014-12-18,1,0.0013309970090185383,0.0017115586077830521,-0.011340656836025696,0.008562181071778995,0.987172331274583
2014-12-22,1,0.0004043859577074656,0.00046661022109331613,-0.011340656836025696,0.01205780780320384,0.9868689528661326
2014-12-24,1,0.0008778115254633495,0.0010385164959132724,-0.01411531304003079,0.008562181071778995,0.9854241075439478
2014-12-29,1,0.0008366787467409233,0.0009711839643186636,-0.018192632670046862,0.008562181071778995,0.984097704497584
2014-12-31,1,0.0004033331988078905,0.00047364405121396835,-0.020688631731722314,0.010573460021992085,0.9794808839749379
2015-01-05,-1,-0.0007804427261182273,-0.0006961911608377029,-0.018192632670046862,0.012144608601799927,0.9794228244287295
2015-01-07,-1,-0.0015546042014294263,-0.0013790749834535405,-0.014541744685272159,0.014519947365087098,0.9790596625441935
2015-01-09,1,5.1905621219728584e-05,0.00010154036997520144,-0.014541744685272159,0.01663459084529112,0.9786124235207219
2015-01-13,1,0.0012492470592279873,0.0014684803010732482,-0.014541744685272159,0.01663459084529112,0.9793783124994418
2015-01-15,-1,-0.00038184865380552204,-0.00038156202570947107,-0.011125733652066823,0.01663459084529112,0.9801562254889498
2015-01-20,-1,-0.00024979880363785263,-0.00020861110113097042,-0.007967167198691989,0.01663459084529112,0.9809136539859679
2015-01-22,1,0.0010114694887099341,0.0012402278974584752,-0.008561889834386289,0.018594615170595123,0.9815174161009538
2015-01-26,1,9.360878841952424e-05,0.00023677043441784027,-0.007243416270462479,0.018594615170595123,0.9831784711112646
2015-01-28,-1,-0.0012762496926760835,-0.0012353936252846613,0.000298357459674794,0.018594615170595123,0.9836575940074681
2015-01-30,-1,-0.004072494739605259,-0.0037210587248628444,0.0011020375053355643,0.018594615170595123,0.9868436590420021
2015-02-03,-1,-0.0026387898853635836,-0.0024814283880018376,0.0009377866541131658,0.015606303295777665,0.9883314769830271
2015-02-05,-1,-0.002328677309336638,-0.002192918486199246,0.000298357459674794,0.012423287548129911,0.989664508009771
2015-02-09,0,-0.00011866138768881383,6.402056867894272e-05,-0.0009409950684273409,0.0059366238056676405,0.9927559284525047
2015-02-11,1,0.0006344627740143797,0.0009284090643769839,-0.0035841206012250573,0.004542374166210906,0.9932127556182141
2015-02-13,1,0.0011927145612593373,0.0015027625858387344,-0.007913684489761895,0.0024568346784147096,0.993594604385445
2015-02-18,1,0.0015122336702240457,0.0018675612177454152,-0.007913684489761895,0.002655391799475318,0.9931267313618233
2015-02-20,1,0.0011878790689104054,0.0014292898263166907,-0.008655338187839387,0.002655391799475318,0.9929266551467827
2015-02-24,1,0.0009966593035109902,0.0011387389444305791,-0.008655338187839387,0.00197201576758319,0.992933913739559
2015-02-26,1,0.0011139515305244783,0.0012695312418502741,-0.010958786082454599,0.0017864557852166714,0.9920906452398364
2015-03-02,1,0.0013941892449888782,0.0016048641647875654,-0.010958786082454599,0.001813967205177833,0.9909583467661783
2015-03-04,1,0.0003927018382328649,0.00044725160899077563,-0.008655338187839387,0.0027792355974682976,0.9917484823735514
2015-03-06,-1,-0.0012286214474256792,-0.0009756975555385496,-0.007430482222782873,0.006520323985708681,0.9901829685038567
2015-03-10,-1,-0.0021668710705842094,-0.0017572406824823317,-0.005888954940974173,0.008561035282151089,0.9898502711841423
2015-03-12,-1,-0.0028276913012219218,-0.002345330162959791,-0.005253050467479637,0.010894503596427222,0.9876928920081592
2015-03-16,-1,-0.0028580650738445974,-0.0024212733536446446,-0.005253050467479637,0.010894503596427222,0.9873839775797089
2015-03-18,-1,-0.0029314529467018837,-0.002471989935293714,-0.005406794023243021,0.010894503596427222,0.9871520433423442
2015-03-20,-1,-0.0023070007688469544,-0.00200266998326125,-0.0045819469124397045,0.010275727078334794,0.988137279474096
2015-03-24,-1,-0.002173365796671412,-0.0019052524024757603,-0.0045819469124397045,0.010275727078334794,0.9880357184010087
2015-03-26,-1,-0.00313033323665277,-0.002730029327452292,-0.0009742259043898475,0.010275727078334794,0.9881233149498021
2015-03-30,-1,-0.001451963634718874,-0.0012931768078690985,-0.0045819469124397045,0.008391511386298327,0.9891198682062896
2015-04-01,-1,-0.0005293927602556138,-0.0005122032551945903,-0.004878966957938928,0.010430335952993806,0.988919667661421
2015-04-06,1,0.0011740556608459932,0.0014335668152294125,-0.005545340055013396,0.010430335952993806,0.9908624625494143
2015-04-08,1,0.0020509130550534697,0.002456648803903541,-0.005545340055013396,0.006850785307445358,0.991273069218306
2015-04-10,1,0.0035103240874117163,0.0040986158933905125,-0.005545340055013396,0.006850785307445358,0.9917752469347987
2015-04-14,1,0.0037225716282576204,0.004331046934336011,-0.005829292788593862,0.005399500749801186,0.9917633400394954
2015-04-16,1,0.003483869670986495,0.004058521678322398,-0.002998793688260078,0.007056907731256055,0.9916120590545279
2015-04-20,1,0.0037926873066054722,0.004411112883476148,-0.005829292788593862,0.011938943104833528,0.9902451088868931
2015-04-22,1,0.0034872294623111855,0.004049422959230294,-0.006004772880486393,0.011938943104833528,0.9899636773655043
2015-04-24,1,0.0026584463003369936,0.0030196795634864645,-0.00831476834635125,0.011938943104833528,0.9895696651852909
2015-04-28,1,0.003029306212433829,0.0034513444536629356,-0.008892200971029305,0.0068858854316137825,0.9898905349704046
2015-04-30,1,0.0038565227661258973,0.004485990847730379,-0.008892200971029305,0.003351732321647469,0.9893453563232405
2015-05-04,1,0.004045469622063666,0.004693245044322808,-0.008892200971029305,0.003351732321647469,0.9892147943500994
2015-05-06,1,0.00292995314284773,0.003314133793023935,-0.008892200971029305,0.0068858854316137825,0.9893637282235166
2015-05-08,1,0.0033613211094984563,0.0036907195709596826,-0.008892200971029305,0.002641622592858185,0.9905604560211831
2015-05-12,1,0.002902884371646703,0.003148968384487222,-0.0076595055449060695,0.004390157195350669,0.9909764015192559
2015-05-14,1,0.004493885536234714,0.005094633565666409,-0.009508152801010507,0.003223898537628348,0.9895986095375685
2015-05-18,1,0.00446783258335945,0.005098958468323363,-0.009508152801010507,0.002641622592858185,0.9890607710251849
2015-05-20,1,0.0042073914734684055,0.00481136127495136,-0.008315341345409618,0.005582242035607062,0.9893637484701833
2015-05-22,1,0.0038494253445315887,0.004415598807231186,-0.008315341345409618,0.007274004619288073,0.9892518921309376
2015-05-27,1,0.003288571422239902,0.0037495035273750667,-0.008422614919491377,0.007274004619288073,0.9886795825682084
2015-05-29,1,0.001969966904223708,0.002186075774715973,-0.005540140097322963,0.009786933954096265,0.9891092647052989
2015-06-02,1,0.0017471889413778168,0.0019069113491146346,-0.01729514305161904,0.008431182436337099,0.9866252204881896
2015-06-04,1,0.0026411593585238162,0.0029694087711579164,-0.01729514305161904,0.008431182436337099,0.9860716970792267
2015-06-08,1,0.002817430245079757,0.0032279361891246867,-0.01729514305161904,0.008431182436337099,0.9858418092060962
2015-06-10,1,0.0022319771641327603,0.0024762910658457714,-0.018516271896738067,0.007274004619288073,0.9850241908825551
2015-06-12,1,0.0013972719088233133,0.0015218606390639243,-0.01729514305161904,0.010469560916921812,0.9850905624218964
2015-06-16,1,0.0010148961664746897,0.0011562556248186013,-0.01729514305161904,0.010469560916921812,0.9856216721835586
2015-06-18,1,0.0010465711150825713,0.0010926098756497,-0.017867933665765834,0.007864036438793366,0.9854602885703403
2015-06-22,0,-0.0001597967501940394,9.172971617316713e-06,-0.01772510008809837,0.007845525822798302,0.9860841437544843
2015-06-24,-1,-0.003179708514330765,-0.0025103538012153682,-0.015303397799879711,0.007845525822798302,0.9870993911032566
2015-06-26,-1,-0.0018741440016732003,-0.0013823608715464292,-0.01772510008809837,0.0006909789474683084,0.9868348196245612
2015-06-30,-1,-0.004394523498629107,-0.003625274740052197,-0.014294387023590375,0.007845525822798302,0.9878353833500513
2015-07-02,-1,-0.003482355915429354,-0.0029003493214487487,-0.012927400334834454,0.011604615585676338,0.9865208525274769
2015-07-07,-1,-0.003706302250699998,-0.0031248653294129345,-0.013581300297694755,0.011604615585676338,0.9860612097089734
2015-07-09,-1,-0.003652035789428056,-0.0031283218855546954,-0.013581300297694755,0.011604615585676338,0.9860676620359323
2015-07-13,-1,-0.0021624504905945275,-0.0018210179904356379,-0.013581300297694755,0.008530454663092076,0.9860447015024245
2015-07-15,-1,-0.0028188064637175146,-0.002417748878561956,-0.014018994945744148,0.008530454663092076,0.9858124181614761
2015-07-17,-1,-0.003439880760060172,-0.002988022033099766,-0.01324490022100654,0.014009135574619854,0.9860161151164495
2015-07-21,-1,-0.003992688465047259,-0.0034834635023869944,-0.01324490022100654,0.014009135574619854,0.985390173935097
2015-07-23,-1,-0.0042765740106015535,-0.003748590062607396,-0.014467380670853814,0.014009135574619854,0.9844341362443434
2015-07-27,-1,-0.006584886111511795,-0.005733997179958189,-0.016823022999738604,0.014009135574619854,0.9817990969660081
2015-07-29,-1,-0.0035929556909493074,-0.0030926028042782693,-0.01870875592675235,0.00801347025561912,0.9814281277200984
2015-07-31,-1,-0.002498731205396898,-0.002114290477346529,-0.01870875592675235,0.006326363180402465,0.9806947595603381
2015-08-04,-1,-0.003258605089273761,-0.0027647864733149393,-0.025043280418494518,0.004402246735294782,0.9796492179575771
2015-08-06,-1,-0.004097296077558121,-0.003492218709302062,-0.01870875592675235,0.004402246735294782,0.9808740831953351
2015-08-10,-1,-0.003465947903911886,-0.002945482910941071,-0.01870875592675235,0.004402246735294782,0.981466480506361
2015-08-12,-1,-0.004907438086199235,-0.004195654509630291,-0.016286397288523623,0.004402246735294782,0.9824354453108954
2015-08-14,-1,-0.0050104565842535925,-0.004277493736438112,-0.020035111298347986,0.003398993016802678,0.9830036305780934
2015-08-18,-1,-0.005839403649275524,-0.004974076898942157,-0.020035111298347986,0.004402246735294782,0.9805010162606604
2015-08-20,-1,-0.0064014473476407905,-0.005513322448311486,-0.012370559682333197,0.00785082535061353,0.9798664280817343
2015-08-24,-1,-0.0087463319759687,-0.0075910575468847484,-0.006574712136212782,0.011438838224661615,0.9818354191966344
2015-08-26,-1,-0.00847356893047334,-0.007449027077985665,-0.006196515806168718,0.011438838224661615,0.9835406796779865
2015-08-28,-1,-0.006829869618642732,-0.006005783404466403,-0.009128966822129173,0.00785082535061353,0.9838708879154285
2015-09-01,-1,-0.007610708913493174,-0.006782271087014426,-0.006196515806168718,0.014091540738207307,0.9826130870270777
2015-09-03,-1,-0.006641375004776261,-0.005956588571264866,-0.006196515806168718,0.01580920749724581,0.9807992203579668
2015-09-08,-1,-0.00680416515405456,-0.006093980886434043,-0.0034791124637532952,0.018887352751884037,0.9797238276385843
2015-09-10,-1,-0.006599745563455812,-0.005939155527018149,-0.002206984191016171,0.02502356725385812,0.9766362978147319
2015-09-14,-1,-0.007295346201835486,-0.006560586899632434,-0.0019873081235863587,0.02502356725385812,0.9763857346388181
2015-09-16,-1,-0.004360575344424796,-0.0039835759692759725,-0.0025278137369432983,0.023674199391159542,0.9804436426598477
2015-09-18,-1,-0.003144627169346878,-0.002937945288372977,-0.0025278137369432983,0.023674199391159542,0.9810409008929399
2015-09-22,-1,-0.002623354138357238,-0.0024790536617391844,-0.0032018451631941084,0.023674199391159542,0.9826280883269016
2015-09-24,-1,-0.002799183815699561,-0.0026512108291904682,-0.0032018451631941084,0.023797280351184173,0.9808981862349033
2015-09-28,-1,-0.005493439601828112,-0.005031009372491941,-0.00032796241338246433,0.023797280351184173,0.982100313208821
2015-09-30,-1,-0.001679771325962513,-0.001595444554256311,-0.0032018451631941084,0.023797280351184173,0.9849416719509112
2015-10-02,1,0.00039928682618428765,0.0007779205900884355,-0.0037520169859274616,0.02351894868549474,0.9867902066358268
2015-10-06,1,0.0013617362354297411,0.001908829031134634,-0.0037520169859274616,0.0201496366175438,0.9875809303267208
2015-10-08,1,0.003917543439591141,0.004809985558388956,-0.005769923801145697,0.013301631072327949,0.9852435719271437
2015-10-12,1,0.003549659576103716,0.004388043792545694,-0.009719137151732013,0.014849755182901514,0.983843887438562
2015-10-14,1,0.0045121567225099996,0.005464927541307533,-0.01383218479563396,0.013301631072327949,0.9835777735881328
2015-10-16,1,0.005096749568107876,0.00612069538320293,-0.01419654974285832,0.013301631072327949,0.9816470957166815
2015-10-20,1,0.0041832867777668176,0.005038663948784472,-0.01419654974285832,0.013301631072327949,0.9821969419386883
2015-10-22,1,0.004224516080599778,0.0051034953729598345,-0.01383218479563396,0.013301631072327949,0.9818054928548421
2015-10-26,1,0.004621544837688689,0.005573351793683476,-0.01383218479563396,0.013819460099957203,0.9811747332451639
2015-10-28,1,0.005979445384573333,0.00708887438408411,-0.009602165749855122,0.013819460099957203,0.9826779047786091
2015-10-30,1,0.006348168207145867,0.007572005687250095,-0.0071659057117542556,0.013819460099957203,0.9838852562329905
2015-11-03,1,0.0061458078187078755,0.007252439288152892,-0.011705201565150451,0.012170788463400856,0.9823773555281288
2015-11-05,1,0.0030477246472934106,0.003689486253341483,-0.007955395105664011,0.012170788463400856,0.9870527931619073
2015-11-09,1,0.003985032808191302,0.004821569483419111,-0.011705201565150451,0.01070392770487382,0.9857495230503955
2015-11-11,1,0.0031023117762469144,0.0037988160650126094,-0.011705201565150451,0.01070392770487382,0.986032379821302
2015-11-13,1,0.0014519419305884676,0.0018923283273352346,-0.011705201565150451,0.009016803908556996,0.9866920046483136
2015-11-17,1,0.002718830826389522,0.0033980736865602667,-0.011705201565150451,0.012208028804788783,0.983785021691757
2015-11-19,1,0.0034661266069985703,0.004091244673730919,-0.013538500420417213,0.010736074955950612,0.9844611550241915
2015-11-23,1,0.004406348675944075,0.0051570361689189685,-0.013538500420417213,0.010736074955950612,0.9828383526915174
2015-11-25,1,0.00459409307819378,0.005342529143539273,-0.013538500420417213,0.010736074955950612,0.9816843781432224
2015-11-30,1,0.004531892912961044,0.005219378991119472,-0.013538500420417213,0.012112089974132764,0.9811838515684996
2015-12-02,1,0.0044848570877674965,0.0052488103301816195,-0.009204381562124737,0.012112089974132764,0.9817675374413108
2015-12-04,1,0.004519877857552149,0.005228898720441608,-0.015524514645353708,0.012112089974132764,0.980481025217899
2015-12-08,1,0.0019705213179614088,0.002312223780099677,-0.015524514645353708,0.012112089974132764,0.9795393338196939
2015-12-10,1,0.0013932786221886213,0.0016277871194903233,-0.019062107295857642,0.012112089974132764,0.9786142812003347
2015-12-14,1,0.0006006482788740465,0.0007069628154422322,-0.019062107295857642,0.01545948630138607,0.9781628662657853
2015-12-16,1,0.003160335157258388,0.0035588394739254825,-0.019905228335152528,0.012112089974132764,0.9793116173461265
2015-12-18,1,0.0026840637690900594,0.003087329463753251,-0.019062107295857642,0.01155830996296785,0.980214667534686
2015-12-22,1,0.005977676207603227,0.00689211631162072,-0.019062107295857642,0.01545948630138607,0.9791228959666436
2015-12-24,1,0.005966865917486661,0.006843312804209441,-0.019905228335152528,0.01545948630138607,0.9781056479726532
2015-12-29,1,0.005732650554611911,0.006522819110197534,-0.019905228335152528,0.016958265351280765,0.9771919170057232
2015-12-31,1,0.004829421269466148,0.005567193635969074,-0.019905228335152528,0.017486811171599885,0.9779090725563653
2016-01-05,1,0.0036848675278236763,0.004200307814541941,-0.019905228335152528,0.02044251119028861,0.9771519891462582
2016-01-07,1,0.0007193395872216119,0.0008411175582777485,-0.019062107295857642,0.02044251119028861,0.979474774490992
2016-01-11,-1,-0.0001338153644090044,-0.00010401001020377672,-0.018794984900079997,0.023144781868025148,0.9776314330638654
2016-01-13,-1,-0.0013785868478888817,-0.0011464085263473648,-0.018209062976494515,0.023144781868025148,0.979426260598804
2016-01-15,-1,-0.001969276081688216,-0.0015674913801833911,-0.010894408540523249,0.02334759434261307,0.9792862883590411
2016-01-20,-1,-0.002529869449493398,-0.002017249290479973,-0.010462879869242813,0.026709549674234823,0.9778625707033455
2016-01-22,1,7.498734302821e-05,0.00025703784471642333,-0.010462879869242813,0.019357664977762694,0.9815109170906011
2016-01-26,-1,-0.0005576191512470235,-0.00019756844705049554,-0.010462879869242813,0.01732493242016039,0.9820080552453133
2016-01-28,-1,-0.0010535811495843443,-0.0006415336912379134,-0.0026607346161863373,0.02078794566042737,0.9805578683656258
2016-02-01,0,-0.00024413454932612605,8.341184692617408e-05,-0.006481538724138186,0.02334759434261307,0.9794559350130176
2016-02-03,1,0.00015928191346861026,0.00044281159453706724,-0.00804182389884558,0.02078794566042737,0.9807238869793571
2016-02-05,-1,-0.00252087028521442,-0.0018769035847992113,-0.00607177622118695,0.02334759434261307,0.979920220460025
2016-02-09,-1,-0.0022685416685635654,-0.00177319478305948,-0.005584458305749135,0.02683919523043827,0.981867339139672
2016-02-11,-1,-0.00161952779826188,-0.0012611582443366309,-0.00607177622118695,0.030402768929406312,0.9801824826320561
2016-02-16,-1,-0.0006415197804762594,-0.0003628416450399246,-0.00982520801092612,0.030402768929406312,0.9809809063547964
2016-02-18,1,0.0008159641364438943,0.0009434336635094657,-0.00982520801092612,0.030402768929406312,0.9803155345057308
2016-02-22,-1,-0.0017743198526187635,-0.0011732912882075645,-0.013940625158983248,0.030402768929406312,0.9798962993134497
2016-02-24,-1,-0.001167863680527992,-0.0007488406103907425,-0.01274773462672851,0.030402768929406312,0.9812992774844983
2016-02-26,1,0.0014925831762197426,0.0015317025611689833,-0.01274773462672851,0.017382777959419962,0.9834365986316791
2016-03-01,1,0.0028601521195565083,0.003029971941060418,-0.01274773462672851,0.014231572025141519,0.9847332395172739
2016-03-03,1,0.002940387853117476,0.0032529105499957793,-0.007786711928592667,0.017236082438910637,0.9853041187187104
2016-03-07,1,0.0033111282171814148,0.0036467177023414244,-0.0124667354627684,0.014231572025141519,0.9864738463634188
2016-03-09,1,0.004453230545041561,0.004981686061694603,-0.012985756668805996,0.014231572025141519,0.9861107440147798
2016-03-11,1,0.004870329425200538,0.005475136262684357,-0.0124667354627684,0.013239383398845573,0.9881468092566783
2016-03-15,1,0.003413388363850414,0.003792509120628996,-0.0018518077638115858,0.013239383398845573,0.9895883793072078
2016-03-17,1,0.005163114001763076,0.0057861609648370334,-0.0020652207333505764,0.008485393009127325,0.9913017903624172
2016-03-21,1,0.004567228060808807,0.005110604187631642,-0.0014892762756543666,0.008485393009127325,0.9919835462848492
2016-03-23,1,0.004515245000898519,0.005085946021846365,-0.0010088056002099982,0.00735059950596868,0.9927686107476442
2016-03-28,1,0.004663857277785034,0.005231896531646168,-0.0010088056002099982,0.007477458645546926,0.992781636462453
2016-03-30,1,0.005750725397761635,0.0064970658550082844,-0.0010088056002099982,0.006356835387888594,0.9925547826359546
2016-04-01,1,0.004694625568703675,0.005126445071794054,-0.0026964372934598973,0.005504871134816273,0.992192640491347
2016-04-05,1,0.0041024673118692095,0.0044693261949304165,-0.0026964372934598973,0.006356835387888594,0.9916297091122488
2016-04-07,1,0.003412402066599084,0.0036415782505814093,-0.0026964372934598973,0.006356835387888594,0.9929594470130827
2016-04-11,1,0.0031315056686691406,0.0032775488667698975,-0.0040843575513349025,0.007106982512297436,0.991073533375031
2016-04-13,1,0.0029573281964982955,0.003101543784058744,-0.0026964372934598973,0.008750723936095696,0.9865790823327563
2016-04-15,1,0.0034579538413637926,0.0037397247046028746,-0.0026964372934598973,0.010941295924701003,0.9864134444645982
2016-04-19,1,0.003763228818790317,0.004130378980502905,-0.005034474095866514,0.016649785726165493,0.9848078377064705
2016-04-21,1,0.0037212031223339465,0.004090260667895869,-0.006037246957251861,0.016649785726165493,0.9844108715851825
2016-04-25,1,0.003999866463664841,0.0044159202596633414,-0.006037246957251861,0.016649785726165493,0.984352918365928
2016-04-27,1,0.0037736304785156265,0.004106587060673642,-0.006037246957251861,0.01767342097762528,0.9834927543129425
2016-04-29,1,0.003270394090702155,0.003559053878299026,-0.0016075391011733454,0.01767342097762528,0.9844904779272163
2016-05-03,1,0.0024757908193849144,0.0025335079154747047,-0.0016075391011733454,0.015359625693223519,0.984276484076705
2016-05-05,1,0.0018122379850090556,0.0018591812836808751,-9.82270774265135e-05,0.015359625693223519,0.9850608601176328
2016-05-09,1,0.001016310551385464,0.0011977668229892586,9.823994385660894e-05,0.013721228919947438,0.9862944104681686
2016-05-11,1,0.006029706637179645,0.006639342003950919,-0.0005407195831027296,0.012321080138468004,0.9902716330952134
2016-05-13,1,0.005707167283328261,0.006196043322537035,-0.005277971481496799,0.008840078900474132,0.9890471372915954
2016-05-17,1,0.005959090338810109,0.006637429154132337,-0.002050972921363372,0.008840078900474132,0.9904250911745218
2016-05-19,1,0.006096805329763008,0.006789412371447992,-0.0005407195831027296,0.012321080138468004,0.9897388400563318
2016-05-23,1,0.006156583188054115,0.006866726034712649,-0.0005407195831027296,0.012321080138468004,0.9898662115588676
2016-05-25,1,0.006728365685760438,0.00747758297148214,-0.0016350387606252545,0.012240515405800588,0.9905402982335278
2016-05-27,1,0.006431863690662094,0.0071298478946288145,-0.0069427009479040205,0.008511386682285972,0.9850881928395049
2016-06-01,1,0.004402710187229548,0.004653462088440721,-0.0040301689992824465,0.010951221637782163,0.9854976562313675
2016-06-03,1,0.0035396679045394956,0.003626151252191129,-0.0040301689992824465,0.012240515405800588,0.9846919954461827
2016-06-07,1,0.0029136717112084928,0.0029625798758837743,-0.0069427009479040205,0.01225177930306728,0.9837211652066218
2016-06-09,1,0.002925358435294804,0.0029413903082555655,-0.0040301689992824465,0.013898860018577715,0.9832657100134641
2016-06-13,1,0.0014638941800940277,0.0016881100847178632,0.001950556052294952,0.017284955210267235,0.9834469058298024
2016-06-15,1,0.00294811950641234,0.0029991223491750096,0.001950556052294952,0.01447466302096731,0.9844626788494253
2016-06-17,1,0.0035293388626356803,0.003671180921518016,4.330544711755001e-05,0.01225177930306728,0.9859633936647609
2016-06-21,1,0.0036412655138124647,0.0037578545389447956,-0.002056948579941903,0.01225177930306728,0.9856372007478827
2016-06-23,1,0.0038374025930512164,0.004020154206644148,-0.002056948579941903,0.010954976270204394,0.9847487413984688
2016-06-27,1,0.00014306200411027376,0.0003988339463306261,4.330544711755001e-05,0.012510828252993697,0.9881679199503328
2016-06-29,1,0.0005876358780006681,0.0008780931554189088,-0.002056948579941903,0.009589774578826456,0.9902129977144414
2016-07-01,1,0.0007263537863980415,0.0010244328802824542,-0.004495075894386716,0.008305716219980035,0.9907667680483307
2016-07-06,1,0.0003258547981247312,0.0007173819585542611,-0.0036489242500738735,0.006332506369428524,0.9917238033925025
2016-07-08,1,0.0014583489229460806,0.001660963882051736,-0.005350179977154098,0.005543444594022314,0.9920162279906728
2016-07-12,1,0.002373059923336397,0.0024358358540724993,-0.005350179977154098,0.004274777143762124,0.9924216502737301
2016-07-14,1,0.0020002456086698614,0.0021256930168585377,-0.005350179977154098,0.004072723451593212,0.9925091552006308
2016-07-18,1,0.0014179909073212078,0.0016457925617066002,-0.005350179977154098,0.005603821107986191,0.9921852459070258
2016-07-20,1,0.0019432898818586132,0.002032169306219593,-0.008900028154527204,0.005275819874290717,0.9903556536951131
2016-07-22,1,0.0017713199779925506,0.0018378964069610787,-0.007962772299616092,0.005603821107986191,0.9909947433949908
2016-07-26,1,0.001041382364898751,0.001250138830284748,-0.005424317366677563,0.005603821107986191,0.9914746150797067
2016-07-28,1,0.0009010008724336861,0.001104779828999064,-0.006139161053018281,0.005603821107986191,0.9906596052044138
2016-08-01,1,0.0007560529106878795,0.0009412700682182333,-0.005739650116591468,0.006742504298539632,0.9903711573149554
2016-08-03,1,0.0007775289000140454,0.000952786171638089,-0.012854129086751622,0.006742504298539632,0.9891180537526749
2016-08-05,-1,-0.0008203198474294787,-0.00038613903109614104,-0.010166447456067098,0.009731321666414983,0.9890442102150346
2016-08-09,0,-0.00021120827927578886,6.328209400204802e-05,-0.010166447456067098,0.012025525972587322,0.9885475537723896
2016-08-11,-1,-0.0004794194791440361,-0.0001392386068125055,-0.01621192595762993,0.012025525972587322,0.9852625912857872
2016-08-15,-1,-0.00048183228715909356,-0.00010346809096066284,-0.018458283523642753,0.009731321666414983,0.9849544624580234
2016-08-17,-1,-0.001848714850169603,-0.001328164522279387,-0.01360291494208923,0.012097319181274664,0.9856539519474882
2016-08-19,-1,-0.00044497961027280296,-0.0001263126876784083,-0.01360291494208923,0.011767952610351044,0.986174680786918
2016-08-23,-1,-0.000354771441467229,-7.103037514662256e-05,-0.01360291494208923,0.011767952610351044,0.9843320339521308
2016-08-25,-1,-0.0012018840476786354,-0.0007799222954207787,-0.011292519904675367,0.012043541291743716,0.9849625547182167
2016-08-29,-1,-0.0013165310081477675,-0.0008671414092808459,-0.011292519904675367,0.012659247092407473,0.9847130635563863
2016-08-31,-1,-0.002501839886330489,-0.0019338698051896753,-0.00778549744756205,0.012933246783093256,0.9838577693217302
2016-09-02,-1,-0.0017736976496484753,-0.001274624341156056,-0.008527102584537583,0.012933246783093256,0.9835757697518488
2016-09-07,-1,-0.001528457117606536,-0.0010683043140836286,-0.012569191426022527,0.012659247092407473,0.9825517303058856
2016-09-09,-1,-0.004707176148790309,-0.0038691232236001565,-0.008527102584537583,0.012659247092407473,0.9851105421961149
2016-09-13,-1,-0.0047138557764326555,-0.003879754544106705,-0.008527102584537583,0.013007898007958015,0.9846685381001392
2016-09-15,-1,-0.0040175959439052,-0.0032787587692839617,-0.009298900130998235,0.012659247092407473,0.9854944808696029
2016-09-19,-1,-0.003664294397230904,-0.002988024902814547,-0.009298900130998235,0.012659247092407473,0.9855450271382964
2016-09-21,-1,-0.0029648012684303933,-0.0023355932026079026,-0.007977420828430394,0.011972255513225689,0.9872124499663016
2016-09-23,-1,-0.0032880172204270966,-0.0026318798594279222,-0.009031197471788328,0.011482612963595136,0.9873141292378518
2016-09-27,-1,-0.0025453182028999867,-0.0019575011772425643,-0.011186648237781708,0.010290863857338513,0.9874224233040884
2016-09-29,-1,-0.0032221778455708916,-0.0025278557435782396,-0.010483375295374076,0.010290863857338513,0.9884769159001545
2016-10-03,0,-0.00012453682508516324,5.702099139656019e-06,-0.010483375295374076,0.010064070415536024,0.9893205822175181
2016-10-05,-1,-0.0003345367396845166,-0.00020165330003648675,-0.009031197471788328,0.008409759632162787,0.990306516086661
2016-10-07,-1,-0.0010501177365935584,-0.0008074823912946594,-0.008067897301034068,0.010708214262823873,0.9900486408442191
2016-10-11,-1,-0.0011821831178344014,-0.0009299505216190585,-0.008067897301034068,0.010708214262823873,0.9880896806364099
2016-10-13,-1,-0.0014486929758001801,-0.0011726957586783195,-0.00834987639793135,0.011501141209462128,0.9866720882140401
2016-10-17,-1,-0.0006474974123390333,-0.0005123679890234353,-0.012569299555894729,0.011501141209462128,0.9846814759649862
2016-10-19,1,0.0001873320502303203,0.0002056770619602672,-0.012569299555894729,0.013786619936055941,0.9826395766393395
2016-10-21,-1,-0.00032532341054907957,-0.00023010954736119932,-0.012569299555894729,0.014937127208036818,0.9822695748614959
2016-10-25,-1,-0.0002614670421704775,-0.0001828448432558555,-0.00895611693082525,0.01699563971497281,0.9825772900406262
2016-10-27,1,9.633549775755165e-05,0.0001102765403088876,-0.007795040496723783,0.01699563971497281,0.983432697848153
2016-10-31,1,0.00023933286712841189,0.0002660122562480339,-0.007795040496723783,0.017521513101460696,0.983140303871979
2016-11-02,-1,-0.0009074378397156681,-0.000697775665860131,-0.007952846163950762,0.018097428618200084,0.981675426261109
2016-11-04,1,4.568351403210147e-06,7.119739702337758e-05,-0.010260423045188758,0.017521513101460696,0.9815605711793247
2016-11-08,-1,-0.0003146304897213861,-0.00025861813223967517,-0.0069160179985431475,0.017521513101460696,0.9836804016705707
2016-11-10,1,0.00011164407168797468,0.00013624798319656655,-0.0069160179985431475,0.018709040785802083,0.9835490585664792
2016-11-14,-1,-0.0019244379389390704,-0.001722745477571902,-0.002888119252134321,0.018709040785802083,0.9851617812162274
2016-11-16,-1,-0.0019645151381271907,-0.0015760275492091309,-0.0052734126818500615,0.01699563971497281,0.9876710478540583
2016-11-18,-1,-0.000399396001865169,-0.00027050986582532663,-0.005378869303677991,0.016764228855227676,0.9886010441420694
2016-11-22,1,0.0008247028599637601,0.0008954988424168157,-0.005378869303677991,0.009393388786402584,0.9893138975261185
2016-11-25,1,0.0006087160641768217,0.000656335754077767,-0.007232387864026937,0.009393388786402584,0.9889681562301347
2016-11-29,1,0.0020840309293323903,0.0023762237232061315,-0.009325852023719527,0.0051295883413769216,0.9885030076608058
2016-12-01,1,0.0019320017012631324,0.0022400376349801902,-0.009325852023719527,0.004807780764215942,0.9899485193855576
2016-12-05,1,0.002511685798793951,0.0029157899972782264,-0.00733464500796532,0.005981288443489373,0.988762621877046
2016-12-07,1,0.0036675747603040175,0.004234035405789231,-0.00733464500796532,0.004899753819148745,0.9895617830846617
2016-12-09,1,0.0042921942883045565,0.004947162591297185,-0.006584330880527735,0.004554538415156059,0.9906011451795045
2016-12-13,1,0.003936884850893474,0.004509673345334218,-0.006584330880527735,0.004690663167205481,0.9895764060934606
2016-12-15,1,0.003506703183147066,0.004029869406600169,-0.004367585995929347,0.004690663167205481,0.9907003503543835
2016-12-19,1,0.003084123018768668,0.0035302627841963348,-0.004383264684348213,0.0048322538803418765,0.9903543045806291
2016-12-21,1,0.002818558927556101,0.0031960332060723983,-0.004383264684348213,0.0048322538803418765,0.9904901896603963
2016-12-23,1,0.00275086068696875,0.003131477664727322,-0.004383264684348213,0.00505961577585822,0.9894166486293219
2016-12-28,1,0.0011581590502950097,0.0012835576503302504,-0.003471850024546483,0.00818078979052713,0.989521024091646
2016-12-30,1,0.000894347974282145,0.0009713194195712458,-0.004383264684348213,0.007580924700056955,0.9887234773554643
2017-01-04,1,0.0028219535053674557,0.0031557514867530815,-0.005672401048064162,0.0048322538803418765,0.990861915592736
2017-01-06,1,0.003018523081822983,0.0034110057973583486,-0.005672401048064162,0.005722693199426304,0.9905800470569187
2017-01-10,1,0.001698888535694421,0.0018439355431426455,-0.006241551793362178,0.009893279276472523,0.9894454101280604
2017-01-12,1,0.003647369188460104,0.00408618786462212,-0.006241551793362178,0.005722693199426304,0.9907735129212999
2017-01-17,1,0.003842721249455534,0.004327362957536255,-0.010631549746913594,0.009035345284260114,0.9884240468932018
2017-01-19,1,0.0030369099771657164,0.0033793984902597695,-0.006241551793362178,0.01206394344745067,0.9886923869935847
2017-01-23,1,0.0032760763522740677,0.003650711854551658,-0.006241551793362178,0.014914488208846758,0.9874337436849653
2017-01-25,1,0.002465766765981971,0.0026589597521584525,-0.006241551793362178,0.01206394344745067,0.9883070061563527
2017-01-27,1,0.0032680810706778177,0.003612865138998421,-0.006241551793362178,0.009035345284260114,0.9883984362968757
2017-01-31,1,0.0023100968076065894,0.002544145935829533,-0.005118816419285771,0.01215614728359794,0.9852351264494728
2017-02-02,1,0.0007594953761600154,0.0008761087613660971,-0.004761969912229872,0.015126376031439463,0.9850807473842451
2017-02-06,1,0.0008108034600391094,0.0009254755710028206,-0.005118816419285771,0.016487702859469124,0.9837513395336449
2017-02-08,1,0.0010679547721431475,0.001130079297657573,-0.005118816419285771,0.01260992289294116,0.9845889058150105
2017-02-10,1,0.0006044056024963023,0.0007280869588173961,-0.005118816419285771,0.014666318990849178,0.9841836151431858
2017-02-14,1,0.00011875733815819035,0.0002400563757518123,-0.005108984274483745,0.014666318990849178,0.9856532325025841
2017-02-16,1,0.0005539538263402416,0.0006259730668806767,-0.005273019242962776,0.014666318990849178,0.9851020151115625
2017-02-21,1,0.001439834289098682,0.0015185387007843984,-0.006476543041839545,0.012680792599732994,0.9853912344891577
2017-02-23,1,0.0008607623364070593,0.0008621363784552793,-0.005108984274483745,0.012680792599732994,0.985660864276274
2017-02-27,1,0.0011577172633668732,0.0012324842683214033,-0.00561169029385029,0.012680792599732994,0.9858563485845088
2017-03-01,1,0.004045036318963552,0.004459206567246402,-0.00561169029385029,0.010032789467525586,0.9907086561063271
2017-03-03,1,0.004282115850357883,0.004690984672582096,-0.00561169029385029,0.006350554589912189,0.9910736672297289
2017-03-07,1,0.003720810997262071,0.004034048831613375,-0.005390973752899093,0.0049081438860695365,0.9927625910396369
2017-03-09,1,0.0027465673982971827,0.0029000637819690017,-0.003377414657435996,0.005972895850046506,0.9933755933259101
2017-03-13,1,0.0033737240514002255,0.003621422448127958,-0.005390973752899093,0.004545083712642759,0.992998049668493
2017-03-15,1,0.003624208460976061,0.0039264000483533274,-0.005995050258065322,0.004545083712642759,0.9927259630422671
2017-03-17,1,0.003619733055121325,0.003899374863767576,-0.005045196857129792,0.004545083712642759,0.9936151348129921
2017-03-21,1,0.002596459896859463,0.002725587433782964,-0.003262155692179562,0.005354771434652691,0.9946586628193108
2017-03-23,1,0.0027824616978147946,0.002926693075359239,-0.004185740962525917,0.004545083712642759,0.9944674622058907
2017-03-27,1,0.002726675443786952,0.0028893167870102073,-0.003262639329824668,0.007312778495795969,0.9939208162815183
2017-03-29,1,0.002279878267738,0.0023393689444056306,-0.003262639329824668,0.007312778495795969,0.9938014708675328
2017-03-31,1,0.002524751455100122,0.002639051068365977,-0.003262639329824668,0.007312778495795969,0.9936687936593367
2017-04-04,1,0.0021063991005965347,0.0021334842961799405,-0.004185740962525917,0.007312778495795969,0.9931776835053051
2017-04-06,1,0.001654855773156148,0.0017071212920946295,-0.004185740962525917,0.009772000511387931,0.9928625322765419
2017-04-10,0,-0.0003226966790149501,6.195749918434714e-05,-0.004007847842130218,0.009772000511387931,0.9931942275594893
2017-04-12,1,0.0003677213917131231,0.0005701990600689033,-0.003262639329824668,0.010108909786853953,0.9936163935673764
2017-04-17,1,0.0005460847271607853,0.0007212829371662862,-0.0030802874719656585,0.01100709569722894,0.9934462172809697
2017-04-19,1,0.0010735328434817188,0.0011577360906439179,-0.003433215297412523,0.010220474378530738,0.9930131203794101
2017-04-21,1,0.00048804170588898587,0.0006556366930751254,-0.00346079226855319,0.010220474378530738,0.9930171478561537
2017-04-25,1,0.0017270451899563661,0.0017364480327421664,-0.00346079226855319,0.007522708357858121,0.9939219527188041
2017-04-27,1,0.0012970069946825146,0.0013544357463669224,-0.00346079226855319,0.007522708357858121,0.9937765634114463
2017-05-01,1,0.0017266983250746723,0.001727582132824242,-0.003680815367487745,0.006076088464169652,0.9939369230109544
2017-05-03,1,0.00134999993156956,0.0013524577500043102,-0.002397208819790604,0.009919260068729022,0.9941993543717609
2017-05-05,1,0.00218087164784508,0.0023143469812274093,-0.0033242044725316985,0.005224318677060899,0.9947922016629618
2017-05-09,1,0.001942097692930719,0.0020465708570487785,-0.0033242044725316985,0.005224318677060899,0.9947061202446913
2017-05-11,1,0.001901371475948132,0.0019666229588776694,-0.0033242044725316985,0.0073019433339407604,0.994221606887384
2017-05-15,1,0.0018050569817120987,0.0018414355457130578,-0.003709962559891149,0.0073019433339407604,0.992639761714597
2017-05-17,1,0.001265572022991442,0.001309658852515555,-0.004376655069998143,0.0073019433339407604,0.9904255726246739
2017-05-19,1,0.0008913983851865706,0.0009928676387148845,-0.003709962559891149,0.009950910112666427,0.9898274494635847
2017-05-23,1,0.0004926730988151418,0.0006948984870944212,-0.006131243909275964,0.0073019433339407604,0.9893090872065847
2017-05-25,1,0.00036142535644568424,0.0005932580754944327,-0.008470167147385837,0.0073019433339407604,0.9889851930536697
2017-05-30,1,0.0012035028355058355,0.0012550793209736093,-0.008470167147385837,0.0073019433339407604,0.9887581661640272
2017-06-01,1,0.001223032805980088,0.001276261652451704,-0.010588833403433199,0.0073019433339407604,0.9871812744931334
2017-06-05,1,0.0007924948855547412,0.0009249488701767387,-0.010588833403433199,0.008706123376127374,0.9872503310802844
2017-06-07,1,0.001232885418946947,0.0012482750726807794,-0.010588833403433199,0.010674641486004681,0.986740269132187
2017-06-09,1,0.0017026071980765691,0.001748546945877374,-0.010588833403433199,0.012510528094793675,0.9863899070734117
2017-06-13,1,0.0006228522365439355,0.0007364542429647703,-0.006415509285871348,0.015333813966356656,0.9866687923783757
2017-06-15,-1,-0.001498693759698711,-0.0011412476283079414,-0.0038044999109694572,0.015333813966356656,0.9886301116906447
2017-06-19,-1,-0.0008456943037867395,-0.0005613325208775796,-0.005289380194989649,0.01282042656181437,0.9892933236619819
2017-06-21,-1,-0.0013139214537306687,-0.000999437840964944,-0.0038044999109694572,0.01282042656181437,0.9889280856646133
2017-06-23,-1,-0.0025012348472511683,-0.0019903401239584717,-2.5346601083504406e-05,0.01282042656181437,0.9884281604625204
2017-06-27,-1,-0.0026547427584266686,-0.002131920360343687,-2.5346601083504406e-05,0.01282042656181437,0.9879405792739172
2017-06-29,-1,-0.0025302400223424218,-0.0020410658717974982,-2.5346601083504406e-05,0.012178286616465571,0.9897672631896224
2017-07-03,-1,-0.0020822976207959566,-0.0016408725335240277,-0.0022031969669569227,0.012724364332168659,0.9898589432225674
2017-07-06,-1,-0.001799765892108129,-0.0013731056179786313,-0.005583306680884241,0.012724364332168659,0.9899870605253088
2017-07-10,-1,-0.0015818717109265423,-0.00112126842149545,-0.005583306680884241,0.012628821506495521,0.9898193246364524
2017-07-12,1,0.0001215365104824328,0.00034355288773550284,-0.006299676301669644,0.008029132853013415,0.9884535135259778
2017-07-14,1,0.0005647176266226019,0.0007224133380211886,-0.011234588893895005,0.006911683325238406,0.9872696529126531
2017-07-18,1,5.3645421009235455e-05,0.0002986619982846303,-0.011234588893895005,0.010142055513611912,0.986870853104771
2017-07-20,-1,-0.0002905926867986894,-2.887713348338544e-06,-0.012029493507846732,0.010465909396645129,0.9867306722407901
2017-07-24,1,0.00176048301230862,0.0018845876094076095,-0.012029493507846732,0.010465909396645129,0.9864487888176212
2017-07-26,1,0.001568367796265274,0.0017032863948638934,-0.008198888941063905,0.013522580021345805,0.9860218226808771
2017-07-28,1,0.001323670915796851,0.0013958204752130554,-0.007393910582810066,0.013522580021345805,0.986094476395761
2017-08-01,1,0.0012446819739270142,0.0012847677799939132,-0.009190021384270393,0.010465909396645129,0.9864430957603145
2017-08-03,1,0.0017758672777787449,0.0019159933376061689,-0.009190021384270393,0.009466710525746961,0.9870129671992555
2017-08-07,1,0.0028217189501776804,0.0031092526333341376,-0.012245164137686781,0.009466710525746961,0.9868570370477865
2017-08-09,1,0.0002891748657338298,0.00031951324556825947,-0.005703619646993576,0.010465909396645129,0.9896346989888926
2017-08-11,-1,-0.001281334872850067,-0.0010216875162215536,-0.003932772270879215,0.013522580021345805,0.9884960088662508
2017-08-15,-1,-0.00028046320190101614,-0.00016211026339300015,-0.003932772270879215,0.010539417721517237,0.9892307351013117
2017-08-17,-1,-0.0004706545190667632,-0.00032224471443304843,-0.0003405170212942828,0.009657754231248296,0.9897115903439093
2017-08-21,1,7.355913116759914e-05,0.00015674677188205703,-0.0003405170212942828,0.017888852361713517,0.9877456033702171
2017-08-23,1,0.0006043694334896126,0.0006229724600521236,-0.0005606290753819661,0.012229314965198582,0.9882064792388218
2017-08-25,1,0.0003960307218937187,0.00044240734220304294,-0.004537011106297113,0.012229314965198582,0.986169562295226
2017-08-29,1,0.0002374539229288694,0.0002937564723822846,-0.0038469258488377477,0.013608550385767613,0.985942639990491
2017-08-31,1,0.0003396217096459825,0.00041083019904355133,-0.0038469258488377477,0.018363532036414013,0.9844300893454723
2017-09-05,0,-1.8628826874916328e-05,0.00011446349368958225,0.0002950898479036068,0.01721492943297254,0.985724369264732
2017-09-07,1,0.0005972170381086702,0.0006471398182298722,0.0021078982587836685,0.013766776944001111,0.9863025102348845
2017-09-11,1,0.0022154708316256,0.0023962811524020806,-0.0038469258488377477,0.011079930802208107,0.9881832400443665
2017-09-13,1,0.0022068505323237075,0.002368508263532516,-0.0038469258488377477,0.011079930802208107,0.9880775312177119
2017-09-15,1,0.002908421656566732,0.0032087937132282496,-0.0038469258488377477,0.012073273091726419,0.988034879965713
2017-09-19,1,0.004397313150247745,0.004884582888754297,-0.004502350178583328,0.010468690038110224,0.9899303488523286
2017-09-21,1,0.0043574323459222245,0.004856463984748847,-0.0038469258488377477,0.009305396611499392,0.9904597371433775
2017-09-25,1,0.002440568154809325,0.0026456669692400845,-0.0028170151072997624,0.009540492576326234,0.9917171051547871
2017-09-27,1,0.0031610809687556687,0.003490830635263324,-0.0016623898799214521,0.009012830304672308,0.9922451862725242
2017-09-29,1,0.004371803144521094,0.004842418185562141,-0.0016623898799214521,0.006586954759478096,0.9938177290187122
