JNU-Tangyin/eata/results/Batch4_SP500/Batch4_SP500-MKTX.csv
Date,Action,Predicted_Q25,Predicted_Q75,Actual_Q25,Actual_Q75,RL_Reward
2010-12-14,0,-0.0008998441431761991,0.0,-0.0058252514497566564,0.014434758439601608,0.9875223739637741
2010-12-16,0,0.0,0.0,-0.0058252514497566564,0.014526176070220297,0.9869819837129598
2010-12-20,0,0.0,0.0,-0.00598363060137204,0.01378769836369158,0.9869931440300994
2010-12-22,0,0.0,0.0,-0.008560327824983657,0.011627192343935527,0.9858846996987346
2010-12-27,1,0.0035217382258228127,0.0036579933903137796,-0.008560327824983657,0.012388270416001438,0.9861363296292405
2010-12-29,1,0.003704123008668527,0.0038243662414876945,-0.008869592969689744,0.016070932579889313,0.9847822327636995
2010-12-31,1,0.002845029337190519,0.0028744147955485815,-0.011685945058577167,0.016070932579889313,0.9833083359137215
2011-01-04,0,-0.0001862292638073618,0.00024120165888683997,-0.00874537427945207,0.020077811977557126,0.9836489701364841
2011-01-06,1,0.0009679872061968615,0.0012260557657011813,-0.010227836691367845,0.019490450070671676,0.9841530555327735
2011-01-10,1,0.0012915649076609289,0.0015278473820419074,-0.010227836691367845,0.01595461630238656,0.98457368182971
2011-01-12,1,0.0016999483033117379,0.0018942329145224452,-0.010227836691367845,0.013838854610151578,0.9849934750947196
2011-01-14,1,0.001968613830082136,0.0021478934377447646,-0.010227836691367845,0.013790814273404128,0.9850638926839632
2011-01-19,1,0.0015921349523330046,0.0018137594045329365,-0.010227836691367845,0.013790814273404128,0.9841572993068347
2011-01-21,-1,-0.0019809185737363604,-0.0013047642078669109,-0.007704113836283811,0.013790814273404128,0.9865090889278711
2011-01-25,1,0.0001358957275750059,0.0004423442206260061,-0.00855102964538541,0.01195797839889023,0.9868951040750241
2011-01-27,1,0.00040390019359385775,0.0007006104808707882,-0.00819826797358907,0.01195797839889023,0.987713591288426
2011-01-31,-1,-0.0011158514779484204,-0.0006513781759839936,-0.0029500988646016246,0.01195797839889023,0.9891743670227279
2011-02-02,1,0.0005641276777765504,0.00083104813631441,-0.004006614685791058,0.00932842127475851,0.9897158086829183
2011-02-04,0,-9.082776456955364e-06,0.0002959466211930902,-0.0019683480776070965,0.00932842127475851,0.9903668559891453
2011-02-08,1,0.0004909547965977459,0.0007130173976516846,-0.0019683480776070965,0.009194588393163877,0.9902059047019454
2011-02-10,0,0.0,0.0,-0.005492718637626385,0.009087964699405156,0.9886897810970946
2011-02-14,0,0.0,0.0,-0.005492718637626385,0.009087964699405156,0.9890482176451573
2011-02-16,0,0.0,0.0,-0.005492718637626385,0.00569378830011316,0.9901783220940054
2011-02-18,0,0.0,0.0,-0.005492718637626385,0.011625537091057207,0.9873867880328697
2011-02-23,0,0.0,0.0,-0.005492718637626385,0.011625537091057207,0.9872324921330353
2011-02-25,0,0.0,0.0,-0.005492718637626385,0.011625537091057207,0.9867978119133392
2011-03-01,0,0.0,0.0,-0.005492718637626385,0.011625537091057207,0.9865950766404935
2011-03-03,0,0.0,0.0,-0.004731287817832769,0.014918223568386024,0.9863587402823523
2011-03-07,1,0.0,0.0017645431738997999,-0.004329577225788855,0.01906614834943117,0.9859079745412357
2011-03-09,1,0.00119537264478046,0.001268541594344189,-0.0007884267606957107,0.01906614834943117,0.9861380797451662
2011-03-11,0,-5.942747675460739e-05,0.00013605932935115855,0.0001816636505027344,0.01906614834943117,0.9873615834439836
2011-03-15,1,0.0017552944874316538,0.001809910033826118,-0.0023963105093156266,0.01906614834943117,0.9870414167509177
2011-03-17,1,0.001832344248094701,0.00184919837627948,-0.0023963105093156266,0.01906614834943117,0.9873574609449367
2011-03-21,1,0.004018062474892672,0.004258197538111894,-0.004952865011212216,0.012356660563772449,0.9891417634551413
2011-03-23,0,0.0,0.0,-0.006906906134360274,0.012138411671691607,0.988565867918538
2011-03-25,0,0.0,0.0,-0.006906906134360274,0.006989937103381921,0.9894489882232418
2011-03-29,0,0.0,0.0,-0.00796966919105721,0.008802267570059667,0.9881392856235449
2011-03-31,0,0.0,0.0,-0.00796966919105721,0.006989937103381921,0.9893950256444979
2011-04-04,1,0.004733287139938528,0.0051527801962356614,-0.008896631319523233,0.0057014816487111165,0.985631197602697
2011-04-06,1,0.006055142880531135,0.00654302066735604,-0.009985083115067591,0.0028361704222970557,0.9839572174009696
2011-04-08,1,0.005294310348296607,0.005661786552782722,-0.009761986103966514,0.002681468352639456,0.984543512916787
2011-04-12,1,0.0033955573242159314,0.00347868598949395,-0.009761986103966514,0.0056291521363779585,0.9854503838527215
2011-04-14,0,0.0,0.0,-0.011293762516500189,0.0056291521363779585,0.9852004471725152
2011-04-18,0,0.0,0.0,-0.013989390623990567,0.002681468352639456,0.9849787701358624
2011-04-20,0,0.0,0.0,-0.012702005672093317,0.0056291521363779585,0.9854601705752429
2011-04-25,0,0.0,0.0,-0.012702005672093317,0.010291433346596327,0.9840347870939685
2011-04-27,0,0.0,0.0,-0.009332857786667433,0.010441732193107194,0.9845949480903182
2011-04-29,1,0.0018675569179132327,0.0020237713550736837,-0.009332857786667433,0.010157170086359378,0.9850168419374784
2011-05-03,-1,-0.0012420094162931097,-0.0007296025914300937,-0.0061083016539110755,0.010927652421019673,0.9845733229130527
2011-05-05,-1,-0.0022406146915709803,-0.0016106474000907886,-0.008303365338824665,0.010927652421019673,0.9845778519279024
2011-05-09,-1,-0.002309235411446503,-0.0016832226084542254,-0.011178786060890235,0.010927652421019673,0.9839527519187061
2011-05-11,-1,-0.003117390800000401,-0.002429322118789861,-0.011178786060890235,0.01404196921320387,0.9822608578705074
2011-05-13,-1,-0.001979828697342161,-0.0014844730559656373,-0.01229180334332982,0.010927652421019673,0.9834983581297919
2011-05-17,-1,-0.0028767116390745534,-0.0023479692722809245,-0.009738743690115723,0.010927652421019673,0.9841635985625442
2011-05-19,-1,-0.0022949296216488472,-0.0018479076923651908,-0.009738743690115723,0.01263064868070242,0.983841102041359
2011-05-23,-1,-0.00022653619552419758,-4.313098479156335e-05,-0.009738743690115723,0.015376820835007748,0.9835351543856908
2011-05-25,1,0.0001273696941789828,0.00027093818023505174,-0.009738743690115723,0.013633876035067114,0.9837214735849231
2011-05-27,-1,-0.0008545218615934524,-0.0004886640267184872,-0.009738743690115723,0.015376820835007748,0.983290258290195
2011-06-01,1,0.000360479713504992,0.0005271852951633718,-0.008832412816836796,0.015376820835007748,0.9863227827069799
2011-06-03,0,-0.0001911902810222255,1.359970313475462e-05,-0.0036963941867491244,0.015376820835007748,0.98678735626419
2011-06-07,-1,-0.0009786178950383809,-0.0007156902611917532,-0.0010748523058094995,0.015376820835007748,0.986647488327932
2011-06-09,1,0.0004621368673378477,0.000508185175960412,-0.0010748523058094995,0.015376820835007748,0.9895271237785275
2011-06-13,-1,-0.000701217827943454,-0.0005085413186645742,0.0009808180145854405,0.015376820835007748,0.9884473895154999
2011-06-15,-1,-0.0017003628060866928,-0.0012632860081337675,-0.001122608909295838,0.015376820835007748,0.9878331332667181
2011-06-17,-1,-0.0011480590731894381,-0.0008262759161757323,-0.001122608909295838,0.014987365246855127,0.9875034552564075
2011-06-21,1,0.0010288729649615856,0.0010684451720671916,-0.002644855395309228,0.014048483075629137,0.9882620246501111
2011-06-23,1,0.0007557387378687258,0.0009010182871264213,-0.005099865846394746,0.014048483075629137,0.9881048027152044
2011-06-27,1,0.0023440880040311715,0.0024932402115832365,-0.007004813443708653,0.011967307739659446,0.9878456248478439
2011-06-29,1,0.0019911410860074708,0.002047622369330532,-0.007004813443708653,0.011967307739659446,0.9872634712755507
2011-07-01,1,0.002259983556587703,0.0023665370940524136,-0.007004813443708653,0.013876077397488733,0.9868690523136406
2011-07-06,1,0.002864784789073355,0.0030728780542620235,-0.007004813443708653,0.013876077397488733,0.9859791690849742
2011-07-08,1,0.003410199382848972,0.003732733789410147,-0.011855895547016264,0.011967307739659446,0.9842321815314757
2011-07-12,1,0.0022801388597915614,0.002356601347203867,-0.011855895547016264,0.013876077397488733,0.9786550544605613
2011-07-14,1,0.002264575586076194,0.0023838511606948357,-0.021389637160323854,0.01838202242984428,0.9746083324518953
2011-07-18,1,0.0009856606514998894,0.001083740388435516,-0.02037667489092,0.024357597167169193,0.9743131368341292
2011-07-20,1,0.0017208560398374161,0.0017827404174177441,-0.021389637160323854,0.024357597167169193,0.9704385439097142
2011-07-22,-1,-0.0010366800280314223,-0.0009165642026672838,-0.021389637160323854,0.024357597167169193,0.97036551855297
2011-07-26,-1,-0.0008817036315703499,-0.0006788848694779879,-0.02037667489092,0.03193071309106848,0.9664778877201996
2011-07-28,1,0.00035809035821449337,0.0005734632705209152,-0.021989955846518434,0.024357597167169193,0.9663514454331181
2011-08-01,1,0.00048775622985630705,0.0007106176881838581,-0.021989955846518434,0.03729796035028998,0.9634611786659122
2011-08-03,1,0.0009616399180961106,0.001162922056305637,-0.025260868382092592,0.03729796035028998,0.962994121493515
2011-08-05,-1,-0.0003179716578776715,-0.00025938483094592837,-0.021466979069444718,0.03729796035028998,0.9646544804139874
2011-08-09,0,0.0,0.0,-0.01878008912756107,0.03729796035028998,0.9684325236833525
2011-08-11,0,0.0,0.0,-0.01878008912756107,0.02546563656029551,0.9720962106664793
2011-08-15,0,0.0,0.0,-0.01707872293208676,0.01156123024591649,0.9739335917198185
2011-08-17,0,0.0,0.0,-0.01515752897414935,0.005526649479499565,0.9790483844500929
2011-08-19,0,0.0,0.0,-0.01515752897414935,0.005526649479499565,0.9770002333889154
2011-08-23,0,0.0,0.0,-0.01890029216711068,0.001869908090007295,0.9790420844423979
2011-08-25,0,0.0,0.0,-0.017114554972845822,0.007991224905195922,0.9784606537827855
2011-08-29,0,0.0,0.0,-0.017114554972845822,0.0026914332319060807,0.9806458811188214
2011-08-31,0,0.0,0.0,-0.015594298502215841,0.0068149647201143195,0.9802285258195919
2011-09-02,0,0.0,0.0,-0.020053361858843474,0.0068149647201143195,0.9775155027810589
2011-09-07,-1,-0.004307104315666448,-0.003986291434824301,-0.020053361858843474,0.0068149647201143195,0.9778884864492545
2011-09-09,0,0.0,0.0,-0.020069967740155497,0.00838409866420423,0.974731778317289
2011-09-13,0,0.0,0.0,-0.020069967740155497,0.01492875388061648,0.9733877996343269
2011-09-15,0,0.0,0.0,-0.020069967740155497,0.011399973325371675,0.9738720385647327
2011-09-19,-1,-0.0008289895745151567,-0.0008155226606477976,-0.020069967740155497,0.015815864564672724,0.9736110027835452
2011-09-21,-1,-0.002898519297680172,-0.0026762492557206286,-0.020069967740155497,0.024636283238829118,0.9736821913073884
2011-09-23,-1,-0.0032376301572539794,-0.002816503583041165,-0.020069967740155497,0.017721779195695866,0.9751671679098786
2011-09-27,-1,-0.003062941861763678,-0.0026343989348047866,-0.02223919752283375,0.018381684570406173,0.9740814055852357
2011-09-29,-1,-0.004448491999774609,-0.00385306486738086,-0.020069967740155497,0.027940339431134865,0.9697673483935164
2011-10-03,-1,-0.007668732113139005,-0.00664559819725806,-0.019526876902472148,0.027940339431134865,0.9712438138741049
2011-10-05,-1,-0.005764696245931166,-0.005000817301870622,-0.013822168219653715,0.026815186459796553,0.9746272729119363
2011-10-07,-1,-0.005628831598445154,-0.004828696352920204,-0.013834512738749425,0.026815186459796553,0.9710499622204339
2011-10-11,-1,-0.004365827297735772,-0.003730159396503234,-0.013834512738749425,0.026815186459796553,0.970653324941364
2011-10-13,-1,-0.0034150110468924777,-0.0029463728859678556,-0.022276231080120883,0.026815186459796553,0.9685389644133459
2011-10-17,-1,-0.004600292961739026,-0.004023391412168379,-0.014340562592173272,0.02779546133800949,0.9697772340741452
2011-10-19,-1,-0.004397944854691317,-0.0038624197788564895,-0.014340562592173272,0.02779546133800949,0.9696728842645327
2011-10-21,-1,-0.0036034937199933992,-0.003182631565993541,-0.022083675117252653,0.02779546133800949,0.9688014399340016
2011-10-25,0,0.0,0.0,-0.020873214570250757,0.026459805191799475,0.9696907512807273
2011-10-27,0,0.0,0.0,-0.023268801511435063,0.017008957153374745,0.973775386634416
2011-10-31,-1,-0.004868187719453383,-0.004400437168310542,-0.023268801511435063,0.020286576425240444,0.9727870752947528
2011-11-02,-1,-0.005180720075620935,-0.004657904721556741,-0.023268801511435063,0.026459805191799475,0.9712214210580044
2011-11-04,0,0.0,0.0,-0.023268801511435063,0.020286576425240444,0.9765305361699852
2011-11-08,0,0.0,0.0,-0.023268801511435063,0.020286576425240444,0.9758471820666114
2011-11-10,0,0.0,0.0,-0.023268801511435063,0.020286576425240444,0.9771160305584017
2011-11-14,0,0.0,0.0,-0.026685426112927624,0.017008957153374745,0.9772144617241594
2011-11-16,0,0.0,0.0,-0.025102666580198708,0.017008957153374745,0.9766662009882494
2011-11-18,0,0.0,0.0,-0.02277700784044428,0.0161811766707893,0.9776800851940476
2011-11-22,0,0.0,0.0,-0.025102666580198708,0.022167315798353234,0.9726492595274329
2011-11-25,0,0.0,0.0,-0.01794756654711368,0.02183815324378388,0.9742053420854427
2011-11-29,1,0.00038354335624432296,0.0006803423170929376,-0.01794756654711368,0.016128290759197805,0.9763701160108957
2011-12-01,1,0.0011725782715799383,0.0015490333734194583,-0.01794756654711368,0.015164362704612199,0.9781490535476918
2011-12-05,1,0.0010229474334061612,0.0013902884249320558,-0.01794756654711368,0.016128290759197805,0.9772622873027245
2011-12-07,1,0.0013855390113936994,0.0017789139209149543,-0.01145821383834564,0.016128290759197805,0.9781045786690197
2011-12-09,0,0.0,0.0,-0.004251082378911156,0.018632162252710326,0.977873993058338
2011-12-13,0,0.0,0.0,-0.004251082378911156,0.018632162252710326,0.9775259133788067
2011-12-15,0,0.0,0.0,-0.004251082378911156,0.01522119764454382,0.9805527996149466
2011-12-19,0,0.0,0.0,-0.004251082378911156,0.018632162252710326,0.9799227657040059
2011-12-21,0,0.0,0.0,-0.004251082378911156,0.014718047426721248,0.9856563970055742
2011-12-23,0,0.0,0.0,-0.006102374316632006,0.014730185102683502,0.9851834257852364
2011-12-28,0,0.0,0.0,-0.007168157121669885,0.014195177267951527,0.985154703590877
2011-12-30,0,-5.1819477301706445e-05,0.00018193626543839213,-0.007514765005724358,0.014195177267951527,0.9852685705750267
2012-01-04,1,5.778375711390179e-05,0.0003267913705199026,-0.007168157121669885,0.015301761092087921,0.9834347495709715
2012-01-06,1,0.00022598950507756517,0.0004871324986756311,-0.007514765005724358,0.014195177267951527,0.9830075909927497
2012-01-10,1,0.002787376935753734,0.003091331410831346,-0.009043632168145318,0.008922459489092305,0.9839764311519443
2012-01-12,1,0.0011455522321672717,0.001243815685659617,-0.008558123777997877,0.008922459489092305,0.9854685692413815
2012-01-17,1,0.0024929636308524614,0.0029695400548787553,-0.011596637815990789,0.011718373840508224,0.9833039031193274
2012-01-19,1,0.0027108106998697283,0.0031151756573346828,-0.012792261344596134,0.011718373840508224,0.9829781770516908
2012-01-23,1,0.0032697169822517723,0.0039028055870373255,-0.011509670602045129,0.011718373840508224,0.982989012447685
2012-01-25,1,0.003063933351342974,0.0035075582379775604,-0.012792261344596134,0.012812819988682365,0.9769970004305623
2012-01-27,1,0.0025730814846104647,0.0029476060048494648,-0.011918091322251845,0.013264382042195023,0.9767466682536295
2012-01-31,1,0.0028570102797167048,0.003343918151926528,-0.011918091322251845,0.013264382042195023,0.9766104167275671
2012-02-02,1,0.004433519354758189,0.005064563467286601,-0.011918091322251845,0.012091336396641082,0.9791045490901819
2012-02-06,1,0.00277437020347195,0.0031301170298470918,-0.011247269665912253,0.012091336396641082,0.9814447297449511
2012-02-08,1,0.0028043159576633878,0.0031911178340281255,-0.010358222225501642,0.01577900928937243,0.9815127971714265
2012-02-10,1,0.002197100744743684,0.0024360915326526265,-0.008814296400508641,0.01577900928937243,0.9820590752396493
2012-02-14,0,0.0,0.0,-0.008814296400508641,0.01577900928937243,0.9814487711013573
2012-02-16,0,0.0,0.0,-0.008814296400508641,0.015675354247972853,0.9816345142810767
2012-02-21,0,0.0,0.0,-0.003945145907470224,0.0169418392093271,0.9816544568380708
2012-02-23,0,0.0,0.0,-0.003945145907470224,0.0169418392093271,0.9846694151998502
2012-02-27,0,0.0,0.0,-0.0017374985026355001,0.020536538324948107,0.9841892226175323
2012-02-29,0,0.0,0.0,0.0002201664585815698,0.020536538324948107,0.9840727875008544
2012-03-02,0,0.0,0.0,-0.003398364747276892,0.016779796608073914,0.9851419089035486
2012-03-06,0,0.0,0.0,-0.003398364747276892,0.016779796608073914,0.9852494403012823
2012-03-08,0,0.0,0.0,-0.006118484656518328,0.013427595324261184,0.9851738617453325
2012-03-12,1,0.002332052692525539,0.0023919124774249346,-0.01155273335128678,0.013427595324261184,0.9836028708322552
2012-03-14,1,0.0016165517563998088,0.0016602322526881488,-0.01155273335128678,0.012688951435260049,0.9859350332623595
2012-03-16,1,0.0021820904273225257,0.002233201373875598,-0.00855452487177723,0.012688951435260049,0.9857784424983046
2012-03-20,1,0.0022851799274178053,0.0023366678085376836,-0.009589176961268422,0.010411075814220365,0.9855574314249761
2012-03-22,1,0.0034679205896567073,0.003859634636157143,-0.008790440794293369,0.009663055695122004,0.9888566603671206
2012-03-26,1,0.0038566492103092797,0.004246011993248835,-0.009589176961268422,0.008698182723305376,0.9886932188744126
2012-03-28,1,0.0038264032154568615,0.004191582495262138,-0.011557250523643698,0.005826155042008263,0.9874852655266813
2012-03-30,1,0.0033281363647827238,0.003566123173529426,-0.012646065581804311,0.005826155042008263,0.9873035605670568
2012-04-03,1,0.0041198066755111905,0.0045387793123360335,-0.01329131136352614,0.0040844297099726055,0.9863204904703671
2012-04-05,1,0.002777715078467749,0.002886057892032586,-0.012847585384810508,-0.00028669341936386544,0.9870928672362687
2012-04-10,1,0.001847602436392478,0.0018611722224615261,-0.012646065581804311,-0.00028669341936386544,0.9881386501007949
2012-04-12,1,0.0009270881550306471,0.0010566317303434545,-0.0116257993731902,-0.0018110272843904433,0.9888479760098626
2012-04-16,1,0.0014733854976871096,0.0015465545607202887,-0.012847585384810508,-0.0018110272843904433,0.9892092327837286
2012-04-18,1,1.0747835622141656e-05,0.00032186266665358023,-0.012847585384810508,-0.001311811882497247,0.9894882203207945
2012-04-20,0,-0.000333585534909741,4.481213743317918e-05,-0.012847585384810508,-0.001477847716054027,0.9898419591477141
2012-04-24,1,0.00015860305387339435,0.000397287991854839,-0.0116257993731902,-0.001477847716054027,0.9902649319081043
2012-04-26,-1,-0.00043963463735584274,-0.00015322214329149722,-0.0116257993731902,-0.00031227317748799805,0.9905153543903361
2012-04-30,-1,-0.0019271741771644036,-0.0014156940924473986,-0.010066484010299278,0.0037606245268681877,0.9909519567784397
2012-05-02,-1,-0.0019493734061790018,-0.001490237290693473,-0.008890914081146627,0.0007041211863916866,0.9920863148927898
2012-05-04,-1,-0.002644766616613634,-0.002086360611494394,-0.009857333754045787,0.0007041211863916866,0.9900329008690641
2012-05-08,-1,-0.004485363290953561,-0.0036389162347444546,-0.00797243927824262,0.004130397377996409,0.9894000651366521
2012-05-10,-1,-0.004325567539181929,-0.0035473002984485937,-0.007744430571563398,0.005332660612718188,0.9890728695047729
2012-05-14,-1,-0.0045839637095896404,-0.003810439010279273,-0.007744430571563398,0.005332660612718188,0.988485668097018
2012-05-16,-1,-0.004269813044031637,-0.003519536221421371,-0.008424917107812735,0.005332660612718188,0.986855656720298
2012-05-18,-1,-0.0043984607123036265,-0.0036405224627944896,-0.011927457272483018,0.005332660612718188,0.9865064473138386
2012-05-22,-1,-0.0044137703392932645,-0.0036762135335783536,-0.011927457272483018,0.005332660612718188,0.986677434790673
2012-05-24,-1,-0.004364138493997516,-0.003641703661373727,-0.01215665428480944,0.005332660612718188,0.9861868843087895
2012-05-29,-1,-0.003772095868346235,-0.0031183520800361223,-0.017545018795706507,0.002830644833803361,0.9864824192307322
2012-05-31,-1,-0.003393714412152129,-0.0028280530469731273,-0.01940512714476401,0.002830644833803361,0.985574504962571
2012-06-04,-1,-0.004575542707304845,-0.003941986137483007,-0.017545018795706507,0.00589518451617831,0.9865768421416033
2012-06-06,-1,-0.004454003591897064,-0.003774668361076732,-0.017545018795706507,0.0072967099357755996,0.9867266741510755
2012-06-08,0,0.0,0.0,-0.017545018795706507,0.008390677264529262,0.9857792548107651
2012-06-12,0,0.0,0.0,-0.01093285734447932,0.008948678727367178,0.9865401551882552
2012-06-14,0,0.0,0.0,-0.005403622584055795,0.009146135049795221,0.988285710268654
2012-06-18,0,0.0,0.0,-0.005403622584055795,0.009146135049795221,0.9885599415107801
2012-06-20,0,0.0,0.0,-0.003574297423900339,0.012682023356709518,0.9870334062763005
2012-06-22,0,0.0,0.0,-0.006196127781748012,0.012682023356709518,0.9870637872410494
2012-06-26,-1,-0.003779914924881263,-0.0033516377523483834,-0.00545284546536938,0.014652130296279242,0.9839005318847048
2012-06-28,-1,-0.011747707605942945,-0.010328892423716865,-0.001613722788002706,0.017536165421586297,0.9786159498593117
2012-07-02,0,0.0,0.0,-0.009752299065622048,0.016169985752463055,0.9838553600756277
2012-07-05,0,0.0,0.0,-0.009752299065622048,0.016169985752463055,0.9838754519451338
2012-07-09,0,0.0,0.0,-0.009752299065622048,0.016169985752463055,0.9812800939093271
2012-07-11,0,0.0,0.0,-0.009752299065622048,0.016169985752463055,0.9816660340449119
2012-07-13,0,0.0,0.0,-0.009752299065622048,0.013049163287474578,0.9826509015647691
2012-07-17,-1,-0.002069822820611063,-0.0018766460818038545,-0.009841639226749313,0.013049163287474578,0.9806994047912214
2012-07-19,-1,-0.0028811002175892233,-0.0025934669156564704,-0.009841639226749313,0.009361074364826137,0.9804067453688797
2012-07-23,-1,-0.005003428819964675,-0.004450407129333394,-0.009199590199662516,0.009361074364826137,0.9812260722999534
2012-07-25,-1,-0.001226467449914651,-0.0012028513828393778,-0.009199590199662516,0.008050032957128818,0.9847721458628712
2012-07-27,0,0.0,0.0,-0.009436286837720135,0.007449659621475369,0.9855719906361106
2012-07-31,0,0.0,0.0,-0.00774197761510704,0.008561832890718662,0.9863017910923421
2012-08-02,0,0.0,0.0,-0.008478495117144304,0.008561832890718662,0.9863739595292742
2012-08-06,0,0.0,0.0,-0.008478495117144304,0.008561832890718662,0.9884660296567772
2012-08-08,0,0.0,0.0,-0.009199590199662516,0.009652500706735618,0.9833233237129233
2012-08-10,1,0.003901760934524805,0.004714410903074812,-0.009436286837720135,0.010078826630508648,0.9810970490264199
2012-08-14,1,0.0019692879704533497,0.0025298032752622893,-0.008549948352727049,0.01040125067084247,0.9827943113962072
2012-08-16,1,0.004388087824678461,0.005343907776174029,-0.008549948352727049,0.01040125067084247,0.9845783127301908
2012-08-20,1,0.004009339253277301,0.004937208216701516,-0.0003184812879782242,0.01040125067084247,0.9855539549918709
2012-08-22,1,0.0039843210966250585,0.004887988808178902,-0.00231091142835628,0.011143961485505345,0.9842281329070428
2012-08-24,1,0.003562255587866272,0.00443051410187684,-0.0012137825527492392,0.011143961485505345,0.9849891114807495
2012-08-28,1,0.0033419507159003943,0.004188212729600498,-0.004970561208011359,0.011567183745589061,0.9804661569934486
2012-08-30,1,0.0031252694528258714,0.003843466316048255,-0.0012137825527492392,0.015344465476249966,0.979606875464861
2012-09-04,1,0.004247720553135986,0.005105619455703792,-0.004882296609100748,0.013121127575870806,0.980133037351813
2012-09-06,1,0.003910405483945206,0.004771640700951237,-0.004882296609100748,0.013121127575870806,0.984257077671915
2012-09-10,1,0.0024957495376388495,0.0031428328629634844,-0.003563528117316957,0.013121127575870806,0.9866177070239988
2012-09-12,1,0.0035841270544060837,0.004396298232392447,-0.004882296609100748,0.011178366917311573,0.9867004789043912
2012-09-14,1,0.003994644193564651,0.004851522727448307,-0.008724520433382586,0.0072010191697511085,0.9862147386867979
2012-09-18,0,0.0,0.0,-0.008724520433382586,0.011802010146751932,0.9851178411786882
2012-09-20,1,0.0010829155346929872,0.0013127359207256164,-0.008518684404745448,0.010754378808996823,0.9863040376913016
2012-09-24,1,0.003329082342581175,0.003998214853472758,-0.010926607662970532,0.010754378808996823,0.9853622371372024
2012-09-26,1,0.0025513824191753165,0.0030744662477911605,-0.00862372058433384,0.008947309678071235,0.9896441477592767
2012-09-28,0,0.0,0.0,-0.00862372058433384,0.0077096603544556455,0.990912205413624
2012-10-02,-1,-0.006225164329109529,-0.005888184117446989,-0.00862372058433384,0.007910007823753474,0.9900103972290081
2012-10-04,0,0.0,0.0,-0.00862372058433384,0.0075415806312881094,0.9913022793577851
2012-10-08,0,0.0,0.0,-0.010926607662970532,0.007910007823753474,0.9901759164002688
2012-10-10,0,0.0,0.0,-0.010926607662970532,0.007910007823753474,0.9900088106046678
2012-10-12,0,0.0,0.0,-0.00862372058433384,0.007910007823753474,0.9905047452221473
2012-10-16,0,0.0,0.0,-0.011647471424043512,0.006702703350200658,0.9901988833926699
2012-10-18,0,0.0,0.0,-0.009923122706965671,0.007910007823753474,0.9892658154240861
2012-10-22,0,0.0,0.0,-0.007970520874264739,0.007992791794285354,0.989897667113777
2012-10-24,0,0.0,0.0,-0.007743761103978505,0.00879975969732636,0.9896517380506734
2012-10-26,0,0.0,0.0,-0.007743761103978505,0.00879975969732636,0.9897918885792166
2012-11-01,0,0.0,0.0,-0.007743761103978505,0.009192361802791385,0.9898389059601729
2012-11-05,0,0.0,0.0,-0.006779901368754993,0.009192361802791385,0.9905353101098375
2012-11-07,-1,-0.0021682158601505526,-0.0019841293816169362,-0.005982107776569007,0.010567527267090798,0.98748477630113
2012-11-09,0,0.0,0.0,-0.0050650934215800535,0.010567527267090798,0.9874871936119948
2012-11-13,0,0.0,0.0,-0.0050650934215800535,0.010567527267090798,0.987203856814914
2012-11-15,-1,-0.003069841416679787,-0.00254900767908899,-0.002309981329152738,0.011728935559904306,0.9865744770050485
2012-11-19,-1,-0.002447533015667396,-0.0019683461852245876,-0.002309981329152738,0.011326916744433334,0.9870766376545262
2012-11-21,-1,-0.003221573275015615,-0.00259513784728521,-0.001365680109248601,0.013700775185901215,0.9858517520188392
2012-11-26,-1,-0.0024330805577240933,-0.0019311927043325953,-0.0025708853103576803,0.013700775185901215,0.9872530182772605
2012-11-28,-1,-0.002176886384334,-0.0017416121985718098,-0.0025708853103576803,0.013700775185901215,0.986363386985444
2012-11-30,-1,-0.00134856659163871,-0.0010410880436251472,-0.0025708853103576803,0.013700775185901215,0.9866763865500647
2012-12-04,-1,-0.0017138485723421262,-0.0013677626684674672,-0.0025708853103576803,0.015071226217320424,0.9849257255706659
2012-12-06,1,0.0010751790322507816,0.001089581487161171,-0.00506740099261809,0.012578209212880147,0.9880787692161085
2012-12-10,1,0.0001057421783696613,0.00022393403918090338,-0.0025708853103576803,0.013089308994772347,0.9888007102985052
2012-12-12,1,9.292106654980786e-05,0.00017655843115352407,-0.00500538776821389,0.013089308994772347,0.9880916770699064
2012-12-14,1,0.00036318121138219866,0.00046032723490007114,-0.00500538776821389,0.013700775185901215,0.9878676939524844
2012-12-18,1,0.001746734487855842,0.001901036830777917,-0.007659407737357283,0.013749976286472943,0.9884344472667465
2012-12-20,1,0.0027042490332256615,0.0030281325024276978,-0.007659407737357283,0.013749976286472943,0.9883862134060964
2012-12-24,1,0.0019240152568914524,0.002075367589735322,-0.007659407737357283,0.014120059186279817,0.9879204455244686
2012-12-27,1,0.0018809680991400944,0.0020443242677971587,-0.004548800466856052,0.014120059186279817,0.9887167035468514
2012-12-31,1,0.0029669544380351194,0.003376929070294684,-0.006823338356969057,0.014120059186279817,0.988417784506073
2013-01-03,1,0.0031891635657089433,0.0036374891206327115,-0.004548800466856052,0.014120059186279817,0.9896305236922466
2013-01-07,1,0.0030517914585816413,0.0034919179396378387,-0.004548800466856052,0.014120059186279817,0.9899540849287727
2013-01-09,1,0.0025472884478824195,0.0028389003373463857,-0.004548800466856052,0.014120059186279817,0.9900197683568722
2013-01-11,1,0.0021460692487705354,0.0024495517279180907,-0.003991552838447353,0.014120059186279817,0.9910927833729711
2013-01-15,1,0.002823823133823954,0.0031844846866082984,-0.003991552838447353,0.011899487751746027,0.992061602617416
2013-01-17,1,0.003259567289938421,0.0036758173490651913,-0.0039609638587090115,0.011899487751746027,0.9907918031629337
2013-01-22,1,0.003363855767524667,0.003759401758902519,-0.0039609638587090115,0.011899487751746027,0.9877458219770344
2013-01-24,1,0.003738952497895619,0.004204366090336004,-0.004366040697237212,0.00753345872597597,0.9872871775834624
2013-01-28,1,0.0037791943724161323,0.0042516483429445254,-0.004347229638275152,0.009915589976834803,0.9872088863814682
2013-01-30,1,0.0034803368322582203,0.003967266706947639,-0.0030922035956013976,0.006881909014124211,0.9877189877852355
2013-02-01,1,0.004172165631055834,0.004579024880229189,-0.0030922035956013976,0.005362153359173673,0.9878583397912003
2013-02-05,1,0.0026862725525401893,0.0028240325441001106,-0.0018267652960897258,0.006881909014124211,0.9884664748186978
2013-02-07,0,0.0,0.0,-0.0018267652960897258,0.009915589976834803,0.9871178855237726
2013-02-11,0,0.0,0.0,-0.004233856908302615,0.009915589976834803,0.9866652451317678
2013-02-13,0,0.0,0.0,-0.009487552751019864,0.006156197109459951,0.9861970984329432
2013-02-15,0,0.0,0.0,-0.009487552751019864,0.00462480241343852,0.9880826925375388
2013-02-20,1,0.0021071231139902996,0.0023856141380330775,-0.009487552751019864,0.00462480241343852,0.989398094612375
2013-02-22,0,0.0,0.0,-0.008398275641330258,0.00462480241343852,0.9908588639877739
2013-02-26,0,0.0,0.0,-0.009487552751019864,0.00462480241343852,0.989351391489394
2013-02-28,0,0.0,0.0,-0.009487552751019864,0.005101434472521319,0.9890669021130553
2013-03-04,0,0.0,0.0,-0.009487552751019864,0.004618530773961542,0.989120556880221
2013-03-06,0,0.0,0.0,-0.009511963544279207,0.004618530773961542,0.9891319084463704
2013-03-08,1,0.003964723111742551,0.004275446541667499,-0.008529443687612975,0.004618530773961542,0.9894242738407194
2013-03-12,1,0.002753369356410891,0.0028766636350233753,-0.005691243492710838,0.005848941896665607,0.9895677500718277
2013-03-14,1,0.0021375233339733244,0.0022286682679042774,-0.005691243492710838,0.005848941896665607,0.9902400613756408
2013-03-18,1,0.0014905755173866364,0.0015206953214687356,-0.005740390795529375,0.00861402479976087,0.9891365666341639
2013-03-20,1,0.00129043344390914,0.0013744233693043606,-0.0031789820354710644,0.00861402479976087,0.991000841903533
2013-03-22,1,0.0007087729833248459,0.0008965645245885248,-0.0031789820354710644,0.010313437272763215,0.9904350475490363
2013-03-26,-1,-0.0004791300520073249,-0.00015589406363220395,-0.002608049128910988,0.01092201954757815,0.9902838413189776
2013-03-28,-1,-0.0003235789650439478,-4.8194433897835514e-05,-0.0012259903857364503,0.012619406781913279,0.988904464139882
2013-04-02,-1,-0.0006748252097743877,-0.0003311265729063174,-0.002608049128910988,0.012619406781913279,0.988106946232903
2013-04-04,-1,-0.0010335614894620166,-0.0006167702392808302,-0.002608049128910988,0.01728020843028126,0.9875112236263671
2013-04-08,-1,-0.0014981658830402172,-0.0009666525777952488,-0.002608049128910988,0.01728020843028126,0.9877534158806812
2013-04-10,-1,-0.0007941807024189635,-0.0003383515938617694,-0.0012259903857364503,0.012619406781913279,0.9886733837767916
2013-04-12,-1,-0.00262889885243195,-0.0018891398835428025,-2.080436228586217e-05,0.012619406781913279,0.9881306035821854
2013-04-16,-1,-0.0018522398483984516,-0.0012572199319894886,0.0007523146157992254,0.012619406781913279,0.9881627041274098
2013-04-18,-1,-0.0018166925849154175,-0.0012160081379498449,0.0007523146157992254,0.012619406781913279,0.9883263355230468
2013-04-22,-1,-0.000980169712363271,-0.0004977077644850909,-0.0002846590808754183,0.012442954639161168,0.9888411530578748
2013-04-24,1,0.00025160964556134643,0.0006097222531966414,-0.004256526905363151,0.010001386096589257,0.9890496209083646
2013-04-26,1,0.0017908783428049815,0.0019551261999167175,-0.004256526905363151,0.00543188562174576,0.9904586941751398
2013-04-30,1,0.0005112005812872807,0.0008561100676672796,-0.004256526905363151,0.00543188562174576,0.9907717254322135
2013-05-02,1,0.002819378288589747,0.0029255035688404807,-0.004514214890913623,0.00543188562174576,0.9907159395828831
2013-05-06,1,0.002127904534628292,0.002159536370306135,-0.007251685919345747,0.00543188562174576,0.990297624889959
2013-05-08,0,0.0,0.0,-0.007251685919345747,0.00456782657367183,0.9899591095673536
2013-05-10,0,0.0,0.0,-0.007251685919345747,0.009722319893817862,0.9886848199720395
2013-05-14,0,0.0,0.0,-0.007251685919345747,0.006145430368648185,0.99038883373021
2013-05-16,0,0.0,0.0,-0.008635405809978215,0.009722319893817862,0.9876677327871505
2013-05-20,0,0.0,0.0,-0.008635405809978215,0.009722319893817862,0.9872525682690468
2013-05-22,0,0.0,0.0,-0.008635405809978215,0.009722319893817862,0.9874972796072499
2013-05-24,0,0.0,0.0,-0.013298579143569977,0.014145985646039487,0.9859858707230683
2013-05-29,0,0.0,0.0,-0.008752125156850749,0.014145985646039487,0.9863231488728592
2013-05-31,0,0.0,0.0,-0.00819467180324944,0.019589771707817748,0.9859536586832126
2013-06-04,0,0.0,0.0,-0.009880138223308145,0.020854129856468548,0.9847065894424529
2013-06-06,0,0.0,0.0,-0.009880138223308145,0.020854129856468548,0.9827762981793229
2013-06-10,0,0.0,0.0,-0.009880138223308145,0.0219195283842789,0.9828092786409783
2013-06-12,0,0.0,0.0,-0.012845927213660489,0.0219195283842789,0.9821604958564258
2013-06-14,1,0.0028654193956271904,0.002866996001373321,-0.009880138223308145,0.020854129856468548,0.9852545842398868
2013-06-18,1,0.004861475191147323,0.005297877436711065,-0.009880138223308145,0.01993797794505709,0.985792037226633
2013-06-20,1,0.0029224551630409545,0.003093870701181308,-0.002331462284004805,0.01993797794505709,0.9875537908890373
2013-06-24,1,0.0028498275783475115,0.0030093376384643677,-0.002331462284004805,0.020369996257753847,0.9875658938063578
2013-06-26,1,0.0033514948579906933,0.0036195288957290134,-0.004964711269649865,0.0215841594544332,0.9861055205927874
2013-06-28,1,0.003165254590344957,0.0033585790630213186,-0.004964711269649865,0.02014287840933199,0.9864314109937254
2013-07-02,1,0.0035539421757787193,0.0037832067340057866,-0.004964711269649865,0.017434516896547268,0.9872007880805165
2013-07-05,1,0.005610768899537596,0.006103552867568086,-0.004964711269649865,0.008604517656485287,0.9877576396153912
2013-07-09,1,0.006596888031752377,0.007240545722017664,-0.004964711269649865,0.0014792861565390719,0.9876027080162554
2013-07-11,1,0.006376793416357074,0.0071038365869018055,-0.004964711269649865,0.007879546955307105,0.9882663955784863
2013-07-15,1,0.005514546470735206,0.006081660447574085,-0.0037178984481759667,0.013358586593422837,0.9888163449737115
2013-07-17,1,0.005076583067722759,0.005533847549994328,-0.0037178984481759667,0.013358586593422837,0.9888089744533993
2013-07-19,1,0.005471315078193718,0.005984828840726656,-0.007994907613361309,0.0045640241121410186,0.9871445543886583
2013-07-23,1,0.00585829703360483,0.006399791282133937,-0.007148211819660419,0.0045640241121410186,0.9876217768087596
2013-07-25,1,0.005886320676922472,0.006430904288535613,-0.004602753526226401,0.0045640241121410186,0.9882285050387507
2013-07-29,1,0.0051685519327655475,0.005642263298168125,-0.004602753526226401,0.00925236895800119,0.9893102691220292
2013-07-31,1,0.004417276648970972,0.0047765872793274645,-0.00519936507844517,0.00925236895800119,0.9890727483422393
2013-08-02,1,0.004567509889266743,0.004885502009282121,-0.006841092055759718,0.0045909454934858355,0.988992706083372
2013-08-06,1,0.0035287161314242,0.0036467301411613785,-0.006841092055759718,0.013358586593422837,0.9874547437231068
2013-08-08,1,0.0032484178361093076,0.0033046667311899137,-0.00519936507844517,0.00925236895800119,0.9881117003602745
2013-08-12,1,0.0034634110417240517,0.0035451845886509685,-0.00519936507844517,0.009123861733846302,0.98817244568914
2013-08-14,1,0.0031672495372870027,0.003196530793632447,-0.00519936507844517,0.009123861733846302,0.9878898820310027
2013-08-16,0,0.0,0.0,-0.004408236443530309,0.01207949954219226,0.9890874264057233
2013-08-20,1,0.004442155191485758,0.00455073089825316,-0.004077928800752873,0.01207949954219226,0.9891882467190252
2013-08-22,1,0.004796993109377276,0.004862391722938594,-0.0034459541950226224,0.01224358991453008,0.9885543343337316
2013-08-26,1,0.004844924268050606,0.004959812861328217,-0.0027151107293847117,0.018243546867874688,0.9877925635009365
2013-08-28,-1,-0.0008925358907182831,-0.00034804862044076376,-0.0016047345364150968,0.018243546867874688,0.9864014891058226
2013-08-30,-1,-0.0014591712306223712,-0.0008937190101401731,-0.0018898456161883178,0.018243546867874688,0.9871181186382518
2013-09-04,1,0.00026534133527851686,0.0006679468872110765,-0.0027151107293847117,0.017104166507467176,0.9886082124835438
2013-09-06,0,-0.00022786348405958497,0.00022882528362872228,-0.0018898456161883178,0.018243546867874688,0.9874510597892333
2013-09-10,1,0.0003699135302990329,0.0007502052377779424,-0.0029352551335088952,0.018243546867874688,0.9876673476737025
2013-09-12,1,0.0002197661920667808,0.0005933687577494465,-0.0029352551335088952,0.019816686882544614,0.9856687081385488
2013-09-16,1,0.0018610305425969464,0.001968061977024136,-0.0029352551335088952,0.019816686882544614,0.9862700186660088
2013-09-18,1,0.002895471721844012,0.0029815339571501297,-0.004380553317370187,0.019816686882544614,0.986492330208109
2013-09-20,1,0.003732837713971712,0.0038815556489055865,-0.004380553317370187,0.01457953391310328,0.9879778867604471
2013-09-24,1,0.00512318467609454,0.005479562335722716,-0.006178726931903531,0.008954036478802652,0.9887117285734194
2013-09-26,1,0.004266023467658801,0.004502427633891094,-0.004380553317370187,0.009048747457046025,0.9898265365708795
2013-09-30,1,0.0038442328493508908,0.004044651311657383,-0.003475862892883832,0.009048747457046025,0.9902830281369134
2013-10-02,1,0.004246410464438984,0.0044827661375379906,-0.002985777330320261,0.008676335624419414,0.9915961535471403
2013-10-04,1,0.005558375704510272,0.006044500508797196,-0.003475862892883832,0.008104147526768924,0.9915479969933237
2013-10-08,1,0.004693864328891437,0.005036646520771307,-0.0029125198341101955,0.008676335624419414,0.9927484433718682
2013-10-10,1,0.006195770934936001,0.006748244967922577,-0.003475862892883832,0.006220362600549524,0.9930865985636682
2013-10-14,1,0.005395708740176304,0.00572421579530746,-0.003475862892883832,0.005049591469534425,0.9935773055717684
2013-10-16,1,0.004488225506658146,0.004687823038957623,-0.002169437712123926,0.006144004563686975,0.9943924400818118
2013-10-18,1,0.004255297818127096,0.004376726365673465,-0.002169437712123926,0.006144004563686975,0.9945198617746225
2013-10-22,1,0.003518852636413581,0.0035191526866556883,-0.002169437712123926,0.00764976964846214,0.9939003407260201
2013-10-24,1,0.003161959698447767,0.0032280874181549665,-0.0011792423008572116,0.00768432961065511,0.992794929725115
2013-10-28,1,0.0030793614112961387,0.003123671832592133,-0.002954872420638459,0.00768432961065511,0.9910743964981852
2013-10-30,1,0.003396251320469587,0.003427574887815405,-0.002954872420638459,0.008071779019325867,0.9909751292932911
2013-11-01,1,0.0024054283812555673,0.0025146293534268806,-0.0012159789941323818,0.009233251158366013,0.9897246077930641
2013-11-05,1,0.003086862251754342,0.003101453909718002,-0.009027744490014733,0.008081379970578166,0.9866927346578585
2013-11-07,1,0.002992555818128941,0.003041807675764371,-0.009337710795734668,0.00995416833614313,0.9852799155490234
2013-11-11,1,0.0020663436277819918,0.0022281723029484203,-0.015981052313949005,0.00995416833614313,0.9839759355574739
2013-11-13,1,0.0023707178494015825,0.0025094817018329815,-0.016090193473045744,0.00995416833614313,0.9829425384357734
2013-11-15,1,0.0025184661338925073,0.0026436030782570944,-0.016090193473045744,0.00995416833614313,0.9826343271680315
2013-11-19,1,0.0019955044914871066,0.0021766989248764835,-0.015668127730144872,0.008077887624503358,0.9837029860265561
2013-11-21,1,0.0036557741453740913,0.0036972162285120926,-0.015668127730144872,0.004544891399413711,0.9825573758163226
2013-11-25,1,0.003066900511512456,0.003165245249197531,-0.01381046717351891,0.008248838657176873,0.9840361666752921
2013-11-27,1,0.003568340159555642,0.003779286819170343,-0.01381046717351891,0.009859822373337783,0.9835996975388374
2013-12-02,1,0.0031725242590515627,0.0032759364567977504,-0.01125592415130866,0.009417638664114809,0.984565269899078
2013-12-04,1,0.0002403450935952897,0.0005103463363728537,-0.010236578499939912,0.014379437749097626,0.9862184587626919
2013-12-06,1,0.0011387998995620327,0.0013089799107770096,-0.01125592415130866,0.01062610517910581,0.9860721041750458
2013-12-10,0,-4.596132518170726e-05,0.00024363429954423962,-0.011530403095688991,0.01062610517910581,0.9860588372801818
2013-12-12,1,0.00043064077632673893,0.0006306618111001816,-0.011530403095688991,0.008313922377191862,0.9863556789366771
2013-12-16,1,0.00013577218193768675,0.00035694727279842397,-0.011530403095688991,0.01062610517910581,0.9856283636894322
2013-12-18,-1,-0.0008815168663978345,-0.00048774735271124646,-0.014933657631954866,0.01062610517910581,0.9854903755181187
2013-12-20,-1,-0.00041397165272019794,-4.278428092993288e-05,-0.014933657631954866,0.01062610517910581,0.9862219962742091
2013-12-24,0,-0.00022508115744776752,9.136393464488483e-05,-0.01567374419801029,0.01062610517910581,0.9857946779223917
2013-12-27,1,5.9521132956048394e-05,0.00035844716909292447,-0.01794789054688172,0.01062610517910581,0.9839265912291464
2013-12-31,1,2.7298269998113963e-05,0.00032584012868578467,-0.021168163545521725,0.01130512594784754,0.9815842457824991
2014-01-03,1,0.00016547862114520227,0.00041841751807998725,-0.021168163545521725,0.007466549433389363,0.9818443095864638
2014-01-07,-1,-0.0008549849251818485,-0.00047993252339416,-0.017904186177839145,0.00924928648905404,0.9829713375613246
2014-01-09,-1,-0.003365231851864383,-0.002620788101586926,-0.01567374419801029,0.00924928648905404,0.9850027701181041
2014-01-13,-1,-0.003993820228395201,-0.0031855353040064257,-0.015300904607502589,0.005757740454190542,0.9857351957764592
2014-01-15,-1,-0.0035774557412995033,-0.002832163173246797,-0.015300904607502589,0.0014015345353258198,0.9864066030610378
2014-01-17,-1,-0.004493703838172016,-0.0036364136655536797,-0.011822359844196587,0.0035622558987660562,0.986800911061372
2014-01-22,-1,-0.004711326986278051,-0.0037776879981369416,-0.015300904607502589,0.0035622558987660562,0.9869235621132929
2014-01-24,-1,-0.00650478830494528,-0.005312731142797176,-0.010587334867652613,0.006768267547335513,0.987161587186841
2014-01-28,-1,-0.00511006942288739,-0.004183727217596651,-0.010308962968138491,0.005674838169431368,0.988812894426674
2014-01-30,-1,-0.0041886855543346235,-0.003357433349294445,-0.00783766085871648,0.002952639140396205,0.9920559418982314
2014-02-03,-1,-0.005672462395477133,-0.004696314838678358,-0.005601358093881122,0.006046258033495483,0.9896176347392545
2014-02-05,-1,-0.005304775552743314,-0.004363610484744641,-0.00528625697904024,0.006768267547335513,0.9895383597907284
2014-02-07,-1,-0.005023908894844239,-0.0041568030281583235,-0.0043844402430051705,0.006768267547335513,0.9894021040414647
2014-02-11,-1,-0.005361918275778364,-0.004479801510562228,-0.0043844402430051705,0.008177694525981199,0.9880935899502946
2014-02-13,-1,-0.00477402531119627,-0.004037112979949615,-0.006572938417302052,0.008177694525981199,0.9880894594495541
2014-02-18,-1,-0.0035732105706047504,-0.0030581929843266943,-0.00822003685196327,0.009357287939720613,0.9876163777657375
2014-02-20,-1,-0.004238253166267286,-0.003617026599652724,-0.00822003685196327,0.009229361923068908,0.9879655587905817
2014-02-24,-1,-0.0044532580276400845,-0.003788004783508231,-0.009783550386136146,0.009229361923068908,0.9879300361425637
2014-02-26,-1,-0.004238222272398153,-0.0036429163819470187,-0.009783550386136146,0.009229361923068908,0.987254737983327
2014-02-28,-1,-0.003730134979011569,-0.003246104688155491,-0.011360511416841253,0.009229361923068908,0.9865291606844817
2014-03-04,-1,-0.0012996119930673386,-0.0010703345655118757,-0.011360511416841253,0.009229361923068908,0.98836128015985
2014-03-06,1,0.0004677965948194011,0.0005405384332117622,-0.012047891986526643,0.0037969939986645935,0.9866427463631526
2014-03-10,1,0.0008578192128108114,0.001019732809299082,-0.0141958943337291,0.0018152663640331643,0.9843273394171059
2014-03-12,1,0.00010028921227381288,0.00013024392729566277,-0.0128667936714947,0.004856197448283912,0.9859740782672205
2014-03-14,-1,-0.0004201114213230391,-0.00040912668386991133,-0.0141958943337291,0.004856197448283912,0.9854383452886831
2014-03-18,-1,-9.913253638229321e-05,-8.56984975201159e-05,-0.0141958943337291,0.0076787704693066705,0.9856266820401034
2014-03-20,1,3.126131768784116e-05,7.616162622806568e-05,-0.0141958943337291,0.008490894589075653,0.9853470664524515
2014-03-24,-1,-0.000399537540543907,-0.00038713734425758085,-0.0141958943337291,0.009085113021732273,0.9850076955172207
2014-03-26,-1,-0.0019485112311768665,-0.0017648162722845302,-0.0141958943337291,0.009085113021732273,0.9855962605788872
2014-03-28,-1,-0.0031684711612094216,-0.0028245955651903035,-0.015468857810212098,0.009085113021732273,0.9857111453925352
2014-04-01,-1,-0.0015803399620102111,-0.0014484624376530704,-0.015468857810212098,0.009085113021732273,0.9864068351173296
2014-04-03,-1,-0.0034559800691701093,-0.003097754326143892,-0.01104287922663852,0.009739316754599195,0.987489633804706
2014-04-07,-1,-0.004824911125150022,-0.004336860227461077,-0.007691510780520777,0.009739316754599195,0.9885350452521641
2014-04-09,-1,-0.003626985868357884,-0.0033167353608105866,-0.007691510780520777,0.009279634215888507,0.9893817138475217
2014-04-11,-1,-0.004491258838527277,-0.004108972134367401,-0.0023264758913831224,0.010644453928886057,0.9889534175212613
2014-04-15,-1,-0.0035297278579300663,-0.0032556241161362056,-0.007691510780520777,0.00883864329613545,0.9889056293647389
2014-04-17,-1,-0.0013584362680527115,-0.0012794290524552067,-0.007691510780520777,0.007618272425270214,0.9901158460770351
2014-04-22,-1,-0.001156740211522561,-0.0011211338979391513,-0.009199573129310263,0.004696395776624149,0.9895139753189791
2014-04-24,-1,-0.0018281780832697034,-0.0018049046984408563,-0.007691510780520777,0.00924551342129119,0.9897604714220875
2014-04-28,-1,-0.0022545967285418677,-0.0022074693952370762,-0.005015883937897025,0.010887397601433133,0.9889257547517091
2014-04-30,-1,-0.0033143711611978385,-0.003029494305100556,-0.0090113637123157,0.009810030685656427,0.9883044796757994
2014-05-02,-1,-0.001988191468974858,-0.0019157398606436766,-0.012663393366988993,0.0069693192235730835,0.9880904909230748
2014-05-06,-1,-0.0027051063650990422,-0.002500598011337038,-0.014059204200766234,0.009810030685656427,0.9846827891116352
2014-05-08,-1,-0.0023351326778829995,-0.0021907812567604503,-0.014059204200766234,0.01599998529239713,0.9827970064408877
2014-05-12,-1,-0.0014250725641385517,-0.0013791737300216835,-0.014059204200766234,0.013098001492148629,0.9835670617570047
2014-05-14,-1,-0.0032075593380340066,-0.0029475366472064063,-0.012542565624518998,0.013098001492148629,0.9850618349206643
2014-05-16,-1,-0.002180572441735707,-0.0020969897317193965,-0.012542565624518998,0.01595778154119319,0.9840407833865862
2014-05-20,-1,-0.0017231167130234272,-0.0016964526969856031,-0.008882617812315407,0.01528473656077359,0.9843136694743243
2014-05-22,-1,-0.0004970144510738809,-0.00032119754129819806,-0.012514185045029423,0.01528473656077359,0.9848633867236
2014-05-27,1,0.0008703972084548506,0.0012448836038257234,-0.012514185045029423,0.010421554961605541,0.9857674673795137
2014-05-29,0,-1.6556299917124483e-05,0.00025593844947057907,-0.0077274001143275315,0.010421554961605541,0.9871311040212489
2014-06-02,-1,-0.0013074803652449352,-0.0012458158782469569,-0.004586472201751214,0.010421554961605541,0.9873215535880328
2014-06-04,-1,-0.0025569724907913128,-0.002405121240690198,-0.007096801613356817,0.007721522337574343,0.9901393744282105
2014-06-06,-1,-0.0010547564393500089,-0.0010530983942754779,-0.012659568909623973,0.005871805155964462,0.990663356651265
2014-06-10,-1,-0.0006385686144003813,-0.0005546179880876374,-0.015191885692685475,0.0035992932066391536,0.9894354235924857
2014-06-12,-1,-0.001436423243111266,-0.0013889631811414183,-0.016275497762059197,0.0035992932066391536,0.9887545920018509
2014-06-16,1,6.935685513145243e-05,0.0002498790075326251,-0.016275497762059197,-0.0003140038281545098,0.9882980298662943
2014-06-18,1,0.0005499052728393125,0.0007422591585393682,-0.016275497762059197,-0.0013957367948029729,0.9885881672973863
2014-06-20,1,0.00038887226125753694,0.0005771298129710903,-0.016275497762059197,0.000762777853287572,0.9879624984773419
2014-06-24,1,0.0010792343124180004,0.0014416908539174724,-0.016275497762059197,0.0064842491398825145,0.984823687139684
2014-06-26,1,0.00022904634909118,0.0003846009123246696,-0.016275497762059197,0.009796227423386879,0.9826311639635248
2014-06-30,-1,-0.00031630816815661635,-0.0001957997928100654,-0.015191885692685475,0.009796227423386879,0.9835938299953247
2014-07-02,-1,-0.0011692584536528551,-0.0011639507619508808,-0.013234268964031695,0.009935238920232434,0.9836064066809393
2014-07-07,-1,-0.0027978533099957967,-0.0025882362859207912,-0.008709533505935384,0.009935238920232434,0.984411932141004
2014-07-09,-1,-0.004143861113743598,-0.003767955880569935,-0.006486091505347146,0.010800785890924595,0.9845345673591323
2014-07-11,-1,-0.005291156020170796,-0.004798115801818111,-0.005774130526253389,0.010800785890924595,0.9847575839052126
2014-07-15,-1,-0.004539560706596835,-0.004125835910894949,-0.006486091505347146,0.010800785890924595,0.9838987628856101
2014-07-17,-1,-0.003927823710499149,-0.0035944945517315313,-0.006486091505347146,0.010800785890924595,0.9841399895168017
2014-07-21,-1,-0.0026300727177202077,-0.002437447411561384,-0.006486091505347146,0.010800785890924595,0.9847330946175037
2014-07-23,1,0.0004548764668359759,0.0006430639060157249,-0.006486091505347146,0.008996393784814776,0.9890639379034358
2014-07-25,1,0.0033850675216545857,0.004123454660560073,-0.006372683964873468,0.00806501797740816,0.9913274909564495
2014-07-29,1,0.004139879072551365,0.005025366399703133,-0.006372683964873468,0.008996393784814776,0.9900445123612636
2014-07-31,1,0.004210626856643106,0.005114518236387051,-0.006372683964873468,0.00806501797740816,0.989928533137826
2014-08-04,1,0.004068279697746891,0.004924286491975915,-0.004559448951894053,0.009142023872203725,0.9904003911887005
2014-08-06,1,0.0040012533248159,0.004805241034085767,-0.004559448951894053,0.00807571197174807,0.9896498539276635
2014-08-08,1,0.0035825797455179826,0.004368677660230544,-0.0021400005519755607,0.009142023872203725,0.9905419283582481
2014-08-12,1,0.0044263683361742984,0.005325810612187992,-0.0013213738953699694,0.008227121651249015,0.9925795282593569
2014-08-14,1,0.004483258692025175,0.005365057455703794,-0.003413232407504195,0.008227121651249015,0.991504380870988
2014-08-18,1,0.004583713638633514,0.00538282189404307,-0.00423743054790396,0.007943017781070611,0.9907861017324394
2014-08-20,1,0.003990795708065563,0.004650966792521312,-0.00423743054790396,0.008570397598688948,0.9893236358014185
2014-08-22,1,0.004462404174448346,0.005249892315850416,-0.005470310420465967,0.008570397598688948,0.9885241333711544
2014-08-26,1,0.004525428655382554,0.005214767100838344,-0.011473463311391504,0.008570397598688948,0.9877930210326114
2014-08-28,1,0.0028908500894263846,0.0032540683843693724,-0.011032325679591469,0.010171851714523523,0.9873630479148441
2014-09-02,1,0.0035923512473645582,0.004074582044016431,-0.011032325679591469,0.010186464573773181,0.9871135455055456
2014-09-04,1,0.002119418543315923,0.0023231884807471456,-0.005208286553230873,0.010186464573773181,0.9885552345529259
2014-09-08,1,0.003263907114657457,0.0036620468847171515,-0.005208286553230873,0.010186464573773181,0.9888231118292083
2014-09-10,1,0.0037743777887699072,0.004291971549817004,-0.010822391823888073,0.010774442181460083,0.9878533856176938
2014-09-12,1,0.0035190292448623642,0.004042271493063555,-0.009374574056162075,0.010774442181460083,0.9883152220070144
2014-09-16,1,0.002584369036554406,0.002915224622326506,-0.004529007585298153,0.010774442181460083,0.9891885513922787
2014-09-18,1,0.0038952479574909655,0.00434130734647659,-0.009374574056162075,0.010774442181460083,0.9895470640778808
2014-09-22,1,0.0031114084050759376,0.003453443930406035,-0.009374574056162075,0.010996624002613128,0.9892261311434001
2014-09-24,1,0.0033126458531940258,0.0037069936017397305,-0.009374574056162075,0.010996624002613128,0.986791097800053
2014-09-26,1,0.003437270232781166,0.003833992100783848,-0.004529007585298153,0.010996624002613128,0.9877653067051794
2014-09-30,1,0.0036117013150004282,0.004029334329790801,-0.0030813132332502173,0.014704471753936087,0.9873482568727004
2014-10-02,1,0.0038295702877261255,0.004316720895761184,-0.002818051678006877,0.014704471753936087,0.9876117535207829
2014-10-06,1,0.0033083953656259163,0.0036234290342963184,-0.0031605845696574394,0.014704471753936087,0.9874484542657606
2014-10-08,1,0.0032340811024380513,0.003541327604166913,-0.0008949277296405811,0.014704471753936087,0.9879780136981761
2014-10-10,1,0.003060463002646724,0.0033537644038623415,-0.0013843796735045983,0.014704471753936087,0.9880717383089035
2014-10-14,1,0.0035553542800020516,0.003947789045022208,-0.0023973329455008003,0.014704471753936087,0.9880262473372746
2014-10-16,1,0.004384472612035467,0.0049446153403768095,-0.0013843796735045983,0.012677617119314994,0.9895520002014712
2014-10-20,1,0.0037205837372188922,0.004117748606398103,-0.0023973329455008003,0.010471517314695169,0.988891736111197
2014-10-22,1,0.0014337632857029394,0.0014539051189518585,-0.004419193342087755,0.007394274317664375,0.9925493954806053
2014-10-24,1,0.0013859124684257964,0.00141145204529674,-0.0054604736190802155,0.007394274317664375,0.9915718257866311
2014-10-28,1,0.003052978115166473,0.00332022195634494,-0.0054604736190802155,0.006280881139277745,0.9913431983568926
2014-10-30,1,0.0030053083029449525,0.003262602124601102,-0.0054604736190802155,0.010167828036767136,0.9906932519944891
2014-11-03,1,0.0026782893463037616,0.0028513672754613235,-0.005945900943448842,0.011094454170859535,0.9892498065265001
2014-11-05,1,0.0036743697883493453,0.0040313107823047,-0.005945900943448842,0.011451926121075094,0.9885570217463022
2014-11-07,1,0.003712523751350396,0.004119733513461649,-0.005945900943448842,0.011485567210670043,0.9886430539599276
2014-11-11,1,0.003312071420738986,0.003636454227221023,-0.005999844731372174,0.01372618510033155,0.987846242928492
2014-11-13,1,0.003502768133268983,0.003843537327354816,-0.007212592778237251,0.01372618510033155,0.9866565376915603
2014-11-17,1,0.0019947758805334078,0.0021244085445156413,-0.0054604736190802155,0.01372618510033155,0.9883939361880419
2014-11-19,1,0.0009256029703605115,0.0009897255908369402,-0.0023389912158246927,0.017265218414882783,0.9864921905502875
2014-11-21,0,-4.925440577490151e-05,0.0001814831015086077,-0.0023389912158246927,0.017265218414882783,0.9873348508133564
2014-11-25,-1,-0.0003376285643548573,-2.3283856208973107e-06,-0.000300049213108032,0.01416471755787143,0.9882325312355047
2014-11-28,-1,-0.0004949950371701452,-7.254286380645875e-05,-0.002833655728406612,0.013942899914770542,0.9881192360446502
2014-12-02,-1,-0.001869543326984793,-0.0012055592580896624,-0.0034644493028299543,0.012972859934450645,0.9893518687667651
2014-12-04,-1,-0.0006895970891235953,-0.00017192083412764922,-0.007254798390847685,0.011356030325107288,0.9894274210630378
2014-12-08,-1,-0.0005982402418686049,-9.463995208740836e-05,-0.01064585527085709,0.010139866529968766,0.9886536257475538
2014-12-10,1,0.000222756970571839,0.0005812253811457511,-0.01064585527085709,0.010139866529968766,0.9873404807917857
2014-12-12,1,0.001242787185103412,0.0013361508746543977,-0.007842040020911701,0.010195464201164559,0.9872437407734603
2014-12-16,1,0.0019362880131490745,0.001982574585723356,-0.01064585527085709,0.010195464201164559,0.9853180380642791
2014-12-18,1,0.003680241277404391,0.003955099672736768,-0.01064585527085709,0.009065188743236313,0.9858164879553319
2014-12-22,1,0.003126372183347045,0.0033090374802000125,-0.009821300839125531,0.010195464201164559,0.9842978292627954
2014-12-24,1,0.0032086399110873537,0.0033918829109680477,-0.009821300839125531,0.010046584992194133,0.9842259321638168
2014-12-29,1,0.002978548680178628,0.0031362415545276006,-0.009340755816552337,0.005869079310915891,0.9845531340415127
2014-12-31,1,0.00198744213442463,0.002016455922600566,-0.009340755816552337,0.012466710476593071,0.9835787621527216
2015-01-05,1,0.000669461626375282,0.0008245226042589489,-0.007567188543667849,0.01439571962148187,0.9846843704221795
2015-01-07,1,0.00015488900596297215,0.00036907895759531707,-0.006049596641843307,0.025910149867908277,0.9833534985967471
2015-01-09,1,0.0023000105931143254,0.0023847217494554255,-0.007567188543667849,0.023524483115740742,0.9841300621026535
2015-01-13,1,0.0025692658057229387,0.0026772945501584845,-0.006345015406085043,0.018254876700554742,0.9853414547533116
2015-01-15,1,0.001203144258709459,0.0012811448685662852,-0.006246786264810868,0.018254876700554742,0.9860296933704967
2015-01-20,1,0.0023648131559761026,0.0024779455259978022,-0.008158757412570534,0.01284617168327604,0.9862149756953446
2015-01-22,1,0.002981134660190255,0.0031340595728969194,-0.008974181827230749,0.01165657037793885,0.9874368609370089
2015-01-26,1,0.002975484838416762,0.0031505893760731306,-0.008974181827230749,0.0123799986131503,0.9872864568826843
2015-01-28,1,0.001782320062983164,0.0018099396871095689,-0.007576937837012075,0.013816776335985003,0.9872725012612007
2015-01-30,1,0.0032642830625791066,0.0034694604195530452,-0.008974181827230749,0.013816776335985003,0.9877080217580161
2015-02-03,1,0.0030521563556318073,0.0032261945625949064,-0.007576937837012075,0.01439549378834188,0.9863136713272777
2015-02-05,1,0.004573696720396224,0.004897710328208111,-0.009026019416635686,0.013816776335985003,0.9865951886650748
2015-02-09,1,0.003872511812283307,0.004074674691096991,-0.008127016680850313,0.012885477748480161,0.9872433148974261
2015-02-11,1,0.004892901089556592,0.005327907328842135,-0.008127016680850313,0.013644687302591592,0.9868806759393922
2015-02-13,1,0.004349912910604386,0.004662867284377503,-0.007643426246566029,0.013644687302591592,0.9872629679939738
2015-02-18,1,0.0037856055667857907,0.004016876999261884,-0.007326393482017362,0.013644687302591592,0.9884133438233981
2015-02-20,1,0.0030552437863525673,0.0031984795048631827,-0.003981546875929675,0.013816776335985003,0.9889086554733107
2015-02-24,1,0.003331944267657561,0.0035235500002225592,-0.007554078702999411,0.013644687302591592,0.9876604819321776
2015-02-26,1,0.003412959324500401,0.003597962666120906,-0.00946585171929092,0.012840619668708038,0.9867136440953906
2015-03-02,1,0.0034054849902268114,0.0036086080948893695,-0.007554078702999411,0.012840619668708038,0.9869171168847723
2015-03-04,1,0.004435395125764272,0.004761404257396678,-0.00946585171929092,0.008726331241933746,0.9871022921688376
2015-03-06,1,0.0042041867779989885,0.004480379038450551,-0.006442085593657113,0.011221932102813094,0.9883157243534406
2015-03-10,1,0.004200333994584289,0.004480272636319882,-0.0017248886623045102,0.01147500195418357,0.9885809182289413
2015-03-12,1,0.004753236662050327,0.005114070608495867,-0.003424945717238112,0.009566922891283757,0.9886343348348866
2015-03-16,1,0.004399913889606961,0.004710584017368621,-0.0009285527385931834,0.011336535022762165,0.9885548372993297
2015-03-18,1,0.0037929650320002407,0.0038983394846434693,-0.004015139685532266,0.01322807850939986,0.9874773037293989
2015-03-20,1,0.004433258508346858,0.004651241334809426,-0.00935203730831832,0.01322807850939986,0.986158908895892
2015-03-24,1,0.0033595779928112177,0.0034923085636002354,-0.004015139685532266,0.013965856249420042,0.9865525937435502
2015-03-26,1,0.002070907755470753,0.0021081722514454428,-0.004015139685532266,0.013965856249420042,0.9874198023006854
2015-03-30,1,0.003204799590474075,0.003310122343548059,-0.004015139685532266,0.013965856249420042,0.9878230266135127
2015-04-01,1,0.0016809657513057875,0.0017407508728659066,-0.008301274387448002,0.013965856249420042,0.9876495276146329
2015-04-06,1,0.00244717681760379,0.002455736984203448,-0.008681204168905134,0.01322807850939986,0.9881471246919127
2015-04-08,1,0.0029641783403745233,0.0030249286594383924,-0.009103294240035517,0.010136731716074317,0.9876335162716682
2015-04-10,1,0.003122970301019781,0.003217577101044377,-0.009103294240035517,0.013121762829698683,0.9873214687549278
2015-04-14,1,0.0024999073428403815,0.0025727973638071462,-0.009103294240035517,0.013455482507094359,0.9872540811854263
2015-04-16,1,0.00198449993247035,0.002152947448698307,-0.009103294240035517,0.013497401298356493,0.9878543294648188
2015-04-20,1,0.0009302056031735776,0.0012351683033530888,-0.008681204168905134,0.013497401298356493,0.989437563013556
2015-04-22,1,0.0009418213077097939,0.0012175459019166603,-0.005705565549266069,0.008739438634876822,0.9903502451020424
2015-04-24,1,0.0007685910589492543,0.0010304007162898808,-0.004265941543883551,0.008739438634876822,0.9904444890331449
2015-04-28,1,0.001131100619922815,0.0013731800010624237,-0.005705860253025326,0.008739438634876822,0.9893380885669765
2015-04-30,0,-0.0003032198782391877,5.443414359841887e-05,-0.004265941543883551,0.008739438634876822,0.9914717926369413
2015-05-04,-1,-0.0008012125004182788,-0.0003954152276487476,-0.004265941543883551,0.008739438634876822,0.9915210752509469
2015-05-06,-1,-0.0012559648014558527,-0.0008153920535432936,-0.004856159972379664,0.00766178707564608,0.991848650628502
2015-05-08,-1,-0.001327693245968323,-0.0008541519586768478,-0.004856159972379664,0.003332193103616451,0.9924294028166771
2015-05-12,-1,-0.0009303179052517351,-0.0004991913730303091,-0.005563228444808933,0.003332193103616451,0.9920315905599556
2015-05-14,1,0.0006270489495289269,0.000782312731865055,-0.005563228444808933,0.0020177069745532907,0.9919837472116043
2015-05-18,1,0.0010006033482486932,0.001137680751191132,-0.005563228444808933,0.0022783973578457484,0.992334176148754
2015-05-20,1,0.0006025183673575594,0.0007771517877699621,-0.005563228444808933,0.005668755855320936,0.991944217483094
2015-05-22,1,2.272584963692128e-05,0.0002770731594545912,-0.005563228444808933,0.009363673742055094,0.9891427673438329
2015-05-27,1,0.00029801749272904477,0.0005424737913447593,-0.004523384455872085,0.010049998271826862,0.9903473774796597
2015-05-29,-1,-0.0013149661152943959,-0.0007982448117807761,-0.004435344014318186,0.010049998271826862,0.9902178712697414
2015-06-02,-1,-0.0018601306086632778,-0.001258411312648484,-0.004435344014318186,0.010049998271826862,0.9881191565372137
2015-06-04,-1,-0.001941665010333764,-0.0014114757947259451,-0.0032041628291374627,0.011640832744871366,0.9877910231198769
2015-06-08,-1,-0.0019837376958196998,-0.0014628127739910604,-1.827797052259266e-05,0.014402003205533765,0.986346261018175
2015-06-10,-1,-0.002713380673342292,-0.002050900575759372,0.0011843443677209845,0.016817816292816586,0.9859151472736805
2015-06-12,-1,-0.0025419622269704603,-0.001936899646706821,0.0026166835762593934,0.019476086228943694,0.9837433008645279
2015-06-16,-1,-0.0015816763321898572,-0.001140345056080856,-0.0033697927427445993,0.019476086228943694,0.9841735705026304
2015-06-18,-1,-0.0009629124230150002,-0.000583730442644608,-0.0033697927427445993,0.019476086228943694,0.984642308525232
2015-06-22,1,0.0011132638823511327,0.0012864060636149568,-0.005481584590617585,0.01224096756326492,0.9875968565699427
2015-06-24,1,0.002475291565466646,0.0025274935120498886,-0.007389219918924249,0.008700261932595437,0.9869499282759483
2015-06-26,1,0.002030380590915965,0.002048622158544432,-0.008670289430503273,0.015008850601344612,0.9860057165069561
2015-06-30,1,0.0014181403055472412,0.0014390111123273276,-0.007389219918924249,0.015008850601344612,0.9881938925016616
2015-07-02,1,0.0018267136665018125,0.0018862227569441566,-0.008670289430503273,0.009291611486532795,0.9884489507972384
2015-07-07,1,0.002944718358124236,0.003166893928207152,-0.009904728899098032,0.005719947592725329,0.9889225955781321
2015-07-09,1,0.003597202282570511,0.0039048381877949162,-0.010431473662487346,0.005719947592725329,0.9876528262633668
2015-07-13,1,0.003932410407759182,0.004255084591894985,-0.009904728899098032,0.002200158727068911,0.989374215434769
2015-07-15,1,0.0026343150867634436,0.0027310729703506637,-0.010129024171816109,0.002200158727068911,0.9898464631172668
2015-07-17,1,0.0031443953447625856,0.003329734364130436,-0.010129024171816109,0.002200158727068911,0.9891161463014208
2015-07-21,1,0.002700876770515897,0.002838932780280826,-0.010129024171816109,0.005719947592725329,0.9895278066158255
2015-07-23,1,0.0016217782129767917,0.0016364146282314784,-0.010129024171816109,0.006265158070278045,0.9901604019553492
2015-07-27,1,0.002183792693457933,0.0023110458464715906,-0.011536359008403631,0.005301540033415115,0.9876401624205655
2015-07-29,1,0.0019398903719906675,0.002058994382471056,-0.011536359008403631,0.006265158070278045,0.9866175601920868
2015-07-31,1,0.001735828853497691,0.0018312358808455975,-0.010561023699578164,0.00674848103979238,0.9869364896083048
2015-08-04,1,0.0016048444797944319,0.0017112312800232525,-0.011655318596955296,0.010073242534264282,0.9863301664407724
2015-08-06,1,0.0018587601856623287,0.001989756114398761,-0.009342967092384651,0.010073242534264282,0.9852349285085981
2015-08-10,1,0.0017051626462486454,0.001832358307438079,-0.011655318596955296,0.012515655582907279,0.9841871093198211
2015-08-12,1,0.0013022273524869298,0.001415305391915279,-0.009342967092384651,0.012515655582907279,0.9852129856394158
2015-08-14,1,0.0009559640942452749,0.0009631638024110589,-0.008674438609316904,0.010073242534264282,0.986239318200846
2015-08-18,1,0.000583682451538098,0.0006863117337940598,-0.008674438609316904,0.00674848103979238,0.9866793401237972
2015-08-20,1,0.0008423147324612659,0.0008572395648530323,-0.008422798107075186,0.006399823364737444,0.9870074049409239
2015-08-24,-1,-0.0029329291355552987,-0.002403197649199511,-0.005290373812352401,0.007969739971747752,0.9895742591910731
2015-08-26,-1,-0.0017735468915465588,-0.0014313257369115658,-0.005901577862130757,0.007969739971747752,0.9887102107539024
2015-08-28,-1,-0.0011140061647232848,-0.000890608172795673,-0.010508050758651974,0.009173013204394242,0.9858215222047684
2015-09-01,-1,-0.0009452725981967877,-0.0007492246549831928,-0.010577722820129497,0.009955297968114691,0.9839736864794765
2015-09-03,1,0.000986497701199309,0.0010447403802126838,-0.010577722820129497,0.010965773904167142,0.9858942878926916
2015-09-08,1,0.0011176042055571138,0.0012002949576819617,-0.010577722820129497,0.010965773904167142,0.9846759975939531
2015-09-10,1,0.0010415176685204925,0.0010863142393835934,-0.010577722820129497,0.013250194220375959,0.9838391871490533
2015-09-14,1,0.0008825670806667118,0.000900875938446011,-0.010577722820129497,0.017186412407679767,0.9825327384178171
2015-09-16,1,0.0008018697689088873,0.0008137423516178445,-0.013303170268802872,0.017186412407679767,0.9812696611231633
2015-09-18,1,0.0006988596434712235,0.0007111038768212005,-0.013303170268802872,0.020826834986564537,0.9807199461826815
2015-09-22,-1,-0.0005478612277009783,-0.00033064765539534747,-0.010929671365110746,0.020826834986564537,0.9810411204364472
2015-09-24,-1,-0.00045735766342346604,-0.0002238170992720775,-0.012470869284384657,0.020826834986564537,0.9773990479310889
2015-09-28,-1,-0.0018610631422796733,-0.0014337506261172782,-0.00821955293165963,0.020826834986564537,0.977203691330069
2015-09-30,-1,-0.0024328908410383176,-0.0019552124392040447,-0.006736101987929329,0.02112249945500217,0.977334491714674
2015-10-02,-1,-0.0013504817393383641,-0.0010237103586065665,-0.00821955293165963,0.023893981611632153,0.9767494800117026
2015-10-06,-1,-0.0018136638158401778,-0.0014539207663311295,-0.00821955293165963,0.023893981611632153,0.9783886827416475
2015-10-08,-1,-0.000576869898422997,-0.0003961907368011349,-0.00821955293165963,0.023893981611632153,0.9792420960972539
2015-10-12,-1,-0.000283998951997409,-0.0001192023229268317,-0.00700066430881034,0.01236023111428739,0.9800567138964896
2015-10-14,-1,-0.0016276632602844233,-0.0012891127412526964,-0.0063472993775023166,0.015073053210141059,0.9802030502043556
2015-10-16,-1,-0.0003603057487489527,-0.00019850130765839829,-0.009016187099277834,0.009390799687658657,0.9804571978813298
2015-10-20,-1,-0.0009139015277108656,-0.0006681890357777387,-0.007849779267996798,0.01458085624592986,0.9793707150208836
2015-10-22,-1,-0.003396815947728915,-0.002860705070390042,-0.0063472993775023166,0.013697782177064481,0.9840742090132854
2015-10-26,-1,-0.0013240084920371738,-0.0009872082465268053,-0.0063472993775023166,0.013697782177064481,0.986158478621587
2015-10-28,1,0.00017800323054040462,0.000348494503442696,-0.007849779267996798,0.010321215795259672,0.987704976251878
2015-10-30,1,0.0004581634105306942,0.0005978284864369783,-0.007002377726691754,0.010321215795259672,0.9886119324462307
2015-11-03,-1,-0.0007159580528002451,-0.0004281194520922042,-0.004155955494577474,0.010321215795259672,0.9895986543148138
2015-11-05,-1,-0.0006019609321641559,-0.00034359090339677206,-0.0034804807545312454,0.0163653747694494,0.9865631539797982
2015-11-09,-1,-0.0002185326742891292,-3.7624199629889975e-05,-0.0035164250993858902,0.0163653747694494,0.9869312956546578
2015-11-11,1,0.0017225184267186302,0.0019070825982468204,-0.0062703179495206115,0.0163653747694494,0.9861393163870076
2015-11-13,1,0.0011558471753923194,0.0013053013331051242,-0.0036690255688472282,0.0163653747694494,0.9856911623186605
2015-11-17,1,0.002077490574533978,0.0023382745148738376,-0.0036690255688472282,0.01530747353932891,0.9864047396014071
2015-11-19,1,0.001818797776293105,0.0019534851603899353,-0.00910609679697556,0.012269687553545875,0.9851939474739306
2015-11-23,1,0.003246695202496943,0.0036028694663759256,-0.00910609679697556,0.008527520875287903,0.9857441951743791
2015-11-25,1,0.0032544494553369088,0.0036714437275346262,-0.007866239975205918,0.012269687553545875,0.9841337673450268
2015-11-30,1,0.0038207938085160938,0.00435335036277158,-0.00616775600405024,0.013780352553000854,0.9842237890910753
2015-12-02,1,0.003989176353030813,0.0045853537080911885,-0.0113790059258691,0.013780352553000854,0.9832413190753466
2015-12-04,1,0.005835303845171462,0.006633492630837673,-0.011959010160233069,0.008383174408298081,0.9843058911395889
2015-12-08,1,0.005657420257120079,0.006455566765782156,-0.013003855631419087,0.008383174408298081,0.9834250684935967
2015-12-10,1,0.0042059517740268,0.004785634158176637,-0.0122018801690389,0.008427925814822199,0.9848723370441319
2015-12-14,1,0.0034497461351814004,0.0038792049659327746,-0.0122018801690389,0.007427047146871145,0.9848024534636342
2015-12-16,1,0.0035818157804303396,0.00402413266119612,-0.013224861993199197,0.007427047146871145,0.9834732108809933
2015-12-18,1,0.002131565268917916,0.002382681776104659,-0.0122018801690389,0.007874801078860754,0.9854929136510739
2015-12-22,1,0.0019583208327376834,0.0021753826729847296,-0.01270501198350975,0.010222726326834835,0.9848937685558823
2015-12-24,1,0.003619497563324899,0.004035236972396423,-0.013044200849404709,0.010222726326834835,0.9860215954845458
2015-12-29,1,0.004580014114431492,0.005135964223305648,-0.013044200849404709,0.010222726326834835,0.9838752130206508
2015-12-31,1,0.0035660584856922794,0.003970687509275908,-0.013044200849404709,0.013971108273646657,0.9833636285450089
2016-01-05,1,0.002601665872963933,0.0028312785357950576,-0.01253594948611733,0.013971108273646657,0.9835648129327704
2016-01-07,1,0.0017378231870242556,0.001868297251269255,-0.013044200849404709,0.013971108273646657,0.9818268709225454
2016-01-11,1,0.00169768460378777,0.0018394403120313026,-0.013044200849404709,0.015116671819920987,0.9814747881965149
2016-01-13,1,0.00024439424956010705,0.00031043108938588813,-0.013044200849404709,0.015116671819920987,0.9821076202410426
2016-01-15,-1,-0.0020469559640118326,-0.0015644596964889848,-0.012083715316892963,0.019486066600086872,0.9819970188081352
2016-01-20,-1,-0.0012927735323291195,-0.0009205941846200179,-0.013044200849404709,0.024086488669367166,0.98043863892852
2016-01-22,-1,-0.0013529545739477608,-0.000976638856356576,-0.013605695669915778,0.024086488669367166,0.979582075696035
2016-01-26,-1,-0.0010291053938680397,-0.000692511830624727,-0.012814272634796453,0.026664062104437513,0.9791922416628908
2016-01-28,1,0.00260323949439075,0.002801185604619086,-0.012814272634796453,0.02123869990422903,0.9812895848720704
2016-02-01,1,0.003658982590942707,0.003993845394653391,-0.01295686331800248,0.01853680367837416,0.9824884980074434
2016-02-03,1,0.0029831182751639197,0.0032338746758722448,-0.01295686331800248,0.01853680367837416,0.9828496998242142
2016-02-05,1,0.00038193315171078916,0.0004735927463122066,-0.011867437866255198,0.02123869990422903,0.9815690462898226
2016-02-09,1,0.0005236247944802799,0.0005933708909474208,-0.010212312650362425,0.02123869990422903,0.9817582778249324
2016-02-11,-1,-0.00024388417890913033,-5.5424451676490036e-05,-0.008358958158763152,0.025872528087161867,0.98105835644533
2016-02-16,1,0.0012586722558050809,0.001286547314256502,-0.009107250270460405,0.021668362571477064,0.9825299019305759
2016-02-18,1,0.001755218478085788,0.0018106959537309009,-0.008190350243140122,0.015776353297404278,0.9847936445658095
2016-02-22,1,0.0007784036346034067,0.0008984347109978381,-0.008190350243140122,0.014065494014452042,0.9858788286997185
2016-02-24,1,0.001781342941573623,0.0018311407859013355,-0.008190350243140122,0.008488292628837735,0.987173844656825
2016-02-26,1,0.003209213887783514,0.0033821539225464543,-0.008190350243140122,0.006686389353224865,0.9876879738363653
2016-03-01,1,0.0021179772763837,0.0021389461223620203,-0.007866397233168322,0.008540715326806742,0.9874531033020401
2016-03-03,1,0.0030712361791078984,0.0032138554160240883,-0.007866397233168322,0.010946714569956615,0.9864802661254048
2016-03-07,1,0.0035258962015399403,0.003749017590922791,-0.008190350243140122,0.007501122178641599,0.9878960115479419
2016-03-09,1,0.002819694873327411,0.0028712375015051824,-0.008190350243140122,0.007501122178641599,0.9876942514860173
2016-03-11,1,0.0037227979186788447,0.003942015405059719,-0.009475333940173877,0.005747596168272981,0.9879487418323043
2016-03-15,1,0.0027206393451132465,0.0027784702715846583,-0.008759242479103408,0.007501122178641599,0.9880645299755676
2016-03-17,1,0.000909980472875164,0.0012177818930240486,-0.0087980972409494,0.007501122178641599,0.9879249699685541
2016-03-21,1,0.0018117612866569077,0.0018895891712316505,-0.007996805327358749,0.010816337531137645,0.9880120720777289
2016-03-23,1,0.002196346643111631,0.002249772635223272,-0.007996805327358749,0.015055897515327543,0.9871987287009966
2016-03-28,1,0.0021585025638581586,0.0022265358004790355,-0.007996805327358749,0.015055897515327543,0.9871219004484413
2016-03-30,1,0.002201010499407384,0.002209287816910278,-0.0087980972409494,0.010816337531137645,0.9866333260546197
2016-04-01,1,0.003413702722008894,0.003575822941763257,-0.011281293045830487,0.007161323481488947,0.9867306823173767
2016-04-05,1,0.0014145374627289318,0.00151083260369549,-0.0087980972409494,0.007161323481488947,0.9882349967392046
2016-04-07,1,0.0019401937261652085,0.0019448332624157857,-0.008008902075449773,0.010557212799987713,0.9883529399449532
2016-04-11,1,0.00010482210206248733,0.00038737875553687305,-0.007098123506731247,0.013741738218099526,0.988383102686647
2016-04-13,1,0.0018516149705442345,0.0018734064825156249,-0.007098123506731247,0.012803069843680584,0.9890960082822672
2016-04-15,1,0.0018855880344893958,0.0018957115487236863,-0.007098123506731247,0.013741738218099526,0.9880476201140252
2016-04-19,1,0.0029099077662678714,0.003133712643687311,-0.008501488121506737,0.013913024366446038,0.9877872624867181
2016-04-21,1,0.003046592539102666,0.0032488787721717018,-0.008501488121506737,0.013913024366446038,0.9883377525873668
2016-04-25,1,0.0030593857547836006,0.0032717163800720754,-0.008501488121506737,0.013913024366446038,0.9886463220471579
2016-04-27,1,0.0019090147557214857,0.0019510221378334879,-0.0035739657589944763,0.014768236517682273,0.9883010274752713
2016-04-29,1,0.0022629574392627914,0.002508458487541436,-0.001526295671755178,0.014768236517682273,0.9887964495598933
2016-05-03,1,0.0013810397469556568,0.0014850054961980308,-0.001526295671755178,0.014768236517682273,0.9891706110239611
2016-05-05,1,0.0016730421951804614,0.0017303657863172893,-0.001526295671755178,0.013483753091271118,0.9902907969846634
2016-05-09,1,0.0022131155403086744,0.002313309068875602,-0.0027121109575829554,0.012659979418622277,0.9902889507895558
2016-05-11,1,0.0026200993146803537,0.0027865910131902698,-0.005628718172421278,0.012802881948184772,0.9899713487819547
2016-05-13,1,0.0021124402226408968,0.0021208841330161592,-0.003194665884889016,0.011461595444714036,0.9912849994408861
2016-05-17,1,0.001974030951856177,0.0020103350293658954,-0.003077151807635827,0.010966297303149899,0.992198244663029
2016-05-19,1,0.0036175193289306605,0.003926191901664742,-0.004200021300125798,0.010001405167403941,0.9920593266080141
2016-05-23,1,0.004353431228553079,0.004818160043972407,-0.005628718172421278,0.007607527561023638,0.9914893582517065
2016-05-25,1,0.0052467322520028704,0.005761864709556697,-0.005628718172421278,0.0058902152237438,0.9912099014229184
2016-05-27,1,0.004546343391378605,0.004936678510776875,-0.009514390891198026,0.00522713128089467,0.9891910482574574
2016-06-01,1,0.0037033124066967286,0.003904682229622684,-0.009514390891198026,0.0058902152237438,0.9881237412400913
2016-06-03,1,0.0035078333020778815,0.0036603775210004206,-0.010965503613460235,0.007607527561023638,0.9865844398876503
2016-06-07,1,0.0023781630895632505,0.0024545594446242274,-0.010008690316176586,0.00839781364866692,0.9857932383228426
2016-06-09,1,0.0018833973565292221,0.002068717900134286,-0.006911313194652227,0.009326502603192859,0.9858691238610394
2016-06-13,1,0.0017542932288294561,0.0019385706658902322,-0.007610536677548332,0.009326502603192859,0.9857185876387844
2016-06-15,1,0.001149616218054823,0.0014228062911709918,-0.007610536677548332,0.009326502603192859,0.9856117150509905
2016-06-17,1,0.0006084225920366293,0.000935679614885436,-0.006876090268221518,0.009326502603192859,0.9859853418162603
2016-06-21,1,0.0015357586568486175,0.0016125033344654004,-0.005298691457703034,0.014405345630172242,0.9862033999699075
2016-06-23,1,0.003629114768343257,0.003887255169099074,-0.005298691457703034,0.010172029151377692,0.9871872610246621
2016-06-27,1,0.000550830936947492,0.0007279401890629229,-0.0029880502879184394,0.010172029151377692,0.9899909505505008
2016-06-29,1,0.0004970183618663577,0.0008209546834145079,-0.0029880502879184394,0.010172029151377692,0.9903454195942553
2016-07-01,1,0.000649093453614588,0.0009628374625172147,-0.0015103049581129359,0.009711237355350589,0.9914926616899014
2016-07-06,1,0.0019083129015978867,0.0020977683547108304,-0.0015103049581129359,0.0062771800922133405,0.9933408859967172
2016-07-08,1,0.0030269833720134548,0.0030470725611938506,-0.000788801846792016,0.00492822685088321,0.9939554721768751
2016-07-12,1,0.002712336927695091,0.002721371428387783,-0.0013914770811425195,0.00492822685088321,0.9938306566616807
2016-07-14,1,0.0022418418909646303,0.0023236958402062784,-0.0008489863084979132,0.004307436813064933,0.9941141283648622
2016-07-18,1,0.002469057426367025,0.0024898695617544524,-0.000602139388735791,0.0058305059809422985,0.9941713966130854
2016-07-20,1,0.003350214816797101,0.0035542270965322293,-0.0008489863084979132,0.0058305059809422985,0.9938508069049252
2016-07-22,1,0.002968642007137469,0.0030790215930595367,-0.0008247837036026413,0.005976255538271058,0.9938157411202028
2016-07-26,1,0.0033056971273473664,0.0034974478253616526,-0.0013914770811425195,0.005504356870876461,0.9930421586198723
2016-07-28,1,0.004749066779798385,0.00514793671014972,-0.0013914770811425195,0.0041443638533463605,0.9941978866318272
2016-08-01,1,0.00486861097964412,0.0052840462863553185,-0.0013188692664567036,0.0041443638533463605,0.9943452449961396
2016-08-03,1,0.004887290241517559,0.005341164303209749,-0.0021218980448405146,0.004796061764314283,0.9943345257569107
2016-08-05,1,0.0045191319020006565,0.004879609560942633,-0.0021218980448405146,0.007442130392019109,0.9939618463673994
2016-08-09,1,0.0040198712594015145,0.004311226557163442,-0.001400822807748326,0.007442130392019109,0.9935030114361647
2016-08-11,1,0.0036252818712669234,0.003828348952069365,-0.0019231565831106115,0.009657799488580442,0.9929306820275194
2016-08-15,1,0.003679848455925989,0.0038532581748413,-0.002426298080070367,0.007442130392019109,0.9926169427927026
2016-08-17,1,0.0033409245790186333,0.0034524747210472016,-0.0019231565831106115,0.007532914168893909,0.9924499360515295
2016-08-19,1,0.0038344904755132224,0.004049122547088217,-0.002787946182336573,0.006088965819412386,0.9919728073846169
2016-08-23,1,0.0038070106254322455,0.004097382092615257,-0.0019231565831106115,0.007532914168893909,0.9925002557195494
2016-08-25,1,0.0028941739518623362,0.0029620008744840505,-0.0029998873240428487,0.007532914168893909,0.9915482240111714
2016-08-29,1,0.0031211849156278287,0.0032202718423236403,-0.005432641389146647,0.008110579507682125,0.9904183569575005
2016-08-31,1,0.002505659420540674,0.0025391222950461438,-0.011792365490976559,0.007465710041637581,0.98930926941901
2016-09-02,1,0.0035462708606292808,0.0036917413003662003,-0.011792365490976559,0.00388728610275559,0.9890458007785565
2016-09-07,1,0.0024363543643214905,0.002455712494132572,-0.011754246592339286,0.00388728610275559,0.9895403750078201
2016-09-09,1,0.0028476147315834783,0.002891506788775112,-0.011754246592339286,0.003146730512555646,0.9893641967679325
2016-09-13,1,0.0024479782613558818,0.002462218470990789,-0.011754246592339286,0.0007819995791512415,0.9894610719434185
2016-09-15,1,0.003015316006471841,0.0030948952342176655,-0.0119777306806976,-0.0012173278643505228,0.9893729556455995
2016-09-19,1,0.001601569264118214,0.0017592309018506116,-0.012107108356983495,-0.0012173278643505228,0.9900794553757956
2016-09-21,1,0.0012017683740495788,0.0014646583729291994,-0.012107108356983495,-0.002744437350096723,0.9896511956319415
2016-09-23,0,-0.0002539567733625065,0.00022239939890406416,-0.012242788698085927,-0.0012173278643505228,0.9903889855814743
2016-09-27,0,-8.158637909268327e-05,0.00032732228793445027,-0.011992751661071678,-0.0012173278643505228,0.9911501171330126
2016-09-29,-1,-0.0009123055950647876,-0.0004408549088661057,-0.011992751661071678,-0.0012173278643505228,0.9920750735155234
2016-10-03,-1,-0.0014687530898958724,-0.0009463313646428796,-0.011992751661071678,0.0026266206375931047,0.9924766115081506
2016-10-05,-1,-0.0021552187985389975,-0.0015664460697825114,-0.012242788698085927,0.0026266206375931047,0.9926210162867597
2016-10-07,-1,-0.0028562884732917376,-0.0021858073279345646,-0.012242788698085927,0.004501261637458474,0.9921698326973659
2016-10-11,-1,-0.003347321498575424,-0.002640926996748,-0.009962280557831552,0.006290190649656321,0.990890459290887
2016-10-13,-1,-0.0039748832453758015,-0.0031970124605049505,-0.008510414550909663,0.00853650464031214,0.9893964889162621
2016-10-17,-1,-0.0038078966261304295,-0.003131031894675379,-0.00716687160739082,0.014275485182333781,0.9877675381023949
2016-10-19,-1,-0.003536450566344095,-0.0028960309498616173,-0.00716687160739082,0.013589020492163536,0.987805993636574
2016-10-21,-1,-0.003948544150980377,-0.003257743088235278,-0.00716687160739082,0.014639986921601943,0.9866272987695766
2016-10-25,-1,-0.0038723100368664343,-0.0032022611337941963,-0.00521281371931713,0.014639986921601943,0.9869156413087992
2016-10-27,-1,-0.00441705325942741,-0.0036805005634616824,-0.004493190769351476,0.014639986921601943,0.9872577782356768
2016-10-31,-1,-0.004361154740042102,-0.003636545778207546,-0.004493190769351476,0.014639986921601943,0.9875068636630555
2016-11-02,-1,-0.005377447898402476,-0.004528004104104981,-0.00615118595872707,0.014639986921601943,0.9864370006341345
2016-11-04,-1,-0.004726856326920272,-0.003944312278988285,-0.006681565440037541,0.013589020492163536,0.9870661332307782
2016-11-08,-1,-0.0036656678227802476,-0.002989508402395288,-0.00851297251744559,0.013398409036674707,0.9875627828118966
2016-11-10,-1,-0.0028588959555223914,-0.002246106966811363,-0.006884483148859099,0.012762549805969367,0.9886012314247554
2016-11-14,-1,-0.0006287700505618097,-0.0003332411088973553,-0.006884483148859099,0.009821236857080168,0.9897379870603458
2016-11-16,-1,-0.002547606926845902,-0.0018692632300931474,-0.006884483148859099,0.009821236857080168,0.9890294854962013
2016-11-18,-1,-0.00047575219347747826,-0.00013069519639858295,-0.012364536242864176,0.007728152566136204,0.9890639491831787
2016-11-22,-1,-0.00044201691864526873,-0.00011593434775576553,-0.017837633838093482,0.007728152566136204,0.987314508385074
2016-11-25,1,0.0007146762948298064,0.0008073873591015936,-0.019556192632938115,0.007728152566136204,0.9861682352361993
2016-11-29,1,0.0006533726804471324,0.0007320894830326443,-0.019556192632938115,0.007728152566136204,0.9860489941703525
2016-12-01,-1,-0.0014753917826949544,-0.0011333124092695566,-0.02004936795094006,0.009132185100855275,0.9868149379569435
2016-12-05,-1,-0.0011495613802995353,-0.0008492895802646334,-0.02004936795094006,0.010240342907930581,0.9856493990577486
2016-12-07,-1,-0.001759096484422778,-0.0013604659684671083,-0.02004936795094006,0.010240342907930581,0.9857370233684261
2016-12-09,-1,-0.0004066086330612311,-0.00020342818602235818,-0.02004936795094006,0.007867854583086342,0.9864101529846259
2016-12-13,1,0.00011199008306275428,0.0002482460132679644,-0.02004936795094006,0.006857295822909977,0.9863431012171459
2016-12-15,-1,-0.00032796108234437794,-0.00015112249172112764,-0.012920681807466153,0.0038882892337756643,0.9879545883900445
2016-12-19,-1,-0.0011187048287826678,-0.0009368449328181055,-0.008269604667707178,0.006077086750055808,0.9892851193645884
2016-12-21,-1,-0.0027910959434288164,-0.0024382680892502187,-0.007362741498313234,0.007210663933143176,0.9904365498706047
2016-12-23,-1,-0.0042294236710787685,-0.003713387043233654,-0.005264626791473671,0.012581577405686873,0.9851266746453226
2016-12-28,-1,-0.0033484914156801412,-0.0029552172887340944,-0.0042214870962913615,0.018461909549192183,0.9843040210693197
2016-12-30,-1,-0.003831477726500107,-0.003369382152856203,-0.0034719034360361244,0.01988213254705174,0.9832117271925764
2017-01-04,-1,-0.0021258053755045508,-0.001871491461445722,-0.0034719034360361244,0.012798676548746116,0.9855164935232843
2017-01-06,-1,-0.0006231046991272114,-0.0005747353186120348,-0.0042214870962913615,0.012233556710166965,0.9861638472956442
2017-01-10,-1,-0.0008318671088313808,-0.0007621283855698709,-0.004999065344519403,0.012233556710166965,0.9857533153942222
2017-01-12,-1,-0.00040684946726584346,-0.00040049506304876137,-0.005886421383296046,0.012233556710166965,0.9856738144467768
2017-01-17,-1,-0.000811841809705448,-0.0007507920142454461,-0.004999065344519403,0.01617655150258736,0.9852763597884782
2017-01-19,-1,-0.0006613337909299873,-0.0006324376020190135,-0.003687756536219372,0.01617655150258736,0.9855347217934303
2017-01-23,-1,-0.0003264384284439013,-0.0002886526870056065,-0.0021382589295386037,0.01617655150258736,0.9862142691665957
2017-01-25,1,0.00391389144168937,0.004522662148997205,-0.0021382589295386037,0.009349712445952955,0.9919499969809875
2017-01-27,1,0.005071485874522567,0.0058815718158022195,-0.002555707135208838,0.00847041433946672,0.9926415460835809
2017-01-31,1,0.00599703969596354,0.0068819926197664395,-0.002555707135208838,0.007608703245006492,0.9932813176743741
2017-02-02,1,0.0062290254525168886,0.007168415119563721,-0.004999065344519403,0.008866976965116843,0.9917494006704811
2017-02-06,1,0.006312559674919609,0.0072356384025296224,-0.005059219556820461,0.007608703245006492,0.9917703824119329
2017-02-08,1,0.006092885594208318,0.007029466149414399,-0.0026748255387992245,0.007608703245006492,0.9924817791477974
2017-02-10,1,0.005627273564597379,0.006467553986346307,-0.002114498681544963,0.007608703245006492,0.9926549879155218
2017-02-14,1,0.006390563783298338,0.007359324413281954,-0.002515386114547751,0.006945242654389483,0.9922672669787113
2017-02-16,1,0.006284258958591323,0.007203008120686056,-0.003338044135613929,0.006183564151280248,0.9917488699176592
2017-02-21,1,0.006255139698621657,0.00715871163235938,-0.0042239245869469,0.0024154668684525722,0.9900445942860908
2017-02-23,1,0.006087249586088448,0.006912806274529814,-0.0051450334112409105,0.0024154668684525722,0.9896055897379774
2017-02-27,1,0.005706660840170793,0.006449771922639163,-0.0051450334112409105,0.0018589114718705487,0.9893122858300664
2017-03-01,1,0.005602403689122454,0.006287714619687834,-0.0051450334112409105,0.001640756947694532,0.9893552383803222
2017-03-03,1,0.00450091628463911,0.005005878250841133,-0.0044910102356354314,0.003928431968351163,0.9919104523049863
2017-03-07,1,0.0037800290653467387,0.004152353403251329,-0.0044910102356354314,0.003928431968351163,0.9922210804863578
2017-03-09,1,0.003353840132044535,0.0036323652210722792,-0.0044910102356354314,0.003928431968351163,0.9911805118349011
2017-03-13,1,0.0027353872185315415,0.002885611468691333,-0.0044910102356354314,0.004606180668778621,0.9916000924405277
2017-03-15,1,0.0025249976220794923,0.0026533893758199645,-0.005500746546809549,0.004606180668778621,0.9911211260283709
2017-03-17,1,0.001959691675002746,0.0019881453142155643,-0.00802668851139183,0.005368684534636979,0.9896402296524096
2017-03-21,1,0.0005699000811266969,0.0007148781196003295,-0.005500746546809549,0.005368684534636979,0.9912307986259464
2017-03-23,1,0.0006190034532157448,0.0007836969840019784,-0.004937237156654306,0.005368684534636979,0.9916213463707526
2017-03-27,0,-4.865049420469075e-05,0.0001997721896203487,-0.004493479190126312,0.005742205223417487,0.9920407538025792
2017-03-29,-1,-0.0007514881757176349,-0.00037994419835723743,-0.00409932985141522,0.007126095278250269,0.9895169857620795
2017-03-31,0,-0.00011696246089172439,0.00014994088994258305,-0.005508153410282192,0.006625356708117366,0.9892272838701558
2017-04-04,1,7.894688627558231e-06,0.00021436503464998102,-0.012031374740368932,0.006625356708117366,0.988257484153771
2017-04-06,-1,-0.0003313909434416282,-0.00014047049377623102,-0.006695414611807848,0.006625356708117366,0.9897523614445138
2017-04-10,1,0.0006332905200325429,0.000653005975217218,-0.010203875908299919,0.005812519046132689,0.9893620932697952
2017-04-12,1,6.0326570316162655e-05,0.00014696692560491604,-0.006233882542584888,0.006923465371997032,0.9897063698781632
2017-04-17,1,0.0007983460297847789,0.0008388116892700964,-0.006233882542584888,0.006923465371997032,0.9906717509215934
2017-04-19,1,0.0007732053686182858,0.0008058865247325751,-0.010946908072778035,0.006923465371997032,0.9891197508858646
2017-04-21,1,0.000987949182704857,0.001048509735698974,-0.010946908072778035,0.006923465371997032,0.988655294161501
2017-04-25,1,0.0008465085662930279,0.0008771703196839691,-0.010946908072778035,0.007559855317881305,0.9882350232252053
2017-04-27,1,0.0019884251381751886,0.0020942562880030624,-0.010946908072778035,0.009195937651190611,0.9890480262419817
2017-05-01,1,0.00133573937000057,0.0013622804836875765,-0.010946908072778035,0.009195937651190611,0.9889916388495279
2017-05-03,1,0.00013684697066207848,0.00026264547277484026,-0.007766428439064899,0.009195937651190611,0.9900555305180663
2017-05-05,1,0.0006312331199603476,0.0006674353725324786,-0.007766428439064899,0.009195937651190611,0.990010960930964
2017-05-09,1,0.0005073643494518375,0.0005412140126589661,-0.00790611251400124,0.011553583530435792,0.9882343551090993
2017-05-11,1,0.0004965799014427765,0.0005544438119700677,-0.00790611251400124,0.015411431671227037,0.9869286302034261
2017-05-15,-1,-0.00046372001095235777,-0.00022524621990696104,-0.0060828167590471814,0.015411431671227037,0.9870867928458906
2017-05-17,-1,-0.002655627986602697,-0.0020863668071208572,-0.0038123258939039327,0.015411431671227037,0.9879250369213955
2017-05-19,-1,-0.0026483909891969653,-0.0020298031139477646,-0.005458895037280467,0.013326342003922336,0.9883734137589818
2017-05-23,-1,-0.002728798930573355,-0.0020827523424111535,-0.0060828167590471814,0.012186982745697784,0.9882539002368004
2017-05-25,-1,-0.001849590660936153,-0.0012827503467388323,-0.0060828167590471814,0.009378161592909062,0.9903724906353297
2017-05-30,-1,-0.0021012878590763798,-0.0015592795602021054,-0.003954403188379598,0.009378161592909062,0.9905666428379937
2017-06-01,-1,-0.0017145460995679858,-0.00124410303195428,-0.003954403188379598,0.011175664673826274,0.9894229902110928
2017-06-05,-1,-0.002383989441544904,-0.0018150207641333374,-0.004520661242734642,0.011511673768712812,0.9884721965505647
2017-06-07,-1,-0.0017434534623275864,-0.0012457125306669424,-0.004520661242734642,0.011441333477351745,0.9874224605948408
2017-06-09,-1,-0.0008191334014031576,-0.00040731916579201397,-0.004520661242734642,0.009378161592909062,0.9888465341665668
2017-06-13,-1,-0.0004122355715328386,-3.4948642873898136e-05,-0.00824834817117983,0.00585279166599683,0.9893373889438842
2017-06-15,-1,-0.0005075846138994985,-0.00011109465615831557,-0.009703792732471453,0.00585279166599683,0.988604384748116
2017-06-19,1,0.0020451478132866422,0.002139255105138279,-0.009703792732471453,0.00585279166599683,0.988602663790715
2017-06-21,1,0.0013355228165155121,0.0013782925734707502,-0.004762818175229456,0.00917759321757626,0.9895728071571488
2017-06-23,1,0.0017908620823546358,0.001982568854817868,-0.00425470313248856,0.009676487501403194,0.9896907003082728
2017-06-27,1,0.0011342965153902842,0.0012458693153556315,0.00028371984447955707,0.011274240434305976,0.9886454400548873
2017-06-29,1,0.002407893768905413,0.0027106209740220626,0.00028371984447955707,0.011249506560005017,0.9898516583342979
2017-07-03,1,0.002007700348680481,0.00222057059248495,0.00028371984447955707,0.010714525776925426,0.9894063074253432
2017-07-06,0,-8.791237213829001e-07,5.554695050552383e-05,0.00028371984447955707,0.009676487501403194,0.9916468913224115
2017-07-10,1,0.0006671771747285108,0.0007291892394763704,-0.00045053705532048646,0.009676487501403194,0.9910983665097417
2017-07-12,1,0.0005819594916732764,0.0006507576413285932,-0.00045053705532048646,0.009676487501403194,0.9901607529035921
2017-07-14,1,3.3586711696821674e-05,4.205255565482774e-05,-0.0055983080588565505,0.009676487501403194,0.989334581677039
2017-07-18,1,0.0006819551794204842,0.0008011715669144073,-0.006762271857276113,0.008501238708150765,0.9897123323204203
2017-07-20,1,0.0010897167808088626,0.001264250161472779,-0.007466192652443538,0.007009284127742419,0.989960441147917
2017-07-24,1,0.0017676042363360535,0.0020636969233863716,-0.0156445669729244,0.007009284127742419,0.9888993958350454
2017-07-26,1,0.0029471527628270643,0.0033533137462579705,-0.0156445669729244,0.006569100956041097,0.9903288609486877
2017-07-28,1,0.0032201204202945127,0.0036432313146953386,-0.01744914421591915,0.005076624816099689,0.9895507238431547
2017-08-01,1,0.0024380960877895073,0.0027493717209755584,-0.0156445669729244,0.004263417733828565,0.990439941976039
2017-08-03,1,0.0024544653989707448,0.00275915957118755,-0.0156445669729244,0.005462363444962423,0.9900860160370791
2017-08-07,1,0.0017444840779187517,0.001944665201224192,-0.0156445669729244,0.0051420431915431405,0.9897390715619279
2017-08-09,1,0.0010518004670775076,0.0011442765974903442,-0.0156445669729244,0.003948543569201442,0.9882631696558775
2017-08-11,-1,-0.0011460563661892355,-0.0009075716314990412,-0.006144053479323287,0.00803697433662344,0.9893106262845994
2017-08-15,-1,-0.0008302043976870059,-0.0006565930978565833,-0.006144053479323287,0.00803697433662344,0.9893409510904775
2017-08-17,-1,-0.0012780943785848501,-0.0010272526862423197,-0.00879331330568989,0.00803697433662344,0.9890384972836885
2017-08-21,-1,-0.0013969673421861772,-0.0011323775937333378,-0.006144053479323287,0.007236307110073247,0.9901646756198168
2017-08-23,-1,-0.000561466322856831,-0.00041930588142621145,-0.00850192334959902,0.007107385861753602,0.9900050818612749
2017-08-25,-1,-0.0016291051459918183,-0.0013422546811668885,-0.00850192334959902,0.007629788764503601,0.9890663476904212
2017-08-29,-1,-0.002654248994794021,-0.002199759653831928,-0.010328379455018093,0.00803697433662344,0.9879430742606987
2017-08-31,-1,-0.0015676605230125927,-0.0012567158987141567,-0.010328379455018093,0.008199269683464523,0.9875335381846888
2017-09-05,-1,-0.0032089298000096784,-0.0026770924143786293,-0.0054156981575999436,0.008199269683464523,0.9879023574641127
2017-09-07,-1,-0.005535681374202686,-0.004754410876604419,-0.004297835120311707,0.009624922457199415,0.9887621125752227
2017-09-11,-1,-0.004589094695370045,-0.003922432589703084,-0.004297835120311707,0.009121246352493926,0.9894343634663199
2017-09-13,-1,-0.004165441358240412,-0.003565614827370992,-0.006444841697249758,0.01121389066918576,0.9887636502326741
2017-09-15,-1,-0.0045794341346601965,-0.003931194730996518,-0.006182405699969987,0.01121389066918576,0.9886207613575853
2017-09-19,-1,-0.002808452363897011,-0.0024968130315251363,-0.006182405699969987,0.01121389066918576,0.9889424335549801
2017-09-21,-1,-0.0033638098072985376,-0.0029480564110941753,-0.006182405699969987,0.011721918075863601,0.9880042529785787
2017-09-25,-1,-0.004264022118827039,-0.0036852602209473473,-0.005289715863922869,0.010412064262456864,0.9887119482654135
2017-09-27,-1,-0.004019228048875801,-0.0034814424233054874,-0.005690576915266207,0.009121246352493926,0.9875634132476213
2017-09-29,-1,-0.00253003770370765,-0.002158074930594756,-0.0065575243964457915,0.0073098136254094994,0.9885507238872464
2017-10-03,-1,-0.002164317443092505,-0.0018542937080735157,-0.008295446747836903,0.006484512944814731,0.9881053741386369
2017-10-05,-1,-0.0018011380782258233,-0.0015340605697409815,-0.008295446747836903,0.006484512944814731,0.9882120527601632
2017-10-09,-1,-0.002023916423613154,-0.0016643437191583834,-0.008295446747836903,0.006484512944814731,0.9879831832406911
2017-10-11,-1,-0.000972578202488501,-0.0007805971706538273,-0.00871995460960665,0.005811482403892196,0.9888130198160613
2017-10-13,-1,-0.0009006304350978519,-0.0007325703646604236,-0.011701959221345199,0.005568047467780424,0.9881206373938863
2017-10-17,1,6.484025660407083e-05,9.152437127783268e-05,-0.011701959221345199,0.0056015274342978375,0.9881329534302232
2017-10-19,-1,-0.0010588844033214322,-0.0009063016329113222,-0.009317091972759275,0.0056015274342978375,0.9884244975734457
2017-10-23,-1,-0.0003957161607374645,-0.0003281002090312371,-0.009317091972759275,0.006938326835061936,0.9871130717878907
2017-10-25,-1,-0.0031966028863640427,-0.0027866386199684244,-0.006548249077803547,0.011461866339140522,0.9882434999908701
2017-10-27,-1,-0.003511471508412025,-0.0031136664837831964,-0.003939542339109116,0.011461866339140522,0.9886152417454992
2017-10-31,-1,-0.002811078069695803,-0.002575217093551371,-0.002542577072024119,0.016181626965863137,0.9875853735105149
2017-11-02,-1,-0.0014793718939250335,-0.0014473947598783992,-0.003474487288996697,0.016181626965863137,0.9886602608707247
2017-11-06,-1,-0.00042221704508003434,-0.0002999967570929567,-0.004340387219309171,0.01412493098293235,0.9892845980096998
2017-11-08,-1,-0.00045821518331191024,-0.0003278699532593314,-0.004340387219309171,0.01412493098293235,0.9894236287677003
2017-11-10,-1,-0.002036250460589585,-0.0019184302619109448,-0.002542577072024119,0.01412493098293235,0.9898552217993293
2017-11-14,-1,-0.0018761303319080828,-0.0017719977872594672,-0.0026936526210738724,0.01412493098293235,0.9900275071288968
2017-11-16,-1,-0.0016242049980841602,-0.001516526801587073,-0.0041627707484743525,0.0104375436446131,0.9912124553610535
