JNU-Tangyin/eata/results/Batch4_SP500/Batch4_SP500-APH.csv
Date,Action,Predicted_Q25,Predicted_Q75,Actual_Q25,Actual_Q75,RL_Reward
2010-12-14,0,0.0,0.0017397522165934712,-0.005616351645796224,0.005268132202276667,0.9947594500314443
2010-12-16,0,0.0,0.0,-0.005226600026454588,0.0034592123560971922,0.9942287879967802
2010-12-20,0,0.0,0.0,-0.0043273773113009974,0.005268132202276667,0.994070049595075
2010-12-22,1,0.0018255667875823672,0.001960169432760746,-0.005226600026454588,0.007621217951357969,0.9928914482416072
2010-12-27,1,0.0016941070326945626,0.0018032406645936926,-0.0043273773113009974,0.008467450473129582,0.9922379682731575
2010-12-29,1,0.0013810169379395974,0.0014174785132348342,-0.0043273773113009974,0.009919163361571514,0.9910091997246515
2010-12-31,0,0.0,0.0,-0.005226600026454588,0.009919163361571514,0.989311575937053
2011-01-04,0,0.0,0.0,-0.0043273773113009974,0.009948855826563723,0.9892726205847002
2011-01-06,-1,-0.001481014229937779,-0.0008943173262673458,-0.0010412780290336545,0.012344148170201444,0.9885749284105558
2011-01-10,-1,-0.001153754609712308,-0.0006299988865394921,-0.0047398044409554495,0.012344148170201444,0.9884976531888161
2011-01-12,-1,-0.001206641325367557,-0.0006532348601815381,-0.0047398044409554495,0.012344148170201444,0.9885035481985996
2011-01-14,-1,-0.002223528861843493,-0.0015067608635833604,-0.0016622968415108779,0.012344148170201444,0.9877495546051234
2011-01-19,-1,-0.0012991931766135885,-0.0007098003840087818,-0.006695714528078242,0.011273141943180269,0.9883559670811
2011-01-21,0,0.0,0.0,-0.002575971953843955,0.00925049895091829,0.9896417259263892
2011-01-25,0,0.0,0.0,-0.006695714528078242,0.0071961664227071015,0.9904755677251272
2011-01-27,0,0.0,0.0,-0.006695714528078242,0.006028132713471301,0.9916114259241884
2011-01-31,0,0.0,0.0,-0.006695714528078242,0.0071961664227071015,0.9918331886503613
2011-02-02,0,0.0,0.0,-0.006695714528078242,0.00925049895091829,0.9914166240854491
2011-02-04,0,0.0,0.0,-0.007557877687446779,0.0071961664227071015,0.991737409546567
2011-02-08,0,0.0,0.0,-0.006100077934680922,0.0071961664227071015,0.9917664245892489
2011-02-10,0,0.0,0.0,-0.007750356308477525,0.0044387849384574535,0.9913786041413898
2011-02-14,1,0.0010179551192435368,0.0010211830797964584,-0.010081288989674617,0.0029324581186821403,0.9912934221789863
2011-02-16,0,0.0,0.0,-0.010236614168097529,0.0044387849384574535,0.9907654622375303
2011-02-18,1,0.0014684219604611723,0.0014710798080075401,-0.010236614168097529,0.006000890560103028,0.989550043485939
2011-02-23,0,0.0,0.0,-0.010236614168097529,0.006000890560103028,0.9890320109228339
2011-02-25,1,0.001180734534878495,0.0012302138061228852,-0.010236614168097529,0.006000890560103028,0.9888498794791378
2011-03-01,1,0.0011272145634594062,0.001147685245103544,-0.00929531676420066,0.006000890560103028,0.9892271551058829
2011-03-03,1,0.001390300875216457,0.0014033633596306485,-0.010236614168097529,0.0047109804197793875,0.9899266995033569
2011-03-07,1,0.0010290087497732698,0.001057341265458228,-0.01139333917568348,0.0047109804197793875,0.9887966366897143
2011-03-09,1,0.0017978768063024219,0.001825959505274294,-0.01139333917568348,0.006000890560103028,0.9886755537666427
2011-03-11,1,0.0006484174699201367,0.0007426940503833146,-0.00929531676420066,0.006000890560103028,0.9902724332622613
2011-03-15,-1,-0.0007341085859412745,-0.00041459030231724757,-0.008061319007620346,0.006000890560103028,0.9905768204075444
2011-03-17,-1,-0.0014754950080533432,-0.0010856926054908015,-0.007491321496329278,0.0064648469040242415,0.9912056260876445
2011-03-21,1,1.6033848633242387e-06,0.00018813355333400182,-0.008061319007620346,0.003472514488908245,0.9904153355055395
2011-03-23,-1,-0.0018642072149992462,-0.0014315496847111535,-0.006114210956014448,0.0068037121551767785,0.9887907327979348
2011-03-25,-1,-0.0018252993933683926,-0.0014207622540280212,-0.005836144618771633,0.0068037121551767785,0.9891268399330094
2011-03-29,0,0.0,0.0,-0.004224339010657091,0.007489062143732447,0.9886191895306474
2011-03-31,0,0.0,0.0,-0.002976709331964166,0.007185076153469493,0.9895886026947281
2011-04-04,-1,-0.0006802841927708415,-0.0005579050446833616,-0.002976709331964166,0.007185076153469493,0.9911299871375931
2011-04-06,-1,-0.0007584343855842907,-0.0006110557595457198,-0.004224339010657091,0.005438142658630167,0.9907633363454975
2011-04-08,0,0.0,0.0,-0.004224339010657091,0.008833358291912584,0.9899658563017171
2011-04-12,0,0.0,0.0,-0.004224339010657091,0.009840006223638755,0.9882951169522567
2011-04-14,-1,-0.0012316847997507262,-0.0010320553883917628,-0.004336969905206098,0.008833358291912584,0.9889366897851674
2011-04-18,-1,-0.001464462463924675,-0.0012261572385276805,-0.004336969905206098,0.005528166357384678,0.9902476484638177
2011-04-20,-1,-0.0013446539714086056,-0.0010146730886770147,-0.005769177021329279,0.005528166357384678,0.992824453872491
2011-04-25,-1,-0.002004229666571036,-0.0015648735737503268,-0.006389847340540555,0.005528166357384678,0.9918966476114722
2011-04-27,1,0.0006540938097753034,0.0006586525328190954,-0.008317900645216153,0.004403146731554864,0.9914289423121843
2011-04-29,1,0.000530365258682871,0.0005422445222575378,-0.008317900645216153,0.006884116312224571,0.9910131337890058
2011-05-03,-1,-0.00016409409837444172,-4.7520011008439446e-05,-0.009012642278274844,0.006884116312224571,0.9906472746329473
2011-05-05,-1,-0.00019130861948395866,-0.00010129109817002272,-0.00932689167736385,0.006884116312224571,0.9907587862796295
2011-05-09,1,0.0003558597844316432,0.00038878405872985993,-0.00932689167736385,0.004060238248007758,0.9908419764477798
2011-05-11,0,-4.7408777218004505e-05,3.7474729856926267e-05,-0.00932689167736385,0.004060238248007758,0.9917384724864674
2011-05-13,-1,-0.0008301285780857226,-0.0006309308598105377,-0.012946929725863544,0.004060238248007758,0.9916706116694625
2011-05-17,-1,-0.0011267287964904413,-0.0009043645406683712,-0.012946929725863544,0.006884116312224571,0.9909546205311749
2011-05-19,-1,-0.0009812305978138106,-0.0007696627285698353,-0.013575589995153733,0.004060238248007758,0.9909428239217114
2011-05-23,-1,-0.00211493177926117,-0.0017755134459222035,-0.012946929725863544,0.006884116312224571,0.99119385020728
2011-05-25,-1,-0.002721694259068053,-0.002299014817498601,-0.011675594296619091,0.006559650144517114,0.9914314851356378
2011-05-27,0,0.0,0.0,-0.012888586129512155,0.0038796181645088866,0.9916039215146181
2011-06-01,0,0.0,0.0,-0.011675594296619091,0.00692620507874755,0.9913977545170607
2011-06-03,0,0.0,0.0,-0.008396860105855126,0.01050964490448985,0.9895702977418677
2011-06-07,-1,-0.0012267317655795566,-0.0010498932984399321,-0.008705105276027164,0.01050964490448985,0.989399135601171
2011-06-09,-1,-0.0016267232429250306,-0.0013951472898771063,-0.008705105276027164,0.012857248707432222,0.9884195562873607
2011-06-13,0,0.0,0.0,-0.011779816396568669,0.012857248707432222,0.9865387571262356
2011-06-15,-1,-0.005895350690083565,-0.0052595119583740265,-0.013400559206099567,0.010933479542818154,0.985537241552367
2011-06-17,-1,-0.0053656851295166615,-0.004872387508998182,-0.012459249383112147,0.010933479542818154,0.9854707020115123
2011-06-21,-1,-0.0036331258625910425,-0.0034089743950642885,-0.014431338341438345,0.010933479542818154,0.9839299379390977
2011-06-23,-1,-0.003603035131551564,-0.0033277447586731275,-0.014431338341438345,0.010933479542818154,0.983727154536675
2011-06-27,-1,-0.0029150438191909342,-0.002794879040404282,-0.013689335295189599,0.010933479542818154,0.9842760456066538
2011-06-29,-1,-0.0013648689847485108,-0.0012801787543032855,-0.019666797835311334,0.008455561345461087,0.9842271593921847
2011-07-01,1,0.0005900627681044928,0.0009159236550919814,-0.019666797835311334,0.004672293316091132,0.9857492356729121
2011-07-06,1,0.0008459899066641941,0.0012482966926431309,-0.02523787445464164,0.007699767642193239,0.9838681210111612
2011-07-08,1,0.0014106920934642765,0.0018072480017866954,-0.02838894543304907,0.004672293316091132,0.9820468599440662
2011-07-12,-1,-0.0009562140984091777,-0.0009372615210867602,-0.02099250689891701,0.007699767642193239,0.979496461344011
2011-07-14,-1,-0.0006283834483707222,-0.0006262918523433974,-0.03046189395875337,0.008455561345461087,0.97494414489884
2011-07-18,0,0.0,0.0,-0.03046189395875337,0.009687816238279615,0.9745833248372526
2011-07-20,-1,-0.0016523965869424508,-0.0015773923790654018,-0.020497576738353444,0.009305283247145732,0.9763553931394732
2011-07-22,-1,-0.000917516672356581,-0.0009100750974161124,-0.03327922328765302,0.0030714397690849134,0.973349731740015
2011-07-26,1,3.749882233282636e-05,0.0002692883724435413,-0.03327922328765302,0.009687816238279615,0.9710573931989941
2011-07-28,-1,-0.0015921955405101874,-0.001582744928198984,-0.02312124754256678,0.009687816238279615,0.9720568064770204
2011-08-01,-1,-0.0020863447561695423,-0.002023131457588253,-0.02312124754256678,0.018661693470358193,0.9693931717898281
2011-08-03,-1,-0.003904491639211529,-0.003578505391549015,-0.017111584823324696,0.018661693470358193,0.9706303444601964
2011-08-05,-1,-0.007609309227724809,-0.006839854019447688,-0.020735530817576602,0.018661693470358193,0.9700175904329801
2011-08-09,-1,-0.006747603152298398,-0.0060505184072000735,-0.017111584823324696,0.018661693470358193,0.9728291115188529
2011-08-11,-1,-0.003376666230700184,-0.0031405478515965065,-0.0175161956588352,0.013409670581270135,0.9767788942751248
2011-08-15,0,0.0,0.0,-0.0175161956588352,0.010870056481290915,0.9773615344521542
2011-08-17,0,0.0,0.0,-0.0175161956588352,0.01635270584391305,0.9772091385918326
2011-08-19,0,0.0,0.0,-0.0175161956588352,0.01635270584391305,0.9792384534174918
2011-08-23,0,0.0,0.0,-0.0175161956588352,0.010870056481290915,0.9805402383805881
2011-08-25,0,0.0,0.0,-0.015351678958035006,0.010870056481290915,0.9806129161509939
2011-08-29,-1,-0.00022401469484343252,-0.0001793796031196353,-0.015351678958035006,0.010870056481290915,0.9814640946370636
2011-08-31,1,0.00046219557640110517,0.0006001325790774883,-0.018549730555765982,0.011808142602522026,0.9801758567270755
2011-09-02,-1,-0.002339294775904165,-0.002117827190243878,-0.018549730555765982,0.011808142602522026,0.9808748212733838
2011-09-07,-1,-0.0006592639382251156,-0.0006535769968091802,-0.018549730555765982,0.016921667988480757,0.9806506119549703
2011-09-09,-1,-0.0025249883036249127,-0.0022830048782411312,-0.012871343317629952,0.018372320723562985,0.9818722894110413
2011-09-13,-1,-0.0008876715223468746,-0.0008640125202879427,-0.01704244533099761,0.01942824960074653,0.9795096795399757
2011-09-15,1,0.00041407246204880734,0.0006035324970693298,-0.01704244533099761,0.018372320723562985,0.9805017783965967
2011-09-19,-1,-0.00031043134441972084,-0.00016742048886820746,-0.01510703907981729,0.019318932929299624,0.9799480683505751
2011-09-21,-1,-0.000990364000169532,-0.0009439706487239773,-0.024434933422828622,0.021390880247308855,0.9769838000592432
2011-09-23,-1,-0.0013703187112970314,-0.0013546812247054768,-0.024434933422828622,0.022819197969091383,0.973352825067866
2011-09-27,-1,-0.0011147101058871854,-0.001056309738530682,-0.024434933422828622,0.022866050836934222,0.9737452744532574
2011-09-29,-1,-0.0010490798983655565,-0.0009450603237153113,-0.018106745370321465,0.02836827743406202,0.9719563677084007
2011-10-03,-1,-0.0035019786819759876,-0.003303657387403481,-0.01426312696004082,0.02836827743406202,0.9727491349889837
2011-10-05,-1,-0.0016919402033053975,-0.001683830921282976,-0.017107159839626004,0.026093955548315773,0.973889930420341
2011-10-07,-1,-0.0011568328768683574,-0.0010857606660402805,-0.017107159839626004,0.026093955548315773,0.9739079859514472
2011-10-11,-1,-0.0005169616222086669,-0.00034315904706240595,-0.01426312696004082,0.022357531812989127,0.9770483194696972
2011-10-13,-1,-0.00042961101855016785,-0.0002843165413366863,-0.017107159839626004,0.022357531812989127,0.9751033092297878
2011-10-17,-1,-0.0007016571834740095,-0.0006048169321710569,-0.01426312696004082,0.026093955548315773,0.9757816802278312
2011-10-19,-1,-0.0008779193262347586,-0.000771921237546748,-0.009003912302412181,0.01985706114492417,0.9784782595945094
2011-10-21,1,0.0016969313294659108,0.0021254405772757976,-0.015219923234583375,0.01753740636246959,0.9802322954654329
2011-10-25,1,0.0019372394630767203,0.002379640508313541,-0.016115433779956837,0.01705653382323534,0.9801358397963513
2011-10-27,1,0.004270979747130031,0.005006243839577857,-0.022332543496736173,-0.0004174587216308242,0.9804445865784538
2011-10-31,1,0.0025710433138801444,0.003058448127101013,-0.016115433779956837,0.004862428704102324,0.9824263417166711
2011-11-02,1,0.002283697195301598,0.002707896926796357,-0.010601519272804194,0.004862428704102324,0.9813321251846298
2011-11-04,1,0.0026341220658435156,0.003107849365088829,-0.010601519272804194,0.004842650017515118,0.9814011578625381
2011-11-08,1,0.0024668893260898625,0.00289910554920415,-0.010601519272804194,0.003060311683699163,0.9809282444977113
2011-11-10,1,0.0012241688496738216,0.001519294680656114,-0.010601519272804194,0.016882484286244424,0.9815676861888342
2011-11-14,1,0.0022641144951378537,0.002719689041071018,-0.025373096392537327,0.002726593856028878,0.9801374822341573
2011-11-16,1,0.002422107919153182,0.002881509174842028,-0.025373096392537327,-0.002833880440470552,0.9799103446019323
2011-11-18,1,0.0015627879520050316,0.0019536644884256974,-0.019527840135888947,-0.001729126444952727,0.9819023085194032
2011-11-22,1,0.0013534338342170613,0.0018149308364775203,-0.014072641573210866,0.010741914390212551,0.9808538621556024
2011-11-25,1,0.00029120131753904946,0.0006028319411449078,-0.008583980847699901,0.01809537824117139,0.981366983343921
2011-11-29,1,0.001274399252801362,0.00172083011880306,-0.012823652689378313,0.01571316252195021,0.9821489519210936
2011-12-01,1,0.0021965719680619375,0.0026660936650159807,-0.012823652689378313,0.013947473538812797,0.9838776629679165
2011-12-05,1,0.0023983858092535212,0.002869936857076275,-0.012823652689378313,0.012790028563562832,0.9840822345078911
2011-12-07,1,0.002058159707808547,0.00247923508994074,-0.012823652689378313,0.012790028563562832,0.9845143274716894
2011-12-09,1,0.0019429894974933694,0.0023527175980816283,-0.010546136245901325,0.013947473538812797,0.9855153523323615
2011-12-13,0,0.0,0.0,-0.0031820081532639554,0.013947473538812797,0.9873564011900586
2011-12-15,0,0.0,0.0,-0.00169490680249828,0.013947473538812797,0.988219939526952
2011-12-19,-1,-0.001080171700879335,-0.0007809138673097822,1.3486386360642534e-05,0.017920574053845992,0.9824876453533635
2011-12-21,0,-4.341980055456453e-05,0.000380640634316426,-0.00169490680249828,0.01576960878778236,0.9858734917556998
2011-12-23,1,0.0028915141940479942,0.0033596386112625144,-0.0030661491238071995,0.012790028563562832,0.9875913285368586
2011-12-28,1,0.0005106010034474357,0.0005591846366641527,-0.0030661491238071995,0.012790028563562832,0.9876813807902523
2011-12-30,1,0.0010312207056271333,0.0010918467008858162,-0.0030661491238071995,0.009561407921132976,0.9884115015884752
2012-01-04,1,0.002437593629172944,0.0028056818734192414,-0.0033555404208265804,0.008524315812811113,0.9884860542203132
2012-01-06,1,0.003364619569562668,0.0039193991491466695,-0.0040070525194859374,0.010247532238590523,0.9879336273906597
2012-01-10,0,0.0,0.0,-0.0040070525194859374,0.007084463334110006,0.9893736903722056
2012-01-12,0,0.0,0.0,-0.004296992960283413,0.007238927146895767,0.9889178665141412
2012-01-17,1,0.0013284245815790923,0.0017652351665423738,-0.004296992960283413,0.007238927146895767,0.9886933126195934
2012-01-19,1,0.0031135026674792973,0.0037596622182581455,-0.004296992960283413,0.006214226251080207,0.9927051912951461
2012-01-23,1,0.00405085975539855,0.004899622782757905,-0.0040070525194859374,0.004826602943098779,0.992701374679009
2012-01-25,1,0.004208945257197698,0.0051091130885404295,-0.0040070525194859374,0.004826602943098779,0.9926912092018206
2012-01-27,1,0.0023988711083187684,0.002838571200867583,-0.0038691429745483247,0.004826602943098779,0.9935710085158541
2012-01-31,1,0.0029419084681523173,0.0034858893238620048,-0.0038691429745483247,0.006162462514726875,0.9930567892840325
2012-02-02,0,0.0,0.0,-0.003844727481686037,0.006162462514726875,0.9937552220516247
2012-02-06,0,0.0,0.0,-0.003986605474258661,0.0043129084824552275,0.9937021547483409
2012-02-08,0,0.0,0.0,-0.003986605474258661,0.006200422424999093,0.9927857437511741
2012-02-10,1,0.0018463767576777945,0.0021101069751029264,-0.003562437860509399,0.006200422424999093,0.9931832374047086
2012-02-14,1,0.002410173039523299,0.0025947716372423883,-0.003986605474258661,0.0070725478501025285,0.9917197655322708
2012-02-16,0,0.0,0.0,-0.003986605474258661,0.0067311913317231456,0.9930918649884118
2012-02-21,0,0.0,0.0,-0.0051471909415645375,0.0067311913317231456,0.9922651003452877
2012-02-23,1,0.002498445983124731,0.0026905365049914656,-0.004879201856064352,0.0067311913317231456,0.9921530923296953
2012-02-27,1,0.0012542371730486085,0.0013146730530631348,-0.004879201856064352,0.007494180133085782,0.9915166196358336
2012-02-29,1,0.001494027538176525,0.0015174661176200047,-0.004827802552553892,0.008577758417362616,0.9909452531741972
2012-03-02,1,0.001547944469558234,0.0015886962575234447,-0.003593756195621969,0.009436956656539264,0.9907562330267007
2012-03-06,0,0.0,0.0,-0.002146676951961486,0.013319786236085394,0.989950540002075
2012-03-08,0,0.0,0.0,-0.005803205398393938,0.009436956656539264,0.9899559051495674
2012-03-12,0,0.0,0.0,-0.010635271685657964,0.00867869025021097,0.9886622642564391
2012-03-14,0,0.0,0.0,-0.008282615783867006,0.009478687378387132,0.9886815417494004
2012-03-16,0,0.0,0.0,-0.008282615783867006,0.009478687378387132,0.9885337915691516
2012-03-20,0,0.0,0.0,-0.008282615783867006,0.012869207496751384,0.9872330115171619
2012-03-22,0,0.0,0.0,-0.008507126872375557,0.012869207496751384,0.9870371873077675
2012-03-26,0,0.0,0.0,-0.011159500863950235,0.009478687378387132,0.9870661954191638
2012-03-28,0,0.0,0.0,-0.011159500863950235,0.012683375185362198,0.9867038731781551
2012-03-30,0,0.0,0.0,-0.011159500863950235,0.009968985002264065,0.987056896613308
2012-04-03,0,0.0,0.0,-0.01035711713289221,0.005715493094758675,0.988579521553123
2012-04-05,0,0.0,0.0,-0.014353320842944295,0.005715493094758675,0.9874623803219789
2012-04-10,0,0.0,0.0,-0.009340863519195506,0.005715493094758675,0.9885459209592782
2012-04-12,1,0.0023155506171825624,0.002738935651970153,-0.009699268613409227,0.0034449209483945124,0.9889220749477875
2012-04-16,1,0.001481782257842654,0.0017006858553297944,-0.010000240145057557,0.001589269167821867,0.9888445215132011
2012-04-18,-1,-0.0005481513537552427,-0.00043452168342480996,-0.009699268613409227,0.0009097496271915694,0.9911371179403003
2012-04-20,-1,-0.0016459756245802786,-0.0013367505854659455,-0.010000240145057557,-0.0022308034977349617,0.9907723225677869
2012-04-24,0,0.0,0.0,-0.009699268613409227,0.0034449209483945124,0.9892091740591108
2012-04-26,0,0.0,0.0,-0.009699268613409227,0.001589269167821867,0.9903120000840262
2012-04-30,-1,-0.0005128579931224453,-0.0004176223025343322,-0.009699268613409227,0.0017857951554255747,0.9903263423663686
2012-05-02,-1,-0.0008589036367363133,-0.0007062665897046609,-0.010000240145057557,0.0004453910333227574,0.9899995475907106
2012-05-04,-1,-0.002760153516879673,-0.0023619787458808135,-0.009699268613409227,0.005196500308579724,0.9906558109687531
2012-05-08,-1,-0.0044840006232131375,-0.003781944027714895,-0.009330602048468495,0.01043813164719602,0.9890835871917073
2012-05-10,-1,-0.0052591935561312735,-0.004423099857227894,-0.008424215952534217,0.01043813164719602,0.9885479990652224
2012-05-14,-1,-0.0063121088184300254,-0.005323159490251638,-0.008424215952534217,0.012206106181329578,0.9872146808249302
2012-05-16,-1,-0.005420634597966493,-0.004648368267396329,-0.0084422615874118,0.012206106181329578,0.9869630024890156
2012-05-18,-1,-0.005762454221144917,-0.004997335512106672,-0.001968430613511755,0.013684131151288862,0.9852943092583607
2012-05-22,-1,-0.005047567030933037,-0.004349821007367481,-0.004847753020305822,0.013633532419465879,0.986578069372491
2012-05-24,-1,-0.004878371935118517,-0.004203881195852285,-0.009581094288073687,0.013633532419465879,0.9854478521868549
2012-05-29,-1,-0.004208380994075312,-0.003620618711253692,-0.01154822857077973,0.012813740454356612,0.985447773652294
2012-05-31,-1,-0.004511863835649556,-0.0039047937427880916,-0.009872261426074964,0.012813740454356612,0.9852835245155416
2012-06-04,-1,-0.0045087364599550005,-0.003948225378771887,-0.009383259983183316,0.013633532419465879,0.9855219310364964
2012-06-06,-1,-0.0036005922002627314,-0.0031551526107757456,-0.009383259983183316,0.010051267660878285,0.9871303779132297
2012-06-08,-1,-0.003030250447086548,-0.002652826357135614,-0.009872261426074964,0.010051267660878285,0.9867929344643649
2012-06-12,-1,-0.0007917202220491712,-0.0006526049141799219,-0.010945730062206522,0.006528329442124033,0.9869505260071733
2012-06-14,-1,-0.0009622993419916185,-0.0008128369571033634,-0.010945730062206522,0.009819723473059557,0.9867294870864807
2012-06-18,1,0.00011170549407167919,0.000147479410409757,-0.010945730062206522,0.005482715176914302,0.9875745520030996
2012-06-20,-1,-0.0002665944036197111,-0.0002034589442389618,-0.01035222714753541,0.005482715176914302,0.9840653663187069
2012-06-22,-1,-0.0012530495667495512,-0.0010757949500094838,-0.01035222714753541,0.002246890918017318,0.98566973654374
2012-06-26,-1,-0.0023091402231065713,-0.002003884887642744,-0.0076390331412991615,0.006354085173656342,0.986058988770694
2012-06-28,-1,-0.0022840037636478977,-0.0019992747995012834,-0.006949488989427106,0.009819723473059557,0.9854735531160236
2012-07-02,-1,-0.0015079812741667436,-0.0013095456376214854,-0.008316833167649978,0.0031763423375819225,0.9864093171838842
2012-07-05,-1,-0.0012042662750782452,-0.0010469952641218713,-0.01203101753125704,0.0010478040308884605,0.9862567979174212
2012-07-09,-1,-0.002204106375248158,-0.0019367920625599755,-0.008198629935873038,0.00986203123746664,0.9859892542959061
2012-07-11,-1,-0.0024709843895245696,-0.002208372541832638,-0.006920789360950785,0.0130481230819153,0.985932341149503
2012-07-13,-1,-0.0022071015323824788,-0.001980225800315873,-0.006891595245563377,0.011058578724194173,0.9865891802029765
2012-07-17,-1,-0.0026750797323358546,-0.0023889719389243056,-0.00546464354982881,0.013620456042486077,0.9860289144228456
2012-07-19,-1,-5.086501441601102e-05,-2.5056504194312886e-05,-0.00546464354982881,0.010688950548192798,0.9907318935732539
2012-07-23,-1,-0.0005343310945036064,-0.0004968253946779296,-0.004056748355832501,0.010688950548192798,0.9912169879401214
2012-07-25,-1,-0.00010858786593886286,-8.51689329048989e-05,-0.004056748355832501,0.009410897003960453,0.9914650457058263
2012-07-27,1,0.00014842122105118054,0.00017248586314665723,-0.004056748355832501,0.009410897003960453,0.9919824661261791
2012-07-31,0,0.0,0.0,-0.0035760751190665927,0.009410897003960453,0.9921972253799801
2012-08-02,0,0.0,0.0,-0.0035760751190665927,0.009410897003960453,0.9924792097870859
2012-08-06,0,0.0,0.0,-0.0035760751190665927,0.00831698379551373,0.9935554015537099
2012-08-08,0,0.0,0.0,-0.0035760751190665927,0.00831698379551373,0.9927958366730955
2012-08-10,0,0.0,0.0,-0.004738543041689348,0.00831698379551373,0.9923937608524478
2012-08-14,1,0.002006374960504346,0.002261242276320195,-0.004738543041689348,0.0054132874443160615,0.9922600193215685
2012-08-16,1,0.004033467907436293,0.004649012564818625,-0.004738543041689348,0.00831698379551373,0.9911018701890699
2012-08-20,1,0.004148104395631391,0.004808480997898996,-0.007560953151500042,0.00831698379551373,0.9907655373690177
2012-08-22,1,0.0037482559889557916,0.004407042873645441,-0.007560953151500042,0.00831698379551373,0.9912781326065769
2012-08-24,0,0.0,0.0,-0.007936201056541456,0.0054132874443160615,0.9917816968476194
2012-08-28,0,0.0,0.0,-0.008128463350353,0.0054132874443160615,0.9912539676870511
2012-08-30,1,0.0008148256789674558,0.0009613722858322943,-0.008128463350353,0.0054132874443160615,0.9910673139225917
2012-09-04,1,0.001979033402076268,0.0023517100688750163,-0.008431506080914981,0.0018789927897633325,0.990221858006178
2012-09-06,1,0.002072098174505112,0.002438039851308764,-0.008128463350353,0.0018789927897633325,0.9916170317100808
2012-09-10,0,0.0,0.0,-0.007699049340704426,0.0018789927897633325,0.9920148622359075
2012-09-12,0,0.0,0.0,-0.007699049340704426,0.0031803231714313644,0.9919449653359785
2012-09-14,0,0.0,0.0,-0.007699049340704426,0.0016561684461157376,0.9932839032849561
2012-09-18,0,0.0,0.0,-0.007699049340704426,0.0031803231714313644,0.9923820742742897
2012-09-20,0,0.0,0.0,-0.006932715885630811,0.004046685120066133,0.9916529728979852
2012-09-24,0,0.0,0.0,-0.006932715885630811,0.005199199012223937,0.9917030052246876
2012-09-26,0,0.0,0.0,-0.006932715885630811,0.005199199012223937,0.9917215867886285
2012-09-28,0,0.0,0.0,-0.005478388759504657,0.005199199012223937,0.9918411234996656
2012-10-02,0,0.0,0.0,-0.003125220740727688,0.007347181461215296,0.9921862333114283
2012-10-04,0,0.0,0.0,-0.0028239867753697577,0.009017218134743262,0.991722088299756
2012-10-08,0,0.0,0.0,-0.0028239867753697577,0.007347181461215296,0.9915487240541445
2012-10-10,0,0.0,0.0,-0.00496048301199168,0.00838117361109687,0.9908210232904248
2012-10-12,0,0.0,0.0,-0.009047645983190394,0.00838117361109687,0.9901173084558684
2012-10-16,0,0.0,0.0,-0.009493827638799468,0.006141385567960563,0.9898953496333804
2012-10-18,0,0.0,0.0,-0.009493827638799468,0.006949908150897404,0.9897164965163352
2012-10-22,0,-3.6681073001312836e-05,7.878392479410525e-05,-0.009047645983190394,0.006003427397755924,0.9903280994084079
2012-10-24,0,0.0,0.0,-0.004855289160105806,0.007967299100482952,0.9907462045331615
2012-10-26,0,0.0,0.0,-0.008715667015397137,0.008999836640609188,0.9899370813194754
2012-11-01,0,0.0,0.0,-0.008715667015397137,0.007407773606177988,0.9902734410218855
2012-11-05,0,0.0,0.0,-0.009726986887184513,0.006895831462507147,0.9904305192101184
2012-11-07,1,5.164656011163318e-05,8.236685968887866e-05,-0.008715667015397137,0.006895831462507147,0.9915591876413989
2012-11-09,1,0.0009113124346540823,0.0010612647964826512,-0.003258271284890334,0.006895831462507147,0.9920994295524782
2012-11-13,1,0.0005577960213283151,0.0006626664111318058,-0.001360309234219307,0.007407773606177988,0.9922030047886293
2012-11-15,-1,-0.0007459653439971691,-0.0006429026559216721,-0.0012983501640773398,0.007407773606177988,0.9931451944583789
2012-11-19,-1,-0.00027497426137390184,-0.00018289887521351914,-0.0012983501640773398,0.008268813282764268,0.9930834819345025
2012-11-21,-1,-0.00046919106452489334,-0.00034229903228122165,-0.0011611085620091977,0.008268813282764268,0.9930938988053553
2012-11-26,1,0.0004179573753445574,0.00043003932525958956,-0.0013363150833431345,0.007407773606177988,0.9938771739366739
2012-11-28,1,0.0005021643709117488,0.0005310969214591078,-0.0013363150833431345,0.005072611956270505,0.9946773148419189
2012-11-30,-1,-0.0002574317563747773,-0.00014418809515328234,-0.0018397066336912184,0.005413056236401391,0.9933940534148074
2012-12-04,-1,-0.001046601282047956,-0.0008094720161019738,-0.0015725741732415773,0.01002844284677564,0.990770187805061
2012-12-06,-1,-0.0010680324215263902,-0.0008248466090531978,-0.0031259402687132927,0.01002844284677564,0.9907248895357083
2012-12-10,-1,-0.0011971725454397954,-0.0009044469179252853,-0.00377564041008005,0.012868271685467956,0.9906074442382214
2012-12-12,1,0.00041964866123390146,0.0004346325216966618,-0.00377564041008005,0.008821943697082764,0.9907892008983197
2012-12-14,1,0.0001583068959069842,0.0002052889382143739,-0.0031259402687132927,0.008821943697082764,0.9908132203145623
2012-12-18,1,0.0012854494779881071,0.0013829123258283014,-0.00377564041008005,0.0031290888462538256,0.9920956336686927
2012-12-20,1,0.0015967218220169128,0.0017663329000261016,-0.003879160048042869,0.003922939528945419,0.9917730482827313
2012-12-24,1,0.0010322078448342222,0.0010918967735495974,-0.003879160048042869,0.003922939528945419,0.9920190142924366
2012-12-27,1,0.0008297915592107888,0.000838607344927443,-0.004280982363178234,0.003922939528945419,0.9918035587779652
2012-12-31,1,0.0016074699492787932,0.0017864353901815195,-0.003879160048042869,0.003922939528945419,0.9930279206216371
2013-01-03,1,0.002457777361119561,0.0027622815666456108,-0.003392286681900962,0.003922939528945419,0.9951883246282448
2013-01-07,1,0.0024372156404730903,0.0027430457248706266,-0.003392286681900962,0.005485433055334712,0.9938772747128968
2013-01-09,1,0.0026351110613072127,0.002981764801487057,-0.0028956077701971575,0.005485433055334712,0.9941739917663962
2013-01-11,1,0.003097051631988803,0.003521122888855633,-0.0028956077701971575,0.004372136069214762,0.9936509348562982
2013-01-15,1,0.0029813828961395396,0.003381852121164701,-0.003392286681900962,0.004372136069214762,0.9934947292482356
2013-01-17,1,0.002241377364461253,0.00249836437536341,-0.002470313486483063,0.005131932934974073,0.9941398260971896
2013-01-22,1,0.0022863204054700526,0.002570219365345156,-0.002470313486483063,0.006713949004636963,0.9931953619548499
2013-01-24,1,0.0021158866362318033,0.0023655855162331985,-0.0030778369512368597,0.00751990297733813,0.9922753917776811
2013-01-28,1,0.0017594687579265294,0.0019254529207133923,-0.0030778369512368597,0.010510542337826823,0.9910222029812836
2013-01-30,1,0.002176403789975149,0.002427569289373668,-0.0030778369512368597,0.010510542337826823,0.9910379169895533
2013-02-01,1,0.0025728442920381926,0.0028872375032089996,-0.001402573570319304,0.010184273514699874,0.9913671769593047
2013-02-05,1,0.00252505771169568,0.002819289475955246,-0.0005350985925472349,0.008751957562615122,0.9927692386068502
2013-02-07,1,0.002567429887652981,0.0028560928244926098,-0.0010749088939184914,0.008838899826084448,0.9926128882863162
2013-02-11,1,0.003323455406273457,0.0037643936073354896,-0.0031938432001198036,0.008432294769403057,0.9926636535698289
2013-02-13,1,0.003024741949042952,0.003401532829665501,-0.0018819410444686974,0.008432294769403057,0.9931074175214802
2013-02-15,1,0.0029141098405346625,0.0032632454060181593,-0.0031938432001198036,0.008432294769403057,0.9924861836133858
2013-02-20,1,0.0019867462753137637,0.0021673365859633574,-0.0019974227195534208,0.008838899826084448,0.9929370157954087
2013-02-22,1,0.0020839363760447203,0.0022274219040709638,-0.0021692614452401508,0.008432294769403057,0.9935702304100907
2013-02-26,1,0.0015574948439037843,0.0016079446329070495,-0.0021692614452401508,0.0081995338476381,0.994385163862403
2013-02-28,1,0.001371249360719312,0.0013766849947947826,-0.0021692614452401508,0.008214022965563325,0.9936873643098684
2013-03-04,1,0.0017106704061029502,0.0017474937768254602,-0.00418307079582295,0.006877067554233448,0.9934643823530747
2013-03-06,1,0.0018872140094179533,0.0019455655265522643,-0.0053692990701469925,0.0052159317413260796,0.9933354586339306
2013-03-08,1,0.001920862854209675,0.0019847721557834227,-0.005809859685711095,0.0052159317413260796,0.9925316444688517
2013-03-12,1,0.0014956081632036644,0.0014986358182959114,-0.0053692990701469925,0.006877067554233448,0.9921846934488012
2013-03-14,1,0.0018958685081476986,0.0020120752028679675,-0.006320071080009941,0.006877067554233448,0.9912892960792303
2013-03-18,1,0.0018628658075123847,0.0020001210058619968,-0.006320071080009941,0.008893994684497294,0.9893109440514245
2013-03-20,1,0.001859893721868762,0.001991695200449861,-0.010135095007261043,0.006877067554233448,0.9888948264143393
2013-03-22,1,0.0015218611573661813,0.0015438992159826587,-0.010135095007261043,0.009530189380768253,0.9886000975998624
2013-03-26,1,0.001229386579808461,0.001242188367154233,-0.007752590940881852,0.009145982587719542,0.9891797295152694
2013-03-28,1,0.0020317383736042955,0.0021468447745250953,-0.013646189179606794,0.008803514255974955,0.9890138836807993
2013-04-02,1,0.0015966807661261357,0.0016682192352702587,-0.007255529822520364,0.009300867298068371,0.9892177478195968
2013-04-04,1,0.0009238415863916435,0.0009807140817460775,-0.0036980252555833936,0.009300867298068371,0.9893930342725195
2013-04-08,1,0.000779867879310933,0.0008458996470770417,-0.00044827732246793773,0.009300867298068371,0.9899470449371409
2013-04-10,1,0.0010319682678043075,0.00109385190521592,-0.00010378763634797175,0.008573429866072813,0.9905164019262712
2013-04-12,-1,-0.00029004907737075207,-2.5314688900542103e-05,9.933266030594156e-05,0.010188242161033412,0.9898181533317935
2013-04-16,1,0.00025046107955368,0.00041105011384428804,9.933266030594156e-05,0.010164251473520866,0.9918676275472988
2013-04-18,-1,-0.0004443627288759375,-0.00020021527259548655,0.0010510032392151215,0.010164251473520866,0.9919383860967969
2013-04-22,1,0.00034748380431369864,0.00047879207740405595,0.0005861857221637112,0.010164251473520866,0.9915448613425901
2013-04-24,1,0.00034267266536840266,0.0004876564924356734,-0.0014011849934781424,0.010164251473520866,0.9892686644284725
2013-04-26,1,0.00015620212027074858,0.0003277701356053057,9.933266030594156e-05,0.008573429866072813,0.9900569651244038
2013-04-30,1,0.00023967999003623194,0.0004308520698216399,-0.0013350227615924355,0.00737634555462767,0.9904220148620169
2013-05-02,1,0.00012081868095851806,0.00032288029143477215,-0.005406253278255449,0.00737634555462767,0.9900744354410803
2013-05-06,1,0.00090562113696639,0.0010077017854027354,-0.005956249192539189,0.00737634555462767,0.9899970467692631
2013-05-08,1,0.001232242367483064,0.001276804867130811,-0.008095871912866473,0.0067377497738882195,0.9894688491012235
2013-05-10,1,0.001994455698442985,0.0020231367640410527,-0.008095871912866473,0.006038227295298795,0.9905628718748075
2013-05-14,1,0.0024404715271574393,0.002592720439301233,-0.01162644205310147,0.004933543407645505,0.9901598428155269
2013-05-16,1,0.0025020195248618487,0.002658184221657615,-0.01162644205310147,0.004933543407645505,0.9893012104982224
2013-05-20,1,0.002385966392320616,0.0025065535770551436,-0.011015397895153607,0.004933543407645505,0.9894876063924191
2013-05-22,1,0.0005426784879648866,0.0006580048611518764,-0.011290682842046328,0.004933543407645505,0.9897161754956311
2013-05-24,1,0.0005416118650655149,0.000641041320883484,-0.012491575158565704,0.0060944512393627396,0.9886693754153627
2013-05-29,1,0.0010154492434008284,0.0010208560037534699,-0.012491575158565704,0.01028115794350418,0.987520914962059
2013-05-31,1,0.0006133850430772993,0.0006665361443491084,-0.012641978478132152,0.010858378554602087,0.9858862297836563
2013-06-04,1,0.0005369382645645428,0.0005971327342915157,-0.012641978478132152,0.010858378554602087,0.9866197501773931
2013-06-06,1,0.00047547628490723145,0.0005231253777298773,-0.011362529632040626,0.013062075797221717,0.9865050524311435
2013-06-10,1,0.0006637413995436187,0.0006985357944923761,-0.011362529632040626,0.015039426134737903,0.9859730779877423
2013-06-12,-1,-0.00047535736779525154,-0.00028782024502054773,-0.0030124820805867525,0.016112768413721956,0.9848420303361595
2013-06-14,-1,-0.0005723698427552723,-0.0003692368289023863,-0.0016335295569533746,0.016112768413721956,0.9855357830627003
2013-06-18,1,0.0005223915200878946,0.0006053583288986634,-0.005924875527942034,0.015039426134737903,0.9872789273978998
2013-06-20,-1,-0.0011870115417244391,-0.0009309177973538384,-0.0016335295569533746,0.015039426134737903,0.9839717780699176
2013-06-24,-1,-0.0014226103328742194,-0.0011431558296368463,-0.0016335295569533746,0.016112768413721956,0.9838233794048893
2013-06-26,-1,-0.00031318103849539946,-0.00017598462191760342,-0.005005030848694192,0.012935925416087391,0.9857059325803071
2013-06-28,-1,-0.00024697062511998854,-0.0001273991102278157,-0.002574029248730246,0.008385689085012528,0.9877356124387467
2013-07-02,0,-1.2281331466848164e-05,7.596414818037734e-05,-0.002574029248730246,0.008813144996517374,0.9873722421143827
2013-07-05,1,0.0007008513875897621,0.000705027711035312,-0.005005030848694192,0.008813144996517374,0.9872055214372888
2013-07-09,1,0.0009402037034730245,0.0009677785877618109,-0.005919505191222331,0.007613955345165234,0.9875045784249716
2013-07-11,1,0.0019541969289428437,0.002118719624940861,-0.007520386910803882,0.004063254378429471,0.9883754557426006
2013-07-15,1,0.0013384027770999964,0.0013967379693849095,-0.007520386910803882,0.004063254378429471,0.9887407216863997
2013-07-17,1,0.0014951876803878572,0.001604095527073689,-0.007542181614384519,0.004063254378429471,0.9886600802843203
2013-07-19,-1,-0.0006675930772777013,-0.0004929817595260152,-0.007542181614384519,0.0019501597057289847,0.9930120354499673
2013-07-23,-1,-0.00038890841769648735,-0.0002544240348942108,-0.007670645056588789,0.0019501597057289847,0.9930677526332398
2013-07-25,-1,-0.0003270007487071598,-0.0002192541984302432,-0.007670645056588789,0.004547005295847761,0.9917645110376104
2013-07-29,-1,-0.00029807863399478247,-0.00020162127294397398,-0.008098260592468674,0.004547005295847761,0.9913659888190723
2013-07-31,1,0.00011363529827250303,0.00015425192115121203,-0.009160281591583646,0.0019501597057289847,0.9902443365414589
2013-08-02,1,8.056115048974186e-05,0.00013884186292033952,-0.008098260592468674,0.001919330366800806,0.9910163614326432
2013-08-06,0,-4.833349420129267e-05,1.959072560378072e-05,-0.007957355628558933,0.001919330366800806,0.9906726640617979
2013-08-08,-1,-0.0006390931467529393,-0.0004919074083502942,-0.007957355628558933,0.001919330366800806,0.9908812553935278
2013-08-12,-1,-0.0005625632807109836,-0.00043094490851816836,-0.007957355628558933,0.01253021147084494,0.9890784704947152
2013-08-14,-1,-0.0007058634713749841,-0.0005660542144609198,-0.007937062150240376,0.01253021147084494,0.9891764160248226
2013-08-16,-1,-0.0015417016937046427,-0.0012942719383587506,-0.006659128361919145,0.01253021147084494,0.9895997745156309
2013-08-20,-1,-0.0007267398569068195,-0.0006058216316773741,-0.0058321463349429,0.010725667551021206,0.990750201696127
2013-08-22,-1,-0.00021869200550033243,-0.00013224459363538946,-0.006659128361919145,0.005810394354459396,0.990917092568321
2013-08-26,-1,-0.0008431207842020589,-0.0006744074733071707,-0.0058321463349429,0.008808564863848449,0.9909227011901768
2013-08-28,-1,-0.0011342131657340185,-0.0009299156495799381,-0.005572463074416429,0.006545807135529618,0.992173964994158
2013-08-30,-1,-0.0010320449528458384,-0.0008624826382355036,-0.005567926133040553,0.006545807135529618,0.9924431508301967
2013-09-04,-1,-0.0010065095096582714,-0.0008195819418087605,-0.005059300023252339,0.0047422103287113855,0.9931890800722496
2013-09-06,-1,-0.0014493787390038168,-0.0012164815409251863,-0.002763848461295807,0.0047422103287113855,0.9927492945199633
2013-09-10,-1,-0.0006257599311874484,-0.0004727032889238688,-0.005647040435409298,0.003113114042620159,0.9938663064953996
2013-09-12,-1,-0.000650256507023146,-0.000515732996166924,-0.005647040435409298,0.0047422103287113855,0.9932087285345773
2013-09-16,-1,-0.00047713795615538857,-0.00036743815527199143,-0.0029582496182228345,0.0047422103287113855,0.9933565320218877
2013-09-18,-1,-0.0005638772515848715,-0.00042759668245577573,-0.0029582496182228345,0.006079826756862972,0.9922774583004723
2013-09-20,-1,-0.0007797767986041835,-0.0006528507334949709,-0.0011941661847132657,0.009108339842573697,0.9915476253786386
2013-09-24,-1,-0.0005421023579133791,-0.00043977348107315876,-0.002610286149643546,0.007710398706573759,0.991842006549926
2013-09-26,-1,-0.00013482303528328026,-0.00010257833958869781,-0.004499123683805758,0.007710398706573759,0.9919354776004567
2013-09-30,-1,-0.00012522302410758557,-0.00010599045902755938,-0.004499123683805758,0.007710398706573759,0.9919692311186178
2013-10-02,1,0.0005307523956143414,0.0006249473315824503,-0.005539550551038715,0.007710398706573759,0.991784408970617
2013-10-04,1,0.00012483969111249472,0.00016839368629100916,-0.004673951946474441,0.007710398706573759,0.992423191067525
2013-10-08,-1,-0.00037542805012173095,-0.0003600701392571531,-0.0043089257072724966,0.007710398706573759,0.9929150587245454
2013-10-10,1,5.2673982240465005e-05,0.00011442686538359141,-0.004673951946474441,0.006259743560435738,0.9928344362586056
2013-10-14,-1,-0.00016212305547100474,-0.00012345867922637256,-0.004673951946474441,0.006737156476841661,0.9926227572897048
2013-10-16,1,0.000594997322900218,0.0006510808353317437,-0.004673951946474441,0.004075474213415397,0.9933840560574925
2013-10-18,1,0.0011893486216050413,0.001315843446393579,-0.004673951946474441,0.004075474213415397,0.993877906391022
2013-10-22,1,0.001060722201660003,0.0011594287326172428,-0.004673951946474441,0.005399365460821864,0.9937264468192806
2013-10-24,1,0.0006531885293366359,0.0006938331010690372,-0.003426077519306923,0.005399365460821864,0.9940912082054695
2013-10-28,1,0.0004696126742620118,0.0004795271492986859,-0.002006873940152644,0.005399365460821864,0.9943383982964893
2013-10-30,1,0.0005177745737081504,0.0005406267347274016,-0.001625190813250562,0.005399365460821864,0.99472679813452
2013-11-01,-1,-0.00016878242050281966,-7.573727519660952e-05,-0.0006171793403098278,0.005399365460821864,0.9949218813391413
2013-11-05,-1,-0.0002499916973608564,-0.00014592903372689676,-0.0006171793403098278,0.004970891107027444,0.9951486036411744
2013-11-07,1,0.00047038142082092755,0.0005091946960457632,-0.0006171793403098278,0.004970891107027444,0.9956372071321726
2013-11-11,0,-9.528236574866624e-06,6.921019061458618e-05,-0.0006171793403098278,0.0043430410262547715,0.9960291998500165
2013-11-13,1,0.0002761161322500013,0.00033784414964239614,-0.00084627439567598,0.003950813881690287,0.9954817801390187
2013-11-15,1,0.0014994200832461014,0.001652241309783043,-0.00084627439567598,0.0032449436737686382,0.9962741084144301
2013-11-19,1,0.0013288233126281562,0.0014759733613046574,-0.0006171793403098278,0.0032449436737686382,0.9963008756272601
2013-11-21,1,0.0015622623841773852,0.0017169639120499557,-0.00084627439567598,0.003950813881690287,0.9958040917375915
2013-11-25,1,0.0017942719880677965,0.002017792378048817,-0.000758512387572132,0.003953598218845671,0.9957988860148069
2013-11-27,1,0.0018437137383288285,0.0021006527300580268,-0.0013343540411371534,0.003953598218845671,0.9958007751940826
2013-12-02,1,0.0023701959035579414,0.0027794846595662528,-0.0013343540411371534,0.00536718623020617,0.9957972137500551
2013-12-04,1,0.0022769879309633154,0.002653855538076205,-0.0013343540411371534,0.00536718623020617,0.9950623681450813
2013-12-06,1,0.0025097885382641726,0.002899837297405049,-0.0014050506850354126,0.00536718623020617,0.9950071099276574
2013-12-10,1,0.0021639589959550117,0.0023944167206227766,0.00031641586979176976,0.005874324165296908,0.9945567123623347
2013-12-12,1,0.001694189142663794,0.0018800041111616539,-0.0010907339342035747,0.005874324165296908,0.9951210447887084
2013-12-16,1,0.0018877647058836956,0.0020868806684536186,-0.0017115287306684705,0.005874324165296908,0.993648330792707
2013-12-18,1,0.0022917752062707477,0.0025368461994922506,-0.0018459021558586842,0.005368229024177518,0.9939642204733143
2013-12-20,1,0.002445981913070434,0.00273363227492462,-0.0018459021558586842,0.005063094489552219,0.9937264172616042
2013-12-24,1,0.0027140879255441114,0.003044782102429762,-0.005221328160635398,0.005063094489552219,0.9906840390986736
2013-12-27,1,0.0025743773237794022,0.002871939151669377,-0.007102242849242026,0.005368229024177518,0.9901994019546464
2013-12-31,1,0.002517441272161312,0.002771788198522,-0.007102242849242026,0.005874324165296908,0.9895746704727254
2014-01-03,1,0.0019514077704911167,0.002128539612616627,-0.007102242849242026,0.005874324165296908,0.98930734569233
2014-01-07,1,0.0016154731535433084,0.0017275660987885804,-0.005608320022024235,0.004660863967620715,0.9899191272773974
2014-01-09,1,0.0016511156428078335,0.0017112404769167899,-0.005608320022024235,0.0051693920325625526,0.9896100428819457
2014-01-13,1,0.0015937630973690323,0.0016661408253848772,-0.005608320022024235,0.007906468511979771,0.9891992766985792
2014-01-15,1,0.002890268313651339,0.003189119159033587,-0.005608320022024235,0.0051693920325625526,0.9911023518678237
2014-01-17,1,0.002368430766224039,0.0025597614103210747,-0.005608320022024235,0.006831202187909323,0.9908721464341069
2014-01-22,1,0.0018835941677904434,0.0019889538247364344,-0.00416892885410967,0.006831202187909323,0.9911187091134371
2014-01-24,-1,-0.0004794814801875006,-0.0002761226575644077,-0.0034766926745972123,0.0078361892343512,0.9926532246041833
2014-01-28,0,-0.00013675942944503034,2.4453286972970904e-06,-0.00416892885410967,0.006831202187909323,0.9924549074652561
2014-01-30,-1,-0.0004408030129602307,-0.0002290182409471727,-0.0034766926745972123,0.0060351576864611095,0.9927309621107631
2014-02-03,-1,-0.000653768160545102,-0.0004775075227195693,-0.0031312444786006782,0.006831202187909323,0.9926438126791723
2014-02-05,-1,-0.000584752119483141,-0.00039722889161753524,-0.0034766926745972123,0.0078361892343512,0.9922056531647018
2014-02-07,1,0.00045944776936068755,0.000518372843069025,-0.0034766926745972123,0.0060351576864611095,0.993370179651821
2014-02-11,1,0.0003530713888371121,0.0004222889391964958,-0.004163187060918923,0.0060351576864611095,0.9933191242021927
2014-02-13,0,-4.676191214020157e-05,0.0001177359401754813,-0.004363814504181669,0.0060351576864611095,0.9932990383157598
2014-02-18,1,1.5846146496058255e-05,0.00016044710285319084,-0.004363814504181669,0.006396030594694969,0.9930904566438775
2014-02-20,1,9.589691672787524e-05,0.00022703673631867266,-0.006554730258364628,0.006396030594694969,0.9928728982424155
2014-02-24,-1,-0.00032948070046078025,-0.00013738908286317056,-0.006554730258364628,0.006396030594694969,0.9924366902635297
2014-02-26,-1,-0.0010669332144261903,-0.0007907252497789013,-0.004395073756303768,0.006396030594694969,0.9924800545441024
2014-02-28,-1,-0.0010951378331038185,-0.000778754501952375,-0.006782163808107897,0.008082748308431299,0.9923001117988353
2014-03-04,-1,-0.0008156153642568317,-0.0004886968044547613,-0.006782163808107897,0.006668047243064778,0.993335667255428
2014-03-06,-1,-0.0005796310117985571,-0.0003051969902369985,-0.004395073756303768,0.006668047243064778,0.9931819395543188
2014-03-10,-1,-0.00026734727819908717,-5.057856329244352e-05,-0.0072732192564843885,0.006668047243064778,0.9922093965561426
2014-03-12,1,0.00016565104483325896,0.00029004068009313793,-0.006872251876353475,0.0067365340860882274,0.9920720666971653
2014-03-14,1,0.0006682724345669529,0.0006707806817917088,-0.007668336456505655,0.0067365340860882274,0.9909360087325462
2014-03-18,1,0.0008683294824389368,0.0008770369744043801,-0.007668336456505655,0.006569934352991997,0.9911710749302717
2014-03-20,1,0.0007162395685118364,0.0007403514072450675,-0.007668336456505655,0.008256796958422899,0.9903879667299158
2014-03-24,1,0.0006604630936006709,0.000704359583886494,-0.006169266705764549,0.007697524474590993,0.9912374194504637
2014-03-26,1,1.573183705979095e-05,0.00014693038518545447,-0.003502283742984844,0.008010916937590434,0.9912423195688636
2014-03-28,1,1.7503511932753877e-05,0.0001582100983902638,-0.003502283742984844,0.007697524474590993,0.9912426440426229
2014-04-01,1,1.7144103743654913e-05,0.0001674874316431327,-0.003502283742984844,0.007697524474590993,0.9912491856065972
2014-04-03,1,0.00046981530120369003,0.0005625837615327583,-0.005814600958465796,0.007697524474590993,0.9916426287857161
2014-04-07,-1,-0.00038075692888883813,-0.00020003300701531993,-0.001269386571561244,0.008010916937590434,0.9915189323241076
2014-04-09,1,0.0004798536564254278,0.0005468923445488718,-0.0026820792326229257,0.007697524474590993,0.9924287905688549
2014-04-11,-1,-0.00011751596063840026,-2.8266231463009665e-05,0.0012038623436311396,0.007697524474590993,0.9930220356920558
2014-04-15,1,0.0002517358503870172,0.0002952141500891115,-0.00257373244913716,0.007147563201495942,0.9930668995933455
2014-04-17,1,0.0012148625474879887,0.001295650927191068,-0.005388866923735219,0.006643985594241934,0.993978955698486
2014-04-22,1,0.0013473399442823935,0.0014403152001007625,-0.005822739419206267,0.005745422326244782,0.9935942117907393
2014-04-24,1,0.001639773022446564,0.0017694611965188567,-0.005822739419206267,0.005301244231428949,0.9938899852600016
2014-04-28,1,0.0010766747538756127,0.0011265194262080024,-0.005388866923735219,0.005301244231428949,0.9944595448131484
2014-04-30,1,0.0012289811391841701,0.0013014420886755572,-0.005388866923735219,0.005960532991573823,0.9942875069901355
2014-05-02,1,0.0012871939372970658,0.001381648121830812,-0.0029650407429781295,0.005960532991573823,0.9945232393384268
2014-05-06,1,0.001101461933588664,0.0011730765643906908,-0.003747251117655856,0.005301244231428949,0.9950447887302073
2014-05-08,1,0.0007762591223171744,0.0007834394897000881,-0.003747251117655856,0.006440748678234014,0.9945885445583335
2014-05-12,1,0.0012834095967227163,0.001363925142725788,-0.004196015076865829,0.006288028802717813,0.9945468140576805
2014-05-14,1,0.0011153409813804405,0.0012035631898359548,-0.003747251117655856,0.006288028802717813,0.9944769438215901
2014-05-16,1,0.0010584572278190384,0.0011390806427596756,-0.0035631905644703792,0.005923151112128017,0.99484673833705
2014-05-20,1,0.0006921778153864101,0.0007289893041565563,-0.0025234972453526947,0.005923151112128017,0.9953776422986017
2014-05-22,1,0.0009250912569157016,0.0009870319960989492,-0.0025234972453526947,0.00473279313888018,0.9955805792765784
2014-05-27,1,0.0009735939836853701,0.0010583715037968226,-0.003747251117655856,0.00473279313888018,0.9950778906765474
2014-05-29,1,0.0009113678205340542,0.0009625758192257288,-0.003851134619778077,0.0041285455206943825,0.9950811804209583
2014-06-02,1,0.0011264898688039642,0.001197511583411114,-0.003851134619778077,0.0041285455206943825,0.995314192583347
2014-06-04,1,0.0009978832552958168,0.0010796152857022795,-0.003608296370038574,0.00473279313888018,0.9952266887568888
2014-06-06,1,0.0013419212992155658,0.0014565543728648253,-0.003608296370038574,0.0041285455206943825,0.9955217369730409
2014-06-10,1,0.0018166083479691686,0.0020534682224484153,-0.003608296370038574,0.0031227994455347696,0.9955821184873686
2014-06-12,1,0.0015462632921088128,0.0017413296053389728,-0.003608296370038574,0.0026376026389311404,0.995860802447173
2014-06-16,1,0.0011816874539814844,0.0013206222900978644,-0.003947469044591517,0.00305651764565474,0.9959671701750016
2014-06-18,1,0.0002805542896722854,0.0003647661156760356,-0.0042573185337880645,0.0015030020865471174,0.9953956614384482
2014-06-20,1,0.000253416118140943,0.00033791927343812674,-0.0042573185337880645,0.0015030020865471174,0.9947065623778103
2014-06-24,-1,-0.0001368035479392721,-8.278233256210589e-06,-0.0027982307748279866,0.004467646971782665,0.9949528772441224
2014-06-26,-1,-0.0008970245385136555,-0.0006352048054673783,-0.001747127760367699,0.006615082534897923,0.9948418391514486
2014-06-30,-1,-0.000577585113946477,-0.0003680069035272881,-0.0027982307748279866,0.004467646971782665,0.9950703949989922
2014-07-02,1,2.490407590604064e-05,0.00012714471074294002,-0.004198204739280892,0.002810129238279141,0.9948081364428841
2014-07-07,1,0.0002908200999434063,0.000360784843155425,-0.004198204739280892,0.002810129238279141,0.9945314437077325
2014-07-09,1,0.0001501547906218654,0.00022815848500832106,-0.0029014158106976853,0.00402836845304768,0.9945593671674622
2014-07-11,-1,-0.0002091037213992918,-8.655694558857928e-05,-0.0027456403720877223,0.005347956630559348,0.9941351222649196
2014-07-15,-1,-0.00030196254992413706,-0.0001687780724417983,-0.001435831920354103,0.006750521738961929,0.9938906611979829
2014-07-17,-1,-0.0011210202457247616,-0.0008833340703208463,-0.000514971673783067,0.00781981526617255,0.9939476163463286
2014-07-21,-1,-0.0009854937200561853,-0.0007248084323323312,-0.001435831920354103,0.00781981526617255,0.9940656988028788
2014-07-23,-1,-0.0006550188662628453,-0.00045146236739954646,-0.0002045859776965097,0.006750521738961929,0.9944359318429603
2014-07-25,1,3.32097271832371e-06,9.903595368654215e-05,-0.0008943038439104746,0.00704305609906642,0.9938398336021359
2014-07-29,-1,-0.00030640684767790395,-0.0001765553138315366,-0.0005812062249697209,0.00704305609906642,0.993457288981997
2014-07-31,-1,-0.0006610069818035174,-0.0004950805795032576,-0.0015199073514606245,0.00704305609906642,0.9939347717515583
2014-08-04,-1,-0.00028922856523270167,-0.00016401160621511455,-0.002870063093857496,0.00704305609906642,0.9937909407686282
2014-08-06,-1,-0.00017955261043196607,-6.122721503912883e-05,-0.002870063093857496,0.00704305609906642,0.9940075205177388
2014-08-08,1,0.0003557242446125062,0.00038955133100640796,-0.00223466850682997,0.006308946278207472,0.9946788535894762
2014-08-12,1,0.0007768429995064952,0.0007831126106525792,-0.002870063093857496,0.004078698074448136,0.9948383551947215
2014-08-14,1,0.0013034738818380083,0.0013935741451663753,-0.002870063093857496,0.004078698074448136,0.9945496476326399
2014-08-18,1,0.0012918447740467164,0.0013522944555460648,-0.002870063093857496,0.003660437531236035,0.9950220392210437
2014-08-20,1,0.001330038344774992,0.0013865642736648962,-0.002870063093857496,0.004521200419514225,0.9946796642511435
2014-08-22,1,0.0019857159958653154,0.0021405579789589143,-0.0034448148731643802,0.003807938312924731,0.994809807740641
2014-08-26,1,0.0021447386443579275,0.0023552751539082616,-0.0034448148731643802,0.00332368547226156,0.9942393538400494
2014-08-28,1,0.0013464705428851845,0.0013939929165739395,-0.004195792370640572,0.003807938312924731,0.9935587466271981
2014-09-02,1,0.0018206013068562624,0.0019672053062727408,-0.005855055783636473,0.00332368547226156,0.9931519436077931
2014-09-04,1,0.0010502974870684704,0.0010698878959034077,-0.007935041669781522,0.003807938312924731,0.9924502515604157
2014-09-08,1,0.0011154435963533363,0.0011170937625294302,-0.007935041669781522,0.004969785299337572,0.9920218396331362
2014-09-10,1,0.001353501535510828,0.001443165477933456,-0.012868679829701251,0.006411466007829377,0.9908038317667138
2014-09-12,1,0.0016958528433363837,0.0018493666098514726,-0.013469725974754088,0.004969785299337572,0.9870577926626464
2014-09-16,1,0.0018236105679961985,0.00201913770258094,-0.013469725974754088,0.006411466007829377,0.9864141460767708
2014-09-18,1,0.0018244609185399966,0.001980354549231016,-0.013469725974754088,0.006411466007829377,0.9862244487751756
2014-09-22,1,0.0012542140259198045,0.0013420182774765191,-0.013045569401725144,0.007769589262782376,0.9862850463992995
2014-09-24,1,0.0006954746576261039,0.0007251675255476118,-0.013045569401725144,0.011657792543640213,0.9833302929318809
2014-09-26,1,0.0003610923016209875,0.00037189747151960526,-0.011672936298449003,0.017206062420880727,0.9828271333076481
2014-09-30,-1,-0.00023737901214450179,-0.00015670076373026852,-0.009895743863346816,0.01763343470789429,0.9824036132787337
2014-10-02,-1,-0.0005104553274653347,-0.00040730516424212153,-0.005222883907509907,0.01763343470789429,0.9831866153315126
2014-10-06,-1,-0.0005674610058352587,-0.00044666608577982077,-0.005024167893089037,0.01805670464276282,0.9824578820124217
2014-10-08,-1,-0.0006413262442282533,-0.0004998703737271156,-0.00475238668418629,0.01763343470789429,0.9830722490481476
2014-10-10,-1,-0.0035259976473067,-0.003037428389968377,-0.0019414364553415496,0.01763343470789429,0.9855315150512028
2014-10-14,-1,-0.0029093073704173334,-0.00251246771546332,-0.002065256665903484,0.017206062420880727,0.9865241743888423
2014-10-16,-1,-0.0020842667639131393,-0.0017866652746659655,-0.004042663984198595,0.017206062420880727,0.9868880774405947
2014-10-20,-1,-0.001264084131758938,-0.0010670381242322393,-0.004042663984198595,0.013873794651586476,0.9880883064322128
2014-10-22,-1,-0.001811778301457933,-0.001563670959809709,-0.002065256665903484,0.01314503539731924,0.9910309282981491
2014-10-24,-1,-0.0007967544451188092,-0.0006581091468364935,-0.003509518802186657,0.009991265759159592,0.9923828525806976
2014-10-28,-1,-0.00026596165277796135,-0.00021166299548587707,-0.002048854677996798,0.008486195768434525,0.9931765623112118
2014-10-30,-1,-0.00016091321893121812,-0.00012043063827958523,-0.002048854677996798,0.009857190665362007,0.9925539377260291
2014-11-03,1,0.0003426334666986704,0.0003499891313159457,-0.002048854677996798,0.008486195768434525,0.9930181329496057
2014-11-05,1,0.0003289064553013376,0.0003336336456293565,-0.0008342313621530157,0.008486195768434525,0.9935838268848938
2014-11-07,1,0.0005505149624034181,0.000580576970652882,-0.0010008368685141098,0.008027040255555801,0.9939917641006816
2014-11-11,1,0.00040407392414456065,0.0004219481174507959,-0.0007207756736727301,0.008027040255555801,0.9940408094138661
2014-11-13,1,0.00017683767100496887,0.00020909149195340803,-0.0008358291652326908,0.007195884267598186,0.9936042740236872
2014-11-17,1,7.080828930661044e-05,0.00012722129395884133,-0.00254867119708008,0.007195884267598186,0.9931109052590277
2014-11-19,1,0.00045305055908744657,0.0004561965072391289,-0.00254867119708008,0.00811333485847249,0.9912451451185917
2014-11-21,1,0.0008726177134709516,0.0009396978258888751,-0.001393672406822644,0.00811333485847249,0.9914619573181896
2014-11-25,1,0.0011944561799176528,0.001312655167030146,-0.002532030581391045,0.007624271350046683,0.9915631371438657
2014-11-28,1,0.001561617133294803,0.0017170098116835995,-0.003656486178172348,0.0049894278317778075,0.9919565929698655
2014-12-02,1,0.0011791491967199864,0.001266856844043149,-0.004560291445060292,0.004293505676466501,0.9917044667038944
2014-12-04,1,0.0014130762283909558,0.0015238888542318406,-0.005956012963147893,0.003858424046498707,0.9909126790533006
2014-12-08,1,0.0008385496269501078,0.0008387169654000314,-0.00843637111476997,0.004293505676466501,0.9898127471704761
2014-12-10,1,0.0011315625329893135,0.0011983883420589284,-0.00843637111476997,0.005883281228949663,0.9888237011628525
2014-12-12,1,0.0003242068720080169,0.00035202004056731473,-0.00843637111476997,0.005883281228949663,0.9896995460289439
2014-12-16,0,-2.4371510764969735e-05,3.4713355648897476e-05,-0.009299215262524562,0.005883281228949663,0.9896314506162822
2014-12-18,1,0.0014842726972970745,0.001599827899005834,-0.009299215262524562,0.003858424046498707,0.9911118364278031
2014-12-22,1,0.0014753860492360442,0.001571239033552293,-0.009299215262524562,0.0053464578264301845,0.9896309576337124
2014-12-24,1,0.0013121877991884344,0.0014185977333753203,-0.009299215262524562,0.004413374681003153,0.9898191299926125
2014-12-29,1,0.0013999805707088188,0.001506929597001252,-0.009299215262524562,0.004413374681003153,0.9892976358669237
2014-12-31,1,0.0006323643573623932,0.000668578614956361,-0.008912225525654259,0.01092437428507593,0.9886829491771345
2015-01-05,1,0.0002757835393413064,0.00029178582920542516,-0.007539234559909316,0.011248463779017743,0.9890960185533023
2015-01-07,1,0.0006155540647026407,0.0006693379085350042,-0.0066306788861354524,0.010470353984358218,0.9899310783340295
2015-01-09,1,0.0010133994412420324,0.001134040572908301,-0.0066306788861354524,0.009543767572310907,0.990661499673307
2015-01-13,1,0.0007362979277624732,0.0008246591495012875,-0.005016812326291758,0.010470353984358218,0.9904783369025274
2015-01-15,1,0.0004030349122683558,0.0004691727027764911,-0.0034164403167259386,0.010470353984358218,0.99068653878105
2015-01-20,1,0.0005308805449439772,0.0006033940992375311,-0.003715017027192923,0.010470353984358218,0.990672759988419
2015-01-22,1,0.001930709894133461,0.0021859003630042805,-0.003715017027192923,0.008542582211476107,0.992313666926279
2015-01-26,1,0.001652268036740531,0.001880824227610457,-0.0037705689887376,0.008542582211476107,0.992281000366611
2015-01-28,1,0.0010073938947362437,0.0011423556980171732,-0.0034164403167259386,0.008542582211476107,0.9929567075540056
2015-01-30,1,0.001006741599100118,0.0011439530799129114,-0.0034164403167259386,0.008542582211476107,0.9940258608182989
2015-02-03,1,0.001587500850591257,0.0017956700204934972,-0.0034164403167259386,0.009145079129581605,0.9939806739985573
2015-02-05,1,0.001647058174053456,0.0018704281927734746,-0.0034580979800554602,0.008136055480982712,0.993392823290261
2015-02-09,1,0.0013398664380691416,0.0015215355471461466,-0.003434957637240831,0.008136055480982712,0.9933342810569188
2015-02-11,1,0.001837175394790657,0.0021032107697520662,-0.00165738132063776,0.008136055480982712,0.9935093311305175
2015-02-13,1,0.0019454570007454669,0.0021942871918267863,-0.004093464198556016,0.009294070225797327,0.9925685859024649
2015-02-18,1,0.0016341855429333467,0.00182006840701011,-0.003941936858126849,0.012703496677393206,0.9919418135233958
2015-02-20,1,0.0022455963100997955,0.0025072098273867635,-0.0041721421675595055,0.009546536432838648,0.9920590111340069
2015-02-24,1,0.0014890565758677447,0.0016035077244928519,-0.005378324948136154,0.009546536432838648,0.9916030140150309
2015-02-26,1,0.001241094615548452,0.0013033958967993285,-0.005871159792009602,0.009546536432838648,0.9903484491485299
2015-03-02,1,0.001411704886271448,0.0014907195392453109,-0.005378324948136154,0.010193882341900625,0.9903253295791881
2015-03-04,1,0.0019583515142290796,0.0021320437861488822,-0.0063240857463815045,0.0041022936637605985,0.9902490504610175
2015-03-06,-1,-0.00022729285972464285,-5.613501554640283e-06,-0.005378324948136154,0.004399005531198659,0.9913206037618609
2015-03-10,-1,-0.00030426299772793035,-8.917941431524042e-05,-0.0051784424810145625,0.006946778697422379,0.9913136257980326
2015-03-12,1,0.0004328940013232567,0.0005368459292815144,-0.0051784424810145625,0.004607489701964561,0.9919339436512961
2015-03-16,1,0.0011488916854458916,0.0011529544540052792,-0.0051784424810145625,0.0031802041503076264,0.9927726615670704
2015-03-18,1,0.0013919608668864982,0.0014378937261617733,-0.005813666794419905,0.0031802041503076264,0.9934211632510046
2015-03-20,1,0.0016181599294035375,0.0016413978103278202,-0.008051176696233345,0.004265711504099005,0.992581254167095
2015-03-24,1,0.0009124285147225056,0.0009677881975456433,-0.008051176696233345,0.004265711504099005,0.9920199930787551
2015-03-26,1,0.0001670734338838266,0.0002964997327141407,-0.008051176696233345,0.004265711504099005,0.9928301682068278
2015-03-30,1,0.0009540445323421129,0.0009903470098413245,-0.008051176696233345,0.0031802041503076264,0.9935183789555938
2015-04-01,1,0.000611086626753327,0.0006651265453457248,-0.007588123438628081,0.0031802041503076264,0.993636219033397
2015-04-06,1,0.001127922439059334,0.001129432321143719,-0.007588123438628081,0.004265711504099005,0.9927778222922433
2015-04-08,1,0.0008267079231057175,0.0008792249265710344,-0.008051176696233345,0.0021518235575182154,0.9922315204108494
2015-04-10,1,0.0008683222603193204,0.0009045952824882524,-0.008051176696233345,0.001903516352060648,0.9915068685352688
2015-04-14,1,0.0003998810669988065,0.0004906697446132258,-0.007588123438628081,0.005187047339604686,0.9915934898856383
2015-04-16,1,0.0004067894451728443,0.000493382344831618,-0.0068689570989644445,0.005993339997368888,0.9911287252579094
2015-04-20,1,0.0003194817413079421,0.00040582465152041905,-0.005536303069555526,0.005993339997368888,0.9916361890171798
2015-04-22,-1,-0.00017947875233270439,-4.776588643816052e-05,-0.004359632330937727,0.005993339997368888,0.9928116272216582
2015-04-24,-1,-0.00038192443295777674,-0.0002603847670911613,-0.004355405359481181,0.005993339997368888,0.9930747849251541
2015-04-28,-1,-0.0007107920006096047,-0.0005332001555733452,-0.005152660723023307,0.006158247367272595,0.992306390266781
2015-04-30,-1,-0.000969103082676015,-0.0007753422997133506,-0.005152660723023307,0.006158247367272595,0.9922750206831299
2015-05-04,-1,-0.0002734971212339742,-0.0001555652027142333,-0.005152660723023307,0.006132820459249551,0.9930768202420305
2015-05-06,-1,-0.0009751385117536347,-0.0007742290168408714,-0.005152660723023307,0.006132820459249551,0.9929571384085986
2015-05-08,-1,-0.0009025509516417985,-0.000661526034875539,-0.005152660723023307,0.004357834473344072,0.9936628867038902
2015-05-12,-1,-0.001364197069816693,-0.0010457212292443647,-0.004962276213806997,0.004505790571232416,0.9934845671578043
2015-05-14,1,0.0005034708442004183,0.0005138060249050082,-0.004962276213806997,0.0036665718923223995,0.9943453975764813
2015-05-18,1,0.0006817473951679682,0.0007159958823611647,-0.004962276213806997,0.0034064098214725926,0.994199704722125
2015-05-20,1,0.000731390369237611,0.0007915359556319789,-0.004962276213806997,0.0034560495831445796,0.9933599284289162
2015-05-22,1,0.000440353086544866,0.0004513193619348279,-0.005865898572929466,0.003901667283072947,0.9930288898803821
2015-05-27,-1,-0.00012785507245935884,-3.6065179148951155e-05,-0.005865898572929466,0.0034560495831445796,0.9930975013762912
2015-05-29,-1,-0.0010491386896154383,-0.0008128303285193648,-0.008797183478991685,0.0034560495831445796,0.9927175049139277
2015-06-02,-1,-0.0006212533733416586,-0.0004394569817024475,-0.008797183478991685,0.003901667283072947,0.9912111949054908
2015-06-04,-1,-0.0010048705986169665,-0.0007887471570169863,-0.008797183478991685,0.003542225688879166,0.9914587639320718
2015-06-08,-1,-0.0013984887413518508,-0.0011125834631231552,-0.008917514435202455,0.003518291857142793,0.991103084935748
2015-06-10,-1,-0.0014683177952933301,-0.0011456956321110518,-0.009412958082287638,0.0029317114827056142,0.9903186716092203
2015-06-12,-1,-0.0012681326617701013,-0.0009799064563867557,-0.009412958082287638,0.0040792467582737415,0.9895410151292163
2015-06-16,-1,-0.0006758787491647988,-0.000534053589149041,-0.008917514435202455,0.0040792467582737415,0.9898176125649334
2015-06-18,-1,-0.0001375177111535869,-5.487935771447371e-05,-0.009412958082287638,0.002258455500534876,0.9901485431300039
2015-06-22,-1,-0.000788820566611927,-0.0005977917738968137,-0.009412958082287638,0.0008293250738443357,0.9908020314091875
2015-06-24,-1,-0.0015903518012179503,-0.0012970468352880072,-0.009017164148720499,0.002258455500534876,0.9890462758515752
2015-06-26,-1,-0.0019902752104037917,-0.0016735365834901186,-0.009017164148720499,0.002258455500534876,0.9887748967730946
2015-06-30,-1,-0.00044244819892398673,-0.0003231965043828165,-0.009017164148720499,0.002258455500534876,0.988290598882873
2015-07-02,-1,-0.0012389427127988872,-0.0010117456413609245,-0.008878892260125282,0.002258455500534876,0.9888238576713523
2015-07-07,-1,-0.0016642465930306822,-0.0014084645025748237,-0.008445358829021305,0.002258455500534876,0.9891595555343032
2015-07-09,-1,-0.002303482202518351,-0.001998976973331945,-0.007415324429713269,0.005242442875805002,0.9901290295817633
2015-07-13,-1,-0.0016338910387637315,-0.0014044222683047367,-0.007415324429713269,0.0026174402421780996,0.9899896395573
2015-07-15,-1,-0.0015459926357406042,-0.0013474923422022171,-0.008445358829021305,0.0026174402421780996,0.9895274670450159
2015-07-17,-1,-0.001955736910442356,-0.0017076089183051405,-0.007415324429713269,0.0038263144075962995,0.9898112921857919
2015-07-21,-1,-0.0020622306899867114,-0.0018023619560899311,-0.008445358829021305,0.005172489509835191,0.9893959584717076
2015-07-23,-1,-0.0005836451104811195,-0.0005081952089890315,-0.008445358829021305,0.002612817554074113,0.990776376342156
2015-07-27,-1,-0.0013320399715901707,-0.0012027457196766142,-0.009233195248456557,0.002612817554074113,0.9876484981621452
2015-07-29,1,0.0001130267900168568,0.0001379901291422969,-0.009233195248456557,0.002612817554074113,0.9877164533568329
2015-07-31,-1,-0.00034094719957302155,-0.000297824232825275,-0.00889275191018552,0.005172489509835191,0.9855307183207905
2015-08-04,-1,-0.000438349695889462,-0.0004100534636757228,-0.01106592467868443,0.005172489509835191,0.9839322019029103
2015-08-06,-1,-5.949802084794569e-05,-1.4843025672202706e-05,-0.01106592467868443,0.005670012757935486,0.9830556279520374
2015-08-10,1,0.0005571247142131489,0.0007044088262652332,-0.014427627470954645,0.005670012757935486,0.9821572870177485
2015-08-12,1,0.00020713861235534817,0.00030896428859975825,-0.01955651329872041,0.012004700104353786,0.9812711838006419
2015-08-14,0,-3.5770811336480494e-05,1.1780555632717109e-05,-0.01955651329872041,0.012004700104353786,0.9814291106626879
2015-08-18,-1,-0.000572457809241186,-0.0005164889570063232,-0.01955651329872041,0.015113817596918823,0.9809648075401447
2015-08-20,-1,-0.0007196748130632962,-0.000676900750848818,-0.017757927911203765,0.015113817596918823,0.9809802783732547
2015-08-24,-1,-0.003330784672088234,-0.0029749674596114247,-0.011679830615005648,0.015113817596918823,0.9836832433966923
2015-08-26,-1,-0.002153889990853373,-0.001954475614409322,-0.011679830615005648,0.009905852247767093,0.9852331280903939
2015-08-28,-1,-0.0007537404886209381,-0.000724479572269499,-0.017757927911203765,0.008965343242591989,0.9864604703888817
2015-09-01,-1,-0.0018396166614092339,-0.0016943851437009397,-0.010544703103169243,0.012127036037364336,0.986932096734528
2015-09-03,-1,-0.001057547247281305,-0.0009941756617170435,-0.01747630895515669,0.009992307661725597,0.9874017411243989
2015-09-08,-1,-0.001197750824852903,-0.001118949074311413,-0.012126146078913233,0.009992307661725597,0.9876290819261176
2015-09-10,-1,-0.0012894458713162654,-0.0011964108370902953,-0.008847238244039882,0.008931670775509274,0.988378222449066
2015-09-14,-1,-0.0016030399328468888,-0.00143940909397061,-0.008847238244039882,0.008931670775509274,0.9883243708150135
2015-09-16,-1,-0.001080198794634687,-0.000964415507725579,-0.008847238244039882,0.008325218028064097,0.9891147044344375
2015-09-18,-1,-0.0014954056951299198,-0.001328401230623563,-0.006981043603958723,0.00935617432886828,0.9886135273428308
2015-09-22,-1,-0.0022950249435545154,-0.002021667744932778,-0.004869457787469888,0.00935617432886828,0.9893120981986033
2015-09-24,-1,-0.0017844922537032738,-0.0016031014057306264,-0.004869457787469888,0.009992307661725597,0.9854803228717508
2015-09-28,-1,-0.0023631783527568785,-0.002094503864801718,-0.0036692726487141396,0.011627266182565727,0.9851613394577121
2015-09-30,-1,-0.0012687950815705,-0.0011536923188215356,-0.0036692726487141396,0.00935617432886828,0.9864078357350509
2015-10-02,-1,-0.0014107216626635666,-0.0012809995306286468,-0.0033451810971939834,0.008852317372386129,0.987583573731211
2015-10-06,-1,-0.0006399937009892104,-0.0006300778695907691,-0.0033441541425730612,0.008852317372386129,0.9886122676709692
2015-10-08,-1,-0.00017167967479302665,-0.00011685853798647252,-0.0034511563855611858,0.008431428972361894,0.9893789376247827
2015-10-12,-1,-0.00011675244784225449,-4.941504348955866e-05,-0.0036343818035825632,0.008763410891177706,0.9890005003297735
2015-10-14,-1,-0.00017131206021364547,-0.00011669215429872638,-0.0036343818035825632,0.008763410891177706,0.9888303040898381
2015-10-16,1,0.0004128846498260425,0.0005406672802730525,-0.004459259991506457,0.006700152897257544,0.9886596954774579
2015-10-20,1,0.000370518785258251,0.00047968791054427124,-0.005765158382020309,0.008260292294172751,0.9871647101677415
2015-10-22,1,5.686860280564108e-05,0.00014172606262706272,-0.004363830047700027,0.008260292294172751,0.9904390763267975
2015-10-26,1,0.0006801776638035371,0.0008323480935108818,-0.004363830047700027,0.008260292294172751,0.991397917569891
2015-10-28,1,0.0009257491627948251,0.001109143126966015,-0.005765158382020309,0.006143305366842586,0.9911712406472684
2015-10-30,1,0.000970102210580562,0.0011724689141601437,-0.005765158382020309,0.006143305366842586,0.9913145383920761
2015-11-03,1,0.001317946208322142,0.001574141150711342,-0.009310049131369165,0.005993431398083404,0.9910749372242921
2015-11-05,1,0.0011715059200963986,0.0013976277417331543,-0.012192423947912909,0.00814265230671102,0.9894214126883661
2015-11-09,1,0.0014884234005167962,0.0017819180953653083,-0.012192423947912909,0.005993431398083404,0.989539632846805
2015-11-11,1,0.0014031417610341761,0.0016808036574546804,-0.012192423947912909,0.0047374308299647115,0.9893644546503768
2015-11-13,1,0.0005005600447205669,0.0006335331722687436,-0.009099882461635046,0.005134497827466408,0.989959245148842
2015-11-17,1,0.0006516820696594427,0.0007787326614379631,-0.0077032884302856725,0.005134497827466408,0.991183104293821
2015-11-19,1,0.0013851072920035446,0.0016608090338522407,-0.009188879631869479,0.003784670659802901,0.9909805511627914
2015-11-23,1,0.001489756517604772,0.0017566583031053827,-0.009188879631869479,0.005134497827466408,0.9903556266434607
2015-11-25,1,0.0010576948618484894,0.0012436175500728653,-0.0077032884302856725,0.00809261266891264,0.9904961254158069
2015-11-30,1,0.0008502356965878804,0.0009719936232260526,-0.0077032884302856725,0.00809261266891264,0.9901672550988707
2015-12-02,1,0.0008914923557556862,0.0010441615080701175,-0.008506207480691771,0.00604766127820216,0.990134298976754
2015-12-04,1,0.0009076097544314195,0.0010537300322681444,-0.01009780180836923,0.004452847363896248,0.9901409943369024
2015-12-08,1,0.0005969090566984999,0.0006857727237370113,-0.014353054141014393,0.004452847363896248,0.9877407123363301
2015-12-10,1,0.00022515368054121232,0.0002589223523929478,-0.01568268393565562,0.004452847363896248,0.9874584102851839
2015-12-14,1,0.00042203525649293146,0.0005359864376932962,-0.01588682128098612,0.00604766127820216,0.9863436078326328
2015-12-16,1,0.00015564728512018787,0.00019991478141938656,-0.019083097231804375,0.003894414959281625,0.9857700228352472
2015-12-18,1,0.0001607694068332419,0.0002564884314226569,-0.01588682128098612,0.006176583804995604,0.9856960868043788
2015-12-22,1,0.0006764951605831703,0.0008343460642822728,-0.01588682128098612,0.0063539419420964825,0.984604812533906
2015-12-24,1,0.0006838377876803013,0.0008237462748221835,-0.01588682128098612,0.006025190287957148,0.9842518979962289
2015-12-29,1,0.0007467558618870539,0.0008991418854105847,-0.01588682128098612,0.004653428763567572,0.9844598822924882
2015-12-31,1,0.000472518736541149,0.0006122977199609896,-0.01588682128098612,0.011040413871609365,0.9843555168340615
2016-01-05,-1,-0.0004748626414583561,-0.00047061125261710915,-0.013825637851922253,0.011040413871609365,0.9853923225371656
2016-01-07,-1,-0.0019017620130339255,-0.001729838320706341,-0.008459680288535693,0.012764817555507586,0.987633798961813
2016-01-11,-1,-0.00241707278057556,-0.0021806794757809117,-0.0056027502937182234,0.012764817555507586,0.9878282725985791
2016-01-13,-1,-0.0023716360000998163,-0.0021204223436566013,-0.0056027502937182234,0.011417636862450198,0.9886064403838196
2016-01-15,-1,-0.004313982900595479,-0.0037267962964405215,-0.0032643897468003415,0.015213418304820326,0.9874068104054136
2016-01-20,-1,-0.0033385248508987983,-0.0029020165216295107,-0.0032643897468003415,0.015213418304820326,0.987611735029781
2016-01-22,-1,-0.0013752650143343138,-0.0012242784670526239,-0.0032643897468003415,0.01065462067592127,0.9901287138573887
2016-01-26,-1,-0.002146354524740144,-0.001849816168607962,-0.0032643897468003415,0.01065462067592127,0.9902583628137092
2016-01-28,-1,-0.0017000098004850517,-0.0014949315330528802,-0.001064812171935302,0.01065462067592127,0.9899966355700764
2016-02-01,-1,-0.0010823436289156437,-0.0009414051148565473,-0.001064812171935302,0.01065462067592127,0.9899046352067149
2016-02-03,-1,-0.0015038314208718527,-0.0013101661204450439,0.0009187633807439407,0.011009720155988865,0.9893767365966629
2016-02-05,-1,-0.0011942471953174248,-0.0010399586233238193,0.0014596283883542545,0.011009720155988865,0.9892782373895095
2016-02-09,-1,-0.0010724943252773513,-0.0009617478995672453,0.001731420173947878,0.011009720155988865,0.9889646664730873
2016-02-11,-1,-0.0012751625479581938,-0.0011242814698496657,0.001731420173947878,0.011009720155988865,0.989249280656046
2016-02-16,-1,-0.0007154635956328299,-0.000601197537419301,-0.0006736021021880845,0.008115825307276756,0.9908933444826604
2016-02-18,-1,-0.00024628251666177804,-0.0001701260837088163,-0.0006736021021880845,0.009972027856867915,0.9910272689118717
2016-02-22,-1,-0.00027043484905637117,-0.00017480709922934666,-0.0036342906120048722,0.009972027856867915,0.9905921560298143
2016-02-24,1,0.0001153384039427722,0.0001299394678557182,-0.0036342906120048722,0.009972027856867915,0.9908632296767119
2016-02-26,1,0.0001830165621918575,0.00020060619198582544,-0.0036342906120048722,0.009972027856867915,0.9910575367561129
2016-03-01,1,0.0011616994372846208,0.0012899959922276776,-0.0036342906120048722,0.009563323939873887,0.9925871040249598
2016-03-03,1,0.0017060327560549245,0.0019274967003671093,-0.0036342906120048722,0.009563323939873887,0.9929227769628504
2016-03-07,1,0.0020239293545213422,0.0022826518775008,-0.004947936129590731,0.009450622629410358,0.9930450244469698
2016-03-09,1,0.001546317758044864,0.0017360070042460479,-0.004947936129590731,0.009450622629410358,0.9934473295432521
2016-03-11,1,0.001972479533483653,0.002254309826623991,-0.0031322902479476245,0.009450622629410358,0.9939566478893659
2016-03-15,1,0.0017388157783994355,0.0019914327707459653,-0.001680065781876541,0.010023946914712069,0.9939699468360125
2016-03-17,1,0.0023794622794431827,0.0026788846680003407,-0.0030368843148488645,0.006409036936120201,0.9945647387833648
2016-03-21,1,0.0028280995780191787,0.003239490369226866,-0.0034573374036952578,0.0038110505639546597,0.9946353611866462
2016-03-23,1,0.0027942929997234554,0.00321779975193802,-0.004175856663662053,0.0038110505639546597,0.9936834926385314
2016-03-28,1,0.002893766548304053,0.0033225634124651885,-0.004175856663662053,0.0023993993723684264,0.9934576402874502
2016-03-30,1,0.003238091151348782,0.003730541846645846,-0.004175856663662053,0.0023993993723684264,0.9935378256392798
2016-04-01,1,0.0035067501896425433,0.0040271744984928136,-0.005614256787515887,0.0012987542641930772,0.9924163942168102
2016-04-05,1,0.003353718655941673,0.0038574363982667777,-0.008484577569215437,0.0023993993723684264,0.9923052744052091
2016-04-07,1,0.003077174161654598,0.003537371030100708,-0.006901890290684821,0.002802231493443684,0.9926230447264972
2016-04-11,1,0.0028919688158698218,0.003271232720978702,-0.006901890290684821,0.004049029876923395,0.9930173394685239
2016-04-13,1,0.0033989994089892164,0.003871072666412537,-0.006901890290684821,0.004049029876923395,0.9930838394912469
2016-04-15,1,0.0033601055469496565,0.0038467661159414133,-0.008484577569215437,0.004049029876923395,0.9924034733167724
2016-04-19,1,0.0033491019547816506,0.003857660332482077,-0.008484577569215437,0.004934097914575929,0.9924563954669194
2016-04-21,1,0.002408321487182559,0.0027711530730809403,-0.006490708098822774,0.004934097914575929,0.9936892680416631
2016-04-25,1,0.002380728952693285,0.0027470409720656685,-0.006490708098822774,0.005393123992392588,0.993354653126615
2016-04-27,1,0.002378660944181474,0.002729625893392419,-0.006490708098822774,0.005634312235057625,0.9925655764771222
2016-04-29,1,0.0018069419935722413,0.002087711638814497,-0.005511586636816014,0.005764581442127993,0.9935150278492173
2016-05-03,1,0.0016035684375504912,0.001841684619951506,-0.004293661255081665,0.005764581442127993,0.9938776760042776
2016-05-05,1,0.0013064773977192298,0.001479404029034796,-0.00046783850185498144,0.005764581442127993,0.9940755900895161
2016-05-09,1,0.0013133982282623287,0.0014615960551820507,-0.00046783850185498144,0.005764581442127993,0.9941736756852412
2016-05-11,1,0.001258840609854712,0.0013987027974679427,-2.0015387586880522e-05,0.00621773633048511,0.9942103591608464
2016-05-13,1,0.00027099582845661874,0.0003012545608356727,-2.0015387586880522e-05,0.00621773633048511,0.9935704451787007
2016-05-17,1,0.0008257334363749962,0.0009094839777375548,-0.0010240402764451818,0.005764581442127993,0.9943622423399516
2016-05-19,1,0.0008478029400787743,0.0009456918401276181,-0.0016915769272013738,0.005764581442127993,0.9942570424639195
2016-05-23,1,0.001352170514331022,0.0015157052745202438,-0.0016915769272013738,0.005001614829469919,0.9948668464557782
2016-05-25,1,0.001520061291851832,0.0016645978394796447,-0.0016915769272013738,0.005001614829469919,0.994740471226948
2016-05-27,1,0.0009903656424167667,0.0010088300246393052,-0.004492971677460251,0.004598791418281196,0.991456720358546
2016-06-01,1,0.00015809029559488012,0.0003203370136408357,-0.004492971677460251,0.005011726442118836,0.9913942450848273
2016-06-03,0,-0.0002146765788168005,2.8462840421362642e-05,-0.004492971677460251,0.0060510622178540155,0.9909229267452375
2016-06-07,0,-0.0001276274010019201,0.00010719653942030144,-0.007913740764145576,0.0060510622178540155,0.9900968842057493
2016-06-09,-1,-0.0006561809682869089,-0.0002982392773436106,-0.007913740764145576,0.0060510622178540155,0.989514530556945
2016-06-13,-1,-0.0010753522781806926,-0.0007200341868609344,-0.002005438823978446,0.0060510622178540155,0.9901622335305224
2016-06-15,-1,-0.0005446809646511847,-0.00031342877100522834,-0.001901138157863985,0.006900733329697855,0.9895939129476696
2016-06-17,-1,-0.0010519463768411575,-0.0007519789790843417,-0.00042717695925894303,0.007602525284989622,0.9892609383299417
2016-06-21,-1,-0.0010613808616743371,-0.0007513558882048416,-0.0012496851670333767,0.009899730907861694,0.9887723133120885
2016-06-23,0,-0.00016352901348674128,1.2580659806870102e-05,-0.0021438369801935826,0.007590059393080863,0.9899494576120674
2016-06-27,-1,-0.0025386240626517707,-0.002055507948450096,-0.0004757691906299357,0.009899730907861694,0.9913175733168509
2016-06-29,-1,-0.002090655041226996,-0.001666180475994335,-0.0021438369801935826,0.007819286825803913,0.9922564269315327
2016-07-01,-1,-0.0019518880538119045,-0.0015259705571103773,-0.0019792931837020584,0.006160543438926246,0.9928535181628905
2016-07-06,-1,-0.0029151784908537457,-0.002356057214395719,-0.0019792931837020584,0.006160543438926246,0.992761603589076
2016-07-08,-1,-0.0016505301139345062,-0.0012887360883371386,-0.0019792931837020584,0.006160543438926246,0.9936783807127332
2016-07-12,-1,-0.0010632272310955974,-0.0008084712661656141,-0.0019792931837020584,0.006160543438926246,0.9939997188315497
2016-07-14,-1,-0.0006725360417594999,-0.0004705660051403474,-0.0019792931837020584,0.005438237043337127,0.9945189306505817
2016-07-18,-1,-0.0004528119004917758,-0.00027282822194773593,-0.0019792931837020584,0.004688641966935053,0.9950320090692484
2016-07-20,-1,-0.00033489074196091,-0.00017992800034741338,-0.0019792931837020584,0.00425316011542856,0.995352380093924
2016-07-22,1,0.00010468788653855295,0.00015873088282647172,-0.0007927820532300383,0.005438237043337127,0.9946476746330463
2016-07-26,1,0.0005393309896150357,0.0005620591665076355,-0.0004165466083619086,0.005119469848277283,0.9953792433841855
2016-07-28,1,0.0006192343024163161,0.0006764972788284179,-0.0004165466083619086,0.005119469848277283,0.9955789952310046
2016-08-01,1,0.0004563889257138548,0.00046310832819179107,-0.0003273386109502419,0.005119469848277283,0.9954154545780987
2016-08-03,1,0.0003363411764203513,0.00033804794235405954,4.076701707463547e-05,0.004635381960926167,0.9961089474209481
2016-08-05,1,0.0005270010136330038,0.0005281089974060761,4.076701707463547e-05,0.00425316011542856,0.9966765311206641
2016-08-09,1,0.000967725946129544,0.0010738091248972187,0.00028142722632589845,0.004131125334151252,0.9968849833190716
2016-08-11,1,0.0010421997313974651,0.001158964759630273,0.000279282923494788,0.0035162817098690863,0.9958077289894629
2016-08-15,1,0.0009777239852869753,0.0010744137712300845,4.076701707463547e-05,0.004274734627931995,0.9947147529250417
2016-08-17,1,0.0007666668757314179,0.0008443662913201291,0.000279282923494788,0.006092849699323328,0.994471462894534
2016-08-19,1,0.0013646708708983414,0.0015337088992797084,0.000279282923494788,0.004274734627931995,0.9948475388366508
2016-08-23,1,0.0016446646459273323,0.0018700745905323166,0.0003202683381971834,0.006668956819105041,0.9944352876952169
2016-08-25,1,0.0015182125787733143,0.001717592909195984,0.0005620297241788724,0.009951864447987216,0.9930562378043004
2016-08-29,1,0.0016958299062084467,0.001904231502514813,0.0003202683381971834,0.008388979214515417,0.9928524134281074
2016-08-31,1,0.0019201932487396553,0.0021747107306327408,-0.000915619947695772,0.008583166432843318,0.99244916160266
2016-09-02,1,0.002154533722352878,0.00245581291603467,-0.00493732560466539,0.008583166432843318,0.9921278256160868
2016-09-07,1,0.0021315953437550514,0.0024185443714273913,-0.00493732560466539,0.010000158709821724,0.9916813355782539
2016-09-09,1,0.001274526101287707,0.0014334422058085374,-0.002871176162972046,0.010166544483761869,0.99221892042581
2016-09-13,1,0.0009579067431865638,0.0010308482754441907,-0.00493732560466539,0.009386697471216275,0.9920896127025104
2016-09-15,1,0.0013870268033720095,0.0015105821770229522,-0.006374504113636952,0.007914243269591155,0.9923234079062732
2016-09-19,1,0.0017638632261477497,0.0019419003992769755,-0.007853783903937088,0.007247725292270452,0.9923299597748027
2016-09-21,1,0.001835944928642643,0.00198453076290748,-0.007853783903937088,0.007247725292270452,0.991892947432076
2016-09-23,1,0.0014030151237754984,0.001492683056347884,-0.007256795323200626,0.007247725292270452,0.9917875849372813
2016-09-27,1,0.0012884592502142174,0.001356470808544329,-0.007853783903937088,0.004941072195945844,0.9917272049619617
2016-09-29,1,0.0013862713725906444,0.0014756316224838581,-0.007853783903937088,0.004384460938819151,0.991932976822581
2016-10-03,1,0.001168458349822151,0.0012241232473607167,-0.007256795323200626,0.005591255733567356,0.9922368291134792
2016-10-05,1,0.0009584884898188265,0.0009630622118624104,-0.007857319164841134,0.004384460938819151,0.9920239173040648
2016-10-07,1,0.0010990805451838665,0.0011169241882370668,-0.007857319164841134,0.0029301142851678643,0.9923386338177942
2016-10-11,1,0.0003387519026499977,0.0004180791746420477,-0.004302970727447953,0.004384460938819151,0.9921819574813159
2016-10-13,1,0.00022526066508896485,0.000297541388209947,-0.004302970727447953,0.005591255733567356,0.9916829086319338
2016-10-17,1,0.0004048083656900422,0.00042711303629376147,-0.0026759059607544375,0.005591255733567356,0.992173363071558
2016-10-19,1,0.001130099616361416,0.0012113357238683281,-0.0026759059607544375,0.0069149972608283025,0.9927146696092216
2016-10-21,1,0.0016994638382831486,0.0018691935811772755,-0.0006103923229638143,0.005591255733567356,0.9943101501149808
2016-10-25,1,0.0014128952735712754,0.001553319482246565,-0.0002572005213195264,0.005591255733567356,0.9948574948844008
2016-10-27,1,0.0014978050895389603,0.0016574376246665345,0.00022057049523880668,0.0069149972608283025,0.9948027703851494
2016-10-31,1,0.0017220675682531367,0.0019160093361381804,-0.000914204030573774,0.0049192762518150265,0.9947068023731463
2016-11-02,1,0.001013727127049968,0.0010756349407559204,-0.0013926675006353854,0.0049192762518150265,0.9941841414406529
2016-11-04,1,0.00084166141136359,0.0008711890576622637,-0.000914204030573774,0.007700813871504039,0.993708500685191
2016-11-08,1,0.0013470634229740474,0.0014209738282382016,-0.0013926675006353854,0.007521480611604086,0.994510141958129
2016-11-10,1,0.0012046450694464333,0.0012662488449818917,-0.0013926675006353854,0.007521480611604086,0.9947823746626825
2016-11-14,1,0.001620488640920196,0.0017609857177109595,-0.002518506933284418,0.007521480611604086,0.9941008518022455
2016-11-16,1,0.0008999326105277037,0.00099115365358346,-0.002518506933284418,0.004509379070257127,0.994648945014965
2016-11-18,1,0.0011358929874734217,0.001180726094940565,-0.0028870769851719142,0.007107895629534074,0.9938532932523033
2016-11-22,1,0.0012531117033267448,0.0012638388789839997,-0.0028870769851719142,0.007107895629534074,0.9936363067705107
2016-11-25,1,0.0009047717125358092,0.0009971213590059184,-0.0028870769851719142,0.00537789631195134,0.9941140090382394
2016-11-29,1,0.0010597113295631273,0.0011013163794375079,-0.003925731594709355,0.00537789631195134,0.9937082257250764
2016-12-01,1,9.303761944125472e-05,0.0002428820265116899,-0.003925731594709355,0.00537789631195134,0.9947442901199165
2016-12-05,1,0.000774010665243111,0.0008283947182130872,-0.003925731594709355,0.003984450862051192,0.9949991125389323
2016-12-07,1,0.0009777680504325186,0.0009933952333999352,-0.004811743758224995,0.003984450862051192,0.9948407408294608
2016-12-09,1,0.001070803909856983,0.001077795938847402,-0.005453982155621125,0.003984450862051192,0.9947915038856402
2016-12-13,1,0.0005183410767495417,0.0006009456666127127,-0.002981516604561345,0.0037802438940027694,0.9956085360171805
2016-12-15,1,0.0005340085989615029,0.0006051351931067024,-0.005453982155621125,0.0037802438940027694,0.9954725236315732
2016-12-19,1,0.0003016898728389167,0.000408277191088176,-0.0025322781492985117,0.0037802438940027694,0.99585998951281
2016-12-21,1,0.00035216794378784396,0.0004485463613800154,-0.005453982155621125,0.003996408827761045,0.9954528339781589
2016-12-23,1,8.197609536410647e-05,0.00022526997220227653,-0.0059428187943631715,0.005809457443428565,0.9936446952874509
2016-12-28,0,-0.00013743418721597398,1.2420527981655432e-05,-0.00584300660582182,0.005809457443428565,0.9936957692225378
2016-12-30,-1,-0.000383972958230637,-0.0002077884690952947,-0.00542925686787825,0.0064174839690873346,0.9935229213442224
2017-01-04,0,-6.028825921822688e-05,7.775011314600636e-05,-0.005868642931134546,0.006450649675769962,0.9930744821708817
2017-01-06,0,-6.649781094362377e-05,7.318033808571508e-05,-0.005868642931134546,0.005809457443428565,0.9931950428757964
2017-01-10,-1,-0.0005486768215032745,-0.00033302606483871485,-0.00579046635984822,0.006191753580173036,0.9932065896380433
2017-01-12,-1,-0.00015917982093769116,-1.968586368828704e-05,-0.00579046635984822,0.007175121379197417,0.9928631752181489
2017-01-17,-1,-0.0003185779298990988,-0.00016519732008884303,-0.0022141881327918294,0.007175121379197417,0.9929357754348168
2017-01-19,-1,-0.00018504398150412366,-4.280650535775645e-05,-0.0026387090780704103,0.00604541710511997,0.9931187216970775
2017-01-23,-1,-0.00020502016728242146,-7.478706216106941e-05,0.00027469940532571363,0.005669112640056886,0.9936692528987194
2017-01-25,-1,-0.000718159659841564,-0.0005307710050044963,0.0010889899888907784,0.004766342408478336,0.9949137233318431
2017-01-27,-1,-0.0007662092391072985,-0.0005781261395353446,0.0010889899888907784,0.004766342408478336,0.9947323208210609
2017-01-31,-1,-0.00045160230984948413,-0.00030528510776087046,0.0004670188976514298,0.004766342408478336,0.9939812865830935
2017-02-02,-1,-0.0012368268707053074,-0.0009536587893900307,-0.0005042393611893619,0.0041312362482430875,0.994468435947783
2017-02-06,-1,-0.0012725049544535089,-0.000990590439690836,-0.0005042393611893619,0.003579298120232429,0.9946268767082057
2017-02-08,-1,-0.0004644861981785007,-0.00030671348106321505,-0.002045917765373025,0.0031132639060085267,0.9954463472511106
2017-02-10,1,0.00014743431652187455,0.00020606810763985605,-0.002045917765373025,0.0031132639060085267,0.9952617966708076
2017-02-14,1,0.0005794331498520044,0.0005995174482751188,-0.0034931854421060547,0.003890899316655155,0.9946271356248315
2017-02-16,1,0.0004994097102701931,0.0005030873796289419,-0.004013191133032991,0.0031132639060085267,0.9945303205680268
2017-02-21,1,0.0005287252885223198,0.0005289384207892473,-0.0050294169917501075,0.0031132639060085267,0.9939247934311453
2017-02-23,1,0.0006698959686700397,0.0006900409245603326,-0.0050294169917501075,0.003712330900341311,0.9937015783194773
2017-02-27,1,0.00028955261308374875,0.0003259186747731639,-0.004013191133032991,0.002958589034754092,0.9943895408691187
2017-03-01,1,0.0009727860555219443,0.0010327922063194702,-0.003763723175660133,0.0026947204541418806,0.9953960768520784
2017-03-03,1,0.0008458822963411264,0.0008991555211296335,-0.003763723175660133,0.005053898473692132,0.9948966497112445
2017-03-07,1,0.00030163515565584696,0.0003540672530568981,-0.005622493182776371,0.005053898473692132,0.994368181095104
2017-03-09,0,-8.167951141942523e-05,3.831551700980804e-05,-0.005622493182776371,0.005342365833213167,0.9942121048498891
2017-03-13,1,0.00032265796307900057,0.00040635412708657433,-0.005622493182776371,0.001937983777759217,0.9947285152385618
2017-03-15,1,0.0009834320771833042,0.0010139008245886774,-0.005622493182776371,0.0010994599166285195,0.9946816552191444
2017-03-17,1,0.0010710674195057366,0.0011437374963518662,-0.004927900454544277,0.0022744583096878284,0.9943451503479568
2017-03-21,1,0.00026563958429213835,0.00031911222693338596,-0.0032502250534008556,0.004886185679586932,0.9948783155170721
2017-03-23,1,0.0004890343784695105,0.0005132955370005668,-0.004776313407636439,0.004886185679586932,0.9945325025474504
2017-03-27,1,0.0006008565949351863,0.0006048024653930926,-0.004776313407636439,0.005427086114456388,0.9934182403290663
2017-03-29,1,0.00041739880235929975,0.00046180253058807785,-0.0050936722718343905,0.006671670897508942,0.9926531894357313
2017-03-31,1,0.00015790933391943336,0.00024039647001695418,-0.005613400094426541,0.005427086114456388,0.9929428023405953
2017-04-04,1,6.00329345745503e-05,0.00010799285232490418,-0.00506280050570132,0.005427086114456388,0.9934074755839977
2017-04-06,-1,-8.646668992142714e-05,-1.4213848962483681e-05,-0.00506280050570132,0.0065670146867483695,0.9933370600542076
2017-04-10,-1,-0.0002449344745580319,-0.00015698456968010874,-0.00506280050570132,0.0065670146867483695,0.9931465439753907
2017-04-12,-1,-0.00032740991512670117,-0.000259619916440001,-0.004935171146519294,0.0065670146867483695,0.9933650739766199
2017-04-17,1,9.77390290236255e-05,0.00011026989231277776,-0.004935171146519294,0.005705269436923562,0.9938217626148886
2017-04-19,1,0.0003486437387511175,0.0003658218638921307,-0.00506280050570132,0.00608789878317028,0.993108066679124
2017-04-21,1,0.0006549607527542827,0.00072975845372875,-0.00505588642729406,0.005711983994109896,0.9935580292191579
2017-04-25,1,0.0013451645913422781,0.0015021440431871003,-0.00505588642729406,0.005711983994109896,0.9941716519573933
2017-04-27,1,0.0011123947706862486,0.0011864987768096746,-0.003576923124713311,0.006566561127359203,0.9944408905538507
2017-05-01,1,0.0009130171109638137,0.000991675929420163,-0.0018712589573158195,0.006566561127359203,0.9949890478360346
2017-05-03,1,0.0006388206632327106,0.0006856917454210181,0.0004230820582098511,0.007236534517490291,0.9948008081193491
2017-05-05,1,0.0010748768742864108,0.0011904246507461803,-8.123431362854345e-05,0.006434568032624015,0.9952698302086272
2017-05-09,1,0.0011102652032230907,0.0012100993143146048,-0.0007758101065537786,0.006434568032624015,0.9952529119835691
2017-05-11,1,0.0010349954458232242,0.0011241742836441931,-0.0007758101065537786,0.006434568032624015,0.9952500544810234
2017-05-15,1,0.0011910092415769627,0.0012992836300303684,-0.0019182319279560079,0.006748291403213168,0.9949959515395632
2017-05-17,1,0.0009102993667765943,0.0009849811782998482,-0.0007758101065537786,0.006315818026110037,0.9960757497690945
2017-05-19,1,0.0010162953246153458,0.0011047846790032034,-0.0011780468022502615,0.005949948116002071,0.9961429497843566
2017-05-23,1,0.0009637153820369266,0.0010215603068532697,-0.0031362286236514374,0.005103869830479654,0.9960491536194798
2017-05-25,1,0.0012949863023708744,0.001382331963996261,-0.003926452212894973,0.003792852841025634,0.9959681358463751
2017-05-30,1,0.0015274396262421987,0.0016616364753254823,-0.004570269067348139,0.003792852841025634,0.9952885695358338
2017-06-01,1,0.0015422767759787088,0.0016802288449204608,-0.004895568059048972,0.003792852841025634,0.9943441723019498
2017-06-05,1,0.0015616476173399396,0.0016894522991350775,-0.005225974317387518,0.0016462115929733465,0.9939888574781582
2017-06-07,1,0.001592847032887082,0.0017276438915216357,-0.005907259527277067,0.0016462115929733465,0.9929270129985223
2017-06-09,1,0.0012908344349530669,0.0013780920286373482,-0.005619999829663181,0.005540720169091353,0.9927712208102139
2017-06-13,1,0.0013924055049549658,0.001501845689716071,-0.005619999829663181,0.0061747102745361125,0.9925953959071562
2017-06-15,1,0.0012932107265002412,0.0013786945477993104,-0.005619999829663181,0.0061747102745361125,0.9925440926943192
2017-06-19,1,0.00081451313534894,0.0008196363109258921,-0.005385346803862597,0.0061747102745361125,0.9928769667724108
2017-06-21,1,0.0002431413100120792,0.00032045885208137743,-0.004400924773157011,0.00899940645373104,0.9931306241115556
2017-06-23,1,0.000449928847672548,0.0004924324639909551,-0.00218379853815047,0.0061193451529537165,0.9937358111805493
2017-06-27,-1,-0.00013619193954255728,-1.727691837714884e-05,-0.0012649448646441025,0.0061193451529537165,0.9935317217516287
2017-06-29,-1,-0.0004842258910621102,-0.0003144675445759157,-0.0006995273220526369,0.0061193451529537165,0.9941057005715148
2017-07-03,-1,-0.0006107612880872042,-0.00044456866731337866,-3.353582252401478e-05,0.00899940645373104,0.9936989657265135
2017-07-06,-1,-0.0007262279008450463,-0.0005648557949471736,6.840838776518655e-05,0.007063333768367482,0.9945823719993562
2017-07-10,-1,-0.00010593814748685587,-2.273771321626431e-05,-0.00023034230003927004,0.006067615508858191,0.9954977858667625
2017-07-12,1,0.00025697675774899746,0.00029427885676881267,-0.00012829857155162005,0.006067615508858191,0.9959559204399115
2017-07-14,1,0.00021928977786143326,0.00025793848808381147,-0.00012829857155162005,0.006067615508858191,0.9954055472870672
2017-07-18,1,0.0004135037901581988,0.00042332464734629624,-0.00039369469118503275,0.006494620584635525,0.9948254846141074
2017-07-20,1,0.0005150714161220539,0.0005256896050231095,-0.0014382444070339883,0.006067615508858191,0.9948119451724409
2017-07-24,1,0.0007575512693122451,0.0008104736968755442,-0.0022386574099058114,0.006067615508858191,0.9944749227163122
2017-07-26,1,0.000322315208309952,0.0003369051355998371,-0.0022386574099058114,0.006494620584635525,0.9942753990924071
2017-07-28,1,0.0006767740973278497,0.0006993830270498884,-0.0022386574099058114,0.006067615508858191,0.9948102562681002
2017-08-01,1,0.0010387687821309143,0.0011025972784339205,-0.0022386574099058114,0.005154769352439841,0.9952940883408926
2017-08-03,1,0.0014046344028611078,0.0015438937210486491,-0.0022386574099058114,0.005154769352439841,0.995298303824518
2017-08-07,1,0.0015122828541011438,0.001673621419789616,-0.0027424824462579335,0.005154769352439841,0.9951154855092613
2017-08-09,1,0.001497329139548715,0.0016408099837028664,-0.0027424824462579335,0.0050641058343038675,0.9952580165326473
2017-08-11,1,0.0010067601582158686,0.0010594949873735534,-0.001252012881779642,0.005154769352439841,0.9949252266446597
2017-08-15,1,0.0013699574458325527,0.0014789791628509116,-0.0015925381134128652,0.0050641058343038675,0.9954411946924885
2017-08-17,1,0.0013196535523585045,0.0014191577539188023,-0.0008658002924682004,0.0050641058343038675,0.9955398894498239
2017-08-21,1,0.0012226954871743503,0.0013135377749679093,-0.0005922041559386504,0.0050641058343038675,0.9958720640948611
2017-08-23,1,0.0013458140344024864,0.0014462966568236024,-0.0005922041559386504,0.0046351361572594466,0.9965757439800954
2017-08-25,1,0.0010908477398852091,0.0011216494103852793,-0.0008922898937265452,0.0035707972962255637,0.9959005837873752
2017-08-29,1,0.0011025820962836665,0.001131543271719062,-0.0013236850116108278,0.0035176581333449058,0.995786274420108
2017-08-31,1,0.001203141851061695,0.0012315436118325,-0.0013236850116108278,0.003908417638508876,0.9946693211322776
2017-09-05,1,0.0005740633829744993,0.000638509176892887,-0.0008922898937265452,0.003908417638508876,0.9948954523341756
2017-09-07,1,0.000679626387754505,0.0007239093431674372,-0.0001476613605905422,0.004874541348248147,0.9944128548004525
2017-09-11,1,0.0012114704560391661,0.0012429072747753638,-0.0005006309956311452,0.004341284989189767,0.9953041243107551
2017-09-13,1,0.001097066752755861,0.0011149337096576385,-0.0005006309956311452,0.004733105063852125,0.9951946668337277
2017-09-15,1,0.0016856327852675954,0.0018161474503281673,-0.0013236850116108278,0.004573687575210151,0.9949462647863603
2017-09-19,1,0.0018561505786273713,0.0020195151453994173,-0.0027586185719268123,0.004573687575210151,0.9946148516833366
2017-09-21,1,0.0015617666777974096,0.0016595567556083764,-0.0028158378255172065,0.004573687575210151,0.994229222533335
2017-09-25,1,0.0008467490143148686,0.0008598395514923994,-0.0027586185719268123,0.005437430403405246,0.9946088016187604
2017-09-27,1,0.0009478518437565057,0.0009615387096081668,-0.0025954731848836605,0.0056682504383252855,0.9945922629341459
2017-09-29,1,0.0019049818701166034,0.0020516493374304894,-0.0027586185719268123,0.0056682504383252855,0.9946021629534201
2017-10-03,1,0.001897174131969972,0.002035392051599137,-0.0028158378255172065,0.006453586934364765,0.9934623789216285
