JNU-Tangyin/eata/results/Batch4_SP500/Batch4_SP500-GIS.csv
Date,Action,Predicted_Q25,Predicted_Q75,Actual_Q25,Actual_Q75,RL_Reward
2010-12-14,0,0.0,9.23470365399326e-06,-0.0030907729665621796,0.00545714976479112,0.9925017169614199
2010-12-16,1,9.097946559819366e-05,9.509725046998307e-05,-0.006554831632552877,0.0051483551538640425,0.991644524105494
2010-12-20,-1,-0.0003309275292301794,-0.0002473338031726225,-0.005832904419087787,0.0051483551538640425,0.991905181652218
2010-12-22,-1,-0.000939707288829114,-0.000777435947480214,-0.005832904419087787,0.005548662216553202,0.9908147967226268
2010-12-27,-1,-0.0008263081090866904,-0.0006701043383859752,-0.00911492554921496,0.005548662216553202,0.9904977324333814
2010-12-29,-1,-0.0037846291630947945,-0.0031603430643386008,-0.00911492554921496,0.005548662216553202,0.9900991948419702
2010-12-31,-1,-0.003294548017737253,-0.0027521385020911303,-0.009771255528520463,0.005548662216553202,0.990137921428717
2011-01-04,-1,-0.0027441500036755207,-0.002302388413338896,-0.009771255528520463,0.0029990355470446576,0.9901025790694423
2011-01-06,-1,-0.0013709095430462191,-0.0011307999480115404,-0.00911492554921496,0.006147905143540583,0.990543688888283
2011-01-10,-1,-0.001306046607903076,-0.0010879752362197635,-0.008918987504781916,0.006767692343387505,0.9905185246409415
2011-01-12,-1,-0.0004406029107564072,-0.00030501930711899697,-0.008918987504781916,0.001953937179757356,0.9912326770024048
2011-01-14,-1,-0.0013249451128272895,-0.0011123286272939521,-0.0058439727953084,0.005929789449279242,0.9917432087079745
2011-01-19,-1,-0.0012895906243675383,-0.0010640766713920888,-0.008110138840402471,0.005929789449279242,0.9913327195200776
2011-01-21,-1,-0.00017314477892194086,-0.00010677708277930607,-0.0058439727953084,0.005639514497904728,0.993341089041285
2011-01-25,0,0.0,0.0,-0.005091324151790368,0.007421864345847073,0.9924655327604897
2011-01-27,0,0.0,0.0,-0.004700280890407976,0.00917751615541319,0.9918769119056482
2011-01-31,1,0.0001856787158067554,0.00023289154090317077,-0.004615905543825232,0.00917751615541319,0.9923289483994694
2011-02-02,0,0.0,0.0,-0.001324436592721257,0.00917751615541319,0.9925241999948904
2011-02-04,0,0.0,0.0,-0.002948447049232064,0.00613983137329489,0.9936224956055255
2011-02-08,0,0.0,0.0,-0.0008183275710223169,0.00613983137329489,0.9935202223965027
2011-02-10,-1,-0.00041364223617002725,-0.00030400519329008526,-0.0008183275710223169,0.007080349426840823,0.9928306691091519
2011-02-14,1,0.0005684381449574097,0.0006251975767719272,-0.00956020924051807,0.006209524572717282,0.9926047180186912
2011-02-16,1,0.0003810314840600882,0.0004891915570475454,-0.009573230685663637,0.006209524572717282,0.9925459691492566
2011-02-18,1,0.0004735440246096092,0.0005802005817635903,-0.009573230685663637,0.01218318419671415,0.9915586923254576
2011-02-23,1,0.0012184739991806803,0.0013986208852197024,-0.01012949182217174,0.0052424616529202495,0.9916814095578906
2011-02-25,1,0.0013459352612933038,0.0015643661435661143,-0.009573230685663637,0.0052424616529202495,0.9925806574671744
2011-03-01,1,0.0011435772697182133,0.001353789771674775,-0.006748387323468706,0.0052424616529202495,0.993169181295065
2011-03-03,0,0.0,0.0,-0.006748387323468706,0.0052424616529202495,0.9926063143058759
2011-03-07,-1,-5.204329715984884e-05,-5.034309872384106e-05,-0.006748387323468706,0.0052424616529202495,0.9923440182914024
2011-03-09,1,0.0016729804412229632,0.0019479053179653717,-0.00702103429524379,0.004124039655010171,0.9927724448174352
2011-03-11,1,0.00161864709481851,0.0018947850610014493,-0.00702103429524379,0.004124039655010171,0.9927272682939763
2011-03-15,1,0.0008740267623340654,0.0010375690238761802,-0.005495973994504872,0.004625682683729472,0.993430024665085
2011-03-17,1,0.0007631979458937957,0.0009211328298808494,-0.004643720079815471,0.006586768270879979,0.9935798345081746
2011-03-21,1,0.0015025206786779659,0.0017623093949498067,-0.004774167397517025,0.004625682683729472,0.994270288058165
2011-03-23,1,0.0008833144014223108,0.001067112192607059,-0.0021203663821107704,0.008030933509675202,0.9944992552846862
2011-03-25,1,0.0008473365952753654,0.001009426367627917,-0.00306752515963467,0.007937310105939958,0.994448371668094
2011-03-29,1,0.0007941482936623468,0.0009288984762646072,-0.00306752515963467,0.007937310105939958,0.9941438139608133
2011-03-31,1,0.00063049314616202,0.0007354123013657644,-0.0012416484525097837,0.007937310105939958,0.9944071170113942
2011-04-04,1,0.0004559889771472991,0.0005185478872543252,-0.00019464560243511602,0.008320473298785684,0.9939023555361417
2011-04-06,1,0.000655378009145665,0.0007692926156998234,-0.0012416484525097837,0.008320473298785684,0.9933491142212205
2011-04-08,1,4.068897459046026e-05,5.0096749225756044e-05,-0.00019464560243511602,0.008320473298785684,0.993672472119313
2011-04-12,0,0.0,0.0,-0.0012416484525097837,0.008320473298785684,0.9935445452318431
2011-04-14,0,0.0,0.0,-0.0012416484525097837,0.008320473298785684,0.9929998287263982
2011-04-18,1,0.0002950201029538423,0.00031449237947900793,-0.0012416484525097837,0.008182708523845665,0.9932920564923128
2011-04-20,1,0.0010017055015605226,0.0010753279940395996,-0.0012416484525097837,0.0073689015340429095,0.9945528618571733
2011-04-25,1,0.0012140943302953382,0.0013261436315267665,-0.0012762870525907589,0.006908768334674809,0.9947598509872019
2011-04-27,1,0.0014553306675458516,0.001609780405479641,-0.005054634580983274,0.006615224106324221,0.994211570766979
2011-04-29,1,0.0012155117930891775,0.0013141802264523385,-0.005054634580983274,0.006615224106324221,0.9940905560041318
2011-05-03,1,0.0018085936190148995,0.0019982274836750956,-0.005285464749880828,0.0056273769055258625,0.993444779899117
2011-05-05,1,0.0011200723415742075,0.001221755330008457,-0.005285464749880828,0.0056273769055258625,0.993065675713531
2011-05-09,1,0.0016768916726870417,0.00189337512674778,-0.005285464749880828,0.00439549365843509,0.9929504850445905
2011-05-11,0,0.0,0.0,-0.005211874640108894,0.0035927783277092677,0.9935080787232107
2011-05-13,0,0.0,0.0,-0.006719310933333989,0.002442089685351553,0.9933287751822735
2011-05-17,0,0.0,0.0,-0.010488554561536516,0.002442089685351553,0.992834555743149
2011-05-19,0,0.0,0.0,-0.010488554561536516,0.003564459927819728,0.9926464283605527
2011-05-23,0,0.0,0.0,-0.010488554561536516,0.004003975110698378,0.9924863824946499
2011-05-25,0,0.0,0.0,-0.013168872165900064,0.004003975110698378,0.9917329345979545
2011-05-27,0,0.0,0.0,-0.013168872165900064,0.0042287799835388955,0.9910139010158986
2011-06-01,0,0.0,0.0,-0.011111084875724672,0.004123921972943798,0.9920168508545202
2011-06-03,0,0.0,0.0,-0.0054958314646161785,0.004123921972943798,0.9932546093344964
2011-06-07,0,0.0,0.0,-0.006100795368626104,0.004123921972943798,0.9930390831202457
2011-06-09,-1,-4.49072852578925e-05,-2.979621139087949e-05,-0.008116679468416344,0.004123921972943798,0.9926704789852867
2011-06-13,1,0.00015853106491878847,0.0002020653400534963,-0.005996602908288781,0.004123921972943798,0.9937079094558252
2011-06-15,-1,-7.67274144952084e-05,-2.8456820255621075e-05,-0.005166199290712874,0.004123921972943798,0.9937914562308203
2011-06-17,-1,-0.0002757126345098951,-0.00018058209886350282,-0.005996602908288781,0.004715188777751231,0.993135944250976
2011-06-21,-1,-0.000333697312838837,-0.00020465585822702052,-0.005996602908288781,0.004715188777751231,0.9930282734157436
2011-06-23,-1,-0.0016389414244807384,-0.0013263841419132553,-0.004713003092843105,0.004715188777751231,0.9942649044271973
2011-06-27,-1,-0.0016412513872547095,-0.0013242537707670002,-0.004357355903753306,0.003967786077821062,0.9949943285909075
2011-06-29,-1,-0.0006697736837582052,-0.0005182626468415155,-0.005166199290712874,0.003561372825212827,0.9946908288960045
2011-07-01,-1,-0.0009088464128467477,-0.0007275442358708954,-0.005585409923028889,0.0033272174084955975,0.9947138373721386
2011-07-06,-1,-0.0012246740880020944,-0.000997421834100218,-0.0062039502376354085,0.003673998987407358,0.994078375134336
2011-07-08,-1,-0.001368244413395804,-0.001153306055920492,-0.0062039502376354085,0.005304301268367506,0.9924368175691513
2011-07-12,0,0.0,0.0,-0.006671078224917452,0.00692478859473651,0.9909679043745675
2011-07-14,0,0.0,0.0,-0.007873402136929657,0.00692478859473651,0.9892239288093562
2011-07-18,-1,-0.0003564510031445666,-0.000297254210184448,-0.006671078224917452,0.010915586141642116,0.9890903136521486
2011-07-20,-1,-0.0001590672296875928,-0.00012176599868195874,-0.006671078224917452,0.0070400315350116,0.9895448512325742
2011-07-22,-1,-0.00035694703664923403,-0.0002794120750266064,-0.012154935939306737,0.0070400315350116,0.9885410011091327
2011-07-26,-1,-0.00028559875275321336,-0.0002209123703179161,-0.012154935939306737,0.011185683739970032,0.9874947113457913
2011-07-28,-1,-0.000771265223563005,-0.0006449799474060059,-0.012154935939306737,0.011185683739970032,0.9872251113902639
2011-08-01,-1,-0.0005300220567717593,-0.00045717626923630014,-0.012154935939306737,0.011465762869613814,0.9863073345114127
2011-08-03,0,0.0,0.0,-0.011037095629202291,0.011465762869613814,0.9870319745148922
2011-08-05,0,0.0,0.0,-0.008670015633688641,0.011185683739970032,0.9885224687165247
2011-08-09,0,0.0,0.0,-0.008670015633688641,0.011418711301363599,0.9886700050247417
2011-08-11,0,0.0,0.0,-0.008473175333979316,0.010967445533171482,0.9903396849425758
2011-08-15,0,0.0,0.0,-0.008903185558603024,0.007241804048631896,0.99074948462058
2011-08-17,0,0.0,0.0,-0.008903185558603024,0.009581640149817577,0.9898140403880304
2011-08-19,-1,-0.0017686942498999782,-0.0015245927698045113,-0.0066259448110557225,0.009581640149817577,0.9906753190544725
2011-08-23,0,0.0,0.0,-0.0066259448110557225,0.007241804048631896,0.9906832012988226
2011-08-25,-1,-0.0011013969250619725,-0.0009330911674512723,-0.0066259448110557225,0.010889709101114458,0.9894868429598289
2011-08-29,-1,-0.00038698994670651236,-0.0003006610391618627,-0.0066259448110557225,0.01071247840314404,0.9899541239095473
2011-08-31,-1,-0.00042378461974283666,-0.0003224577967111252,-0.008098766185825512,0.01071247840314404,0.9891206900556394
2011-09-02,-1,-0.0006618783399410233,-0.0005455381216289677,-0.010218333079157494,0.01071247840314404,0.9886191044219035
2011-09-07,-1,-0.00024880383979474673,-0.00019882597123378358,-0.008903185558603024,0.0075037389240412535,0.9898489693376405
2011-09-09,-1,-0.0003599690927954556,-0.000294485164413912,-0.006769281552596959,0.009039499237829894,0.9897391334273756
2011-09-13,-1,-0.00039187769624279676,-0.00035356395433671283,-0.0030451036730299603,0.015275820600904533,0.988910085704096
2011-09-15,1,0.00031822793288510887,0.00037703650464906887,-0.005881544099554918,0.014637543297316077,0.9892792089698677
2011-09-19,1,0.0002622118699477483,0.00032304563095431223,-0.00837173131125334,0.014637543297316077,0.9888586063991517
2011-09-21,1,0.0008081163134379735,0.0009422225546582307,-0.00837173131125334,0.010853785984807103,0.9893718107790231
2011-09-23,1,0.0012752341085231402,0.0014987976788006815,-0.007364161362834577,0.009907891901581528,0.9909291979257333
2011-09-27,1,0.0012774150154929817,0.0014661927389076606,-0.00837173131125334,0.008898876830884743,0.9903806636089114
2011-09-29,1,0.0010985860026545338,0.0012758303987271825,-0.007364161362834577,0.008898876830884743,0.9912685687218848
2011-10-03,1,0.000466624426170363,0.0005616096858558194,-0.0071951847959123095,0.008898876830884743,0.9914794944106311
2011-10-05,1,0.0008700496582360063,0.0010538580030975148,-0.0071951847959123095,0.008898876830884743,0.9911185017541454
2011-10-07,0,0.0,0.0,-0.007333980910101814,0.008882239308656607,0.9912310432940482
2011-10-11,0,0.0,0.0,-0.007333980910101814,0.007932446247099533,0.9916521908761188
2011-10-13,0,0.0,0.0,-0.007333980910101814,0.00867484619104356,0.9911163942755431
2011-10-17,1,0.0013478505853534168,0.0015708189727995552,-0.0071951847959123095,0.008965769090326465,0.991178571166778
2011-10-19,1,0.001419847611607965,0.001656432271418672,-0.00723170965974321,0.008299567989528092,0.990762411812224
2011-10-21,1,0.0015610215690168173,0.0018098731842315218,-0.007445946738407399,0.007807353513261044,0.9907703822074863
2011-10-25,1,0.0005916019300729778,0.000670373622945912,-0.007169330184942749,0.007807353513261044,0.9916956150689846
2011-10-27,0,0.0,0.0,-0.007445946738407399,0.007518231398544685,0.991247085841965
2011-10-31,0,0.0,0.0,-0.007169330184942749,0.008299567989528092,0.9911389078706859
2011-11-02,0,0.0,0.0,-0.007169330184942749,0.008965769090326465,0.990598000858358
2011-11-04,1,0.00016733566194409037,0.00019051083227409558,-0.00527143196838534,0.008299567989528092,0.9910997615483439
2011-11-08,0,0.0,0.0,-0.00527143196838534,0.00737122986934964,0.9916777881869127
2011-11-10,0,0.0,0.0,-0.00527143196838534,0.007075086928713881,0.9923475080432481
2011-11-14,0,0.0,0.0,-0.007460626292725267,0.006457824401426037,0.9924285153205593
2011-11-16,0,0.0,0.0,-0.005365231644082145,0.006040593892200974,0.9933292396826195
2011-11-18,1,0.00023969946015020392,0.0002572860707114194,-0.005003439702967637,0.006040593892200974,0.9933621478914572
2011-11-22,1,0.00018434418914908883,0.00018847371212939496,-0.006375250469381744,0.006457824401426037,0.9921924641746044
2011-11-25,-1,-5.167498380053928e-05,-2.148356390287387e-05,-0.003956191043452551,0.006304684935986179,0.9926813718951769
2011-11-29,1,0.0003091854091310484,0.0003156456068461866,-0.004641145541588118,0.005833975204651978,0.9935181636899267
2011-12-01,1,0.000695545100949887,0.0007495202903639536,-0.00604160175467194,0.00552740767447742,0.9941979180089077
2011-12-05,1,0.0009621471040313126,0.0010649041672470395,-0.00604160175467194,0.00552740767447742,0.9941035641489907
2011-12-07,1,0.00108550760246061,0.0011995653300785948,-0.006482197680233516,0.004714852381709982,0.9934035917335383
2011-12-09,1,0.0009881294790410667,0.0010966741120086725,-0.00604160175467194,0.00552740767447742,0.9935373506381524
2011-12-13,1,0.0006358161096078806,0.0006971552771467399,-0.003501255329185918,0.0055294265933510806,0.9940828329458313
2011-12-15,1,0.0007134642826593542,0.0007857241391398956,-0.003501255329185918,0.0054408616023865295,0.9942992066833074
2011-12-19,0,0.0,0.0,-0.0025075407516006597,0.005571004578354502,0.9941866586671255
2011-12-21,0,0.0,0.0,-0.0025075407516006597,0.0054408616023865295,0.9953209283448721
2011-12-23,0,0.0,0.0,-0.0030881376603738766,0.0054408616023865295,0.9945375768343867
2011-12-28,0,0.0,0.0,-0.005783805415018965,0.0054408616023865295,0.9940727588421162
2011-12-30,0,0.0,0.0,-0.0046006330150870165,0.004690770101530739,0.9943984396439073
2012-01-04,0,0.0,0.0,-0.0046006330150870165,0.004522609712456063,0.9945159036332958
2012-01-06,0,-4.4106497926246974e-05,0.0001030993234964081,-0.004314313544836826,0.0035916936622723823,0.9952284496423892
2012-01-10,0,0.0,0.0,-0.005956085687541654,0.0024733351689861707,0.9948478777573543
2012-01-12,0,0.0,0.0,-0.005956085687541654,0.0005763088425743128,0.9951389822654413
2012-01-17,0,0.0,0.0,-0.005956085687541654,0.002345840864775264,0.9944022701963878
2012-01-19,0,0.0,0.0,-0.005956085687541654,0.0022262309236220756,0.994414044763635
2012-01-23,0,0.0,0.0,-0.006011218162425692,0.0022262309236220756,0.9928714960483199
2012-01-25,0,0.0,0.0,-0.00499593225796348,0.0022262309236220756,0.9935614650690714
2012-01-27,0,0.0,0.0,-0.004581168496248844,0.0022262309236220756,0.9935252572944858
2012-01-31,0,0.0,0.0,-0.004581168496248844,0.004411409141501919,0.9934220754365175
2012-02-02,0,0.0,0.0,-0.004581168496248844,0.0022262309236220756,0.9935622654402633
2012-02-06,0,0.0,0.0,-0.005134766570918137,0.004662805949367638,0.9930475842541606
2012-02-08,0,0.0,0.0,-0.0030761487554924333,0.004662805949367638,0.9937178502496496
2012-02-10,0,0.0,0.0,-0.0030761487554924333,0.004662805949367638,0.9935756574553413
2012-02-14,-1,-0.0002402064588134039,-0.00018922740567849376,-0.0030761487554924333,0.0026699784405151607,0.9942778194462549
2012-02-16,0,0.0,0.0,-0.0028726543831160507,0.003049187290832078,0.9942766031989873
2012-02-21,0,0.0,0.0,-0.002457379965240566,0.003049187290832078,0.9960196778450563
2012-02-23,0,0.0,0.0,-0.0028455003461637122,0.0026699784405151607,0.9963472747760804
2012-02-27,0,0.0,0.0,-0.0019439304606369593,0.003947699083837021,0.9963003363551305
2012-02-29,0,0.0,0.0,-0.002457379965240566,0.003049187290832078,0.9964370609045876
2012-03-02,0,0.0,0.0,-0.0019439304606369593,0.003947699083837021,0.9961877342628043
2012-03-06,0,0.0,0.0,-0.0010283879380247399,0.0037912431975680883,0.9967904466640464
2012-03-08,0,0.0,0.0,-0.0019439304606369593,0.0037912431975680883,0.9960071628077832
2012-03-12,-1,-0.0002774102474099261,-0.0002445940750470127,-0.0029529008440412827,0.0037912431975680883,0.9955787371342919
2012-03-14,-1,-0.0011880002439888524,-0.0010437836091012989,-0.0029529008440412827,0.0044634224921195655,0.9952081072801967
2012-03-16,-1,-0.0004943374782042248,-0.0004520204512262427,-0.0029529008440412827,0.00224585588158484,0.9957346181142057
2012-03-20,-1,-0.0007344836303194767,-0.000621292922305621,-0.001989186784476926,0.0044634224921195655,0.995377539973256
2012-03-22,-1,-0.0006260345921073131,-0.0005452264395201597,-0.002113009565783042,0.0044634224921195655,0.9955027457765704
2012-03-26,-1,-0.0005030075789111804,-0.00040906699573956234,-0.0025541474661711673,0.0013355178572006222,0.9959288693937695
2012-03-28,-1,-0.0005636058346587727,-0.00046780980365392267,-0.002113009565783042,0.0029682296878364737,0.9957531362582218
2012-03-30,-1,-0.0002934230751453744,-0.00023217469900816876,-0.002113009565783042,0.0018128991086799038,0.9961531695661728
2012-04-03,1,0.0001682040704126214,0.00019385434475344886,-0.0030175650639018368,0.0013355178572006222,0.99604460155322
2012-04-05,-1,-0.0004622854037980872,-0.0003985309924953416,-0.004216047157531065,0.0011647296764654897,0.9965395579743649
2012-04-10,-1,-0.0008913829370512087,-0.0007751271689484919,-0.002113009565783042,0.0029682296878364737,0.9963790243668083
2012-04-12,0,0.0,0.0,-0.002113009565783042,0.0029682296878364737,0.9962338375920479
2012-04-16,0,0.0,0.0,-0.0024261881927005132,0.0029682296878364737,0.9961976549183684
2012-04-18,0,0.0,0.0,-0.0024261881927005132,0.0029682296878364737,0.9960896605166094
2012-04-20,0,0.0,0.0,-0.0043459255435080585,0.0029682296878364737,0.9954389748666399
2012-04-24,0,0.0,0.0,-0.0043459255435080585,0.0029682296878364737,0.995349980396887
2012-04-26,0,0.0,0.0,-0.0043459255435080585,0.003108833189171884,0.9951693439123309
2012-04-30,0,-1.9333746305968738e-05,1.9650978837701692e-05,-0.0043459255435080585,0.003294143474943993,0.9951382402873703
2012-05-02,1,9.907407025549299e-05,0.00016715602848101001,-0.005795606973101041,0.003294143474943993,0.9945180455580742
2012-05-04,0,0.0,0.0,-0.0061506109729951835,0.003294143474943993,0.9943746363193106
2012-05-08,0,0.0,0.0,-0.0061506109729951835,0.002380166625278212,0.994795564507354
2012-05-10,1,0.00024125067055748813,0.0002969224574286793,-0.0061506109729951835,0.0024209662195323685,0.9950187567324406
2012-05-14,-1,-2.9593400501790213e-05,-2.631236235048929e-05,-0.006570841534085564,0.0024209662195323685,0.9947417141905309
2012-05-16,1,0.0006524255854617146,0.0007816561186125422,-0.006570841534085564,0.002372327012127159,0.9951717259352933
2012-05-18,1,0.00026755307336905564,0.0003558559398009193,-0.0027450054942071175,0.002783903124684049,0.9953922828602884
2012-05-22,-1,-4.875247082901587e-05,-9.77489910106223e-06,-0.001702813366946993,0.0035496172767104056,0.9955567864872046
2012-05-24,1,0.0003426574082581614,0.0004351392249841708,-0.0031039967130965665,0.002783903124684049,0.9955789451500918
2012-05-29,1,0.0004153501010410683,0.0005260771700328529,-0.006494415490383452,0.0026393924331660967,0.9953163209955174
2012-05-31,-1,-0.00035322435769631345,-0.00034294839463298356,-0.003367839108603078,0.0035496172767104056,0.99511767306628
2012-06-04,-1,-0.0004408121743856106,-0.0004359886385156092,-0.0013082811286084645,0.004785834034882029,0.9940463989413857
2012-06-06,-1,-0.00017704459248486925,-0.00013191220124774422,-0.0007105276661727902,0.004785834034882029,0.9942967111371713
2012-06-08,0,0.0,0.0,-0.007200633737126575,0.00414575815871625,0.9939523832513824
2012-06-12,0,0.0,0.0,-0.003339402795344274,0.0053696433407356544,0.9935091715351552
2012-06-14,0,0.0,0.0,-0.007200633737126575,0.005914857453366421,0.9930336533729612
2012-06-18,1,0.0005959425444382923,0.0007494834696840094,-0.007200633737126575,0.005121999242150822,0.9934438513237194
2012-06-20,1,0.00030520396713783844,0.000387541268707399,-0.007200633737126575,0.005121999242150822,0.9934421120226974
2012-06-22,1,0.0001165805476275858,0.00017028959950379598,-0.007200633737126575,0.005121999242150822,0.9929769155743934
2012-06-26,-1,-6.816426796326131e-05,-3.3547691137025644e-05,-0.007314127750897109,0.005121999242150822,0.9928817504621921
2012-06-28,-1,-0.00023519196171343018,-0.00023273995910685392,-0.0069800457333726,0.005765159408759393,0.9932029870114778
2012-07-02,1,0.00039732353026586495,0.0004555821496509274,-0.0069800457333726,0.005121999242150822,0.9945177248490914
2012-07-05,1,0.0004044529569834738,0.0004753294955170403,-0.007314127750897109,0.005121999242150822,0.9936427798338044
2012-07-09,1,0.00017953311202702077,0.00024737987698420774,-0.006931185346661662,0.005678247620503872,0.9937335090301138
2012-07-11,1,0.0007105694920216932,0.0008409607130617015,-0.006931185346661662,0.004505603603102671,0.9942764582726326
2012-07-13,1,9.845158631074195e-05,0.00010620095885803836,-0.005577140761840644,0.003568608843064455,0.9946662651720036
2012-07-17,1,7.999895413874096e-05,8.874497001064744e-05,-0.004205580695512832,0.003568608843064455,0.9948333450616968
2012-07-19,-1,-5.631721461252214e-05,-2.8465363562472316e-05,-0.004205580695512832,0.003451676355425381,0.9948267835279064
2012-07-23,-1,-0.0006069762937639346,-0.0005270225821409977,-0.00239979915767226,0.004165840405907731,0.9953635576017396
2012-07-25,-1,-0.0006766301341029125,-0.000584315467311592,-0.003498254689909953,0.004165840405907731,0.9954331124125041
2012-07-27,-1,-0.0001632311091162653,-0.0001295524661167509,-0.0035093368058174727,0.003451676355425381,0.9950601178197043
2012-07-31,-1,-5.5084083870625976e-05,-3.8299419505725385e-05,-0.0035093368058174727,0.003451676355425381,0.9948640187287158
2012-08-02,-1,-0.0004418232918573712,-0.00038710441823433344,-0.0033689817559726066,0.003451676355425381,0.9952651038538636
2012-08-06,-1,-0.00018179429841634208,-0.00015376899817008205,-0.0033689817559726066,0.003318466182712497,0.9959535579351466
2012-08-08,-1,-5.9857543246035456e-05,-5.925457653851669e-05,-0.0033689817559726066,0.003451676355425381,0.9953728456529983
2012-08-10,1,9.744993389330261e-05,0.0001174410941607304,-0.0033689817559726066,0.0033847975315662816,0.9955104982448282
2012-08-14,-1,-0.00021288990925795185,-0.00018395227859065375,-0.0023709191402420332,0.0033847975315662816,0.9957431540506143
2012-08-16,1,0.00021606338503947227,0.000269987214254838,-0.0036352419172549187,0.0034899406850023035,0.9951498577913318
2012-08-20,1,0.0004205728466316681,0.000496535180481842,-0.0036352419172549187,0.0034899406850023035,0.9950183605086395
2012-08-22,1,0.00020044530341477407,0.00026118520232382885,-0.0006992480440572069,0.008593651015985576,0.9941101218870874
2012-08-24,1,0.0007565110241691765,0.0008923788954679548,-0.0018113582645058078,0.005169346612602514,0.9949491565510087
2012-08-28,1,0.0007232754470000002,0.0008255339825680714,-0.003102592557361708,0.0034899406850023035,0.9949448563464417
2012-08-30,1,0.0004183339014103936,0.0004681689085025455,-0.002271608698310985,0.0023677663194279883,0.9952659935264173
2012-09-04,1,0.0005848138739896027,0.0006671886785303975,-0.002271608698310985,0.0038323786786382,0.9950322084791644
2012-09-06,1,0.0005409741984644811,0.0006138039454409923,-0.0018113582645058078,0.0037388153858373355,0.9956904712480519
2012-09-10,1,0.0006778027760487031,0.0007895778727028883,-0.003102592557361708,0.0037388153858373355,0.9951727658740254
2012-09-12,1,0.0005261469479232904,0.000605807350250456,-0.0035936845132603316,0.0037388153858373355,0.9947559436721551
2012-09-14,1,7.268153165718776e-05,8.260903080959886e-05,-0.0035936845132603316,0.003192063064330587,0.9951398585129833
2012-09-18,1,0.0006550460639931834,0.0007510954557633906,-0.0035936845132603316,0.003192063064330587,0.9950133728572974
2012-09-20,1,0.0014044973845801535,0.0015978218957312406,-0.0035936845132603316,0.003192063064330587,0.9953774386566276
2012-09-24,1,0.0010341848120264938,0.0011638825822481132,-0.004686448177636866,0.003192063064330587,0.9948361394501238
2012-09-26,1,0.0007043643226040822,0.0007754981049837524,-0.006168452097616406,0.003192063064330587,0.9947122293510394
2012-09-28,1,0.0007956741165977975,0.0009045816320773609,-0.006168452097616406,0.0037388153858373355,0.994452575363689
2012-10-02,1,0.0011626228698399885,0.0013365854396845205,-0.006168452097616406,0.004243558108596895,0.9944513052454671
2012-10-04,1,0.0012636558115143833,0.001445739659073712,-0.006906297837655917,0.003548072644790282,0.9939394550315105
2012-10-08,1,0.0010125247327334643,0.0011799399341968703,-0.005072301999168281,0.003548072644790282,0.9945225322836818
2012-10-10,1,0.0005301089105873678,0.0005918918123024155,-0.005150368151217307,0.003548072644790282,0.994376600834933
2012-10-12,-1,-2.039935149280862e-05,-7.344718064963721e-06,-0.004267824704116849,0.004312786143155445,0.9944350871034008
2012-10-16,1,0.0006953606949893199,0.0007915820055159303,-0.004267824704116849,0.004312786143155445,0.9944934227593883
2012-10-18,1,0.0012295549308724727,0.001396053123218553,-0.004267824704116849,0.0028563575886382054,0.9944011225486833
2012-10-22,1,0.00026946940005413814,0.0002758909015691673,-0.0020073537335345555,0.0028563575886382054,0.9952419988001199
2012-10-24,1,6.332582153573085e-05,9.676390619638588e-05,-0.0020073537335345555,0.004312786143155445,0.9950191783961722
2012-10-26,1,0.00010003718654010338,0.00012877432792538505,-0.0020073537335345555,0.003920522627234432,0.9952736446422584
2012-11-01,1,0.0004243903330163157,0.000446288534282176,-0.0020073537335345555,0.003920522627234432,0.9953118984684668
2012-11-05,1,6.992727170117253e-05,0.00010106967454159226,-0.0020073537335345555,0.003920522627234432,0.9949789744533288
2012-11-07,0,-1.9745771377892925e-05,2.1843454392400308e-05,-0.002584344182224911,0.004316236212863294,0.9944401857844012
2012-11-09,1,7.930427747548158e-05,8.561418207251349e-05,-0.0012431079212802045,0.004781662582553434,0.9947140826281735
2012-11-13,1,6.808352262321977e-05,7.683173435563832e-05,-0.0012431079212802045,0.005782392338891485,0.9945120836243009
2012-11-15,1,0.00027422506922949487,0.0002796974000718003,-0.0012431079212802045,0.005104430343071239,0.9949186167427357
2012-11-19,1,0.0004688993696470782,0.00047812196562440343,-0.0009702456685857285,0.005104430343071239,0.9955766479177552
2012-11-21,1,0.00019359804636924269,0.00023586181000872022,-0.0013874977094301554,0.005555686009949314,0.9946339792163041
2012-11-26,1,0.0006975642528715472,0.0007721823664368728,-0.0024892051315214057,0.005104430343071239,0.9948716637564966
2012-11-28,1,0.0009168098512567276,0.001023205953018526,-0.0035543912576154954,0.005104430343071239,0.9945050370678855
2012-11-30,1,0.0008177370552771271,0.0008722843166382197,-0.005858589952046833,0.005555686009949314,0.9937185492068328
2012-12-04,1,0.0008910757235959467,0.0009962455556180188,-0.0035543912576154954,0.006883618874102892,0.9934667248398418
2012-12-06,1,0.0007340590795314394,0.0008117657538998846,-0.0032287710062871393,0.006883618874102892,0.9933921044722115
2012-12-10,1,0.0008527827093218769,0.0009308694313802327,-0.004881729198061764,0.006883618874102892,0.9931022293871518
2012-12-12,1,0.0010039857920138649,0.0011084267066293154,-0.007470952150575272,0.006883618874102892,0.9920675801508104
2012-12-14,1,0.0006939755770439251,0.0007184989520495537,-0.007470952150575272,0.007359823814417342,0.9918990479554209
2012-12-18,1,0.000739038588513022,0.0007612416548858708,-0.007470952150575272,0.007600908920156987,0.9918450354646798
2012-12-20,1,0.0008405615428170282,0.000901268509674188,-0.004881729198061764,0.007600908920156987,0.9924558572627019
2012-12-24,1,0.0004574312633041333,0.00047255463227626577,-0.0032287710062871393,0.007600908920156987,0.9930282110150708
2012-12-27,-1,-0.0002666413834404223,-0.0001643422640829668,-0.0013988194514020444,0.007600908920156987,0.993347500906551
2012-12-31,-1,-0.00010182320687292793,-3.379448305032936e-05,-0.0004219228700972484,0.006030375772887882,0.9940891933190322
2013-01-03,1,0.00040700108657278154,0.00042120396667428753,-0.0013216222501016785,0.005387245777829303,0.9949993213199593
2013-01-07,1,0.0006274469058596065,0.0006517886243530538,-0.0013216222501016785,0.005387245777829303,0.9948610371923269
2013-01-09,1,0.00016394089360105197,0.0002084781212440338,0.0003016020139522397,0.0054720339162609,0.994840389065462
2013-01-11,0,0.0,0.0,0.00048796607563222753,0.0053744935232153575,0.9961095191068279
2013-01-15,0,0.0,0.0,0.00048796607563222753,0.0053744935232153575,0.9962611465714896
2013-01-17,0,0.0,0.0,0.0010197575714119913,0.0054720339162609,0.9948149817347373
2013-01-22,1,0.0009549051936220527,0.0009767173689853327,0.0007808624367448054,0.005712489904790033,0.9947970584893938
2013-01-24,1,0.001115705353057203,0.001170295023916937,0.0007185420611625021,0.00649700882118805,0.99456075497562
2013-01-28,1,0.0010419122143090671,0.001079264624113634,0.0007185420611625021,0.00714819701624799,0.9936793557490321
2013-01-30,1,0.0011847944611074177,0.0012362123486064323,1.2460621791036356e-05,0.00714819701624799,0.9936597171848759
2013-02-01,1,0.0011226425563090078,0.0011639802266772401,0.0007185420611625021,0.00714819701624799,0.9938742727604433
2013-02-05,1,0.0010453725417308387,0.0010696460551253694,0.0007040408894129377,0.00649700882118805,0.9946036775583668
2013-02-07,1,0.0012241886649664102,0.0012697723992900394,1.2460621791036356e-05,0.00649700882118805,0.9947172334696084
2013-02-11,1,0.0011033066342067599,0.0011129932669254562,-0.0008088087681966192,0.00714819701624799,0.9935197607352061
2013-02-13,1,0.0014093592979641857,0.001491508180727687,-0.0012906990553329248,0.0066144332892396135,0.9935892904456397
2013-02-15,1,0.003051960020321591,0.003406002403061159,-0.00166769222548519,0.004870993476937995,0.9946135990287758
2013-02-20,1,0.0034495239051086203,0.003838640911625831,-0.00166769222548519,0.004870993476937995,0.9941811896818922
2013-02-22,1,0.003465255472069788,0.0038323069827398944,-0.0012906990553329248,0.00540532313307862,0.9945076840433983
2013-02-26,1,0.0035571854908274907,0.003926724766632999,-0.0012906990553329248,0.00540532313307862,0.9947567722916236
2013-02-28,1,0.0036732608771294943,0.004062715424545781,-0.0012906990553329248,0.0054530879149123695,0.9946866824333187
2013-03-04,1,0.0034262363539121488,0.0037903525449837555,-0.001331626480283652,0.0054530879149123695,0.9940385132738337
2013-03-06,1,0.0030279421562221264,0.0033116923835123163,-0.001789849599945476,0.0072090018165879115,0.9931513634517344
2013-03-08,1,0.002649168655398152,0.0028677372086984227,-0.0020597287655654203,0.0072090018165879115,0.9929424382405396
2013-03-12,1,0.00247313600373389,0.002644562135185964,-0.001331626480283652,0.006290258272021533,0.9938594669097265
2013-03-14,1,0.0024963085603376973,0.0026867742094020862,-0.0009789709044403883,0.006290258272021533,0.9940359725079987
2013-03-18,1,0.002761628135993953,0.0030149983256792627,-0.0009789709044403883,0.007901700253901696,0.9933325187207165
2013-03-20,1,0.003226162496201625,0.003502548532411068,-0.0025183202282782783,0.006590304512070043,0.9938695999313697
2013-03-22,1,0.0031343872236456946,0.0033782622499644315,-0.0025183202282782783,0.0076439540761275735,0.9937291659876946
2013-03-26,1,0.003336669169028805,0.00361173800238258,-0.005753030647915512,0.006590304512070043,0.992808554398558
2013-03-28,1,0.0036274682206235195,0.003967019267059771,-0.005753030647915512,0.006018594519016216,0.99290067082052
2013-04-02,1,0.0029454092428565764,0.003166514215862704,-0.0020435072779747283,0.006590304512070043,0.9933612912895238
2013-04-04,0,0.0,0.0,-0.0005026260481700292,0.006018594519016216,0.993974796197235
2013-04-08,0,0.0,0.0,-0.00025318735916250436,0.006018594519016216,0.9929336411650529
2013-04-10,1,0.002087324648703794,0.0021951340999303882,-0.0017665347041731002,0.006018594519016216,0.9919938718080483
2013-04-12,0,0.0,0.0,-0.0059591009644219565,0.006018594519016216,0.991069270930168
2013-04-16,1,0.0027135352413645234,0.002940929835203048,-0.0018493011235769007,0.006018594519016216,0.9922592338069365
2013-04-18,1,0.0024412841545351557,0.002622327912954755,-0.0018493011235769007,0.005885070785729086,0.9921039996776769
2013-04-22,0,0.0,0.0,-0.006913546837485095,0.005699206304322417,0.990623754442486
2013-04-24,0,0.0,0.0,-0.006326953261454893,0.005699206304322417,0.9915879862861517
2013-04-26,1,0.002545697414182098,0.0026748973069245395,-0.006326953261454893,0.005424312924562543,0.991779591792517
2013-04-30,1,0.002612104400659211,0.002727647763284502,-0.007272205953949699,0.004849046576939629,0.9911709891893988
2013-05-02,1,0.002407623650375342,0.0025025389085916133,-0.010745553133965184,0.004849046576939629,0.9900337720717877
2013-05-06,1,0.0018161307570995456,0.0018366174578857196,-0.007550651565191019,0.005712624546801532,0.9907722578251494
2013-05-08,1,0.0019842115594207706,0.0020295981002994273,-0.007550651565191019,0.004921517010312081,0.9918214870240797
2013-05-10,1,0.0018805828192778825,0.0019130917009976562,-0.007550651565191019,0.004992417332433715,0.9917556815537953
2013-05-14,1,0.0025064429014051565,0.0026042666770663804,-0.007550651565191019,0.004507979678313678,0.9922914864541786
2013-05-16,1,0.0018900180565847385,0.0019085130244361874,-0.006778427581666605,0.00488807725994752,0.9922745506389408
2013-05-20,1,0.0007210678087622765,0.0008859496375452605,-0.00442482410698153,0.006078336716809744,0.9929716475488082
2013-05-22,1,0.0001789061110657299,0.000414364921850006,-0.008843941297169563,0.006078336716809744,0.9916505278725052
2013-05-24,0,-6.56687559565922e-05,0.00018875204240509846,-0.008843941297169563,0.008071917859607914,0.9911396975379909
2013-05-29,0,0.0,0.0,-0.006698424180829044,0.008071917859607914,0.9918189181136485
2013-05-31,0,0.0,0.0,-0.0010345061525090372,0.008071917859607914,0.9925091237579099
2013-06-04,-1,-0.00048248430463610013,-0.00031682461603130355,-0.0010345061525090372,0.006078080118930141,0.9925522577427894
2013-06-06,-1,-0.0024615587608160213,-0.0019238903155144025,-0.0009633066950904889,0.006078080118930141,0.9924317386683561
2013-06-10,-1,-0.0017283942896658528,-0.0013019945691430793,-0.0009633066950904889,0.005507122824557464,0.9930509767205262
2013-06-12,-1,-0.0016509734319531027,-0.001240547150151504,-0.0009633066950904889,0.007701210948343581,0.9918612637184111
2013-06-14,-1,-0.0010364528137789676,-0.0007083567658911924,-0.0009633066950904889,0.006048166434361943,0.9927685134638118
2013-06-18,-1,-0.0006773663707784223,-0.0003961401062123924,-0.0021435408305671855,0.005394876734930557,0.993543350362449
2013-06-20,-1,-0.002042895563231342,-0.0015972964159970523,0.00010636209544106882,0.006048166434361943,0.9938030959782524
2013-06-24,-1,-0.0019498975547964214,-0.0015224510643098356,-0.00048626540744894773,0.005394876734930557,0.9945459462974566
2013-06-26,-1,-0.0021893640412986998,-0.0017287797328736935,-0.00048626540744894773,0.005941720443220374,0.9939036305888711
2013-06-28,-1,-0.002110611735487271,-0.0016527292348033128,-0.00048626540744894773,0.006470929634265683,0.9940133572032792
2013-07-02,-1,-0.0016422627719004112,-0.001245812180380043,-0.00048626540744894773,0.005683245088684502,0.9947878891543683
2013-07-05,-1,-0.0017581126626801647,-0.0013578560469576252,-0.00048626540744894773,0.006470929634265683,0.9939616973059849
2013-07-09,-1,-0.0014888164574510619,-0.0011270631814105745,-0.00048626540744894773,0.006470929634265683,0.9943818889144602
2013-07-11,1,0.00018686044174025962,0.00029255157257704963,-0.001360481483495028,0.004248369119100611,0.9961387997595027
2013-07-15,1,0.00044401893920101006,0.0004939430434184796,-0.001750612317299038,0.004248369119100611,0.9960181595428879
2013-07-17,1,0.0003585784720273813,0.00041442391052688444,-0.0029847203440163117,0.004248369119100611,0.995666110537482
2013-07-19,1,0.0008263733768016266,0.0008269001354736027,-0.005324490029982188,0.0026405372372225364,0.9935066812283201
2013-07-23,1,0.0005982083118802595,0.0006229338281505562,-0.005324490029982188,0.002873210662243139,0.9935765413463497
2013-07-25,1,0.0006204203893931684,0.0006385121533696687,-0.005229951096546312,0.002873210662243139,0.9937552866510021
2013-07-29,1,0.0007098330972799655,0.000723178504011796,-0.006774737736300513,0.002873210662243139,0.9931178126131232
2013-07-31,1,0.0006059319159245668,0.0006389269936422301,-0.007095401932297447,0.002873210662243139,0.9925254312803
2013-08-02,1,0.0007745259140292294,0.0007867747510544955,-0.006774737736300513,0.002873210662243139,0.9930204972950457
2013-08-06,1,0.0008056992692738167,0.0008192709002002,-0.006774737736300513,0.0022840258455990004,0.9928839427291769
2013-08-08,1,0.000682391494878399,0.0007161107005470978,-0.006774737736300513,0.0019335804083549066,0.9932121670037137
2013-08-12,1,0.0010091594009673283,0.001066875362472457,-0.007077307886868411,0.0019335804083549066,0.9928366486867658
2013-08-14,1,0.0007394675271845353,0.0007713195661394436,-0.006793691086560782,0.0019445874050597277,0.9933297094707103
2013-08-16,-1,-0.0007727195620559001,-0.0006402426366579888,-0.003197143663290669,0.0029943770501225427,0.9951740891271407
2013-08-20,-1,-0.0005530368400560224,-0.0004677971300202982,-0.003197143663290669,0.0053735690217302946,0.9949198378436139
2013-08-22,-1,-0.0008308499803548417,-0.0006920054170438503,-0.003826205403535045,0.0035346876654884394,0.9940628178664866
2013-08-26,-1,-0.0007198612375122846,-0.0006039931667687537,-0.0028524450643378227,0.0027558517125789517,0.9947585829220309
2013-08-28,-1,-0.0013429206518240165,-0.0011417766804268541,-0.0026375913540270615,0.003249662664146216,0.9945822163817695
2013-08-30,-1,-0.0007572123625678097,-0.0006346264604884018,-0.0033662739975662405,0.0021091910555821494,0.9948243805261003
2013-09-04,-1,-0.0007970212265802025,-0.0006810557950822573,-0.0033662739975662405,0.0021091910555821494,0.9947936581011236
2013-09-06,-1,-0.00047246288103024474,-0.0004147565412193999,-0.0043946720878489534,0.003249662664146216,0.9942660624555633
2013-09-10,-1,-0.0008795430898263321,-0.0007719608922677475,-0.004589870296641021,0.003249662664146216,0.9939757132370031
2013-09-12,-1,-0.0004489623647791026,-0.0004126609495275479,-0.004589870296641021,0.00595087009566901,0.9931528851018803
2013-09-16,-1,-0.0003199893763508406,-0.0002602292773583178,-0.004589870296641021,0.003249662664146216,0.9939878492470812
2013-09-18,1,0.00024290637538561756,0.00026435188775772965,-0.008160053346568337,0.003249662664146216,0.9930428559556158
2013-09-20,-1,-0.0005456663839631807,-0.0004993669679080345,-0.004474637489625063,0.004361184925122443,0.9940317958006997
2013-09-24,-1,-0.00035834211238838635,-0.00033394974057194843,-0.0053330410492893575,0.004793122712551024,0.9933949511774172
2013-09-26,-1,-0.000936133615764647,-0.0008163994742945585,-0.0036139975817823526,0.00595087009566901,0.9934791686299225
2013-09-30,-1,-0.0011262859008629715,-0.000998927966449,-0.0020978061558183164,0.00690187200168745,0.9930611795353068
2013-10-02,-1,-0.0010144113067629174,-0.0009011157835208821,-0.0027674496857746896,0.007188488589256778,0.9925321101387155
2013-10-04,-1,-0.000721453643070677,-0.0006689922503922409,-0.0027354533861690803,0.007188488589256778,0.993060230952734
2013-10-08,-1,-0.0011978874620776347,-0.001083359375969516,-0.0020978061558183164,0.007188488589256778,0.9931532218583378
2013-10-10,-1,-0.0008495037556408693,-0.0007333827601638293,-0.0027354533861690803,0.007188488589256778,0.9932548355505464
2013-10-14,-1,-0.000953993927009055,-0.0008233845038699251,-0.0027354533861690803,0.007188488589256778,0.9931096422419711
2013-10-16,-1,-0.000585348487502215,-0.0005000168563450468,-0.002037265448315947,0.007188488589256778,0.9940040158063996
2013-10-18,-1,-0.0007278050564366858,-0.0005968744374415819,-0.002716676254757212,0.007669973549843783,0.9936416054771952
2013-10-22,-1,-0.0008818215801700257,-0.0006907712132947637,-0.004288084548788608,0.007188488589256778,0.9937353835668524
2013-10-24,-1,-0.0004352440753970699,-0.00032592381862641177,-0.005012358930159869,0.005342357850389894,0.9929128509087859
2013-10-28,0,-8.775998882483476e-05,6.056941458488043e-07,-0.005345395769043403,0.005342357850389894,0.9927841812019711
2013-10-30,1,7.243212749167692e-05,0.000115396633421158,-0.004455428222652056,0.005648072927699315,0.9928833614591787
2013-11-01,-1,-0.00011118831147753852,-5.02164107748527e-05,-0.004399096828416452,0.005648072927699315,0.9929235897302761
2013-11-05,1,0.000493429118382891,0.0005382676487839383,-0.004399096828416452,0.007154485626237688,0.9928740050174797
2013-11-07,1,0.00044662260966829543,0.0005086222039551182,-0.004399096828416452,0.007154485626237688,0.9923898890381473
2013-11-11,-1,-0.00021557247201812465,-0.00013237659458730893,-0.005345395769043403,0.007154485626237688,0.9918690722520545
2013-11-13,1,0.00016033628250312134,0.00019828428264994535,-0.00748064205781853,0.004432826433106937,0.9911018237811506
2013-11-15,1,0.00027617571543453283,0.00031069188677623684,-0.00748064205781853,0.004101412701108206,0.9916079432076506
2013-11-19,-1,-0.00028507789312263575,-0.00019671701592769886,-0.005244314220747524,0.004101412701108206,0.9920862318045152
2013-11-21,-1,-0.0007023263809314193,-0.0005921817930507585,-0.005244314220747524,0.003628818211649253,0.9930290389918457
2013-11-25,-1,-0.0004969615970345425,-0.00040388239462091954,-0.004181251900113615,0.0025870822222888333,0.9936753865040564
2013-11-27,1,0.00014520036027302312,0.00014973631394999738,-0.004181251900113615,0.0028690086126945103,0.9936537218097267
2013-12-02,1,0.0005727597300746087,0.0006882571506322217,-0.003782773616507451,0.0028690086126945103,0.9938218462906002
2013-12-04,1,0.0009166518363309236,0.0010795395989240575,-0.006818935160227264,0.002534962694087717,0.9934429282710141
2013-12-06,1,0.0014745148734354786,0.0017081472219157936,-0.003782773616507451,0.002534962694087717,0.9945640609047428
2013-12-10,1,0.0010355005817973416,0.001232030754684998,-0.003782773616507451,0.0028690086126945103,0.9937607072164298
2013-12-12,1,0.0002242600528152892,0.0003043968110911591,-0.003782773616507451,0.003628818211649253,0.9940847405316936
2013-12-16,1,0.000536845547516477,0.0006629872484931578,-0.006818935160227264,0.0028690086126945103,0.9939464430412199
2013-12-18,1,0.0008247883432636568,0.0010020424163397848,-0.005569875183881318,0.0025637097933593287,0.9940510318476489
2013-12-20,1,0.0003327373067817914,0.00044799466800842495,-0.0033664202910588027,0.004900087215382426,0.9940754190150657
2013-12-24,1,0.0005063228446413355,0.0006654290719122638,-0.005759004931843226,0.004900087215382426,0.9938242680129209
2013-12-27,1,0.0009943437837580114,0.0012273050386690653,-0.005759004931843226,0.005229920058860711,0.9937293823729711
2013-12-31,1,0.0011034799481641935,0.0013536430708869416,-0.008354446537868505,0.0055185693144046855,0.9922313750785844
2014-01-03,1,0.0006692917918750727,0.0008559464029256475,-0.009055390443859942,0.0055185693144046855,0.9910957233423249
2014-01-07,1,0.0009838196204723355,0.00119504567950353,-0.009055390443859942,0.005472400587928621,0.9911731906850582
2014-01-09,-1,-0.0003539465183683424,-0.0003043682506963219,-0.008354446537868505,0.0057798798517420865,0.9920278305846144
2014-01-13,-1,-0.000582946789258874,-0.0005042850583401952,-0.005759004931843226,0.005883894161064749,0.9918172371417057
2014-01-15,-1,-0.0008210345345211533,-0.000717078021696541,-0.005753580030243997,0.006796569919332774,0.9910852449615334
2014-01-17,-1,-0.0009222579258619098,-0.0008043698731335588,-0.005200675287850157,0.008352338696933727,0.9905234159000034
2014-01-22,-1,-0.0007803135739790321,-0.0006594322211359307,-0.008194434926736395,0.00923315194972556,0.9902248688508052
2014-01-24,-1,-0.0008766457712695794,-0.0007674036528214111,-0.006111649483876461,0.00923315194972556,0.9900062118095618
2014-01-28,-1,-0.0003946727416098238,-0.0003337608648335737,-0.007887890519916499,0.008724985474769313,0.9902649689274684
2014-01-30,-1,-0.0005247526967328407,-0.00045285042668648256,-0.006015954680112032,0.00719621460565255,0.9914988339152991
2014-02-03,-1,-0.0019343788608829405,-0.0016814945189557308,-0.003600754048628723,0.008724985474769313,0.9917175994224915
2014-02-05,-1,-0.001262672696110063,-0.0010968806364001472,-0.003600754048628723,0.008724985474769313,0.992446694295099
2014-02-07,-1,-0.0006502548630575719,-0.0005778330301717487,-0.004512900138739049,0.007738250208473551,0.9928816532882383
2014-02-11,1,0.00040596509815006804,0.0004949924519057223,-0.004512900138739049,0.007738250208473551,0.9931232579155105
2014-02-13,-1,-3.079511976138243e-05,-3.45235590975358e-06,-0.005723213261741389,0.006028038464910232,0.9925512310459016
2014-02-18,1,4.961760603755869e-05,5.808788857456021e-05,-0.005723213261741389,0.006028038464910232,0.9925353151553536
2014-02-20,1,7.02855710847642e-05,8.797088659898288e-05,-0.003904412113970824,0.005838595233332149,0.9931388697653523
2014-02-24,-1,-0.00020776250614118125,-0.00014764527864063453,-0.004067146087644256,0.0056012407211767055,0.9933893160943662
2014-02-26,-1,-0.0003117384483095826,-0.0002456836162327172,-0.0023276387276611127,0.005838595233332149,0.993556055442602
2014-02-28,-1,-0.000163603414442671,-0.00010789540402993976,-0.0023276387276611127,0.005838595233332149,0.9937436373181071
2014-03-04,1,5.001871392399483e-05,0.00010414560655449488,-0.0010716594928228977,0.005838595233332149,0.9942858050527162
2014-03-06,1,0.00016342341666414025,0.00016982452729057845,-0.0013514386250643821,0.006356598358187784,0.9936698921508919
2014-03-10,1,5.994982485636545e-06,3.444380268408682e-05,-0.0013514386250643821,0.007857468074703304,0.9926156072211725
2014-03-12,1,0.0007563562654035808,0.0008372936970359025,-0.0038361975049905073,0.006356598358187784,0.9929019430250003
2014-03-14,-1,-0.00014133918167502296,-0.00010607218585288179,-0.0013514386250643821,0.006356598358187784,0.9940491230785001
2014-03-18,1,0.00048772347228220176,0.0005547507175105438,-0.00150348132470772,0.004757571372710472,0.994801906487306
2014-03-20,1,0.0005357606837371278,0.0006034584783065372,-0.003130727699277331,0.005004639806989961,0.9939362688011047
2014-03-24,1,0.0005336325012612863,0.0006324461740008279,-0.002349944950046823,0.005004639806989961,0.9940246877084793
2014-03-26,1,0.0006251502800700887,0.0007197234806508765,-0.002349944950046823,0.00410032941735314,0.9941849566092097
2014-03-28,1,0.0005953907072251895,0.000679810452668657,-0.0027751598002384793,0.005557715115708957,0.9934487450467796
2014-04-01,1,0.001032639122854178,0.0011936185804688863,-0.003130727699277331,0.003990243214770367,0.9934964706421544
2014-04-03,1,0.0011333512278981727,0.0012871782604393434,-0.0037562598667793164,0.0035808324267570944,0.9938393424290581
2014-04-07,1,0.0009237452402485074,0.0010516061942564983,-0.0029354415226058935,0.0035808324267570944,0.9949559204712086
2014-04-09,1,0.0008101275950242364,0.0009486408570148885,-0.002710064408014667,0.003990243214770367,0.9949295566365747
2014-04-11,1,0.0007411252313772264,0.0008700919608831061,-0.002597745010364448,0.0042558193201080565,0.9945159859261105
2014-04-15,1,0.0005996325215227834,0.0006897411442956338,-0.002710064408014667,0.0042558193201080565,0.994312158395989
2014-04-17,1,0.000634858503133344,0.0007011128850182736,-0.002710064408014667,0.0042558193201080565,0.9944391656201805
2014-04-22,1,0.0006553821748660046,0.0007301640207135662,-0.0032391190139417045,0.004214596152511303,0.9943807207720015
2014-04-24,1,0.0008606798271293412,0.0009780516652172764,-0.0032391190139417045,0.004878472409959,0.9943215763551218
2014-04-28,1,0.0012855582192819177,0.0014569084835853053,-0.0032391190139417045,0.004878472409959,0.9949782972381994
2014-04-30,1,0.001189878663699245,0.0013626564451706801,-0.0026375941058948034,0.005568974304087631,0.9950928304713887
2014-05-02,1,0.001352089299627138,0.0015737428815864386,-0.0018978128332480697,0.005568974304087631,0.9952789184798595
2014-05-06,1,0.0009168823489636038,0.0010463816583411191,-0.0006912196620043018,0.007614718410362184,0.9950927917273219
2014-05-08,1,0.0009787200191503534,0.0010852574200790116,-0.0018978128332480697,0.005518568580715766,0.9954893635224764
2014-05-12,1,0.00117169632567468,0.001315412956472644,-0.0022443420470921512,0.00436897620454158,0.9959851734149381
2014-05-14,1,0.001389035360325799,0.0015806737337552956,-0.004052623432725772,0.00436897620454158,0.9952944064536892
2014-05-16,1,0.0010438431214172532,0.0011497739611975573,-0.0023709189963238664,0.0029633978580537066,0.9961481204890369
2014-05-20,1,0.0007222128134882885,0.0007815606874785714,-0.0007334119784148734,0.00436897620454158,0.9961824920591942
2014-05-22,1,0.0009945896333211136,0.0011023552289558137,-0.0022927394503195545,0.003245770774004729,0.9961520421110444
2014-05-27,1,0.0011243932516426434,0.001250277791459138,-0.004052623432725772,0.002643739858722179,0.9955439354686426
2014-05-29,1,0.001059434236985438,0.0011593897909408556,-0.004941427933813355,0.002643739858722179,0.9939124444788019
2014-06-02,1,0.0011612741570165553,0.0012951887956054254,-0.004941427933813355,0.0032937985754522593,0.9937829154155913
2014-06-04,1,0.0012872177210156116,0.00141243043951636,-0.004941427933813355,0.0032937985754522593,0.993911719110468
2014-06-06,1,0.0009120103341426349,0.0009721378448210472,-0.004941427933813355,0.0046017400635160535,0.993837762677869
2014-06-10,1,0.0006872625599140665,0.0007053689823548598,-0.0061855893399194554,0.0046017400635160535,0.9936568116522837
2014-06-12,1,0.00021515165429687177,0.00025772417996761213,-0.0038617791987788476,0.0046017400635160535,0.9941164120660713
2014-06-16,1,0.0002808599385991113,0.0003043208628598698,-0.0038617791987788476,0.0046017400635160535,0.9940853516288604
2014-06-18,1,0.00042037409177828527,0.00044502512477536635,-0.004792592931139976,0.0033590989098409197,0.9940798371180534
2014-06-20,1,0.0003848422325013844,0.0003930943536456644,-0.004792592931139976,0.0046017400635160535,0.9939435008592151
2014-06-24,-1,-0.00012162079806238573,-4.7566797128500575e-05,-0.0024983582265522167,0.0046017400635160535,0.9946441236629624
2014-06-26,-1,-0.001195918173043682,-0.0009529540691385597,-0.002217023270895886,0.0033590989098409197,0.9963840671236566
2014-06-30,-1,-0.000741762777868985,-0.0005726326001478958,-0.0029253271677664636,0.0025512570935366436,0.9966080888417698
2014-07-02,-1,-0.0007139202633391057,-0.0005453595659938315,-0.004792592931139976,0.001891215815378667,0.9949263978871861
2014-07-07,-1,-0.0002101895924624278,-0.00012402723923090136,-0.004792592931139976,0.0025512570935366436,0.994101698123515
2014-07-09,-1,-0.00033570415943054264,-0.00023607161592490333,-0.004792592931139976,0.0025512570935366436,0.9933550612338182
2014-07-11,-1,-0.0005338554625421463,-0.0004119516859617961,-0.005941219229255952,0.003451742579212597,0.9925806204049864
2014-07-15,-1,-0.0005437983573625674,-0.00042458746168677305,-0.005941219229255952,0.005745951135548337,0.9922711244077097
2014-07-17,-1,-0.0007120881841777677,-0.0005681235265991658,-0.004529290579033135,0.005745951135548337,0.9923398402599265
2014-07-21,-1,-0.000766257942116182,-0.0006092286368479659,-0.0036852857120641424,0.0064671224547816,0.9923632615317637
2014-07-23,-1,-0.0006758779639883329,-0.0005375074279114633,-0.0036852857120641424,0.0064671224547816,0.9920382815938953
2014-07-25,-1,-0.0004876398859250496,-0.0003889463253160771,-0.007105314121284293,0.0064671224547816,0.991635993494855
2014-07-29,-1,-0.0008044367454303689,-0.0006597968016422658,-0.004806333815073635,0.0064671224547816,0.9916644163869094
2014-07-31,-1,-0.0019296759698067575,-0.0016494306277485653,-0.001554118186879888,0.0064671224547816,0.993081195827796
2014-08-04,-1,-0.0009125745224755838,-0.0007799483171246461,-0.001554118186879888,0.004718084544824527,0.9944085059505261
2014-08-06,-1,-0.0015438417722942245,-0.0012783640030799835,-0.0011690876832308374,0.004414860522644118,0.9951671257039886
2014-08-08,-1,-0.0011211558702251567,-0.0009311132990417611,-0.0011690876832308374,0.004414860522644118,0.9958406073112376
2014-08-12,-1,-0.0007826267153095356,-0.0006409141412147918,-0.001554118186879888,0.003773303350002222,0.9961352051206315
2014-08-14,-1,-0.0007819972599764577,-0.000628942174005098,-0.0026411410062055036,0.003570078983566821,0.9960154702545356
2014-08-18,-1,-0.0005666852895318104,-0.00044884484011235094,-0.0019216908971375962,0.003570078983566821,0.996040762236991
2014-08-20,-1,-0.00010183994565905478,-3.606745442019549e-05,-0.004247885875628889,0.003423025770634806,0.9939593515879124
2014-08-22,-1,-0.0005487312442450229,-0.00045236860695762254,-0.0024257176357878564,0.003423025770634806,0.9939564670835739
2014-08-26,-1,-0.00025884314833683265,-0.00020957699894780973,-0.005908463464464952,0.003423025770634806,0.9939070074424976
2014-08-28,-1,-0.00031429168128210383,-0.00024586580462444054,-0.00640075819410063,0.0032375813145702078,0.9937575540858669
2014-09-02,-1,-0.0004912241242933475,-0.00038229326993980946,-0.00640075819410063,0.0032375813145702078,0.993438641782099
2014-09-04,-1,-0.0005044415266478966,-0.00039069388688531455,-0.006580752119235213,0.003194570930724412,0.9930442831007162
2014-09-08,-1,-0.0005229297676281106,-0.0004080357040757106,-0.006580752119235213,0.003194570930724412,0.9931511483482119
2014-09-10,-1,-0.00032350824408460655,-0.00025365429294218924,-0.007050724149778411,0.003194570930724412,0.99313299659362
2014-09-12,-1,-0.0006246640200006366,-0.0005209402936145898,-0.006580752119235213,0.003194570930724412,0.99332611613797
2014-09-16,-1,-0.0003486395576958469,-0.00028279411989844935,-0.007050724149778411,0.003194570930724412,0.9929366660143275
2014-09-18,-1,-0.0009404884029897757,-0.0008304126379397818,-0.007050724149778411,0.0025813055040770066,0.9949761908202537
2014-09-22,-1,-0.001443493917814332,-0.001267622206039266,-0.006580752119235213,0.0036184991290507357,0.9944249764629887
2014-09-24,-1,-0.001681422392126615,-0.0014718698584859006,-0.00552365833108056,0.005298025087543285,0.9939835346125543
2014-09-26,-1,-0.001653051849942217,-0.0014485883268750702,-0.005114081909668692,0.006676472145855476,0.9938684925608139
2014-09-30,-1,-0.0012689323744453605,-0.0011354343077318947,-0.005114081909668692,0.005298025087543285,0.9939267592995258
2014-10-02,-1,-0.0011805670561208291,-0.001073832245347939,-0.005114081909668692,0.0071363714159714915,0.9935514685287846
2014-10-06,-1,-0.000915519450769084,-0.0008370604389775749,-0.005114081909668692,0.010008127878626084,0.9928753756644542
2014-10-08,-1,-0.0007573366875923866,-0.0006753173676348662,-0.0026066476083990505,0.010008127878626084,0.9927296997271968
2014-10-10,-1,-0.0012775893879754122,-0.00111145687991179,-0.0026066476083990505,0.010008127878626084,0.9909823718860027
2014-10-14,-1,-0.001145520310403732,-0.001005376729282624,-0.0026066476083990505,0.010008127878626084,0.9912145366984879
2014-10-16,-1,-0.001464603022974284,-0.0012992494013590974,0.0005396515654655305,0.010008127878626084,0.991444331937713
2014-10-20,-1,-0.0003405454934996133,-0.00032513693942840937,-0.0005918416086770492,0.010008127878626084,0.9924226618050437
2014-10-22,1,0.00019215622432667702,0.0002536373588602993,-0.0005918416086770492,0.007275538431037633,0.992800145719708
2014-10-24,1,0.0007743579068380925,0.0009400352924260279,-0.0010295312468907906,0.005997513710490493,0.9932235388983874
2014-10-28,1,0.0009542810979396846,0.0011368483774028787,-0.003995285524291586,0.005997513710490493,0.9930500397877946
2014-10-30,1,0.000958653162327517,0.0011324151141056745,-0.0010295312468907906,0.005997513710490493,0.9930908776128433
2014-11-03,1,0.0013770879871049368,0.0015671547186365733,-0.002588500388104414,0.004971505425420518,0.9937323829529764
2014-11-05,1,0.0016479319139415449,0.001873208089855295,-0.002588500388104414,0.004218408017387951,0.9938944587377382
2014-11-07,1,0.0003774138677918349,0.0004974356867601061,-0.002588500388104414,0.004218408017387951,0.995382341089234
2014-11-11,1,0.00020346744126643613,0.00029593382099507175,-0.0035412586734633253,0.004218408017387951,0.9950122566965448
2014-11-13,1,0.0004820911514134234,0.000544688311872615,-0.0040308082990473705,0.005104517527618497,0.9942208989577831
2014-11-17,1,0.0002376559572939053,0.0002490881209658418,-0.005811697395393761,0.004218408017387951,0.9939360013249955
2014-11-19,1,0.0007175612310120166,0.0008087910636512758,-0.005811697395393761,0.005044999123141183,0.9922022250910378
2014-11-21,1,0.0007716332063027632,0.0008880637117951719,-0.005811697395393761,0.00834136534267593,0.991959190890322
2014-11-25,1,0.0003915669754397329,0.0004890687899885186,-0.004069335835596832,0.00834136534267593,0.9923073524270085
2014-11-28,1,0.0014388481039324373,0.0016493125322702778,-0.004069335835596832,0.006199915547773869,0.9930000674212859
2014-12-02,1,0.0014765933124644471,0.0016773028574516608,-0.005811697395393761,0.003099719570788339,0.9924399083974776
2014-12-04,1,0.0015027876924825776,0.0017035669422795574,-0.006764562959914225,0.003099719570788339,0.991383824820882
2014-12-08,1,0.00129049391967851,0.0014573352122860294,-0.006764562959914225,0.006561076436307018,0.9905852421332829
2014-12-10,1,0.0007326825833581477,0.0008266514377990293,-0.006764562959914225,0.00870976205837369,0.9907837380940582
2014-12-12,1,0.0007757399160050811,0.0008761342814171391,-0.006745770342501186,0.006322714453006456,0.991188359517841
2014-12-16,1,0.00013773922894548004,0.00014970483503139287,-0.0029009423538042664,0.008857341686749188,0.9914393162478228
2014-12-18,1,0.0012978253298565488,0.0014510626067264628,-0.0029009423538042664,0.006322714453006456,0.9927531901417868
2014-12-22,1,0.0010086708412322845,0.0010518600016853103,-0.00456454722402506,0.0051058848525781814,0.9925369329604047
2014-12-24,1,0.0012185385073502889,0.0013276720065761964,-0.00456454722402506,0.0074789118749638474,0.992146501826323
2014-12-29,1,0.0012656876220536043,0.0013896023180043767,-0.006203186275961509,0.0074789118749638474,0.9912088849845648
2014-12-31,1,0.0007936539957154551,0.0008610338783091852,-0.007454532639395363,0.0074789118749638474,0.9906733815898546
2015-01-05,1,0.00019304263094052472,0.00020311559264699333,-0.006203186275961509,0.008857341686749188,0.9911069758803134
2015-01-07,1,0.0007884290259685331,0.0008867522445895047,-0.006203186275961509,0.0074789118749638474,0.9921741093096967
2015-01-09,1,0.0007140228421389986,0.0008079821848709775,-0.00484139678608959,0.004775055452541754,0.9926338803777309
2015-01-13,1,0.0006687437364447644,0.0007726029788085766,-0.004135616076686068,0.005041731122076121,0.9927696177642672
2015-01-15,1,0.0008599194963552666,0.0009613064779642598,-0.00484139678608959,0.003770016952239117,0.9926444479543125
2015-01-20,1,0.0014957437022614002,0.0016836855275934707,-0.00484139678608959,0.003770016952239117,0.9928641134177181
2015-01-22,1,0.0017241653415201938,0.0019470317079913813,-0.004368517875753138,0.003770016952239117,0.9932482494177769
2015-01-26,1,0.0016684986543495282,0.001892393200704947,-0.004368517875753138,0.0034316824202986116,0.9935828836193231
2015-01-28,1,0.0013531474157975525,0.0015331595964196926,-0.0033389723782477577,0.0034316824202986116,0.9945076332690377
2015-01-30,1,0.0004781123297082302,0.000542371724288484,-0.002753198222219767,0.003770016952239117,0.9956458225286703
2015-02-03,1,0.0008405099314152952,0.0009418268218805021,-0.0033389723782477577,0.00253034908130822,0.9958718026485248
2015-02-05,1,0.0006640437028915364,0.0007324322292029656,-0.004368517875753138,0.0015482526523903344,0.9950040686513356
2015-02-09,1,0.0006019004393782326,0.0006669703263478992,-0.004507070771227156,0.002769704381337256,0.9944440586557953
2015-02-11,1,0.0003716747627079111,0.0003898959315636608,-0.004507070771227156,0.003416375006319744,0.9938113095790543
2015-02-13,-1,-0.00032690705310836583,-0.00021863807881059857,-0.003262909716919044,0.005470763683994691,0.9938441121441978
2015-02-18,-1,-0.00025037192693382445,-0.00013817832079002267,-0.0051343070830080426,0.005470763683994691,0.9933798628354904
2015-02-20,1,9.495993749714796e-05,0.0001431553129081654,-0.005556945451836694,0.005470763683994691,0.9927320837646768
2015-02-24,0,-3.835246238245135e-05,5.802066140208961e-05,-0.006257523189569781,0.0058008104879480726,0.9920884283151431
2015-02-26,-1,-0.00023413482404909284,-9.888710570484156e-05,-0.006257523189569781,0.006969127348096495,0.9916484139808316
2015-03-02,1,4.963879913582627e-05,0.0001019553698116991,-0.006257523189569781,0.011503291319172014,0.9900477670074783
2015-03-04,-1,-0.00038224589904833553,-0.0002616494213479842,-0.006257523189569781,0.011503291319172014,0.9899546507114756
2015-03-06,-1,-0.0014462674391425429,-0.0011608696816788034,-0.0031035221420622735,0.011503291319172014,0.9906058955590451
2015-03-10,-1,-0.0019843758291648106,-0.0016046072671102854,-0.004856868082224313,0.011503291319172014,0.9908986797090598
2015-03-12,-1,-0.0014641938531184348,-0.0011709633762295234,-0.004856868082224313,0.007347868206780224,0.9912081935356167
2015-03-16,-1,-0.0012272001699512594,-0.0009929152623509132,-0.002704571175339209,0.007347868206780224,0.9916860717706715
2015-03-18,-1,-0.0007583469723966177,-0.0006012917913177762,-0.0033582184032853726,0.00567265968049059,0.9926166642958532
2015-03-20,-1,-0.00022589616965793186,-0.00014268784367280798,-0.0026619556335616412,0.00567265968049059,0.9933908018769244
2015-03-24,-1,-0.0002608703153239231,-0.0001841287533618918,-0.0026619556335616412,0.005633504286150266,0.9937585624494709
2015-03-26,1,0.00013079320920898041,0.00016009251625101657,-0.0026619556335616412,0.0046707783362965275,0.9943436475265985
2015-03-30,1,0.001617533614553374,0.0018172590482882175,-0.0033582184032853726,0.0034059832054614122,0.996249245860563
2015-04-01,1,0.0017990439718982526,0.0020377453237404083,-0.004218666027562891,0.0021766151590607583,0.9956364530103131
2015-04-06,1,0.0015783438051372675,0.0017210349623926389,-0.004218666027562891,0.0029057746997840275,0.9955435828854561
2015-04-08,1,0.0008468184058206978,0.0008743226237193566,-0.003989036150111097,0.0029057746997840275,0.9959010659196476
2015-04-10,1,0.0011478614115280296,0.001210152544030983,-0.003989036150111097,0.0029057746997840275,0.9956086039111053
2015-04-14,1,0.0012157742621158995,0.0012972045941100397,-0.003989036150111097,0.0034911010459526414,0.99537131059569
2015-04-16,1,0.0011094887890635793,0.0011940035722680694,-0.003989036150111097,0.005906020583323959,0.9951439944297827
2015-04-20,1,0.00113084736155886,0.0012136573287566481,-0.0043730042085451636,0.005429853105175142,0.9950715512551361
2015-04-22,1,0.0008365206787754083,0.0008698241149361112,-0.003989036150111097,0.005429853105175142,0.9953411574529067
2015-04-24,1,0.001203050767887257,0.0013203608230554888,-0.0043730042085451636,0.005429853105175142,0.9948944832022927
2015-04-28,1,0.001084899139460989,0.0011959380595094448,-0.0043730042085451636,0.005906020583323959,0.9943697370719731
2015-04-30,1,0.00059749100051381,0.0006406889399284984,-0.0039066906639451384,0.005906020583323959,0.9947776907207193
2015-05-04,1,0.0008099399418698458,0.0008767011092030005,-0.0042231246937394894,0.005429853105175142,0.9946369548389273
2015-05-06,1,8.434562606707575e-05,0.00014236594594665346,-0.004190739045842089,0.005429853105175142,0.9945499745841875
2015-05-08,1,0.000667275333658211,0.0006792194508501522,-0.005126406791187589,0.002074267779754424,0.9945222506899905
2015-05-12,1,0.000250446903170751,0.0003230974598320533,-0.005126406791187589,0.002074267779754424,0.994536392967346
2015-05-14,1,0.0012399176268961761,0.0013731479585485156,-0.005126406791187589,0.0017253706619721376,0.9946791126187724
2015-05-18,1,0.0014350953778029408,0.0016234679394145014,-0.0058696176236438065,0.0017253706619721376,0.994031820227121
2015-05-20,1,0.0014604266733889298,0.0016484542677310365,-0.0058696176236438065,0.0025960667863447087,0.9935892361700409
2015-05-22,1,0.0011855846757145728,0.00133535149122171,-0.00483167597478381,0.005719836729969536,0.9936694908226683
2015-05-27,1,0.0007819892475186146,0.0008440141959558426,-0.0035597446744872726,0.0034316205356661497,0.9944742986254963
2015-05-29,1,0.0001461216246401778,0.0002066815164964072,-0.003010149244119555,0.005707347722405855,0.9944426679470698
2015-06-02,1,0.000258467616225903,0.00027650273347778554,-0.004102004063736518,0.005707347722405855,0.9938398436912431
2015-06-04,-1,-0.00034707441653866695,-0.0002547263554372253,-0.0016887918595730673,0.007801453667423227,0.9933388465520259
2015-06-08,-1,-0.0009526291938782867,-0.0007778528165485279,-0.0016576472036761074,0.00859411573985306,0.9922539523955823
2015-06-10,-1,-0.00017772108153868172,-0.00011816443907260618,-0.004102004063736518,0.007801453667423227,0.9923034407787099
2015-06-12,1,3.516786432638435e-05,4.0991828639275626e-05,-0.002311956850756042,0.007801453667423227,0.9919401328416134
2015-06-16,1,0.00026766986630749883,0.00030372218129176576,-0.005036753795597131,0.006426428115148948,0.9924084888374702
2015-06-18,1,0.0006911172358841403,0.0007874248671161372,-0.005036753795597131,0.00525316887416899,0.9927299192739668
2015-06-22,1,0.000708818632261283,0.0007767291902717564,-0.005036753795597131,0.004767027717484046,0.9928487751000157
2015-06-24,1,0.00013787732000291531,0.00019079590982522485,-0.006470091136740907,0.006150827110198625,0.9922159381784327
2015-06-26,1,0.0005886827882911628,0.0006117939538188142,-0.006470091136740907,0.004767027717484046,0.9923783669524402
2015-06-30,-1,-0.00011143993304034113,-5.237341911670446e-05,-0.0032758674425902488,0.006150827110198625,0.9930136302299549
2015-07-02,1,0.0004325807402434216,0.00044295970354950613,-0.0032758674425902488,0.006150827110198625,0.9934817119803233
2015-07-07,1,0.0009420786338421928,0.0010017790700436796,-0.002149638265077296,0.006150827110198625,0.9943954974794138
2015-07-09,1,4.0807264349186764e-05,0.00011558607291366053,-0.0016665400842460413,0.006752502425060705,0.9947960314121317
2015-07-13,1,0.0004344581816292593,0.00045223338900998494,-0.002149638265077296,0.006752502425060705,0.9946993634041157
2015-07-15,1,0.00016467222683821218,0.00019903243752362188,-0.0016665400842460413,0.006752502425060705,0.9950445914130509
2015-07-17,1,0.00016814435716304115,0.000205722954887924,-0.002149638265077296,0.006752502425060705,0.9948296923930001
2015-07-21,1,0.00020650650250758802,0.0002430145660398849,-0.00299068161771508,0.006449743632733936,0.9949422000876842
2015-07-23,1,0.0001039610047175083,0.00015312512615649573,-0.0037592481267624037,0.005250312584221149,0.9948177759995286
2015-07-27,-1,-0.00011474824992762907,-1.0333067471856943e-05,-0.006166475736599597,0.005250312584221149,0.9921671553272161
2015-07-29,-1,-0.0003084278360423152,-0.0001749872199104234,-0.006166475736599597,0.0055600948255825275,0.9915065027817626
2015-07-31,-1,-0.00016810703624287298,-3.9593720360456654e-05,-0.006166475736599597,0.0055600948255825275,0.9911060259472062
2015-08-04,1,0.0005030563967080243,0.0005286996619429881,-0.00706434967929654,0.005009383442652249,0.9902873331496147
2015-08-06,1,0.00048551747439498844,0.0005145572773381759,-0.00706434967929654,0.0055600948255825275,0.9889375988135167
2015-08-10,1,0.0005229428239579249,0.0005231833526054314,-0.008249797173905924,0.0072302730735063075,0.9881625245257515
2015-08-12,1,0.000558253222141944,0.0005599661833323718,-0.013524203787286158,0.0072302730735063075,0.9872008020308116
2015-08-14,1,0.0002929686403942998,0.00033793622017200975,-0.013524203787286158,0.010148724197575027,0.9868739673144807
2015-08-18,1,0.0002606358961789679,0.0002914466566496716,-0.013524203787286158,0.010680306526890147,0.9863154297476023
2015-08-20,1,0.0004466300560582228,0.000511352251511612,-0.016300010117392568,0.010680306526890147,0.9862497423240173
2015-08-24,-1,-8.996324849273521e-05,-7.900604776872323e-05,-0.006539692751379161,0.010680306526890147,0.9884375838075401
2015-08-26,-1,-0.0003232006975144472,-0.0002836416080255199,-0.007050073009921538,0.010148724197575027,0.9889873277003299
2015-08-28,-1,-0.00022572774716749845,-0.00018336098372234895,-0.009967291849722185,0.008839439776561209,0.9879896586561877
2015-09-01,-1,-0.000769952530077453,-0.0006765238204785322,-0.007050073009921538,0.010119127537207017,0.9885077953043088
2015-09-03,1,0.00023956333383730365,0.0002694927704319501,-0.007050073009921538,0.008839439776561209,0.9899836208107174
2015-09-08,-1,-0.00011582137489073242,-9.018621230755238e-05,-0.007050073009921538,0.008886121770610681,0.989416987912811
2015-09-10,-1,-0.0006546722571080522,-0.0005695545999488003,-0.0035529630944811826,0.010288770179723444,0.9898082170464041
2015-09-14,-1,-0.0006389450188384982,-0.0005524488506410395,-0.0003542437565856956,0.009983944844545126,0.9899935696845417
2015-09-16,-1,-6.108369582362013e-05,-4.4938839495131684e-05,-0.00821826490169333,0.008794378879007246,0.9902100090125163
2015-09-18,-1,-0.00044902652531453384,-0.0003828469719064134,-0.003873780572247397,0.009653862804999663,0.9904284150949455
2015-09-22,-1,-0.000260006620052657,-0.00019770947200761386,-0.005427766869286222,0.009653862804999663,0.9907401977867799
2015-09-24,-1,-0.0003376913766589365,-0.0002764586769187742,-0.003012194380936077,0.009983944844545126,0.9890617345334879
2015-09-28,-1,-0.0012225680247550353,-0.0010465947934080102,-0.003012194380936077,0.009983944844545126,0.9902803483556822
2015-09-30,-1,-0.0005182765679182259,-0.00044667646515096773,-0.003012194380936077,0.009653862804999663,0.9909971471647462
2015-10-02,-1,-7.113295239220295e-05,-5.7545683426242084e-05,-0.0024297917349558164,0.007428954083852488,0.9915467604525743
2015-10-06,-1,-0.0006757358726045758,-0.0005995656518584366,-0.002819411286553398,0.00582359225226208,0.9927630913034236
2015-10-08,-1,-0.00011605017240927471,-0.00010288949147410876,-0.002819411286553398,0.005585175472475784,0.9931068254092611
2015-10-12,1,0.00015703127946359676,0.00018139325777020174,-0.005633506327759372,0.0021559919735512855,0.9926033175185807
2015-10-14,-1,-0.0005865047337526841,-0.0005098390589463732,-0.0023406512046547736,0.005585175472475784,0.9930931707019282
2015-10-16,-1,-2.7086830607176457e-05,-1.9474605022880747e-05,-0.005159508214682361,0.0017932373988000607,0.9925976341602855
2015-10-20,-1,-0.000374550581722189,-0.0003171042658258473,-0.00809353746249404,0.0044969117482221085,0.9910702264303881
2015-10-22,1,0.0010291496477893881,0.0011404628060226237,-0.00809353746249404,0.0017932373988000607,0.9917426652816355
2015-10-26,1,4.2265599996839446e-05,8.038174178168615e-05,-0.005145730628107249,0.0044969117482221085,0.9918385542946947
2015-10-28,-1,-0.00025240735083274655,-0.00016188736264601325,-0.005145730628107249,0.0049332251925890604,0.9917006675075527
2015-10-30,-1,-7.546566760978062e-05,-2.656422150884024e-05,-0.007986682523572495,0.0049332251925890604,0.9910835491083049
2015-11-03,-1,-0.0005734968958566298,-0.0004575375684816662,-0.007221428192180853,0.006393878415683046,0.9909525742946554
2015-11-05,-1,-0.00030006852210119053,-0.0002235724848737112,-0.00829995630450791,0.00838546381704339,0.9897371122157731
2015-11-09,-1,-0.000682819784388242,-0.00057786789363233,-0.007221428192180853,0.00838546381704339,0.9902305129604755
2015-11-11,-1,-0.00018382463531560388,-0.00015086860933780894,-0.007481941018026167,0.007669374290713515,0.9903844637485866
2015-11-13,-1,-0.0008910507483951631,-0.0007739865261127915,-0.007481941018026167,0.007669374290713515,0.990571541764646
2015-11-17,-1,-0.0005414545690567953,-0.00047684998957395533,-0.0052325682367223535,0.007669374290713515,0.9918551383611508
2015-11-19,-1,-0.0006133136657593024,-0.0005091984894054645,-0.007481941018026167,0.006095002746333843,0.9911203499342519
2015-11-23,1,0.0003369175949493134,0.0003797711793902091,-0.007481941018026167,0.007568827907088071,0.9910992536595779
2015-11-25,1,0.000687913759307915,0.0008095886418847734,-0.007481941018026167,0.008354870795966887,0.9909501438657792
2015-11-30,1,9.60713989478095e-05,0.00010192440872685955,-0.005622176650396029,0.008354870795966887,0.9910862841576095
2015-12-02,1,0.00026659263566264536,0.0003117608458377532,-0.005897793310136222,0.007568827907088071,0.9909151077263816
2015-12-04,1,0.0006009907283078253,0.0006711350880721804,-0.0051591606673530525,0.006095002746333843,0.9920219946114214
2015-12-08,1,0.0008290314571862673,0.0009333829403392358,-0.007519332056486456,0.0052608649363168735,0.9904687455032474
2015-12-10,1,0.0006506799728920446,0.0007357671459601602,-0.0061302841073575245,0.0063235015814183,0.99038005485115
2015-12-14,1,0.000450020374874864,0.000504021581302011,-0.0061302841073575245,0.008234200210508968,0.9898971078303408
2015-12-16,1,0.0008526390575583661,0.0009606779914631795,-0.00891778315756974,0.0058977644793470965,0.9898409730503772
2015-12-18,-1,-3.231543116414128e-05,-3.100622519746937e-05,-0.00891778315756974,0.008234200210508968,0.990474054338658
2015-12-22,1,0.0007899750006023036,0.000918556922930815,-0.00891778315756974,0.0058977644793470965,0.9901335488497882
2015-12-24,1,0.0009345806731636034,0.0011027544389120084,-0.009939382466332037,0.0053463742704053605,0.9899350545010445
2015-12-29,1,0.001119719024646912,0.0013269782426919,-0.009939382466332037,0.0051913282652443216,0.9898513123044931
2015-12-31,1,0.000676292759107827,0.0008209338087150963,-0.008557337551071128,0.00657332151640627,0.9898265663938565
2016-01-05,1,0.0004809740652872043,0.0006019981758411298,-0.009939382466332037,0.00657332151640627,0.9893400181310096
2016-01-07,-1,-0.00036206224436534915,-0.00035287247357423804,-0.009654111281262253,0.00657332151640627,0.9903425741912648
2016-01-11,0,-3.829564840049848e-06,4.204935483489633e-05,-0.009654111281262253,0.0060967369742324995,0.9906047985952001
2016-01-13,-1,-0.0006009919620014082,-0.0005490526861734985,-0.008443154719878554,0.0051913282652443216,0.9916579414206224
2016-01-15,-1,-0.001484978834645751,-0.001275194292196614,-0.00460097289629138,0.007846439419649577,0.9906432677143558
2016-01-20,-1,-0.0011618329836700456,-0.001007800724455256,-0.0026089371175635184,0.008015104253872628,0.9911376612564312
2016-01-22,-1,-0.0005694466097544548,-0.0004991744463670178,-0.0026089371175635184,0.006718845741057536,0.9923629259299283
2016-01-26,-1,-0.001389192734873392,-0.0011842178723640545,-0.0020533006456149526,0.007760070004553527,0.9923413980018013
2016-01-28,-1,-0.0006867638166788872,-0.0006199575710859324,-0.0020533006456149526,0.008015104253872628,0.9910253953484635
2016-02-01,-1,-6.718820392373076e-05,-5.844284071753836e-05,-0.0023829258941629014,0.008015104253872628,0.9919761467016751
2016-02-03,-1,-0.0009288529262789757,-0.0007878407453727149,0.00104558517789955,0.008015104253872628,0.9921455323927475
2016-02-05,-1,-0.0010441951747675257,-0.0008928172491140028,0.00104558517789955,0.008015104253872628,0.9919931544341152
2016-02-09,-1,-0.00023066636712173913,-0.00020239799544789587,0.00104558517789955,0.008211245093928376,0.992146134626323
2016-02-11,-1,-0.0005678758366589479,-0.0004831585551351399,0.00190814202943472,0.008432498369513016,0.991683909104941
2016-02-16,1,0.0006592819885414694,0.0007513247377830563,0.0004812122924747256,0.007977301320639542,0.9933967437418807
2016-02-18,1,0.000830748752043498,0.0009326388421020105,0.0004812122924747256,0.007070361757089549,0.993854652873969
2016-02-22,1,0.0001237488103555109,0.00015520629655647948,-0.0005141752391637686,0.007070361757089549,0.9934566582100532
2016-02-24,1,0.0007431096681914789,0.0008122774099957072,-0.0026028438490499515,0.006478945071934208,0.9935632752226914
2016-02-26,1,0.0008199261034707425,0.0009194628604969851,-0.0005141752391637686,0.006478945071934208,0.9949109514284028
2016-03-01,1,0.0005883096632642126,0.0006148325477383604,0.0011572867939902678,0.006478945071934208,0.9942559707742205
2016-03-03,1,0.0010438181243979435,0.001163186484169403,0.000514299250461651,0.007186359049130609,0.9935614260579135
2016-03-07,1,0.0009571709133185482,0.0010770863230777803,0.000514299250461651,0.006807972775789102,0.9932221650205926
2016-03-09,1,0.0009931193883853785,0.0010774583958101044,-0.002329516232311209,0.006206448361748227,0.9927993349237992
2016-03-11,1,0.0014171771564681843,0.00158661239224064,-0.003746894934652365,0.005948408501002572,0.9928256729883392
2016-03-15,1,0.001436317465773404,0.001591705418608174,-0.006958809887790449,0.006206448361748227,0.9921879689770904
2016-03-17,1,0.0023077831367017917,0.002671512063389193,-0.008027512543448315,0.005948408501002572,0.9918562041455524
2016-03-21,1,0.0015877766466614964,0.001804518937869798,-0.0070562096102877725,0.005948408501002572,0.9921072870403181
2016-03-23,1,0.0015756464934771233,0.0017882872935725644,-0.009904582955764286,0.005948408501002572,0.9907305762336343
2016-03-28,1,0.001791357645736566,0.002027057613190374,-0.009904582955764286,0.006447928453300885,0.990628841353649
2016-03-30,1,0.0022090175188706597,0.002476251253764679,-0.009904582955764286,0.006347786327256705,0.990852743448351
2016-04-01,1,0.0031781340904760503,0.003582376356987692,-0.009904582955764286,0.005645035626229262,0.9916939141955897
2016-04-05,1,0.0020415906239190295,0.00225840221308556,-0.009183738001612648,0.0058351629092062325,0.9919947140394437
2016-04-07,1,0.0017176252144903157,0.0019067674710863875,-0.007266540777864952,0.005859767303335405,0.9929279943091268
2016-04-11,1,0.0011331300807676786,0.0011990594746233473,-0.006955520191638384,0.0070183103022317984,0.9928726920383448
2016-04-13,1,0.001102058459537941,0.0011721402291095923,-0.0033541960291087708,0.0070183103022317984,0.9930297494018449
2016-04-15,1,0.0011617522569010888,0.0012550748500879225,-0.00257168537935626,0.007676960235167323,0.9930886336125158
2016-04-19,1,0.0013752024622301936,0.0015330962758127557,-0.0038728161791773117,0.007676960235167323,0.992054493486714
2016-04-21,1,0.00033493509743021284,0.000355554882086696,-0.00041015557357649787,0.008559106448428725,0.992666781029455
2016-04-25,1,0.0007334780230448683,0.0007862113288116832,-0.0038728161791773117,0.007312359039985599,0.9930124184673575
2016-04-27,1,0.0006604161699273405,0.0007036900104862236,-0.0035138983392939923,0.0062539581671333866,0.9932991581571865
2016-04-29,1,0.0009939234606688562,0.001116380773951959,-0.0035138983392939923,0.008257452237642467,0.9930489954968311
2016-05-03,1,0.001130196847421113,0.0012809236471356864,-0.0018462222482332504,0.0067036930195171875,0.993846501146352
2016-05-05,1,0.0011674746536005822,0.0013069315766472025,-0.0018462222482332504,0.0075008330474964115,0.9937494134153756
2016-05-09,1,0.0014168242821895696,0.0015762189064820159,-0.0020678754641514576,0.007009003383379384,0.9937761161923617
2016-05-11,1,0.0020728255761051388,0.002344618404174579,-0.0020678754641514576,0.007009003383379384,0.9937540191398289
2016-05-13,1,0.0016309775365190313,0.0017743478657546114,-0.0024914682740206488,0.006416137092347118,0.9938979996176256
2016-05-17,1,0.0012779733457883673,0.0014193612417894308,-0.0018718732045175388,0.006416137092347118,0.9950153228994901
2016-05-19,1,0.0013028507003388819,0.001439973136374731,-0.0015054122264754693,0.006416137092347118,0.9952465985194566
2016-05-23,1,0.0010172720139166825,0.001117265688223653,-0.000838662178239392,0.007009003383379384,0.99539718239889
2016-05-25,1,0.0004912035196075228,0.0004935886140925522,-0.00035788195529235005,0.007009003383379384,0.9951967200207437
2016-05-27,1,0.00049551954206715,0.0005093099374787291,-0.0015054122264754693,0.006416137092347118,0.9951054269698134
2016-06-01,0,-1.719815490256436e-05,0.00011319687036785226,-0.001746272936436933,0.007009003383379384,0.9934589805558597
2016-06-03,1,0.00043988342940749173,0.0005010448795999021,-0.001746272936436933,0.00894859512597926,0.9910621119954014
2016-06-07,1,0.00019937374415943566,0.00032220165479002053,-0.0001089385112214895,0.00894859512597926,0.9910285699903856
2016-06-09,1,0.0007000490285808056,0.0007879979687513641,-0.0019294956866473091,0.0068536307439981525,0.9915011478069027
2016-06-13,1,8.216999992598955e-05,0.0002611155749750318,-0.0030874699064891214,0.0068536307439981525,0.9910961238214723
2016-06-15,1,0.00023517495834469228,0.0003799174240859873,-0.0027106691022473046,0.007634013343028723,0.9909422495025645
2016-06-17,1,0.00047286042639365717,0.000608933658829039,-0.0027106691022473046,0.006500551114113161,0.9914530880255878
2016-06-21,1,0.0006606163871892581,0.0007802717223030799,-0.005697356111398685,0.0061421920718440085,0.9910796568084643
2016-06-23,1,0.0012086675262580023,0.001223023877436288,-0.0065808407843626765,0.0061421920718440085,0.9909939540903262
2016-06-27,1,0.0002914621291450475,0.00045195146262148525,-0.005913452820047581,0.006330139409526171,0.9909264744422213
2016-06-29,1,0.0011201634123764815,0.0012035413909619816,-0.005997839618682838,0.006330139409526171,0.9917996222930485
2016-07-01,1,0.0030970302011790714,0.0032785766462166527,-0.005997839618682838,0.0061421920718440085,0.9939259964357665
2016-07-06,1,0.0031751379569735115,0.003344483426955697,-0.007824219211497493,0.005262841615076114,0.9924894945636614
2016-07-08,1,0.0034506417944793226,0.0037139677622632064,-0.0073681227941567356,0.0053853012799189685,0.9926399776269652
2016-07-12,1,0.0029855216519731557,0.0032097569656013803,-0.005997839618682838,0.0053853012799189685,0.9936397684535783
2016-07-14,1,0.002987057914132035,0.0031925214113946564,-0.005997839618682838,0.004430807559393207,0.9936754833001705
2016-07-18,1,0.0030588638962808635,0.0032887882478190938,-0.005997839618682838,0.004430807559393207,0.9935458869379422
2016-07-20,1,0.0025415354518592455,0.0026964214482098135,-0.005997839618682838,0.0024364481921715087,0.9940180330295332
2016-07-22,1,0.0022408834093884432,0.002359969061576532,-0.004142279480039062,0.0048354694310188085,0.9943348476912676
2016-07-26,1,0.0022088163669807728,0.0023314046680358684,-0.004319539602672109,0.0029560910052027056,0.9944839014960153
2016-07-28,1,0.00203248315123383,0.002115396225158871,-0.002274096912351419,0.0029560910052027056,0.9952637459948553
2016-08-01,1,0.0022210731359517074,0.0023519270261697926,-0.0029769702410228794,0.0029560910052027056,0.9950164262349427
2016-08-03,1,0.0013258153186958162,0.001352713977694435,-0.0015114796954943388,0.004284773892264564,0.9958439655480205
2016-08-05,1,0.001605245946463896,0.0016717965031699793,-0.0029769702410228794,0.004284773892264564,0.9952090869151442
2016-08-09,1,0.0017955628602997712,0.0018998223055933373,-0.0066420912824664636,0.0029933346210407816,0.9929963620823471
2016-08-11,1,0.0015863895824602698,0.0016356283954370122,-0.007363255808074688,0.0029933346210407816,0.9909282721141275
2016-08-15,1,0.0013026369704609415,0.0013064905856162994,-0.00820737402182804,0.004670615842328592,0.989724203116268
2016-08-17,1,0.0011652342209901028,0.0011673393220090283,-0.007969265689023125,0.004670615842328592,0.9900364292575412
2016-08-19,1,0.0019376355061121843,0.0020879970930431447,-0.007969265689023125,0.0022537862449505024,0.9898569111480343
2016-08-23,1,0.00213549953508066,0.002362810350490835,-0.008372040343296853,0.004670615842328592,0.9894343029572994
2016-08-25,1,0.0019422838687522823,0.0021184231792031206,-0.008372040343296853,0.0017863309289644263,0.9891702064294944
2016-08-29,1,0.0015013740811012394,0.0015738358973779402,-0.010083930229266921,0.0004637706258106024,0.9894005099414706
2016-08-31,1,0.0009772302711102195,0.000986706695982057,-0.008372040343296853,0.0004637706258106024,0.9901020935680327
2016-09-02,1,0.0008315630633581687,0.0008678798942952993,-0.006870983222446714,0.0004637706258106024,0.9910875331244057
2016-09-07,-1,-0.001216601575117962,-0.0009284566840875813,-0.008430566907890425,0.0004637706258106024,0.9927512385385697
2016-09-09,-1,-0.003061463844350412,-0.0025530234717682596,-0.006870983222446714,0.0009277337610439464,0.9946109492150225
2016-09-13,-1,-0.0036568956727400844,-0.0030061037284408055,-0.006870983222446714,0.0009277337610439464,0.9954637899443733
2016-09-15,-1,-0.003340505952316523,-0.0027584939477227543,-0.006870983222446714,0.0017122300675304503,0.9951953237063255
2016-09-19,-1,-0.00364103128399541,-0.003021828677102963,-0.007259019982304313,0.0017122300675304503,0.9951240583077374
2016-09-21,-1,-0.003461803501435285,-0.0028681704750735827,-0.006683683471157699,0.0016530491237436765,0.9955591981055344
2016-09-23,-1,-0.0040060244333056695,-0.0033532362647463523,-0.007265665071349338,0.0016530491237436765,0.9953729170153447
2016-09-27,-1,-0.004297813115362439,-0.003624224459312343,-0.006683683471157699,0.0026037831806003577,0.9952602858541872
2016-09-29,-1,-0.004250682633038381,-0.003603406520074315,-0.005886814164835229,0.002426240349240037,0.9955857036617011
2016-10-03,-1,-0.003609436242693228,-0.003074649681386955,-0.005886814164835229,0.002920410483726019,0.9947331678367196
2016-10-05,-1,-0.0044030037352331235,-0.0037910741598985408,-0.004938546396002674,0.002920410483726019,0.9953890091726286
2016-10-07,-1,-0.0050286424377422876,-0.004299880260655435,-0.005530623687212359,0.002920410483726019,0.9953648704598443
2016-10-11,-1,-0.005098971251901756,-0.004363922057766655,-0.004938546396002674,0.0030858969747867165,0.993009203531202
2016-10-13,-1,-0.00474351364597755,-0.004049146813713158,-0.0060031487981466874,0.0030858969747867165,0.992218307539975
2016-10-17,-1,-0.005259209411528333,-0.00449207726222702,-0.005530623687212359,0.0030858969747867165,0.9918558780913764
2016-10-19,-1,-0.0051847779097994,-0.0044415629121651945,-0.004977324607106492,0.0030858969747867165,0.9916952903061999
2016-10-21,-1,-0.005572476510163592,-0.004794359120239664,-0.004240779589621491,0.0030858969747867165,0.9911875209402174
2016-10-25,-1,-0.005101658726193354,-0.0043947285708832145,-0.004240779589621491,0.005402277788116052,0.9906090738039338
2016-10-27,-1,-0.005095531012418705,-0.004401787575806905,-0.004588696223654835,0.00786432290477473,0.9892124864758273
2016-10-31,-1,-0.003762179806922286,-0.0032639701045702116,-0.004588696223654835,0.006865594243237097,0.9903870455867954
2016-11-02,-1,-0.004281545617829884,-0.0037091883541986604,-0.006229933974220424,0.006865594243237097,0.9891295476372701
2016-11-04,-1,-0.004639586526552537,-0.004028848917011668,-0.004084276227258595,0.006865594243237097,0.9882986441891566
2016-11-08,-1,-0.0022982882493865486,-0.0019890492976185675,-0.004084276227258595,0.005842347994855692,0.9900807447081672
2016-11-10,-1,-0.0036437267819660474,-0.0031980294285590886,-0.002109736207222889,0.006865594243237097,0.9903578609786736
2016-11-14,-1,-0.0034076501483451226,-0.0029989755871623674,-0.0024093206960443957,0.009657372638044039,0.9901491296217313
2016-11-16,-1,-0.003622001287009782,-0.0031742614924981562,-0.004084276227258595,0.009657372638044039,0.9898330627327617
2016-11-18,-1,-0.0029047795168052276,-0.00259286899789519,-0.006039774964805708,0.010657073309404849,0.989447566001406
2016-11-22,-1,-0.00037981165188517445,-0.00028859038205287455,-0.007220973412657622,0.010657073309404849,0.9888820219911474
2016-11-25,-1,-0.0003335288171203854,-0.0002174097195027086,-0.006039774964805708,0.009657372638044039,0.9901892035697243
2016-11-29,1,1.2750954723538086e-05,0.0001792211626472155,-0.006039774964805708,0.0069826883674313795,0.990533879486406
2016-12-01,-1,-0.0012217868494612725,-0.0012032137283253235,-0.005470236693221695,0.008345912977724563,0.9912189079397578
2016-12-05,-1,-0.0006206336254865191,-0.0005389038582085423,-0.005470236693221695,0.008345912977724563,0.9914910010303145
2016-12-07,1,0.0006608370846789655,0.0009221311283807525,-0.007220973412657622,0.005783912117892981,0.9923557721660464
2016-12-09,1,0.0006133471742404425,0.0008564651765412169,-0.007562133030420092,0.0034700932883947448,0.9924269158617385
2016-12-13,1,0.0007890594616660303,0.0010479584713628406,-0.007562133030420092,0.004861880321058273,0.992433622095568
2016-12-15,1,0.0005607197353539762,0.00079542035192691,-0.005470236693221695,0.005783912117892981,0.9923723764269737
2016-12-19,1,0.000737770386503442,0.0010065092214565999,-0.005469596411137402,0.004861880321058273,0.9928246196853204
2016-12-21,1,0.0006809672461053569,0.0009474822171384208,-0.0048505910563019896,0.004861880321058273,0.993990342050161
2016-12-23,1,0.00019818341320414776,0.00035952097830546734,-0.0048505910563019896,0.0059674690476011665,0.9935680964119694
2016-12-28,1,0.00031965716536522465,0.0005181477520547927,-0.004834558688569851,0.0059674690476011665,0.9936113857554945
2016-12-30,1,0.00046527667547874383,0.000698165304616697,-0.0035272892972401126,0.005241689001707367,0.994223828778086
2017-01-04,1,0.0007257858038386281,0.0009990217082793337,-0.004834558688569851,0.005494721864685097,0.9933297061187943
2017-01-06,1,0.0005538030229201235,0.0008070386025079671,-0.004834558688569851,0.006469251299684446,0.9922778631318484
2017-01-10,1,0.00011604922848870334,0.0003050536087053178,-0.0035272892972401126,0.0070447060343316464,0.9925142789714879
2017-01-12,1,0.0008666970596617317,0.0011829099962923561,-0.004769601613549187,0.007066271774217783,0.9923409199839893
2017-01-17,1,0.001308810742270294,0.001677955907558129,-0.004769601613549187,0.006256290678204655,0.9931337404115224
2017-01-19,1,0.0012244852640182075,0.0015955545726160124,-0.004769601613549187,0.006256290678204655,0.9921826923486529
2017-01-23,1,0.0012920232081634472,0.0016272229548002911,-0.004798020509410745,0.006256290678204655,0.9896916486788279
2017-01-25,1,0.0014592423944346788,0.001795194526976167,-0.0054515802388922716,0.005823590587436574,0.9897455512417892
2017-01-27,1,0.001417190633545938,0.0017534015024934521,-0.009726579849858788,0.006256290678204655,0.9885152447053516
2017-01-31,1,0.0006916359543892867,0.0008640314948054847,-0.009726579849858788,0.00664627842373975,0.9881889248956772
2017-02-02,1,7.606961435947656e-05,0.00011415615103287719,-0.00532978537214849,0.00664627842373975,0.9886376080896478
2017-02-06,1,5.802519134979887e-05,0.0001033463829424078,-0.004803038011172571,0.006256290678204655,0.9900497828196343
2017-02-08,1,0.0005199822804238585,0.0006331674782613822,-0.004803038011172571,0.006252593747340248,0.990142774756748
2017-02-10,1,0.00042563595957685065,0.0005186884726642207,-0.0034756390450840407,0.0038715034279126074,0.9908830087445781
2017-02-14,1,0.0010077977771457412,0.0012177712878889276,-0.0034756390450840407,0.006252593747340248,0.990474006632551
2017-02-16,1,1.3588517069358785e-05,3.470631719578342e-05,-0.0034756390450840407,0.006252593747340248,0.9914393835177876
2017-02-21,1,0.00027282104543804934,0.00032850529947108567,-0.005135581446632501,0.003838233677045833,0.9939759182028491
2017-02-23,-1,-0.0001571306239329104,-0.00014729413996368636,-0.005135581446632501,0.006252593747340248,0.9935534194929153
2017-02-27,-1,-0.00027907831175755704,-0.0002686485353170868,-0.005135581446632501,0.0037225913045201187,0.9947637903863223
2017-03-01,-1,-0.00021821026228514107,-0.00019278789362440734,-0.005135581446632501,0.004292944061409482,0.9947000731043334
2017-03-03,-1,-0.00026059571149676387,-0.00023122273517831452,-0.005848188888330788,0.00031641327706737814,0.9948228953523576
2017-03-07,-1,-0.0005600485831612479,-0.0004885083979071277,-0.0062321119293390044,0.00031641327706737814,0.9948395414987705
2017-03-09,-1,-6.142453395238945e-05,-5.822750500073601e-05,-0.006339194940883711,-0.0009485934468452585,0.9946120278106774
2017-03-13,-1,-0.00040465883407871247,-0.00034552235376917825,-0.006339194940883711,-0.0009169005698223221,0.9947617651074799
2017-03-15,-1,-3.1640396639637295e-05,-1.7221200435000625e-05,-0.006339194940883711,-0.0009351531722134159,0.994936701982282
2017-03-17,-1,-0.0006330848058915893,-0.0005383521096526129,-0.006725765129567951,0.00017665423039631882,0.9949249289973048
2017-03-21,-1,-0.0007201121865002432,-0.0006197619232625648,-0.0062321119293390044,0.0030254342672923922,0.9948907279925937
2017-03-23,-1,-0.0008256918260257411,-0.0007048213494016627,-0.005682730191377159,0.0012153214221559717,0.9958132470473798
2017-03-27,-1,-0.000843830229529348,-0.0007460446946969722,-0.0035531170443262334,0.0030254342672923922,0.9957056075119676
2017-03-29,-1,-0.0006533567780838117,-0.0005609213425919984,-0.006192183397970934,0.0009486904756482237,0.995626612082641
2017-03-31,-1,-0.00110952146808595,-0.0009544754068951974,-0.006416144571091713,0.0017254767804890673,0.9951848152909616
2017-04-04,-1,-0.00024182924060245798,-0.00020919706090258893,-0.006416144571091713,0.0018875648888404097,0.9947151079568337
2017-04-06,-1,-0.0013251897212957586,-0.0011595500564818419,-0.00567187577651761,0.0031854423099542547,0.9941718679035335
2017-04-10,-1,-0.0013312571863603351,-0.0011738231085921115,-0.006416144571091713,0.0031854423099542547,0.9932715951049973
2017-04-12,-1,-0.0012787970386189678,-0.0011224007731806722,-0.006416144571091713,0.002839106865716753,0.9934556464911465
2017-04-17,-1,-0.0011938744747288146,-0.0010502520096645138,-0.00567187577651761,0.0020478670094980023,0.9939789409589573
2017-04-19,-1,-0.0007811525066261035,-0.000718939009087749,-0.005138312038712074,0.0017978221009063787,0.9945497897557747
2017-04-21,-1,-0.0009347494906848601,-0.0008469855247195831,-0.005138312038712074,0.0020478670094980023,0.9943224717430703
2017-04-25,-1,-0.000512153227098722,-0.00048753216585275736,-0.005138312038712074,0.0020478670094980023,0.994357092832941
2017-04-27,-1,-0.0013990153935591308,-0.001225719018887306,-0.00160040979390982,0.002713770766982962,0.9946412196487251
2017-05-01,-1,-0.0015468569916748847,-0.0013680464281108642,-0.00160040979390982,0.0040061127089396084,0.9943722621038306
2017-05-03,-1,-0.0008193773472727247,-0.0007873460735528224,-0.0014092658177323983,0.0047174604359231315,0.9942692836973428
2017-05-05,-1,-0.0004988801796695526,-0.0004926215121920818,-0.0015428351080823107,0.0032240652577266438,0.9953992507443431
2017-05-09,-1,-0.0007936164492210961,-0.0007499354770577963,-0.0014092658177323983,0.0032240652577266438,0.9960410248509888
2017-05-11,-1,-0.000642230565306097,-0.0006160759583115888,-0.0019143159207761472,0.0032240652577266438,0.9956571879450757
2017-05-15,-1,-0.000748593055984112,-0.0006961558809844949,-0.0019143159207761472,0.0043414521397217585,0.9948051620654861
2017-05-17,-1,-0.000717681961409417,-0.0006826231161172101,-0.0015321181278378662,0.006426699149990039,0.9943895007718423
2017-05-19,-1,-0.0007650104461859021,-0.0007124421713225737,-0.0015321181278378662,0.005044672561442216,0.9933007435678186
2017-05-23,-1,-0.0007895728696187864,-0.000729888104813343,-0.0031054689520330775,0.0032240652577266438,0.9930639740015481
2017-05-25,-1,-0.0007081558585081027,-0.0006583773146576752,-0.004465133634041288,0.0029675512833460993,0.9931659080539795
2017-05-30,-1,-0.0006293791794043484,-0.0005938644719635715,-0.004465133634041288,0.0029675512833460993,0.9934627852041406
2017-06-01,-1,-4.169278868055952e-05,-1.8672370538325202e-05,-0.007155837615951414,0.002709346458575455,0.9923027676903573
2017-06-05,-1,-0.000487754345897592,-0.00044309770843127365,-0.007155837615951414,0.0032441459162176707,0.9918276752534645
2017-06-07,-1,-0.00014990213065084246,-0.00013371249332576598,-0.008834357976596263,0.002998477821520633,0.9908456589287918
2017-06-09,-1,-0.00012285217844869398,-7.542305838623703e-05,-0.00736420608119759,0.002998477821520633,0.9909887589186419
2017-06-13,1,0.0005166129199022077,0.0006218320712659118,-0.00736420608119759,0.0016299013272000802,0.9915272368335682
2017-06-15,1,0.0005432104784919047,0.000674507793604986,-0.00736420608119759,0.0008713043987342243,0.9914425099209706
2017-06-19,1,0.00017392785623610284,0.00027410836199256685,-0.007245063385396317,0.0028536890701308286,0.9922643832287436
2017-06-21,-1,-0.00026572240157032303,-0.00022995037428490502,-0.004892804001673184,0.004569261799944268,0.9927054986570084
2017-06-23,-1,-0.0003627887189238731,-0.00034763422841989946,-0.004892804001673184,0.004569261799944268,0.9926020019214395
2017-06-27,-1,-0.0006551661061006513,-0.0006252922001604366,-0.004050514742521008,0.0063641512156241645,0.9927313818359916
2017-06-29,-1,-0.0008608615893352149,-0.0008025941212634394,-0.003640480746609716,0.006089328112827039,0.9943309757226769
2017-07-03,-1,-0.00042307548211470365,-0.00040060827139893723,-0.003719854430581182,0.005947865054271357,0.9942336812138844
2017-07-06,-1,-0.0008511296921289202,-0.0008226310429511591,-0.002911051982772712,0.006105641721788731,0.9943410878801273
2017-07-10,-1,-0.0007578324053058869,-0.0007527663987055423,-0.001087388882872455,0.006105641721788731,0.9944370751320276
2017-07-12,-1,-0.0008507399493502107,-0.0008024137815367113,-0.0013879130037375946,0.006105641721788731,0.9941140619380675
2017-07-14,-1,-0.0012338553495974732,-0.0011902035000756553,-0.00035678859912766385,0.006105641721788731,0.9936541405380601
2017-07-18,-1,-0.0013205177389006065,-0.0012616808506791042,-0.00035678859912766385,0.006105641721788731,0.9936425717964765
2017-07-20,-1,-0.0010859040709361417,-0.001034925300732861,-0.00035678859912766385,0.006105641721788731,0.9940118456590624
2017-07-24,-1,-0.0005863108983907673,-0.0005520364066286888,-0.0010590498261651487,0.006105641721788731,0.994109319669173
2017-07-26,0,-4.641283518397993e-05,6.769836096391673e-05,-0.0010590498261651487,0.005488192012333621,0.9946126771885934
2017-07-28,1,4.2568774945349417e-07,0.00010536857418035403,-0.0030432534781301276,0.0042114271277919465,0.9927859703074569
2017-08-01,1,0.0001441493961311821,0.00028935691786590833,-0.00670330772495409,0.003763708255604613,0.9925399002235271
2017-08-03,1,0.0007971112325264285,0.0010285560788284907,-0.007880957556744526,0.0036838344209223425,0.9927425590507112
2017-08-07,1,0.0011809304213084098,0.0014892142079510418,-0.007880957556744526,0.003708840415254209,0.9925001125306352
2017-08-09,1,0.0007107868588833835,0.0009396041047407825,-0.00670330772495409,0.0042114271277919465,0.992244382639222
2017-08-11,1,0.0010331645859463462,0.0012785903249085853,-0.00670330772495409,0.004821232199410717,0.9919379402506039
2017-08-15,1,0.0013548491245999146,0.0016310124351295535,-0.00670330772495409,0.003708840415254209,0.9921175889894208
2017-08-17,1,0.0013535918894892903,0.0016092931282388969,-0.00670330772495409,0.004691346376064713,0.9913807916836215
2017-08-21,1,0.0014306546537275677,0.0017217295879516491,-0.0071150919717248105,0.007985795164023068,0.9904075288068748
2017-08-23,1,0.001178601146393866,0.0013979723113703526,-0.009863872567775064,0.007985795164023068,0.9872117244548763
2017-08-25,-1,-0.00021135625335416659,-0.0001863446142066561,-0.008953469575045163,0.009300283277140501,0.9885165885313082
2017-08-29,-1,-0.00094460701553719,-0.0008647991525078233,-0.006529358761275667,0.009461017357823929,0.9888372776491675
2017-08-31,-1,-0.0011639450280266788,-0.0010545578463273988,-0.006529358761275667,0.009461017357823929,0.9888350939179805
2017-09-05,-1,-0.0008387429262099154,-0.000774713579339506,-0.008974562400835077,0.009461017357823929,0.9888029487052074
2017-09-07,-1,-0.00019337938405089995,-0.00017754130114661814,-0.008974562400835077,0.009461017357823929,0.9888412522517673
2017-09-11,1,0.0003330929164339511,0.00042225128125859596,-0.009485136152577199,0.0033664613741499856,0.9879452723613915
2017-09-13,1,2.7720678166606028e-05,7.433929163398064e-05,-0.009485136152577199,0.009461017357823929,0.9876413257159875
2017-09-15,1,0.0006850444351633961,0.0008367087376686594,-0.009485136152577199,0.0081102187425355,0.9878765671447879
2017-09-19,1,9.080523934879714e-05,0.0001386984164534815,-0.009264927651999107,0.006041136499605339,0.9889781882158101
2017-09-21,-1,-0.002108859667411014,-0.0018749408163483885,-0.006529358761275667,0.0081102187425355,0.9916083574179606
2017-09-25,-1,-0.0015154225936930563,-0.0013442557486391692,-0.005938863309821863,0.006041136499605339,0.9927529685682703
2017-09-27,-1,-0.0009654690168693947,-0.0008899370332961151,-0.005399538389683193,0.005161813808661285,0.9930606160466907
