JNU-Tangyin/eata/results/Batch4_SP500/Batch4_SP500-HPQ.csv
Date,Action,Predicted_Q25,Predicted_Q75,Actual_Q25,Actual_Q75,RL_Reward
2010-12-14,0,0.0,0.0,-0.0014803396557468498,0.012795736397795795,0.9927488195242147
2010-12-16,1,0.0031394801481553387,0.0038723644711435353,-0.00019009098472454612,0.012795736397795795,0.9937302374505395
2010-12-20,1,0.002644859236322559,0.0032529820949941035,5.643227032207183e-05,0.012795736397795795,0.9938107699623456
2010-12-22,1,0.002926736618062668,0.0036432071203025395,0.0012973257565250624,0.012795736397795795,0.9940187585073939
2010-12-27,0,0.0,0.0,5.643227032207183e-05,0.012795736397795795,0.9920302145934116
2010-12-29,0,0.0,0.0,-0.0018098679420384324,0.012795736397795795,0.9922617588520845
2010-12-31,0,0.0,0.0,-0.0010702981768985786,0.012795736397795795,0.9910292611881605
2011-01-04,0,0.0,0.0,-0.0010702981768985786,0.010624787477688337,0.9915159600707338
2011-01-06,0,0.0,0.0,-0.0010702981768985786,0.009282706290863215,0.9923500333199416
2011-01-10,0,0.0,0.0,-0.00010789983596139157,0.009697344787357957,0.9920945849458335
2011-01-12,0,0.0,0.0,-0.0010702981768985786,0.009697344787357957,0.9917274559296841
2011-01-14,0,0.0,0.0,-0.003301812374660467,0.009282706290863215,0.9919496770503369
2011-01-19,0,0.0,0.0,-0.004842025130875796,0.009697344787357957,0.9907171191824563
2011-01-21,0,0.0,0.0,-0.006664067874382092,0.008257747258449657,0.9912557531631273
2011-01-25,0,0.0,0.0,-0.006976546564796857,0.008257747258449657,0.9869225786951047
2011-01-27,-1,-0.17260374626909164,-0.17260374626909164,-0.0077077103905564635,0.009901313618821768,0.8558720163084698
2011-01-31,1,0.00021241452449461887,0.0002852877743435615,-0.0077077103905564635,0.012812770720667315,0.984751950708312
2011-02-02,0,0.0,0.0,-0.0077077103905564635,0.009901313618821768,0.9855403312747761
2011-02-04,0,0.0,0.0,-0.010194690657130167,0.008791377076934552,0.9847179696211557
2011-02-08,0,0.0,0.0,-0.010194690657130167,0.00826908324986253,0.9845584813815247
2011-02-10,0,0.0,0.0,-0.013580759866289292,0.006442879665282633,0.9848110298835887
2011-02-14,0,0.0,0.0,-0.013580759866289292,0.006442879665282633,0.9843067836263898
2011-02-16,0,0.0,0.0,-0.01393936947715831,0.006442879665282633,0.983146626281711
2011-02-18,1,0.003484801245258034,0.0038026881236057084,-0.01393936947715831,0.00826908324986253,0.9819985998712977
2011-02-23,-1,-0.0007362577972295917,-0.0006186659255574935,-0.013580759866289292,0.008430685570811447,0.9877865030574043
2011-02-25,0,0.0,0.0,-0.013511728211717788,0.008430685570811447,0.9879360109496803
2011-03-01,0,0.0,0.0,-0.013511728211717788,0.007744405031131979,0.9881873424338571
2011-03-03,0,0.0,0.0,-0.013511728211717788,0.006496747105598938,0.987992252254301
2011-03-07,0,0.0,0.0,-0.013293038913517002,0.006496747105598938,0.9886066789967392
2011-03-09,-1,-0.001798208779421873,-0.001553088326892096,-0.013293038913517002,0.006496747105598938,0.9886763462064554
2011-03-11,-1,-0.0015441669262895436,-0.0013621459169659929,-0.010243957702238583,0.005442789297391822,0.989171515101671
2011-03-15,-1,-0.0021348381167031047,-0.00186945628603113,-0.009190102952857267,0.008079390587283844,0.9893611876259111
2011-03-17,1,0.00014638678298561458,0.00033262043506454455,-0.009190102952857267,0.005442789297391822,0.9908432113443199
2011-03-21,0,0.0,0.0,-0.010104626862547081,0.0020682964023147716,0.9906953893451483
2011-03-23,0,0.0,0.0,-0.010104626862547081,0.004975718610683255,0.9897188382034561
2011-03-25,1,0.00015297471318370095,0.0003664692154209802,-0.009743294826043688,0.0029896470778317244,0.9909765379835537
2011-03-29,0,0.0,0.0,-0.008305325130072433,0.004975718610683255,0.9919328005170853
2011-03-31,0,0.0,0.0,-0.009743294826043688,0.004470247280402079,0.9917477286420664
2011-04-04,0,0.0,0.0,-0.007700164160858941,0.006087672841687057,0.9918677586818793
2011-04-06,0,0.0,0.0,-0.007700164160858941,0.006087672841687057,0.9921031609657337
2011-04-08,0,0.0,0.0,-0.004756680358872918,0.006087672841687057,0.99241270223758
2011-04-12,0,0.0,0.0,-0.00819317310085506,0.006087672841687057,0.9916084007013173
2011-04-14,0,0.0,0.0,-0.00819317310085506,0.006087672841687057,0.9918079221414837
2011-04-18,-1,-0.0013288801598912215,-0.001112955710007754,-0.011291000895303552,0.006087672841687057,0.9883627741714085
2011-04-20,-1,-0.0010498248519502098,-0.0008207405344936934,-0.011408579915796115,0.004247259924000771,0.9889043366019183
2011-04-25,-1,-0.002384233324747384,-0.0019307666476358694,-0.011408579915796115,0.004247259924000771,0.9896884848187069
2011-04-27,-1,-0.0010993821417434537,-0.0008566063728526708,-0.011408579915796115,0.0019510359320231913,0.9895843786397632
2011-04-29,-1,-0.002079609883159539,-0.001702287708366939,-0.01024409039472493,0.005418710772483131,0.9890794196692464
2011-05-03,-1,-0.00250190385438744,-0.0020632062424464715,-0.011408579915796115,0.006663695320781468,0.9882688858933779
2011-05-05,-1,-0.0019338715084808195,-0.0015609199476657382,-0.011408579915796115,0.004637427371704213,0.9885581897352365
2011-05-09,0,0.0,0.0,-0.011408579915796115,0.0019510359320231913,0.9875640243321946
2011-05-11,0,0.0,0.0,-0.010978763347259196,0.0015410660661150553,0.9883910006077898
2011-05-13,0,0.0,0.0,-0.010978763347259196,0.0015410660661150553,0.9880461418453972
2011-05-17,0,0.0,0.0,-0.010110646952692844,0.0024386080127806417,0.9915665769948822
2011-05-19,0,0.0,0.0,-0.006637602899147384,0.003238068504667412,0.9915500164552048
2011-05-23,0,0.0,0.0,-0.006637602899147384,0.005565921816115645,0.9915367908133527
2011-05-25,0,0.0,0.0,-0.006637602899147384,0.004564063878931053,0.9914064741609783
2011-05-27,0,0.0,0.0,-0.008929754724882267,0.0024386080127806417,0.9921222347109782
2011-06-01,0,0.0,0.0,-0.006637602899147384,0.0029041158589392145,0.9928695994080028
2011-06-03,-1,-0.0020468871892117316,-0.0018452569502254643,-0.005908492675651874,0.004573375567624421,0.9912605217806767
2011-06-07,-1,-0.001973772577500704,-0.0017972456064070763,-0.006292441476904504,0.004573375567624421,0.9908641990215661
2011-06-09,-1,-0.0015210549986095188,-0.0013940151364551846,-0.006292441476904504,0.007394577377350933,0.9908938781157245
2011-06-13,0,0.0,0.0,-0.005675258715193165,0.007394577377350933,0.9907438278562519
2011-06-15,0,0.0,0.0,-0.005675258715193165,0.007394577377350933,0.9908554749393848
2011-06-17,0,0.0,0.0,-0.005675258715193165,0.005341483690421285,0.9917619223326143
2011-06-21,-1,-0.00316668336628382,-0.0029688747898558186,-0.007739308667115991,0.005341483690421285,0.9905347952701887
2011-06-23,-1,-0.0038749415398703383,-0.0035470026764456665,-0.007739308667115991,0.01300687969641802,0.9884813202401367
2011-06-27,-1,-0.003499499755093713,-0.003267265080767614,-0.003346967825948767,0.01300687969641802,0.9877770933942034
2011-06-29,-1,-0.002194821316779935,-0.0021408918809313845,-0.008877169300531219,0.011213170050608796,0.9878938738827444
2011-07-01,0,-7.030667512963266e-05,0.0001504354304073005,-0.010822601519105338,0.007740988141781959,0.9887592799870397
2011-07-06,-1,-0.0005149829031171547,-0.00033283756641815565,-0.010822601519105338,0.007740988141781959,0.9886780536464276
2011-07-08,1,8.605357475746558e-06,0.0002084859855699,-0.01608711473442564,0.006176286314831041,0.9863366787094441
2011-07-12,-1,-0.00038437070288976146,-0.00026391926590296186,-0.01608711473442564,0.01034070688852741,0.9840572720581943
2011-07-14,-1,-0.0005074273049600127,-0.00041665785641228204,-0.019447706084441775,0.011213170050608796,0.9802333641714509
2011-07-18,-1,-0.0009024890417341759,-0.0008861452911341496,-0.019447706084441775,0.013941441145960458,0.9780924516159458
2011-07-20,-1,-0.0008490896357826451,-0.0008451200832603437,-0.025425188964563368,0.011213170050608796,0.9772855884859647
2011-07-22,1,7.28750411128549e-05,0.00031640133868936736,-0.040748447814934585,0.006724177882532498,0.9717683287635368
2011-07-26,1,0.0010156317779722642,0.0013909901147705593,-0.040748447814934585,0.004148324561051102,0.9708113187494517
2011-07-28,-1,-0.0003860376531293547,-0.0002396725952010387,-0.040748447814934585,0.010005076835412326,0.9708010723886399
2011-08-01,-1,-0.0017286837172134544,-0.001708705419624142,-0.040748447814934585,0.02435233466348309,0.9692960975247332
2011-08-03,-1,-0.002838887402940995,-0.002670782240764539,-0.040748447814934585,0.02435233466348309,0.9702413647362536
2011-08-05,-1,-0.00523579856940164,-0.00475530352013947,-0.04101169488309829,0.02435233466348309,0.9698752824594229
2011-08-09,-1,-0.006102222425477608,-0.00553521463606763,-0.03123059518402531,0.023012695817753746,0.9711773971339493
2011-08-11,-1,-0.005971494875246204,-0.005438807103310119,-0.03123059518402531,0.009558530553502545,0.9731554560081477
2011-08-15,-1,-0.004140328811086289,-0.003848802893826775,-0.03123059518402531,0.005373430317177335,0.9750314814670827
2011-08-17,-1,-0.005227690709647325,-0.004846698060845015,-0.017665177969366237,0.011306091540486106,0.9754513694052568
2011-08-19,-1,-0.006928800131635345,-0.006334789517708549,-0.011846110148717282,0.012086806904580489,0.980614238724884
2011-08-23,-1,-0.0055198443147336605,-0.005092929829302284,-0.015174008134591233,0.012086806904580489,0.9790614195692202
2011-08-25,-1,-0.004607628362778511,-0.0042500735180395505,-0.022376793550624042,0.010392462943533241,0.9778221220409773
2011-08-29,-1,-0.002178566463367826,-0.0021483327710965904,-0.022376793550624042,0.012086806904580489,0.9775297135578128
2011-08-31,-1,-0.0022067235462695394,-0.0021652826318253188,-0.022376793550624042,0.015489023230575157,0.9756068862958001
2011-09-02,-1,-0.003550902625943369,-0.0033636440659064555,-0.022376793550624042,0.015489023230575157,0.9756985017718975
2011-09-07,-1,-0.004410038024703104,-0.004102398719531162,-0.01966728929724523,0.019465247792407506,0.9742749076098769
2011-09-09,-1,-0.006569323648071073,-0.0059808535042394344,-0.017518632392067433,0.02820394483085102,0.9738852594874513
2011-09-13,-1,-0.005619165365231944,-0.005201790423758607,-0.017518632392067433,0.035046949307352415,0.972105161233257
2011-09-15,-1,-0.004606246514699847,-0.004298586082685321,-0.017518632392067433,0.035046949307352415,0.9734933064531446
2011-09-19,-1,-0.004351173544995184,-0.004107309540057794,-0.017518632392067433,0.035046949307352415,0.9721070018983209
2011-09-21,-1,-0.0021510245919966558,-0.0021434278522596984,-0.01798040022563641,0.0312681712018168,0.973684831427268
2011-09-23,-1,-0.004119193597392859,-0.003890079248115923,-0.00998971226790866,0.0312681712018168,0.9748853982947737
2011-09-27,-1,-0.0017759520055023075,-0.001690178591413951,-0.012590967260826298,0.0269439908927628,0.9750981026368468
2011-09-29,-1,-0.0008802562650028636,-0.0006521638065619305,-0.00998971226790866,0.0312681712018168,0.9734957879460617
2011-10-03,-1,-0.003442021197176683,-0.0033552785308081125,-0.009359830876761935,0.034724021319451126,0.971968480050639
2011-10-05,-1,-0.0013832502934857439,-0.0012260543883726568,-0.013355686433469469,0.028500323937943762,0.9739173703361549
2011-10-07,-1,-0.0007214097499666138,-0.0005638902345039086,-0.013355686433469469,0.028500323937943762,0.974672794755154
2011-10-11,1,0.00043786436103774716,0.0007118338122915597,-0.013355686433469469,0.028500323937943762,0.9752130056213764
2011-10-13,1,0.0003051807787683398,0.0005366738092055189,-0.027562925411809183,0.028500323937943762,0.9723991600673991
2011-10-17,-1,-0.0006560266482390955,-0.0005326236307301312,-0.013355686433469469,0.03028735293972376,0.9734109841422319
2011-10-19,1,0.00027751565318631687,0.0005820475051873812,-0.009950091136092683,0.03140074738449108,0.9741716442343951
2011-10-21,1,0.0008080230755640359,0.001173055446379802,-0.013961622694334045,0.03140074738449108,0.9736862890150939
2011-10-25,-1,-0.00026750712730072665,-5.4061489934631164e-05,-0.013961622694334045,0.03140074738449108,0.9740921171397815
2011-10-27,1,0.001822322377332058,0.0022842547903644305,-0.025347168493826296,0.026898497894011882,0.9753809639440788
2011-10-31,1,0.001695039674236853,0.002137543279134549,-0.017074601662719707,0.026898497894011882,0.9767101620330166
2011-11-02,1,0.00021849029320452175,0.0004307433434505585,-0.012015019465011545,0.03140074738449108,0.9765428920430697
2011-11-04,1,0.0013559335619114953,0.0016952079184742366,-0.01612984041519492,0.026898497894011882,0.9768489057809968
2011-11-08,1,0.002674221043040467,0.003236461961370324,-0.01612984041519492,0.018661007222480087,0.9783538879441087
2011-11-10,1,0.0017488570033748,0.0022093719813081414,-0.01612984041519492,0.018334590273601886,0.9799869405744955
2011-11-14,1,0.0023653051954184096,0.0029070404847409536,-0.019831328647954314,0.014433895614627396,0.9798011426780817
2011-11-16,1,0.0031708103262143186,0.0038053429288760652,-0.019831328647954314,0.010731771909054428,0.9804124582871303
2011-11-18,1,0.0035115415588587956,0.004226121644348943,-0.019831328647954314,0.008922626059528996,0.9804137905852375
2011-11-22,1,0.0027443608471391908,0.0034327325661331035,-0.019289326173671253,0.010731771909054428,0.9808937460551187
2011-11-25,1,0.001324363132792028,0.0017850490422190114,-0.01838859705225066,0.014433895614627396,0.9827260931527664
2011-11-29,1,0.0033907000546231298,0.00414139301191337,-0.01838859705225066,0.008922626059528996,0.9835199866091612
2011-12-01,0,0.0,0.0,-0.01838859705225066,0.00829054004494186,0.9852716977089346
2011-12-05,1,0.0032124879153781257,0.003806982836360789,-0.017692773365965895,0.00829054004494186,0.984851793238074
2011-12-07,1,0.005660021068720588,0.006492594593028008,-0.017692773365965895,0.006267556705261097,0.9834279463414215
2011-12-09,0,0.0,0.0,-0.016139748711145874,0.006462203279712189,0.9866210971930295
2011-12-13,0,0.0,0.0,-0.00972345297974415,0.010000684960798388,0.9879034399754246
2011-12-15,0,0.0,0.0,-0.00972345297974415,0.010000684960798388,0.9881870432830387
2011-12-19,0,0.0,0.0,-0.003762924878498715,0.0128548357896764,0.9888586338254993
2011-12-21,0,0.0,0.0,-0.002344828174017681,0.016548669272297572,0.9885424299737698
2011-12-23,0,0.0,0.0,-0.004224858811181148,0.012894143717537433,0.9887717071927091
2011-12-28,0,0.0,0.0,-0.003812682508411326,0.012894143717537433,0.9893023000518748
2011-12-30,-1,-0.00040674069102023555,-0.00023260584447993996,-0.003812682508411326,0.010000684960798388,0.9903004884951997
2012-01-04,1,0.002251939572424668,0.0024657114523199677,-0.004342212623081812,0.010000684960798388,0.9898662823341949
2012-01-06,0,0.0,0.0,-0.005937220787526178,0.013615517338264663,0.9889418783373307
2012-01-10,0,0.0,0.0,-0.005937220787526178,0.018100500922870997,0.9882942496014661
2012-01-12,0,0.0,0.0,-0.00944628568283364,0.018100500922870997,0.9876863631335756
2012-01-17,1,0.0004318606665244327,0.00044553444121898,-0.007519594427356951,0.018100500922870997,0.9879791403294329
2012-01-19,0,0.0,0.0,-0.007519594427356951,0.018100500922870997,0.987838891480105
2012-01-23,0,0.0,0.0,-0.009289505940349812,0.007824339987331428,0.9896719635213211
2012-01-25,0,0.0,0.0,-0.010911078013141692,0.007824339987331428,0.9864169515860093
2012-01-27,0,0.0,0.0,-0.012402736214781475,0.007824339987331428,0.9857259015023474
2012-01-31,0,0.0,0.0,-0.013998078999087704,0.007824339987331428,0.9841586179265648
2012-02-02,0,0.0,0.0,-0.013998078999087704,0.003730829172759364,0.9856998229608659
2012-02-06,0,0.0,0.0,-0.014223291242419186,0.001999665934388272,0.9849636121643739
2012-02-08,0,0.0,0.0,-0.014223291242419186,0.001999665934388272,0.9851997943529318
2012-02-10,0,0.0,0.0002672173341487444,-0.014769003754505938,0.001999665934388272,0.9854220229841074
2012-02-14,1,0.0010482550783738427,0.001148321747937005,-0.014769003754505938,0.0017247873342543154,0.9840082357216376
2012-02-16,1,0.0003225712790984168,0.0006235385133272878,-0.014769003754505938,0.0025419175604380778,0.9853871712398974
2012-02-21,1,0.0005409624072481896,0.0007224081914542076,-0.014882175102594729,0.0025419175604380778,0.985139940709441
2012-02-23,-1,-0.0021061162199644636,-0.001614512315513561,-0.015950090007160925,0.0025419175604380778,0.988154854031698
2012-02-27,-1,-0.004619266909865242,-0.003717195899410654,-0.01567514504253111,0.004731605453686404,0.9878171940234118
2012-02-29,-1,-0.004332339402228007,-0.003617504993931757,-0.01288017712290624,0.004731605453686404,0.9887443501315413
2012-03-02,-1,-0.0035331845603301416,-0.0029903236980318836,-0.01288017712290624,0.008646462032458772,0.988155634533022
2012-03-06,-1,-0.004240770949675632,-0.0036650971221638563,-0.012173982405163621,0.008646462032458772,0.9890403043425695
2012-03-08,-1,-0.003831682167241381,-0.003289489260588115,-0.012173982405163621,0.0027709614129872375,0.9899940674269575
2012-03-12,-1,-0.005113344321214118,-0.004347882532525419,-0.009846188864183158,0.004170865605313872,0.9901551642309948
2012-03-14,0,0.0,0.0,-0.008582402414874709,0.005717541721377867,0.9874839197736311
2012-03-16,0,0.0,0.0,-0.012173982405163621,0.005717541721377867,0.9862400631380962
2012-03-20,-1,-0.0007006489417347829,-0.0005526840971403755,-0.010761954103155193,0.009122093022941563,0.9860996495887301
2012-03-22,-1,-0.004369371485102794,-0.0038926690037327603,-0.008276617765906515,0.009122093022941563,0.9870318329891766
2012-03-26,-1,-0.003282984589019085,-0.0028417845432048565,-0.009066485193068774,0.006263321488257313,0.9885168103989209
2012-03-28,-1,-0.0042298271397193336,-0.003671518649868202,-0.008276617765906515,0.007377193767580962,0.9877067268457308
2012-03-30,0,0.0,0.0,-0.008276617765906515,0.006263321488257313,0.9884670029526234
2012-04-03,0,0.0,0.0,-0.0077804348519993904,0.007377193767580962,0.988484958620313
2012-04-05,0,0.0,0.0,-0.008639965599259955,0.007377193767580962,0.9872883958421032
2012-04-10,0,0.0,0.0,-0.009989429166361457,0.007377193767580962,0.9857018043826394
2012-04-12,0,0.0,0.0,-0.009989429166361457,0.00718224864666677,0.9891173080303345
2012-04-16,0,0.0,0.0,-0.009066485193068774,0.00718224864666677,0.9895386452239074
2012-04-18,0,0.0,0.0,-0.01560476601302222,0.002002823053293323,0.9887572728134794
2012-04-20,-1,-0.0020389158093070273,-0.0018760093911611342,-0.016490396960277084,0.002002823053293323,0.9884626500443359
2012-04-24,-1,-0.0009807186735390644,-0.0008990904964722918,-0.016490396960277084,0.002002823053293323,0.9879183342385055
2012-04-26,0,-0.0002217163143552061,0.00011504722070579117,-0.01814874676889712,0.0018158672986339545,0.9856583735289194
2012-04-30,1,0.0001913686595037019,0.00044706575705235783,-0.01814874676889712,0.009926260091170177,0.9835676063954903
2012-05-02,1,0.0013569442932824913,0.0017903153586129987,-0.01814874676889712,0.0029501110255982232,0.983746971894644
2012-05-04,-1,-0.0009565254504947636,-0.0008170229286449959,-0.01814874676889712,0.0029501110255982232,0.9828995462243847
2012-05-08,-1,-0.002602782747361428,-0.0024735768569432693,-0.015613911859815262,0.02028994161197421,0.9818835354487807
2012-05-10,-1,-0.004241456076141618,-0.0038303387444764145,-0.015613911859815262,0.02028994161197421,0.981511571947322
2012-05-14,-1,-0.003159284287511867,-0.002829395359639323,-0.018592125451631365,0.02028994161197421,0.9797001225984203
2012-05-16,-1,-0.004703465556914851,-0.004193883930268891,-0.010847607505426796,0.02028994161197421,0.9804675723226237
2012-05-18,-1,-0.005600177505720071,-0.005003492245053694,-0.010847607505426796,0.02028994161197421,0.9802551667005894
2012-05-22,-1,-0.005643372903439589,-0.00499880450930525,-0.011794928152853426,0.01787606557544144,0.9801646851527982
2012-05-24,-1,-0.00451864319674122,-0.004040545655942513,-0.011794928152853426,0.014363589518856575,0.9812835174695437
2012-05-29,0,0.0,0.0,-0.01654771572166993,0.006673948012299867,0.9812134480490541
2012-05-31,-1,-0.0019442676891971745,-0.001749831698758662,-0.01654771572166993,0.008644138960046996,0.9809994688942005
2012-06-04,0,0.0,0.0,-0.011794928152853426,0.011885834122642734,0.9822061244911247
2012-06-06,0,0.0,0.0,-0.011794928152853426,0.008291131525227794,0.9844539572461297
2012-06-08,0,0.0,0.0,-0.015367143954576695,0.005777755486867661,0.9835894903300629
2012-06-12,0,0.0,0.0,-0.01266840752613772,0.005777755486867661,0.983931402488097
2012-06-14,0,0.0,0.0,-0.017731054555654588,0.004523156317496697,0.9829096600335945
2012-06-18,0,0.0,0.0,-0.01666896288875267,0.004523156317496697,0.9837525284482985
2012-06-20,1,0.0022374589966058156,0.002299091547626861,-0.01666896288875267,0.004523156317496697,0.9831055050658078
2012-06-22,1,0.00203271864391384,0.0020595853857435405,-0.016810208294892638,0.004329284766712784,0.9830189854600221
2012-06-26,-1,-0.003044468037729513,-0.0029039375392886074,-0.01672828985980508,0.004329284766712784,0.9855656405883001
2012-06-28,-1,-0.002509067732775512,-0.0024549787147070718,-0.01672828985980508,0.010674477215762418,0.9837569292742586
2012-07-02,0,0.0,0.0,-0.0167552010142119,0.0048724698573257876,0.9843845595722404
2012-07-05,0,0.0,0.0,-0.017021844010496504,-2.40478178950127e-05,0.9832145551028915
2012-07-09,-1,-0.002987470394383197,-0.0029018365055328036,-0.0167552010142119,0.015398765624884042,0.9828760160932974
2012-07-11,-1,-0.001720495521514897,-0.00141125788581872,-0.0167552010142119,0.016531636381022924,0.9829895276004129
2012-07-13,-1,-0.0030785259711650975,-0.0029456436700809503,-0.012919261815221354,0.01690237456046151,0.9834948861097725
2012-07-17,-1,-0.0031004368047658965,-0.0030656130045390736,-0.014103268838709855,0.01690237456046151,0.9834871418560283
2012-07-19,-1,-0.003053875852414233,-0.0030476571911273983,-0.014103268838709855,0.014569922206513958,0.9843250094742119
2012-07-23,-1,-0.005031880084979145,-0.004736355405312546,-0.00758992217038542,0.017092657468100257,0.9839346618500387
2012-07-25,0,0.0,0.0,-0.006662666222668686,0.017092657468100257,0.9840768380481903
2012-07-27,0,0.0,0.0,-0.009286002044550951,0.014569922206513958,0.9821138462118989
2012-07-31,0,0.0,0.0,-0.014442022845380122,0.014569922206513958,0.9810890959891679
2012-08-02,0,0.0,0.0,-0.010396741118013322,0.014569922206513958,0.9823523705525283
2012-08-06,0,0.0,0.0,-0.010396741118013322,0.007868282091477776,0.9848449687868265
2012-08-08,0,0.0,0.0,-0.010396741118013322,0.007868282091477776,0.984998772472129
2012-08-10,-1,-0.002175527538410762,-0.0021033018955975294,-0.010561404229629982,0.00609873963971742,0.9854711840577122
2012-08-14,-1,-0.0029051991195862435,-0.002693334427439344,-0.009499950224160097,0.007868282091477776,0.9843473091337589
2012-08-16,-1,-0.001432898806501114,-0.0014000920782734913,-0.009499950224160097,0.008361619001559203,0.984284535641735
2012-08-20,-1,-0.00023166318726313497,-5.8689776925109e-05,-0.009499950224160097,0.00609873963971742,0.9856819060372504
2012-08-22,-1,-0.0010733796001645098,-0.0009809886362526967,-0.009499950224160097,0.00609873963971742,0.9864103862754666
2012-08-24,-1,-0.0024612225621075765,-0.0023463376522701784,-0.009595186415893492,0.00609873963971742,0.9888957168796074
2012-08-28,-1,-0.0035910790254201335,-0.003343983936865185,-0.009476807917532342,0.008361619001559203,0.9878361096358556
2012-08-30,0,0.0,0.0,-0.009595186415893492,0.00873426639515943,0.9881438313459986
2012-09-04,0,0.0,0.0,-0.009595186415893492,0.010068532260567102,0.9880967311447555
2012-09-06,-1,-0.0030815300824641838,-0.003033039574761592,-0.00971511122225262,0.003424708096765319,0.9848614340619546
2012-09-10,-1,-0.0024195262619353505,-0.0022322630126855284,-0.01512466107205369,0.003424708096765319,0.9840834338240418
2012-09-12,-1,-0.00135494580625269,-0.0010465346111730102,-0.01512466107205369,0.002197780892163638,0.9848670933916213
2012-09-14,-1,-0.000699820607082703,-0.0002938801155709398,-0.01512466107205369,0.0028853377850010255,0.9847458875280352
2012-09-18,1,0.00014887867612138747,0.0007145453870062988,-0.01512466107205369,0.005430159045087641,0.9843205243082821
2012-09-20,0,0.0,0.0,-0.01343065081682415,0.006936482247307826,0.9846735371705896
2012-09-24,0,0.0,0.0,-0.01343065081682415,0.007458246103525262,0.9843667391798703
2012-09-26,0,0.0,0.0,-0.014399123245606518,0.006936482247307826,0.9847046083826068
2012-09-28,0,0.0,0.0,-0.014399123245606518,0.00738123753577705,0.9846633513687308
2012-10-02,0,0.0,0.0,-0.015829136862212326,0.007756895503454713,0.9839646755364656
2012-10-04,-1,-0.004975089113086693,-0.0047109201953049774,-0.015829136862212326,0.010392302405199451,0.9873397652640763
2012-10-08,-1,-0.006496164868641449,-0.005936650102245303,-0.015829136862212326,0.010720362118646682,0.9847000949728704
2012-10-10,-1,-0.007481687597749638,-0.006802657749119465,-0.015829136862212326,0.010720362118646682,0.9836958161074134
2012-10-12,-1,-0.005751112629339074,-0.005328703533381857,-0.017060552558672233,0.010392302405199451,0.9840847576240511
2012-10-16,-1,-0.005271519963984412,-0.004940720113431123,-0.017060552558672233,0.010392302405199451,0.9847959228034883
2012-10-18,-1,-0.0034799532295192526,-0.0034461600127577265,-0.01725300114545166,0.010720362118646682,0.9830874289858389
2012-10-22,-1,-0.001521682934020588,-0.0011387349336913386,-0.01725300114545166,0.010720362118646682,0.9788945891790664
2012-10-24,-1,-0.003928637222122381,-0.003845660813748394,-0.017060552558672233,0.0185367342615307,0.9775410537674678
2012-10-26,-1,-0.0022974061395028417,-0.002138122257175426,-0.01725300114545166,0.020759799169975873,0.9755751644145133
2012-11-01,-1,-0.0022525504881007394,-0.0019512754924945266,-0.01725300114545166,0.020759799169975873,0.975803429461447
2012-11-05,-1,-0.0023552682566654335,-0.0021480252649466224,-0.015792526616388133,0.02504603016560086,0.9745439768602118
2012-11-07,-1,-0.003494892831481384,-0.003430004519745795,-0.014820208338257711,0.022104371857270058,0.976644321552208
2012-11-09,-1,-0.0038633736471618252,-0.0038460762060001,-0.010602181270923067,0.022104371857270058,0.9762242057167435
2012-11-13,-1,-0.004677357991350876,-0.004589508768517917,-0.0011415505045851804,0.022104371857270058,0.97555369525197
2012-11-15,-1,-0.005599362466917542,-0.005354841608091158,2.6461729994345547e-05,0.022104371857270058,0.9741846222018476
2012-11-19,-1,-0.006899208005236119,-0.006414567157227685,2.6461729994345547e-05,0.021705317858521048,0.9732807518545289
2012-11-21,-1,-0.008122382394224047,-0.007510070430741908,2.6461729994345547e-05,0.021705317858521048,0.9776955061351795
2012-11-26,-1,-0.00698598809173917,-0.006549991157440875,-0.006987237379847553,0.017664540095443194,0.9812763382115438
2012-11-28,-1,-0.0059567721473900125,-0.005679182241713606,-0.005808504562735231,0.01614679680268665,0.9838517277940132
2012-11-30,-1,-0.006244786993051853,-0.005873953059110013,-0.006987237379847553,0.017664540095443194,0.9821033702766134
2012-12-04,-1,-0.0019695367063396526,-0.0016768276676526847,-0.005808504562735231,0.017664540095443194,0.983073452421293
2012-12-06,-1,-0.00374767897931187,-0.003580923343912328,-0.005808504562735231,0.01614679680268665,0.9832958163854697
2012-12-10,0,0.0,0.0,-0.005808504562735231,0.017664540095443194,0.9834434998786851
2012-12-12,0,0.0,0.0,-0.006520537425069041,0.018560871942678803,0.9830324236921049
2012-12-14,0,0.0,0.0,-0.00810916476564818,0.02367189837728715,0.9804129298647708
2012-12-18,0,0.0,0.0,-0.006520537425069041,0.027819405170264537,0.9809987412812412
2012-12-20,0,0.0,0.0,-0.005917165898601777,0.027819405170264537,0.9812691566347681
2012-12-24,0,0.0,0.0,-0.00570188299801078,0.027819405170264537,0.9820080858177117
2012-12-27,-1,-0.00030822816579517513,-0.00017195726985630194,-0.0023344840704318578,0.027819405170264537,0.9824837214228104
2012-12-31,1,0.002141820509838786,0.002680695666707453,-0.00509337427614936,0.01765903318241833,0.984163117901941
2013-01-03,1,0.0029108605879564825,0.003531858238346203,-0.00509337427614936,0.009762284126791306,0.9862552627773222
2013-01-07,1,0.0032108794937300645,0.003917607635537321,-0.006200672730895688,0.01752068698841728,0.9843474093526042
2013-01-09,1,0.004311835283865539,0.005203840253944615,-0.009006532847982498,0.0070759956973423695,0.9848888063865426
2013-01-11,1,0.005820581912073823,0.0068927419391316015,-0.007836147656927413,0.0070759956973423695,0.9846202555166406
2013-01-15,1,0.006248240644089044,0.00753192525025284,-0.005400020016919028,0.0070759956973423695,0.986986348702451
2013-01-17,1,0.00827182782449537,0.009603074177571443,-0.0074256233399691155,0.005289050783674939,0.986557142285728
2013-01-22,1,0.007198290805055799,0.008317464771217998,-0.0119151761180321,0.005101248247072711,0.9866496143837157
2013-01-24,1,0.006314950535979261,0.007124642446838197,-0.00675969617062059,0.00904111769030118,0.9833391227690488
2013-01-28,1,0.005856840400634132,0.006661223830000455,-0.007890434630981083,0.01802010907280702,0.9820077752422341
2013-01-30,1,0.004512725227175691,0.005159069606147642,-0.005640091398053093,0.02002442200147095,0.9835462218203221
2013-02-01,1,0.005490440970236446,0.006336180553206741,-0.007311381871386665,0.02002442200147095,0.9830032886335657
2013-02-05,1,0.00592841935312376,0.006849608829009575,-0.005640091398053093,0.02101055558727987,0.983351121810181
2013-02-07,1,0.005714061442245871,0.0067128032748173545,-0.004182462782715407,0.02101055558727987,0.9839981895852354
2013-02-11,1,0.007062207147469692,0.008218105815863987,-0.004182462782715407,0.019043909849406043,0.9844771734728127
2013-02-13,1,0.007674031217891541,0.008954684304788576,-0.00375933810982061,0.02101055558727987,0.9838727557002451
2013-02-15,1,0.006220466535726979,0.007226040981091664,-0.001692484904485482,0.024836925871782514,0.983972700382868
2013-02-20,1,0.005643735574962724,0.006458673236127251,-0.001692484904485482,0.024836925871782514,0.983649494601541
2013-02-22,1,0.009981907100400738,0.011368047301571222,-0.00375933810982061,0.021895389415587798,0.9866608313052646
2013-02-26,1,0.012065606223148716,0.013688494377330924,-0.001692484904485482,0.020866688892820024,0.9877027706477485
2013-02-28,1,0.01245306428704709,0.01412569923498418,-0.002838110457673448,0.020866688892820024,0.9876836587363365
2013-03-04,0,0.0,0.0,-0.00375933810982061,0.020866688892820024,0.9831283506199913
2013-03-06,0,0.0,0.0,-0.0049220648238632765,0.01764546081536996,0.9841502665602894
2013-03-08,0,0.0,0.0,-0.008315544818113908,0.01764546081536996,0.9838790322463254
2013-03-12,0,0.0,0.0,-0.008315544818113908,0.014367976670583434,0.9839418677320787
2013-03-14,0,0.0,0.0,-0.010147626600371731,0.012504406264481165,0.9823410495939726
2013-03-18,1,0.010228549508519015,0.011300498156756753,-0.011594272188395455,0.012504406264481165,0.9811263689885755
2013-03-20,1,0.00968158669333841,0.010653053977982267,-0.01665657191396571,0.01157562588071425,0.979347810178099
2013-03-22,0,0.0,0.0,-0.01665657191396571,0.010425219531567434,0.9828453629695749
2013-03-26,0,0.0,0.0,-0.01665657191396571,0.00980808457580217,0.9833646078636917
2013-03-28,0,0.0,0.0,-0.01665657191396571,0.00980808457580217,0.9824741156415528
2013-04-02,0,0.0,0.0,-0.01286689707569958,0.01097464727094269,0.9845403618111664
2013-04-04,0,0.0,0.0,-0.01286689707569958,0.00980808457580217,0.984993616481395
2013-04-08,0,0.0,0.0,-0.01225212883723664,0.00980808457580217,0.9853494354864505
2013-04-10,1,0.0,0.0034903655706240285,-0.01225212883723664,0.00980808457580217,0.9859120027424958
2013-04-12,0,0.0,0.0,-0.010928686804612384,0.011899826589543869,0.9866323473892595
2013-04-16,0,0.0,0.0,-0.009649533420295172,0.00980808457580217,0.9871518364325499
2013-04-18,0,0.0,0.0,-0.007292398199431948,0.011917928777847435,0.9869174056580274
2013-04-22,0,0.0,0.0,-0.005870824301433344,0.011501120025339357,0.9885731858413068
2013-04-24,0,0.0,0.0,-0.0048691968045623335,0.01085075179804136,0.9888784923039378
2013-04-26,0,0.0,0.0,-0.0048691968045623335,0.01085075179804136,0.9842965428679363
2013-04-30,0,0.0,0.0,-0.0048691968045623335,0.017291381343221765,0.9837788963986512
2013-05-02,0,0.0,0.0,-0.0048691968045623335,0.017291381343221765,0.9829570955163042
2013-05-06,-1,-0.0015935923161986402,-0.0009688267670817819,-0.007292398199431948,0.01828028677283836,0.9821043808940395
2013-05-08,-1,-0.0006300282814340125,-0.00015095306792780108,-0.009426803160801545,0.017291381343221765,0.9828237299277597
2013-05-10,1,0.0001258492942368592,0.0005006858476410611,-0.011658233277940794,0.01828028677283836,0.9821461679224668
2013-05-14,-1,-0.0006307794739412453,-0.00013166222545671108,-0.011658233277940794,0.018862432660363897,0.9811941970535032
2013-05-16,-1,-0.0014650382544047409,-0.0008488265653933049,-0.01046748804494929,0.018544832322379023,0.982976764484294
2013-05-20,-1,-0.0028592149951936104,-0.002014728814255268,-0.01046748804494929,0.018544832322379023,0.981656656627663
2013-05-22,-1,-0.003166589965136036,-0.002276659594714603,-0.011658233277940794,0.018544832322379023,0.9807316455197013
2013-05-24,-1,-0.0008108268501143222,-0.00022195870800333106,-0.014039852762163033,0.017275966348904298,0.9846073187932171
2013-05-29,1,0.0016009030008401622,0.0018377815188652927,-0.014039852762163033,0.012590770697517017,0.985106450212847
2013-05-31,0,0.0,0.0,-0.011658233277940794,0.017213798077617297,0.9852265521808468
2013-06-04,0,0.0,0.0,-0.010880734629157184,0.012590770697517017,0.9862978345134383
2013-06-06,0,0.0,0.0,-0.008268048474639094,0.01615833723862716,0.9861842973028483
2013-06-10,0,0.0,0.0,-0.008268048474639094,0.0129105706908833,0.9865756026382994
2013-06-12,1,0.0027288104795137116,0.0027331431986962976,-0.0022002005028023412,0.01615833723862716,0.9874245686852113
2013-06-14,1,0.002192431097198325,0.002238642755643806,-0.0020954727852880947,0.01615833723862716,0.9871871904046657
2013-06-18,0,0.0,0.0,-0.005770351752216413,0.0129105706908833,0.9873821643558944
2013-06-20,0,0.0,0.0,-0.005770351752216413,0.0129105706908833,0.9865228903615507
2013-06-24,0,0.0,0.0,0.0010984158354366467,0.015009576228505867,0.9879619705682922
2013-06-26,0,0.0,0.0,0.0010984158354366467,0.014730355385197107,0.988200507067237
2013-06-28,0,0.0,0.0,-0.005770351752216413,0.012618555305517892,0.9887391090549023
2013-07-02,0,0.0,0.0,-0.005770351752216413,0.012618555305517892,0.9887727316544382
2013-07-05,0,0.0,0.0,-0.005770351752216413,0.014730355385197107,0.9873818621142987
2013-07-09,-1,-0.0016049031906199861,-0.000958582995012231,-0.005770351752216413,0.014730355385197107,0.9875529401062086
2013-07-11,-1,-0.0011406441171190823,-0.0005018538494441531,-0.005770351752216413,0.008831869366372865,0.9886223103295029
2013-07-15,-1,-0.0018078006079806051,-0.001065837918151638,-0.00423252972878884,0.008831869366372865,0.9890697074792677
2013-07-17,1,0.00018397372980124638,0.0004885793514597102,-0.0040081957216307655,0.010770910020394415,0.9884002517565493
2013-07-19,-1,-0.0009455656855459228,-0.0005725314219587072,-0.0040081957216307655,0.014730355385197107,0.987370680262619
2013-07-23,1,0.00016477403069130206,0.00037727635828079735,-0.005678631695340286,0.010783704562451063,0.9875101327121336
2013-07-25,1,8.043051852606382e-05,0.000312258931941977,-0.013684756730510745,0.007421934307718988,0.9827193499969532
2013-07-29,1,0.0009239482417081151,0.0010663714834592054,-0.008803149293575754,0.008439400476708358,0.9830029791847887
2013-07-31,1,0.0007496374575519998,0.0009178429930456144,-0.01388020513776325,0.01161944794735769,0.9814587632362106
2013-08-02,1,0.0029081711554469576,0.0030382171994888744,-0.01388020513776325,0.00708328121790653,0.9823409785753622
2013-08-06,1,0.0021712687213909635,0.0022625765044600927,-0.009137939461479408,0.00708328121790653,0.9834663297536789
2013-08-08,1,0.003361997923106542,0.0036876609296994023,-0.009137939461479408,0.003032364698568578,0.9825074250485925
2013-08-12,1,0.0030496095902762905,0.003337445292069539,-0.009137939461479408,0.003032364698568578,0.9825631959116917
2013-08-14,1,0.0035464591501478916,0.0039042390004410967,-0.012909757536392927,0.0003357259506148678,0.982504645956718
2013-08-16,1,0.0034539574412928457,0.00384906403845154,-0.012909757536392927,0.0003357259506148678,0.9846591844695353
2013-08-20,1,0.002666209219284595,0.0029707921386880713,-0.009137939461479408,0.0022594743583241655,0.9860253195994778
2013-08-22,-1,-0.000993050573065707,-0.0007395159503871463,-0.007049879121011668,0.0022594743583241655,0.991983165142225
2013-08-26,-1,-0.0008106737765230243,-0.0005912628262774362,-0.007049879121011668,0.0014788833475405598,0.9924634181685472
2013-08-28,-1,-0.0007429453782626757,-0.000492427097650609,-0.00518853642462813,0.0014788833475405598,0.993862093831562
2013-08-30,-1,-0.0009843095195594806,-0.0007331868886748756,-0.006261418536469767,0.0014788833475405598,0.9938037987386986
2013-09-04,-1,-0.0015058453725167043,-0.0011653005368882528,-0.006261418536469767,0.004419873119932334,0.9931568857465469
2013-09-06,-1,-0.0011414759168615735,-0.0008508128100377597,-0.006703194114012356,0.004419873119932334,0.9921920268980108
2013-09-10,-1,-0.0026610606151393915,-0.002108211306313234,-0.009930047410293198,0.004419873119932334,0.9916060570560787
2013-09-12,-1,-0.004491541176265632,-0.0036754558946559116,-0.009547369147683974,0.0052566579583896685,0.9875359941099696
2013-09-16,-1,-0.005014553559729636,-0.004141806931422735,-0.008526981435446102,0.0063825491896551505,0.9867643755560308
2013-09-18,-1,-0.0048572438115933635,-0.004013687615005775,-0.008526981435446102,0.009461080193799296,0.986090940694919
2013-09-20,-1,-0.005323725868455118,-0.004491461476172317,-0.006703194114012356,0.009461080193799296,0.9859359757052747
2013-09-24,-1,-0.00554976778050633,-0.004674160442933031,-0.006703194114012356,0.015497131580470797,0.9847456552942252
2013-09-26,-1,-0.00522154827799889,-0.004402695635491878,-0.008526981435446102,0.015497131580470797,0.9846426721068982
2013-09-30,-1,-0.005354207244280543,-0.0045635676965115925,-0.006525075514873356,0.015497131580470797,0.9842596797966638
2013-10-02,-1,-0.00394917549758254,-0.0033673024401409705,-0.006525075514873356,0.015388634657500526,0.9848366123015087
2013-10-04,-1,-0.004232769767586474,-0.0036160183143756144,-0.005061032296979677,0.016633398087182255,0.9828276204876611
2013-10-08,-1,-0.005469140026309693,-0.004689102391019337,-0.005049437877182808,0.016633398087182255,0.9827121770476914
2013-10-10,-1,-0.0023578412979331645,-0.0019205155171504484,-0.0018295691577852363,0.009043795187588589,0.9880531126142988
2013-10-14,-1,-0.0013183422079286887,-0.0010062881047485069,-0.0018295691577852363,0.011073734022502836,0.9884991621019517
2013-10-16,-1,-0.0004415771456622686,-0.0003099582558760034,-0.001862073000991101,0.009872921957848037,0.9893164233382418
2013-10-18,1,0.00151898594862878,0.0016490677278651266,-0.005146949406800401,0.009872921957848037,0.9874591201612092
2013-10-22,1,0.0017466971353542289,0.001836768644649585,-0.005798640927707362,0.007701462615886081,0.9879105189663205
2013-10-24,1,0.0017188926921598068,0.0018384844897271567,-0.005146949406800401,0.007701462615886081,0.9884857417671831
2013-10-28,1,0.0012476163582430025,0.0012660993356529324,-0.0027340196213611954,0.009324625487648704,0.9884713164870638
2013-10-30,1,0.0017483055757284286,0.001839722234782828,-0.005146949406800401,0.009324625487648704,0.9845428567867401
2013-11-01,1,0.0036311022097929237,0.004016614864765662,-0.005146949406800401,0.006485533992631074,0.9874609385569196
2013-11-05,1,0.002709575818658735,0.002949443259541872,-0.0013228898252088395,0.009324625487648704,0.9875523619719041
2013-11-07,1,0.004168422151421544,0.004680259960266906,-0.0027340196213611954,0.009872921957848037,0.9854292815023232
2013-11-11,1,0.0043717002210036,0.004850479333195329,-0.007862346594288855,0.007238712677008435,0.9845570487674579
2013-11-13,1,0.0032964473846218284,0.0035226541014395955,-0.008518440457940125,0.0058354270516567195,0.9843876703369954
2013-11-15,1,0.0017927885060548172,0.0018286411658380466,-0.007862346594288855,0.006440400231921777,0.9872172917982529
2013-11-19,1,0.003638120732475137,0.004035582905568812,-0.003427239924653031,0.007238712677008435,0.986942260788321
2013-11-21,1,0.003745699277629054,0.004164854179684958,-0.008008804762817246,0.011020183429105572,0.9858719177852772
2013-11-25,1,0.004392752657776022,0.004944548724680152,-0.008008804762817246,0.0111453172732944,0.9859367938647522
2013-11-27,1,0.005371430003050667,0.00604016543235757,-0.005105699015307734,0.007280423958404711,0.9901402012490715
2013-12-02,1,0.005939208336477701,0.0067461255551241085,-0.005119231800910705,0.007280423958404711,0.9896860603545747
2013-12-04,1,0.006737582344241161,0.007641597143961065,-0.008008804762817246,0.007132218454292406,0.9883458344490165
2013-12-06,1,0.005946733798376624,0.006733678348928952,-0.005119231800910705,0.005592784642156507,0.9901132490424583
2013-12-10,1,0.003884652754057762,0.004308823876670763,-0.004243287975745398,0.005969287770251471,0.9909840928417951
2013-12-12,1,0.0035724007773677733,0.004002009291239814,-0.003975909079068301,0.007132218454292406,0.9916314763939543
2013-12-16,1,0.0033906983737701985,0.0038117893903416096,-0.003975909079068301,0.010807544267953655,0.9905315592071947
2013-12-18,1,0.004417976793348441,0.004949711834130349,-0.003975909079068301,0.010807544267953655,0.9901395904367016
2013-12-20,1,0.0045064227104438595,0.005044596117950554,-0.003376811734694869,0.008428268142936509,0.9911058785211202
2013-12-24,1,0.005904094431249996,0.0067274047104558515,-0.004243287975745398,0.006401304333132839,0.9881207728663051
2013-12-27,1,0.004961385737235829,0.005629038217552573,-0.003980420007602625,0.009585801597958129,0.9885315818398818
2013-12-31,1,0.004896256912125699,0.005588116799541269,-0.0024770592245881486,0.009585801597958129,0.9890999420246998
2014-01-03,1,0.004669690720475846,0.0053633152116637755,-0.005052964499502845,0.007973926957513632,0.988361519455086
2014-01-07,1,0.005500184178326299,0.006250149372681296,-0.009234117781346998,0.008674893522790064,0.9879250510018416
2014-01-09,1,0.003973529343404713,0.00449336452525363,-0.0036417373010702836,0.014280144633018512,0.988296008814305
2014-01-13,1,0.0040691803277858995,0.004550985211482544,-0.008646247988553502,0.014773704454771101,0.9874820239846311
2014-01-15,1,0.0034947073800138755,0.003752559026896769,-0.008646247988553502,0.013948579314942844,0.9881165416961377
2014-01-17,1,0.004772573305385631,0.005172790494252242,-0.009531865560159752,0.01124081050987881,0.9881760734952183
2014-01-22,1,0.004820591364946482,0.00525333413510387,-0.009531865560159752,0.013948579314942844,0.9871718356182863
2014-01-24,1,0.0027548799231593103,0.0028689569852846574,-0.008646247988553502,0.013948579314942844,0.9887704112554577
2014-01-28,1,0.0031147652254722357,0.00325748066655005,-0.008646247988553502,0.01124081050987881,0.9890384490701697
2014-01-30,1,0.003316693363685298,0.003490597443016118,-0.008646247988553502,0.01124081050987881,0.988927894777402
2014-02-03,1,0.0013577468007928092,0.001458705810496414,-0.005017570239690407,0.013322620649225432,0.9903131125615847
2014-02-05,1,0.0005262632896093299,0.0007566792070464227,-0.005017570239690407,0.013322620649225432,0.9908203429707865
2014-02-07,1,0.0015393522914713277,0.0016785743775415188,-0.005259096345758776,0.0068541915266315135,0.9914389213889567
2014-02-11,1,0.0018061664023560217,0.0019202436081966622,-0.005259096345758776,0.005349885171556555,0.9921110877217977
2014-02-13,1,0.0012107674591674976,0.0014332766244007852,-0.007156769379633405,0.005141128934876858,0.9914698764230913
2014-02-18,1,0.0007008839484983872,0.001013506231530347,-0.005259096345758776,0.006227922816592424,0.9902362863716385
2014-02-20,1,0.001150660882541767,0.0014373487835859264,-0.005259096345758776,0.006227922816592424,0.9897102452175327
2014-02-24,0,-0.00015974924973704728,0.0003170669323557776,-0.005259096345758776,0.009510830559828116,0.9894843491064375
2014-02-26,0,-0.00013470992429645665,0.0003123427221994801,-0.006094506326047784,0.013364549819183606,0.987816088493422
2014-02-28,-1,-0.0006118134266177538,-7.970387439352783e-05,-0.0073411693831503325,0.013364549819183606,0.9874734942755542
2014-03-04,-1,-0.0012228933197225423,-0.0005591220263220105,-0.0073411693831503325,0.014310400784627034,0.986477728468873
2014-03-06,0,-0.00018875019542464186,0.0001983931170869359,-0.010186435963630815,0.014310400784627034,0.9856118721265161
2014-03-10,1,3.148364106890359e-05,0.0003536922798141231,-0.010186435963630815,0.014310400784627034,0.9861055253730425
2014-03-12,-1,-0.000597840077563812,-0.0002474748133110614,-0.008237857141593802,0.014310400784627034,0.9857600042989269
2014-03-14,-1,-0.0011207850621560468,-0.0007183037747708855,-0.008237857141593802,0.014310400784627034,0.9864376864794542
2014-03-18,1,0.001502785095536085,0.0015817360938813576,-0.010179448594123895,0.012043456974988749,0.9876500537376258
2014-03-20,1,0.0014316380224690816,0.001526682054800953,-0.010730345461250056,0.010349465782512935,0.98856937063463
2014-03-24,1,0.0013706957740248534,0.0014856623900952608,-0.010730345461250056,0.00873723915136254,0.9894104352398254
2014-03-26,1,0.002950775484114309,0.0030333870568693064,-0.010730345461250056,0.0082237378466441,0.9905345097031892
2014-03-28,1,0.0027451275822139316,0.0029964246006943317,-0.010730345461250056,0.00873723915136254,0.9898568422490568
2014-04-01,1,0.0038802834025642506,0.004238650463661148,-0.010730345461250056,0.0082237378466441,0.989944908031421
2014-04-03,1,0.0035221940514053992,0.0038435380736903,-0.010730345461250056,0.004363388492508502,0.9903027505265509
2014-04-07,1,0.0036421396274720604,0.004029014472893702,-0.010849227656734683,0.004363388492508502,0.9901548979262924
2014-04-09,1,0.0035658068953189795,0.0039542274353043345,-0.010849227656734683,0.0037938765781489036,0.990548956458016
2014-04-11,1,0.0026950223302443445,0.002914470307122212,-0.006838022780443639,0.006482950071199043,0.9909880180591294
2014-04-15,1,0.002393661961279777,0.002544903630344414,-0.006320603744080782,0.006482950071199043,0.9912826426993672
2014-04-17,1,0.0017750401308382331,0.0018448159174141163,-0.006320603744080782,0.006482950071199043,0.991302991936258
2014-04-22,1,0.0017092673648154138,0.0017871827383576509,-0.009326879941408087,0.00964758230059102,0.9903809485019314
2014-04-24,1,0.0018009894301774106,0.0019182702111117866,-0.00986821203371874,0.007939046557512226,0.9891332393652049
2014-04-28,1,0.0018514220525291405,0.0019423087413678814,-0.00986821203371874,0.007939046557512226,0.9868228191879976
2014-04-30,1,0.0025965590798984694,0.0028177823757647713,-0.00986821203371874,0.007838577557283732,0.9873315837190383
2014-05-02,1,0.0015454144880560363,0.0015855637890860145,-0.009326879941408087,0.007838577557283732,0.9878897350835562
2014-05-06,1,0.00035674185567074936,0.0005167521478668365,-0.008731221877818484,0.00800705956807141,0.9882057978935908
2014-05-08,0,-0.000116891851937284,0.00013770296286614973,-0.008731221877818484,0.00800705956807141,0.9884347126869371
2014-05-12,1,0.0006536414410331308,0.0007967122966107694,-0.008731221877818484,0.007609022231438942,0.9888651297297497
2014-05-14,1,0.0011474609182035736,0.0012280005545734164,-0.008743178405792383,0.005046159589525569,0.9891992929670962
2014-05-16,1,0.0004950514600154192,0.0006538973228140447,-0.007680235957269944,0.007609022231438942,0.9873444292266274
2014-05-20,1,0.0009659797099059257,0.0010482281634978724,-0.006145430836329704,0.005046159589525569,0.9882401235294546
2014-05-22,-1,-0.0003210882534601152,-8.603796204840369e-05,-0.005953333925559037,0.005046159589525569,0.9893452138901802
2014-05-27,1,2.6255554804650773e-05,0.00024466661156922803,-0.005953333925559037,0.005046159589525569,0.9919606661271277
2014-05-29,1,0.0008856612122964295,0.0009820413811340149,-0.006818472310954622,0.003496313294289125,0.9914692191017448
2014-06-02,1,0.0002368455147131822,0.0004269137180049797,-0.006935718688650382,0.003496313294289125,0.9916647716356242
2014-06-04,1,6.478077997131623e-05,0.00031704033265608604,-0.0074312221495044,0.003496313294289125,0.9910309389753783
2014-06-06,1,0.00034673782400944126,0.0005338833442080914,-0.0074312221495044,0.003709077546512768,0.9907468301804482
2014-06-10,1,0.00042589479305713636,0.0005515336561057022,-0.007849703551748173,0.004277349055538782,0.9903320539645776
2014-06-12,1,0.0008381478606294859,0.0008765442652169887,-0.0074312221495044,0.004844106343316878,0.9905341576996624
2014-06-16,1,0.001869185745503686,0.0019573168728711995,-0.00697217779488816,0.004682918095898896,0.9930614165849316
2014-06-18,1,0.0005200468487132816,0.0006675546790787228,-0.007849703551748173,0.005460002355325859,0.9921616018355995
2014-06-20,1,0.00018136896674059378,0.0003379569572331609,-0.008442465625315344,0.006649379696510945,0.9919695786466465
2014-06-24,0,-0.00014184809982145576,4.880535376392079e-05,-0.007169765152743884,0.0068393424970836295,0.9920819931338379
2014-06-26,-1,-0.0010600786234498884,-0.0006826116682392797,-0.005322954660206796,0.007216894270554559,0.9922755427603345
2014-06-30,-1,-0.0017521124787347807,-0.001285453118002457,-0.004076784764584043,0.009922074878097382,0.9915878891759581
2014-07-02,-1,-0.0007520405894978877,-0.0004672333840338418,-0.004076784764584043,0.006845293966760747,0.9921147558690383
2014-07-07,-1,-0.0006487714883143996,-0.0003903486909436916,-0.005710015909172379,0.006845293966760747,0.9917251276169288
2014-07-09,-1,-0.0006417800006486557,-0.000410025181952474,-0.005467059182009411,0.006845293966760747,0.9921247570017278
2014-07-11,-1,-0.0005917436871883706,-0.0003403826232540734,-0.0065487579820590735,0.009675788786985558,0.9918674021712414
2014-07-15,1,7.131924177996538e-05,0.00023274373839679314,-0.0065487579820590735,0.009675788786985558,0.9920387851770232
2014-07-17,1,3.390671348235642e-05,0.00020761901122142535,-0.005196937845699514,0.008549009296701566,0.9929120576110059
2014-07-21,0,-4.7872525178947875e-05,0.0001433539406950552,-0.005196937845699514,0.007827918350790372,0.9927613951354111
2014-07-23,1,0.00026904910524739586,0.0004251121176419873,-0.0065487579820590735,0.0057687309293778825,0.9932455725060272
2014-07-25,1,0.0007384434443729734,0.0008325710727335597,-0.0065487579820590735,0.0057687309293778825,0.9910100363096124
2014-07-29,1,0.0010893830169913243,0.0011509853829788704,-0.0065487579820590735,0.007827918350790372,0.9903932872350167
2014-07-31,1,0.00045811401196160464,0.0006040673047590234,-0.004910823802258518,0.008265058146829976,0.9906693430875276
2014-08-04,0,-0.00019505780257113065,4.984247728414171e-05,-0.00435693046016447,0.008265058146829976,0.9913467495639635
2014-08-06,-1,-0.00101664052269363,-0.0006309230443485555,-0.00435693046016447,0.008265058146829976,0.9910268151963183
2014-08-08,0,-4.067274581176679e-05,0.00014666184485927344,-0.00435693046016447,0.007827918350790372,0.991497286680506
2014-08-12,1,0.00036798006015486737,0.00045856292104973846,-0.005336910343216197,0.007827918350790372,0.9906942916024086
2014-08-14,1,0.0008802462819800991,0.0009068720801661072,-0.007464285253168193,0.006817331923696429,0.9905266877433649
2014-08-18,1,0.0010077074241721738,0.001052716479324855,-0.007464285253168193,0.004602059053798119,0.9910990879952758
2014-08-20,1,0.000552969086376818,0.0005767809614492511,-0.00590334700484666,0.008491817746087014,0.9909645515275726
2014-08-22,1,0.002619274032427115,0.002926703080419402,-0.007464285253168193,0.006996292261929015,0.9923608527108155
2014-08-26,1,0.0033508406372001302,0.0037520427982433843,-0.008107044569734318,0.0021044763224075808,0.9919042026460138
2014-08-28,1,0.003222025459992767,0.003586252717802439,-0.008533931798050221,0.001695656572567328,0.9914640820463695
2014-09-02,1,0.0030515111101761176,0.00338375846287978,-0.009215923969443622,0.0032440156664150684,0.9905633231989983
2014-09-04,1,0.002498592480079464,0.0027522143493924575,-0.009350782752836196,0.0032440156664150684,0.9899882263636995
2014-09-08,1,0.002090704893710529,0.00221450900900476,-0.009350782752836196,0.007210574700826865,0.9877426436194127
2014-09-10,1,0.002431309300439892,0.002583220275393,-0.009350782752836196,0.009780671441403148,0.9854991872613184
2014-09-12,1,0.0010479568556620517,0.0010635684539445631,-0.018712832816350236,0.009780671441403148,0.9830155027423179
2014-09-16,1,0.0007226725038909001,0.0007289095698564217,-0.020159524438145518,0.009780671441403148,0.9816396418843594
2014-09-18,1,0.001767340791300775,0.0018826165557039418,-0.020159524438145518,0.015065944733456292,0.9798759823155431
2014-09-22,1,0.0019741656799610657,0.002128927200905145,-0.020159524438145518,0.015065944733456292,0.9800501846095174
2014-09-24,1,0.0011616591598624447,0.0011762300363628029,-0.020159524438145518,0.017996074659858332,0.9795232003702184
2014-09-26,0,-6.071221230221323e-05,0.00012530478095525502,-0.01629747006386373,0.017996074659858332,0.980122126098685
2014-09-30,1,0.00013635350765739981,0.00029936874953204797,-0.01629747006386373,0.017996074659858332,0.9805092998558002
2014-10-02,-1,-0.00040839683518921596,-0.00022164784595047487,-0.010906320479215019,0.017996074659858332,0.9815231692599422
2014-10-06,1,0.0010034871010958918,0.0010171377083232032,-0.010906320479215019,0.013749101727489398,0.9838048654894541
2014-10-08,0,-0.00017273131902445016,7.761725976104111e-06,-0.007885528630254476,0.011206284102970544,0.9866922682958624
2014-10-10,-1,-0.0022924956966972063,-0.0018825803434781238,-0.00239734588839499,0.011206284102970544,0.9890560111367526
2014-10-14,-1,-0.004509243387166352,-0.0037859378689902934,-0.0010457585385091246,0.013358759611981495,0.9885900030811606
2014-10-16,-1,-0.0021151812267993187,-0.00169652624654418,-0.0038725909539603933,0.00849766248802737,0.9924423278916571
2014-10-20,-1,-0.0019181767564542078,-0.0015679121141745377,-0.002220331857032248,0.013103348920100802,0.9915992186113939
2014-10-22,-1,-0.0017225337340463053,-0.0013754497473088489,-0.002220331857032248,0.011206284102970544,0.9928483402790808
2014-10-24,-1,-0.0007107318368518036,-0.0005043165490772558,-0.0038725909539603933,0.009350053069508665,0.9930680605518385
2014-10-28,1,0.00019288362480031059,0.00028913729885424665,-0.0038725909539603933,0.008083460466438645,0.9934724638719856
2014-10-30,-1,-0.0004668517112805041,-0.0002794830933797709,-0.002863665091360794,0.010019867949247509,0.9915958486586386
2014-11-03,1,0.00013094169325442493,0.00025810305704178707,-0.0038725909539603933,0.009230427685603957,0.9913579381922104
2014-11-05,1,0.001197196041578735,0.0012471889678427454,-0.0038725909539603933,0.009230427685603957,0.991739513015312
2014-11-07,1,0.0010724895518124727,0.001102222596948997,-0.004762318956848847,0.010657022613885243,0.9901126869085252
2014-11-11,1,0.0010639117522916234,0.0010666399912495155,-0.006770415759791478,0.009230427685603957,0.9894701050080672
2014-11-13,1,0.00020870742457530268,0.00033498865559680404,-0.007203538866250664,0.010657022613885243,0.9880306040344364
2014-11-17,1,0.0013983860607125948,0.0014286737141033677,-0.009030888992367704,0.007064871787510937,0.9883523136769489
2014-11-19,1,0.0008414205720010116,0.0009048564013507564,-0.00841391572537122,0.010657022613885243,0.9858291848098721
2014-11-21,1,0.0009095759817208318,0.0009578814689434371,-0.00841391572537122,0.010657022613885243,0.9863632898266427
2014-11-25,1,0.0012508386159899105,0.0012624113917300912,-0.00841391572537122,0.012731803358556205,0.9859252401679881
2014-11-28,1,0.0023015945256728326,0.0024063720874948754,-0.00841391572537122,0.010657022613885243,0.9878630116240882
2014-12-02,1,0.0021692249109472057,0.0022698850455042073,-0.00841391572537122,0.0064162745162068685,0.9880790514312733
2014-12-04,1,0.002238544197330552,0.0023580250426204945,-0.010881979642025759,0.0064162745162068685,0.9872274388782876
2014-12-08,1,0.002208846176633908,0.002318963499531265,-0.00841391572537122,0.006273306457902867,0.9882319907239348
2014-12-10,1,0.0008875894663926484,0.0009401488747056777,-0.0076138159945105,0.012302899183644201,0.9886751180839644
2014-12-12,1,0.00173534068898994,0.0018197317470436771,-0.0076138159945105,0.006273306457902867,0.9895185678991593
2014-12-16,1,0.0012235942633786337,0.001259355786437795,-0.00788408312591447,0.006273306457902867,0.9884340459521113
2014-12-18,1,0.0036285420943597832,0.004050215104293301,-0.00788408312591447,0.0040749647730222004,0.9907340141016466
2014-12-22,1,0.0032948159962586203,0.0036523712862162284,-0.00788408312591447,0.005170640747033991,0.9892446153037364
2014-12-24,1,0.003827836724843497,0.004262171082987813,-0.010216122536096162,0.003932430208002935,0.987706059289913
2014-12-29,1,0.0033949972703290685,0.0038034064486940963,-0.015029345910241552,0.003037692437478378,0.9856295692484254
2014-12-31,1,0.0027529444913989847,0.0030776857955493253,-0.017097782162022283,0.004771531496195189,0.9840917846771333
2015-01-05,1,0.0020617894958567472,0.0022821744755106006,-0.0112040914230048,0.009986306597258781,0.9832617088901042
2015-01-07,1,0.0025694837423058565,0.0028779346856050757,-0.0112040914230048,0.0078299353507176,0.9840287704872434
2015-01-09,1,0.0032673583256062327,0.0036433401024091126,-0.0112040914230048,0.004771531496195189,0.9843354250202834
2015-01-13,1,0.0021388556625172132,0.002345858322468379,-0.008324360645757874,0.007390747754923783,0.9854027802364005
2015-01-15,1,0.0010787426716324273,0.0012239960307652991,-0.0023092556973425696,0.007390747754923783,0.987193216096616
2015-01-20,1,0.0022012231375030736,0.0025639668610889996,-0.0060571052136098235,0.0068948327111153,0.9870066436749894
2015-01-22,1,0.0036968101584742893,0.004267023570994509,-0.0060571052136098235,0.006182078912879717,0.988560983457219
2015-01-26,1,0.002702886335544341,0.0031441640065962765,-0.005245569165834799,0.0068948327111153,0.9897987893744769
2015-01-28,1,0.0007074557021086007,0.0008650728141477519,-0.005949384088428389,0.0068948327111153,0.9859492288380142
2015-01-30,-1,-0.0003107381974158476,-0.0003065626913224976,-0.0018859309071431328,0.0068948327111153,0.9871853076347924
2015-02-03,1,0.0007602932081413956,0.0008842390952465507,-0.008592007897521814,0.005239500811749727,0.9885661716983624
2015-02-05,1,0.0006492366975681257,0.0007263950593789567,-0.009902522721428568,0.005239500811749727,0.9871906305797568
2015-02-09,1,0.00012196734483914385,0.0001309691301038315,-0.009902522721428568,0.005239500811749727,0.9868998244903701
2015-02-11,1,0.0010693121003373415,0.001233221918238151,-0.009902522721428568,0.0037678284198478834,0.9871155395457478
2015-02-13,1,0.0011145271050495376,0.0012494939277268985,-0.009902522721428568,0.0007694640419987028,0.9868284807265459
2015-02-18,1,0.00038310194931860013,0.0003885892568812152,-0.009153054826869584,0.0025654368156859246,0.9867840238595665
2015-02-20,1,0.00016399179505166485,0.00021921111880052213,-0.009153054826869584,0.0025654368156859246,0.9862127458671911
2015-02-24,1,0.00028145473018212255,0.00032437423480973936,-0.009153054826869584,0.0025654368156859246,0.986357973555697
2015-02-26,-1,-0.00262992424173239,-0.0022210278104778406,-0.008589069970929768,0.0025654368156859246,0.9910665322783969
2015-03-02,-1,-0.0007319238222203057,-0.0006300484384368356,-0.009153054826869584,0.0017931905864577364,0.9909877437587754
2015-03-04,-1,-0.001939851457004487,-0.0016495483470568195,-0.008589069970929768,0.0027485931832616634,0.9915135845901057
2015-03-06,-1,-0.004787854045360704,-0.004027912144237325,-0.007323381211707389,0.0036796193251458493,0.9917320927555554
2015-03-10,-1,-0.006318595011634846,-0.0053138870550710655,-0.006641210060666682,0.0036796193251458493,0.9908670241505981
2015-03-12,-1,-0.005929315486715397,-0.005180753465590152,-0.006641210060666682,0.004406057409621801,0.9900540168870529
2015-03-16,-1,-0.00549326526760323,-0.004703957437292142,-0.005789377632794419,0.0071807044428209305,0.9894048778649188
2015-03-18,-1,-0.004801116998387258,-0.004159894444911808,-0.006165747481896033,0.0071807044428209305,0.989830045417766
2015-03-20,-1,-0.0037750089721416153,-0.0032318991880867353,-0.007354427805732767,0.007254712732875623,0.9891099098348737
2015-03-24,-1,-0.0034050083316362473,-0.002932546927271772,-0.007354427805732767,0.010198649015499836,0.9888266166601138
2015-03-26,-1,-0.005033940064036013,-0.004363517609424017,-0.006229959936414343,0.010198649015499836,0.9901161258625718
2015-03-30,-1,-0.005236456842553633,-0.004570013528645836,-0.005780995381557748,0.010198649015499836,0.9904430203932221
2015-04-01,-1,-0.0053262105334123625,-0.004668492974623907,-0.005780995381557748,0.010198649015499836,0.9906196206206501
2015-04-06,-1,-0.004348211915374756,-0.003819160957685609,-0.005780995381557748,0.010772632990567238,0.9906339875003001
2015-04-08,-1,-0.004294175505178679,-0.003789699335621872,-0.006229959936414343,0.010772632990567238,0.9901317968486554
2015-04-10,-1,-0.003860303100564962,-0.0034245932965681915,-0.006229959936414343,0.011382139745322421,0.9896679381195881
2015-04-14,-1,-0.002614579777608872,-0.002346516325626313,-0.007354427805732767,0.009236607208969244,0.9890821704049745
2015-04-16,-1,-0.0023985512082907758,-0.002141571986331889,-0.0066231469373928785,0.0102703825807511,0.9888057213620369
2015-04-20,-1,-0.0016872957247108305,-0.0015200141207278748,-0.007093825841955318,0.009236607208969244,0.9900023227664212
2015-04-22,-1,-0.0012598923701290477,-0.0011607729730731154,-0.010014377447441672,0.00897156303424092,0.9899597448029808
2015-04-24,-1,-0.0005322732694404099,-0.0004608411287734033,-0.010014377447441672,0.011660393995465292,0.9876766828532956
2015-04-28,-1,-0.00045746600625457445,-0.00038163601042721153,-0.010438572682812638,0.011990419523622557,0.9856988677594075
2015-04-30,-1,-0.0005749735796816333,-0.0005041678678980458,-0.010014377447441672,0.011990419523622557,0.9858167947015547
2015-05-04,-1,-0.00021364419816443395,-0.00012218640934008525,-0.010014377447441672,0.011653196941216873,0.9865535700755694
2015-05-06,-1,-0.0023574917851706175,-0.002141519431246405,-0.008042126163692098,0.011653196941216873,0.9868084641569358
2015-05-08,-1,-0.0007379798916293475,-0.0007340886100459498,-0.010014377447441672,0.010969661689731618,0.9876018400149643
2015-05-12,-1,-0.0017974900171333472,-0.0016361545785217708,-0.008042126163692098,0.010969661689731618,0.9885776175171833
2015-05-14,1,0.0004351647848651538,0.0006628217324008158,-0.010014377447441672,0.005915700068633388,0.988906509017781
2015-05-18,1,4.835659132533402e-05,0.00022763893396604226,-0.010263067279566964,0.005915700068633388,0.9884690140999799
2015-05-20,1,0.0002792916808453758,0.000529720020557442,-0.00842492498897621,0.01029132891170382,0.988093713437803
2015-05-22,1,0.001953445209639496,0.00243884883968518,-0.00939900482614901,0.002659561406657678,0.9892803861794511
2015-05-27,1,0.0009839221572051833,0.0013134274328390478,-0.007754105345886113,-0.000828820373036951,0.9917897902921259
2015-05-29,1,0.0001368858002239715,0.0003748509660631261,-0.010700017098846855,-0.000828820373036951,0.9911622466849538
2015-06-02,1,0.001103087356770083,0.001431756699613721,-0.011521237569486581,-0.00212922160183673,0.9902801301206665
2015-06-04,1,0.0009401111526908471,0.0012926928563659944,-0.010700017098846855,-0.0010854606559487791,0.9904841989592995
2015-06-08,0,-4.1982962165936747e-05,0.00013631823522800024,-0.009161855940624861,0.0023935506794930256,0.9912963976125075
2015-06-10,-1,-0.0004898005546140816,-0.0004597877015996395,-0.010688053665185757,-0.0010854606559487791,0.9914902959827355
2015-06-12,-1,-0.0007202545258167519,-0.0006960197292105325,-0.009161855940624861,0.0035948524410045414,0.9916494434873552
2015-06-16,-1,-0.0007841123339714516,-0.0006917981501971602,-0.00779361261363298,0.0035948524410045414,0.9924239518622228
2015-06-18,-1,-0.000534028672633965,-0.0004809233988284791,-0.00779361261363298,0.0017351227767698027,0.9931712633552373
2015-06-22,-1,-0.001475962102396079,-0.0014057090584937587,-0.005559052706574802,0.0036158370738554853,0.9931803770084738
2015-06-24,-1,-0.002127794300688098,-0.0019389308143765794,-0.005559052706574802,0.005901749793170009,0.9921618004667306
2015-06-26,-1,-0.002559050837409623,-0.0023978465047488676,-0.005559052706574802,0.005901749793170009,0.9920481573949851
2015-06-30,-1,-0.0027383873167059055,-0.002565283360202973,-0.004162055951471359,0.005901749793170009,0.9926226203945795
2015-07-02,-1,-0.0020470493509151455,-0.0019475923651341921,-0.004162055951471359,0.004414940680552918,0.9934800982209302
2015-07-07,-1,-0.0015407258790373283,-0.0015318692561621266,-0.007776805790615274,0.0031202340363164546,0.9930115015292915
2015-07-09,-1,-0.0015291733447994635,-0.0015139904128440307,-0.005830876218479834,0.004414940680552918,0.9923687908623364
2015-07-13,-1,-0.0011357252198034161,-0.001083847367914188,-0.007776805790615274,0.004414940680552918,0.9905651570448427
2015-07-15,-1,-0.0010927447670130907,-0.001013418025737406,-0.00985785562934691,0.004414940680552918,0.9891807085806968
2015-07-17,-1,-0.0009095761534966562,-0.0008089411451128741,-0.01418208176467084,0.007457151906892408,0.987910136651781
2015-07-21,-1,-0.0014067144218929204,-0.001303649696117803,-0.01418208176467084,0.004975501862287915,0.9881098218015028
2015-07-23,-1,-0.0001571552467320439,-3.705499993557912e-05,-0.01683100942674192,0.0007436842073495509,0.9869863026161393
2015-07-27,-1,-0.0014171745357136674,-0.001341929356875397,-0.01787120007505115,0.0018401598197170638,0.9871190637346481
2015-07-29,-1,-0.0029474093637446696,-0.0027014269251526783,-0.02247641234120322,0.00557537898427175,0.9836395374518888
2015-07-31,-1,-0.0029023265231842886,-0.002624606721314584,-0.02247641234120322,0.008761846884564061,0.9823929959561545
2015-08-04,-1,-0.003880966431591756,-0.003498074908690164,-0.02247641234120322,0.008761846884564061,0.9830766704959736
2015-08-06,-1,-0.0034116606949086427,-0.0030676996322750324,-0.02247641234120322,0.007283068928115362,0.9832544887125503
2015-08-10,-1,-0.002818819379853598,-0.0025922799651009664,-0.02247641234120322,0.007283068928115362,0.9826454765032083
2015-08-12,-1,-0.003925330754721609,-0.003589578530732129,-0.016128524089150345,0.007283068928115362,0.9835431517016936
2015-08-14,-1,-0.004071088531573211,-0.003726295101845167,-0.012485445474148447,0.005190148830051278,0.9849227625795148
2015-08-18,-1,-0.004596416761965198,-0.004125187459823159,-0.012485445474148447,0.007283068928115362,0.9821775708753837
2015-08-20,-1,-0.0036991223852924967,-0.0031784413108410124,-0.01687371768727508,0.007283068928115362,0.9807860500497003
2015-08-24,-1,-0.005796195538992068,-0.005180824213236427,-0.01644040789153194,0.007283068928115362,0.980967240890406
2015-08-26,-1,-0.004224668141898465,-0.0037282212507840414,-0.009757564547973543,0.005190148830051278,0.9851562711624288
2015-08-28,-1,-0.003304152392290331,-0.0028981173204188707,-0.013368893135405539,0.002573051129920209,0.9859499329964428
2015-09-01,-1,-0.0029739762406436523,-0.0026285286225937923,-0.013368893135405539,0.0036027543671719136,0.9840085095389747
2015-09-03,-1,-0.002227085782139718,-0.001995939703688126,-0.013368893135405539,0.002755553654450742,0.9827082777575117
2015-09-08,-1,-0.0021862547323240385,-0.0019679942543283113,-0.010604370398712764,0.009542618677303886,0.9820154109295244
2015-09-10,-1,-0.0023534646418913664,-0.0021355950468311038,-0.009960905830491477,0.028844047044590634,0.9805059265319954
2015-09-14,-1,-0.002131873713889977,-0.001948801087355745,-0.009960905830491477,0.028844047044590634,0.9803902326399515
2015-09-16,-1,-0.0014716839016331092,-0.0013544103358480335,-0.009960905830491477,0.011975728804016494,0.9826673574318483
2015-09-18,-1,-0.0033353697152711933,-0.0029981166961196458,-0.00924162760625213,0.011975728804016494,0.9845071608740728
2015-09-22,-1,-0.00428493321569535,-0.003826665335029099,-0.00924162760625213,0.011975728804016494,0.98471607711998
2015-09-24,-1,-0.004132088891517563,-0.003735162859359991,-0.009960905830491477,0.021447075804852833,0.9835811015460081
2015-09-28,-1,-0.005446526444745854,-0.004846324585965686,-0.00432983256179694,0.021447075804852833,0.9819689660317019
2015-09-30,-1,-0.003960172611139026,-0.0037564961562901213,-0.01050281189156535,0.019173435574326804,0.9828600744361495
2015-10-02,-1,-0.003127028156742657,-0.0030037721412036937,-0.014614549629835369,0.01156005594544188,0.9835187262729458
2015-10-06,1,0.0016216268906361544,0.0019951232597494152,-0.014614549629835369,0.01156005594544188,0.9814224659688495
2015-10-08,1,0.002869405062054267,0.0033877878179012773,-0.014614549629835369,0.007134447438584473,0.9823673398986803
2015-10-12,1,0.0029874500685963994,0.003507988453873713,-0.014614549629835369,0.007134447438584473,0.9815982426527202
2015-10-14,1,0.004491777237474655,0.005281945899628694,-0.014614549629835369,0.011284018395554197,0.980030592704916
2015-10-16,1,0.0031681607692850555,0.0037904641692795837,-0.014991520187152694,0.011284018395554197,0.9785438831734435
2015-10-20,1,0.002568555744643434,0.0031010826742236255,-0.014991520187152694,0.018095058095266438,0.9784532868711778
2015-10-22,1,0.0031834530504754373,0.0038297259791748852,-0.014991520187152694,0.018095058095266438,0.9783092270184651
2015-10-26,1,0.0023518204767945397,0.0028679584877627767,-0.014368196740383305,0.01855695674988444,0.9791757067529259
2015-10-28,1,0.003071893735350491,0.0035537174666519515,-0.014368196740383305,0.018624878594291523,0.9749190460510204
2015-10-30,1,0.0016035722479641316,0.0019533421365398192,-0.01011887100713034,0.018624878594291523,0.9763730080342763
2015-11-03,1,0.006036444624611383,0.006942060553007983,-0.011413691347317428,0.016467839488553453,0.9782072245438471
2015-11-05,1,0.0048760766632066094,0.005602184301154454,-0.011035738076582442,0.017058417856485632,0.9787137939498967
2015-11-09,1,0.0045786212747186295,0.005290262117335954,-0.013890104013815772,0.017058417856485632,0.9788182642434589
2015-11-11,1,0.004420906654310719,0.00508855396401675,-0.00837173970193494,0.017128962464892525,0.9790347852280279
2015-11-13,1,0.0028339812804953303,0.0032803338562922358,-0.005804031954529541,0.017128962464892525,0.9809445375058851
2015-11-17,1,0.0027111365470502413,0.0030874864428153993,-0.005804031954529541,0.016145807611762146,0.9819066686944555
2015-11-19,1,0.00351120536040763,0.003963762006540951,-0.012551595811260353,0.014481069238414582,0.9801931932892426
2015-11-23,1,0.004779104023769574,0.005437748506399394,-0.012551595811260353,0.014481069238414582,0.9796519253482389
2015-11-25,1,0.003918039078239344,0.0044666110026024535,-0.00824682625997187,0.009286976255533562,0.9857234085842337
2015-11-30,1,0.00339113183273306,0.0038411821109350904,-0.009427798507118255,0.014481069238414582,0.9852065233104902
2015-12-02,1,0.0025716817628021107,0.0029301227256059324,-0.007344128494361847,0.009286976255533562,0.9886381433253045
2015-12-04,1,0.003347554639399876,0.0037885305720166615,-0.009427798507118255,0.00501357077806779,0.988254262092544
2015-12-08,1,0.002748343995625262,0.0031046787503763397,-0.014169481522411567,0.00501357077806779,0.9849263397124065
2015-12-10,1,0.003292042769783937,0.0037319464833958397,-0.01829879706930484,0.004737950454711093,0.984937814711502
2015-12-14,1,0.003049854383171091,0.0034904432528448407,-0.020747969382826636,0.006891848615322041,0.9842745738320346
2015-12-16,1,0.002718394830277468,0.003059132327991859,-0.02397680259876783,0.006891848615322041,0.9819049583249926
2015-12-18,1,0.0012522231550163277,0.0013882578492651599,-0.021682579009382946,0.006891848615322041,0.982553849425851
2015-12-22,1,0.0019545218875047757,0.0021779889025715623,-0.021682579009382946,0.006891848615322041,0.9810362646835499
2015-12-24,1,0.0017430561307010342,0.0018891869116014334,-0.02454401793932598,0.007332853396988456,0.9792466211106152
2015-12-29,1,0.0022587023896039854,0.0024956402365755143,-0.02454401793932598,0.004489593141621147,0.979450354457268
2015-12-31,1,0.0021979853024306144,0.002436067947740944,-0.02454401793932598,0.01106358962736093,0.9775692987015374
2016-01-05,1,0.0012482249025271945,0.0012906120343487222,-0.025367725428742903,0.008913714312291595,0.9774306649239409
2016-01-07,-1,-0.001388828527753858,-0.0010925458527693015,-0.021682579009382946,0.015845241542467785,0.9806835992397079
2016-01-11,-1,-0.002282239250362074,-0.0018779905490758227,-0.022455694661041595,0.015845241542467785,0.9786390623430449
2016-01-13,-1,-0.0031822671482436404,-0.002614922718946369,-0.024463842633558046,0.011296496033794505,0.9788204252028668
2016-01-15,-1,-0.005513852870782394,-0.00467814258216889,-0.021957148172521923,0.022386661347871296,0.9770580181775611
2016-01-20,-1,-0.006896844883039845,-0.005932619179088069,-0.01571735737801351,0.02696312790206929,0.97516432835764
2016-01-22,-1,-0.0048812494719799975,-0.004208065648884871,-0.01906117847178851,0.02696312790206929,0.9754290512385456
2016-01-26,-1,-0.005534464246606655,-0.004789053248154205,-0.01906117847178851,0.029363108314344917,0.9736051707351705
2016-01-28,-1,-0.005193818766726821,-0.00450282700170762,-0.02022755923885981,0.03048111352859209,0.9707606057802671
2016-02-01,-1,-0.0038114950108823313,-0.0032726676208196786,-0.02022755923885981,0.03048111352859209,0.9720616657911922
2016-02-03,-1,-0.004859590236048393,-0.004171320502641333,-0.01906117847178851,0.03048111352859209,0.971800502387927
2016-02-05,-1,-0.004074285178700931,-0.003461013799598933,-0.01906117847178851,0.03048111352859209,0.9724725919294854
2016-02-09,-1,-0.0049067795740545305,-0.0042644159893189485,-0.006811471131324543,0.03048111352859209,0.9727843867357904
2016-02-11,-1,-0.006429392747728446,-0.005491483799375257,0.002838181699069411,0.03048111352859209,0.9720084794051925
2016-02-16,-1,-0.0037351341162677443,-0.003069479780560329,-0.009330069735308399,0.027655725495069235,0.9769397287033186
2016-02-18,-1,-0.0013521466841329604,-0.0009350044681322265,-0.009330069735308399,0.022967809333755716,0.979631260780673
2016-02-22,-1,-0.0013135764829633597,-0.0008509027376279452,-0.003584334863224328,0.022967809333755716,0.9801344784659821
2016-02-24,0,-2.660120054796594e-05,0.00022522057617601124,-0.003584334863224328,0.020086441603349558,0.9834130004998275
2016-02-26,0,-3.531849664740127e-05,0.00019518135738010934,-0.0006862004988074273,0.019274111835734065,0.9867518063415155
2016-03-01,1,0.0024336210059241743,0.0026550245234206564,-0.0006862004988074273,0.017865399029688207,0.9880241920703386
2016-03-03,1,0.003502427479395418,0.003941488632384164,-0.0012175216604833011,0.013070565746578378,0.9889217127132449
2016-03-07,1,0.0040010733510354255,0.004508635845912311,-0.007676385378827836,0.010804041744524874,0.9877643782027008
2016-03-09,1,0.004137577223086098,0.004665267853048218,-0.007676385378827836,0.010804041744524874,0.9877217177365923
2016-03-11,1,0.004676899729838314,0.00523831452211046,-0.007676385378827836,0.006530160745816338,0.9884609655486262
2016-03-15,1,0.003604210551605045,0.003998391698150452,-0.0012175216604833011,0.010804041744524874,0.9886339528933514
2016-03-17,1,0.004313629538231174,0.004826206407413615,-0.005432631242196375,0.006233597843690406,0.9886673275657621
2016-03-21,1,0.005174246447973508,0.0057471987391504486,-0.005432631242196375,0.0077351996280941235,0.9897721127774325
2016-03-23,1,0.00451321510190032,0.004987000234655067,-0.005432631242196375,0.0077351996280941235,0.9898935990247655
2016-03-28,1,0.0038059263661100826,0.004120718826093799,-0.005432631242196375,0.0077351996280941235,0.9896877302340852
2016-03-30,1,0.005865958247956549,0.006800135048589008,-0.005432631242196375,0.0077351996280941235,0.9896363502226729
2016-04-01,1,0.0054786798771553746,0.006327532465694328,-0.012560195403476183,0.0077351996280941235,0.9880314309312788
2016-04-05,1,0.004515700267394269,0.005216366908554197,-0.01289131971989972,0.0077351996280941235,0.9872240053475602
2016-04-07,1,0.004555907298416906,0.005276916895003296,-0.012115802441990786,0.006233597843690406,0.9881358838752957
2016-04-11,1,0.0040425051306826375,0.004595933202319394,-0.012619986531955847,0.0077351996280941235,0.9870894061313895
2016-04-13,1,0.005374254012952639,0.0061230206742662555,-0.012619986531955847,0.007338428545459806,0.9875496482850088
2016-04-15,1,0.005605600178224207,0.00644723306170512,-0.012619986531955847,0.007338428545459806,0.9871498919581355
2016-04-19,1,0.006546666247201372,0.007567221712716881,-0.012619986531955847,0.0034901702089501054,0.9859712852996968
2016-04-21,1,0.005841309992446059,0.006677914526415982,-0.012115802441990786,0.004324556938335809,0.9867062821698843
2016-04-25,1,0.00554824933694587,0.006324888978236512,-0.012115802441990786,0.0082114396050121,0.9866369842848925
2016-04-27,1,0.00548498285451768,0.006135040135629395,-0.012115802441990786,0.012187233279225024,0.9855406079160348
2016-04-29,1,0.004577847738811092,0.005179158178961311,-0.011149399700556333,0.013107321902773247,0.98481642636232
2016-05-03,1,0.00308235652177329,0.0034598917071109103,-0.009649578427089228,0.015797314029367588,0.9867149815072296
2016-05-05,1,0.002601226775050493,0.0029339172050584323,-0.005739148788621696,0.015797314029367588,0.9872212078049394
2016-05-09,1,0.002217103552774378,0.0024671734034577195,-0.0006543474518346558,0.01623728299282249,0.9875642890354286
2016-05-11,1,0.002923267854782891,0.003277820229630136,-0.0029197786569500244,0.01623728299282249,0.987899126332521
2016-05-13,1,0.0014698927538985866,0.0015223638247693193,-0.0034685799162687166,0.01623728299282249,0.9853419219965737
2016-05-17,1,0.0015931537490301397,0.001677426442728657,-0.0025800498206793613,0.01623728299282249,0.9861660168604116
2016-05-19,1,0.0013609701226010964,0.0014198014385333494,-0.0016946031548301865,0.01623728299282249,0.9862215481111708
2016-05-23,1,0.002019632115230206,0.002178889284115695,-0.0025749393198032885,0.01623728299282249,0.9861056964445384
2016-05-25,1,0.003032380796838029,0.0032516105169460565,-0.0038161006815921336,0.013847562860147336,0.9841835104798092
2016-05-27,1,0.005089675968037362,0.0055952917088271,-0.011680785610615096,0.011376464910109015,0.981627075675981
2016-06-01,1,0.00447447632760211,0.004781155706520002,-0.011680785610615096,0.014139512752708468,0.9801551068359264
2016-06-03,1,0.003989284171541582,0.004197949018253986,-0.00901519532384703,0.017808075114062807,0.9791716268283864
2016-06-07,1,0.004089433494357486,0.004296534545335536,-0.025691161649426898,0.01953637679194576,0.9775899196435266
2016-06-09,1,0.0037164698457486734,0.003841867426241597,-0.025691161649426898,0.019854177541609373,0.9768793562143501
2016-06-13,1,0.0007427510993891632,0.001083808334547614,-0.0038161006815921336,0.020114476988416986,0.9775988817086261
2016-06-15,1,0.0007231724380863921,0.000976783334627937,-0.0021066201084677773,0.020114476988416986,0.9774490999297901
2016-06-17,1,0.00040996488297596325,0.0007331354962412546,-0.0014958446801163305,0.020114476988416986,0.9775496059717516
2016-06-21,1,0.00019107317915207094,0.0005766615706859983,0.0025363692545024574,0.020075752085292775,0.977905057739563
2016-06-23,1,0.00017980851855437104,0.000503251890059727,0.0025363692545024574,0.019523468490904358,0.980825958568701
2016-06-27,-1,-0.0032736363539023297,-0.0024901340386007434,0.0036033015610831753,0.019523468490904358,0.9836516398799194
2016-06-29,-1,-0.001434331985412978,-0.0009044268867512688,0.0008783139129584648,0.01523163232563809,0.9870285662738222
2016-07-01,-1,-0.0009207703278927314,-0.00032120041182425547,0.0008783139129584648,0.008951802741160317,0.9887175689077956
2016-07-06,-1,-0.0019171173018046055,-0.001174386318008266,0.0008783139129584648,0.008951802741160317,0.9893096628304483
2016-07-08,1,0.0004988994738748068,0.0008150012041487232,-0.0014365959117937457,0.007865590071634905,0.9911491535762392
2016-07-12,1,0.0026586756589685083,0.0027148133127266796,-0.00194389291883837,0.007836147297968138,0.9934779548996491
2016-07-14,1,0.00293346505006083,0.0030369004903627087,-0.003733135271213137,0.007836147297968138,0.9933008764845463
2016-07-18,1,0.0028379802340686984,0.0029421957901572,-0.003733135271213137,0.007865590071634905,0.9926089630479386
2016-07-20,1,0.0025893392264674997,0.00263046093020022,-0.00505186666496936,0.007778265503417774,0.9924124605216498
2016-07-22,1,0.002616882190665767,0.002696597397015143,-0.004708574147366121,0.006622250348663664,0.9928368030543356
2016-07-26,1,0.002712204983176843,0.002823995483808262,-0.004708574147366121,0.008110807791725766,0.9920795820482418
2016-07-28,1,0.002374409364633617,0.0024520536483996352,-0.004708574147366121,0.008110807791725766,0.9922910612951794
2016-08-01,1,0.0027295905057003736,0.0028523770680164576,-0.004708574147366121,0.006622250348663664,0.9927320526516887
2016-08-03,1,0.0033325551841800784,0.003574881051042019,-0.0036532036322346082,0.003646197407386824,0.9932596439262494
2016-08-05,1,0.0026329842104662296,0.0027271828030060474,-0.003465617354443405,0.003646197407386824,0.9941033276484973
2016-08-09,1,0.0027133773448065925,0.002862934486211274,-0.003465617354443405,0.006622250348663664,0.99406427626718
2016-08-11,1,0.003229395857135516,0.003517315463213044,-0.00362165842297699,0.004637262441997713,0.9921143078437554
2016-08-15,1,0.0030475223087301296,0.003295300318880116,-0.004613938519593267,0.004637262441997713,0.9905527926204658
2016-08-17,1,0.002838717257206868,0.003059983360352541,-0.00362165842297699,0.0070218918753309255,0.9905018027184271
2016-08-19,1,0.0028271166473728916,0.0030702665781923164,-0.003465617354443405,0.0070218918753309255,0.9909857292111955
2016-08-23,1,0.0029141723730370618,0.00315495331105674,-0.0024287402860567017,0.0070218918753309255,0.9902264295108272
2016-08-25,1,0.0019083632463653315,0.001961068877407407,-0.0015262706650150432,0.008766000286561385,0.9906966986005502
2016-08-29,1,0.0019273260816496756,0.001977488375634544,-0.0023543361562971764,0.009200439610498002,0.9894935442951724
2016-08-31,1,0.0018037067754406682,0.0018484342824015444,-0.0025091757352679093,0.009690977764153601,0.989065622808201
2016-09-02,1,0.0026451473524008134,0.0028620271264137155,-0.0025091757352679093,0.009690977764153601,0.9891238789125336
2016-09-07,1,0.0027310116368692017,0.002931990420459781,-0.0042229845426741235,0.011363173429971117,0.9877561950362783
2016-09-09,1,0.0016395346182789244,0.001729368065300086,-0.0019355538582133747,0.011363173429971117,0.9895362302986307
2016-09-13,1,0.0014325179197722615,0.0014610589973874885,-0.0019355538582133747,0.009267165257110032,0.9913908660387621
2016-09-15,1,0.0019307234790367596,0.0020142816439334254,-0.004936351000201487,0.008778536112441318,0.9912602174802595
2016-09-19,1,0.0021176610630084013,0.0022317788949184603,-0.007247203028838995,0.008778536112441318,0.9873429631373971
2016-09-21,1,0.0021866593889150955,0.0022374457166236335,-0.007247203028838995,0.008778536112441318,0.9879442659266363
2016-09-23,1,0.0012784643944261632,0.001424924310313632,-0.010473532999680985,0.00806942366496885,0.9875165021502209
2016-09-27,1,0.0010374871474161927,0.001256653818353047,-0.010473532999680985,0.00806942366496885,0.9880479715054323
2016-09-29,1,0.0007263852287146781,0.0009957216670452677,-0.010473532999680985,0.006245182700094843,0.9887285857984112
2016-10-03,1,0.0013458578211362777,0.0015171821409385978,-0.010473532999680985,0.006100437053189471,0.9875498770592319
2016-10-05,1,0.0006437305792674418,0.0009404435416390743,-0.009631640109465402,0.006100437053189471,0.988123904343367
2016-10-07,1,0.00017282976058578185,0.0005440693381898369,-0.009631640109465402,0.00828396509476918,0.9875454096104086
2016-10-11,-1,-0.0006448163717954283,-0.00016081132369342695,-0.008046830332577614,0.012446552639554968,0.9862700004130255
2016-10-13,-1,-0.0012633241159962195,-0.0007199206817582397,-0.00662731126916832,0.01344284491235616,0.9859455073875317
2016-10-17,-1,-0.002890339833855133,-0.002235225152640647,-0.005042608030312683,0.01801913294867287,0.9869546960409468
2016-10-19,-1,-0.001189511312576356,-0.0008365008186410348,-0.005042608030312683,0.01801913294867287,0.987532605145565
2016-10-21,-1,-0.001660257006420266,-0.0012851330777315885,-0.004560810050788018,0.01801913294867287,0.9880339063727529
2016-10-25,-1,-0.0015335659872502975,-0.0011694612365410232,-0.0034464636560243298,0.01801913294867287,0.9883700849029482
2016-10-27,-1,-0.0010555096326655834,-0.0007700902527093035,-0.004592634461879989,0.019446134576168776,0.9845855659896231
2016-10-31,1,0.0003061506821219104,0.0004177985355641092,-0.005500471017838592,0.01801913294867287,0.9858941511931818
2016-11-02,-1,-0.0005745382239156624,-0.0002653628838521975,-0.005500471017838592,0.016801027632717236,0.9855289522842269
2016-11-04,-1,-0.0007522092412951737,-0.0004077206199906519,-0.004592634461879989,0.01801913294867287,0.9848280239447089
2016-11-08,1,0.0006473860707326559,0.0008085564494776634,-0.004592634461879989,0.01801913294867287,0.9849882441193797
2016-11-10,1,0.0011693116748584718,0.0012727952759866716,-0.004955024216129987,0.016801027632717236,0.9849980164777722
2016-11-14,1,0.0022471447013404835,0.0022960059638628973,-0.004955024216129987,0.006320050006740915,0.9865623943707924
2016-11-16,-1,-0.0012030441993251242,-0.0005714816472579892,-0.006451495111536063,0.006320050006740915,0.9866285772785566
2016-11-18,0,-5.1179059391571026e-05,0.00035029092935227554,-0.008259314948083367,0.0055362477572018865,0.985317730897351
2016-11-22,1,0.001038391437006774,0.0012368382533527692,-0.008259314948083367,0.0046442028140882335,0.9854894436047278
2016-11-25,-1,-0.0008466930313280054,-0.0004028622900052691,-0.006451495111536063,0.004148493529186648,0.9896754454379698
2016-11-29,0,-0.00024677286928598567,4.463018041300608e-05,-0.008123169779030845,0.004150806742587663,0.9889794670225538
2016-12-01,1,0.001131403961166917,0.0011874469353166427,-0.006477935620439679,0.003980112808269687,0.9902633254994888
2016-12-05,1,0.0024702207306575436,0.0025917736650255324,-0.006477935620439679,0.0034062866543063926,0.9906389786146818
2016-12-07,1,0.004018904650599961,0.004361343968336937,-0.006477935620439679,0.001297547384885381,0.9908675285275225
2016-12-09,1,0.003323523452930039,0.003602371473673955,-0.006477935620439679,0.0013030071293769353,0.9914290755282473
2016-12-13,1,0.0030722857482274875,0.0033026991615208766,-0.007530085584931435,0.0015055640641076537,0.9904483718416559
2016-12-15,1,0.002218969376584991,0.0023410514121609514,-0.007530085584931435,0.0015055640641076537,0.9911200113352128
2016-12-19,1,0.000702010697195814,0.0008104547024545619,-0.005157077996523531,0.0015055640641076537,0.9926072684769647
2016-12-21,1,0.001061058038041875,0.0010980374536595087,-0.00720713312080668,0.0006756897786454327,0.9920067872364866
2016-12-23,1,0.0010659305492645716,0.0010878838435702226,-0.00720713312080668,0.0028099554719025624,0.9906076725936993
2016-12-28,1,0.00040263478866588853,0.0005132910261894996,-0.00720713312080668,0.0008404518587135585,0.9907560915437335
2016-12-30,0,-0.0001290907622028192,5.352092323803424e-05,-0.005670808801127162,0.0055647615230987055,0.9903822848558074
2017-01-04,1,0.0006072363128317286,0.0007040371130989855,-0.005670808801127162,0.0055647615230987055,0.9901552147171131
2017-01-06,1,0.0006204776832375407,0.0006892546744758003,-0.005242044102951027,0.0064963370207138755,0.9902402672614984
2017-01-10,-1,-0.0004434562572494902,-0.00024229635655391587,-0.0040083750022605735,0.011892917012861718,0.9905162204049929
2017-01-12,-1,-0.00035604279572701563,-0.0001481445943172223,-0.0020108583365881054,0.009071332551539205,0.9911729945849588
2017-01-17,-1,-0.0008588765671779739,-0.0006160945396892905,-0.0001637234541920324,0.011892917012861718,0.9904970459484412
2017-01-19,-1,-0.00046975056490238996,-0.00025048960493524004,-0.0038126797390255164,0.009071332551539205,0.9912978859290944
2017-01-23,-1,-0.0010419529281644859,-0.0007610797566069324,0.00034338754518063177,0.011176487041147404,0.9909096960015206
2017-01-25,1,0.0004019109997494995,0.0005301235901246235,0.00034338754518063177,0.011176487041147404,0.9888485879135946
2017-01-27,-1,-0.0010193426924799724,-0.0007991355487078014,0.0009350942615445718,0.011176487041147404,0.989252524638003
2017-01-31,-1,-0.00010049489703064732,-1.1752651347675657e-05,-0.0001637234541920324,0.011176487041147404,0.9891044725107475
2017-02-02,-1,-0.0006038427373740842,-0.00037296287466275706,-0.0001637234541920324,0.009071332551539205,0.9889432823424662
2017-02-06,-1,-0.00041769852705259545,-0.0002114892682420948,-0.002021002740685981,0.009071332551539205,0.9890582907661268
2017-02-08,1,0.0005555006395554674,0.0006077108285960703,-0.002021002740685981,0.0059317375146367615,0.9898318707464338
2017-02-10,1,0.0010150216239581608,0.0010196637162575306,-0.002021002740685981,0.004692492732716656,0.9902326134944898
2017-02-14,1,0.0021490688286362426,0.002359112912552171,-0.002021002740685981,0.004685909506428977,0.9910646686188505
2017-02-16,1,0.0018735621815037123,0.002057658271005186,-0.0012911609644483603,0.004845938712840633,0.9912287620421999
2017-02-21,1,0.002489548140243804,0.002786113875639754,-0.002021002740685981,0.004393182238983026,0.9903050121072196
2017-02-23,1,0.005624727082887136,0.00633808056155137,-0.002021002740685981,0.0033096651544256466,0.9922263511710794
2017-02-27,1,0.005844254818766586,0.006613333593460285,-0.0020262863371761997,0.0033096651544256466,0.9918444392671623
2017-03-01,1,0.005614329310134136,0.006345609469204463,-0.0017357947606703977,0.003043447515184388,0.9930621332282379
2017-03-03,1,0.004909191903106655,0.0055335023140067364,-0.0013041029186829747,0.004581088255846355,0.9939439268364149
2017-03-07,1,0.004489466080585347,0.00503198766154463,-0.0011478507500625769,0.004929569144195656,0.9937529150095346
2017-03-09,1,0.004119489829210296,0.004563196993444185,-0.0017049696651643136,0.004929569144195656,0.9932023716496946
2017-03-13,1,0.002908258841696208,0.0030527731275298707,-0.0025805984921348445,0.004581088255846355,0.9927561566476752
2017-03-15,1,0.0030054325673995077,0.003158423717163992,-0.0025805984921348445,0.005346167776613349,0.9915183585107795
2017-03-17,1,0.0020580997822754006,0.0020703590332865726,-0.0017049696651643136,0.008040115759264268,0.9916320245289264
2017-03-21,1,0.0010499275062609101,0.0011523835407640272,-0.0012938278868476131,0.009083392487781219,0.9927418219987895
2017-03-23,1,0.0010540592882497188,0.0011514815342156342,-0.0017049696651643136,0.009083392487781219,0.9920396442459796
2017-03-27,1,0.0015260731740595725,0.0015486254712189056,-0.0008550221495864571,0.010083858629175185,0.9914370028660768
2017-03-29,1,0.0016198037096248502,0.0016760951829824363,-0.0008550221495864571,0.010083858629175185,0.9913200911800732
2017-03-31,1,0.002622379712483788,0.0028147202538448927,-0.0008550221495864571,0.007908172085416672,0.9928253248906491
2017-04-04,1,0.002883808138420321,0.0031710497033120436,-0.001611850084530222,0.007908172085416672,0.9934258241791385
2017-04-06,1,0.0026174090945041513,0.0028992007192288165,-0.0006975855876502312,0.007908172085416672,0.9938019734185068
2017-04-10,1,0.002826249228260431,0.0032024278653195676,-0.0002657967966884939,0.009083392487781219,0.99348605077771
2017-04-12,1,0.0036138565686589354,0.0040524492102153,-0.0011935959653673156,0.007540384792973947,0.994515534232886
2017-04-17,1,0.0038579127986719513,0.004332007755019847,-0.0011935959653673156,0.006668446705598061,0.994846055304967
2017-04-19,1,0.004088470024445488,0.004597783569005267,-0.0020948789832877365,0.006274367091733636,0.9936188376708802
2017-04-21,1,0.0024301949525633243,0.0027980253963584317,-0.0020948789832877365,0.006274367091733636,0.9936691179877375
2017-04-25,1,0.0029951407036040395,0.003432136411722224,-0.0039092650050093995,0.005942921308395415,0.9935630219524136
2017-04-27,1,0.003030811867818896,0.0034468915226901794,-0.0048627618979303535,0.005803348964580861,0.9920058425247458
2017-05-01,1,0.0038757318127791967,0.004495123203549995,-0.0048627618979303535,0.005901391838583191,0.9908879975661412
2017-05-03,1,0.004316423642397039,0.0050727311154356155,-0.005836324888032369,0.006274367091733636,0.9906764533777557
2017-05-05,1,0.003779810575503674,0.004373535013676122,-0.008257950701379543,0.005901391838583191,0.9902227236038119
2017-05-09,1,0.004332900253964984,0.004986824252269199,-0.009486159204515565,0.005708689708776122,0.9894179064384884
2017-05-11,1,0.0038097512152054022,0.004335904591407165,-0.009496118062910584,0.005503118871721464,0.9884937654687617
2017-05-15,1,0.0031563382823875793,0.003514802102524389,-0.009496118062910584,0.005503118871721464,0.9882913659660111
2017-05-17,1,0.001965519960999609,0.002163110433195671,-0.009496118062910584,0.0033387871726105155,0.9887115493232642
2017-05-19,1,0.0017418847545625255,0.0018995639790319687,-0.009488690425717988,0.004835123074707267,0.9887987036261032
2017-05-23,1,0.0012018025187719794,0.0012455646354389742,-0.009488690425717988,0.004835123074707267,0.9887755639377767
2017-05-25,-1,-0.0013210147347016581,-0.0010449410642930192,-0.007974333056218204,0.005172306350776633,0.9905244853687744
2017-05-30,1,0.00012430706106279787,0.00020622572598930108,-0.009488690425717988,0.004744700249650223,0.9898800879422944
2017-06-01,1,8.713884611241169e-05,0.00018624614816659422,-0.011904196498803568,0.004744700249650223,0.9888902006981298
2017-06-05,-1,-0.0011713262548084524,-0.0008582663659564075,-0.010394846229570405,0.004744700249650223,0.9891936870963796
2017-06-07,-1,-0.0030174341213328303,-0.0024912548733034504,-0.010394846229570405,0.005092736040148075,0.9889190714505708
2017-06-09,-1,-0.004936299457751755,-0.004146169273321842,-0.006915511860154163,0.008262462728268097,0.9877075821634735
2017-06-13,-1,-0.0047802937958545955,-0.004036171064855055,-0.006915511860154163,0.008262462728268097,0.9870978738595895
2017-06-15,-1,-0.006629357206991602,-0.005638353515880044,-0.0012805941114273742,0.010638649353371905,0.9855455939487593
2017-06-19,-1,-0.005132003119564757,-0.004382719751894805,-0.004529102233252453,0.008262462728268097,0.9875358439986291
2017-06-21,-1,-0.006260598403273342,-0.005303862391314661,-0.0010828360406083596,0.013283512312070733,0.9856464774975123
2017-06-23,-1,-0.005567263105374705,-0.004732052069393406,0.0005800938159089789,0.013283512312070733,0.985524965831992
2017-06-27,-1,-0.005693329259504394,-0.004868587520706601,0.0005800938159089789,0.011524250367221805,0.9866549780490182
2017-06-29,-1,-0.006480081764933425,-0.005567977491237581,-0.0022106763196347856,0.009752695054134019,0.9876977398684396
2017-07-03,-1,-0.006094530285480345,-0.005258676492388689,-0.0022106763196347856,0.009752695054134019,0.9880042289867249
2017-07-06,-1,-0.006952779966939794,-0.006044908093996453,-0.002084101074671078,0.011524250367221805,0.9876217039440175
2017-07-10,-1,-0.005075548237827189,-0.004426249186314857,-0.0022127018735902705,0.009398721315793166,0.9911598876510728
2017-07-12,-1,-0.004882308067682641,-0.004239925463712914,-0.0022127018735902705,0.009398721315793166,0.9917936230021687
2017-07-14,-1,-0.003676984371341441,-0.0031987146157068753,-0.0025850560533797907,0.005733750950350169,0.9930677986267091
2017-07-18,-1,-0.002612994319752504,-0.002395619064859447,-0.0025850560533797907,0.009272334970379329,0.9932154717653217
2017-07-20,-1,-0.0015485887134113778,-0.001463206262915131,-0.0032688806567119054,0.0027455783923034066,0.9941735672178242
2017-07-24,-1,-0.0009390933648599639,-0.0009171622987682016,-0.0036577808364169516,0.0009109527658218389,0.994507639321678
2017-07-26,-1,-0.0011341610518433981,-0.0010536483005471314,-0.0036577808364169516,0.0009109527658218389,0.9937595391441039
2017-07-28,-1,-0.0013166940444290403,-0.0012025130777892142,-0.004045416721241127,0.002381007199399583,0.9922084939594034
2017-08-01,-1,-0.0011134212781309394,-0.0010339018336271559,-0.00554705735586938,0.00198341477227253,0.992065005835706
2017-08-03,-1,-0.0004542573761858248,-0.00043809259564759294,-0.00554705735586938,0.000778421956779488,0.9925154345377879
2017-08-07,-1,-0.0003564501398533798,-0.0003116791288267707,-0.006331847645953644,0.00198341477227253,0.991644315070067
2017-08-09,-1,-0.000310371265482139,-0.00025693427209443553,-0.006331847645953644,0.0041202997331960655,0.9911104784494023
2017-08-11,-1,-0.002106553373699761,-0.0018852841792992062,-0.006331847645953644,0.007682656947576144,0.9916768645581916
2017-08-15,-1,-0.0017097467349344963,-0.0015472159150782512,-0.006792715883970021,0.0071380006973250035,0.9913382706470886
2017-08-17,-1,-0.002701289392793825,-0.0024238854190676952,-0.006331847645953644,0.008545178336969921,0.9915838353838519
2017-08-21,-1,-0.002738084130649007,-0.0024658000574753315,-0.005413599970773057,0.008545178336969921,0.9915256097482887
2017-08-23,-1,-0.0013271576230428964,-0.0012921089143947166,-0.005116499296907141,0.008379542576764851,0.9922278314677262
2017-08-25,-1,-0.00046921059997965435,-0.0004184881202490864,-0.004797298881360254,0.008360897014593045,0.9933660881798166
2017-08-29,-1,-0.0008240747004195426,-0.0008105646567855602,-0.0046584869259108696,0.008360897014593045,0.9935888686418367
2017-08-31,-1,-0.0013352349583494077,-0.0012386731326285924,-0.004546753121818495,0.008360897014593045,0.9933883112761466
2017-09-05,-1,-0.00010383146044700138,-4.247718389617611e-05,-0.0022467028457679766,0.008082481692221801,0.9943330079478303
2017-09-07,1,0.00018347048144252937,0.0003079364338179045,-0.0007499722107847517,0.008326655570702777,0.9943744404169099
2017-09-11,1,0.00048066055046989953,0.0006617561364245509,-0.0005013053788847643,0.008326655570702777,0.9948417094083405
2017-09-13,1,0.0003519205137128774,0.0005036019594734617,-0.0005013053788847643,0.008127571531069367,0.9952809058340866
2017-09-15,1,0.001165893180986967,0.0014613915203759513,-0.0005013053788847643,0.008127571531069367,0.9926926772548925
2017-09-19,1,0.0014173823905057103,0.0017661310835486589,-0.0005013053788847643,0.008127571531069367,0.992572251935095
2017-09-21,1,0.0021509010511087034,0.002618221277130413,-0.0005013053788847643,0.008127571531069367,0.9924061355383126
2017-09-25,1,0.0022329213527846536,0.0026989331912550523,-0.0004926659926720902,0.00792050626898868,0.9929337063902868
2017-09-27,1,0.002440897515612368,0.0029502397916483783,-0.0007483438897056386,0.00792050626898868,0.991922242120432
2017-09-29,1,0.0029698772800404363,0.003589146572292542,-0.0028488143999847605,0.00792050626898868,0.991545646845267
2017-10-03,1,0.003330954546166545,0.004003412078061664,-0.005567729186208263,0.007582251714115372,0.9913742637309166
2017-10-05,1,0.003983767497360334,0.004756973747689779,-0.005567729186208263,0.005276038467971644,0.990743263853418
2017-10-09,1,0.003902786645635285,0.004604948084783864,-0.005567729186208263,0.0038991025593528433,0.9908941275818937
2017-10-11,1,0.003606207539834292,0.004272105691322078,-0.004063297045700812,0.0038991025593528433,0.991382829022709
2017-10-13,1,0.0051964526891865315,0.006066699099112201,-0.0051258975285819785,0.0029704828937200545,0.9926061583550045
2017-10-17,1,0.0037365620102889196,0.004229325063773857,-0.004080194631398608,0.003184563139465059,0.9938232937025006
2017-10-19,1,0.004767067493058948,0.005459224641919943,-0.004080194631398608,0.002086288485670303,0.9931452450795212
2017-10-23,1,0.004917065053435156,0.00563042410942813,-0.004080194631398608,0.0032732437094283567,0.9925603204556814
2017-10-25,1,0.00359884203366936,0.004156423562753958,-0.003717926103429666,0.007696327429365254,0.9913902993495696
2017-10-27,1,0.002560488590108973,0.0027650496884353815,-0.003717926103429666,0.007696327429365254,0.9918934624955619
2017-10-31,1,0.0022683093029997508,0.0023717714597231076,-0.003717926103429666,0.008502450770133778,0.9911331141295843
2017-11-02,1,0.0018938046203854349,0.0019329661957269099,-0.0030533291171510888,0.008502450770133778,0.9914703042599282
2017-11-06,1,0.001304436803147923,0.0013755612168453184,-0.0039726311308883756,0.008502450770133778,0.9908793992156522
2017-11-08,1,0.0014557725561122094,0.0014793963241082027,-0.0039726311308883756,0.008502450770133778,0.9906705406409462
2017-11-10,1,0.0010130718286881276,0.0010904211504120399,-0.0024905970825687485,0.009189096708309988,0.9907348884304752
2017-11-14,1,0.0009909693270926867,0.0010694322114949523,-0.005063624501125711,0.008716557711184613,0.9901745945929147
2017-11-16,1,0.0011374066364541772,0.0011996511847662352,-0.005505940824069364,0.008428427378008274,0.9899242221426725
2017-11-20,1,0.0016189827752787342,0.0016417870190133946,-0.005505940824069364,0.006749309131052168,0.9898465652463634
2017-11-22,1,0.0014945834532819368,0.0015415554954642027,-0.005505940824069364,0.005103080032276934,0.9925232105722025
2017-11-27,1,0.0008563553390793107,0.0010045301225874031,-0.005505940824069364,0.005103080032276934,0.9929060642991879
2017-11-29,1,0.0015781654720021278,0.0015912827584193886,-0.005367303484310224,0.002605310941591345,0.993753020238657
