JNU-Tangyin/eata/results/Batch4_SP500/Batch4_SP500-AAP.csv
Date,Action,Predicted_Q25,Predicted_Q75,Actual_Q25,Actual_Q75,RL_Reward
2010-12-14,0,0.0,0.0,-0.008855790343378687,0.0032799338702173488,0.9899839112362038
2010-12-16,0,0.0,0.0,-0.008855790343378687,0.0032849549397664358,0.9895471526912191
2010-12-20,0,0.0,0.0,-0.006587172895826836,0.0032849549397664358,0.9901362447118496
2010-12-22,0,0.0,0.0,-0.005029325769490181,0.004432816876329613,0.990237846570195
2010-12-27,0,0.0,0.0,-0.005029325769490181,0.006014525304868956,0.989853558639002
2010-12-29,0,0.0,0.0,-0.005029325769490181,0.006014525304868956,0.9898745852213011
2010-12-31,-1,-0.9964672664634769,-0.9963505761782008,-0.004386977467797109,0.006014525304868956,0.5012945566993096
2011-01-04,-1,-0.0026143406714392997,-0.0019960779922613124,-0.004386977467797109,0.006014525304868956,0.9914019691501271
2011-01-06,-1,-0.004544582276385097,-0.0036797013727286015,-0.0028236952378706036,0.008842593535345817,0.9901285248645363
2011-01-10,-1,-0.002614991733956993,-0.0020061385227454374,-0.0028236952378706036,0.008281319332201165,0.9919204648390249
2011-01-12,-1,-0.0021204484382054464,-0.0015965572712816935,-0.0028236952378706036,0.008281319332201165,0.9916449642215097
2011-01-14,-1,-0.002753325649580137,-0.002063027953749451,-0.004386977467797109,0.008281319332201165,0.9908467802555121
2011-01-19,-1,-0.0025429381786265482,-0.0018881935910470742,-0.004121636938944442,0.008381276746190007,0.9906735830794873
2011-01-21,-1,-0.0030157071503702395,-0.002275214055089254,-0.007321999374861848,0.008381276746190007,0.989786017099127
2011-01-25,-1,-0.001981321270475336,-0.0013962510192262385,-0.011493586537784211,0.006683067300762961,0.9893466894628778
2011-01-27,0,0.0,0.0,-0.011493586537784211,0.011123562915818327,0.9875113803458473
2011-01-31,-1,-0.0017333716330501588,-0.0011920108571297412,-0.011493586537784211,0.011123562915818327,0.9878035982400664
2011-02-02,-1,-0.003917806721049419,-0.003093617695573632,-0.00785605764758279,0.013919117230501814,0.987401815895136
2011-02-04,-1,-0.0019586078332717452,-0.0015264905131108272,-0.011422874897143871,0.008649197880494489,0.988880684707778
2011-02-08,-1,-0.0012753577004294687,-0.0009376595443265343,-0.011422874897143871,0.011123562915818327,0.9884687075167096
2011-02-10,-1,-0.0007078394560733206,-0.0004723793301239002,-0.010695658543529036,0.010396007600864825,0.9889502790556551
2011-02-14,-1,-0.001491085927184476,-0.0011832707727512423,-0.0076136521963778465,0.010396007600864825,0.9896894647154074
2011-02-16,-1,-0.001277584201126286,-0.0009839373136022408,-0.008216027456780602,0.0075863125422179255,0.9900023988730532
2011-02-18,-1,-0.002757312201655648,-0.002282218164944388,-0.007070378100666892,0.0075863125422179255,0.9905963229149637
2011-02-23,-1,-0.004325988975271713,-0.0036379960835224235,-0.001817778890924372,0.0075863125422179255,0.9905089107546527
2011-02-25,-1,-0.0034918766236621056,-0.0028653937497867205,-0.004150898462266085,0.006347870071388305,0.9916929694839354
2011-03-01,-1,-0.0033452313900142186,-0.0027540098043125523,-0.005391156568626038,0.006347870071388305,0.9915972990275006
2011-03-03,-1,-0.0021573868073208147,-0.0017049179158796037,-0.005391156568626038,0.005511694667605106,0.9930389018242521
2011-03-07,-1,-0.0026331158025946575,-0.002168987860708073,-0.004031375641114998,0.0060954792785534164,0.9931730385097588
2011-03-09,-1,-0.0017979168552604123,-0.0014235708118526366,-0.004031375641114998,0.005511694667605106,0.9933631186846074
2011-03-11,-1,-0.0009170983332445238,-0.000663668770261321,-0.004519475778429721,0.004899871869741012,0.9937082378653118
2011-03-15,-1,-0.0008299486763186218,-0.000608411824201219,-0.005032588105172778,0.004899871869741012,0.9934442395545459
2011-03-17,-1,-0.0014241080330173878,-0.001141187026025288,-0.004317845561168376,0.004899871869741012,0.992808809523117
2011-03-21,-1,-0.0009634861567403764,-0.0007472908844049756,-0.004317845561168376,0.0050055334816693315,0.9927305526145643
2011-03-23,1,2.6890624229295202e-05,6.345015682894038e-05,-0.004317845561168376,0.007871256494030192,0.9915366478443476
2011-03-25,1,0.0008708502360612218,0.0009731122033619279,-0.005714692189339824,0.005597162824594434,0.9916626403066617
2011-03-29,1,0.0005005519086568344,0.0005595191777235671,-0.004317845561168376,0.006944752675056763,0.9918991426396724
2011-03-31,0,0.0,0.0,-0.005814947170664485,0.006944752675056763,0.9917163176869681
2011-04-04,0,0.0,0.0,-0.005814947170664485,0.006944752675056763,0.9916846721488002
2011-04-06,0,0.0,0.0,-0.006003032553746901,0.004957909505064574,0.9927753899828342
2011-04-08,0,0.0,0.0,-0.006003032553746901,0.006774635446005158,0.9926473625602501
2011-04-12,0,0.0,0.0,-0.003056921313215539,0.008182516653320902,0.9907842720047132
2011-04-14,0,0.0,0.0,-0.002164700132731681,0.009690275357293967,0.9896765993340448
2011-04-18,0,0.0,0.0,-0.005044582924624648,0.008688501588875335,0.9886187849403112
2011-04-20,0,0.0,0.0,-0.007513010507896306,0.008688501588875335,0.9843202319113904
2011-04-25,0,0.0,0.0,-0.005044582924624648,0.008688501588875335,0.9846537912306236
2011-04-27,0,0.0,0.0,-0.007635780198907466,0.008688501588875335,0.9842763033062111
2011-04-29,0,0.0,0.0,-0.0070704088367151505,0.008688501588875335,0.9843781939253804
2011-05-03,1,0.00014464268692295645,0.0001572129746811084,-0.00953815915440084,0.00741024794252612,0.9839856937698452
2011-05-05,0,0.0,0.0,-0.012246706077819351,0.00741024794252612,0.9832912617074677
2011-05-09,0,0.0,0.0,-0.012307433326764232,0.005603441703650716,0.9831383263638634
2011-05-11,1,0.0009822138936203613,0.0011825511147740071,-0.012307433326764232,0.00043862781662638427,0.9848987689839765
2011-05-13,1,0.0019641315027998122,0.002281699343641695,-0.012307433326764232,-0.0004655517077489903,0.9861616933801374
2011-05-17,1,0.002067036366730708,0.0023982347242827943,-0.012277070993762839,-0.00024147365712622225,0.987218500358648
2011-05-19,0,0.0,0.0,-0.009520801685011283,-0.00024147365712622225,0.9926080732952817
2011-05-23,0,0.0,0.0,-0.009520801685011283,0.0006801014737526065,0.9920920874156554
2011-05-25,0,0.0,0.0,-0.008422950965300574,0.0006801014737526065,0.9924362339708281
2011-05-27,0,0.0,0.0,-0.009325799939773411,0.00017243102117781624,0.9921095165357644
2011-06-01,0,0.0,0.0,-0.008280416370670902,0.0010342788859803251,0.9924733774401995
2011-06-03,0,0.0,0.0,-0.007863835317809903,0.004023578134254633,0.9922734289584866
2011-06-07,-1,-0.0021650713837022815,-0.0018829924905244704,-0.005985237105984003,0.004023578134254633,0.9927520836351835
2011-06-09,-1,-0.0023240877337242453,-0.0020257771022945555,-0.007045808655509874,0.007210808991946991,0.9914126631538376
2011-06-13,-1,-0.002322175824709141,-0.0020383884428924596,-0.00808004358390188,0.007210808991946991,0.9911370756272289
2011-06-15,-1,-0.002226707443796959,-0.0019254898008247395,-0.00808004358390188,0.007210808991946991,0.9905847883179629
2011-06-17,-1,-0.0020340619324396656,-0.0015863474194467808,-0.010488100034542376,0.003085470622875036,0.9906351125305738
2011-06-21,0,0.0,0.0,-0.010488100034542376,0.003085470622875036,0.9897962095986401
2011-06-23,-1,-0.0021340934024275636,-0.0018784585917449377,-0.010488100034542376,0.004158226992684399,0.9900779419582374
2011-06-27,-1,-0.0031690736916734985,-0.0027435833900422944,-0.008728134817412523,0.011614121146430182,0.989428179801257
2011-06-29,0,0.0,0.0,-0.011648016468631417,0.011614121146430182,0.9870010098607827
2011-07-01,0,0.0,0.0,-0.012557624382943576,0.005454233788364931,0.987350464363235
2011-07-06,0,0.0,0.0,-0.01493377640593979,0.011614121146430182,0.9862914987269661
2011-07-08,0,0.0,0.0,-0.017970227734912934,0.005696983537223159,0.9861733159711401
2011-07-12,0,0.0,0.0,-0.02001376209111634,0.011614121146430182,0.9823903178426671
2011-07-14,0,0.0,0.0,-0.02017705190821436,0.012798127807526259,0.9782315407552076
2011-07-18,-1,-0.0037876838902319663,-0.0032227396702520133,-0.019402848645875024,0.017034291556872243,0.9775013615978683
2011-07-20,-1,-0.0031988462656878814,-0.002739944793058729,-0.019402848645875024,0.019574681936195236,0.9769693411588403
2011-07-22,-1,-0.002670347258648455,-0.0022796385228167374,-0.019402848645875024,0.020039724492403294,0.9766510497530748
2011-07-26,-1,-0.0017267549125194097,-0.0014758108315849744,-0.019402848645875024,0.020039724492403294,0.9769432478957415
2011-07-28,-1,-0.0033311549797940786,-0.002867292292246382,-0.01493377640593979,0.020039724492403294,0.9775357590415562
2011-08-01,-1,-0.003215823580510731,-0.002795231314736378,-0.014009319443024564,0.020897133598318875,0.9762619186539745
2011-08-03,-1,-0.0026938828004122593,-0.002358153141208933,-0.01121790464409749,0.02008793320980441,0.9774836592368712
2011-08-05,-1,-0.0034119356858944867,-0.002991659829717704,-0.01121790464409749,0.02008793320980441,0.9782304405062251
2011-08-09,-1,-0.004026193699893314,-0.003520881800679432,-0.007491900982836802,0.019237758125302595,0.9808884436673959
2011-08-11,-1,-0.00393344647739928,-0.003463510057667424,-0.006542465285231844,0.01797804190802449,0.986327287006441
2011-08-15,-1,-0.003309428492222872,-0.002918990486950236,-0.006542465285231844,0.016946520877268424,0.9881836687542442
2011-08-17,-1,-0.002530620713905524,-0.0022628164115942474,-0.0041172166398426675,0.016946520877268424,0.9880686299163673
2011-08-19,-1,-0.0017623554745283215,-0.0015692101907139352,-0.002713195679153209,0.01446526324295965,0.9894538972417235
2011-08-23,-1,-0.0014698392649257267,-0.0013147303625327671,-0.006542465285231844,0.013691960308927283,0.9887582925420385
2011-08-25,-1,-0.001443506251930549,-0.0013083286957503066,-0.006542465285231844,0.014444518118768073,0.9883842070725318
2011-08-29,-1,-6.975091878507505e-05,-6.3598909217680525e-06,-0.007395141118838865,0.008089869431752751,0.9892949928152555
2011-08-31,0,-1.2829318230732736e-05,2.687342891565886e-05,-0.010602805261859824,0.008089869431752751,0.9886583141912242
2011-09-02,-1,-0.00034572961489948167,-0.0003419567116317443,-0.012110580317040985,0.008089869431752751,0.987485805676283
2011-09-07,1,0.0001679649338417771,0.00023706398190078754,-0.012110580317040985,0.006400921295441663,0.986637840515424
2011-09-09,1,0.00010696131202916093,0.00018269806137707824,-0.012110580317040985,0.013272853842392416,0.9861494303682609
2011-09-13,1,0.0006574925435692758,0.0008523440638757505,-0.012110580317040985,0.013848912318356643,0.9848127542415999
2011-09-15,1,0.0014375293817238486,0.001718657073712014,-0.015011266805110852,0.005320908853204092,0.9850796665081138
2011-09-19,1,0.0012737944507175743,0.001554921703130417,-0.015702965222334265,0.013436720893218968,0.9836497301410498
2011-09-21,-1,-0.0003295768781196185,-0.00028352542820703436,-0.012029581535247916,0.014685161246099528,0.9845040510128946
2011-09-23,1,8.692265241601674e-05,0.00020652608029975828,-0.010602805261859824,0.013436720893218968,0.9856638385282336
2011-09-27,1,0.0002845283468701657,0.0004284842555910598,-0.010602805261859824,0.010793413044159482,0.9863128324703331
2011-09-29,1,0.00023571305865754727,0.00036637493606982163,-0.004471327850985064,0.013781368668482197,0.9851941660258621
2011-10-03,-1,-0.000378389422804041,-0.0002668475415629305,-0.004210326031368089,0.013781368668482197,0.9866232694961872
2011-10-05,1,0.0011177065071698246,0.0014551207712286405,-0.004210326031368089,0.010793413044159482,0.98859269101395
2011-10-07,1,0.0008783745965025483,0.0011156034449759608,-0.0038808529823214435,0.01143932501196182,0.988559926826263
2011-10-11,1,0.0017545573243540735,0.002101701081345067,-0.0038808529823214435,0.01143932501196182,0.9890717295379965
2011-10-13,1,0.0012783603728463478,0.00156402942741094,-0.003321230706618325,0.016296255013806032,0.9868405467264756
2011-10-17,1,0.00138207243872064,0.00167217149798832,-0.003321230706618325,0.012815047208565487,0.9871084316221553
2011-10-19,1,0.0023684098081355144,0.002782895856329403,-0.0055577810887034815,0.010278922410214972,0.9871820465325143
2011-10-21,1,0.0022926022727247325,0.0026672725595804003,-0.0055577810887034815,0.010278922410214972,0.9873690903808644
2011-10-25,1,0.002563080866591419,0.002980135119656887,-0.007946514948957265,0.008925119752572545,0.9868616282915307
2011-10-27,1,0.003980729427135329,0.004580437370415807,-0.007946514948957265,0.006936802487697502,0.9885573049890604
2011-10-31,1,0.0034202254544163126,0.003939082458414524,-0.006446212483046108,0.006936802487697502,0.9896052940138175
2011-11-02,1,0.004011973863637463,0.004605137130947243,-0.007013341718821911,0.008925119752572545,0.9885073014391672
2011-11-04,1,0.0045455964426431945,0.005225220146079045,-0.007013341718821911,0.008925119752572545,0.9889671125798292
2011-11-08,1,0.004785169711208369,0.005488167001084508,-0.007013341718821911,0.006381393686883953,0.989168521236426
2011-11-10,1,0.0015956781233615915,0.0018011525591658342,-0.006222833382175605,0.005520383087816796,0.9924326617920007
2011-11-14,0,0.0,0.0,-0.007013341718821911,0.004740866101667543,0.9919346364665143
2011-11-16,0,0.0,0.0,-0.006222833382175605,0.005520383087816796,0.9920274070714341
2011-11-18,0,0.0,0.0,-0.0072763776463457535,0.004380826925124429,0.9917737830243475
2011-11-22,0,0.0,0.0,-0.006868083932379329,0.004740866101667543,0.9906837479226777
2011-11-25,1,0.0023965407392034163,0.0027815729767094576,-0.006868083932379329,0.012193927099435379,0.9903956399283182
2011-11-29,1,0.002759401329801036,0.0032188149287302008,-0.007653387125567871,0.012193927099435379,0.9895540284285478
2011-12-01,1,0.0028998257289682503,0.003356005881042035,-0.009538293444378579,0.010179901999621611,0.9903711844750054
2011-12-05,1,0.002777530586603842,0.003167459893576461,-0.009538293444378579,0.010179901999621611,0.9893648094741387
2011-12-07,1,0.002275196260875365,0.0025463347896627284,-0.009538293444378579,0.010179901999621611,0.9892990615387764
2011-12-09,1,0.0023356880130362082,0.002619141420731782,-0.009538293444378579,0.010179901999621611,0.9894248176095672
2011-12-13,1,0.0016201140516900843,0.0018280348440919106,-0.007229747009012438,0.010179901999621611,0.9907235244617214
2011-12-15,1,0.0017852703087288743,0.0020537950724847844,-0.005628657662126597,0.008891500890379373,0.9915165026629302
2011-12-19,1,0.0008130743218996382,0.0008744021501821417,-0.003273208690292342,0.012616426458245567,0.9903171463574729
2011-12-21,1,0.0011797218122047808,0.0012784667120865098,-0.003273208690292342,0.010287924579122401,0.991867712871656
2011-12-23,0,0.0,0.0,-0.003273208690292342,0.008891500890379373,0.992035877170336
2011-12-28,0,0.0,0.0,-0.003273208690292342,0.007201160247401824,0.992177191153102
2011-12-30,1,0.0005484443453613215,0.0006308209707507925,-0.0008727083724963103,0.008999522430927066,0.9921700832621813
2012-01-04,0,0.0,0.0,-0.0008727083724963103,0.007201160247401824,0.9931683847406606
2012-01-06,0,0.0,0.0,-0.001443002448610443,0.008560836636701086,0.993239283611529
2012-01-10,0,0.0,0.0,-0.001443002448610443,0.008999522430927066,0.9920237052531393
2012-01-12,0,0.0,0.0,-0.0011857058330365577,0.011524851156606019,0.9917216702818802
2012-01-17,0,0.0,0.0,-0.0011857058330365577,0.011524851156606019,0.9917239686227307
2012-01-19,0,0.0,0.0,-0.0023765388286151115,0.008884138041524754,0.9895475807476265
2012-01-23,0,0.0,0.0,-0.0025380828048168803,0.008884138041524754,0.9896153549212894
2012-01-25,0,0.0,0.0,-0.0036832042447515886,0.005937273624504505,0.9901014532691998
2012-01-27,-1,-5.139616248960087e-05,-3.114365407225634e-05,-0.0040408417612587625,0.005937273624504505,0.9903291171279065
2012-01-31,1,0.002878318725299843,0.0031026837281390982,-0.0046445967295486315,0.005937273624504505,0.9893294243966608
2012-02-02,0,0.0,0.0,-0.0040408417612587625,0.008498316220447753,0.9894928637281403
2012-02-06,0,0.0,0.0,-0.0040408417612587625,0.007481604750816975,0.9897918491704722
2012-02-08,0,0.0,0.0,-0.0040408417612587625,0.004996682859310611,0.9908592172564541
2012-02-10,0,0.0,0.0,-0.0040408417612587625,0.003916853897861931,0.9914324490993518
2012-02-14,0,0.0,0.0,-0.0036832042447515886,0.007308609004241695,0.9910476475139466
2012-02-16,0,0.0,0.0,-0.0036832042447515886,0.004633084326298382,0.9946040395493104
2012-02-21,0,0.0,0.0,-0.002717722110149043,0.005619366812522758,0.9944720803123306
2012-02-23,0,0.0,0.0,-1.421938336389054e-05,0.005619366812522758,0.9944863983810391
2012-02-27,0,0.0,0.0,0.0008692730878901538,0.007308609004241695,0.9942072378415722
2012-02-29,0,0.0,0.0,0.0008692730878901538,0.005619366812522758,0.9943395374622929
2012-03-02,1,0.001944117291873613,0.0020024557861530543,5.6519416372338184e-05,0.004124415215599314,0.995028462530498
2012-03-06,1,0.0022868386924526263,0.002424022464314774,5.6519416372338184e-05,0.005509530196630711,0.9945318131040668
2012-03-08,1,0.0017082799502853212,0.001730748062698999,5.6519416372338184e-05,0.005604905229569572,0.9941842303035351
2012-03-12,0,0.0,0.0,-0.00330317952631425,0.005604905229569572,0.9927560954084267
2012-03-14,0,0.0,0.0,-0.00330317952631425,0.005142489379469976,0.9927682896584312
2012-03-16,1,0.0030388428552444104,0.003052364978673269,-0.00330317952631425,0.005142489379469976,0.9936202299286232
2012-03-20,1,0.0036450028750486295,0.0037213600966564337,-0.00330317952631425,0.005440391926935487,0.9934642231433165
2012-03-22,1,0.003990443211218038,0.004202116582742027,-0.00330317952631425,0.005440391926935487,0.9932992424993485
2012-03-26,1,0.0036950703101825523,0.003819004878428789,-0.004407555308771615,0.005286636058795221,0.9927460001632178
2012-03-28,1,0.002135119141448723,0.002189232923937884,-0.00330317952631425,0.005773542955672063,0.9929174235936452
2012-03-30,1,0.002871407186674753,0.0029251906323165587,-0.00330317952631425,0.006319886145410649,0.9928928552367812
2012-04-03,1,0.0033170100115232186,0.0034769355157235216,-0.004407555308771615,0.006319886145410649,0.99197121213598
2012-04-05,1,0.0036849881986818914,0.00394277161312583,-0.005286506219281814,0.006319886145410649,0.9909143276607486
2012-04-10,1,0.001796272651696401,0.0018365978955696494,-0.005286506219281814,0.006319886145410649,0.9914475504716909
2012-04-12,1,0.0018512535574869917,0.001919016463694698,-0.0062260144424854755,0.005440391926935487,0.9916414224253887
2012-04-16,1,0.0018823940199846154,0.001949106529536498,-0.008332721514699024,0.005440391926935487,0.9880800307707334
2012-04-18,0,0.0,0.0,-0.01240404067777709,0.006116308082895268,0.9874043788209292
2012-04-20,0,0.0,0.0,-0.016647888921727798,0.006116308082895268,0.9816482235336966
2012-04-24,0,0.0,0.0,-0.01558505300780883,0.009238829336536138,0.9798224416993093
2012-04-26,0,0.0,0.0,-0.01558505300780883,0.010855868531778612,0.9784868208726865
2012-04-30,0,0.0,0.0,-0.01558505300780883,0.010755046533502448,0.9784377672966744
2012-05-02,1,0.9715047976382065,0.9745486455293402,-0.016647888921727798,0.008034169932381862,0.504992932476561
2012-05-04,0,0.0,0.0,-0.01778916989157516,0.008034169932381862,0.9779507153253298
2012-05-08,-1,-0.0005336628372092052,-0.0002116092261577956,-0.016941026761084374,0.01390124510193105,0.9771038714788345
2012-05-10,-1,-0.0008829997037768256,-0.0005063479690019289,-0.016941026761084374,0.01390124510193105,0.9772145521081348
2012-05-14,0,0.0,0.0,-0.016941026761084374,0.016728867086586552,0.9785588028146373
2012-05-16,0,0.0,0.0,-0.02232194569795231,0.016728867086586552,0.9779784637125665
2012-05-18,0,0.0,0.0,-0.012385649652558079,0.016728867086586552,0.9825531351209502
2012-05-22,0,0.0,0.0,-0.01569426054971227,0.014304140212916813,0.9840473621534607
2012-05-24,0,0.0,0.0,-0.02395684660256241,0.010213008154182844,0.9850280442427118
2012-05-29,-1,-0.0024232464204798983,-0.0017351112040259245,-0.02395684660256241,0.008808913509805304,0.9847321078553365
2012-05-31,-1,-0.003137018153066351,-0.002425403007462631,-0.022178557876204114,0.008808913509805304,0.9859432464149371
2012-06-04,-1,-0.005459353877300817,-0.004573802838585024,-0.01510149764092617,0.011214502078320119,0.9846213568278849
2012-06-06,-1,-0.004227864994364434,-0.003484896624858787,-0.01510149764092617,0.008808913509805304,0.9857681324007989
2012-06-08,0,0.0,0.0,-0.01510149764092617,0.011214502078320119,0.9848821938930044
2012-06-12,0,0.0,0.0,-0.012278382576686203,0.008487476696307578,0.9861220866170785
2012-06-14,0,0.0,0.0,-0.01011523483953649,0.011214502078320119,0.9868144547977158
2012-06-18,0,0.0,0.0,-0.01011523483953649,0.01161055570546249,0.9861619542541705
2012-06-20,0,0.0,0.0,-0.008415799154905642,0.017057155478523305,0.9859648727669096
2012-06-22,0,0.0,0.0,-0.008676892964324083,0.017057155478523305,0.9867737780568068
2012-06-26,0,0.0,0.0,-0.007855345826403426,0.018159458836796927,0.9870835007983166
2012-06-28,0,0.0,0.0,-0.008149227721231889,0.018159458836796927,0.9850926376091835
2012-07-02,0,0.0,0.0,-0.007942377096209574,0.01557373968023536,0.9866166041109382
2012-07-05,0,0.0,0.0,-0.011594435406336557,0.012313294184334786,0.9858909313321897
2012-07-09,0,0.0,0.0,-0.011594435406336557,0.01376204670436596,0.9853909995817222
2012-07-11,0,0.0,0.0,-0.009169959819924106,0.01629956258549353,0.9852053451517735
2012-07-13,0,0.0,0.0,-0.011966020554256475,0.01376204670436596,0.9841493462760156
2012-07-17,-1,-0.002517392295241984,-0.002297445970989833,-0.009169959819924106,0.01376204670436596,0.9846372464082167
2012-07-19,-1,-0.0020048812121054274,-0.001825294841576498,-0.009169959819924106,0.01376204670436596,0.9848265069849308
2012-07-23,0,-4.839304020939962e-05,2.82956256993946e-05,-0.009219161251994389,0.01376204670436596,0.9848522535843969
2012-07-25,1,0.0006699315176342268,0.0007110127461328546,-0.006042716753448065,0.011751227687157813,0.9858046183173637
2012-07-27,-1,-0.0006952252750083844,-0.0005800929289461638,-0.0033808367785275752,0.011751227687157813,0.987557191874843
2012-07-31,-1,-0.0002985670077701087,-0.00022845305253648234,-0.004473043276390684,0.010748347304258478,0.9875147696883261
2012-08-02,-1,-0.0014015564987082348,-0.0012220912735403586,-0.00396283778520081,0.010748347304258478,0.9886357718292289
2012-08-06,1,0.0003750272237611941,0.0004453787850103181,-0.006389345804550371,0.009102005539896943,0.9898013985564856
2012-08-08,1,0.0008452426943536797,0.0009583481159816985,-0.006389345804550371,0.009102005539896943,0.9902655045434894
2012-08-10,1,0.0002256978947084137,0.0002819779562067944,-0.007627086576340201,0.0078045110186504285,0.9914733437325316
2012-08-14,0,0.0,0.0,-0.007627086576340201,0.006629337070467756,0.9923929693444857
2012-08-16,0,0.0,0.0,-0.009785378848790964,0.003497887754822024,0.9918101631254654
2012-08-20,0,0.0,0.0,-0.008194077442753895,0.0017505389055398237,0.9927355720180026
2012-08-22,0,0.0,0.0,-0.008194077442753895,0.003235143012163323,0.9920613763587247
2012-08-24,1,0.002717253118476014,0.0031345756632590854,-0.009573902291562334,0.003235143012163323,0.9901731439833229
2012-08-28,1,0.0028074285713819425,0.0032431158973680665,-0.009573902291562334,0.0022037341267696076,0.9905446312129123
2012-08-30,1,0.000758381041394811,0.001032662048450244,-0.009573902291562334,0.004617284161497083,0.9919820274670503
2012-09-04,1,0.0015459678861975917,0.0018321016680022846,-0.007947391287884357,0.00554555837460239,0.9917745132397693
2012-09-06,1,0.0020391495671431433,0.0023873643903612497,-0.007947391287884357,0.00554555837460239,0.9911968396559911
2012-09-10,1,0.0016207789784688882,0.001938355380348491,-0.006130263526317692,0.008246140495929314,0.9918591323531649
2012-09-12,1,0.0021000731811890777,0.002483933415164624,-0.009238313477995471,0.006123729880574871,0.991087837869662
2012-09-14,1,0.0006038598637857437,0.0007454953324749271,-0.007937036600488813,0.006123729880574871,0.9921288092261272
2012-09-18,1,0.0012104346500374581,0.0014968665481772522,-0.007937036600488813,0.006449122114153352,0.9920602614601535
2012-09-20,1,0.0022282842418035135,0.0026614364831306983,-0.007937036600488813,0.004890311649797275,0.9928344311108486
2012-09-24,1,0.0015628721613563815,0.001936243530099209,-0.006829451815509648,0.004890311649797275,0.9922974503707792
2012-09-26,1,0.0014865270332407154,0.001779650529464169,-0.006829451815509648,0.00557694723362925,0.9915382643668833
2012-09-28,1,0.0017472377475702145,0.002051678715462505,-0.006829451815509648,0.006449122114153352,0.9910167454443414
2012-10-02,1,0.0018951524550432225,0.0022188476962502063,-0.006802248495239917,0.011655282877714977,0.985042749626996
2012-10-04,1,0.0009458106751198128,0.001007584634360662,-0.007937036600488813,0.010266570849373626,0.9849772719306313
2012-10-08,0,0.0,0.0,-0.008582943188805672,0.006990214905230491,0.984996209642842
2012-10-10,0,0.0,0.0,-0.007807602667492827,0.006990214905230491,0.9851948378393174
2012-10-12,-1,-0.0016982060524852185,-0.00144926221312483,-0.005019885574128375,0.010884452854199228,0.9853219527205971
2012-10-16,-1,-0.00016076673881800042,-0.0001084801579832615,-0.0070175506913455355,0.010884452854199228,0.98467348185996
2012-10-18,1,0.00030869315989164123,0.0004628311333807647,-0.007919814160285586,0.011874169845987175,0.9838950845418439
2012-10-22,-1,-0.0010912985141990094,-0.0010326372075223963,-0.006839652326170837,0.011874169845987175,0.9854255429119676
2012-10-24,-1,-0.0014337480131789149,-0.001276461424484695,-0.007919814160285586,0.011874169845987175,0.9854259980123083
2012-10-26,1,0.001417115582564041,0.0015533481393278682,-0.009123524032016937,0.011874169845987175,0.9840412260400268
2012-11-01,1,0.007902169259411397,0.008810785075164959,-0.011467297947884973,0.005267891474767021,0.9846660389633808
2012-11-05,1,0.007382023115949061,0.008187134680540588,-0.010880982652858034,0.0011065007338444816,0.9847070972238805
2012-11-07,1,0.006159627069747911,0.006732843783101236,-0.010880982652858034,0.0011065007338444816,0.9857425137030469
2012-11-09,0,0.0,0.0,-0.010612075010026612,0.005597797138696337,0.9888153441807301
2012-11-13,1,0.002582586972041474,0.002882000004864019,-0.010612075010026612,0.002242655408811494,0.988394523551461
2012-11-15,0,0.0,0.0,-0.00844406289826444,0.003374322166733871,0.990054320450188
2012-11-19,0,0.0,0.0,-0.007156342149024228,0.003374322166733871,0.9905900444848584
2012-11-21,0,0.0,0.0,-0.010612075010026612,0.002165460055526194,0.9900316426575028
2012-11-26,0,0.0,0.0,-0.010612075010026612,0.002165460055526194,0.9899556156687626
2012-11-28,0,0.0,0.004733792887705442,-0.007156342149024228,0.002165460055526194,0.991742421013225
2012-11-30,0,0.0,0.0,-0.00465459486376623,0.004057108566052028,0.9936598705610789
2012-12-04,0,0.0,0.0,-0.003743562523765064,0.004057108566052028,0.9941110580467114
2012-12-06,-1,-0.0003805824957051333,-0.0003416190191380047,-0.0036934716760809775,0.006567228110156146,0.9934517887274029
2012-12-10,1,8.852747847911003e-05,0.00012067057526089402,-0.003761628518209204,0.004057108566052028,0.99349702043098
2012-12-12,1,6.784454516013613e-05,0.00010357544518252506,-0.005150537741644166,0.006567228110156146,0.9928207051871628
2012-12-14,1,0.003789508587677915,0.003905707845381026,-0.003761628518209204,0.007289741472037546,0.9923697814429511
2012-12-18,0,0.0,0.0,-0.00406646496531604,0.007289741472037546,0.9925300178459703
2012-12-20,0,0.0,0.0,-0.0027562757750327575,0.007289741472037546,0.9929155421389843
2012-12-24,0,0.0,0.0,-0.0006357739060474217,0.007800347615046867,0.9936261816513684
2012-12-27,0,0.0,0.0,0.0006133883392983911,0.007800347615046867,0.9936585481204648
2012-12-31,0,0.0,0.0,-0.003497428376597581,0.005217463105836531,0.99277773602354
2013-01-03,-1,-0.00044603216019753684,-0.0003778499914488391,-0.003497428376597581,0.005217463105836531,0.9926532725188498
2013-01-07,-1,-0.000184798938149327,-0.00011343664989633202,-0.005027404028504068,0.005217463105836531,0.9920281135955439
2013-01-09,-1,-0.00032257413737218785,-0.0002771066166952732,-0.00411413595276935,0.007800347615046867,0.9898068994972218
2013-01-11,1,0.0002896365120200967,0.00035527610175195123,-0.00411413595276935,0.009075555552775939,0.9893709739657168
2013-01-15,1,0.0002588391414992333,0.0002882987948059657,-0.00411413595276935,0.005791623506796725,0.9898895477158278
2013-01-17,1,0.00021408054460056217,0.00024355076658487372,-0.00249712975745757,0.005791623506796725,0.9899226672205728
2013-01-22,1,0.00043734573924919854,0.0004997141583330934,-0.005403288324261236,0.009075555552775939,0.9885981981743541
2013-01-24,1,0.0007238833003699806,0.0008230415633309106,-0.005766942747648974,0.00582292754249932,0.9888507303005166
2013-01-28,1,0.0010935239426124272,0.0012174226626954182,-0.01153487179542868,0.0031860296438080467,0.9880005809969159
2013-01-30,1,1.811459934711203e-05,4.931818314392584e-05,-0.007530666250963638,0.0031860296438080467,0.9889274193299342
2013-02-01,1,0.0005597895119669932,0.000636263568621311,-0.007530666250963638,0.005658339444825427,0.9886536050538789
2013-02-05,1,0.00032124465388731245,0.0003412463795283376,-0.007349542582307784,0.0031860296438080467,0.9897062504341547
2013-02-07,0,0.0,0.0,-0.007349542582307784,0.0031860296438080467,0.9923748601784244
2013-02-11,0,0.0,0.0,-0.006652580052804261,0.0031860296438080467,0.993267266958466
2013-02-13,1,0.002027286178373112,0.0020613685078226746,-0.010187578166429498,0.003555675860292352,0.9917207205363457
2013-02-15,1,0.0023157851294241787,0.0024360721302175803,-0.010187578166429498,0.008628269020510984,0.9901507666385779
2013-02-20,1,0.002122805141375029,0.002160050102521276,-0.008356606907361602,0.008228491628153319,0.9914885671992026
2013-02-22,1,0.001783106208744347,0.0017985504928819825,-0.008356606907361602,0.008228491628153319,0.9915219591782748
2013-02-26,0,0.0,0.0,-0.0024636339025361485,0.008990158070250451,0.9919662821586567
2013-02-28,0,0.0,0.0,-0.002236636277862221,0.009858934301714199,0.9920401807571303
2013-03-04,1,0.0009277011146528067,0.0009843222898135867,-0.0024636339025361485,0.009858934301714199,0.9921301865234192
2013-03-06,1,0.0002769562124876959,0.00027717066302007995,-0.0024636339025361485,0.009858934301714199,0.9921502311310987
2013-03-08,1,0.0007053855600502061,0.0007407851646431032,-0.003801377632124252,0.009858934301714199,0.9916183755726374
2013-03-12,1,0.00042396226018696486,0.0004558583662582678,-0.004916454794112359,0.012600302178225596,0.9894207867877854
2013-03-14,1,0.0006193528701697571,0.0006221970430989648,-0.004916454794112359,0.012600302178225596,0.9893125486325008
2013-03-18,0,0.0,0.0,-0.00799793385027691,0.006718611958002226,0.9900071384320677
2013-03-20,0,0.0,0.0,-0.009247668887367694,0.006718611958002226,0.9895333372868423
2013-03-22,0,0.0,0.0,-0.010888413747296235,0.009858934301714199,0.9886313735143671
2013-03-26,0,0.0,0.0,-0.010888413747296235,0.00895874920062343,0.9884246779271361
2013-03-28,0,0.0,0.0,-0.010888413747296235,0.009065345306779946,0.9879227364868406
2013-04-02,0,0.0,0.0,-0.010888413747296235,0.010968667380759667,0.9878436085135744
2013-04-04,0,0.0,0.0,-0.010888413747296235,0.010968667380759667,0.9878971686087816
2013-04-08,0,0.0,0.0,-0.008748027970201595,0.010968667380759667,0.9886133489521516
2013-04-10,1,0.0016299344486842646,0.0018727803564076466,-0.00605069843479749,0.008507753782824881,0.9910885968954882
2013-04-12,1,0.001311822818151504,0.0014868731743986827,-0.004868218627253706,0.00801314861728017,0.9920575805676445
2013-04-16,0,0.0,0.0,-0.004782790471256929,0.008875141924781123,0.9919940113498368
2013-04-18,0,0.0,0.0,-0.0017169630875183625,0.008875141924781123,0.9922282246785539
2013-04-22,0,0.0,0.0,-0.00044669361390764863,0.008451187833495289,0.9927560038249704
2013-04-24,-1,-0.0009378049377276869,-0.0007759879098467148,-0.0017169630875183625,0.00801314861728017,0.9926547347523469
2013-04-26,1,0.0014061689812523118,0.0015261456974974348,-0.0051187923563914915,0.00769392396990478,0.9929571889483527
2013-04-30,1,0.0014293489293360816,0.0015342271691546842,-0.00608293233991964,0.006020094711322369,0.9924059975346747
2013-05-02,0,0.0,0.0,-0.007077849777710297,0.005040727667967005,0.9922383313100781
2013-05-06,1,0.0014853024167605618,0.0015972223728799987,-0.007139497228771444,0.00769392396990478,0.9914099811309157
2013-05-08,1,0.0014441417295524104,0.001547717741871729,-0.007139497228771444,0.007816386683890194,0.9907863427382667
2013-05-10,0,0.0,0.0,-0.008230292069239403,0.00788703775814907,0.990472038395638
2013-05-14,1,0.0015451934464071517,0.001652609721864668,-0.009006689836640502,0.005040727667967005,0.9903575744463742
2013-05-16,1,0.0010148922202716426,0.0010251115362159178,-0.008230292069239403,0.00555008537863369,0.9907405887155073
2013-05-20,1,0.0010099771245608998,0.0010228049973736663,-0.008230292069239403,0.00555008537863369,0.9905527715994376
2013-05-22,1,0.0007516524161827028,0.000790588660911442,-0.008230292069239403,0.0046197338066801,0.9908709724335427
2013-05-24,1,0.00010044856097081038,0.00020663733602651815,-0.0071632904114777626,0.0046197338066801,0.9908877602107515
2013-05-29,-1,-0.00038211995038587855,-0.00022049876250126928,-0.0071632904114777626,0.006801755050747873,0.9903217061148736
2013-05-31,-1,-0.0004952528188368111,-0.00033347075202662,-0.0071632904114777626,0.012750310212597043,0.9897779236919354
2013-06-04,0,0.0,0.0,-0.00690570639354462,0.00992676433244111,0.9899600162682325
2013-06-06,-1,-0.0004567216281659778,-0.0003154802453539346,-0.00690570639354462,0.007614607942046549,0.9906017705928598
2013-06-10,0,0.0,0.0,-0.006268519462867092,0.007614607942046549,0.9906352419062965
2013-06-12,0,0.0,0.0,-0.005609270790169095,0.007614607942046549,0.9911116281278717
2013-06-14,-1,-0.0005107311289264577,-0.0003506427750497005,-0.005609270790169095,0.008658836242895972,0.9910300663825429
2013-06-18,1,0.0001938489115507695,0.000257303722301009,-0.007531185003290284,0.007544124187337336,0.9906584759016177
2013-06-20,-1,-0.00021925838946175154,-0.0001165953137153968,-0.006268519462867092,0.008658836242895972,0.9908260737556306
2013-06-24,-1,-0.0016909111657670236,-0.001364620522921487,-0.005198761119267341,0.008658836242895972,0.9918751807313592
2013-06-26,-1,-0.0016057855602359286,-0.0012887993752607168,-0.005198761119267341,0.008494467476921624,0.9924913239704328
2013-06-28,-1,-0.0012117439656992315,-0.0009390698729103526,-0.005198761119267341,0.00751282918358229,0.9931319503688922
2013-07-02,-1,-0.0015376534218711334,-0.0013091880745683651,-0.004165539755788901,0.0067254284085264335,0.9934678935523994
2013-07-05,0,-5.921775423013969e-05,2.4150930659018265e-05,-0.004165539755788901,0.007042209505054529,0.9935953718634917
2013-07-09,1,0.0002548068184492389,0.0002915494102889269,-0.003574167097539177,0.0054733066626791605,0.9943453690338458
2013-07-11,1,2.2654978933517843e-06,6.90609264102079e-05,-0.0047577267152675755,0.0054733066626791605,0.9937556715826372
2013-07-15,1,0.0003239494241088008,0.00035167642732876773,-0.00799726953310609,0.0054733066626791605,0.9928085022769468
2013-07-17,-1,-0.0007345646065976524,-0.0005762785070557671,-0.0047577267152675755,0.007042209505054529,0.9923589866455821
2013-07-19,-1,-0.0011020105440265418,-0.0008518286878448312,-0.009167656905273162,0.0054733066626791605,0.9916276496712801
2013-07-23,-1,-0.001194272931238943,-0.0009128006510090928,-0.009167656905273162,0.005946960985383177,0.990964251142166
2013-07-25,-1,-0.001352198516606535,-0.0010686689649234847,-0.00799726953310609,0.004014573416325827,0.991890227998323
2013-07-29,-1,-0.0016501931025854665,-0.0013083199185594378,-0.00799726953310609,0.005586355094733829,0.9914281694852876
2013-07-31,-1,-0.0014439658238362078,-0.001140972222936625,-0.009167656905273162,0.003661959567377712,0.9906130453146351
2013-08-02,-1,-0.0009623268711319049,-0.0007258020073372342,-0.010806139003183926,0.0013990428723421188,0.990409479230149
2013-08-06,-1,-0.0010280112062346115,-0.0007936594528305499,-0.010806139003183926,0.0013990428723421188,0.9903372779097793
2013-08-08,-1,-0.0008694569087483097,-0.0007185344430284912,-0.011217694368144042,0.002572510060279475,0.9903887032883191
2013-08-12,0,0.0,0.0,-0.011217694368144042,0.0040873048770103506,0.9904392539179399
2013-08-14,0,0.0,0.0,-0.011905298082785877,0.003554258386284044,0.9913371261895445
2013-08-16,-1,-0.0009585000136886571,-0.0008258943701158574,-0.007105120308479357,0.004322450321560178,0.9920426497288863
2013-08-20,-1,-0.0002799482579958066,-0.0002436903545832534,-0.007105120308479357,0.004322450321560178,0.9927746259407396
2013-08-22,-1,-0.0001523049213501879,-0.0001370320896016487,-0.007105120308479357,0.004376552913879821,0.9926472136581563
2013-08-26,1,8.431422078845363e-05,8.955635525139533e-05,-0.010871083139744435,0.004301279083424256,0.9927362631404913
2013-08-28,-1,-0.001065199804934218,-0.0008970979355740868,-0.005382223650527806,0.004376552913879821,0.9927325288177333
2013-08-30,-1,-0.001413241022995009,-0.0012160484863366207,-0.0014629896343605878,0.0048341287764783,0.9927105260472412
2013-09-04,-1,-0.0012381002320799902,-0.0010703319101566973,-0.0031329979499356985,0.005677846428800553,0.9919727605197388
2013-09-06,-1,-0.0019064681540731498,-0.0016418372273164935,-0.0027361819066710337,0.0068180596756272135,0.9912460756912513
2013-09-10,-1,-0.0013230070982754418,-0.0010928429532801854,-0.009253957500245262,0.0048341287764783,0.9918442802760062
2013-09-12,-1,-0.0017708901108841974,-0.001491190635021497,-0.009047709038410628,0.005923653513234953,0.9913591788919408
2013-09-16,-1,-0.001294042947415461,-0.0011169580404741103,-0.00876212144239166,0.008085584598502851,0.991020789253806
2013-09-18,-1,-0.0005425427567458234,-0.00048394190380001643,-0.009047709038410628,0.011103082000761186,0.9861280043578012
2013-09-20,-1,-1.918461047775772e-05,-4.298325158780982e-06,-0.009047709038410628,0.015263531018624063,0.985175209790534
2013-09-24,-1,-2.945513948545349e-05,-1.506492780188897e-05,-0.00876212144239166,0.015263531018624063,0.9856221266783013
2013-09-26,1,0.0002459639303072507,0.0003029306960290753,-0.00876212144239166,0.012073241766352659,0.9859721934762734
2013-09-30,1,0.00038229693859686924,0.0004505822598384363,-0.009047709038410628,0.015263531018624063,0.9841829875717816
2013-10-02,1,0.00035904229440251437,0.0004303621068557724,-0.00876212144239166,0.015263531018624063,0.9846317728829336
2013-10-04,1,0.0006465657781473098,0.0007675884625564866,-0.008376160577250408,0.012073241766352659,0.9850712519476925
2013-10-08,-1,-0.00012522264174255545,-0.00011948641728294787,-0.005711294398771487,0.012073241766352659,0.9858174625921137
2013-10-10,1,0.0004975132670096537,0.0005976925424744919,-0.0070869755402180185,0.010732889268227103,0.985770601166272
2013-10-14,1,0.0005062161227386909,0.0005832264484145087,-0.0070869755402180185,0.010732889268227103,0.9854648694787955
2013-10-16,1,0.0010611411724955396,0.0012089788436850514,-0.005711294398771487,0.008179315581919328,0.9906579953406314
2013-10-18,1,0.0017774383523354543,0.0019980462845055787,-0.0070869755402180185,0.004488314197596768,0.9910986671554655
2013-10-22,1,0.0014816726280268968,0.0016510222516451442,-0.008069283817532358,0.004488314197596768,0.9901045186902119
2013-10-24,1,0.0017853913061934572,0.0019981673462983506,-0.008069283817532358,0.00506026551065554,0.98941647331544
2013-10-28,1,0.0016771250748650593,0.001907228279518774,-0.007673363392907492,0.004488314197596768,0.9917038122736621
2013-10-30,1,0.001669225675187637,0.0018772517019335733,-0.007673363392907492,0.005413155815960934,0.9916097053667481
2013-11-01,1,0.0016840688485966393,0.0018868436225283648,-0.007673363392907492,0.005413155815960934,0.9908869330087634
2013-11-05,1,0.0015885329961557067,0.0017745221862376379,-0.008518541307095829,0.008184417442939315,0.9887936084339481
2013-11-07,1,0.001095494858964835,0.0012426676527369767,-0.007398553887459759,0.008184417442939315,0.9895188639912399
2013-11-11,1,0.0017559163034132532,0.001966660435028889,-0.007398553887459759,0.008184417442939315,0.9882633627337748
2013-11-13,1,0.0015814025579283784,0.0017430033210929573,-0.008518541307095829,0.00963615725775098,0.987101663041639
2013-11-15,1,0.0014216350717486676,0.0015437386081283786,-0.007891382420593174,0.014859822853520529,0.9865931094236282
2013-11-19,1,0.0010199444811810473,0.001113080620789284,-0.005757333167904135,0.014859822853520529,0.9871226920018291
2013-11-21,1,0.0013654574573399188,0.001494278856414709,-0.007245327815956105,0.010112893371537257,0.9876703499246698
2013-11-25,1,0.0016212523541427391,0.0018062377591732321,-0.007245327815956105,0.010112893371537257,0.9875571058947493
2013-11-27,1,0.001673412790515819,0.0018579927713669132,-0.007245327815956105,0.008379343876613635,0.9879852463497236
2013-12-02,1,0.0017800015851257497,0.001971550407854624,-0.005757333167904135,0.008379343876613635,0.9888561975259271
2013-12-04,1,0.0018672211817456926,0.0020856821695836116,-0.005757333167904135,0.008379343876613635,0.9896210302510555
2013-12-06,1,0.0012382233170941004,0.0013327968050030879,-0.005813160058568032,0.009036484598436534,0.9892177771997249
2013-12-10,1,0.001972841244264172,0.0021815118672077576,-0.0075034066200807895,0.009036484598436534,0.9908583049696895
2013-12-12,1,0.0020605339692394997,0.0022761531289779533,-0.0075034066200807895,0.009965998585456527,0.9908652383064092
2013-12-16,1,0.0019947613859140523,0.002201577787981292,-0.0075034066200807895,0.009965998585456527,0.9905172958594741
2013-12-18,1,0.0020106665346302506,0.0022119892948008163,-0.003922518324249764,0.009965998585456527,0.9910465889223841
2013-12-20,1,0.001874179545075281,0.0020542547983127685,-0.002907463494683302,0.009965998585456527,0.991368808056463
2013-12-24,1,0.002050740030376884,0.0022658146515431377,-0.004730036527780379,0.009965998585456527,0.9906308545354928
2013-12-27,1,0.0016096794311961382,0.001757462300547654,-0.005694458649535569,0.009965998585456527,0.9904117074700265
2013-12-31,1,0.001499159782974826,0.0015983185781856075,-0.007954644435142653,0.011201544377957375,0.9894489154726648
2014-01-03,1,0.0016325122225099944,0.0017617617263976303,-0.008223308602407754,0.008306978210153998,0.9889754617926932
2014-01-07,1,0.001975356637860968,0.0021519491609131415,-0.005694458649535569,0.005404396273126161,0.9897908900090238
2014-01-09,1,0.0013149412575225502,0.0013424539650547641,-0.00403645573879898,0.005404396273126161,0.9859585921043288
2014-01-13,1,0.0015245303606056515,0.001588885798015572,-0.00403645573879898,0.005404396273126161,0.985905580457539
2014-01-15,1,0.0016322365133408742,0.0016967280536829186,-0.004120137439417472,0.005404396273126161,0.9866549460544646
2014-01-17,1,0.0017328504794191584,0.0018079401175847738,-0.004489551793042188,0.007662686404119937,0.986239983923343
2014-01-22,1,0.0011410877516906733,0.0011643901314979162,-0.005426655059157691,0.009016137278387846,0.9858410602475934
2014-01-24,1,0.0010351936576350632,0.0010734544781979714,-0.005426655059157691,0.009016137278387846,0.9860199649922208
2014-01-28,1,0.0010649010259875876,0.0010908574095844297,-0.007004274576206428,0.009016137278387846,0.98611822529841
2014-01-30,1,0.00046869736985789866,0.0005878703970653398,-0.006207371161112716,0.009016137278387846,0.9865040597801009
2014-02-03,-1,-0.0003344538740433945,-0.0001552841298076644,-0.006207371161112716,0.009016137278387846,0.9881030786886525
2014-02-05,1,0.0002107639199336491,0.0003519441763604439,-0.006600070246302372,0.009468432702172794,0.9876291901151183
2014-02-07,1,0.0013692946768247445,0.0013719690000362377,-0.006600070246302372,0.008704496991312332,0.9923415786965785
2014-02-11,1,0.0015532975188460466,0.0015882461358260468,-0.006172732358224089,0.004255087579408921,0.9935599060185828
2014-02-13,1,0.0014395467727792725,0.0014602118898372517,-0.006600070246302372,0.002438624739328029,0.99341019947192
2014-02-18,1,0.0012152061523518273,0.0012336709100086692,-0.006600070246302372,0.002438624739328029,0.9933204204982332
2014-02-20,1,0.0013318445868759038,0.0013325288487973828,-0.006900358167540546,0.001963030950747458,0.9935873319852854
2014-02-24,1,0.0009656287610560712,0.0009946198497885975,-0.006900358167540546,0.001963030950747458,0.9931253960583517
2014-02-26,1,0.0009599049427387394,0.001004300183853623,-0.007044052041022461,0.00140832316795721,0.9927644753923844
2014-02-28,1,0.0009574827668297931,0.0010076677016841772,-0.007044052041022461,0.002918962734824932,0.9933216367237406
2014-03-04,1,0.00011223209271787578,0.0002843600325330029,-0.006557982828066143,0.006890066656369355,0.992968651112471
2014-03-06,1,0.0005334899885295573,0.0006436864807364495,-0.004358402907206044,0.0059802631670705444,0.9933232103836026
2014-03-10,1,0.00034226328267936645,0.000471573867245102,-0.009694880612181662,0.0059802631670705444,0.9900741342200435
2014-03-12,1,0.0009336596473990748,0.00101653841845676,-0.009694880612181662,0.008989323696885963,0.988842647908445
2014-03-14,1,0.0010526743775749808,0.001067962836068474,-0.01174097426022608,0.008989323696885963,0.9873652694901209
2014-03-18,1,0.0011627381254792624,0.0011776393597305048,-0.01174097426022608,0.008351523462395207,0.987729038497179
2014-03-20,1,0.0009383736970805939,0.0009703824633374245,-0.010082140383923565,0.009747554832371975,0.9871146562790086
2014-03-24,1,0.0004854391413345606,0.000573341435598751,-0.007202108963899579,0.008989323696885963,0.9880884295199016
2014-03-26,0,-3.4575497878577084e-05,0.00012205290783385636,-0.0032051304631085294,0.008989323696885963,0.9885001476458337
2014-03-28,1,0.00048332137412921723,0.0005778196402405166,-0.006213886132250636,0.008351523462395207,0.988357663877888
2014-04-01,1,0.0004940193083585588,0.0006087250493185296,-0.01343754360186514,0.008351523462395207,0.9880942237675722
2014-04-03,-1,-0.0004318795055451276,-0.00015543265852963094,-0.01343754360186514,0.008351523462395207,0.9878886421210764
2014-04-07,-1,-0.0020207487377749012,-0.001613393280235492,-0.004702195332816129,0.008351523462395207,0.9902808680193369
2014-04-09,-1,-0.0008437794150464502,-0.0005695251423551206,-0.0062255928915800705,0.007079097241440676,0.9903943317687146
2014-04-11,-1,-0.0025720837544722748,-0.0020888908609224682,-0.003032306114845063,0.008911194348834726,0.9907531813813226
2014-04-15,-1,-0.0026607733578650054,-0.0021230223409167454,-0.004702195332816129,0.007818274831202699,0.9909338374989468
2014-04-17,-1,-0.0015589972373607492,-0.0011978458972891463,-0.0062255928915800705,0.006080245861926679,0.9911464716431294
2014-04-22,-1,-0.0019307374444332453,-0.0015234814390861144,-0.006372041548783923,0.007249029491269368,0.9908880714038898
2014-04-24,-1,-0.001098525308121285,-0.0008052422292830898,-0.006372041548783923,0.007249029491269368,0.9909666160655437
2014-04-28,-1,-0.0014482120229384523,-0.0011234597299370022,-0.006372041548783923,0.006743535605532687,0.9909851307772596
2014-04-30,-1,-0.001037698704524169,-0.0007770663901593246,-0.005472463592459637,0.006743535605532687,0.9915816353505021
2014-05-02,-1,-0.0015141040338658499,-0.0011763002041859714,-0.005472463592459637,0.008960673582410051,0.9910356318676058
2014-05-06,-1,-0.0010401649798252185,-0.0008186585405606741,-0.0034427828080951,0.009421066109088041,0.9905287582393407
2014-05-08,-1,-0.0006045905021343045,-0.0004343273085447134,-0.0023202493886879537,0.008960673582410051,0.991468257804345
2014-05-12,0,-5.434607518326883e-05,5.176074714516993e-05,-0.005493221312591323,0.00798082874078163,0.9921583802169789
2014-05-14,-1,-0.0005414484290480713,-0.00038388314998147837,-0.005662774487683032,0.00798082874078163,0.9919226501308361
2014-05-16,-1,-0.0012127196075918042,-0.0009722391882568727,-0.005493221312591323,0.007675445260136099,0.9929040483569638
2014-05-20,-1,-0.0007919353601730807,-0.0006074917363061067,-0.003400885829071044,0.007675445260136099,0.9918079476828113
2014-05-22,-1,-0.0010958416994123667,-0.000855670773026403,-0.005537083550610865,0.007675445260136099,0.9912856019917013
2014-05-27,-1,-0.0013788785118917252,-0.0011246541463831305,-0.003400885829071044,0.007675445260136099,0.9913915008597863
2014-05-29,-1,-0.0007937301422948146,-0.0006216282521007725,-0.005537083550610865,0.007599889443235909,0.9912572618732898
2014-06-02,0,-5.192285155782063e-05,2.170340797374724e-05,-0.005537083550610865,0.007675445260136099,0.9907124622258404
2014-06-04,1,0.0002692880303608407,0.00030885071861015066,-0.005537083550610865,0.007599889443235909,0.9913008262663223
2014-06-06,1,0.000541422119818292,0.0005534245389253601,-0.005980018800563867,0.007468205052832907,0.9914442706468807
2014-06-10,1,0.0004853879499607736,0.0004981143877314206,-0.006598713622478767,0.007533612485019718,0.9909190080077845
2014-06-12,1,1.88357161555284e-05,3.927461256027431e-05,-0.002953990392743532,0.007533612485019718,0.9916774668269497
2014-06-16,1,0.00023429490528486337,0.00024142175934912678,-0.004054097057443769,0.008158275986444542,0.9906469123316543
2014-06-18,1,0.0007718132238500587,0.0008107371008434253,-0.006829429013037265,0.007482460718809033,0.9914221856242323
2014-06-20,1,0.0008116583541255855,0.0008524348858362883,-0.008452161686048001,0.006921031099932965,0.9911687142400767
2014-06-24,1,0.0007167067229987734,0.0007337904209727627,-0.013119690056601093,0.005163951006102245,0.9898139864849375
2014-06-26,-1,-0.0006419622514143735,-0.0003988211405441247,-0.00962415825195358,0.0063307536167264864,0.9894773178551967
2014-06-30,1,0.0006019068260233263,0.0006628364269605979,-0.012445204613225075,0.0019064861695884013,0.9896534082228857
2014-07-02,1,0.002176585530481291,0.0024501415123552705,-0.013361815033071824,0.004807949051928491,0.9877176032241676
2014-07-07,1,0.0022448786162798306,0.002551904905053418,-0.013361815033071824,0.005999019678664288,0.9870769580286185
2014-07-09,1,0.002284032374072483,0.0026031751021352483,-0.012896603769139713,0.0035328758450639854,0.9874668983458277
2014-07-11,1,0.002140370492665,0.0024398297817031078,-0.012896603769139713,0.006044169067691714,0.9861036340187763
2014-07-15,1,0.0018978669873993374,0.002182242538441867,-0.01163297336315122,0.0035328758450639854,0.9871439451750381
2014-07-17,1,0.001008841277953874,0.0011431202502722136,-0.01163297336315122,0.006044169067691714,0.984469136073249
2014-07-21,1,0.0005088231287991994,0.0005786782864472942,-0.009805261035121702,0.011100351994432793,0.9847518144016129
2014-07-23,-1,-0.00010346521521143542,-9.6210219891536e-05,-0.008713814648241227,0.011100351994432793,0.9860506465234209
2014-07-25,1,1.7304432536626805e-05,2.309406862011014e-05,-0.008649429793430096,0.008788834473991744,0.9870877828753079
2014-07-29,-1,-0.0003336821481913656,-0.000310359912572817,-0.004454501242086619,0.008788834473991744,0.9876481721111697
2014-07-31,-1,-0.0009928643944141563,-0.0008901898722271282,-0.0025632360135359757,0.008803348766542176,0.9886962113782608
2014-08-04,1,0.00013750670056412437,0.00017254877421350983,-0.004454501242086619,0.008803348766542176,0.9892424598690847
2014-08-06,-1,-0.0005041695824973802,-0.0004379641316439243,-0.0025632360135359757,0.008803348766542176,0.9896976456496984
2014-08-08,1,0.00037554253072441253,0.00043865320680501116,-0.003844225775715739,0.007275920507342032,0.9910390454075129
2014-08-12,1,6.005498873828572e-05,6.618669986054291e-05,-0.003987342462693826,0.007275920507342032,0.9909387956354533
2014-08-14,1,0.0013211919943863129,0.0014773727330593463,-0.00434548428585403,0.006824521621381745,0.9941836719341929
2014-08-18,1,0.0014968529126038297,0.0016554257428618392,-0.00434548428585403,0.006824521621381745,0.9944147726804763
2014-08-20,1,0.002039240110497006,0.002301018940047559,-0.005867485595390191,0.003983126991945703,0.9939133058477673
2014-08-22,1,0.0022182015276989418,0.0025252676379338922,-0.006785994339240749,0.0014899287011448216,0.9931781660364511
2014-08-26,1,0.0021993697478018964,0.0024934401955581846,-0.007027623423548077,0.0014899287011448216,0.9923753965472137
2014-08-28,1,0.001212450099723639,0.001256783640109851,-0.007341986182563519,0.0014899287011448216,0.9916943511688393
2014-09-02,1,0.0017112233145319378,0.0018864702485211224,-0.007164854007687468,0.0014899287011448216,0.9920162985846325
2014-09-04,1,0.0009240451933732797,0.0009353594303145132,-0.007164854007687468,0.002303965901304025,0.9916226323838212
2014-09-08,1,0.0007959888296080017,0.000810785219859011,-0.006982268981672157,0.00578104694299298,0.9912080606339463
2014-09-10,1,0.0009644779862932021,0.0010050966796286821,-0.006833687278631435,0.010908562559038519,0.9902693775631468
2014-09-12,1,0.00034333351036147674,0.00038541525952555633,-0.008016930005445054,0.010908562559038519,0.9896185947168616
2014-09-16,1,0.0008467204940443709,0.0008892907948770464,-0.010004554124607722,0.012417991755921148,0.9881846729836935
2014-09-18,1,0.00026426106054300974,0.00031217897668179824,-0.010004554124607722,0.012417991755921148,0.9883854435539299
2014-09-22,-1,-0.0002100839665759965,-0.0001145705707133714,-0.008268643366192062,0.016875981154648636,0.9868692732455594
2014-09-24,-1,-0.00039647073552912107,-0.0002681892904370115,-0.008268643366192062,0.016875981154648636,0.9868345470235763
2014-09-26,-1,-0.0007296829416888475,-0.000548871498804019,-0.005963010803003445,0.016875981154648636,0.98728474745359
2014-09-30,-1,-0.000525601470259896,-0.0003881198223047524,-0.005963010803003445,0.017470923576806727,0.9862883276987752
2014-10-02,1,0.0004181864115812699,0.0004220611454801627,-0.005963010803003445,0.016442607156286152,0.986869642555393
2014-10-06,1,0.0002704486438395436,0.0003146399108675084,-0.005880877955095278,0.015067861333175248,0.9872697122538459
2014-10-08,1,0.0005657173963099244,0.0006019744336310565,-0.005880877955095278,0.011394596904646156,0.9881745021180383
2014-10-10,-1,-0.00033665065702718236,-0.00021794884595911806,-0.005880877955095278,0.011394596904646156,0.986919449576988
2014-10-14,0,-6.358783290693384e-05,2.1965959543876332e-05,-0.0039171812897572135,0.011394596904646156,0.987637103729961
2014-10-16,-1,-0.0006511684202420624,-0.00048186467094967546,-0.0014431030384288576,0.011394596904646156,0.9874968446598401
2014-10-20,1,0.0007816673068332846,0.0007866320354626424,-0.002670632600603827,0.00899692755335776,0.9897351096327003
2014-10-22,1,0.0007199768356623442,0.0007395614326352761,-0.002670632600603827,0.008910902658745917,0.9903731494783726
2014-10-24,1,0.001421967227596417,0.0015532964239834595,-0.002670632600603827,0.007427477377968086,0.991541906248934
2014-10-28,1,0.002081504744556338,0.0023173469535249756,-0.002670632600603827,0.005648958168244273,0.9926409070728859
2014-10-30,1,0.0018358875509120218,0.0020193885460699362,-0.0014431030384288576,0.006459766664714625,0.992708473216728
2014-11-03,1,0.0017238130824364828,0.0018581057259990257,-0.0014431030384288576,0.006459766664714625,0.9927087544221477
2014-11-05,1,0.002036406583047809,0.0022129208302603697,-0.0014431030384288576,0.008193316927390372,0.9916873322134718
2014-11-07,1,0.0010680222584041482,0.00116634718521341,-0.0009969667991559556,0.008193316927390372,0.9937493585213136
2014-11-11,1,0.0017066187062672665,0.0018851719257323967,-0.0011312426432417383,0.008193316927390372,0.9933604164267097
2014-11-13,1,0.0019275748168725198,0.0021489423192593443,-0.0002742179788431813,0.008319408220430112,0.9931957558622068
2014-11-17,1,0.0017340639408858504,0.0019151957646215865,-0.0002742179788431813,0.008319408220430112,0.9924232998079494
2014-11-19,1,0.0018217752665790133,0.0020604752407701356,0.00044694230155793366,0.009448450542372405,0.992140635537335
2014-11-21,1,0.001834186901148195,0.002065798645245978,-0.0013109918530167,0.009448450542372405,0.9916218551454589
2014-11-25,1,0.001745762380241767,0.0019601806030597104,-0.0027344362885500886,0.009934372913097065,0.9909638548698982
2014-11-28,1,0.0019113217940626144,0.0021437636561542454,-0.0027344362885500886,0.009934372913097065,0.9909360933261089
2014-12-02,1,0.002043487549481347,0.0022864899790535553,-0.0048991879428784135,0.008712836260405645,0.9906411309662748
2014-12-04,1,0.0026012831576506367,0.0029012141980844074,-0.00564160241900363,0.007500121001573351,0.9908862435027378
2014-12-08,1,0.0022355933293664644,0.0024552357990774726,-0.00564160241900363,0.00846273460627089,0.990253082373403
2014-12-10,1,0.0024557978953822068,0.002680544718765688,-0.005201215937609926,0.007910080987799318,0.9913266544671694
2014-12-12,1,0.0022101396225271196,0.0023494383531402646,-0.00631211783202645,0.007500121001573351,0.989777954878706
2014-12-16,1,0.0016601028551520612,0.0017371408414812437,-0.007672559955050526,0.007500121001573351,0.9893537714636111
2014-12-18,1,0.001984797283525037,0.002064581616408126,-0.007672559955050526,0.007910080987799318,0.9888617527680998
2014-12-22,1,0.0013095241455195502,0.001354178690552276,-0.007672559955050526,0.00931795468148525,0.9885389652476266
2014-12-24,1,0.0016739409909903567,0.0017110762842340332,-0.007672559955050526,0.009918111168136342,0.9879730697362357
2014-12-29,1,0.0015590149317246107,0.0015647978273459003,-0.007672559955050526,0.009918111168136342,0.988281227739891
2014-12-31,1,0.0011640366049447378,0.0011917207128654581,-0.008033277390444158,0.009918111168136342,0.988393623563007
2015-01-05,1,0.0004440180859416633,0.0005696216389276052,-0.008033277390444158,0.009918111168136342,0.988148554374429
2015-01-07,1,0.0020666426715357706,0.0021890228841394206,-0.008033277390444158,0.009918111168136342,0.9878499645426957
2015-01-09,1,0.002196788534651973,0.002355618688696775,-0.008033277390444158,0.011960501641255035,0.9875900427283263
2015-01-13,1,0.0007978339255741623,0.0008059613233532196,-0.005585651660284291,0.01339185044743041,0.9888448494819049
2015-01-15,-1,-0.00041669848830256284,-0.0002816907279398307,-0.005585651660284291,0.01339185044743041,0.9869335643602395
2015-01-20,1,0.0007615134832817319,0.0007652850247264542,-0.005585651660284291,0.011975810605181112,0.9874697872297113
2015-01-22,1,0.0014006249641676375,0.0014988541022522338,-0.005585651660284291,0.01153603945534022,0.9880578275722419
2015-01-26,1,0.0018642273883105796,0.002022912079164485,-0.00566627787936537,0.01153603945534022,0.9884224842271302
2015-01-28,1,0.0016611357363927235,0.0017906272026026796,-0.00612041252983941,0.01153603945534022,0.9881102888213488
2015-01-30,1,0.0013204181778767219,0.0013820519962170472,-0.005113834099525961,0.01153603945534022,0.9885028252719344
2015-02-03,1,0.0009457116625106914,0.0009485044836446879,-0.005113834099525961,0.01153603945534022,0.9885307382422933
2015-02-05,1,0.0010397287731989879,0.0010563801638887207,-0.00612041252983941,0.011275634757814419,0.9881836206435861
2015-02-09,1,0.00115543094524719,0.0011637673853378378,-0.0062562739506793865,0.0031507583145892375,0.9881285547134614
2015-02-11,1,0.0009331018626127501,0.0009736147812815906,-0.0062562739506793865,0.006895911173245074,0.9882195265565423
2015-02-13,-1,-0.001704900594186077,-0.001325854989613021,-0.005029975674288163,0.010370824491975194,0.9917121351735476
2015-02-18,-1,-0.0011820246201206424,-0.0008573759583559621,-0.005792645263671875,0.0066179581515976495,0.992306493164413
2015-02-20,-1,-0.001043867770864082,-0.0007236263179777404,-0.005792645263671875,0.0066179581515976495,0.9919191790681195
2015-02-24,-1,-0.0010603483791329514,-0.0007345064439195534,-0.0067028302720166045,0.006602933808047,0.99157071455217
2015-02-26,-1,-0.0010170326817084678,-0.0007259941961663249,-0.008525622324304167,0.006602933808047,0.9908215867373571
2015-03-02,-1,-0.0011134645506799233,-0.0008151451053016147,-0.008525622324304167,0.01004779843967582,0.9899644569324629
2015-03-04,-1,-0.0018142554047436918,-0.001461682651551541,-0.012676032037415673,0.01004779843967582,0.9884635389089103
2015-03-06,-1,-0.002997128000800987,-0.0024488465786387187,-0.008525622324304167,0.01004779843967582,0.9891636362847022
2015-03-10,-1,-0.003133997167096385,-0.0025865149064837265,-0.0067028302720166045,0.01060827016742405,0.9883508586659446
2015-03-12,-1,-0.0030090009563440295,-0.002444695196686505,-0.0067028302720166045,0.01060827016742405,0.988664673361753
2015-03-16,-1,-0.0015204926027356236,-0.00121854808297788,-0.006946054660438457,0.0105631971367721,0.9893808929089914
2015-03-18,-1,-0.0023553024897822283,-0.0019290482034305793,-0.005528103617455079,0.0105631971367721,0.989213177059874
2015-03-20,-1,-0.001219186668854119,-0.0009732132670887826,-0.005528103617455079,0.0105631971367721,0.9896910875673525
2015-03-24,-1,-0.0010551870857646128,-0.0008616899433212216,-0.005290332930661459,0.008082246985969705,0.9906870371291323
2015-03-26,-1,-0.0013642765024493196,-0.0011350612512726758,-0.005290332930661459,0.012388053213344439,0.9893815390986026
2015-03-30,-1,-0.0007867452814466626,-0.0006345327483938845,-0.006077661928869111,0.008082246985969705,0.9891483652996144
2015-04-01,-1,-0.0028032991463513403,-0.002434478543841577,-0.005290332930661459,0.008082246985969705,0.9907870641097745
2015-04-06,-1,-0.0035455948933180827,-0.0029729430346627584,-0.005290332930661459,0.008315833940601251,0.9905202648122945
2015-04-08,-1,-0.0018696951613767529,-0.0015544475921837626,-0.006077661928869111,0.0029948486728847675,0.9915463853311979
2015-04-10,-1,-0.0015192434985638796,-0.0012507268005044095,-0.006077661928869111,0.0028693033153183193,0.9921813774812156
2015-04-14,-1,-0.0019565761558620193,-0.0016341820079660853,-0.003994658691956223,0.003962131463281331,0.9913861436246265
2015-04-16,-1,-0.0019826996189599277,-0.00164114009143769,-0.003994658691956223,0.006669073858685233,0.9907916315652902
2015-04-20,-1,-0.0011693304238137104,-0.0009330233000506878,-0.003994658691956223,0.006669073858685233,0.9911706638709104
2015-04-22,-1,-0.0015822238283910196,-0.0012945614459098443,-0.005044124667465063,0.008017715144820428,0.9900098202773868
2015-04-24,-1,-0.0023468837953523527,-0.0019715535423707044,-0.0003240734958823003,0.01128605987370515,0.9884144597009487
2015-04-28,-1,-0.0033044403847345247,-0.0028407391555129546,-0.000713353485767437,0.01128605987370515,0.9884453838542611
2015-04-30,-1,-0.0030335536577431165,-0.0026690045174756717,-0.0050859298557241655,0.01128605987370515,0.988177161566125
2015-05-04,-1,-0.002034389680510254,-0.0017891873906038512,-0.0050859298557241655,0.01128605987370515,0.988647222828049
2015-05-06,-1,-0.0017599742357914464,-0.001592568129858697,-0.0008987412226643798,0.01128605987370515,0.9886686862287348
2015-05-08,-1,-0.0011624838336236148,-0.0011064730931615373,-0.001615402639461602,0.01128605987370515,0.9888958592369771
2015-05-12,-1,-0.0007834260290886389,-0.0007226569289452129,-0.001615402639461602,0.012134558579168387,0.9889624851308781
2015-05-14,1,0.0005261122377069245,0.0007059597200239524,-0.001615402639461602,0.008584227619013415,0.9901863172765959
2015-05-18,1,0.0009010669531560607,0.0011116377836289941,-0.0050859298557241655,0.007117104393256517,0.9897170328011059
2015-05-20,1,0.0002642505888859394,0.0003992777972797694,-0.001615402639461602,0.00762941110280401,0.9905024216123282
2015-05-22,1,0.003244144473806666,0.003794758077606969,-0.001615402639461602,0.005666213644229286,0.9928258100343501
2015-05-27,1,0.002168247560552203,0.0025352659759227455,-0.0004099941636382877,0.005666213644229286,0.9937916406625112
2015-05-29,1,0.0008169122650503427,0.0009694385806593752,0.00047722776297236426,0.005666213644229286,0.9948245468318196
2015-06-02,1,0.00197148245754053,0.0023283210501165107,0.0002411279349053351,0.004840891841341564,0.9939755353764052
2015-06-04,1,0.002320183806577959,0.0027322061900056814,-0.0004099941636382877,0.004840891841341564,0.9931209446830359
2015-06-08,1,0.001436962094145284,0.001615459942899316,0.00027111028316675656,0.0055609756173666675,0.9929196625490069
2015-06-10,1,0.0014360216082584848,0.0015432099679129458,-0.0009998645350336281,0.0055609756173666675,0.992027743726007
2015-06-12,1,0.002299200527855439,0.002602230323131765,-0.0009998645350336281,0.009207466133173275,0.9903273341427125
2015-06-16,1,0.002183063733431007,0.0025185174668432954,-0.0009998645350336281,0.009207466133173275,0.9904715488517547
2015-06-18,1,0.0028003001505188954,0.003258630057581962,-0.0003515297473553834,0.009207466133173275,0.9907816698005522
2015-06-22,1,0.003389377333096193,0.003916943308108094,-0.003977890150059891,0.007671780399202058,0.9905939614000157
2015-06-24,1,0.003272715726098784,0.0037788508101642662,-0.003977890150059891,0.007671780399202058,0.9907730768369646
2015-06-26,1,0.0032823357180378028,0.0037698000691219055,-0.003977890150059891,0.007671780399202058,0.9906056229077607
2015-06-30,1,0.0025350584215614817,0.0029652443541756924,-0.001186316638147568,0.011879135460743113,0.9913990507201202
2015-07-02,1,0.0031340736884555034,0.0036479958708968137,-0.001107514595218317,0.010170030770912714,0.9920192010057303
2015-07-07,1,0.00367924653463648,0.00428270031252774,-0.002473289674510948,0.010170030770912714,0.9919519009025138
2015-07-09,1,0.002228414072944931,0.002466216236755671,-0.002473289674510948,0.008071299305528343,0.9925729551780925
2015-07-13,1,0.004470294332047261,0.005056315958014237,-0.002473289674510948,0.006240665891198968,0.993825530753136
2015-07-15,1,0.004374603516832215,0.004974722890430506,-0.002473289674510948,0.005423853412137105,0.993887746148076
2015-07-17,1,0.004653979756884974,0.005303581089062219,-0.0032653334164427996,0.006240665891198968,0.989238748801066
2015-07-21,1,0.0037956084051443922,0.004311037313106216,-0.002473289674510948,0.006241221498074838,0.9896877808444576
2015-07-23,1,0.0037719631737337844,0.004272648255064851,-0.0032653334164427996,0.007986208364379964,0.9884177373258105
2015-07-27,1,0.0031798017134159755,0.0035220397139056267,-0.010642543009078046,0.007986208364379964,0.985620369119653
2015-07-29,1,0.0037147126674987574,0.004090047214831234,-0.01299222288503904,0.005847090810245677,0.9854618244807879
2015-07-31,1,0.0035113194141745893,0.0038240413974843846,-0.01299222288503904,0.005847090810245677,0.9848604032652324
2015-08-04,1,0.003906267096014186,0.004310022170672176,-0.014466434459878538,0.002525676946990343,0.9837183390006873
2015-08-06,1,0.0032660006233951517,0.0036124976215981862,-0.013023792749581924,0.005847090810245677,0.9837281405920321
2015-08-10,1,0.0030277999975181977,0.0033013099282559457,-0.013023792749581924,0.007171426821538344,0.9829051658042478
2015-08-12,1,0.002974885428808284,0.0032821575690059586,-0.013023792749581924,0.007171426821538344,0.9832739123723295
2015-08-14,1,0.005952174099992654,0.00662620035705431,-0.013023792749581924,0.0025258621492823,0.9861641475970444
2015-08-18,1,0.005373315878790445,0.005935129845788423,-0.012242259651761695,0.010021959052681658,0.9869874262794395
2015-08-20,1,0.004993498590734254,0.005535198493075804,-0.012242259651761695,0.0035236482751740735,0.9866788921870809
2015-08-24,1,0.0008905995831281729,0.0010336292865014754,-0.006547875728794379,0.006993389743149071,0.9911438893401833
2015-08-26,1,0.0007750010943756195,0.0008915332306264122,-0.006164820689143528,0.008607911969025914,0.991232405471931
2015-08-28,1,0.0025104312250372397,0.002657479083770916,-0.006547875728794379,0.008607911969025914,0.9900054039439474
2015-09-01,1,0.0015797881187809997,0.0016294968140066167,-0.005327861850455029,0.010021959052681658,0.9863474682928591
2015-09-03,1,0.0007892916461134673,0.0008358460792210845,-0.0029801502525540462,0.010021959052681658,0.9870574687933621
2015-09-08,1,0.001502166485232203,0.0015474751850485442,-0.0023893797079267485,0.008607911969025914,0.9878431861452126
2015-09-10,1,0.0015097441690386678,0.0015910649343848066,-0.004212439409144907,0.008607911969025914,0.9870152315768475
2015-09-14,1,0.001312174689806468,0.0013409058529119532,-0.004212439409144907,0.010021959052681658,0.9862663607006824
2015-09-16,1,0.0015554034905310191,0.0015854066970279453,-0.005327861850455029,0.008469861646989273,0.9858567620935761
2015-09-18,-1,-0.0006407131029254361,-0.00035836170215593915,-0.004212439409144907,0.009860589539926707,0.986846702110505
2015-09-22,-1,-0.0005728221847203039,-0.00026260714912681874,-0.004212439409144907,0.011477161858007583,0.9864892991341173
2015-09-24,0,-0.00021668479956420974,1.967722043094938e-05,-0.004212439409144907,0.011477161858007583,0.9867285880311798
2015-09-28,-1,-0.0021413348979642563,-0.0016587774085407973,-0.0030157132806710087,0.00982544707190237,0.9885460184995106
2015-09-30,1,0.0013304217205915413,0.001419901846681054,-0.0023641652026660234,0.006241013390345053,0.993289209859211
2015-10-02,1,0.002266000665754396,0.0023277139536954402,-0.0023641652026660234,0.006241013390345053,0.9931043288949474
2015-10-06,1,0.0019790838623229123,0.0020145536044056988,-0.0026671429945893236,0.009421743462888453,0.9925415549474571
2015-10-08,1,0.0010449512102990673,0.0011079543072196568,-9.064574631751423e-05,0.009421743462888453,0.9932133345288549
2015-10-12,1,0.0012714455306547924,0.0013535908282112877,-0.003545584704422138,0.005068871369233111,0.9927435694549538
2015-10-14,1,0.00128345866978416,0.0013402689884516646,-0.0021062230391729157,0.005068871369233111,0.9936042485320208
2015-10-16,1,0.0016923929244900648,0.001766203780677824,-0.007600367407942961,0.004862087468317504,0.9885645600822305
2015-10-20,1,0.0015344812683765637,0.0015403254928124843,-0.007600367407942961,0.004862087468317504,0.9882490817404224
2015-10-22,1,0.0013319639347116217,0.0013334668512708456,-0.008160699273293446,0.004862087468317504,0.9880925488780816
2015-10-26,1,0.0013451649286948663,0.0013480992814197843,-0.008160699273293446,0.004862087468317504,0.9880112756284074
2015-10-28,1,0.001597214342840835,0.0016331394108781829,-0.008160699273293446,0.004862087468317504,0.9880142311688755
2015-10-30,1,0.0021893523231062088,0.00232661504759377,-0.009435137847941718,0.00334125961666972,0.9881494729701459
2015-11-03,1,0.0020398108797882895,0.0021588495728529964,-0.012641240603888333,0.0032373572466645063,0.9873938402269857
2015-11-05,1,0.0019738164395870523,0.0020525156808200366,-0.01418599076505175,0.002985369611216233,0.9862840837580812
2015-11-09,1,0.0008557891604619398,0.000912977041336439,-0.01418599076505175,0.002985369611216233,0.9859516243771105
2015-11-11,1,0.001218455303869045,0.0012263634078417119,-0.01418599076505175,0.00334125961666972,0.9846607236573113
2015-11-13,-1,-0.0017102298465412403,-0.0013676900910534176,-0.012641240603888333,0.00334125961666972,0.9896937461364891
2015-11-17,-1,-0.0016706078758890986,-0.0013274804388933937,-0.012641240603888333,0.004324822292892848,0.9861575129207745
2015-11-19,-1,-0.00275436793403684,-0.0022264532036430622,-0.01936758003684302,0.004324822292892848,0.9837517594748053
2015-11-23,-1,-0.002400666183669245,-0.0019372316805310763,-0.01936758003684302,0.004324822292892848,0.9833578123974115
2015-11-25,-1,-0.0020660175011341245,-0.0016555864062367982,-0.01936758003684302,0.004160932842204704,0.9833456691072133
2015-11-30,-1,-0.002591417288491566,-0.002104909500029435,-0.01936758003684302,0.008620724504475038,0.9830450723721148
2015-12-02,-1,-0.003029413260704381,-0.002563950922551715,-0.013914977964567879,0.008620724504475038,0.9839690641432628
2015-12-04,-1,-0.0032703000585907463,-0.0027650007097461873,-0.010138574624833044,0.00988135410778465,0.9844175781122505
2015-12-08,-1,-0.004695015602403749,-0.0040364810152316265,-0.010138574624833044,0.010988180680265013,0.9842503060200022
2015-12-10,-1,-0.0044860796882595574,-0.0038255653426678103,-0.013914977964567879,0.01041721824158007,0.9842258489684421
2015-12-14,-1,-0.005412285736414786,-0.004647994909815847,-0.014614094893834712,0.01041721824158007,0.98285255876443
2015-12-16,-1,-0.002321183985147421,-0.001923857572878718,-0.014614094893834712,0.009700502437757146,0.9861051340974802
2015-12-18,-1,-0.004461968641064433,-0.0038615326028858645,-0.007249785752575147,0.009700502437757146,0.9887383689543556
2015-12-22,-1,-0.004602476022360567,-0.003998136951287371,-0.006139450614885356,0.009700502437757146,0.9885638079556971
2015-12-24,-1,-0.004008924188689865,-0.0034840700224818668,-0.006139450614885356,0.01041721824158007,0.9866887033558478
2015-12-29,-1,-0.003586705128908441,-0.0030832102140029355,-0.007249785752575147,0.007761425464509633,0.9871209243903774
2015-12-31,-1,-0.0038451037201976696,-0.0033280952508107473,-0.007249785752575147,0.011178633796324123,0.9848761442531547
2016-01-05,-1,-0.003912621532228786,-0.003375977291576406,-0.019542129518960203,0.010445625670182503,0.9839246950152909
2016-01-07,-1,-0.0022168135655758195,-0.0020273517413245136,-0.019542129518960203,0.007761425464509633,0.9846159984708918
2016-01-11,-1,-0.002552662422840549,-0.0023252117687829255,-0.017858038957203334,0.005019870717477698,0.9852791651434525
2016-01-13,-1,-0.004192218325493173,-0.0037590952065050354,-0.017858038957203334,0.0032397733228518633,0.9864079894981143
2016-01-15,-1,-0.004373744710676631,-0.0038222747598526696,-0.017858038957203334,0.0075484582152057856,0.9847053374043052
2016-01-20,-1,-0.004870362781215294,-0.004244743710256735,-0.018188630365157978,0.0075484582152057856,0.9842998510231469
2016-01-22,-1,-0.003761561522499229,-0.0033266844784261467,-0.018188630365157978,0.017457606806239107,0.9833228028701737
2016-01-26,-1,-0.0024313071556684414,-0.0021141834526365814,-0.018188630365157978,0.017457606806239107,0.9851567517501745
2016-01-28,-1,-0.003371223625558091,-0.0029450045526972796,-0.017409109536501693,0.017457606806239107,0.9857116396401979
2016-02-01,-1,-0.0011881960644304437,-0.0010483089629778764,-0.017409109536501693,0.005884929842378763,0.9862061487780951
2016-02-03,-1,-0.0030834907402451472,-0.0027176090659155154,-0.00845359056144659,0.012690805828398367,0.9869926103936937
2016-02-05,-1,-0.0038668849181552898,-0.003415671509486017,-0.008224376493692974,0.012690805828398367,0.9876208408678437
2016-02-09,-1,-0.003726517585254954,-0.003332808833724658,-0.008224376493692974,0.017650846328068646,0.9865637940774294
2016-02-11,-1,-0.005249220735658459,-0.004626239705533679,-0.006107566341189524,0.017650846328068646,0.9852025409206869
2016-02-16,-1,-0.002830683540607813,-0.0025107814892540315,-0.006107566341189524,0.01548269646790834,0.988397065990782
2016-02-18,-1,-0.0032126886587646114,-0.0028561094150791637,-0.005788033340265339,0.01548269646790834,0.9887131278715398
2016-02-22,-1,-0.002509875763807789,-0.002188698625550836,-0.005788033340265339,0.012297505440577458,0.9901868856824855
2016-02-24,1,0.00018213301908217205,0.00042625402248257986,-0.005788033340265339,0.012297505440577458,0.9901610722518802
2016-02-26,1,0.0005016209222754698,0.0008259780716530127,-0.005788033340265339,0.012297505440577458,0.9901138337798426
2016-03-01,1,0.0014892956388867554,0.0019434894204898678,-0.004971846920482867,0.00869774214387962,0.9918838303144065
2016-03-03,1,0.0013306040529153056,0.0017189575388202075,-0.004971846920482867,0.007392393731738667,0.9916030118064088
2016-03-07,1,0.00132095436168199,0.0017647055554497672,-0.0034242760982887473,0.007803424997731096,0.9917902580188259
2016-03-09,1,0.0016067900098358854,0.0020384761466096884,-0.0039499177701832755,0.007376480675450157,0.9921491528959703
2016-03-11,1,0.0033081771642670716,0.004019380350861619,-0.005181414211229494,0.0047102213057538655,0.9926054751752599
2016-03-15,1,0.003691907341673644,0.004491826909484015,-0.004361691437275183,0.007376480675450157,0.9916132415930342
2016-03-17,1,0.003467940185481675,0.004219198127886004,-0.0031510351736373106,0.007376480675450157,0.9920499762866039
2016-03-21,1,0.0038375787989778547,0.0046500565045748034,-0.0029051639500301406,0.005443141767455067,0.9919423071594384
2016-03-23,1,0.0047404551063532155,0.0057014610841182745,-0.00755228548978021,0.004564193699662509,0.9908617122256682
2016-03-28,1,0.005435209581077585,0.006541185585768631,-0.00755228548978021,0.005443141767455067,0.9901948905688063
2016-03-30,1,0.00601393634330041,0.007203111337010726,-0.00755228548978021,0.005804747652261935,0.9899477999731149
2016-04-01,1,0.005593347344470959,0.006751458031660138,-0.00755228548978021,0.005804747652261935,0.9902280099001407
2016-04-05,1,0.005136794595222294,0.006171302550057763,-0.006770924398802865,0.004067041448299409,0.9905863962946744
2016-04-07,1,0.004112230473292867,0.005018548156787706,-0.006770924398802865,0.004067041448299409,0.9902746627341477
2016-04-11,1,0.0018937588340294605,0.002265415533132098,-0.0046690059493642265,0.006368588660410823,0.9909438576812619
2016-04-13,1,0.0037098412407515534,0.004359503942206576,-0.006770924398802865,0.005175288986702019,0.9904912743655259
2016-04-15,1,0.0036353246085137052,0.004248643917027909,-0.009697825775064312,0.005804747652261935,0.9886392769398724
2016-04-19,1,0.003549392812201733,0.004154319980314772,-0.01653156164074918,0.006368588660410823,0.9869724045883397
2016-04-21,1,0.0028751544967933126,0.0034162564823857866,-0.01011903474745832,0.006368588660410823,0.9879814528809674
2016-04-25,1,0.0027579725606125143,0.003261176747219686,-0.008411812503935261,0.006368588660410823,0.9875389203087853
2016-04-27,1,0.002758626145679624,0.003181196946965872,-0.008411812503935261,0.012131390083694597,0.9855584683022818
2016-04-29,1,0.001666920852923525,0.0019035442887479974,-0.003689121268651158,0.013899175426327952,0.9856205231638774
2016-05-03,1,0.0009087473108455003,0.0009622944521338518,-0.006614623330204036,0.013899175426327952,0.9848818963140195
2016-05-05,-1,-0.0008475574706869463,-0.0007101332708694315,-0.008186476326949329,0.013899175426327952,0.9865203721309707
2016-05-09,-1,-0.0012139594378702168,-0.0009716800890181606,-0.008186476326949329,0.013899175426327952,0.9869879381970604
2016-05-11,1,0.00010176207490049036,0.0002162692483480588,-0.004604275366013215,0.018257280906052803,0.9866578989867366
2016-05-13,-1,-0.002188435406707986,-0.0018867621874634416,-0.004604275366013215,0.018257280906052803,0.9878749590489546
2016-05-17,-1,-0.0028633187667434423,-0.0024599854949051867,-0.003325643662460908,0.013911764442513401,0.9894736936240875
2016-05-19,-1,-0.0027766401953739257,-0.002402030779161839,-0.003325643662460908,0.013911764442513401,0.9890006571397825
2016-05-23,-1,-0.001537716860187947,-0.0013500996963515953,-0.00426945155381402,0.01032092474997737,0.9895186590363576
2016-05-25,1,0.00036322150284231954,0.0003765946810738276,-0.007435699040072552,0.007444464581793727,0.9911405317477717
2016-05-27,1,0.0010575507096808883,0.0011720657003355917,-0.007435699040072552,0.006629080683689086,0.9917692388172722
2016-06-01,0,-4.898499505368709e-05,1.0053358704397233e-05,-0.005423648610883564,0.01022738215408756,0.9905609050513199
2016-06-03,-1,-0.0010793529640112662,-0.0008759368848060477,-0.003083271373722785,0.011650012766631631,0.9901771836218546
2016-06-07,-1,-0.0015967975113714973,-0.0012725544840083364,-0.003500891233508302,0.011650012766631631,0.9897164530282044
2016-06-09,0,-6.959436805170632e-05,4.713260261338803e-05,-0.003500891233508302,0.00788749392067848,0.9904385792472004
2016-06-13,-1,-0.0013108580195486288,-0.0010350648463498323,-0.003181976142776554,0.00788749392067848,0.9911916560270422
2016-06-15,-1,-0.0009705879367544727,-0.0007448327011796747,-0.004132144318304572,0.011813266024525423,0.9908916695285198
2016-06-17,1,0.00024691493033916865,0.0002482470629707517,-0.004132144318304572,0.011813266024525423,0.9909641118298322
2016-06-21,-1,-0.00024223051823238432,-0.00015134626909957987,-0.0039993517297193856,0.011813266024525423,0.9915168269720754
2016-06-23,1,0.0006699527527076986,0.0007706968015054262,-0.0029630044182132388,0.01201300988941174,0.9917540478958378
2016-06-27,-1,-0.0005224281080892505,-0.00039209607993148063,-0.0023422635702289823,0.01201300988941174,0.9918113056729742
2016-06-29,1,0.0004908125899768178,0.0005508189444602706,-0.0029582645570878814,0.005846739882389863,0.9919663861094048
2016-07-01,1,0.0007177612547319288,0.0007876109032790061,-0.0039993517297193856,0.0025209154858465642,0.9922764600308529
2016-07-06,-1,-0.0005703652259359748,-0.00030908692717233693,-0.0039993517297193856,0.005846739882389863,0.9925175237482433
2016-07-08,1,0.0011179311833475196,0.001147407502309818,-0.0039993517297193856,0.005159049996959202,0.9928207358219117
2016-07-12,1,0.00032489078565325316,0.00042413632950063064,-0.0051950661607063665,0.005159049996959202,0.9922342700850616
2016-07-14,1,0.001267628409047367,0.0013163064781012688,-0.0051950661607063665,0.0025209154858465642,0.9927744518237268
2016-07-18,1,0.0012209316832479983,0.0012845024955838288,-0.005195848899301911,0.005159049996959202,0.9923534422485809
2016-07-20,1,0.0008754419477029283,0.0008924783321608075,-0.009128574727430335,0.005159049996959202,0.9897215540166171
2016-07-22,1,0.0016397871269587265,0.001795566006028337,-0.009128574727430335,0.003859726560414591,0.9897548471571047
2016-07-26,1,0.0017542812700058097,0.0019326359999777493,-0.009128574727430335,0.0030093458774468848,0.9897409321690083
2016-07-28,1,0.0018498137723013007,0.0020278666897718444,-0.008365791019467685,0.0030093458774468848,0.9910095966939386
2016-08-01,1,0.0016825786467891295,0.0018597845153558112,-0.009886682688313237,0.004245080196090583,0.9904968841575653
2016-08-03,1,0.002116565118172554,0.002401597366902942,-0.007165155197811071,0.004055043511365555,0.9910157680080459
2016-08-05,1,0.002360059374857281,0.0026748159491826354,-0.007165155197811071,0.004055043511365555,0.9908203532104073
2016-08-09,1,0.0015833478046776827,0.0017861116998410342,-0.004006889306128192,0.006209200854101945,0.9914885200127668
2016-08-11,1,0.0016491965483548684,0.0018658547295394138,-0.008467016175161768,0.006209200854101945,0.9886919859678988
2016-08-15,1,0.0020214415210087966,0.002312813533352157,-0.014372111933497788,0.004785984622119774,0.9885874584064969
2016-08-17,1,0.0004020458639915597,0.0004864108872963235,-0.007756804744186966,0.004785984622119774,0.9907892818382896
2016-08-19,1,0.0006167230954598009,0.0007525222821311098,-0.007756804744186966,0.004785984622119774,0.9907918348674455
2016-08-23,1,0.00029347035748822825,0.00035091618762549397,-0.012427280550028924,0.004785984622119774,0.990094312031097
2016-08-25,1,0.0006938731722944543,0.0008042143694507414,-0.012427280550028924,0.004785984622119774,0.9899705345824621
2016-08-29,-1,-0.00026462315229970894,-0.00020471017221454927,-0.007756804744186966,0.00583753737542796,0.9906443390125786
2016-08-31,-1,-0.00047672233047049527,-0.0003807139332535478,-0.013552558297885126,0.00583753737542796,0.9898294469945847
2016-09-02,1,0.0003958496180258629,0.00046718408800062756,-0.01436417037779286,0.00583753737542796,0.9887952797074728
2016-09-07,1,0.0010564356931761784,0.0012224740204515422,-0.01436417037779286,0.0037026242707457043,0.9887615894875887
2016-09-09,-1,-0.0006358682485684136,-0.0005813554862034067,-0.012185063156400628,0.0037026242707457043,0.9914021743692768
2016-09-13,-1,-0.001412231459359504,-0.0012325782898864545,-0.009537676385816594,0.0037026242707457043,0.9919619257190668
2016-09-15,-1,-0.001831326131452025,-0.001606504437161753,-0.008176447505699142,0.00583753737542796,0.9917672841470802
2016-09-19,-1,-0.0016575780682639954,-0.0014732017336651312,-0.009912768968435329,0.00583753737542796,0.991062481801591
2016-09-21,-1,-0.002460611009657542,-0.002153273919650439,-0.008176447505699142,0.00583753737542796,0.9918799649382145
2016-09-23,-1,-0.0017805444003091133,-0.0015528663324602763,-0.008176447505699142,0.004784527405780132,0.9924748598675702
2016-09-27,-1,-0.002393555973520733,-0.002017212526116771,-0.008176447505699142,0.0007601758114211037,0.9921453045241699
2016-09-29,-1,-0.0030322713848708127,-0.0026112689743590257,-0.006897785630959025,0.0018969612372631607,0.9916713066384707
2016-10-03,-1,-0.0035534987249118697,-0.0030309604163761823,-0.006020557586350036,0.0018969612372631607,0.9925582793469023
2016-10-05,-1,-0.0034039346524408565,-0.0028703485901986764,-0.006897785630959025,-9.367884201558847e-05,0.9931018490176016
2016-10-07,-1,-0.0038303380770134546,-0.0032295379568258453,-0.008176447505699142,0.0018969612372631607,0.9920201643886161
2016-10-11,-1,-0.004273385202253415,-0.0036136014950691187,-0.006897785630959025,0.004628834387908191,0.9914861862751542
2016-10-13,-1,-0.004094345220522266,-0.003477593038207135,-0.006020557586350036,0.005614618407387462,0.9890349876005959
2016-10-17,-1,-0.0036503080598729466,-0.003180336454689364,-0.006020557586350036,0.005614618407387462,0.9895154393262295
2016-10-19,-1,-0.0018776985134350463,-0.0016528533306366347,-0.0069577936687243245,0.007757529482142324,0.984582259039659
2016-10-21,-1,-0.0020594635915086833,-0.0017974911942667325,-0.009112254451462664,0.012235959832958936,0.9830344957850803
2016-10-25,-1,-0.002108290027070447,-0.0018232652784650114,-0.009112254451462664,0.019569084915162047,0.9817919777348643
2016-10-27,-1,-0.002681562910593567,-0.002336775871805279,-0.006168480858643892,0.019569084915162047,0.9828880059123075
2016-10-31,-1,-0.0020760002684872677,-0.0018365499625534096,-0.006313924657191878,0.019569084915162047,0.9832991712041698
2016-11-02,-1,-0.0026271203167784027,-0.0022984750702812477,-0.005534717801468741,0.019569084915162047,0.9831457547388537
2016-11-04,-1,-0.002782903784248301,-0.002444911521836648,-0.0040946579441345525,0.019569084915162047,0.9839800317617642
2016-11-08,-1,-0.0024236972412607838,-0.0021355957473240977,-0.0040946579441345525,0.020094340239630023,0.9828565713417672
2016-11-10,-1,-0.0011838109904621877,-0.0010413563672612375,-0.005365451123346446,0.01723206575448801,0.9859734286773238
2016-11-14,-1,-0.0015759830295989413,-0.0013921822006875946,-0.0054139323895291075,0.01723206575448801,0.985861030444443
2016-11-16,1,0.0003018183482906224,0.00033278407079988937,-0.004054396140154675,0.0102413649185107,0.9906313332830796
2016-11-18,1,0.0007243532936634889,0.0008654710956837909,-0.004054396140154675,0.008943458907486386,0.9919225898160879
2016-11-22,1,0.0018589254873343048,0.002174960859731581,-0.0054139323895291075,0.0066510543019705414,0.9928930486439279
2016-11-25,1,0.001747936574416042,0.002028577966615819,-0.005720326088878491,0.0066510543019705414,0.9921393370851638
2016-11-29,1,0.0018231412898231107,0.002138020422056933,-0.006013569699563879,0.0066510543019705414,0.9919632485358032
2016-12-01,1,0.0018544415177501284,0.002164171349406898,-0.0066019477721792,0.00622461447405612,0.9917044030480593
2016-12-05,1,0.0018894075784002759,0.0022129486076161928,-0.0066019477721792,0.008353649398175976,0.9913672875651023
2016-12-07,1,0.002536743099665584,0.0029411545904149796,-0.00717512063274931,0.006220908957100645,0.9918937005587309
2016-12-09,1,0.0023581720850315473,0.002733833533284106,-0.00717512063274931,0.006220908957100645,0.9923557911742814
2016-12-13,1,0.0020346661528939706,0.0023818789916089343,-0.006083697339878917,0.008210000044488465,0.9926170225722173
2016-12-15,1,0.0021715651013872895,0.002538577704108632,-0.00717512063274931,0.006549102557860829,0.9924763203873803
2016-12-19,1,0.0024065160510212693,0.0028285126548766603,-0.008757823449577443,0.005747712699724494,0.9923681032442347
2016-12-21,1,0.002296049349976211,0.0026924368362198263,-0.008757823449577443,0.005585514122239164,0.99209977015516
2016-12-23,1,0.0019307583595292864,0.002275394106329395,-0.00717512063274931,0.005585514122239164,0.9928296475176415
2016-12-28,1,0.0020058478008402494,0.0023729123402565443,-0.007681073659858467,0.0036959253872580694,0.9923525801066828
2016-12-30,1,0.0016377803452661535,0.0019303067234836525,-0.007681073659858467,0.0036959253872580694,0.9927768519156128
2017-01-04,1,0.001998881976578063,0.002342753109369164,-0.01066569145944334,0.002485271185965485,0.9916617252400279
2017-01-06,1,0.0018936004116015784,0.0022341470498389525,-0.01066569145944334,0.002654105215422867,0.9917254438346891
2017-01-10,1,0.0013706342729003847,0.0015763838814900034,-0.01066569145944334,0.0036959253872580694,0.9905109840417017
2017-01-12,1,0.0019080232567961343,0.002184230959823228,-0.01066569145944334,0.002654105215422867,0.9906446525178372
2017-01-17,1,0.0017111147065141065,0.0019591915220946057,-0.010574240877531529,0.0036959253872580694,0.990222210951013
2017-01-19,1,0.0016852852870432589,0.001945868292012287,-0.010574240877531529,0.002654105215422867,0.9899503281524673
2017-01-23,1,0.0010499845487532452,0.0012069538987577132,-0.00765059013255453,0.0031959468476424643,0.991067574300365
2017-01-25,1,0.0009816464645881024,0.0011266249683630227,-0.010574240877531529,0.0028103899427502606,0.9902985592948926
2017-01-27,1,0.0006881717130291164,0.0008035986382418166,-0.009371180087181035,0.0028103899427502606,0.9910534308764946
2017-01-31,1,0.0008958845220277576,0.0010642819624226809,-0.009371180087181035,0.0028103899427502606,0.9910196919128098
2017-02-02,1,6.131079450078196e-05,6.951762810794733e-05,-0.009371180087181035,0.0028103899427502606,0.9920594513025914
2017-02-06,-1,-0.0003815677296029416,-0.0003090012690879695,-0.009371180087181035,0.0012513898932383694,0.9920471056573853
2017-02-08,-1,-0.0002534813061995466,-0.00018037739479407198,-0.009371180087181035,0.0012513898932383694,0.9923674812935042
2017-02-10,-1,-0.00016860277376753394,-0.0001000913745423441,-0.009371180087181035,0.0009522008714621195,0.9927054879734526
2017-02-14,-1,-0.0003470825618965287,-0.00024325098629086309,-0.007984608087261666,-0.00017826181709278594,0.9934508876950634
2017-02-16,-1,-0.0005757311105836236,-0.00046402152106251964,-0.007211992279236515,0.0009522008714621195,0.9940443491204451
2017-02-21,-1,-0.00042826134715224487,-0.000345292858485231,-0.007704911250911663,0.00030862233197781225,0.9938924775931767
2017-02-23,-1,-0.0012274473765180296,-0.0010231930037641868,-0.006708002225463806,0.00035972808331664256,0.9949474693324697
2017-02-27,-1,-0.001328896343339229,-0.0011137725861981988,-0.007211992279236515,0.00035972808331664256,0.9942348345604743
2017-03-01,-1,-0.0012264363011654303,-0.001035647707402551,-0.007211992279236515,0.00265211515312201,0.9935987439364063
2017-03-03,-1,-0.0014845989992219115,-0.0012577941563876299,-0.006993062531281787,0.000865009440335818,0.9941519330186845
2017-03-07,-1,-0.0020970434906264967,-0.0017881250218781185,-0.007124230476448763,0.000865009440335818,0.9936246620583948
2017-03-09,-1,-0.0016723884716237656,-0.0014126093356715314,-0.007124230476448763,0.0002795585216023784,0.9946532072080291
2017-03-13,-1,-0.0020783810748643767,-0.0017472800241962517,-0.006751976463916788,0.0002795585216023784,0.994843192967982
2017-03-15,-1,-0.0023900434401398496,-0.0020145034061091723,-0.0072236456126229835,0.001049079650938182,0.9943891201168997
2017-03-17,-1,-0.002494317256208859,-0.0021045111261036777,-0.0072236456126229835,0.0002795585216023784,0.9946111066764993
2017-03-21,-1,-0.002428535309579511,-0.0020619683267675214,-0.006751976463916788,0.0013200242639654209,0.9942279279336982
2017-03-23,-1,-0.002759032158339441,-0.0023276220539112744,-0.006751976463916788,0.0039268138993443285,0.9926558047457567
2017-03-27,-1,-0.003062617144750584,-0.002601861601415599,-0.006168045353347608,0.0039268138993443285,0.9927488437995863
2017-03-29,-1,-0.0029944001083612153,-0.0025284576194214707,-0.007441357209352697,0.0018056439533918152,0.992765587354814
2017-03-31,-1,-0.0034251501884638796,-0.002892801437708023,-0.010122714980091778,0.0018056439533918152,0.9923139364630498
2017-04-04,-1,-0.004149553592614343,-0.003537973952179355,-0.006330937789446272,0.002518002442687253,0.9924044151595726
2017-04-06,-1,-0.0031243940985291505,-0.0026968665856411654,-0.006330937789446272,0.004645788873480697,0.991732862087664
2017-04-10,-1,-0.003961342295586366,-0.0034031049357352273,-0.006330937789446272,0.005934450369353743,0.9910572254476319
2017-04-12,-1,-0.0053065802140252576,-0.0046898591988707205,-0.005836885671523464,0.004111859197701238,0.9910428069242776
2017-04-17,-1,-0.005412425780414523,-0.0047851123246966274,-0.0059306498259313655,0.006971525879543543,0.9906911169549321
2017-04-19,-1,-0.0035998894591175064,-0.003278725303610533,-0.0059306498259313655,0.002863694279417186,0.9920218298013819
2017-04-21,-1,-0.0021354141764724412,-0.0019990802749168747,-0.0059306498259313655,0.007724038088526626,0.9913994903484022
2017-04-25,-1,-0.0027354581348276092,-0.0025369319382463357,-0.006612230252669975,0.007724038088526626,0.988585675443233
2017-04-27,-1,-0.002604870863429972,-0.002416922690076866,-0.0074730947556313244,0.007724038088526626,0.9867076808289058
2017-05-01,-1,-0.003182531739699737,-0.002933304543909934,-0.006752389511023991,0.013777940515297847,0.9861164397513568
2017-05-03,-1,-0.0014902254284359852,-0.00146887016683689,-0.006752389511023991,0.013777940515297847,0.9854493573338476
2017-05-05,-1,-0.0009034615508603949,-0.0008112729841374399,-0.008100408484574073,0.007724038088526626,0.9852725131431262
2017-05-09,-1,-0.0008525852443134245,-0.0007895268670387211,-0.010586397851376482,0.0052601450383412685,0.984500387365945
2017-05-11,-1,-0.0006320443251675013,-0.000516826028341876,-0.018904158365348197,0.008441195459803921,0.9818851500172274
2017-05-15,-1,-0.00038564812534887586,-0.0002185525446146973,-0.018904158365348197,0.017290374750423443,0.981191890865301
2017-05-17,-1,-0.0005326310431087269,-0.0003801559764223878,-0.018904158365348197,0.017290374750423443,0.9809962333511069
2017-05-19,1,0.0009631056818209917,0.0012871119931065866,-0.018904158365348197,0.005127525398289343,0.9825661008038831
2017-05-23,-1,-0.001406926824800942,-0.0013978588892631023,-0.01915687843578584,0.005127525398289343,0.9828074004223696
2017-05-25,-1,-0.003744195822082706,-0.0034764329209406317,-0.010586397851376482,0.005127525398289343,0.9854054498464808
2017-05-30,-1,-0.0027677610970711355,-0.002655930324465248,-0.01001090803627815,0.005127525398289343,0.9853066822267532
2017-06-01,-1,-0.0015753850938378922,-0.001566155399827884,-0.01915687843578584,0.0049605349340857,0.9846894708381048
2017-06-05,-1,-0.0016907377170628207,-0.0016868830935758746,-0.012984944105206609,0.004982320601673182,0.9845957468695525
2017-06-07,-1,-0.0019205245291210285,-0.0019157866709438294,-0.021633344038759036,0.004982320601673182,0.9806206645031893
2017-06-09,-1,-0.002333628183813448,-0.002286921723547977,-0.013813642756825761,0.004717864905966267,0.9826349400683507
2017-06-13,-1,-0.0013814907884010243,-0.0013132439412649765,-0.013813642756825761,0.00437943601393282,0.983041562232336
2017-06-15,-1,-0.0016704762842967378,-0.001667064575504665,-0.013813642756825761,0.004717864905966267,0.9820509210899829
2017-06-19,-1,-0.0018568920509083055,-0.001845055287131746,-0.015486454990845331,0.004717864905966267,0.9818547533885347
2017-06-21,-1,-0.00455668652392175,-0.004207772647364836,-0.011554736442603837,0.005982915290923646,0.9839697678554242
2017-06-23,-1,-0.00438964938719247,-0.004071110216342479,-0.012480862252389213,0.009064693398045989,0.9826565027453862
2017-06-27,-1,-0.0036389678766383564,-0.0033974175992762144,-0.012480862252389213,0.013946240882377052,0.9818733237871753
2017-06-29,-1,-0.005277718321826769,-0.0048336863303478335,-0.011554736442603837,0.01664814898532695,0.9817522192032873
2017-07-03,-1,-0.003802304781658411,-0.0035619149078106585,-0.011554736442603837,0.018599908432798642,0.9812298464086627
2017-07-06,-1,-0.007311404175172982,-0.006687967650485393,-0.009678164133353314,0.018599908432798642,0.9840049689812042
2017-07-10,-1,-0.007488864722589592,-0.006863760192303064,-0.009678164133353314,0.018599908432798642,0.9833028543295129
2017-07-12,-1,-0.007472874869219414,-0.006830059058144289,-0.005063014017292498,0.018599908432798642,0.9835085002788558
2017-07-14,-1,-0.006610357967364613,-0.006084292432908225,-0.005628164641557817,0.01680252988706655,0.9835956904052108
2017-07-18,-1,-0.0065154478230960485,-0.005958394549561306,-0.00486292086295967,0.018271023346213736,0.9785003047001433
2017-07-20,-1,-0.005292476453291051,-0.00488338235695123,-0.00486292086295967,0.018271023346213736,0.9772517068599187
2017-07-24,-1,-0.004986544452485761,-0.004623550504314863,-0.0013635458600390158,0.018271023346213736,0.977587712256972
2017-07-26,-1,-0.0036882375889091003,-0.0034746742965432896,-0.00486292086295967,0.01680252988706655,0.9787850982628744
2017-07-28,-1,-0.0027384634046353344,-0.0026121565983332246,-0.006951046632773474,0.01680252988706655,0.9794117587242289
2017-08-01,-1,-0.0011074142227251906,-0.0009840182841415145,-0.012347962951769143,0.012211619642414153,0.9809151011279087
2017-08-03,-1,-0.0018318219617891422,-0.0018017599361174908,-0.006502868162561359,0.015424120040023756,0.9809906926124243
2017-08-07,-1,-0.0019886000156493356,-0.001984130266947849,-0.006502868162561359,0.015424120040023756,0.9810599253491663
2017-08-09,-1,-0.0018504149278658674,-0.0018234321191326593,-0.012315604817350525,0.015424120040023756,0.9797435612489949
2017-08-11,-1,-0.002188354530799538,-0.0021712575535224555,-0.011658932792414036,0.015424120040023756,0.9809071753100456
2017-08-15,-1,-0.004742179327042318,-0.004442072964564014,-0.006422584266180361,0.018498940660972425,0.9827252219249061
2017-08-17,-1,-0.0025686605838754063,-0.0025024207210000084,-0.006718856314835175,0.012886150545093103,0.9866415085097882
2017-08-21,-1,-0.0012596675178837907,-0.00112799157078652,-0.011658932792414036,0.007620983981484278,0.9862275112775235
2017-08-23,-1,-0.0016866846755447618,-0.001614551201130775,-0.011364316800453262,0.006824210974545063,0.9871146998856929
2017-08-25,-1,-0.0012732530512323422,-0.0012016149494406274,-0.011364316800453262,0.012886150545093103,0.986484473504328
2017-08-29,-1,-0.001319861106095888,-0.0012505434093249114,-0.00983256613615672,0.017782670203742728,0.986248118487605
2017-08-31,0,-0.0001820216976621831,4.946739595667747e-05,-0.00983256613615672,0.008466846953884307,0.9875911750238814
2017-09-05,-1,-0.00047000418277943145,-0.0002825684352043247,-0.006160643405496377,0.008466846953884307,0.9880752225172877
2017-09-07,-1,-0.0013734202883792933,-0.0013105412030673404,-0.005404301728539613,0.008466846953884307,0.987346876816439
2017-09-11,-1,-0.0006759076142117738,-0.0004915935185791409,-0.007076772227807555,0.005741024427305268,0.9863051005682538
2017-09-13,1,0.0018772487815931058,0.0024678409276797987,-0.00983256613615672,0.0016375672344241016,0.9865259015336821
2017-09-15,1,0.0017868884199572935,0.0023614818348374643,-0.015739668473505997,0.0016375672344241016,0.9847322410308061
2017-09-19,1,0.0002673934662319159,0.0006183656958718359,-0.011502219999210073,0.006360851274193093,0.9863493579064868
2017-09-21,0,-0.0001930749667226004,7.019783828206044e-05,-0.010634200325338891,0.006360851274193093,0.9863573420943424
2017-09-25,1,0.0016766177008003217,0.0022251477083686045,-0.010634200325338891,0.0016375672344241016,0.9872027446411387
2017-09-27,1,0.002576521289510075,0.0032811586923490385,-0.013928343432036167,8.519533564282526e-05,0.9859091325588001
2017-09-29,1,0.0028933657485733497,0.0036653462943258656,-0.02113391369643365,8.519533564282526e-05,0.9826564772561209
2017-10-03,1,0.0030349974061544688,0.0038342684202784545,-0.02113391369643365,-0.00010444367129879473,0.9825703358425945
2017-10-05,1,0.001786796934164722,0.0024276046127103,-0.013928343432036167,0.00210260541785055,0.9846651440408952
2017-10-09,1,0.0008457020312042213,0.0013555142697555414,-0.012429004112487685,0.00247173840260962,0.9861745405982415
2017-10-11,1,0.0013533398158020872,0.0020299702308836085,-0.012429004112487685,0.000977428492337991,0.9866424273526819
2017-10-13,-1,-0.0008175739891295953,-0.0005710554949948988,-0.011395861121643884,0.006778255805025388,0.9883865995284566
2017-10-17,-1,-0.000712313183180399,-0.000534340224586395,-0.011395861121643884,0.010088636038794282,0.9843065159128331
2017-10-19,-1,-0.0006223212923409361,-0.0004584761045839916,-0.012414968441598163,0.010088636038794282,0.982274026819138
2017-10-23,-1,-0.00027677222299786063,-8.473058242798007e-06,-0.013391722861123258,0.01199340843327482,0.9810157444324434
2017-10-25,-1,-0.0009724158406527435,-0.0008023563750614126,-0.013391722861123258,0.01199340843327482,0.980657425316111
2017-10-27,-1,-0.0016485119360314332,-0.0016184032548751442,-0.012414968441598163,0.010088636038794282,0.9834081330675933
2017-10-31,-1,-0.0017303594634764266,-0.0017267180912513135,-0.012414968441598163,0.013062332353811828,0.9781402220458985
2017-11-02,-1,-0.0011548426082604577,-0.0010194572230882398,-0.013391722861123258,0.013062332353811828,0.9781456903998481
2017-11-06,-1,-0.001306104561045052,-0.001178434231341812,-0.014313091475110493,0.01587145175410774,0.9752190493825962
2017-11-08,-1,-0.0016882227456380674,-0.0016125458980825141,-0.014450826749754163,0.01587145175410774,0.9741496081923032
2017-11-10,-1,-0.0019984524595671824,-0.0019226244464248517,-0.014450826749754163,0.02506249257050705,0.9735987708845228
2017-11-14,1,0.0013485437025114227,0.0017069516967107145,-0.014450826749754163,0.022261273964563996,0.9783325022034647
