JNU-Tangyin/eata/results/Batch4_SP500/Batch4_SP500-AEE.csv
Date,Action,Predicted_Q25,Predicted_Q75,Actual_Q25,Actual_Q75,RL_Reward
2010-12-14,0,0.0,0.0,-0.0038972791505422354,0.0036203786608273686,0.9951336930350217
2010-12-16,0,0.0,0.0,-0.0038972791505422354,0.0036203786608273686,0.9952120278286722
2010-12-20,0,0.0,0.0,-0.003878696809941133,0.003984954501001712,0.995052610459547
2010-12-22,0,0.0,0.0,-0.003880770179920183,0.003984954501001712,0.994679409051623
2010-12-27,0,0.0,0.0,-0.003880770179920183,0.004979960924217487,0.9942155747312443
2010-12-29,0,0.0,0.0,-0.003880770179920183,0.007179404257924815,0.9940715892395058
2010-12-31,0,0.0,0.0,-0.00445555269023489,0.007179404257924815,0.9932191269072586
2011-01-04,-1,-0.0007832523322072129,-0.0006264263591994175,-0.0062139323070263975,0.007661508542557839,0.9927674671350282
2011-01-06,0,0.0,0.0,-0.0066029358597863574,0.007661508542557839,0.992635614410968
2011-01-10,0,0.0,0.0,-0.0062139323070263975,0.009829509939442902,0.9924086229977699
2011-01-12,0,0.0,0.0,-0.0062139323070263975,0.007661508542557839,0.9929576585698946
2011-01-14,0,0.0,0.0,-0.0044212369503717625,0.007661508542557839,0.9932392136501861
2011-01-19,-1,-0.0006923919296030974,-0.0005671009241317993,-0.0044212369503717625,0.006269987988321447,0.9932888042837072
2011-01-21,-1,-0.0007218350608812275,-0.0005814444115414888,-0.003995529118819697,0.0046999315034582274,0.9937095263151683
2011-01-25,1,0.0005969637530155525,0.0007010181161397554,-0.0065690268439217965,0.003996574562380773,0.9913881049467755
2011-01-27,1,0.0005419074097580501,0.0006106690305182603,-0.005291903349265601,0.003996574562380773,0.9914358941325289
2011-01-31,-1,-0.001039375791224794,-0.000862222333871433,-0.005291903349265601,0.0046999315034582274,0.9911030843140726
2011-02-02,-1,-0.0008093159554798142,-0.0006673630225991604,-0.003995529118819697,0.0046999315034582274,0.9910029731586045
2011-02-04,-1,-0.0007611342494374296,-0.000644532599050702,-0.004889460736899625,0.0046999315034582274,0.9903285981509098
2011-02-08,0,0.0,0.0,-0.004889460736899625,0.007429863103551316,0.9893640097348323
2011-02-10,0,0.0,0.0,-0.008567431815163333,0.007429863103551316,0.9882247345469013
2011-02-14,0,0.0,0.0,-0.015924026909461795,0.007429863103551316,0.9870604364723199
2011-02-16,1,0.000271226436421771,0.00028405766870857776,-0.015924026909461795,0.008259565475362583,0.9869549783716347
2011-02-18,1,0.0004975672669740796,0.0005395582332894007,-0.015924026909461795,0.014251135813686998,0.9864466554500886
2011-02-23,0,0.0,0.0,-0.011660013475088262,0.014251135813686998,0.9886000041039599
2011-02-25,-1,-0.0016977343149236382,-0.0015804176492188182,-0.011660013475088262,0.009232425328378377,0.9886648202529091
2011-03-01,-1,-0.0011751090277396072,-0.0010478951079037663,-0.007270128495247475,0.008481333416361536,0.9896491768530974
2011-03-03,-1,-0.00018949462164496533,-0.0001873938685167346,-0.007505060893449785,0.008481333416361536,0.9897292882585246
2011-03-07,0,0.0,0.0,-0.0049373749098702135,0.00858993869207333,0.9903295418646194
2011-03-09,0,0.0,0.0,-0.0049373749098702135,0.0073461012881471804,0.9914301631852612
2011-03-11,0,0.0,0.0,-0.0049373749098702135,0.0073461012881471804,0.9922867061683444
2011-03-15,0,0.0,0.0,-0.0027470116976546057,0.0073461012881471804,0.9929911051445307
2011-03-17,-1,-0.0015109891402782516,-0.0013517006591187296,-0.0025183914824727124,0.0073461012881471804,0.9926427896423297
2011-03-21,-1,-0.0009796414839810573,-0.0008703914384206286,-0.004251514264324534,0.0073461012881471804,0.9921709669194725
2011-03-23,0,0.0,0.0,-0.0037149198496064513,0.00858993869207333,0.9922623645724652
2011-03-25,0,0.0,0.0,-0.0037149198496064513,0.00858993869207333,0.9923658354062872
2011-03-29,0,0.0,0.0,-0.0037149198496064513,0.007597306470878055,0.9926174314061973
2011-03-31,1,0.000524272543806787,0.0006792432444886174,-0.0032340271374007245,0.007597306470878055,0.9932448824438714
2011-04-04,0,0.0,0.0,-0.0032340271374007245,0.00789167710519514,0.9931165527044471
2011-04-06,0,0.0,0.0,-0.005689856166844054,0.005697109326842727,0.9926529757331353
2011-04-08,0,0.0,0.0,-0.0037149198496064513,0.0074154272093808985,0.9925884738171985
2011-04-12,0,0.0,0.0,-0.0037149198496064513,0.00789167710519514,0.9919445454234529
2011-04-14,0,0.0,0.0,-0.004075422921247982,0.008303854542792267,0.991716303008445
2011-04-18,0,0.0,0.0,-0.0033541948279479017,0.00789167710519514,0.9929485408462756
2011-04-20,0,0.0,0.0,-0.0033541948279479017,0.007519209483409466,0.9932407854073962
2011-04-25,0,0.0,0.0,-0.005031164817650394,0.00789167710519514,0.9920821125602184
2011-04-27,0,0.0,0.0,-0.005031164817650394,0.007519209483409466,0.9924113514546217
2011-04-29,0,0.0,0.0,-0.005031164817650394,0.00730609678953458,0.9928081388425599
2011-05-03,1,0.0017337839521357921,0.0019864472233904924,-0.008217405637448685,0.0051695212594062324,0.992629771514344
2011-05-05,0,0.0,0.0,-0.004896878626025266,0.0051695212594062324,0.9930678527157397
2011-05-09,0,0.0,0.0,-0.007645423570473655,0.003716519326224202,0.9927623314261256
2011-05-11,0,0.0,0.0,-0.006323392987102795,0.0031584185512467714,0.9937593530255133
2011-05-13,0,0.0,0.0,-0.006323392987102795,0.0031584185512467714,0.9939755873501493
2011-05-17,0,0.0,0.0,-0.007645423570473655,0.0025343815563915626,0.9937957713180979
2011-05-19,0,0.0,0.0,-0.006323392987102795,0.0025343815563915626,0.9938303570562499
2011-05-23,0,0.0,0.0,-0.005427843345939481,0.0028459931977327328,0.9944342204286722
2011-05-25,0,0.0,0.0,-0.008923975281008875,0.0028459931977327328,0.993069682458619
2011-05-27,0,0.0,0.0,-0.008923975281008875,0.003499320870359801,0.9924431259535762
2011-06-01,0,0.0,0.0,-0.006323392987102795,0.0036945892642968117,0.9929790457015558
2011-06-03,0,0.0,0.0,-0.005427843345939481,0.006152562792784652,0.9925604754461966
2011-06-07,0,0.0,0.0,-0.005400939343439598,0.006152562792784652,0.993106827631438
2011-06-09,-1,-0.0003653482066112194,-0.00029748006897636377,-0.004145479945351959,0.006152562792784652,0.9930635808550519
2011-06-13,-1,-0.00020434299575266027,-0.00017405189802116914,-0.004285120890823655,0.008994110566493324,0.9921224139858311
2011-06-15,-1,-0.0005868352769660331,-0.0005243106717370373,-0.0030202263768701492,0.008994110566493324,0.9925317570606826
2011-06-17,1,0.00013498962383263173,0.00019180339179104545,-0.004285120890823655,0.006152562792784652,0.992520753117207
2011-06-21,1,0.000717165609619185,0.0008587899875304892,-0.004285120890823655,0.006152562792784652,0.9927203997462704
2011-06-23,-1,-0.0004378438274130319,-0.00039044119062026507,-0.003010299394826491,0.008994110566493324,0.9926091599681144
2011-06-27,1,0.0002609692929079554,0.0003095718597858074,-0.00374375951501567,0.006723332543739647,0.9924515100257519
2011-06-29,1,0.00027924479554790067,0.0003090179120611656,-0.0040834944012392,0.006723332543739647,0.9919833911616595
2011-07-01,1,0.0012610494382845026,0.0014430638680378626,-0.005214982711101324,0.004920602204803603,0.9914960230785141
2011-07-06,1,0.0009494770090065904,0.0010909292371000874,-0.007287058397542925,0.005844928140043564,0.9905489096850714
2011-07-08,1,0.0010188604330956088,0.001146037179055196,-0.01448600796992353,0.00862631213171722,0.9871374950808465
2011-07-12,1,0.0006174636700036128,0.0006703496320826785,-0.01448600796992353,0.008733222514271591,0.983384277264026
2011-07-14,1,0.0005536794134419821,0.000596612108919521,-0.016229139026074993,0.013582271438312242,0.9798176078534085
2011-07-18,-1,-0.0008293579409399716,-0.000630577150524141,-0.015095609893167682,0.02040108431731679,0.9783288635332223
2011-07-20,-1,-0.000347081995725158,-0.0002133385902296614,-0.015095609893167682,0.02040108431731679,0.9780551980092191
2011-07-22,1,0.00034444439230548135,0.00038846212646688087,-0.015917402386007792,0.01510041148228175,0.9784160188568833
2011-07-26,1,0.0010654559029621674,0.0011339129611295043,-0.015917402386007792,0.016080722804171565,0.9780022248454286
2011-07-28,1,9.84968993410276e-05,0.0001857900673536136,-0.015917402386007792,0.021676933624012767,0.9773929755233169
2011-08-01,1,0.0005030691931040337,0.0005152713507098712,-0.013793792546712653,0.02362569261998185,0.9771742798856262
2011-08-03,-1,-0.00013480862528679477,-1.1742534234820523e-05,-0.009434698375616408,0.02362569261998185,0.9777277825121702
2011-08-05,-1,-0.0005743198020323397,-0.0003581201126661134,-0.010619837129728036,0.02196060796100839,0.9804250009339194
2011-08-09,-1,-0.0019274261376230632,-0.0015620975141144241,-0.010619837129728036,0.01660219987510904,0.984138485745897
2011-08-11,1,0.00041971404604975793,0.0004960634125223748,-0.010619837129728036,0.01438467010553286,0.9863582272089937
2011-08-15,-1,-0.0021973954339009746,-0.0018456284423153538,-0.008533390536921008,0.013782138988155926,0.9879622303551424
2011-08-17,1,0.00011019047059065794,0.000206559832238968,-0.008533390536921008,0.01438467010553286,0.9879817592526183
2011-08-19,-1,-0.0014870324780845193,-0.001240919299439336,-0.00758033661610701,0.01438467010553286,0.9879852690724388
2011-08-23,1,0.0013012434881767673,0.0013445961555672314,-0.008533390536921008,0.01438467010553286,0.9883581118015964
2011-08-25,-1,-0.0007271283130894457,-0.0005955648784677736,-0.010758824869110027,0.01438467010553286,0.9875958104315763
2011-08-29,1,0.0012865189585866159,0.0014143565823927623,-0.010758824869110027,0.014036922662079553,0.9889678569856499
2011-08-31,1,0.0012695613021710748,0.0013675761063573506,-0.010758824869110027,0.010499666767363428,0.9891402192744859
2011-09-02,1,0.00032632003168077016,0.0003638257634709627,-0.01601500650881218,0.010499666767363428,0.9880815993467584
2011-09-07,1,0.000383798412686436,0.0003930174875782565,-0.013527523771068462,0.009011260949852067,0.9887623654057713
2011-09-09,-1,-0.00010160385361568622,-4.2933472235304074e-05,-0.010105575748537463,0.010499666767363428,0.9891106084595476
2011-09-13,1,0.0006206609427954349,0.0006699886811492366,-0.010105575748537463,0.014315476545069854,0.9883490202121196
2011-09-15,1,0.001177232835037382,0.0012975598132507324,-0.010105575748537463,0.008475573386483162,0.9889293476801535
2011-09-19,1,0.0017552637440304778,0.001967643541731769,-0.010105575748537463,0.008791047388421507,0.987928387932238
2011-09-21,1,0.001893323772522714,0.0021468834302306346,-0.00905118528859541,0.007519904518663489,0.988758718222668
2011-09-23,1,0.0022138193525746037,0.00252394818839167,-0.00811173781879277,0.008176101011028399,0.9891078853322792
2011-09-27,1,0.001903239682426503,0.0021320000455563757,-0.00905118528859541,0.008176101011028399,0.9884664547692902
2011-09-29,1,0.0019768563910645917,0.0022329673087274162,-0.00811173781879277,0.011448469941610835,0.9876525736143884
2011-10-03,1,0.0010958390204707505,0.0012538371836273055,-0.005366857266242482,0.011448469941610835,0.9890645980279695
2011-10-05,1,0.0012022603023960291,0.0013802370647852558,-0.005366857266242482,0.017878101576983434,0.9872252121612405
2011-10-07,1,0.0034286712095712426,0.003803745047412486,-0.005366857266242482,0.014412901712387134,0.9875200464832826
2011-10-11,1,0.003539703338092993,0.003917542223706426,-0.0039955068401671895,0.015522942076989399,0.9880396749725362
2011-10-13,1,0.0033183974427778385,0.0036410312727493824,-0.007428901676962732,0.015522942076989399,0.9868303811884497
2011-10-17,1,0.0025298332452716897,0.0028640467270310967,-0.008035806505119605,0.01177141663871209,0.9870742771263586
2011-10-19,1,0.002594077500248748,0.002942633372279707,-0.010974452683552634,0.01177141663871209,0.9868640684599375
2011-10-21,1,0.003520417580606837,0.00396289162771652,-0.010974452683552634,0.010662001433395994,0.9876260340219055
2011-10-25,1,0.003097141845981763,0.0034413916251725637,-0.01039376768358647,0.010662001433395994,0.9873696005814663
2011-10-27,1,0.003554071469542546,0.0039689872136933575,-0.0113537585455022,0.00993060918242726,0.988111686040648
2011-10-31,1,0.002955789707830796,0.0032751730969694153,-0.0113537585455022,0.010662001433395994,0.9878021908623335
2011-11-02,1,0.0029253715625757654,0.0032380062532701773,-0.008184310820625557,0.010662001433395994,0.9884649404524534
2011-11-04,1,0.0037697885361192814,0.004030616759103868,-0.013042981802539762,0.010297399707102582,0.9859231035355165
2011-11-08,1,0.004022184498817091,0.004428969382178342,-0.013042981802539762,0.00980907527366279,0.9860480809023685
2011-11-10,1,0.00341509827031345,0.0037643409013443673,-0.011630245651713346,0.010297399707102582,0.9861245466660916
2011-11-14,1,0.002672724044736625,0.0028805607386815785,-0.011630245651713346,0.00980907527366279,0.9863453780268007
2011-11-16,1,0.002870547950628256,0.0030578632946077792,-0.011630245651713346,0.010117016530537934,0.9859949719437783
2011-11-18,1,0.0028645314878046066,0.00305771559419947,-0.011630245651713346,0.010117016530537934,0.9857480692531585
2011-11-22,1,0.0025242011047647847,0.0027043290485155884,-0.011630245651713346,0.015761978124688516,0.9853778717148091
2011-11-25,1,0.0018898827196751548,0.002031531648020662,-0.009366550093835533,0.015761978124688516,0.9860336400189885
2011-11-29,1,0.0026961523036717876,0.0029407634435884233,-0.009366550093835533,0.013067527702636837,0.9865726855433329
2011-12-01,1,0.0036927495254988315,0.003972589141139508,-0.01180837888474435,0.013067527702636837,0.9871981267037376
2011-12-05,1,0.002483942370126435,0.0025927952547637875,-0.00935661959483695,0.013067527702636837,0.989391576859298
2011-12-07,1,0.002075814149580445,0.002177779772727016,-0.011178138608056777,0.010624119341116935,0.989249538056992
2011-12-09,1,0.0024124641422557666,0.0024949200802993144,-0.00935661959483695,0.00934638898607731,0.9902997416120528
2011-12-13,1,0.0022896530070473185,0.0023878007636084653,-0.007391578964646959,0.007435626787487802,0.9912783385347496
2011-12-15,1,0.002153449726971343,0.0022601438681932565,-0.005571316357051631,0.004397325951483765,0.9924261158921457
2011-12-19,1,0.0011769292371039582,0.0012237088677714224,-0.005921476699996132,0.004397325951483765,0.9921169434012154
2011-12-21,1,0.0020153470535633927,0.00204857037360694,-0.005921476699996132,0.003441674043889242,0.9932627734162843
2011-12-23,1,0.0017462696477566061,0.0017763093260480447,-0.00904592283155421,0.003402407374773909,0.9915834857526771
2011-12-28,1,0.0013339446961206504,0.0014487994294068167,-0.01007587404797502,0.002027276537656927,0.9919536574565081
2011-12-30,1,0.00026297539724970257,0.000505115173208776,-0.008681811477859819,0.002027276537656927,0.9932916036979023
2012-01-04,1,0.00014798576984481843,0.0003517066140245965,-0.005406387939308998,0.002055995864056019,0.9936289285069697
2012-01-06,-1,-0.0004295382844543556,-0.00018822923362322,-0.005131644247560721,0.0032516320716346817,0.9940322616206491
2012-01-10,1,0.00015375350409463075,0.0003091494681048079,-0.005131644247560721,0.0032516320716346817,0.993829178205875
2012-01-12,-1,-0.00038136857448990886,-0.00012119862592138177,-0.007252732967064759,0.0032516320716346817,0.9935061401710582
2012-01-17,-1,-0.0002795163951093934,-5.73187016413301e-05,-0.007252732967064759,0.0032516320716346817,0.993393983042958
2012-01-19,-1,-0.0009673029997670814,-0.0006968113080441439,-0.003946391285884906,0.00555274797562708,0.993679405555845
2012-01-23,-1,-0.00043389127385220366,-0.00024323289673726497,-0.004654053352979899,0.005555600265263942,0.9933905881877577
2012-01-25,-1,-0.0004669895210744413,-0.0002833233399099389,-0.003946391285884906,0.005555600265263942,0.9946777723429417
2012-01-27,-1,-0.0013925134537841968,-0.0010560363315688392,-0.003946391285884906,0.005555600265263942,0.9946386665286454
2012-01-31,-1,-0.0015363776756971194,-0.0012556437588220966,-0.0035812887256421195,0.004792549863083433,0.9948013953489152
2012-02-02,-1,-0.0018919497741166848,-0.001553975139610014,-0.003957250272207942,0.004792549863083433,0.9947099827500562
2012-02-06,-1,-0.0015303579651706816,-0.0012648187823941985,-0.003957250272207942,0.004952974745629483,0.9945898934402967
2012-02-08,-1,-0.0011368926371783505,-0.0009442426070960854,-0.004368244027438503,0.0038981997877804405,0.9948055450118949
2012-02-10,-1,-0.0012672868331972706,-0.0010716437045961325,-0.0036502111052255162,0.005399802037056879,0.9946703355276971
2012-02-14,-1,-0.0013219901130547972,-0.0011341836391548267,-0.004368244027438503,0.005399802037056879,0.9939196570067125
2012-02-16,-1,-0.0006726369226971533,-0.000583659874951386,-0.005299310161390122,0.0038981997877804405,0.9946958488158607
2012-02-21,-1,-0.000615484566949885,-0.0005362393432284462,-0.005389273901094024,0.0038981997877804405,0.9944712158173585
2012-02-23,-1,-0.00030938868902699395,-0.00026370784004463104,-0.005389273901094024,0.003543921659419631,0.9948680799004261
2012-02-27,-1,-0.001518845157339088,-0.0012379740725093587,-0.004368244027438503,0.003706045775575209,0.9945637548213674
2012-02-29,-1,-0.0010539396479252803,-0.0008168626112311989,-0.005389273901094024,0.004721275676384914,0.9937997731560994
2012-03-02,-1,-0.0010513310675879246,-0.0008287557348018355,-0.004468156400146748,0.008448769100429809,0.9931524076932068
2012-03-06,-1,-0.0008836959381253784,-0.0006914396622836736,-0.003092227813296111,0.005631365353727699,0.993795102193648
2012-03-08,-1,-0.0008925842958266266,-0.0007080407029482931,-0.003504946823262322,0.005631365353727699,0.9936300184933627
2012-03-12,-1,-0.00046581300797704484,-0.00034458270510413937,-0.006015004607045677,0.0037821410941508778,0.9931111103066715
2012-03-14,-1,-0.0011077539243392954,-0.0009171656655710072,-0.0053954548929846975,0.0037821410941508778,0.9936681365538127
2012-03-16,-1,-0.0004966117051780608,-0.000432883175669731,-0.003463187645019321,0.0048672082260343506,0.9935459587185148
2012-03-20,-1,-0.0005092422992997911,-0.00042401075268735705,-0.003463187645019321,0.0048672082260343506,0.9935701703097175
2012-03-22,-1,-2.394686794422521e-05,-2.3629665974103342e-05,-0.005560998716812046,0.005789795124996835,0.9928938871037735
2012-03-26,1,8.5454741675166e-05,9.626308552153558e-05,-0.0065424703702406176,0.005789795124996835,0.9923535991823619
2012-03-28,1,0.00013760795205051957,0.00018989609627643284,-0.005560998716812046,0.007150530579078349,0.992619420479679
2012-03-30,1,0.0008044634498856288,0.0009627927906597865,-0.005560998716812046,0.006808937927394964,0.9932020064473163
2012-04-03,1,0.0009848965839919287,0.0011986498214516122,-0.0065424703702406176,0.006808937927394964,0.992799772243973
2012-04-05,1,0.0003697531123025541,0.00046409824051854185,-0.0067362432522450055,0.006808937927394964,0.9926925916560063
2012-04-10,-1,-0.0004667274816662133,-0.00044143981126604746,-0.0057583320539625425,0.006808937927394964,0.9930099669658975
2012-04-12,-1,-0.0003170392567063324,-0.00029614861817145373,-0.0057583320539625425,0.007150530579078349,0.9926359937963217
2012-04-16,1,0.00021869849327790607,0.0003087145939126576,-0.0067362432522450055,0.007150530579078349,0.9925277829293631
2012-04-18,-1,-0.00028069199384195644,-0.00027607386681730424,-0.0067362432522450055,0.007006206023949531,0.9925048206999624
2012-04-20,-1,-5.920357484021074e-05,-5.00746719067587e-05,-0.007906923446382302,0.00658309905089728,0.9928270807609154
2012-04-24,1,0.0007289975509462879,0.0008955508136236449,-0.006158898372666132,0.00658309905089728,0.9935521724161293
2012-04-26,1,0.0015915445767365304,0.0019248468224024602,-0.008205515994676466,0.006262388906253284,0.9937472087385608
2012-04-30,1,0.00045222327377159835,0.0004763048478853447,-0.008205515994676466,0.006262388906253284,0.9932895562394163
2012-05-02,1,0.0004641265951405467,0.0005239016914022366,-0.008205515994676466,0.006292261907259956,0.9930819504932814
2012-05-04,1,0.00011507560291655039,0.0001425022184256634,-0.008507847132931498,0.006292261907259956,0.9930206045682416
2012-05-08,1,0.00014846876140954518,0.00015760579238288953,-0.008507847132931498,0.006630322052804456,0.9925414932698444
2012-05-10,1,0.0002628366935549574,0.00029190267353297595,-0.008507847132931498,0.006630322052804456,0.9925960246512856
2012-05-14,-1,-0.0004311413180703614,-0.0003406108533786016,-0.006393030865432145,0.006630322052804456,0.9926408440544754
2012-05-16,1,0.00039561533039147935,0.0004765731912464567,-0.004708703997249739,0.007900318260967714,0.9930624930038883
2012-05-18,1,4.6021289073426395e-06,4.25663299173659e-05,-0.0015082005965810375,0.008757191158982748,0.9926300042409819
2012-05-22,1,0.0007012484848609815,0.000850361931051686,-0.004592511276850796,0.008757191158982748,0.9929863595897652
2012-05-24,1,0.0002730189996760866,0.0003830310954954493,-0.004592511276850796,0.008757191158982748,0.9928584673987392
2012-05-29,1,0.0006940306233261013,0.000828212019459078,-0.0060452562994175695,0.008757191158982748,0.9926753593241184
2012-05-31,1,0.00022646438349358038,0.0002592242591934308,-0.004592511276850796,0.008757191158982748,0.9929562726521141
2012-06-04,1,0.00012313796968351675,0.00015631334731861895,-0.0035043492490545356,0.008757191158982748,0.993347880616902
2012-06-06,0,0.0,0.0,-0.004592511276850796,0.007823467307543328,0.9937865571217157
2012-06-08,0,0.0,0.0,-0.0060452562994175695,0.007541486678136232,0.9936462154764966
2012-06-12,1,0.0006072180430054508,0.0006550273012859145,-0.004193087636622723,0.007541486678136232,0.9939985315468357
2012-06-14,1,0.0010505877579470762,0.0011721494964685216,-0.004193087636622723,0.007541486678136232,0.9938722524020109
2012-06-18,1,0.0017949543960158704,0.002036916212858825,-0.004193087636622723,0.005440896061701847,0.9942962191145963
2012-06-20,1,0.0009644518686342233,0.0010581921994232634,-0.0013347052949043551,0.005440896061701847,0.9948881102594589
2012-06-22,1,0.0005159764890591544,0.0005544209943726831,-0.0013347052949043551,0.005440896061701847,0.9951252657496152
2012-06-26,1,0.0005740496891220887,0.0006120827088665856,-0.0013347052949043551,0.0032643350104916034,0.995627370760007
2012-06-28,1,0.0009320630958469874,0.0010136984659881304,-0.0013347052949043551,0.0032643350104916034,0.9947739221192423
2012-07-02,1,0.0008727940417462084,0.0009525988946376602,-0.0025999498554111333,0.005675449694264183,0.9938447193723235
2012-07-05,1,0.00023920716502214283,0.0002649933129664711,-0.005721653690504875,0.005675449694264183,0.9936555380957598
2012-07-09,1,0.0001107155338489764,0.00014186046971323326,-0.0025999498554111333,0.007558181829461826,0.9931152381005081
2012-07-11,1,0.00036098086744295465,0.000382146779489754,-0.005106509452557775,0.007558181829461826,0.992961884112892
2012-07-13,1,0.0006618171370840651,0.0007148164060609213,-0.005106509452557775,0.007558181829461826,0.9932308527921436
2012-07-17,1,0.000854733800754225,0.00095420593896628,-0.005106509452557775,0.007558181829461826,0.9933943455264186
2012-07-19,1,0.0006950633543364949,0.0007612356974069742,-0.007793350065066161,0.007558181829461826,0.992302608188301
2012-07-23,1,0.0006106869874682135,0.0006732112695267294,-0.007237971709801964,0.007558181829461826,0.9924248352542682
2012-07-25,1,0.00036140737436183385,0.00037719823658737196,-0.007237971709801964,0.007558181829461826,0.9923927213753314
2012-07-27,1,0.0012786849430634142,0.0014209814510422036,-0.007793350065066161,0.0016492045421054994,0.9930758002051444
2012-07-31,1,0.0008077194200713759,0.0008809165400469974,-0.007237971709801964,0.0009553213304403555,0.9941021410999473
2012-08-02,1,0.0006889283288785315,0.000769471909205276,-0.005237847657414389,0.0009553213304403555,0.9947560443218763
2012-08-06,1,0.0009264669825302355,0.0009942115133699523,-0.005782402690248218,7.203401522602851e-05,0.9953882295569765
2012-08-08,0,0.0,0.0,-0.005782402690248218,0.0005176771038159818,0.9955279432513223
2012-08-10,0,0.0,0.0,-0.007443450048250333,7.203401522602851e-05,0.9950031520189413
2012-08-14,1,0.000545274799575798,0.0005572597449484184,-0.007443450048250333,0.0,0.9944144329960325
2012-08-16,1,0.00012212771441448507,0.00014226065788728584,-0.00546984819641325,0.00030157505813789624,0.9948042260218035
2012-08-20,-1,-8.357250523115026e-05,-3.5787259433857496e-05,-0.005218612464740731,0.0,0.9951471018590822
2012-08-22,-1,-0.0001054604494675281,-7.716350702257809e-05,-0.004011535770764929,0.0015201238748343618,0.9949423798959848
2012-08-24,-1,-0.0004855819089015823,-0.00040167760678906807,-0.004011535770764929,0.0029184953680080027,0.9950889957019183
2012-08-28,-1,-0.0008392949829056466,-0.0006951897624639414,-0.004011535770764929,0.0035898597370305164,0.9950025363701682
2012-08-30,-1,-0.0013540768411326276,-0.0011226326020006324,-0.005253623209564806,0.0035898597370305164,0.9947299058483209
2012-09-04,-1,-0.0015663476673394331,-0.0013212496127032358,-0.005183379424213661,0.004352240908189614,0.9943666916112288
2012-09-06,-1,-0.001013037934234401,-0.0008358732797265169,-0.005183379424213661,0.002685382924690197,0.9948590710463336
2012-09-10,0,0.0,0.0,-0.003365359548834175,0.002685382924690197,0.9954375818417378
2012-09-12,0,0.0,0.0,-0.0028331712069257445,0.002685382924690197,0.9956372538544461
2012-09-14,-1,-0.0026485406577028622,-0.002174484556478888,-0.0028331712069257445,0.002534060325558294,0.9962749965198648
2012-09-18,-1,-0.0003611290907081124,-0.0003061255415270168,-0.0025868394499915922,0.002534060325558294,0.996362599029778
2012-09-20,0,0.0,0.0,-0.0025868394499915922,0.0028204977025148075,0.9962114966691149
2012-09-24,0,0.0,0.0,-0.0034236660622711263,0.002286030847029085,0.9962160323720048
2012-09-26,-1,-0.000699194342666353,-0.0005787746379751057,-0.004746457309340966,0.0019131219644667012,0.9957326090078343
2012-09-28,-1,-0.0009049096548577381,-0.0007612661419442667,-0.004746457309340966,0.002286030847029085,0.9954489340079924
2012-10-02,-1,-0.0004847986349988707,-0.00041040422024728705,-0.004567715217800545,0.002286030847029085,0.9953161297291528
2012-10-04,0,0.0,0.0,-0.005142266121652752,0.0020682639811853733,0.9945356113476113
2012-10-08,0,0.0,0.0,-0.005405633008641994,0.0020682639811853733,0.993453265283802
2012-10-10,0,0.0,0.0,-0.006567652231761991,0.0028204977025148075,0.9916631154188618
2012-10-12,0,0.0,0.0,-0.008497882985474228,0.0021373047865150797,0.9910089383659216
2012-10-16,0,0.0,0.0,-0.010774758843248054,7.253931294033634e-05,0.9900160573904151
2012-10-18,0,0.0,0.0,-0.010774758843248054,-0.0036412980739807706,0.9896478910515711
2012-10-22,-1,-0.000675200206631786,-0.0006676914640348595,-0.010774758843248054,-0.00369173905370685,0.989911032897781
2012-10-24,-1,-0.001869807446733751,-0.0015842268032648476,-0.010557007306500131,0.0001917143445633691,0.9903182257956862
2012-10-26,-1,-0.0013605305737184152,-0.0011746918779825528,-0.010557007306500131,0.0001917143445633691,0.9897725574498558
2012-11-01,0,0.0,0.0,-0.010557007306500131,0.005255220502714535,0.9888709845602078
2012-11-05,0,0.0,0.0,-0.010557007306500131,0.005255220502714535,0.9889162158827043
2012-11-07,-1,-0.0019305756651173873,-0.0017070128585179186,-0.009594513242132594,0.010526003937816325,0.9897563053052434
2012-11-09,-1,-0.002539414988561674,-0.0022826509498099275,-0.007284490872357144,0.010526003937816325,0.991713719873583
2012-11-13,0,0.0,0.0,-0.0060728467702298936,0.010526003937816325,0.9919541785780115
2012-11-15,0,0.0,0.0,-0.005893099583765831,0.010526003937816325,0.9924752983435658
2012-11-19,-1,-0.004045433827971712,-0.00358330905959283,-0.005476434713324666,0.010526003937816325,0.9919375112927391
2012-11-21,-1,-0.004027807772852875,-0.0035960045569757145,-0.004631237026570419,0.010974691607232181,0.9899569289749973
2012-11-26,-1,-0.0037812399304496696,-0.003378331375244572,-0.004584368343982377,0.010974691607232181,0.9907652289857681
2012-11-28,-1,-0.0031718552105481973,-0.00282324732585803,-0.005199842960962058,0.009899922552845775,0.9918061763814751
2012-11-30,-1,-0.002425368173516262,-0.0021682033090086733,-0.005462121385327317,0.0031748606718353077,0.9920909582921086
2012-12-04,-1,-0.0028560702039297204,-0.0025559248412459776,-0.005199842960962058,0.010553009494065263,0.9915368786591077
2012-12-06,-1,-0.0019744715242618347,-0.0018056169318344012,-0.0053215153375631916,0.0031748606718353077,0.9920379755762776
2012-12-10,-1,-0.0017390590196467168,-0.0016062715924828924,-0.0053215153375631916,0.005827409100235647,0.9915566129960599
2012-12-12,-1,-0.0018075310683766709,-0.0016681578975167681,-0.0053215153375631916,0.010472359728883177,0.9909690048953277
2012-12-14,-1,-0.002267351388613381,-0.0020674385937237546,-0.004401250323264176,0.010472359728883177,0.9908125601357434
2012-12-18,0,0.0,0.0,-0.0053215153375631916,0.005156828530368177,0.9919914587498584
2012-12-20,0,0.0,0.0,-0.004401250323264176,0.007873018363426527,0.9931077923199699
2012-12-24,0,0.0,0.0,-0.004569791382453351,0.007873018363426527,0.99304294879441
2012-12-27,0,0.0,0.0,-0.0045118131577141325,0.007873018363426527,0.9929386055981745
2012-12-31,1,0.0004915632730505841,0.0007727651905488568,-0.0015141728423146233,0.007873018363426527,0.9935542873526909
2013-01-03,1,0.0010534181785941984,0.0013794499758918591,-0.0001588346414747998,0.007092699309823742,0.994397229057798
2013-01-07,0,0.0,0.0,-0.0001588346414747998,0.007092699309823742,0.9943592501357198
2013-01-09,0,0.0,0.0,-0.0007815458884233381,0.007092699309823742,0.9945048765237662
2013-01-11,1,0.0003103203532567407,0.0005355051442527405,-0.0019078035145573588,0.007006377122767231,0.9948373715728859
2013-01-15,1,0.0004179132974119587,0.0006310664176559874,-0.0019078035145573588,0.007139359228807384,0.9945510151842765
2013-01-17,1,0.00117572776273682,0.001469204685415072,-0.0019078035145573588,0.007139359228807384,0.9949479346425075
2013-01-22,0,0.0,0.0,-0.0019078035145573588,0.00634648528769007,0.99519549870967
2013-01-24,1,0.0012006462337204845,0.0014411468844381511,-0.0019078035145573588,0.006727099398005518,0.9950111137251633
2013-01-28,1,0.001136400288976925,0.0013584218638134395,-0.0019078035145573588,0.006971582395713545,0.9945592815921414
2013-01-30,0,0.0,0.0,-0.0019078035145573588,0.006971582395713545,0.9942897587744894
2013-02-01,0,0.0,0.0,-0.0019078035145573588,0.006699947849326409,0.9942327068598135
2013-02-05,0,0.0,0.0,-0.0019078035145573588,0.006699947849326409,0.9940052368201809
2013-02-07,0,0.0,0.0,-0.00402971101359197,0.006699947849326409,0.9940611880804133
2013-02-11,1,0.0012334934725168867,0.0015237126866355383,-0.0034831681848623017,0.006080714733750132,0.9947901759411159
2013-02-13,1,0.0028569383358147214,0.003305873074844424,-0.0034831681848623017,0.006043757389142666,0.9951084940089643
2013-02-15,1,0.002783445033543939,0.0032435582085541593,-0.0036062319699147883,0.006043757389142666,0.9950402226585234
2013-02-20,1,0.0031512780332185056,0.003655998946260989,-0.0036062319699147883,0.006029608829755045,0.9950607492263867
2013-02-22,1,0.003295962000892645,0.003823947102835302,-0.0036062319699147883,0.005875501220069697,0.9953919630199131
2013-02-26,0,0.0,0.0,-0.0014670208749270853,0.005875501220069697,0.9949912861646542
2013-02-28,0,0.0,0.0,-0.0014670208749270853,0.005875501220069697,0.9950419629308392
2013-03-04,0,0.0,0.0,-0.0027379699394619247,0.0060036415770769215,0.9950274248723187
2013-03-06,-1,-0.00026145387831462527,-0.00012208379035441873,-0.0027379699394619247,0.005595235154082842,0.9951604406279102
2013-03-08,0,0.0,0.0,-0.0015038371982413104,0.00642817846016434,0.9949063394861971
2013-03-12,0,0.0,0.0,-0.0015038371982413104,0.00642817846016434,0.9946019569478006
2013-03-14,1,0.9613913102776215,0.9783709000698325,-0.0015038371982413104,0.006327266824915531,0.5081199486755356
2013-03-18,0,0.0,0.0,-0.0015038371982413104,0.006456668576648044,0.9932746012388358
2013-03-20,0,0.0,0.0,-0.0029964692550318085,0.007022377141725779,0.992903449628918
2013-03-22,0,0.0,0.0,-0.0029964692550318085,0.008482656189480894,0.9921026182792583
2013-03-26,0,0.0,0.0,-0.0029964692550318085,0.007765766600725292,0.9919888036649761
2013-03-28,0,0.0,0.0,-0.00314652670881819,0.006832381090595191,0.9924089171139492
2013-04-02,0,0.0,0.0,-0.00314652670881819,0.006617701987120027,0.9925183306432076
2013-04-04,0,0.0,0.0,-0.00314652670881819,0.006617701987120027,0.992492660506219
2013-04-08,0,0.0,0.0,-0.004463271533325838,0.006617701987120027,0.991492858107236
2013-04-10,1,0.0015757409491001348,0.0016648108580892677,-0.00605415556200798,0.006488788536269788,0.9918364972574676
2013-04-12,1,0.0012827541304179602,0.0012868027288233696,-0.009200743395583072,0.006488788536269788,0.9914780967023766
2013-04-16,1,0.0006856304663109304,0.0007602509784907453,-0.00605415556200798,0.006208198495498337,0.9930615177657287
2013-04-18,1,0.00014261874574340622,0.00030668717800162205,-0.005771066349010886,0.006208198495498337,0.993049499409651
2013-04-22,1,0.0005423915102376338,0.0006558269701920487,-0.004079746419615857,0.006208198495498337,0.9938132129649467
2013-04-24,1,0.0011700489593539619,0.0011861280247611964,-0.00829195203706991,0.003575438461069086,0.993230831477936
2013-04-26,1,0.0009990290172252928,0.0010017796638814192,-0.009480685834113302,0.003575438461069086,0.9921966607446042
2013-04-30,1,0.0007103378510464149,0.0007834852098463966,-0.010059890716377405,0.0029620834096270626,0.9912822141223094
2013-05-02,1,0.0005891108893438976,0.0006597746048153219,-0.010059890716377405,0.004147113794648351,0.9908471312258532
2013-05-06,1,0.0003258359346253841,0.00043367135598500515,-0.009302114675547667,0.003566814512917507,0.9919443138694799
2013-05-08,0,-0.0001476897522819479,2.340345254445126e-05,-0.008452847036556384,0.004200492758491693,0.9923172542614983
2013-05-10,-1,-0.0008023161866137459,-0.0005347400851285397,-0.008727938078926701,0.004917351038034874,0.9911098559992533
2013-05-14,0,-0.00011289243561506091,2.6087556796724825e-05,-0.012804018798320986,0.004200492758491693,0.989909627677828
2013-05-16,1,0.00025155698656276643,0.0003074379938190896,-0.012804018798320986,0.004853121252374706,0.989309674702193
2013-05-20,1,0.000323450632395507,0.00039730786557915594,-0.012804018798320986,0.004853121252374706,0.9892922510611459
2013-05-22,-1,-0.001252337116698383,-0.0009735965111360015,-0.014827193193994406,0.004853121252374706,0.9879271280776994
2013-05-24,-1,-0.0016054937735753385,-0.0012734648996235588,-0.014068071260057345,0.007352858060304871,0.9877496633202861
2013-05-29,-1,-0.0021843968992785586,-0.0017794582304942038,-0.0117297842066724,0.013358705300852411,0.9869766300398141
2013-05-31,-1,-0.0021508425171804604,-0.0017330004440348685,-0.0117297842066724,0.013401259093291864,0.98692102533111
2013-06-04,-1,-0.0020232372005551226,-0.0016316009649557342,-0.012970128819293497,0.013401259093291864,0.9865075543614864
2013-06-06,-1,-0.0017578932162967138,-0.0014188207695569521,-0.012970128819293497,0.013401259093291864,0.9865458540892752
2013-06-10,-1,-0.0016086885580459762,-0.0012932464845517217,-0.0117297842066724,0.013401259093291864,0.9873077152381113
2013-06-12,-1,-0.0032110249573329844,-0.0026873965181217624,-0.005659099380873053,0.014524315940413998,0.9867350695686165
2013-06-14,-1,-0.001740853121381774,-0.001429480457153012,-0.005659099380873053,0.014524315940413998,0.98747496706771
2013-06-18,-1,-0.0013311455287024453,-0.0010559327509699792,-0.005659099380873053,0.014524315940413998,0.9883550368164029
2013-06-20,-1,-0.003551447974186667,-0.003015192283126455,-0.0027767127672871103,0.014524315940413998,0.9892915481084322
2013-06-24,-1,-0.002997099197474389,-0.002549976813835551,-0.00381281078815843,0.013244759559825393,0.9907011899571992
2013-06-26,-1,-0.0016812791153963755,-0.0013989476452797535,-0.00465692248109381,0.010711830652761331,0.9922970075279377
2013-06-28,-1,-0.001220336692158856,-0.0009843786271939796,-0.00465692248109381,0.00733269878987268,0.992695727416332
2013-07-02,-1,-0.001517024788657589,-0.0012492731915065055,-0.00465692248109381,0.00733269878987268,0.9931222312019423
2013-07-05,-1,-0.0020321513923019802,-0.0017104046952139138,-0.0023561584449788074,0.010845993115774291,0.9920744384338656
2013-07-09,-1,-0.0009726596105690401,-0.0007966689902916026,-0.004782012716572967,0.010058645792118202,0.9925974963630756
2013-07-11,-1,-0.00010768969114061062,-2.3731987391120994e-05,-0.005943401225893919,0.006868605182474384,0.993053815124809
2013-07-15,1,0.000613229437623503,0.0006198877191483342,-0.006521471021253115,0.004947705330137086,0.9929903736526595
2013-07-17,1,0.0006107677904663568,0.0006297130235314712,-0.007190153452236081,0.004947705330137086,0.9924152687423965
2013-07-19,1,0.00043881845900029843,0.00045698420072849276,-0.010642533775953145,0.004063738486377561,0.9917112968648258
2013-07-23,1,0.00036436299674445256,0.00037078705017193917,-0.010642533775953145,0.004947705330137086,0.9911415454162179
2013-07-25,1,0.0004027672930423633,0.00041972284957687503,-0.010642533775953145,0.005648034954110051,0.9909122438219603
2013-07-29,1,0.0006471793330909874,0.000688403055105106,-0.010642533775953145,0.0058978613434505,0.9906170665689658
2013-07-31,1,0.00019614432249537555,0.000220637088083516,-0.010642533775953145,0.0058978613434505,0.9910294730054255
2013-08-02,1,0.0009569238689814046,0.0010238602263645349,-0.010642533775953145,0.0024634831633146667,0.991614665012456
2013-08-06,1,0.00040660908662870984,0.0004113353238343782,-0.010642533775953145,0.0024634831633146667,0.991626039377868
2013-08-08,1,0.00031140912559038684,0.0003199121864630789,-0.009821525701658066,0.0024634831633146667,0.9918295154042374
2013-08-12,-1,-0.00018158789037123812,-0.0001372026893955185,-0.008837828107951022,0.005474198252036431,0.9924818666171888
2013-08-14,-1,-0.0010152039992881948,-0.0008627165381889935,-0.008837828107951022,0.005474198252036431,0.992631759192377
2013-08-16,-1,-0.001905228862769173,-0.0016621114081820055,-0.006212176181632783,0.005795365573181258,0.9929956870315442
2013-08-20,-1,-0.0015041024548135737,-0.0013368128768609356,-0.005818898960874929,0.006109661492397371,0.991734635843469
2013-08-22,-1,-0.0014411667020616421,-0.0012871355960329743,-0.005538847066014022,0.006109661492397371,0.9922604344950312
2013-08-26,-1,-0.00158540715257158,-0.0013946135481899221,-0.005033920616844639,0.007299998648255771,0.9917149378823976
2013-08-28,-1,-0.0014302567936250688,-0.0012708835033640497,-0.005538847066014022,0.007299998648255771,0.9914448640632009
2013-08-30,-1,-0.001064480006732928,-0.0009547983654299181,-0.005538847066014022,0.007299998648255771,0.9915687869194779
2013-09-04,-1,-0.0016822879647253575,-0.0015204211581051545,-0.0048641099095552195,0.007299998648255771,0.9923376012105324
2013-09-06,-1,-0.0018740266561803492,-0.0016753586613452915,-0.0048641099095552195,0.005954394536346994,0.9924954211671607
2013-09-10,-1,-0.0016039067852772055,-0.0014416610977410224,-0.005033920616844639,0.005152380556293427,0.9922162425108987
2013-09-12,-1,-0.001831394099985683,-0.0016738645727989454,-0.004413617123148838,0.009329947138476746,0.991261687986638
2013-09-16,-1,-0.0006385047668127986,-0.0006301056625229785,-0.004413617123148838,0.007193633391632483,0.9922593696724359
2013-09-18,1,0.0007347231784956754,0.0009206799028963424,-0.0048641099095552195,0.004849416583929294,0.9939737824230512
2013-09-20,1,0.0007148399656023574,0.0009157847715793037,-0.004413617123148838,0.006284741474540087,0.993440383541139
2013-09-24,1,0.0014983917729782393,0.0017831236604004287,-0.004558404173822476,0.004849416583929294,0.9938722127639013
2013-09-26,1,0.0013211080512741272,0.001579909562509981,-0.004314517370983508,0.004849416583929294,0.9940166162291587
2013-09-30,1,0.0009289518975065379,0.0011214120328150979,-0.0009724301999795401,0.00571088560370558,0.993973334683168
2013-10-02,1,0.0009774621095081583,0.0011649974817334431,-0.0033988920025160986,0.00571088560370558,0.9934695408066273
2013-10-04,1,0.0007290892912371345,0.000904115467387766,-0.0015896459018614052,0.007112111904693276,0.9935901971894378
2013-10-08,1,0.0006034448367125301,0.0007682512972569456,-0.0015896459018614052,0.007112111904693276,0.9935856959309693
2013-10-10,1,0.0018184423076035403,0.002164098213186143,-0.0033988920025160986,0.00571088560370558,0.9938761224202474
2013-10-14,1,0.0014905223111001072,0.0017264832332738698,-0.0033988920025160986,0.005016754293727199,0.9939042178656635
2013-10-16,1,0.0007208557952058468,0.0008089664178301181,-0.0033988920025160986,0.006058345870448361,0.9936416766516089
2013-10-18,1,0.0009153644860573366,0.0009942082961596317,-0.0033988920025160986,0.006948083854314651,0.9936675066868759
2013-10-22,1,0.0011310967446967134,0.0012490275339204827,-0.001976536785091017,0.006287564787254842,0.9940912282696819
2013-10-24,1,0.0011286555546372167,0.0012454642221576583,-0.003243873951921886,0.006287564787254842,0.9939654107252851
2013-10-28,1,0.0016623869303334679,0.0018565930721877663,-0.0036648668663008905,0.004562167305152047,0.9942652462473708
2013-10-30,1,0.0012699660189438406,0.0013946141845545266,-0.007205390248327226,0.004562167305152047,0.9938360852541713
2013-11-01,1,0.0008894352435172538,0.0008958912782910998,-0.007205390248327226,0.004562167305152047,0.9938286674168353
2013-11-05,1,0.0009944826347452669,0.0010743674769392417,-0.0042277081816479,0.0060457888527233015,0.9939212493213165
2013-11-07,1,0.0012424523245288016,0.0013834799337770422,-0.0042277081816479,0.0060457888527233015,0.9939518451864212
2013-11-11,1,9.937622156010374e-05,0.000189485658632801,-0.008614083207527415,0.0060457888527233015,0.9925450096923127
2013-11-13,0,-2.024355017502086e-05,6.875339620621799e-05,-0.008614083207527415,0.006690490064016293,0.9923325356153495
2013-11-15,1,0.001271824442997871,0.0014095288061702874,-0.008614083207527415,0.006035281892563518,0.9926730703117215
2013-11-19,1,0.0015251466766795863,0.001719969010550508,-0.008614083207527415,0.006578169416752898,0.991924494082281
2013-11-21,1,0.0009245475286013096,0.001013979135592334,-0.007704703592395416,0.006690490064016293,0.9918482064518416
2013-11-25,1,0.0005176884884169054,0.0005179589651053071,-0.008544622060690395,0.006690490064016293,0.9915033086136908
2013-11-27,1,0.00012431721775243691,0.0001254709064502194,-0.004507681004412893,0.006690490064016293,0.9922003701759093
2013-12-02,1,0.0008542065439276654,0.0009957075919246323,-0.004303601542929523,0.006690490064016293,0.9925615970335017
2013-12-04,1,0.0017418554043745335,0.0020411601028649208,-0.00906712905364505,0.005406562200430432,0.9918366056671039
2013-12-06,1,0.001516764961697923,0.00178025163969066,-0.004749640732048425,0.00715210095307412,0.992023599894507
2013-12-10,1,0.0002972657978502723,0.0004119390865671576,-0.0032127634532757095,0.00715210095307412,0.9932370349397882
2013-12-12,1,0.0001149696133167538,0.0001904588821463674,-0.0032127634532757095,0.007440419943468547,0.9931894845601312
2013-12-16,1,0.0002797786147069002,0.00037457066042634655,-0.00467675372501355,0.006279319687305865,0.993083073965921
2013-12-18,1,0.0011538225325764342,0.0013877882472643425,-0.00467675372501355,0.005294531157471459,0.9937588344786235
2013-12-20,1,0.0011955994598177588,0.0014156254011768524,-0.00467675372501355,0.005294531157471459,0.9937167953745739
2013-12-24,1,0.0016208058753591579,0.0019471350216034205,-0.005208651799453913,0.004446538522198421,0.9932206334306534
2013-12-27,1,0.0011758446948602137,0.0013947894497992625,-0.005208651799453913,0.00816010794751923,0.9927304496784001
2013-12-31,1,0.0013101050134494152,0.0015448979022308958,-0.005208651799453913,0.009643439407720451,0.9920603617420405
2014-01-03,1,0.0001494243792012997,0.00019280618814833308,-0.0044652198266508245,0.010842954514726607,0.991892057110529
2014-01-07,1,0.0006047948102399827,0.0006775625919883978,-0.007745838800422475,0.00816010794751923,0.9920495554585094
2014-01-09,-1,-0.0003742345285779407,-0.00026152203695479527,-0.005515542882013212,0.00816010794751923,0.9918723240738403
2014-01-13,-1,-0.00020612825239396508,-0.00012130853851181848,-0.0044652198266508245,0.00816010794751923,0.9919917957896859
2014-01-15,-1,-0.0006684344631347878,-0.000515493985829596,-0.0030584094783946644,0.00926763041955301,0.991911402605009
2014-01-17,-1,-0.00044442863553169397,-0.0003142915044105605,-0.0030584094783946644,0.00926763041955301,0.991620441136021
2014-01-22,0,-5.48007558510768e-05,3.906151776337591e-05,-0.0044652198266508245,0.00926763041955301,0.990930887567052
2014-01-24,-1,-0.001103433733533887,-0.0009414922822309222,-0.00028853383820929787,0.010220290510192855,0.9887801537766377
2014-01-28,-1,-0.0009057910212774486,-0.0007178684552882662,-0.0031556292300637264,0.010019801909066081,0.9893577215828003
2014-01-30,-1,-0.00026432234516332907,-0.00015328506728899943,-0.005360420875771231,0.007748151615010806,0.9898303059173472
2014-02-03,0,-7.630534667041805e-05,9.674819364698122e-06,-0.003759171024176947,0.007748151615010806,0.9901319231211534
2014-02-05,-1,-0.0014100436575510608,-0.0011301467827830754,-0.0037525693169857496,0.007748151615010806,0.9901943694546563
2014-02-07,-1,-0.0006308127734445968,-0.00046969837103267426,-0.0071512411365373,0.007348057735263994,0.9902929084200759
2014-02-11,1,0.0008150715354538821,0.000905736448187247,-0.0071512411365373,0.007348057735263994,0.9903791173571419
2014-02-13,1,0.0008488022778523725,0.0009207696560237038,-0.0071512411365373,0.008854192128853727,0.9898796048785709
2014-02-18,1,0.0015818538040634996,0.001801699875597093,-0.0071512411365373,0.008854192128853727,0.9901238792688787
2014-02-20,1,0.0012186028334761783,0.001368664708513702,-0.0072731585427617965,0.006693185700933337,0.9903858162484254
2014-02-24,1,0.001481417083668471,0.001638389751808331,-0.0072731585427617965,0.006693185700933337,0.9925269076800507
2014-02-26,1,0.0012575515860113139,0.0013937097809094041,-0.0071512411365373,0.006693185700933337,0.9927884184869802
2014-02-28,1,0.0008406034889930282,0.0008884060590550953,-0.006414646842494801,0.0072054920434291535,0.9929832615236458
2014-03-04,1,0.0010177515729463747,0.0010685277881988435,-0.007253353421188205,0.0072054920434291535,0.9926603864731828
2014-03-06,1,0.0008232281531732799,0.0009103394198628908,-0.006055198024415504,0.0072054920434291535,0.9932336299413635
2014-03-10,1,0.00033168103992663314,0.00036103831902528215,-0.005053520532279889,0.0072054920434291535,0.9930798413426435
2014-03-12,1,0.0005177415548573072,0.0005441640805055255,-0.006180125562469349,0.0072054920434291535,0.9927766756139176
2014-03-14,1,0.001367898608343397,0.0015426243394012038,-0.006180125562469349,0.006446915496316496,0.9932503791019512
2014-03-18,1,0.0012954500764031304,0.001461769774866604,-0.006180125562469349,0.0083417529733085,0.992074585288449
2014-03-20,1,0.0004468194482869821,0.0004961928235621724,-0.005053520532279889,0.0083417529733085,0.9919796128131101
2014-03-24,1,0.0009126300303457214,0.001052264034746803,-0.006180125562469349,0.007422844813333471,0.9920279908104666
2014-03-26,1,0.00028809026545339935,0.00031647365747505514,-0.005062330114538205,0.008312273608069066,0.9918797124542665
2014-03-28,1,0.0010398944399949675,0.0011904265913680505,-0.005706254540110058,0.008884690134432473,0.9918585592970967
2014-04-01,1,0.0005464562627049397,0.0006025611270202564,-0.004895563524826793,0.008312273608069066,0.9927465303739414
2014-04-03,1,0.0005476159724237563,0.0006007549666450178,-0.005706254540110058,0.008312273608069066,0.9916269525855991
2014-04-07,-1,-0.0002431564503585526,-0.00021176855779119516,-0.005706254540110058,0.008884690134432473,0.9916662765421264
2014-04-09,1,0.00014167576997604718,0.00014862367699158735,-0.005939433223111886,0.008884690134432473,0.9910676513455706
2014-04-11,1,0.0009956550879682354,0.0011375665454208383,-0.009599534677502065,0.008884690134432473,0.9897111123503571
2014-04-15,1,0.001714196309400443,0.0019469834704244206,-0.009599534677502065,0.004845562915937621,0.9904177483845835
2014-04-17,1,0.00045513424165481557,0.0004968013303690355,-0.007367148887194536,0.00406075041319269,0.9915042364576108
2014-04-22,1,0.0004703318029091184,0.0005123510604342705,-0.008915895139673268,0.00406075041319269,0.990883661797734
2014-04-24,1,0.0003574848289322724,0.0003669928592483407,-0.01097754533175593,0.004341741641640396,0.990012044121523
2014-04-28,1,0.00043664451439400913,0.00044599859488051764,-0.01097754533175593,0.003656723085949592,0.9902884128527716
2014-04-30,1,0.0007259774788107197,0.0007983806475823088,-0.01097754533175593,0.0069512238993011816,0.9896502579856474
2014-05-02,-1,-0.0007693484232472467,-0.0006517187552361561,-0.00838050102940388,0.00785262105953999,0.9902706454543824
2014-05-06,-1,-0.001400514929239374,-0.0011393702464957516,-0.00838050102940388,0.0069512238993011816,0.9907601418318408
2014-05-08,-1,-0.001739190718049719,-0.001438499170608034,-0.007137951027741862,0.0069512238993011816,0.9915817519974084
2014-05-12,-1,-0.0030765854524497796,-0.0026226107857618376,-0.007137951027741862,0.0069512238993011816,0.992549678044749
2014-05-14,-1,-0.0018214934854937463,-0.0015564831491842418,-0.00825796501860316,0.0069217718774216876,0.9924805087217258
2014-05-16,-1,-0.0018975542442737693,-0.0016243484110423203,-0.00825796501860316,0.0069512238993011816,0.99194974035123
2014-05-20,-1,-0.0026942824374513175,-0.002328775992417121,-0.007137951027741862,0.007909961931614617,0.9913874920219394
2014-05-22,-1,-0.0023408839756895324,-0.0020074056068758194,-0.007137951027741862,0.007909961931614617,0.9918177790717457
2014-05-27,-1,-0.00214428458861807,-0.001839095712958001,-0.007137951027741862,0.007873596233903426,0.9918893051644885
2014-05-29,-1,-0.0028403074698991303,-0.002412603196008921,-0.006513827717076966,0.009967162170818611,0.9915229589748835
2014-06-02,-1,-0.0022728596550439387,-0.001951930532082163,-0.004220329672286697,0.00808879712008514,0.9917524415475172
2014-06-04,-1,-0.002186383985369102,-0.0018654528621853135,-0.006540368487849189,0.00808879712008514,0.991234649503314
2014-06-06,-1,-0.0021507882916915392,-0.0018357166975492905,-0.008337587330919828,0.007820118466331107,0.9909438492314416
2014-06-10,-1,-0.0032336619986195877,-0.0027730000863329905,-0.0035426837034657384,0.007820118466331107,0.9911924192888718
2014-06-12,-1,-0.002944194297981208,-0.002536711238632708,-0.0035426837034657384,0.008924487288022264,0.9910672795466305
2014-06-16,-1,-0.0023879796860338167,-0.002066798950165997,-0.004633419304490194,0.007820118466331107,0.9912390343763728
2014-06-18,-1,-0.0020156963381777714,-0.0016896580787111426,-0.00456870286903058,0.006871853686251907,0.99231587794768
2014-06-20,-1,-0.0017843066691842885,-0.0015300136785642241,-0.002898390795842682,0.006871853686251907,0.9924556833685968
2014-06-24,-1,-0.0011955772716680311,-0.001041926244073041,-0.002826352500754915,0.006871853686251907,0.9926356515723118
2014-06-26,-1,-0.00046588307994485146,-0.00039293789644600564,-0.004352587983767279,0.005053145417161573,0.9931470043761116
2014-06-30,-1,-0.0005119626979716926,-0.0004035464586274869,-0.007964555279347585,0.005053145417161573,0.9922179238557869
2014-07-02,-1,-0.0016881624638121176,-0.0014814703915156644,-0.009630787734328442,0.005053145417161573,0.9916029540120862
2014-07-07,-1,-0.0012355158146681862,-0.0011129981391553349,-0.007964555279347585,0.004514863903593708,0.9921360735426364
2014-07-09,-1,-0.0008402338388971276,-0.0007793527032220202,-0.011708640507485114,0.003965687791844451,0.9907236914787799
2014-07-11,-1,-0.0006592984129006534,-0.0006387301535376386,-0.011708640507485114,0.004772389771827359,0.9900425477157884
2014-07-15,-1,-0.000943500298335706,-0.0009046610611266756,-0.009416408304888404,0.004772389771827359,0.9906054075506988
2014-07-17,1,8.590698653384766e-05,0.00013143587973420479,-0.009416408304888404,0.005272645833015423,0.9904777076107144
2014-07-21,1,0.0004235651002775804,0.0005057991726642013,-0.009416408304888404,0.005272645833015423,0.9904038157080025
2014-07-23,1,0.0003811478322569427,0.00046159707558625265,-0.009416408304888404,0.008506616659237156,0.9899540927921561
2014-07-25,1,0.0003111595756789054,0.00040187989404293366,-0.008116971507815809,0.008506616659237156,0.9902992709445043
2014-07-29,1,5.406793706518818e-05,6.862362020449064e-05,-0.008116971507815809,0.006132868100807717,0.9905176998157947
2014-07-31,-1,-0.0017784938163835703,-0.0015525846291180702,-0.0026115845191604053,0.008506616659237156,0.9910456952503143
2014-08-04,-1,-0.0013901915579749482,-0.0012389845362650626,-0.0026115845191604053,0.008506616659237156,0.9905548851762281
2014-08-06,-1,-0.002176830201143646,-0.0019884814088723638,-0.0009470902380045156,0.010701878401696915,0.9911209296786357
2014-08-08,-1,-0.0008754638172098353,-0.000844611173912647,-0.0017210508104857733,0.008662270223829796,0.9917240355457358
2014-08-12,-1,-0.0012903772550556406,-0.0011662189503969262,-0.001972285209877894,0.008662270223829796,0.9911097664347363
2014-08-14,-1,-0.0005401682720443334,-0.0005229568785335739,-0.006587491035545319,0.008396379264371097,0.9904726081956525
2014-08-18,-1,-0.00043968518141812444,-0.00041206675044683694,-0.005194488528086447,0.007346663108059889,0.9905523688748238
2014-08-20,1,0.00039640724139894775,0.000517761177203225,-0.012784470093822768,0.00729065921141916,0.9907774247061953
2014-08-22,1,0.0004010896071370426,0.0005166489335790786,-0.012784470093822768,0.007346663108059889,0.9900429985123022
2014-08-26,-1,-0.0002967430691757997,-0.00027721956529865315,-0.008535881462246575,0.007346663108059889,0.9910251318010512
2014-08-28,1,0.0001379597417866472,0.00016149648819904614,-0.008535881462246575,0.00729065921141916,0.9916178543604481
2014-09-02,-1,-0.00013433738686334046,-0.00012943451259149485,-0.006001478369463478,0.006955809116386312,0.9923576315403769
2014-09-04,1,0.0006342084440995048,0.0007746319017865443,-0.006001478369463478,0.005437878486319133,0.9927185216106587
2014-09-08,1,0.0008628190075457961,0.0011043144854646178,-0.004308521999253176,0.006725624878373821,0.9935467004662615
2014-09-10,0,-5.601536963141364e-05,1.537008517998848e-05,-0.001370499978647142,0.006955809116386312,0.9931682068427824
2014-09-12,-1,-0.0007079328955260308,-0.0006923690883692127,-0.001370499978647142,0.006955809116386312,0.9923586385356504
2014-09-16,1,9.898124110158108e-05,0.0002131903490533163,-0.001370499978647142,0.010442160710582566,0.9918392589596491
2014-09-18,-1,-0.0003565551958401598,-0.00028391418719013895,-0.004308521999253176,0.010442160710582566,0.9909236174811576
2014-09-22,0,-5.3416442770016375e-05,6.386518877011567e-05,-0.001370499978647142,0.011291577904983016,0.990786894075174
2014-09-24,-1,-0.0006893148991849398,-0.0006595700189470355,6.755059566076465e-05,0.011291577904983016,0.9903207047779015
2014-09-26,-1,-0.0006662328605550049,-0.0006553642062780801,0.001828918973618515,0.011291577904983016,0.9898912571625396
2014-09-30,-1,-0.0004230183323239363,-0.00040386086768319615,0.00031011131971107664,0.011291577904983016,0.9899937218078813
2014-10-02,-1,-0.0013004374766185196,-0.0011573606651784515,0.00031011131971107664,0.012112656043810116,0.9880856888409948
2014-10-06,-1,-8.897527094151138e-05,-6.943373430871252e-05,-0.0015910231656744373,0.014315052923177394,0.988502442001659
2014-10-08,1,0.0007349250920454942,0.0008631916183395903,-0.005787231368924889,0.014315052923177394,0.9881457721176277
2014-10-10,-1,-0.00015437078748651916,-0.00011768214626835889,-0.005787231368924889,0.016708919004310856,0.9877296258365666
2014-10-14,1,0.000768775816060918,0.000877036744571682,-0.005787231368924889,0.012137067636101428,0.9892664081155687
2014-10-16,-1,-5.713981010382583e-05,-4.817367969401265e-05,-0.005787231368924889,0.012137067636101428,0.989468835882226
2014-10-20,1,0.0006894864911281768,0.0007950804505949532,-0.005787231368924889,0.012137067636101428,0.9894194239808483
2014-10-22,1,0.0008937983488778612,0.0010351191573660578,-0.0063528064683840086,0.012137067636101428,0.9890233655947593
2014-10-24,1,0.0014716672833395635,0.0016967337993169015,-0.006950822963910157,0.012137067636101428,0.9888671189150212
2014-10-28,1,0.0018821080753741856,0.0021680069273695263,-0.007836545120857023,0.008835960044288839,0.9886361299525088
2014-10-30,1,0.0020442797484660617,0.0023039655397988964,-0.007836545120857023,0.007814530457066277,0.9896587477748005
2014-11-03,1,0.0021556528033970642,0.0024245711079458054,-0.007836545120857023,0.006612458894510082,0.9904550488249139
2014-11-05,1,0.0026640490257165477,0.0030193677576316686,-0.006950822963910157,0.00654055948681682,0.9916146223380039
2014-11-07,1,0.002767572134435336,0.003181319103909124,-0.006664047866815172,0.00654055948681682,0.9927064253382866
2014-11-11,1,0.002739145659215197,0.003155954755787327,-0.006950822963910157,0.00654055948681682,0.9917483422523516
2014-11-13,1,0.0018503842392080779,0.002152028679714349,-0.006664047866815172,0.00688774601665799,0.9922917962409059
2014-11-17,1,0.002703720906343593,0.0031557158922890724,-0.007062606342607846,0.006386059757183845,0.9927139615623696
2014-11-19,1,0.003059257191662954,0.0035613809199557464,-0.007033810838262586,0.007423144613250177,0.9910051653223945
2014-11-21,1,0.0023645276186005123,0.0026914006819232614,-0.00628157104935184,0.007423144613250177,0.9913483241991645
2014-11-25,1,0.001865526321890239,0.0021168467954655453,-0.0025636999393719015,0.008840914398886159,0.9905909834462078
2014-11-28,1,0.002535589356613739,0.0028788205726933357,-0.0025636999393719015,0.010154179440665143,0.9905520070049407
2014-12-02,1,0.0028347315548785156,0.003217798067594612,-0.007527751433691873,0.010154179440665143,0.9887692976983978
2014-12-04,1,0.0026167090762618922,0.0029449150652206785,-0.010038592204537846,0.010154179440665143,0.9884703064355507
2014-12-08,1,0.00287436307203373,0.003239613516423076,-0.010290141552026729,0.00804382458067765,0.9885880577024901
2014-12-10,1,0.0021685897162235226,0.0024669246095847504,-0.010290141552026729,0.00804382458067765,0.9889996909520072
2014-12-12,1,0.002021345215200243,0.002296135290396413,-0.01018107611789734,0.008736610927386314,0.9891613734843656
2014-12-16,1,0.001534744795626902,0.0017215725501078065,-0.005500564351220033,0.009225828838678727,0.9890300708765373
2014-12-18,1,0.003479094420947108,0.003927847013665929,-0.007012848507855192,0.008932657635769985,0.9911174664056941
2014-12-22,1,0.0030970803791893022,0.0033697867912688044,-0.007012848507855192,0.008932657635769985,0.990810343223979
2014-12-24,1,0.003920496328511463,0.004294876156941966,-0.007012848507855192,0.008736610927386314,0.9915235818733563
2014-12-29,1,0.003982874961697693,0.004267178663992717,-0.010303250747752776,0.005186990607354721,0.9911252411648808
2014-12-31,1,0.0029054725672538204,0.0031075309778297146,-0.007012848507855192,0.008008672651593702,0.991358373898147
2015-01-05,1,0.002414208972783031,0.0025412098948688782,-0.004504101500562414,0.008008672651593702,0.9921924200475962
2015-01-07,1,0.0024065181903450365,0.0025438180409299276,-0.004504101500562414,0.008827201848518141,0.9916258692811885
2015-01-09,1,0.001811043126293494,0.0018943172904701492,-0.007812444092698535,0.008827201848518141,0.9889761634441397
2015-01-13,1,0.0020178812202214,0.0021559537432786404,-0.01392237313256787,0.009225828838678727,0.9872899562778684
2015-01-15,1,0.002583792823211873,0.0027926464602537854,-0.016743243185177465,0.004258823070602948,0.9863563929035359
2015-01-20,1,0.002228694746220216,0.002350454068623245,-0.016743243185177465,0.004258823070602948,0.9860320606900104
2015-01-22,1,0.0025033678697286834,0.002695174663741743,-0.016743243185177465,0.005883234505186741,0.9855624963926468
2015-01-26,1,0.0020926311304071627,0.002200699873466235,-0.016743243185177465,0.005883234505186741,0.9855978698627321
2015-01-28,1,0.001603237890611094,0.0016644947940939432,-0.016743243185177465,0.005883234505186741,0.9855903186987357
2015-01-30,1,0.0011182096000454903,0.0011399403946795606,-0.01445552104478201,0.0036773894729219677,0.9873281095315958
2015-02-03,1,0.000671449360388159,0.000787035533174786,-0.01445552104478201,0.0036773894729219677,0.9869637289450773
2015-02-05,0,-0.000206909743481716,4.1722921835125925e-05,-0.01445552104478201,0.0036773894729219677,0.9868309683689945
2015-02-09,-1,-0.0025494285896624507,-0.002044782294931788,-0.00710730697512546,0.005305903782624421,0.9893189230601332
2015-02-11,-1,-0.0026715542343970465,-0.002121096972754012,-0.00710730697512546,0.005305903782624421,0.9895028639794409
2015-02-13,-1,-0.0036188974629519986,-0.0029622446858341886,-0.00710730697512546,0.008778442022465284,0.9892194924275823
2015-02-18,-1,-0.002673524374187282,-0.002118080267746995,-0.00710730697512546,0.008778442022465284,0.9897124708676012
2015-02-20,-1,-0.002768466267909381,-0.0021862846219918995,-0.010972656779760021,0.008778442022465284,0.9894068458631788
2015-02-24,-1,-0.002766758730063963,-0.0021992216176042515,-0.013463849736784814,0.008778442022465284,0.9888342224871031
2015-02-26,-1,-0.0033139017265663797,-0.0026839028611695586,-0.012554389247921743,0.008778442022465284,0.9891222294994528
2015-03-02,-1,-0.0032921442211614063,-0.0026959001973765936,-0.012554389247921743,0.010143547807889501,0.9875858663051974
2015-03-04,-1,-0.003195664576448021,-0.002655008642695392,-0.012554389247921743,0.010143547807889501,0.987432207939516
2015-03-06,-1,-0.004333374452723566,-0.0036283213162738442,-0.007470461221591567,0.010143547807889501,0.9886879938799142
2015-03-10,-1,-0.003226696548979514,-0.002699080495996555,-0.012554389247921743,0.010143547807889501,0.9891822900839222
2015-03-12,-1,-0.0036995543810176305,-0.0030635552385313803,-0.007470461221591567,0.010143547807889501,0.9904605850731545
2015-03-16,-1,-0.0030869206534189265,-0.002569970383912535,-0.007470461221591567,0.006455015135319755,0.9913140610111673
2015-03-18,-1,-0.0021414327874118037,-0.0017460914831513342,-0.010799799583460902,0.004344371289407375,0.9923534188542078
2015-03-20,-1,-0.001985918721340435,-0.0016323674770690113,-0.006970070145335006,0.004344371289407375,0.9926447238071342
2015-03-24,-1,-0.00276149890100364,-0.0023353954546567936,-0.004768253272996666,0.004344371289407375,0.9931182954707676
2015-03-26,-1,-0.0029522011784834136,-0.0025472998764091937,-0.0020356249455433222,0.0065843834677262745,0.992557855303841
2015-03-30,-1,-0.001548921983818112,-0.001327900085982325,-0.0029503175125788904,0.005348786402221096,0.9936838496003085
2015-04-01,-1,-0.0011041317150542317,-0.0009577643696448332,-0.009663726100632191,0.005348786402221096,0.9926311838878646
2015-04-06,-1,-0.00109721770051957,-0.0009494742801662989,-0.009663726100632191,0.007029335041676814,0.9920199816582856
2015-04-08,-1,-0.001740677796274041,-0.0015187079308327254,-0.009663726100632191,0.007029335041676814,0.9914451522577211
2015-04-10,-1,-0.0018500222729567442,-0.0015752526227325791,-0.009663726100632191,0.005726369755947602,0.991915638548064
2015-04-14,-1,-0.0017646048453833752,-0.0015304200567908314,-0.006428021181892072,0.005726369755947602,0.992743876777806
2015-04-16,-1,-0.002186621395126928,-0.0019033935800844626,-0.006428021181892072,0.007029335041676814,0.9921323329879795
2015-04-20,-1,-0.001958430365477779,-0.0016935058900009142,-0.006428021181892072,0.0065018218389417855,0.99217554347169
2015-04-22,-1,-0.002155736080651909,-0.0018487369802146934,-0.006428021181892072,0.0065018218389417855,0.9920597151764678
2015-04-24,-1,-0.0011494561827203053,-0.0009921203443994187,-0.006945069633263766,0.0060277219792887705,0.9928507790148917
2015-04-28,-1,-0.0009103422442542349,-0.0008001825161911415,-0.006611643122106105,0.004793638394447203,0.9932732828759181
2015-04-30,-1,-0.002117216334898919,-0.0018699206463645042,-0.00524966297013982,0.004793638394447203,0.9942187980970336
2015-05-04,-1,-0.0012323218819591754,-0.0011052680666058011,-0.005592433737943946,0.0013624593714484815,0.994582127013917
2015-05-06,-1,-0.0027729259171367423,-0.0024314526829836863,-0.005724798931023976,0.0013624593714484815,0.9951536713939406
2015-05-08,-1,-0.0027870802571953036,-0.0024394799313300127,-0.00789773378232101,0.0013624593714484815,0.9942309093765516
2015-05-12,-1,-0.0029693539320726045,-0.0025915291490715003,-0.00789773378232101,0.0013624593714484815,0.9942272515492836
2015-05-14,-1,-0.0015568745403112246,-0.0014471268756362566,-0.00789773378232101,0.0013624593714484815,0.9939366002675302
2015-05-18,-1,-0.0007410444739024594,-0.000735461447723157,-0.00789773378232101,0.0001230810779615228,0.9943353397284337
2015-05-20,1,5.5500750133043565e-05,0.00023359644981795738,-0.00789773378232101,0.0013624593714484815,0.9933789171555283
2015-05-22,1,0.00039485815211706286,0.000671165869500138,-0.00789773378232101,0.0014142216667814792,0.9932338440431154
2015-05-27,-1,-0.00034576708737269916,-0.00023919246547610525,-0.008735016473151178,0.0012551654085730989,0.9931481820589593
2015-05-29,-1,-0.0005894319267931647,-0.0005362616922752208,-0.008735016473151178,0.0015102900797140885,0.9928504343210598
2015-06-02,-1,-0.001056493566293956,-0.0010455800850534805,-0.0074050020606099415,0.002522617656513149,0.9932167832099607
2015-06-04,-1,-0.0015785216479479156,-0.0014980881689803643,-0.007176299627562419,0.00625020551884686,0.9925923862607156
2015-06-08,-1,-0.0024244617528946517,-0.0022591437588053683,-0.0024471634147172037,0.007544502586740219,0.9919924863499984
2015-06-10,-1,-0.0018842669528278118,-0.0018192414655340435,-0.007176299627562419,0.007544502586740219,0.9912600744766387
2015-06-12,-1,-0.0015911095896031287,-0.0015752453513542476,-0.005563470852048024,0.007544502586740219,0.9920629629672725
2015-06-16,-1,-0.0013225538567574351,-0.0012957754590180565,-0.005563470852048024,0.007544502586740219,0.9920998498628374
2015-06-18,-1,-0.0005393745709851346,-0.0004054665143656015,-0.00689257152270795,0.006389292365648329,0.9921346419347822
2015-06-22,-1,-0.0007901345931445196,-0.0007089555804180619,-0.0069275701960287905,0.006389292365648329,0.9917108408495849
2015-06-24,-1,-0.001180144106209631,-0.0011547089221259502,-0.0069275701960287905,0.006389292365648329,0.9919688393687294
2015-06-26,-1,-0.0009821781594540804,-0.000916472807471816,-0.0068195446612146545,0.008168841411448002,0.9915683771902785
2015-06-30,-1,-0.0009834000357763883,-0.0009204164046458004,-0.0068195446612146545,0.008348205081020424,0.9911136072809197
2015-07-02,-1,-0.0013958878974581316,-0.0012869907641942756,-0.0068195446612146545,0.008348205081020424,0.9903561640440325
2015-07-07,-1,-0.00012767963821609584,-6.412338856763615e-05,-0.0071611076723317214,0.008348205081020424,0.9906115431577082
2015-07-09,-1,-0.0013357629122351452,-0.0012132598508484403,-0.003816281674693763,0.008598439021161494,0.9906948527821167
2015-07-13,-1,-0.0004192056699860719,-0.00037582662414340406,-0.0068195446612146545,0.008979477878676125,0.9905720073724428
2015-07-15,-1,-0.00018230458904895815,-9.46389826898006e-05,-0.0068195446612146545,0.010839363515220354,0.9898871611510018
2015-07-17,1,0.00023409303243660077,0.00037535984855948166,-0.0024888473595787923,0.008979477878676125,0.9910469899509864
2015-07-21,-1,-0.0003985061296031861,-0.00035865034354758596,-0.0007859992626278,0.010839363515220354,0.990638692310997
2015-07-23,-1,-0.0008084778189927505,-0.0007853728933576426,0.001935867900425103,0.010839363515220354,0.9902553507025718
2015-07-27,-1,-0.00030045595172069334,-0.00027086586850941,-0.0048339487729839765,0.008979477878676125,0.988520809962049
2015-07-29,-1,-4.936937293181575e-05,-2.6299644528673624e-05,-0.005913765833130521,0.010839363515220354,0.9873306221749921
2015-07-31,1,0.0012084550844872158,0.0014205883926548695,-0.005913765833130521,0.010633338564561539,0.9888122335544894
2015-08-04,1,0.0013357454809713614,0.0015811089601420977,-0.009959755522988988,0.008979477878676125,0.9876438406494185
2015-08-06,1,0.0017710979789939615,0.0020749287282650964,-0.009959755522988988,0.0086549202142274,0.9880282281670448
2015-08-10,1,0.0021465461402860346,0.0025360682513251792,-0.017802575765315787,0.008799379367823268,0.9874926570125344
2015-08-12,1,0.002698918493219458,0.003157667108780012,-0.017802575765315787,0.005287957186310512,0.987128282810334
2015-08-14,1,0.0023984247429718764,0.00277700615326985,-0.017802575765315787,0.00861343870586797,0.9869559751016784
2015-08-18,1,0.002392885197321306,0.0027384795498068886,-0.017802575765315787,0.00861343870586797,0.9872922409545809
2015-08-20,1,0.002827376668333192,0.003275873051361627,-0.017802575765315787,0.010334246322934231,0.9867127860951632
2015-08-24,1,0.0011756754913736745,0.0014165885563235574,-0.009214511871641205,0.010955778843970905,0.9889815855888726
2015-08-26,1,0.0011603905643833244,0.0014034710016617043,-0.005104900322236185,0.010334246322934231,0.9905003710987541
2015-08-28,1,0.0012753094215943771,0.001505099170140091,-0.005104900322236185,0.008383599571851487,0.9905618391582653
2015-09-01,1,0.00011530908076838348,0.00020995102847116336,-0.0008406048116438095,0.010334246322934231,0.9917782315571937
2015-09-03,1,0.000141868711203844,0.00022865839017621373,-0.001633359130446356,0.010955778843970905,0.9908430488745663
2015-09-08,-1,-0.00015790852696489046,-0.00012830075023279595,-0.001633359130446356,0.010397956858105007,0.9913821739731828
2015-09-10,-1,-0.00037677412134604543,-0.00036041054337729734,0.0021173012781809273,0.01148516915237277,0.9907694611110806
2015-09-14,1,8.502066733440572e-05,0.00016742444553321536,-0.0005908903661811726,0.012606175624244199,0.9910468632250915
2015-09-16,1,0.0008709212873933608,0.0010843950085405575,-0.0028210306187912417,0.011591399515575572,0.9917798966702495
2015-09-18,1,0.001366527817160353,0.0016452481193159289,-0.0017917085192534871,0.011529111419718909,0.9925147069292874
2015-09-22,1,0.0009901564515130534,0.0011647610483184246,-0.0004002727176907715,0.00901545173921324,0.9930956159005291
2015-09-24,1,0.0016055026400588548,0.0018884406360960711,-0.0017917085192534871,0.009114542320285619,0.9932673214026259
2015-09-28,1,0.001453493824942844,0.001665396419236404,-0.0027315957945942557,0.010329615436209789,0.9925957441508818
2015-09-30,1,0.0018975004790298617,0.0021674708767338135,-0.004365904255056794,0.0083325093555469,0.9927143037476721
2015-10-02,1,0.0018516086156889506,0.002108597323637821,-0.004365904255056794,0.0072984929240101125,0.9929205820327301
2015-10-06,1,0.0017847386751610969,0.002030854864455019,-0.0027315957945942557,0.006646702944454453,0.9933032941923653
2015-10-08,1,0.0024542646225205055,0.002808470816424695,-0.003951183897265485,0.006602375355194473,0.9938736043846854
2015-10-12,1,0.002941526292128302,0.0033649814224757445,-0.004712359594244388,0.006602375355194473,0.9922135745928496
2015-10-14,1,0.00261824088946346,0.0029854324156184356,-0.003951183897265485,0.008285261275684392,0.9919179226048797
2015-10-16,1,0.0029169622663442083,0.0033092427874384404,-0.008964158650869794,0.007794502215792239,0.9909330639667383
2015-10-20,1,0.002922501182167787,0.003305014631085441,-0.010619759275203429,0.008285261275684392,0.9890034972726329
2015-10-22,1,0.0027523483646252995,0.0030811368615774287,-0.010619759275203429,0.009405838231883545,0.9889037395419084
2015-10-26,1,0.0023594706738589407,0.002608015166310958,-0.011274921248102265,0.009364479457574695,0.9885774642844998
2015-10-28,1,0.0015128039174641234,0.0015898606726522909,-0.009899613011683616,0.009364479457574695,0.9887033467279714
2015-10-30,1,0.0010982343030735513,0.0011092825642582936,-0.005349660070355704,0.009634145360817038,0.9890919213042353
2015-11-03,1,0.0010949109114285075,0.0010963298225738758,-0.010449855027347823,0.009634145360817038,0.988217168968749
2015-11-05,1,0.0010794915762383523,0.0010858933456368647,-0.014227027135049485,0.010569094128778378,0.9868875547871011
2015-11-09,1,0.0006364591212939054,0.0006639774273571198,-0.009788330604233585,0.009634145360817038,0.9884203857997045
2015-11-11,1,0.0011759852500820354,0.0012006086801065808,-0.014227027135049485,0.008645127462287499,0.9882211077162111
2015-11-13,0,-5.7667325370692156e-05,9.354497121757824e-05,-0.009788330604233585,0.008645127462287499,0.9896258011791074
2015-11-17,-1,-0.0004425614382160028,-0.00024000605806952268,-0.006148701431293422,0.008645127462287499,0.99031764072534
2015-11-19,1,3.2370211002239e-05,0.00018745223479567618,-0.009788330604233585,0.0049521435351000745,0.9891864562393393
2015-11-23,1,3.08456490834975e-05,0.00015580413452033568,-0.00803706118662085,0.004589808673261227,0.9897111190688423
2015-11-25,1,0.00033848965738687376,0.00038535168460128607,-0.00803706118662085,0.008547140775300494,0.9889717138062442
2015-11-30,1,0.00022218929384063859,0.00032429339172443297,-0.00803706118662085,0.008010048984516745,0.9891863895767221
2015-12-02,-1,-0.0005118550826962643,-0.0003303939570504852,-0.00803706118662085,0.008010048984516745,0.9894090964627025
2015-12-04,-1,-0.00016315173387801147,-2.155656158074539e-05,-0.005982014008174238,0.008010048984516745,0.9905087971732321
2015-12-08,-1,-0.000532080695690821,-0.0003615959872624796,-0.004064217098364173,0.008010048984516745,0.9907648940710991
2015-12-10,-1,-0.0018124055607252885,-0.0014608516756809274,-0.004064217098364173,0.008010048984516745,0.9912463385617994
2015-12-14,-1,-0.0020589522662746423,-0.0016575519693272636,-0.0048529614065875425,0.008010048984516745,0.9912623854080986
2015-12-16,-1,-0.0007784239113568593,-0.0005572452007807236,-0.0048529614065875425,0.008010048984516745,0.9918865713171767
2015-12-18,-1,-0.0004040812056753998,-0.00024925458823647664,-0.0048529614065875425,0.00680633197843456,0.9926539256587871
2015-12-22,1,0.00022399133648796015,0.0002501468462671953,-0.004651025727666817,0.006883573036071021,0.9921183665042919
2015-12-24,1,0.0005046199928419685,0.0005061630656573155,-0.00492673497700925,0.0031896204122510317,0.9925601475023464
2015-12-29,1,0.0010080374141302275,0.0011036722525452083,-0.00492673497700925,0.007395642032950189,0.9917076233672807
2015-12-31,1,0.0004050305179652613,0.00042494119099625795,-0.004651025727666817,0.012192381758258342,0.990902026075684
2016-01-05,1,0.000963197482706475,0.0010919359340592243,-0.0046129219784096925,0.015226870323670419,0.9900554642556003
2016-01-07,1,0.0011933521340406006,0.0013552835944491597,-0.00492673497700925,0.015226870323670419,0.9893584236850909
2016-01-11,1,0.001125660320428312,0.0012991222282024949,-0.00492673497700925,0.015226870323670419,0.9893063197008122
2016-01-13,1,0.0008854997235775391,0.001032071018983477,-0.0051734166389932465,0.015226870323670419,0.9888338140645253
2016-01-15,0,-1.4476234499868283e-05,7.590020582753704e-05,-0.0051734166389932465,0.015226870323670419,0.9891888380088651
2016-01-20,-1,-0.0012353908149096465,-0.000995304872248463,-0.0050245146058454935,0.01594500639018706,0.9891182247268612
2016-01-22,-1,-0.00041333646894877807,-0.00029226794802541736,-0.006072562562264153,0.015226870323670419,0.988949559913561
2016-01-26,-1,-0.0018117601636779737,-0.0014319160424370887,-0.003464587185009198,0.01594500639018706,0.9878158591741129
2016-01-28,-1,-0.0008702757888757654,-0.0006013363705476468,-0.00616356437924284,0.01594500639018706,0.9870005979284692
2016-02-01,1,0.00042303018246846104,0.0005639330194918535,-0.00616356437924284,0.01372145858650789,0.9884985466106715
2016-02-03,1,0.0013072211279500621,0.0013788894775538742,-0.00616356437924284,0.007943288843449418,0.990045393856165
2016-02-05,1,0.0006724298734971096,0.0007968106485718589,-0.004965562646989541,0.008058727268655315,0.9905319509533514
2016-02-09,1,0.0005268411829723759,0.000639014228776584,-0.003145221224300245,0.010843437453296164,0.9898829779554494
2016-02-11,1,0.0001409708383340058,0.00027177120928930797,-0.003145221224300245,0.010843437453296164,0.9901677787399363
2016-02-16,1,0.00025964038416545043,0.0003760278388364461,-0.0033345529567414267,0.010843437453296164,0.9904373404337294
2016-02-18,1,0.0010651924495784341,0.0010655303923708041,-0.0010438307202753619,0.009752210448644692,0.9912553123835042
2016-02-22,1,0.0011445928483801659,0.0011755008321876516,-0.0010438307202753619,0.009009291806429464,0.9924100849160942
2016-02-24,1,0.002329687142916052,0.0025509485085885818,-0.0010438307202753619,0.007779449834452893,0.993699557212736
2016-02-26,1,0.0014888979571913148,0.0015950316494070327,-0.0005732993590281512,0.006242210313145841,0.9956876412671891
2016-03-01,1,0.0017248965775297407,0.0018563831523691586,-0.0014629500469958059,0.006242210313145841,0.9954137496315726
2016-03-03,1,0.00201910792152398,0.0022285425771377083,-0.0014629500469958059,0.007779449834452893,0.9950179464996773
2016-03-07,1,0.0022951989914499916,0.0025679927692372267,-0.0014629500469958059,0.007470726706953805,0.9941206983580417
2016-03-09,1,0.002938542983554405,0.0032744605773629876,-0.0028289556317555673,0.0057637075716441746,0.9943659953339592
2016-03-11,1,0.003103394229373205,0.003493579461413027,-0.0028289556317555673,0.005414890155353651,0.994162129940346
2016-03-15,1,0.003063758972952208,0.003455699250451991,-0.0031254497668364856,0.005414890155353651,0.9938297565761077
2016-03-17,1,0.003597658502679196,0.004064880255868951,-0.0031254497668364856,0.005414890155353651,0.9936991258843672
2016-03-21,1,0.003355212546797479,0.003781064074593708,-0.0022390322985724486,0.006062321773139033,0.99395934096978
2016-03-23,1,0.0032431744814908608,0.003629771230872941,-0.007765118905891469,0.006062321773139033,0.9910745548299472
2016-03-28,1,0.003108662648738503,0.0034534372344549235,-0.007765118905891469,0.007071979120313965,0.9910526127238543
2016-03-30,1,0.0034758829292004553,0.0038728674621862813,-0.007765118905891469,0.007071979120313965,0.9911484340145016
2016-04-01,1,0.003966207642588973,0.004429896867247392,-0.007765118905891469,0.006670877850019912,0.9910362385390289
2016-04-05,1,0.0026061252812549147,0.0028387843140800276,-0.004487290580956803,0.007351705937180638,0.9926242043182326
2016-04-07,1,0.002668559653072309,0.0029605027503830164,-0.0023890985277022357,0.007351705937180638,0.9932202325321694
2016-04-11,1,0.0016777916284434233,0.0017773570329977352,-0.0003894232482454707,0.007351705937180638,0.9928299173552689
2016-04-13,1,0.0011396745884081777,0.0011496707014183069,-0.00024040395645199273,0.007351705937180638,0.9924169926275674
2016-04-15,1,0.0017105013684377537,0.0018350130076186875,-0.0016308964464287284,0.006670877850019912,0.9927364122429282
2016-04-19,1,0.0017077284107385395,0.0018086153499886188,-0.00527256672425775,0.005360326882620664,0.9920933491869406
2016-04-21,-1,-0.0007056908208897169,-0.0005001584916012317,-0.003438937521178317,0.007004463351728921,0.9934677232134879
2016-04-25,0,-2.1431051469840195e-05,8.016309160224403e-05,-0.00527256672425775,0.005360326882620664,0.9933813830733539
2016-04-27,-1,-0.00038926708279326616,-0.00020158307346809312,-0.00527256672425775,0.005360326882620664,0.9933514878126766
2016-04-29,1,0.00041124632765174253,0.0004907841335077132,-0.00527256672425775,0.0051987511888503144,0.9930221777351494
2016-05-03,1,0.00038591905408789657,0.0005022149063400394,-0.00527256672425775,0.0051987511888503144,0.9919665483416041
2016-05-05,0,-0.00013194869252799546,9.69980942116612e-05,-0.007627321804824717,0.007220511240088058,0.9911720808085333
2016-05-09,-1,-0.0006524200697890008,-0.0003673303860336456,-0.007307103894201693,0.007220511240088058,0.9917664125001462
2016-05-11,-1,-0.00038730424974001306,-0.00018283990696765968,-0.004321389548550917,0.011434914576569935,0.9909923528656063
2016-05-13,-1,-0.00047625257740697437,-0.0002651981635526504,-0.0046125325250079095,0.011434914576569935,0.9908007100230163
2016-05-17,-1,-0.001280838419929644,-0.0009706846225852151,-0.0046125325250079095,0.011434914576569935,0.9906700570236278
2016-05-19,-1,-0.001086308511687045,-0.0008173530633651752,-0.003045111214210948,0.01107149542160743,0.9912817219329291
2016-05-23,-1,-0.0015200201618756062,-0.00121802452896366,-0.00250431290428397,0.01107149542160743,0.9915400897259966
2016-05-25,-1,-0.0017363391962458973,-0.0013663724472906403,-0.002211448323463512,0.007099371521767223,0.9918769715686562
2016-05-27,-1,-0.0008206355686658353,-0.0005669243179515978,-0.002211448323463512,0.006782397896163276,0.9923913151114764
2016-06-01,1,0.00034741832195189104,0.0004564747460623956,-0.0014437125444606493,0.0056474005167040315,0.9940071194873759
2016-06-03,1,0.0004779281199178418,0.0005933096455999951,-0.0007329578153417155,0.0056474005167040315,0.9941505787870397
2016-06-07,-1,-0.0003742314738616904,-0.00013655066590382463,0.0001860425563350879,0.0056474005167040315,0.9943224640910077
2016-06-09,1,0.0008712947763171771,0.00095674539283972,-3.876957728976517e-06,0.0056474005167040315,0.9945982812894876
2016-06-13,0,-0.0001716556040804527,9.83988660359749e-05,-0.0009655001502311862,0.0056474005167040315,0.994021615190791
2016-06-15,1,7.015612095199585e-05,0.00028655749381885625,-0.0009655001502311862,0.0056474005167040315,0.994010134799591
2016-06-17,1,8.485062060680838e-06,0.0002469921861903314,-0.0009655001502311862,0.00528406308455239,0.9940894780029152
2016-06-21,1,0.0004791474754779527,0.0006153882137201402,-0.00267219627503126,0.00528406308455239,0.9938052939948141
2016-06-23,1,0.0013850573849969916,0.0014338583035435832,-0.00267219627503126,0.006224848763253074,0.993445069610967
2016-06-27,1,0.0025688004393106595,0.0028522881385681506,-0.0034158669256390923,0.00444819743432527,0.9930559115187096
2016-06-29,1,0.0021999423303733696,0.0023887915769754426,-0.005117702803663761,0.005711336389934159,0.9925835010718469
2016-07-01,1,0.002728866437161141,0.0029610468128634213,-0.005117702803663761,0.005266498228788358,0.9931236744480214
2016-07-06,1,0.002223826121708098,0.0023487863037762752,-0.008729766722207669,0.005266498228788358,0.9924592364895515
2016-07-08,1,0.0017156506233920326,0.0017765286635820058,-0.008729766722207669,0.004051031695294742,0.993159009842929
2016-07-12,1,0.0013914421200239796,0.0014352066967477776,-0.007152479200486381,0.004051031695294742,0.9938578486035177
2016-07-14,1,0.001064326282966373,0.0010733449181056065,-0.004094125724579966,0.00209752811849165,0.9948600743928411
2016-07-18,1,0.0016476219076664823,0.0017731597245039918,-0.007152479200486381,0.0015368187416348695,0.9941706750422239
2016-07-20,1,0.0008991684859679361,0.0009229060089532423,-0.008740089430639544,0.00209752811849165,0.9934003798621096
2016-07-22,1,0.0014549546656002833,0.0015184848913726947,-0.00932295048766273,0.00209752811849165,0.9924441349240624
2016-07-26,1,0.0008628308307610732,0.0008770864671022096,-0.008954889343589546,0.0021061461838001757,0.9929948525955811
2016-07-28,1,0.0007504094550983725,0.0007774711927589944,-0.007489966161460779,0.001782680474301267,0.9935938890436747
2016-08-01,1,0.0014284743942117911,0.0015389067076684423,-0.010401520180169141,0.001782680474301267,0.9923080132495797
2016-08-03,1,0.000674864347585715,0.0006792497836425025,-0.010008605707696433,0.0023970512129348493,0.992797362690556
2016-08-05,1,1.760209350934626e-05,9.502406583819487e-05,-0.006458346636474035,0.0023970512129348493,0.9931042280498238
2016-08-09,1,0.00027060934896117354,0.00028956903447075236,-0.006458346636474035,0.0036148357608336034,0.9928086289476326
2016-08-11,1,0.00021333552858247737,0.00024612975677410393,-0.010008605707696433,0.0036148357608336034,0.9909320982641242
2016-08-15,-1,-0.00025036331773603575,-0.00017121510344662584,-0.010008605707696433,0.004590954492458582,0.9900203219798495
2016-08-17,1,8.406096572847826e-05,0.00011599126275459787,-0.006458346636474035,0.004590954492458582,0.9908963699918891
2016-08-19,1,0.00020981533670209003,0.00021420004954373286,-0.00477160202971125,0.007644436262981361,0.9908865170886547
2016-08-23,1,0.00040055750154461287,0.0004656525028534058,-0.003914836984141023,0.008675222314609935,0.9902239803951818
2016-08-25,0,-2.2839063219310567e-05,9.84164800978288e-06,-0.003914836984141023,0.008675222314609935,0.9897565923481632
2016-08-29,-1,-0.0007836325332129305,-0.0006466585150138245,-0.0045573338799541905,0.008675222314609935,0.9898921042535405
2016-08-31,-1,-0.0013637379719787178,-0.0011379085783934416,-0.0045573338799541905,0.008675222314609935,0.9895535714601115
2016-09-02,-1,-0.001370447743219119,-0.0011274013459576784,-0.009146627036363361,0.006257751532183559,0.9895019083572733
2016-09-07,-1,-0.0008774227309629945,-0.0007089885708998485,-0.012160390372956617,0.007250735318086531,0.9883432631915731
2016-09-09,-1,-0.0023563835133554173,-0.002031492211595331,-0.009146627036363361,0.007250735318086531,0.9900593910574153
2016-09-13,-1,-0.003676944658942676,-0.0030876907870765044,-0.009146627036363361,0.006010687450464731,0.9905535193449505
2016-09-15,-1,-0.0029700787932954624,-0.002483990416788274,-0.009146627036363361,0.0075876375770722315,0.9899293372957371
2016-09-19,-1,-0.0017141080667788648,-0.001383966903926968,-0.009146627036363361,0.005653860095053718,0.9911208982678744
2016-09-21,-1,-0.00047474460469363385,-0.00031983747943605613,-0.009146627036363361,0.005653860095053718,0.991191930730165
2016-09-23,1,0.00016520901733831238,0.00022567584765599883,-0.009146627036363361,0.0037654622665069457,0.991306821035841
2016-09-27,-1,-0.0006563103432676115,-0.0005115833218479339,-0.005337112658998768,0.006010687450464731,0.9920307677933101
2016-09-29,-1,-0.0017225645203791159,-0.0014335479626423281,-0.005053163970687552,0.006010687450464731,0.9925552722366852
2016-10-03,-1,-0.002691149874787125,-0.002277344987267384,-0.0031543392605548975,0.0071764009323759675,0.9917649588364443
2016-10-05,-1,-0.003504777313198986,-0.0029927116665048924,-0.003594931171823265,0.00622216628663803,0.9921163564861619
2016-10-07,-1,-0.004188246651050277,-0.003563670299885925,-0.003387222798440326,0.008016391984948953,0.990848036954954
2016-10-11,-1,-0.004596280374168166,-0.003927137991732013,-0.002003336817925485,0.008838737717751398,0.9894744271492683
2016-10-13,-1,-0.0036952419990483928,-0.003113273969031603,-0.005053163970687552,0.007826233278322537,0.988610361412215
2016-10-17,-1,-0.003410334444147953,-0.002877248207507503,-0.005053163970687552,0.008062579497228972,0.9879950342981278
2016-10-19,-1,-0.0025794321457563866,-0.00217985417738394,-0.008142804475121607,0.008062579497228972,0.9876854636556027
2016-10-21,-1,-0.0021357238905663155,-0.001839288934542816,-0.008142804475121607,0.008062579497228972,0.9876077667935329
2016-10-25,-1,-0.0014431556372212417,-0.0012490344039888805,-0.008142804475121607,0.009494858004521321,0.9874246792392328
2016-10-27,-1,-0.0018988986540749231,-0.0016322419575467654,-0.008106150684104642,0.01240245278374259,0.9864512835565402
2016-10-31,-1,-0.00021329976323594235,-0.00019825278156072103,-0.008106150684104642,0.01240245278374259,0.9868915923295963
2016-11-02,-1,-0.001236439533913346,-0.0010979714110298138,-0.0050271790167787525,0.01240245278374259,0.9860861469301523
2016-11-04,-1,-0.0005488817753995414,-0.0004971760108779498,-0.007979395502912864,0.01386033360467017,0.985739590371568
2016-11-08,1,0.000857381717662123,0.0009989132280835457,-0.007979395502912864,0.01240245278374259,0.9868761729588884
2016-11-10,-1,-0.00141046752477664,-0.0012752303426581655,-0.003271256328418795,0.01386033360467017,0.9889391875577946
2016-11-14,-1,-0.0006583534446392026,-0.0006176533360665992,-0.003271256328418795,0.01240245278374259,0.9888192672811875
2016-11-16,-1,-0.0003920130939385123,-0.00036839631145896073,-0.003271256328418795,0.012038407744320568,0.9887771325241851
2016-11-18,-1,-0.00025198056307234934,-0.00019909094672255527,-0.003271256328418795,0.012038407744320568,0.9881163821998299
2016-11-22,1,0.0008967611087246371,0.0011518390732485582,-0.004356054638804173,0.011479010408412288,0.9889297580874938
2016-11-25,1,0.0013642006065180568,0.0016852677734338422,-0.003271256328418795,0.011032662977790163,0.989938545782286
2016-11-29,1,0.0018032866171913274,0.0021594590291269884,-0.004356054638804173,0.01007467344962277,0.9904653604545703
2016-12-01,1,0.00032861048594839325,0.00046565632582007004,-0.0013778435800966085,0.011032662977790163,0.9912001525690908
2016-12-05,1,0.0004892620683672841,0.0006424688417854532,-0.0012834192313054135,0.01007467344962277,0.9923916162689502
2016-12-07,1,0.0011104585461810012,0.001358058542443144,-0.0012834192313054135,0.009087171673581666,0.9927577502487926
2016-12-09,1,0.0016205908254335144,0.001926359320748977,-0.0016193579697126646,0.00813078836518008,0.9926333062312668
2016-12-13,1,0.002626109296220973,0.0030906631584464803,-0.0025764065712553233,0.006233606932148157,0.993169796740152
2016-12-15,1,0.0019055912667556372,0.002250510980457352,-0.0016193579697126646,0.006233606932148157,0.9941933020604058
2016-12-19,1,0.0023860724995890077,0.0027917257638993232,-0.0038611168886499825,0.0051639276558374005,0.9937092731887163
2016-12-21,1,0.002545109873592734,0.002985839621594163,-0.002330867788551136,0.004713723797161072,0.9938909693548051
2016-12-23,1,0.0025652664821125453,0.0029749957622449575,-0.0032089249220608723,0.0044772831968036995,0.9939102359739584
2016-12-28,1,0.0019139492138194629,0.002211163830108598,-0.0032089249220608723,0.0044772831968036995,0.9945295737684895
2016-12-30,1,0.0022645585679985343,0.0026043292860497827,-0.0032089249220608723,0.0044772831968036995,0.9941972600991931
2017-01-04,1,0.00221607277414926,0.0025506313110659267,-0.0038611168886499825,0.004713723797161072,0.9928278522769683
2017-01-06,1,0.0023764324568154136,0.002706761539857334,-0.0038611168886499825,0.003707565717711676,0.99294768845882
2017-01-10,1,0.00172721500834246,0.0019818233990087533,-0.0032089249220608723,0.0044772831968036995,0.9940447682459099
2017-01-12,1,0.001648350203726257,0.0018863209536171513,-0.0032089249220608723,0.003759227655443634,0.9941440702005906
2017-01-17,1,0.0019204050881217304,0.002186949105406723,-0.003747062958363137,0.002567397287687031,0.9941053025358687
2017-01-19,1,0.0014376746309191174,0.0016395251845548488,-0.002649871864663262,0.003759227655443634,0.9946279782695971
2017-01-23,1,0.0012657245695462211,0.0014168520192290235,-0.002649871864663262,0.007740504689221091,0.9941700854683488
2017-01-25,1,0.0010393393692159235,0.0011442970252804675,-0.002194136349162587,0.007740504689221091,0.9943164684585782
2017-01-27,1,0.0010153539134057131,0.001124512367367074,-0.002194136349162587,0.008179878959606951,0.9940058777329616
2017-01-31,1,0.0016055618519168631,0.001805103952588196,-0.0010916468209940804,0.007740504689221091,0.9948358023166649
2017-02-02,1,0.0008363575873905812,0.0008541729122925034,-0.0010916468209940804,0.007429148661767477,0.9957526503304261
2017-02-06,1,0.000803002017300073,0.0008148977288820888,-0.0014787742840975554,0.007429148661767477,0.9957311386677152
2017-02-08,1,0.001187744521847118,0.0012698495346427103,-0.0026023395949091145,0.0067725640669755805,0.9954405131918407
2017-02-10,1,0.001458983342402422,0.0016299636389413407,-0.002610136679599568,0.0067725640669755805,0.9952976099848053
2017-02-14,1,0.0015771361817192965,0.001803535563169386,-0.0023512293304795095,0.007429148661767477,0.9949362587298094
2017-02-16,1,0.0018788727483090388,0.002164212530937253,-0.0033959838070167984,0.0075564499971336446,0.9943583257352085
2017-02-21,1,0.0020076499214290873,0.002266841231851405,-0.004191981103530382,0.0067725640669755805,0.9939412628576696
2017-02-23,1,0.0017419993968697382,0.0019272040563891551,-0.004191981103530382,0.007883912087724706,0.993536537342946
2017-02-27,1,0.0014309178641289699,0.0015346454509786282,-0.0033959838070167984,0.0067725640669755805,0.9940471485442518
2017-03-01,1,0.0012622957806314782,0.0013029325802518012,-0.004191981103530382,0.00581869933940247,0.9934155184674577
2017-03-03,1,0.0010999038008101857,0.001102010820102116,-0.004822235316902481,0.003265039603109465,0.9933886080504459
2017-03-07,1,0.0006551351900031615,0.0007298921973172419,-0.004822235316902481,0.003453313633802798,0.9935618324624551
2017-03-09,1,0.0005605179886367602,0.0006097577305653289,-0.004731406715445325,0.005682827417490821,0.9936683699846871
2017-03-13,1,0.0005300549375373727,0.0005821463383329888,-0.0041486754561338764,0.004121367164632606,0.9938166905745589
2017-03-15,1,0.0010004183793888629,0.0010191168378296434,-0.0041486754561338764,0.004121367164632606,0.9940563193503941
2017-03-17,1,0.0009585421391047428,0.0009595582616233054,-0.0041486754561338764,0.004121367164632606,0.9943332984880797
2017-03-21,1,0.0012805578825063903,0.001339110919765831,-0.0041486754561338764,0.0029328268828500595,0.9947621886393505
2017-03-23,1,0.00137051522030417,0.0014237567169958797,-0.006226245085100081,0.0029328268828500595,0.9944095235445171
2017-03-27,1,0.0016526371484959605,0.0017851285500175835,-0.0063297723694699624,0.004121367164632606,0.9939861923039647
2017-03-29,1,0.0005059943604322158,0.0005696020045753282,-0.006210715403599445,0.004121367164632606,0.994893740637215
2017-03-31,1,0.00032794423506443736,0.0003903031327655012,-0.006212398943798064,0.004121367164632606,0.9947104564193952
2017-04-04,1,0.0010069841686748422,0.00109144764035536,-0.006212398943798064,0.004121367164632606,0.9946752033013873
2017-04-06,-1,-0.0004560879027797821,-0.00023522264402799987,-0.006212398943798064,0.004156631261854575,0.9950639601143664
2017-04-10,-1,-0.00023066886556485672,-6.70139704963204e-05,-0.0063297723694699624,0.0026396472059883663,0.9948476881701581
2017-04-12,1,1.2168807474642552e-05,0.00015343406644368924,-0.0063297723694699624,0.002196112193612967,0.9951502335584149
2017-04-17,0,-0.00010403005180302716,5.50410956363661e-05,-0.006212398943798064,0.004383683305745601,0.9953048650809653
2017-04-19,-1,-0.00018553854388383544,-4.287132852836363e-05,-0.006212398943798064,0.004383683305745601,0.9951330745459476
2017-04-21,1,6.287632143441306e-05,0.00016063699066697426,-0.00470047915241664,0.004676679132045747,0.9948209487657211
2017-04-25,1,0.0003556655088162257,0.0003917577025453577,-0.0031055933966506323,0.004676679132045747,0.9946288223062519
2017-04-27,-1,-0.0007043677185757556,-0.0004582540824509099,-0.004572797408313025,0.004676679132045747,0.9945928085384712
2017-05-01,-1,-0.0013322000909022904,-0.001009366596567413,-0.0018868992934593536,0.005448926418066284,0.9945868477417019
2017-05-03,-1,-0.0011501630536425518,-0.0008704332329260354,-0.0018868992934593536,0.005448926418066284,0.9943066102121987
2017-05-05,-1,-0.0004218959897432775,-0.00025802004407408225,-0.0031055933966506323,0.005448926418066284,0.9944803377265028
2017-05-09,-1,-0.00035935625684036795,-0.00024884843238327727,-0.0011919417721428234,0.005448926418066284,0.9948342140659011
2017-05-11,-1,-0.0006250982941893843,-0.00045313476835724583,-0.0022543087813082815,0.005448926418066284,0.9945822756401197
2017-05-15,1,0.00018950337836798703,0.00023844962427639887,-0.003183770771628619,0.005208532295123991,0.9950201068371349
2017-05-17,-1,-0.0003884753721943455,-0.00027214966056658257,-0.0011993322677466664,0.005208532295123991,0.9954298464231449
2017-05-19,1,0.0006079470433596977,0.0006262974270479451,-0.0019129584184520159,0.003421991103866134,0.9958871695012874
2017-05-23,1,0.0008609897118865552,0.0008820472576168989,-0.003399950299224779,0.003421991103866134,0.9958188944104732
2017-05-25,1,0.0007786782670709748,0.0008109175711326142,-0.00392442273767918,0.003421991103866134,0.9957111932280838
2017-05-30,1,0.0009659967736338342,0.0010183115752054265,-0.005074556108912713,0.003421991103866134,0.9950856713573607
2017-06-01,1,0.0013650624879726835,0.0014949801406796074,-0.006771465057235351,0.0023114794715465886,0.9940442303978378
2017-06-05,1,0.0008651037561833283,0.0008784674501286152,-0.009511362268783368,0.0014636315847255605,0.9941135872513586
2017-06-07,1,0.0007705399351618627,0.0007746342546486383,-0.009511362268783368,0.0014636315847255605,0.9938277997425461
2017-06-09,1,0.0005028261980328546,0.0005193497318548559,-0.006790809021908699,0.0023114794715465886,0.9939773489977715
2017-06-13,1,5.023273383193954e-05,0.0001515439157136016,-0.006790809021908699,0.0029195004383251438,0.9937505000673944
2017-06-15,1,0.0001577157150654029,0.00024035927503947158,-0.006790809021908699,0.005533410678290268,0.9932649491419235
2017-06-19,1,0.00022841640057985445,0.0003093578899130237,-0.006790809021908699,0.006528317699288435,0.9932014984491823
2017-06-21,-1,-0.00016025089885217587,-2.6873080961888247e-05,-0.005740069365919471,0.0075546531698466425,0.9934313867977466
2017-06-23,-1,-0.00026867480736886496,-0.00014973155280307687,-0.006666264412884375,0.0075546531698466425,0.9930172828342706
2017-06-27,-1,-0.0004325774870106776,-0.00028823634734511733,-0.005165638796367375,0.0075546531698466425,0.9933661115089298
2017-06-29,-1,-0.00138408613688418,-0.001129250015993501,-0.0028235866861192815,0.0075546531698466425,0.9943394224690794
2017-07-03,-1,-0.001659237649962674,-0.001388657199460969,-0.0022581737912304983,0.007861468559117927,0.9943012885388768
2017-07-06,-1,-0.0020591809165736957,-0.0017345625945595902,-0.0020026294228043754,0.007861468559117927,0.9937873797921256
2017-07-10,-1,-0.002055588651656702,-0.0017201199615380623,-0.0014205561517276774,0.008479054173580608,0.9933112231956344
2017-07-12,-1,-0.001573094862867153,-0.0013054387008243475,-0.0014205561517276774,0.008452667083194212,0.9934749040495631
2017-07-14,-1,-0.0011390214495478799,-0.0009565578858645166,-0.0014205561517276774,0.008452667083194212,0.9933274415051941
2017-07-18,-1,-0.0003654424116430761,-0.00027989808701721233,-0.0014205561517276774,0.008054334054352866,0.9935939186230861
2017-07-20,1,0.00027721288002664524,0.00028090510585453393,-0.0020026294228043754,0.007728690882837478,0.9939472024393659
2017-07-24,1,0.0002783122643989713,0.00029170003222213565,-0.0014205561517276774,0.007728690882837478,0.9945643230367086
2017-07-26,1,0.0005785482435982752,0.0006362341329535578,-0.00111191316684412,0.007728690882837478,0.9945005479501082
2017-07-28,1,0.0004040088055072984,0.00043456231785529817,0.0006748161201612312,0.007728690882837478,0.9945303537806532
2017-08-01,1,0.00035540878351102145,0.00036225887231665864,0.0006748161201612312,0.007719136067274353,0.9946368024771111
2017-08-03,1,0.0006428918761826192,0.0006737491552336153,-0.002108684452138786,0.007719136067274353,0.9947245334851945
2017-08-07,1,0.0014569422336592583,0.0016174512032995545,-0.002649182814824887,0.0058817118322020785,0.9953875860381407
2017-08-09,1,0.0015973012355953518,0.0017844064845713315,-0.002649182814824887,0.0058817118322020785,0.995452865990616
2017-08-11,1,0.0015677776472730934,0.0017677466825750747,-0.002108684452138786,0.0058817118322020785,0.995665731162833
2017-08-15,1,0.0022150890463924263,0.0025215386103716714,-0.0033476936222172566,0.00513672047510637,0.9943586143731113
2017-08-17,1,0.0022361796293514464,0.0025432182138893753,-0.002649182814824887,0.005238171299310094,0.9942785613880484
2017-08-21,1,0.0020333319623505406,0.002273107390097667,-0.003660656714209199,0.004566881390454471,0.9937980871280854
2017-08-23,1,0.0023564189144675333,0.002612408549658759,-0.005484489044962761,0.0033614370113970978,0.9936897555996436
2017-08-25,1,0.002376019448891884,0.0026351115330172682,-0.005484489044962761,0.0036796109708148446,0.992856005089561
2017-08-29,1,0.0022900818976676037,0.00253295384873647,-0.007038285558719586,0.0036796109708148446,0.991700337358947
2017-08-31,1,0.0018942627601107938,0.0020807821028262985,-0.0086832300123421,0.004871643310839651,0.9915836241490115
2017-09-05,1,0.0019102538148110721,0.0021240414936505732,-0.0086832300123421,0.007069854127671399,0.9910434871594183
2017-09-07,1,0.001861822835783907,0.002067150548588307,-0.0086832300123421,0.00807478988141667,0.9911354652447248
2017-09-11,1,0.0021843764079692643,0.002407022930999937,-0.0086832300123421,0.00662021054670897,0.9913661300654083
2017-09-13,1,0.0009411924904196117,0.0010046149091398567,-0.0057954302105859695,0.00807478988141667,0.9926093042167723
2017-09-15,1,0.0014324325983282446,0.0015561832568234597,-0.0057954302105859695,0.008039471771420514,0.9928239470409295
2017-09-19,1,0.0009871996961871086,0.0010468475610419252,-0.004306651084016872,0.008039471771420514,0.9930772150219085
2017-09-21,1,0.00030939624881079356,0.00036633020920169817,-0.0020128099964647843,0.009103150557812283,0.9929638940354634
2017-09-25,1,0.0005891188034950545,0.0006177745980519945,-0.0010989239365366086,0.007951287069847098,0.9938863462966768
2017-09-27,-1,-0.00028316628856542747,-0.00016970911199892997,-0.0002549344541783178,0.007951287069847098,0.9943329999416728
2017-09-29,-1,-0.0006595784359372148,-0.00048156307026006037,0.00012149612769915167,0.007385683810548452,0.9943726848408124
2017-10-03,-1,-0.0005800778623933685,-0.0004168288352583559,0.00040460786414241477,0.006431676126942756,0.9950583519258711
2017-10-05,1,0.00027581320871482913,0.0003164552719374255,0.00012149612769915167,0.006431676126942756,0.9957187529742486
2017-10-09,1,6.988623361018308e-05,0.00016090838527418677,-0.00028139450221079684,0.005544767374760034,0.9958565061040818
