JNU-Tangyin/eata/results/Batch4_SP500/Batch4_SP500-GWW.csv
Date,Action,Predicted_Q25,Predicted_Q75,Actual_Q25,Actual_Q75,RL_Reward
2010-12-14,0,0.0,0.0010180566628622011,-0.003641039376261292,0.006697421192194919,0.9945665765526025
2010-12-16,0,0.0,0.0,-0.003641039376261292,0.006697421192194919,0.9938550192252646
2010-12-20,0,0.0,0.0,-0.003641039376261292,0.006697421192194919,0.9936022369470523
2010-12-22,1,0.0029853038009475938,0.0032535740796335116,-0.004116723885214877,0.0048088578811643235,0.9933803944275387
2010-12-27,1,0.0029933364100803517,0.003308389552973262,-0.005078656422535978,0.006697421192194919,0.9898428790625303
2010-12-29,1,0.0027844523822019122,0.0030112233151586157,-0.004579445090860338,0.007244517363134136,0.9896321140250881
2010-12-31,1,0.0027087609525466563,0.00294395579019981,-0.0068327529346454245,0.008623821610008329,0.9880302706580625
2011-01-04,0,0.0,0.0,-0.0068327529346454245,0.007244517363134136,0.9881907896851484
2011-01-06,0,0.0,0.0,-0.004960936214643519,0.008253767008229473,0.9895172699149771
2011-01-10,0,0.0,0.0,-0.0032647412255587603,0.008499130785208043,0.9892003024009076
2011-01-12,0,0.0,0.0,-0.0032647412255587603,0.008499130785208043,0.9895908939315969
2011-01-14,0,0.0,0.0,-0.004960936214643519,0.008443095691261367,0.9896129176976133
2011-01-19,0,0.0,0.0,-0.0037916979815899206,0.0069078219191477394,0.9902262644232237
2011-01-21,0,0.0,0.0,-0.0030423155728552097,0.008443095691261367,0.9898955986586715
2011-01-25,-1,-0.0010360685872335441,-0.0007237337638983678,-0.0037916979815899206,0.0069078219191477394,0.9919079257626695
2011-01-27,0,-7.590878348187689e-05,0.00013108187179734104,-0.0037916979815899206,0.0069078219191477394,0.9918706314378343
2011-01-31,-1,-0.0013068675798223795,-0.0009400170953111921,-0.0037916979815899206,0.0069078219191477394,0.9928110828052781
2011-02-02,-1,-0.0007877204300315642,-0.0005301776414927819,-0.0035353395679715224,0.009628316443211039,0.9912589660035036
2011-02-04,-1,-0.0002823656809869497,-0.00010548001493996623,-0.005356974337955751,0.009628316443211039,0.9913636268732338
2011-02-08,0,-1.2919586431336776e-06,0.00014561337017843,-0.005356974337955751,0.007965302857307368,0.9915791662384246
2011-02-10,1,0.0006848624838511723,0.0006984154528854028,-0.00741973119013676,0.01158095821011648,0.990010245144273
2011-02-14,-1,-0.00029192932298523314,-0.00013181048063694084,-0.007323382877323999,0.01158095821011648,0.9899221459936497
2011-02-16,-1,-0.0001413811422765168,-2.8228078776515247e-05,-0.008541883334753265,0.01158095821011648,0.9891522687449404
2011-02-18,1,0.00018372183103286971,0.00026018100467873847,-0.008541883334753265,0.010884664441484294,0.9890946088024534
2011-02-23,-1,-0.0011727971246529604,-0.0009272333761239023,-0.006926587079654342,0.010884664441484294,0.9905160054814011
2011-02-25,-1,-0.001173247581859818,-0.0009102400504980544,-0.006926587079654342,0.008219392072816236,0.9909010525820354
2011-03-01,-1,-0.000694977534452713,-0.0005473416064281937,-0.006343154026790667,0.008219392072816236,0.991071991246025
2011-03-03,1,0.0005248902239787928,0.0005305498612058551,-0.006343154026790667,0.006958200489678391,0.9927637418583917
2011-03-07,1,0.0001668816443216759,0.0002052332692116703,-0.005288945430271423,0.007307239415612543,0.992191590721403
2011-03-09,1,3.0213047284183584e-06,9.820796600560911e-05,-0.005288945430271423,0.008219392072816236,0.9915216435273434
2011-03-11,-1,-0.00017157069765596394,-6.913481890432401e-05,-0.004843074926287625,0.007307239415612543,0.9928536709504128
2011-03-15,-1,-0.0005430906262299264,-0.00039864748073593963,-0.004587300876381937,0.007307239415612543,0.9928567541077225
2011-03-17,-1,-0.0008681306388429962,-0.0006792759177707318,-0.0031062681467194523,0.0056530880670317505,0.9934708567173643
2011-03-21,-1,-0.0007164179766789501,-0.0005347181074974109,-0.0031062681467194523,0.004546500609828801,0.9931701013130567
2011-03-23,-1,-0.0010876111328618045,-0.0008490881833685065,-0.0001733356500025373,0.006654187406221219,0.9918873364729589
2011-03-25,-1,-0.0004960604253737228,-0.00036479609517515966,-0.002296642167974015,0.006091072526480042,0.9922169719271218
2011-03-29,1,2.8015825457868856e-05,0.00010385024291936133,-0.002296642167974015,0.0052319173913770774,0.9926686995206252
2011-03-31,1,0.00023935851307430614,0.000254168519613404,-0.0016469112818485385,0.0057417078062707095,0.9926456189502298
2011-04-04,1,0.00045153005933347835,0.00047277551306292096,-0.0026772992211788822,0.004528725788212954,0.9930902263306414
2011-04-06,1,0.0011582570559474652,0.0012393649470317533,-0.004575787980239466,0.004335556921925624,0.9932395640659509
2011-04-08,0,0.0,0.0,-0.003288881203617756,0.004528725788212954,0.9931196631569281
2011-04-12,0,0.0,0.0,-0.003288881203617756,0.005686391797066458,0.9926305510863151
2011-04-14,0,0.0,0.0,-0.00484301227616497,0.007685334588150324,0.9921224187041084
2011-04-18,-1,-0.0001041385369677284,-7.667238175129445e-05,-0.0052459930147401605,0.005686391797066458,0.9925744836770438
2011-04-20,0,0.0,0.0,-0.0052459930147401605,0.005686391797066458,0.9931276619708946
2011-04-25,0,0.0,0.0,-0.005965956038209763,0.005686391797066458,0.9925981218226352
2011-04-27,0,0.0,0.0,-0.007384894222435692,0.005686391797066458,0.9921109111593097
2011-04-29,0,0.0,0.0,-0.007384894222435692,0.0063014193780067205,0.9922703871313875
2011-05-03,0,0.0,0.0,-0.007384894222435692,0.007690756928204836,0.9904062435302772
2011-05-05,0,0.0,0.0,-0.006187861311366984,0.007690756928204836,0.9908437628626577
2011-05-09,1,0.003958064578180714,0.004140356929406555,-0.006187861311366984,0.006362157727265484,0.9898681417573274
2011-05-11,1,0.001381528192158208,0.001542066006729557,-0.007026265993801981,0.0055130310173300365,0.9912563441884586
2011-05-13,0,0.0,0.0,-0.0081444324580215,0.0055130310173300365,0.9915686360104086
2011-05-17,0,0.0,0.0,-0.00892202243259015,0.005997162973670445,0.9903419671143102
2011-05-19,1,0.0021275814803304815,0.0024756236540358027,-0.00892202243259015,0.005997162973670445,0.9907594213759564
2011-05-23,1,0.0014834575263005588,0.0017412799822676005,-0.007120088409916126,0.007878329805708881,0.9906412234030609
2011-05-25,1,0.0013208346018028193,0.0015626921630772063,-0.003858239343977954,0.006783345544923764,0.991335426947914
2011-05-27,0,0.0,0.0,-0.007120088409916126,0.006783345544923764,0.9904660739436093
2011-06-01,1,0.0006744333446397431,0.0007444314931271477,-0.003858239343977954,0.006783345544923764,0.9920976801687936
2011-06-03,-1,-0.0001948750531250747,-0.00012468967253550893,-0.0004272130443908177,0.01118063071817702,0.9901416375096019
2011-06-07,0,-1.6435824461180832e-05,9.305123419159204e-05,0.0002701882573307501,0.01118063071817702,0.990101528919891
2011-06-09,0,0.0,0.0,0.0002701882573307501,0.01118063071817702,0.9902703911635252
2011-06-13,0,0.0,0.0,-0.00014147663961447258,0.01118063071817702,0.9903561755632546
2011-06-15,0,0.0,0.0,-0.00014147663961447258,0.009421682190273976,0.9913979351614168
2011-06-17,-1,-0.0004436054262994038,-0.0002938445343846464,-0.0005183750896050072,0.009421682190273976,0.9910539590351319
2011-06-21,1,0.0008484993543843345,0.000881946044274023,-0.00206337630467566,0.006734289774453253,0.992303909660705
2011-06-23,1,0.0004987856890918436,0.0005416728978539082,-0.003936778972925151,0.006734289774453253,0.9921330315311958
2011-06-27,1,5.8088129116661946e-05,0.00015653292157629192,-0.004095663607101507,0.006734289774453253,0.9912578981971274
2011-06-29,1,0.0008414739021155983,0.0008510959437021186,-0.0055079311938139915,0.004101671987245093,0.9917472361710672
2011-07-01,1,0.0022532858334938927,0.002472608780126283,-0.007458890340662614,0.0011140145746084732,0.9925339894389914
2011-07-06,1,0.0022701515986128474,0.002491648857249134,-0.008228242936814355,0.0011140145746084732,0.9905515021954118
2011-07-08,0,0.0,0.0,-0.009634915168534937,0.0011140145746084732,0.9891609333469414
2011-07-12,0,0.0,0.0,-0.009634915168534937,0.002951097348609671,0.9858459006148839
2011-07-14,1,0.0009222065650012681,0.0009691355789668095,-0.01406398391279141,0.004101671987245093,0.9812637263666861
2011-07-18,1,0.00024030663220558793,0.00032185779797509165,-0.01398111405189383,0.01058069198756419,0.9803450123338886
2011-07-20,0,0.0,0.0,-0.01492099759411955,0.01058069198756419,0.9800421331107717
2011-07-22,0,0.0,0.0,-0.0334546265829688,0.01058069198756419,0.978053654078057
2011-07-26,-1,-0.0003402200877425426,-0.0002408246536515129,-0.017053026919058516,0.018381433685063897,0.9769874318333076
2011-07-28,-1,-0.0007572371488946985,-0.0006019283308461173,-0.025709548114453362,0.019774323548473707,0.9754920298300924
2011-08-01,0,0.0,0.0,-0.025709548114453362,0.02058091552885295,0.9722777406807978
2011-08-03,-1,-0.0018769288959672966,-0.0015747611483048326,-0.012339304771281073,0.021784749247443745,0.9726454533757882
2011-08-05,-1,-0.0036220471833445025,-0.0030535372402605765,-0.0178127576193264,0.021784749247443745,0.9735582712263927
2011-08-09,-1,-0.004925340022323961,-0.004206244754844204,-0.011329902968813841,0.025195456563073433,0.9754027643297223
2011-08-11,-1,-0.0042294175873637905,-0.003617908848916669,-0.011329902968813841,0.021496985420606286,0.9797482644551494
2011-08-15,-1,-0.003305123019146461,-0.002781129657480052,-0.011329902968813841,0.025195456563073433,0.9792458280107991
2011-08-17,-1,-0.003728163267499025,-0.0031586242429653905,-0.0077332581517875355,0.025195456563073433,0.9779184741408411
2011-08-19,-1,-0.00517448780927874,-0.004460947134685698,-0.005582723590849497,0.025195456563073433,0.9786861922319319
2011-08-23,0,0.0,0.0,-0.012313576098897439,0.021496985420606286,0.9821472980705338
2011-08-25,0,0.0,0.0,-0.012149152751383837,0.01869857939467172,0.9832944158957543
2011-08-29,0,0.0,0.0,-0.012149152751383837,0.01591982279416896,0.9851568082187518
2011-08-31,0,0.0,0.0,-0.01646494871426619,0.012831806674699998,0.9848930244811063
2011-09-02,0,0.0,0.0,-0.01752220575382372,0.012831806674699998,0.9836827369294057
2011-09-07,1,0.000983415980273722,0.0010445489861696008,-0.01752220575382372,0.014198883958627397,0.9826501094248656
2011-09-09,1,0.00041335753953099886,0.0004275730569266201,-0.01511101600917574,0.014198883958627397,0.9829616730178801
2011-09-13,1,0.0026484506652802936,0.003020962648933417,-0.01511101600917574,0.012350822998907485,0.9841820963416472
2011-09-15,1,0.003164292691787418,0.0035849173204058156,-0.016333819428016743,0.012203857482023827,0.9828983124720801
2011-09-19,0,0.0,0.0,-0.01678985612592933,0.012203857482023827,0.982498796081384
2011-09-21,0,0.0,0.0,-0.016333819428016743,0.01654369276811569,0.9792958618351276
2011-09-23,0,0.0,0.0,-0.016330343611623714,0.01770150823086568,0.9789656039948073
2011-09-27,0,0.0,0.0,-0.016330343611623714,0.016233294369630284,0.9790784161014259
2011-09-29,0,0.0,0.001291411961174185,-0.015487519753923285,0.020855224069975108,0.980042557173152
2011-10-03,-1,-0.0006522372892783367,-0.0005804072074643307,-0.014840400340054086,0.020855224069975108,0.9814820079783829
2011-10-05,1,0.0011130892289549009,0.001270191002230108,-0.014840400340054086,0.020855224069975108,0.9825877024249946
2011-10-07,1,0.0004545821104193273,0.0005038861428863092,-0.011159570980444698,0.026027579941855842,0.9818735998774019
2011-10-11,1,0.0015206740977857288,0.0017367268328935463,-0.011159570980444698,0.020855224069975108,0.9827608766783809
2011-10-13,0,0.0,0.0,-0.011159570980444698,0.019573424566180768,0.9812286728450835
2011-10-17,0,0.0,0.0,-0.00998883381115255,0.019573424566180768,0.9812502970962761
2011-10-19,1,0.0031366320161448353,0.0035380772527529645,-0.00998883381115255,0.018104646938747332,0.9850681323868307
2011-10-21,1,0.0032430222511874475,0.0035983610977991408,-0.00998883381115255,0.018104646938747332,0.9853117051321413
2011-10-25,1,0.0030415647947939256,0.0033485324653019484,-0.00998883381115255,0.01577546632454572,0.9860250764210503
2011-10-27,1,0.0038988660779951585,0.004312841341557554,-0.011275484417401362,0.011341746729257498,0.985733481168724
2011-10-31,1,0.0025890073182351873,0.0028303208915309575,-0.00998883381115255,0.01577546632454572,0.9854966142487248
2011-11-02,1,0.0029856533026907427,0.0032663060707318215,-0.008359254382669509,0.01577546632454572,0.984382518777845
2011-11-04,1,0.0033806752513321483,0.0037061534826811496,-0.008359254382669509,0.011341746729257498,0.9855741781823022
2011-11-08,1,0.003857049378001104,0.004253127068329151,-0.008359254382669509,0.006991998303307424,0.9853572704885292
2011-11-10,1,0.0033828560119449997,0.0037629344250462967,-0.008359254382669509,0.006991998303307424,0.9873302064154799
2011-11-14,1,0.003378456675960996,0.003758013342022266,-0.011750223588131542,0.005385769637185552,0.9868019289369238
2011-11-16,1,0.0029864187910192464,0.0032924426800245562,-0.011750223588131542,0.004931124988067616,0.9871030142764832
2011-11-18,1,0.0031062165915371003,0.003456811018192927,-0.011750223588131542,0.005385769637185552,0.9871054648740637
2011-11-22,1,0.003313359366546974,0.0037673072694178614,-0.0071564329020236414,0.008270097967514246,0.9868689056420904
2011-11-25,1,0.0027665327928872423,0.003150935105490983,-0.005495427170459722,0.015258693477356536,0.9874114514584472
2011-11-29,0,0.0,0.0,-0.0071564329020236414,0.015258693477356536,0.9871591399559153
2011-12-01,0,0.0,0.0,-0.0115928684085739,0.008270097967514246,0.9893714133456584
2011-12-05,1,0.00465874532232663,0.005179387537004338,-0.0115928684085739,0.01301295026395186,0.9882568203517319
2011-12-07,1,0.00710734147485902,0.007988954202236786,-0.0115928684085739,0.013100748815797408,0.9880971603005975
2011-12-09,1,0.004720483005371406,0.005291317033231218,-0.009627416955681143,0.012314404522686414,0.989834218626454
2011-12-13,1,0.0036084266373943314,0.004023119363313419,-0.0008367915629626959,0.012314404522686414,0.9917805957172408
2011-12-15,1,0.0025497149103826415,0.002755593562802765,0.000722075832191406,0.013923768394439847,0.9910085185403207
2011-12-19,0,0.0,0.0,0.0005100832706898888,0.012676542934079443,0.9902374662703018
2011-12-21,0,0.0,0.0,-0.0013468748336525848,0.012314404522686414,0.9909461651367586
2011-12-23,0,0.0,0.0,-0.001793681547798293,0.010546988774208906,0.9897500229180037
2011-12-28,1,0.0017865998006535294,0.0018141772078677934,-0.001793681547798293,0.00931509577773763,0.991108988771399
2011-12-30,1,0.0006794920209244234,0.0008814868757455849,-0.001793681547798293,0.00931509577773763,0.9908807822206246
2012-01-04,1,0.0007774727411008333,0.0009760917141719896,0.0005100832706898888,0.010576254958157422,0.9905793400680458
2012-01-06,1,0.0010129784796478892,0.0011553987817345482,-0.0003077908044491402,0.010850594817704902,0.9894402798373558
2012-01-10,0,0.0,0.0,-0.0021067354953384528,0.010850594817704902,0.9889692239461717
2012-01-12,0,0.0,0.0,-0.005261895425881333,0.010850594817704902,0.9893021359327375
2012-01-17,1,0.0018039691998732424,0.001862072024999674,-0.005261895425881333,0.008665545124597555,0.9887464755613573
2012-01-19,1,0.0011327306769982888,0.001308258494586674,-0.0062670581002460205,0.00628106697356723,0.9886654222680457
2012-01-23,1,0.0021547969212999465,0.002216745491081982,-0.0062670581002460205,0.004445885082262349,0.9887488353004809
2012-01-25,1,0.0017505736841268399,0.0018002090676690298,-0.005068506552752359,0.0057640673311320926,0.9904968066739667
2012-01-27,1,0.00046510474839962286,0.000616507545765594,-0.003635668452641595,0.009371792328751667,0.9906193324794723
2012-01-31,1,0.00028347962522561624,0.0004288164040551714,-0.004906069155306064,0.009371792328751667,0.9909659281965283
2012-02-02,1,0.0005632025883687986,0.0007133251686603083,-0.004906069155306064,0.0035656529414510394,0.9922266052520098
2012-02-06,1,0.0018830958408810263,0.0019862302500163985,-0.0055863570347781605,0.003335755588031229,0.9925041634870156
2012-02-08,1,0.0017538828932875355,0.0018624776271345517,-0.0055863570347781605,0.004362528709152684,0.992693866943646
2012-02-10,1,0.0015072570947397513,0.0015706913775366104,-0.003808285279983529,0.007199334722092626,0.9920325476301267
2012-02-14,1,0.001716427640026937,0.0017562284008663686,-0.003808285279983529,0.007199334722092626,0.9932687102356623
2012-02-16,1,0.0013196256906219737,0.0013556131458518806,-0.003808285279983529,0.007199334722092626,0.9932250865022536
2012-02-21,0,0.0,0.0,-0.003808285279983529,0.007199334722092626,0.9932116089824085
2012-02-23,0,0.0,0.0,-0.005198393172987408,0.007199334722092626,0.9928773642622435
2012-02-27,1,2.3825585479291465e-05,3.211191211299526e-05,-0.005198393172987408,0.007199334722092626,0.9927263164144858
2012-02-29,1,6.119943226705555e-05,0.0001954355151149523,-0.0030087181340113954,0.007199334722092626,0.9923926297404227
2012-03-02,0,-2.7790006271609076e-05,0.00011618053165452039,-0.00548892137499567,0.007199334722092626,0.9915485089240165
2012-03-06,-1,-0.0004728496455125075,-0.0002004993491121098,-0.0030087181340113954,0.00884802068528203,0.991440839043674
2012-03-08,-1,-0.00027167366387435235,-2.9851342315127425e-05,-0.00548892137499567,0.00884802068528203,0.991507769285833
2012-03-12,1,2.0221750830391088e-05,0.00025652269479354054,-0.009765274223820133,0.005998525231178926,0.9906832876119531
2012-03-14,1,0.0007430712340032362,0.0008152238622780761,-0.009765274223820133,0.007502491020730885,0.9898880755454688
2012-03-16,1,0.0007165476028107485,0.0007621443317137441,-0.007274592553979644,0.011297024023980412,0.9897575721156512
2012-03-20,1,0.00048079930486716424,0.0005568551557497706,-0.0061774814836104,0.011297024023980412,0.9900138926650782
2012-03-22,1,0.0009249908734611159,0.0009303769427636867,-0.01015391237617185,0.011297024023980412,0.9885382308435474
2012-03-26,1,0.00092086130962753,0.0009521838881978605,-0.014557541663281545,0.007502491020730885,0.9857807370802311
2012-03-28,1,0.001121745634990741,0.001123060217289386,-0.013438852417181789,0.011297024023980412,0.9855513203420717
2012-03-30,1,0.0009967955481883467,0.000999330106349836,-0.016003568996463623,0.012412478113394545,0.9845275222282861
2012-04-03,1,0.0016892172480917765,0.0018019669761593715,-0.016003568996463623,0.011297024023980412,0.9851860343091295
2012-04-05,1,0.0008998045560412692,0.0009394207004035219,-0.016844543094504297,0.011297024023980412,0.9840145601028776
2012-04-10,-1,-0.0004208853810534093,-0.0002287325587302121,-0.01610665969330366,0.012134273995685231,0.9852201067948213
2012-04-12,1,0.0004243479763516456,0.0005260392779861426,-0.01610665969330366,0.007156705855057901,0.9861842182172925
2012-04-16,1,0.0002901950950750104,0.0004149791157243206,-0.01755047327898984,0.005339028552551241,0.984200746881648
2012-04-18,1,6.0130925587987476e-05,0.00024229255670583374,-0.01755047327898984,0.005113620010122297,0.9843787601622968
2012-04-20,0,0.0,0.0,-0.017932885888625905,0.0036024407733551613,0.985194068252449
2012-04-24,0,0.0,0.0,-0.0163573745348616,0.007985961814764953,0.9868738202978904
2012-04-26,0,0.0,0.0,-0.0163573745348616,0.006758500053106284,0.9875450627089004
2012-04-30,0,0.0,0.0,-0.012669044140817282,0.006758500053106284,0.9886297772532237
2012-05-02,0,-0.000324787672080386,0.0,-0.012669044140817282,0.004807110737697696,0.9884303233063542
2012-05-04,-1,-0.0016640452474103178,-0.0013499961608993978,-0.010584238442343916,0.004807110737697696,0.9888522807314982
2012-05-08,-1,-0.0019351116420522636,-0.0015373880980674376,-0.012904354202312463,0.004807110737697696,0.9862941819916451
2012-05-10,0,0.0,0.0,-0.012904354202312463,0.013142973348434077,0.9842742689661714
2012-05-14,-1,-0.004544893345260646,-0.003814864827477321,-0.010584238442343916,0.013142973348434077,0.9846149079587153
2012-05-16,-1,-0.0035564817912445007,-0.0030100254439666763,-0.013031825072191151,0.013142973348434077,0.9840494689029158
2012-05-18,0,0.0,0.0,-0.006186606020421007,0.015721096021224464,0.9836462045025709
2012-05-22,0,0.0,0.0,-0.006186606020421007,0.014043633194258272,0.9834006366736859
2012-05-24,-1,-0.003502531881150202,-0.002935273315363207,-0.013707593632834459,0.01539798969137381,0.9820295498907351
2012-05-29,-1,-0.002831256635341418,-0.002367130044398199,-0.0183281901518037,0.01539798969137381,0.9821606063552747
2012-05-31,-1,-0.00303521892387173,-0.0025592145985613808,-0.0183281901518037,0.01539798969137381,0.9816638593525513
2012-06-04,0,0.0,0.0,-0.012883712667201909,0.01864508483260213,0.9806818316540926
2012-06-06,0,0.0,0.0,-0.008781473011611415,0.017546321259426047,0.9831290735256243
2012-06-08,0,0.0,0.0,-0.012883712667201909,0.008339858615856057,0.9840238134750381
2012-06-12,0,0.0,0.0,-0.016952241205941614,0.008339858615856057,0.9841834761814373
2012-06-14,0,0.0,0.0,-0.012883712667201909,0.017768330533331128,0.9825169602870268
2012-06-18,0,0.0,0.0,-0.012883712667201909,0.015105738258283475,0.983028659343072
2012-06-20,0,0.0,0.0,-0.016952241205941614,0.015105738258283475,0.9792311094584182
2012-06-22,-1,-0.004154273582936233,-0.003549847113438695,-0.012883712667201909,0.009055969138540136,0.981626386406409
2012-06-26,-1,-0.004103318217075529,-0.0035632678043560333,-0.013402186379159613,0.009055969138540136,0.9809009927951498
2012-06-28,-1,-0.0035289661856713153,-0.0031108001080201305,-0.011227351203952102,0.018778337520595198,0.979344978687602
2012-07-02,-1,-0.0020434678179126315,-0.0017917010419012311,-0.014455876729909162,0.015758126183765743,0.9813395673813087
2012-07-05,-1,-0.001954484929744262,-0.0017037402075590206,-0.014455876729909162,0.0073238475913560384,0.9818804723793433
2012-07-09,-1,-0.0014715689174589883,-0.0013548198873424983,-0.00994041002148774,0.01643788756697109,0.9814757264915057
2012-07-11,-1,-0.003227927449469083,-0.002906865100101917,-0.00862836406776189,0.01643788756697109,0.9827874270907141
2012-07-13,-1,-0.0009990452814874601,-0.0009247638616301641,-0.009037323889868302,0.006624580121115749,0.9845951454509593
2012-07-17,-1,-0.0010467008033993078,-0.000982112883328425,-0.009037323889868302,0.006624580121115749,0.9850456395773385
2012-07-19,1,0.001997094950773557,0.002352366488324098,-0.008649582074929944,0.006624580121115749,0.9896588583890797
2012-07-23,1,0.0017440224778953884,0.00203262341020783,-0.008649582074929944,0.006624580121115749,0.9895622032492198
2012-07-25,1,0.0008526659024075676,0.0010288044356862311,-0.008649582074929944,0.007325306864365439,0.9900714845470692
2012-07-27,1,0.0020807944364369087,0.002394928681242271,-0.008649582074929944,0.005970320532840051,0.9915758778987595
2012-07-31,1,0.0015519024723874813,0.001813161844748945,-0.008446168648989245,0.00624969058615768,0.9920548351609709
2012-08-02,1,0.0016550526396950016,0.001987291448773529,-0.007260575050524092,0.00624969058615768,0.9925420729356892
2012-08-06,1,0.0026562356277013317,0.003143224111950449,-0.007260575050524092,0.006707233955243856,0.99269093771456
2012-08-08,1,0.002444166023011464,0.0028828144836551407,-0.007260575050524092,0.006082304426841525,0.9919159751153556
2012-08-10,1,0.0016441921177044205,0.001969265518079316,-0.0038946772022441394,0.006082304426841525,0.9931623388102502
2012-08-14,1,0.0016867470755826367,0.0020314511123065305,-0.0038946772022441394,0.006707233955243856,0.9925867356509998
2012-08-16,1,0.0031302370772770902,0.0037034705148517736,-0.004253064991188575,0.0059404158102595,0.9930098098298024
2012-08-20,1,0.002739952716113274,0.0032499066580214675,-0.004253064991188575,0.004806163872949555,0.9931313047628787
2012-08-22,1,0.0025657961320017355,0.003035049682410553,-0.004253064991188575,0.0035656630091317307,0.9936063733085857
2012-08-24,1,0.0029843624448671426,0.0035574340987614716,-0.004461712514464612,0.002714751028981909,0.9933450097657266
2012-08-28,1,0.0029740014367971475,0.0035216189134572046,-0.004461712514464612,0.002942383853482399,0.9931385296983704
2012-08-30,1,0.001956966460005244,0.0022894149273757205,-0.0038006247626973196,0.0030088329287976607,0.9941011211864274
2012-09-04,1,0.0035082383605207065,0.004119729925564692,-0.0038006247626973196,0.0030088329287976607,0.9936650206825302
2012-09-06,1,0.0026799576620674765,0.003188997383243517,-0.003176351618063304,0.0044452794201261595,0.995245731355921
2012-09-10,1,0.0026288712299310816,0.0031507297115046405,-0.003295814214378116,0.00775255295776635,0.9949042635852411
2012-09-12,1,0.0037938951052066774,0.004510769085801166,-0.005532788363956187,0.004104229806041082,0.9937205518150821
2012-09-14,1,0.002107487585019275,0.002444883649237958,-0.006068704044746242,0.00775255295776635,0.9926136584070899
2012-09-18,1,0.002300561469434317,0.0027113163761083425,-0.0061988291682721465,0.00775255295776635,0.9914747164750204
2012-09-20,1,0.002029748238310115,0.002373824861491643,-0.0061988291682721465,0.00775255295776635,0.9915651895557726
2012-09-24,1,0.0021430180666353912,0.0025367669161875145,-0.007217112152902297,0.00775255295776635,0.9907855620747738
2012-09-26,1,0.0018532593743782627,0.0021276340031191002,-0.008919399371781048,0.00623094688056231,0.9897948198003372
2012-09-28,1,0.0022549579326349555,0.0026067367379418293,-0.00992531476977292,0.00623094688056231,0.989052387864507
2012-10-02,1,0.0026691038098357045,0.0030546275563710706,-0.00992531476977292,0.0026153823194459197,0.988436839157698
2012-10-04,1,0.0018169056454398992,0.001981023980785684,-0.00992531476977292,0.0034524166212880694,0.9890609899070716
2012-10-08,1,0.0016381344140959924,0.0017815658445419508,-0.01115536072386302,0.002748149991279819,0.9886864332335357
2012-10-10,1,0.00045572650339069777,0.0005153979920265577,-0.01209632750134462,0.002748149991279819,0.9889307522717571
2012-10-12,1,0.0019485185711262795,0.0021534963834998885,-0.01209632750134462,0.0018559303631649634,0.9900395877994
2012-10-16,1,0.001757623943295642,0.0019376244908436485,-0.01209632750134462,0.0013723474480826737,0.990181806696593
2012-10-18,1,0.0011986208570103011,0.0013187401335027372,-0.01209632750134462,0.002748149991279819,0.9896869504121466
2012-10-22,1,0.0005634494461514498,0.0005810484164336043,-0.009407022353143855,0.002748149991279819,0.990518751604767
2012-10-24,-1,-0.0014194147858581359,-0.0011342726094277996,-0.006824281283143579,0.0031875244966285887,0.9917549699827638
2012-10-26,-1,-0.0022570580469791165,-0.001837265587025627,-0.0060316536924054165,0.004252534668059915,0.9919925255396453
2012-11-01,-1,-0.001127468417992384,-0.0009079363746478991,-0.0060316536924054165,0.004252534668059915,0.9923602552172857
2012-11-05,-1,-0.0015623455773207309,-0.0012123638519292751,-0.006660633801822429,0.0031875244966285887,0.9926538865676608
2012-11-07,-1,-0.0030435424347042854,-0.002480691757823104,-0.00665417024271462,0.0023359126837413243,0.9936276788603828
2012-11-09,-1,-0.003087152962873092,-0.0025663367497740343,-0.0060316536924054165,0.004252534668059915,0.993364233520004
2012-11-13,-1,-0.002622995294729101,-0.0022085608636732107,-0.0065710177192313535,0.004252534668059915,0.9929710596774233
2012-11-15,-1,-0.003670993710780902,-0.0031184572641226836,-0.00576967642182515,0.004252534668059915,0.9935129545988398
2012-11-19,-1,-0.0034747617571797757,-0.002912764244964758,-0.00576967642182515,0.005208057901933502,0.9934153511058973
2012-11-21,-1,-0.003935678315580372,-0.0033129194167340003,-0.005249600625042308,0.006251577223116082,0.9926992457740402
2012-11-26,-1,-0.00310104748876568,-0.002639929866874335,-0.0033755585668872505,0.008083045625968437,0.9925642526044867
2012-11-28,-1,-0.0027315576575426435,-0.0023172390196162986,-0.003381455025630333,0.00874887707644024,0.9927303516423138
2012-11-30,-1,-0.002756604470650425,-0.0023178921509226006,-0.005894768747280171,0.00874887707644024,0.9920180777100429
2012-12-04,-1,-0.004135413654203009,-0.003453363203237657,-0.003658426782820609,0.011266718643918434,0.9904286555143169
2012-12-06,-1,-0.002685181595658207,-0.002272872351439764,-0.003658426782820609,0.011266718643918434,0.9906951467566206
2012-12-10,-1,-0.00279721832479597,-0.002353344039408628,-0.005386058150623305,0.009758613400879109,0.9904188347476055
2012-12-12,-1,-0.001242118855182818,-0.0011103238486211153,-0.005386058150623305,0.009758613400879109,0.9904973814953212
2012-12-14,-1,-0.0012401872545464484,-0.001121807055140061,-0.003658426782820609,0.012223742034927616,0.9899027667216748
2012-12-18,-1,-0.000568301248202362,-0.0004698048471227337,-0.003658426782820609,0.010628560084466316,0.9907443877450128
2012-12-20,-1,-5.76608618414925e-05,-1.5201222444243153e-05,-0.0029001736570229524,0.00876640039910147,0.9916825719962685
2012-12-24,-1,-5.9145556041876704e-05,-5.32158231257312e-05,-0.00319058454484572,0.00876640039910147,0.9913440558300152
2012-12-27,-1,-8.855039894124011e-05,-7.65410086177092e-05,-0.00319058454484572,0.010628560084466316,0.9911480983792416
2012-12-31,1,0.0007668877731378785,0.0008993934297240972,-0.00231440168185731,0.009366929654036892,0.9925104261239139
2013-01-03,1,0.000943822258621139,0.0010949663207446732,-0.002327840812489802,0.008459455992550359,0.9934286870476389
2013-01-07,1,0.0006204248696083201,0.0006998129257730198,-0.002327840812489802,0.008459455992550359,0.9930742241151593
2013-01-09,1,0.0003000242827857873,0.0003268333793647542,-0.0032582207414451237,0.008459455992550359,0.9934769469182747
2013-01-11,1,0.0007202043727857259,0.0008549121728271429,-0.002327840812489802,0.008459455992550359,0.9937653687915897
2013-01-15,1,0.0009898728022616,0.0011444726319904995,-0.002327840812489802,0.009366929654036892,0.992827758689107
2013-01-17,1,0.001608522274443689,0.0018440027924485655,-0.002327840812489802,0.009620338057556875,0.9926862374717726
2013-01-22,1,0.0011109074386419526,0.001276299667879601,-0.0032582207414451237,0.009620338057556875,0.9919593717957655
2013-01-24,1,0.00220162463757834,0.0025148480335085207,-0.003453923267482341,0.008459455992550359,0.992495448736001
2013-01-28,1,0.0015941249020438415,0.0018110866965526408,-0.0051527862112736075,0.007517873630907098,0.9920220339455053
2013-01-30,1,0.0022070318818436514,0.002549100343694543,-0.00612853662006706,0.007517873630907098,0.9913618485619868
2013-02-01,1,0.0018110965274439317,0.002051033460158565,-0.00612853662006706,0.007584488762446319,0.9913922426179328
2013-02-05,1,0.0016189847056342138,0.0018203056525603989,-0.004995221945771793,0.00902434544042571,0.9914793300770691
2013-02-07,1,0.0016516971400198253,0.0018985700502730843,-0.0025412083547907112,0.00902434544042571,0.9920716899861873
2013-02-11,1,0.0016145283496205535,0.0018319319366345375,-0.004995221945771793,0.00902434544042571,0.9910019242951367
2013-02-13,1,0.00256558204268704,0.0029020438775670147,-0.004995221945771793,0.005537993009229691,0.9922679625974338
2013-02-15,1,0.002932123647443486,0.0033228783102922897,-0.005799370787699348,0.004452665415041228,0.9920671049634523
2013-02-20,1,0.0022811457590835257,0.0025707430771635957,-0.004995221945771793,0.005537993009229691,0.9925924810785499
2013-02-22,0,0.0,0.0,-0.004995221945771793,0.007027246710814754,0.9926096857317767
2013-02-26,0,0.0,0.0,-0.004995221945771793,0.0073424531840731375,0.9919956826406214
2013-02-28,0,0.0,0.0,-0.0035322530768573724,0.0073424531840731375,0.9923446621419292
2013-03-04,1,0.003179929291177871,0.0036518478036952295,-0.005764613113531098,0.0054370641908116695,0.9909542886043027
2013-03-06,1,0.003106215552053414,0.0035634774771240497,-0.00787574452865758,0.0054370641908116695,0.9896192981469711
2013-03-08,1,0.002628238897024425,0.002990961909290513,-0.008869650335237277,0.0074938654961918885,0.9888430211742194
2013-03-12,1,0.002442277966582795,0.002811018673966481,-0.00787574452865758,0.007659687216335053,0.9899438806668344
2013-03-14,1,0.002740295019384191,0.0031309307066329714,-0.00787574452865758,0.007659687216335053,0.9898482071804229
2013-03-18,1,0.0020885698226224938,0.002377739126604505,-0.00842042852299624,0.00975800469798382,0.9864151162913536
2013-03-20,1,0.0013403402867985482,0.0015113770637872237,-0.010503702318253257,0.009413123921912934,0.9855135872069957
2013-03-22,1,0.0008240679859198083,0.0008880319277995383,-0.00842042852299624,0.010198453249423471,0.985865107355371
2013-03-26,1,0.0004902248047439521,0.0004992944460392064,-0.005753529054485738,0.010198453249423471,0.9869952111602633
2013-03-28,0,0.0,0.0,-0.005753529054485738,0.0091001148897966,0.9875287927712093
2013-04-02,0,0.0,0.0,-0.003264596451499807,0.0091001148897966,0.9886525002066864
2013-04-04,0,0.0,0.0,-0.003264596451499807,0.007560547555200593,0.989348026401755
2013-04-08,0,0.0,0.0,-0.00168773725464842,0.007560547555200593,0.9892093678459584
2013-04-10,0,0.0,0.0,-0.002578586184835374,0.0091001148897966,0.988768777715745
2013-04-12,1,9.661503224248839e-05,0.0002095977749943809,-0.002578586184835374,0.010198453249423471,0.9882222646877462
2013-04-16,1,0.0014688511466897736,0.001539583477725898,-0.0015186968176701884,0.010198453249423471,0.9915804086591233
2013-04-18,0,0.0,0.0,-0.0015186968176701884,0.0091001148897966,0.9917175793348001
2013-04-22,0,0.0,0.0,-0.0015186968176701884,0.010894543013393772,0.9914144073860617
2013-04-24,1,0.0005309931585501808,0.0005459209904351143,-0.002578586184835374,0.015876817349072342,0.9898221550002801
2013-04-26,0,0.0,0.0,-0.0031838922611218652,0.015876817349072342,0.9896214093062252
2013-04-30,1,0.0012466695209381253,0.0012544933658965676,-0.004168678244391015,0.015876817349072342,0.9884443694182211
2013-05-02,0,0.0,0.0,-0.004168678244391015,0.017200662196882727,0.9887792144646318
2013-05-06,0,0.0,0.0,-0.005674615374274745,0.01582351284966685,0.9895276847415183
2013-05-08,0,0.0,0.0,-0.007017219750713766,0.009839033548449455,0.9892835834747277
2013-05-10,1,0.0013908328670569387,0.0014165222117026436,-0.008748493868951338,0.009839033548449455,0.9880329357050379
2013-05-14,1,0.0020179737503294827,0.002093099357684738,-0.011836520257025434,0.006676965011119935,0.9878457801156961
2013-05-16,1,0.0016216885853158084,0.0016502066898253513,-0.008441394950774056,0.007026397187208281,0.9884698274465309
2013-05-20,1,0.00198126382998943,0.0020672843566736173,-0.008441394950774056,0.0063553304112929435,0.9891031382865062
2013-05-22,1,0.001644217724276521,0.0016814637734710387,-0.00937816195632343,0.0060120480457006124,0.9898401613954465
2013-05-24,1,0.001279124257178368,0.0012848651537398707,-0.00937816195632343,0.0063553304112929435,0.9900367673974764
2013-05-29,1,0.001226375786114396,0.0012424545300221209,-0.007724308489932483,0.0063553304112929435,0.990176880207344
2013-05-31,1,0.0013304275611790758,0.0013542668698925744,-0.008940151765392541,0.0060120480457006124,0.9907485122177263
2013-06-04,1,0.000934622587759363,0.0009735197332767107,-0.008940151765392541,0.0063553304112929435,0.990753574883656
2013-06-06,1,0.00039682283527237326,0.0005070251606878805,-0.006686681981711092,0.0061285254377300615,0.9917304436003317
2013-06-10,1,0.0007654831874315355,0.0008186762699721327,-0.004670172581056259,0.0061285254377300615,0.9928528811251699
2013-06-12,1,0.0003547003977481995,0.00044930427586525076,-0.0015140032280122296,0.006741852865710725,0.99315474257975
2013-06-14,1,0.00042516602009591656,0.000514781125828177,-0.0019207017583413649,0.006165615716059496,0.9933220423426468
2013-06-18,1,0.0006310762876122829,0.000672737923025502,-0.0034519858020662423,0.005553989530209557,0.9931287820000689
2013-06-20,1,5.49670244833046e-05,0.0001555281028660246,-0.0019183377152680785,0.005553989530209557,0.9942252241869273
2013-06-24,1,0.00020484247427710514,0.00028080886487813565,-0.002820955585222419,0.004043215590831645,0.993679726860939
2013-06-26,1,0.0004679558551092235,0.0005152324663038152,-0.002820955585222419,0.0033605293373522773,0.9942714756917941
2013-06-28,1,0.00011940056285955744,0.0002165017600545086,-0.0025860386700504072,0.003927532696268546,0.9946202368485979
2013-07-02,0,-4.4492195534797806e-05,9.292783413954007e-05,-0.0019183377152680785,0.004773896123023768,0.9943059401192037
2013-07-05,1,0.00016077629959299267,0.00026847721193904486,-0.00281386345600256,0.0054060381633616915,0.993042336727469
2013-07-09,1,0.0010828965211619602,0.0011282659916260736,-0.006131917906726819,0.0036040895147496517,0.9932301304129706
2013-07-11,1,0.0013948416709674298,0.0014993417024539886,-0.007207745423062735,0.002741886152024214,0.9931147185049636
2013-07-15,1,0.0011680179822134587,0.0012221586756229687,-0.007207745423062735,0.0022134859195881355,0.9927271872708586
2013-07-17,1,0.0007569291540667803,0.0007699408117325494,-0.007473346406673597,0.0022134859195881355,0.992440953068445
2013-07-19,1,0.0004891796495901978,0.0005474872944441322,-0.007998168183329813,0.0030932607232612205,0.9921015676047883
2013-07-23,1,0.0001300910333627071,0.0002132413715780239,-0.007178492561295956,0.0030932607232612205,0.9927082477363774
2013-07-25,1,1.4959145691777914e-05,9.864402872093362e-05,-0.007068701474856097,0.004952341756760835,0.9925733902017455
2013-07-29,1,0.0001837708493444718,0.00024380151321003242,-0.007068701474856097,0.0062397735727305614,0.9919806664961579
2013-07-31,1,0.000558474854317519,0.0005773399442509227,-0.0073120415984662054,0.0006911322641795291,0.9915703157037551
2013-08-02,1,0.0006247185385467081,0.0006633385676037774,-0.0073120415984662054,-0.0003077906566470491,0.99285857467224
2013-08-06,1,4.222293521403801e-05,0.0001574353041316846,-0.007068701474856097,0.0049105754678141125,0.9923309990342987
2013-08-08,-1,-0.0004553177921324278,-0.00026528200920859974,-0.007011327512404787,0.0062397735727305614,0.9919896392697422
2013-08-12,-1,-0.0006793431062730784,-0.0004714082156301407,-0.007011327512404787,0.011611777802980474,0.9904072849884928
2013-08-14,-1,-0.001330554856052545,-0.0010330982629051491,-0.006664767897535574,0.011611777802980474,0.9907742333528169
2013-08-16,-1,-0.0016713694348874089,-0.0013156957563711155,-0.00611507615172412,0.011611777802980474,0.9907579510285677
2013-08-20,-1,-0.001685548752755177,-0.0013497411159190324,-0.005162250560851067,0.014897360992300749,0.9900589873203699
2013-08-22,-1,-0.002180599350230362,-0.0017508715984668921,-0.005162250560851067,0.014897360992300749,0.9902233890609906
2013-08-26,-1,-0.0017855768013474147,-0.001432197614276192,-0.005162250560851067,0.014897360992300749,0.9906848504716349
2013-08-28,-1,-0.0024957192297486736,-0.002038693668708055,-0.004298652110251413,0.014897360992300749,0.9911875706878126
2013-08-30,-1,-0.0026129739102390675,-0.002152088546466437,-0.005162250560851067,0.014897360992300749,0.9904122851940891
2013-09-04,-1,-0.0016703657990989331,-0.001322386075181486,-0.005162250560851067,0.010524792340441576,0.9915267692468601
2013-09-06,-1,-0.0007571992846926954,-0.0005569115508002467,-0.004567860585179179,0.007877877234979682,0.9920263435576212
2013-09-10,1,0.0007553649225419067,0.0007922965557801184,-0.007923569581030894,0.001999515920074297,0.9925212739412002
2013-09-12,1,0.0007466118288194925,0.0007618623214237422,-0.009238667410053022,0.005010459060234332,0.9910985245412604
2013-09-16,1,0.001127329486667385,0.0011804565609929954,-0.009238667410053022,0.005010459060234332,0.9912065200506504
2013-09-18,1,0.0014502522229171407,0.0015332396361164894,-0.011946079310043729,0.005010459060234332,0.9910311708881857
2013-09-20,1,0.0009476818828812161,0.0009705966155959793,-0.009238667410053022,0.008152609824345815,0.9908053185908083
2013-09-24,1,0.0001779895749115992,0.00028121865087915793,-0.009238667410053022,0.008152609824345815,0.9907611508829742
2013-09-26,1,0.000775215642055943,0.0007853826194666869,-0.009238667410053022,0.008152609824345815,0.9907493239336131
2013-09-30,1,9.097999203535408e-06,6.177329907955056e-05,-0.00435742824148271,0.009172959084856387,0.9910541186103311
2013-10-02,1,0.0006991702587514073,0.0007601415768085974,-0.006176307308958764,0.009172959084856387,0.9904421047151494
2013-10-04,1,0.0011083204919965159,0.0012686281032101164,-0.006176307308958764,0.009172959084856387,0.9905218265814022
2013-10-08,-1,-0.00010058204043474852,-7.443609299326502e-05,-0.00435742824148271,0.009172959084856387,0.9907366347986878
2013-10-10,1,7.689457712654551e-05,0.00011216540210460524,-0.00435742824148271,0.009172959084856387,0.9904433567049046
2013-10-14,1,0.00024787882272958583,0.00028255740635061495,-0.00435742824148271,0.009846919884219586,0.9898218410653802
2013-10-16,-1,-2.940658036114635e-05,-1.2140937677573414e-05,-0.005095784400924495,0.009819382290768968,0.9898998299388149
2013-10-18,1,0.0006290619861520943,0.0006703173470595618,-0.007629095417696207,0.007193494599149701,0.9901427573985783
2013-10-22,1,0.0009236804702522268,0.0010249846187629027,-0.01042232367374649,0.006835441663077361,0.9897317016917785
2013-10-24,1,0.0005138495040598913,0.0005530162770281704,-0.010783609089129342,0.007297630034338627,0.9892911257876777
2013-10-28,1,0.0010031116457087275,0.0010754980643779524,-0.010783609089129342,0.006835441663077361,0.9901354455169538
2013-10-30,1,0.0012675350640480665,0.001399520164743965,-0.01042232367374649,0.005393120555532831,0.9912238084293514
2013-11-01,1,0.0009031013209094032,0.000950300891303638,-0.01042232367374649,0.005393120555532831,0.9913580176985302
2013-11-05,1,0.0008432523560130852,0.0008982159169240081,-0.010577424767196981,0.004674350606909872,0.991508517859319
2013-11-07,1,0.0002088534162110796,0.00022535006668615042,-0.008130146433163307,0.004674350606909872,0.9930514004009495
2013-11-11,1,0.0004641756342323706,0.000499678114682058,-0.008130146433163307,0.001940816329037999,0.993993152317666
2013-11-13,-1,-0.0001869746245767272,-8.274210529220211e-05,-0.008542506668633222,0.001940816329037999,0.9940478849173887
2013-11-15,-1,-0.0005326324184723892,-0.000412703611528055,-0.007538847196908664,0.0025208560399769247,0.9945107373270013
2013-11-19,-1,-0.0014258687653104954,-0.0011863871414831005,-0.0037334942305350624,0.004674350606909872,0.9936264059221238
2013-11-21,-1,-0.0014741264054871181,-0.001240061611057925,-0.006196678398793969,0.0025208560399769247,0.9934397430238249
2013-11-25,-1,-0.0009671554358274911,-0.0008112924918545742,-0.006196678398793969,0.005609969057412259,0.9925325378886176
2013-11-27,-1,-0.0002835354294882988,-0.0002459571746378366,-0.006196678398793969,0.005115983099431259,0.9925627450107706
2013-12-02,-1,-7.586864440244292e-05,-6.974494664916008e-05,-0.006196678398793969,0.005115983099431259,0.9927064546919354
2013-12-04,-1,-0.0004832168018067542,-0.0004447767618280064,-0.006196678398793969,0.005115983099431259,0.9929373530082878
2013-12-06,-1,-0.0002512369470855606,-0.00022566165692586358,-0.0075347736908911314,0.005115983099431259,0.9927299958003303
2013-12-10,-1,-0.00040294061178093544,-0.00035914897266260405,-0.0075347736908911314,0.005115983099431259,0.9925795642512454
2013-12-12,-1,-0.00146493127683821,-0.0012646255215671136,-0.006057867151631487,0.007647458433438759,0.991110096179858
2013-12-16,-1,-0.0013329409604721392,-0.001134145948344959,-0.006057867151631487,0.007647458433438759,0.9911270905758088
2013-12-18,-1,-0.0010733371267850934,-0.0009177177039242713,-0.005938586551415018,0.007647458433438759,0.9921174916047929
2013-12-20,-1,-0.0015377418424635898,-0.0013605041917036434,-0.0030920358505784435,0.007647458433438759,0.9927311920379811
2013-12-24,-1,-0.00025524812716824904,-0.00023996584030445975,-0.0074688823815974,0.004208268872640812,0.9904549009897616
2013-12-27,-1,-0.0003906730903292042,-0.0003572119109331237,-0.007709142836150888,0.0025876121978810145,0.9899320581125943
2013-12-31,-1,-0.0005974329764254738,-0.0005228852221875534,-0.007709142836150888,0.0025876121978810145,0.9897538262537084
2014-01-03,-1,-0.0012013665035365832,-0.0010372359321154279,-0.008665754990771471,0.0025876121978810145,0.9887641686355452
2014-01-07,-1,-0.001480101451955854,-0.001256393910117603,-0.008665754990771471,0.0025876121978810145,0.989068564986274
2014-01-09,-1,-0.0012896214385283837,-0.0010855780534360393,-0.008665754990771471,0.002993108196306067,0.9886658123606953
2014-01-13,-1,-0.000570745855135881,-0.00043470276866570734,-0.008601253067929762,0.002993108196306067,0.9897958842807661
2014-01-15,-1,-0.0003565561917926597,-0.00024330353397516768,-0.008601253067929762,0.0026157576014131925,0.9899450133224218
2014-01-17,-1,-0.00028683232789814125,-0.00018700848647775978,-0.008601253067929762,0.0071362732965930655,0.9890056882514515
2014-01-22,-1,-0.0009540486517377016,-0.0007499591357694036,-0.0061942209304714614,0.0071362732965930655,0.9892255293549219
2014-01-24,-1,-0.0038950188403166154,-0.0033356464144032104,-0.002401143770836151,0.008561143970821111,0.9910436143452876
2014-01-28,-1,-0.003695824244047589,-0.0032202552441898255,-0.00033302612465724215,0.008561143970821111,0.9909865092805483
2014-01-30,-1,-0.0034986379930377876,-0.003065762348197995,0.00020061625848794432,0.008561143970821111,0.9903002647891511
2014-02-03,-1,-0.0035601367359743468,-0.0031973785022103947,0.00065253308124928,0.008561143970821111,0.990853562307826
2014-02-05,-1,-0.0032467833821260518,-0.002918136500827688,0.0009262260363711027,0.00838400140318921,0.9909229118824933
2014-02-07,-1,-0.002504835657204469,-0.0022815432086713736,0.00063941541193181,0.008176368236932349,0.992239887083671
2014-02-11,-1,-0.0014175396686340192,-0.0013521571001618743,-0.0026918965564053775,0.007039655350497323,0.9931613391761225
2014-02-13,-1,-0.0013179497292336649,-0.001246885162802489,-0.004904867835726496,0.006797479911620269,0.992291062960306
2014-02-18,-1,-0.000151151595458653,-8.768042906684778e-05,-0.004904867835726496,0.005883842400488705,0.9930808903108157
2014-02-20,1,3.824858232956147e-06,9.700652068389944e-05,-0.006077741113991111,0.005883842400488705,0.9923701928503789
2014-02-24,1,5.848975886522953e-05,0.00010618484353516931,-0.006077741113991111,0.005722755498564035,0.9927710020705076
2014-02-26,1,0.00028930271640450827,0.0003929199597715486,-0.006974336689001352,0.005883842400488705,0.9920055219036232
2014-02-28,1,0.0007882912761748038,0.0009618057489084888,-0.006974336689001352,0.005060807785774764,0.9923645360659488
2014-03-04,1,0.0003377320057173692,0.00040022534772228,-0.005330741066203085,0.005060807785774764,0.9923314475551647
2014-03-06,1,0.0005614946689495863,0.000640125305872006,-0.005330741066203085,0.006016790964574949,0.9921220428984232
2014-03-10,1,0.0005215405027992699,0.0006166178019551597,-0.008032316010715128,0.006016790964574949,0.9905076778408897
2014-03-12,-1,-5.470880492902847e-05,-4.039829867505792e-05,-0.004461304361466311,0.008851896276939141,0.9888662464210701
2014-03-14,-1,-0.0002306386837573807,-0.00018274131105581892,-0.008040505099554375,0.008851896276939141,0.9886839780274765
2014-03-18,1,0.0008072585081786869,0.0010041028340951213,-0.008040505099554375,0.0074504927948235745,0.9893659842747226
2014-03-20,1,0.00038102090931621497,0.0005046288191293256,-0.005878742270775322,0.007668629841205785,0.9896581137361169
2014-03-24,1,0.0009503512522950931,0.0012031524604799448,-0.005878742270775322,0.008660425348193432,0.9894655055668742
2014-03-26,1,0.000966396847082017,0.0012299631768876449,-0.005878742270775322,0.007668629841205785,0.9902400864480182
2014-03-28,1,0.0008525464644805076,0.001104267446858292,-0.008040505099554375,0.007668629841205785,0.989832904624503
2014-04-01,1,0.0014093971558377957,0.0017304223026305496,-0.008040505099554375,0.007668629841205785,0.9888458640079224
2014-04-03,1,0.0016393807641994925,0.0019502770866718535,-0.008040505099554375,0.007492200476354583,0.9887514562573634
2014-04-07,1,0.0006984654213665551,0.0009416959606487704,-0.0066741493090862,0.007492200476354583,0.9906812332325113
2014-04-09,1,0.002185489286605671,0.0025865753717206237,-0.0066741493090862,0.0035306827208371324,0.9921183467186577
2014-04-11,1,0.0006964407220486234,0.0008674094500483558,-0.005283710901716728,0.006123067129450054,0.9933284510313919
2014-04-15,1,0.0004389873624893702,0.000536792822386665,-0.0038604742364060298,0.0035306827208371324,0.9937467263265886
2014-04-17,1,0.0005670604841231811,0.0006719856658399209,-0.005350723186873751,0.0035306827208371324,0.9935522728654904
2014-04-22,1,0.0011328715732697304,0.001327404331613514,-0.00578331547631445,0.0035306827208371324,0.9923108201284605
2014-04-24,1,0.0008798743196001744,0.001054687430109313,-0.005350723186873751,0.006173400303570619,0.9924544194899539
2014-04-28,1,0.0005569911544914627,0.0006890138170889898,-0.003794333444824618,0.006173400303570619,0.9930059771291742
2014-04-30,1,0.0009180234814046449,0.001069037459394635,-0.0027389958689873163,0.006941558081028014,0.9938482022947186
2014-05-02,1,0.0008305737825555165,0.000994274950878055,-0.0022734915049300733,0.006953916634237994,0.9938162708802197
2014-05-06,1,0.00055323147154187,0.0006711627541073407,-0.0018821230158267976,0.007627518567966263,0.9932362085764914
2014-05-08,1,0.0003982807410703352,0.0004541759852784678,-0.0018821230158267976,0.00880854694124555,0.9923295764935994
2014-05-12,1,0.0008940829112683041,0.0010330480642666824,-0.001595864863092801,0.007890545908987969,0.9930959594221214
2014-05-14,1,0.0007664690340002099,0.0008937589563901092,-0.001478915524411063,0.007890545908987969,0.9916393374168329
2014-05-16,1,0.00037114879424222805,0.0003899441454142834,-0.0014485736433089858,0.007787037314155486,0.9920014749818933
2014-05-20,1,0.00023516248919748094,0.00028700275567792525,-0.0014485736433089858,0.007147938245371377,0.9930052667795
2014-05-22,1,0.0006846621526694979,0.000806083487090396,-0.0014485736433089858,0.006728525058099978,0.9933729273844057
2014-05-27,1,0.0007909362314006175,0.0009261386175096252,-0.002596832672493224,0.006728525058099978,0.992613502161015
2014-05-29,1,0.0011504806551228333,0.0013085909612357322,-0.003644381188429076,0.006553851622567595,0.9929595471959803
2014-06-02,1,0.0016247870234142323,0.0018461046126903675,-0.003644381188429076,0.004831402632219627,0.993076730247001
2014-06-04,1,0.0019004768492388415,0.0021711912868258645,-0.003644381188429076,0.002051057490266691,0.9931221458207878
2014-06-06,1,0.0032556964212976432,0.00376476271252951,-0.006090664260247855,0.0011915244979755597,0.9915299317212504
2014-06-10,1,0.0035597849176214713,0.00412483391303399,-0.006090664260247855,0.0011268800650661723,0.991230812442776
2014-06-12,1,0.002412748821167529,0.0028293547015351135,-0.007686000743566443,0.0011268800650661723,0.992616786616625
2014-06-16,1,0.0021636093372452863,0.0025260761282607596,-0.007686000743566443,0.001163761570902247,0.9928923490578466
2014-06-18,1,0.0005327902880367749,0.000558292414031623,-0.009686293297780472,0.0005551885353433313,0.9933252638250569
2014-06-20,1,0.00033710440912090443,0.000420948959600221,-0.010040317842454839,-0.0002912967711776947,0.9929530115988675
2014-06-24,-1,-0.000696313734334853,-0.00048358290726938384,-0.009686293297780472,0.0005551885353433313,0.9939653916329632
2014-06-26,-1,-0.0019102241239245675,-0.0014798765489082203,-0.009686293297780472,0.001534712054402356,0.9941564678609985
2014-06-30,-1,-0.001999085591502931,-0.0015668980971666345,-0.009686293297780472,0.001534712054402356,0.993906318627039
2014-07-02,-1,-0.002228909225031556,-0.0017965059171825178,-0.009894543031559995,0.00306954134092758,0.9931218636298705
2014-07-07,-1,-0.0020180555640519574,-0.00164479863699639,-0.006222564654769136,0.001534712054402356,0.9946800524054176
2014-07-09,-1,-0.001967489842518432,-0.001614231772082172,-0.006222564654769136,0.0028984467707042654,0.9945630067604789
2014-07-11,-1,-0.0020578601438708075,-0.0017613683906064033,-0.005002999045651977,0.003406968804587716,0.9941067747994793
2014-07-15,-1,-0.001851305643185065,-0.0015813710510484413,-0.005002999045651977,0.00444341489874556,0.9938719557032215
2014-07-17,-1,-0.0022195789341864225,-0.001936932189636227,-0.004781439991161504,0.00444341489874556,0.9941272969491283
2014-07-21,-1,-0.0024415622029521486,-0.0021328543860158573,-0.004781439991161504,0.00444341489874556,0.9934933468836112
2014-07-23,-1,-0.0018796085803417517,-0.0016657604102940106,-0.004781439991161504,0.00444341489874556,0.9933764286955976
2014-07-25,-1,-0.0018367672854718024,-0.0016292467339910782,-0.004781439991161504,0.004980713315393032,0.9929288744959018
2014-07-29,-1,-0.0019090466996091807,-0.001716731398148018,-0.0031913226380357084,0.006633270310648238,0.9925538170563759
2014-07-31,-1,-0.0027096288958500334,-0.0024127541840281586,-0.0031913226380357084,0.006210644192132608,0.9931081148956696
2014-08-04,-1,-0.0030304237441759153,-0.0026670270862848037,-0.0031913226380357084,0.006327706462629628,0.9926196897489966
2014-08-06,-1,-0.0032640108716740493,-0.0028357539171976276,-0.0031913226380357084,0.00991621464815047,0.9918519968692561
2014-08-08,-1,-0.002363168362139876,-0.00209285939632496,-0.0031913226380357084,0.007818353287051013,0.9930786173942026
2014-08-12,-1,-0.0020812066178471497,-0.001828835916037032,-0.0037208982827477994,0.007818353287051013,0.9934731955961966
2014-08-14,-1,-0.002050858696222974,-0.0018069133010780954,-0.0031913226380357084,0.008255577096038628,0.9933054014458134
2014-08-18,-1,-0.0013415114259163682,-0.0011764273186443725,-0.0027053580729500177,0.007310012802204455,0.9946086778750335
2014-08-20,-1,-0.001036821189819669,-0.0008974339145158981,-0.0027053580729500177,0.007310012802204455,0.9943309545519906
2014-08-22,-1,-0.000338903566011674,-0.00031126227973701814,-0.0027053580729500177,0.006707236585074389,0.9946278962289111
2014-08-26,1,0.00024754719401160114,0.00032792699182020765,-0.001982804231972614,0.0053856636280591895,0.9951242456651559
2014-08-28,-1,-0.0011570682197643268,-0.0009865835527462117,-0.0015527165738332138,0.006707236585074389,0.9945085930457971
2014-09-02,1,0.00023578336720946682,0.00033156166220962353,-0.0017424673208476396,0.006707236585074389,0.995183748958534
2014-09-04,1,0.0002390254066970832,0.0002658636171887786,-0.0029373013722395797,0.004708825036658587,0.9953323342983736
2014-09-08,-1,-0.00013903322548572302,-0.00012167149017683432,-0.0012784278487469026,0.006805185765819237,0.9953408389810844
2014-09-10,-1,-0.000336051063523568,-0.00030604802111571894,-0.0004887350069117188,0.007603860344438998,0.9940857520707008
2014-09-12,1,0.0001583674146755338,0.00021495113542204926,-0.005111554429095263,0.006805185765819237,0.992366696790413
2014-09-16,1,2.1359007192199463e-05,3.9481368893292036e-05,-0.00870850940231418,0.007831594668747744,0.9901204594554027
2014-09-18,1,0.0004444679694326827,0.0004993783456896239,-0.013026062705188586,0.00495911919989261,0.9889723106113771
2014-09-22,1,0.00036852507417328126,0.00043896867847357076,-0.013026062705188586,0.007831594668747744,0.9886751518997077
2014-09-24,1,0.00039265615892613876,0.0004536172658432708,-0.015012363038203923,0.00886607586945919,0.9874063133195125
2014-09-26,1,0.0002389629494911701,0.0002708761975267607,-0.015012363038203923,0.0097699782416364,0.9869822032426262
2014-09-30,1,0.0002754776848526881,0.0003206493723008503,-0.015012363038203923,0.00987699380237818,0.9861272395608177
2014-10-02,1,0.0005221027512193302,0.0006140516300888437,-0.015012363038203923,0.00987699380237818,0.9863974230265743
2014-10-06,1,0.0007422715850663776,0.0008566409662007606,-0.015012363038203923,0.010661216097891335,0.9862360663690534
2014-10-08,1,0.00045051140318488013,0.0005309197725056859,-0.00794218971062685,0.01278061576231138,0.9866955506885438
2014-10-10,-1,-0.0009958202168268441,-0.0008776626009943913,-0.0003356342115386669,0.01278061576231138,0.9880343700896977
2014-10-14,-1,-0.0010373253076437208,-0.0009284452920835132,-0.0029556138825529107,0.010661216097891335,0.988721978816887
2014-10-16,-1,-0.0019342004485447353,-0.0017263054792926234,-0.0029556138825529107,0.010661216097891335,0.9898824128707572
2014-10-20,-1,-0.001502212184424028,-0.0013682007107631016,-0.0032178221044508928,0.010661216097891335,0.9900491859405501
2014-10-22,-1,-0.0010717487943764814,-0.0010079933051456256,-0.0024953516646617968,0.00838041262617881,0.9912356251367748
2014-10-24,-1,-0.000200074898247802,-0.0001470309008385689,-0.0024953516646617968,0.007486957243060614,0.992111244069804
2014-10-28,1,0.0006686542495008148,0.0008719308334342369,-0.005010290697260756,0.007486957243060614,0.9925870718327704
2014-10-30,1,0.0009289080418416109,0.0011774881205749562,-0.0066713543196162736,0.007486957243060614,0.9922884874690736
2014-11-03,1,0.0009695526385905923,0.0011821159140594048,-0.007659501170648932,0.007137230399686384,0.9919282000180207
2014-11-05,1,0.0016095786262679008,0.0019091452637394154,-0.007659501170648932,0.007233288906255934,0.9917902031142422
2014-11-07,1,0.0017560324329688034,0.002070910639441974,-0.008690455915570487,0.007842855326058891,0.9911267246027587
2014-11-11,1,0.0010598039185537845,0.0012969408305086782,-0.007659501170648932,0.007842855326058891,0.991272202790989
2014-11-13,1,0.0006609905284913395,0.000818964964409068,-0.0066713543196162736,0.008289370637026429,0.9910522826550531
2014-11-17,1,0.0006231211092227787,0.0007696080594821904,-0.0066431298474019206,0.008289370637026429,0.9913767396669501
2014-11-19,1,0.000608831402450178,0.0007506380892342382,-0.0066431298474019206,0.009423598155779133,0.9901091211023791
2014-11-21,1,0.0009020797448278711,0.0010663201156942879,-0.0066431298474019206,0.009423598155779133,0.9897034800287146
2014-11-25,1,0.0009851079924810692,0.0011551695900440834,-0.006320545729298743,0.008289370637026429,0.9901906304277478
2014-11-28,1,0.0005461742541540416,0.0006552667348697193,-0.0027741829371119445,0.008289370637026429,0.990699474610876
2014-12-02,1,9.688253724876995e-05,0.00011097401934447148,-0.0037086072231981553,0.008289370637026429,0.9908778782157772
2014-12-04,1,0.0008729594245944197,0.0009961173522738125,-0.0057988076209904765,0.0029139259775668226,0.9907352218128382
2014-12-08,1,0.0005255481884093631,0.0005710295540665036,-0.0057988076209904765,0.0013685956590357945,0.9910414335618196
2014-12-10,-1,-0.00047972008335354655,-0.00039370484589949225,-0.0057988076209904765,0.0029139259775668226,0.9909676269913076
2014-12-12,1,1.8883527814990582e-05,4.262511467094062e-05,-0.008012844567428576,0.0013685956590357945,0.990728785595669
2014-12-16,-1,-0.0002261820820958753,-0.000173614979331801,-0.01046987754289545,0.0013685956590357945,0.9900387262376045
2014-12-18,1,0.0006374691791364307,0.000672122995033615,-0.01046987754289545,0.0025604060173791236,0.9906333502610472
2014-12-22,1,0.0009795743574963127,0.0010272419342559765,-0.01046987754289545,0.004346897712359349,0.9912090506618545
2014-12-24,1,0.0007322296909532467,0.0007436781895247657,-0.01179234664937914,0.004346897712359349,0.9891690417754151
2014-12-29,1,0.000853809573088562,0.0008861435788783226,-0.012638378177236766,0.003532244064003627,0.9886100618800192
2014-12-31,1,0.0003705925917923238,0.000393892107044195,-0.012638378177236766,0.004346897712359349,0.9884420026067507
2015-01-05,-1,-0.0002814830846455258,-0.00019203045633231535,-0.01179234664937914,0.008425489140956812,0.9879793612445296
2015-01-07,-1,-0.0007823364547255556,-0.0006321650842363575,-0.01179234664937914,0.008425489140956812,0.9874547313841753
2015-01-09,-1,-0.00017835497006014257,-0.00012329187397628903,-0.008333428699936994,0.005731098871752284,0.9886989016559381
2015-01-13,-1,-0.0006360345471395615,-0.0005426873875715807,-0.006481931483394809,0.005731098871752284,0.9892692067330375
2015-01-15,-1,-0.0011869579494262433,-0.0010412620831037965,-0.005756159913314783,0.005731098871752284,0.9893997454225103
2015-01-20,-1,-0.0004239130753751302,-0.0003779737447322633,-0.005756159913314783,0.004607370528544327,0.9899707220364368
2015-01-22,-1,-0.00033050844553426766,-0.0002755224525905221,-0.005756159913314783,0.004632022398432797,0.9899758734560049
2015-01-26,-1,-0.0014883809019278487,-0.001309767703876868,-0.005756159913314783,0.006190478880593306,0.9915486547951377
2015-01-28,-1,-0.0016019392139641794,-0.0014383295693560093,-0.0046286331131528136,0.007994627192233483,0.991406825902616
2015-01-30,-1,-0.0010842122503575075,-0.0009654404795452927,-0.005756159913314783,0.007994627192233483,0.9915240196031407
2015-02-03,-1,-4.0035027186403904e-05,-3.0025124219023446e-05,-0.007280341407413527,0.006190478880593306,0.992026551312128
2015-02-05,-1,-0.0004363913926553031,-0.0003911665116171826,-0.007280341407413527,0.007966253551531055,0.9922748656586744
2015-02-09,-1,-0.0005826318547609311,-0.0005221542282801119,-0.009113500917994101,0.007966253551531055,0.9913780160174557
2015-02-11,-1,-0.00034964168590019513,-0.00034342195847757303,-0.009113500917994101,0.008349377387809564,0.991195984915854
2015-02-13,-1,-0.0007631627455959365,-0.0007000809188801596,-0.00535716217122116,0.008667390259923304,0.9910433520584001
2015-02-18,-1,-0.0004999490155699464,-0.000476759766767561,-0.005272566749550084,0.008742465724431558,0.9906966586411384
2015-02-20,-1,-0.00018824586066203106,-0.00017619010691596277,-0.006315017234563388,0.008667390259923304,0.9908703696614833
2015-02-24,-1,-0.00024371336335131857,-0.00023995082244750808,-0.006978205450264681,0.008667390259923304,0.990874070328017
2015-02-26,1,0.00019225020463580858,0.0002626743235012156,-0.006978205450264681,0.008349377387809564,0.9912897681971956
2015-03-02,1,0.0002723232373953909,0.0003735005504719632,-0.004620089185213555,0.008349377387809564,0.9918595140946055
2015-03-04,-1,-0.00021267371343834733,-0.00019639410700682947,-0.006015408579896178,0.004117845600027594,0.9921248363870352
2015-03-06,-1,-0.0010770995295962729,-0.0009258592695198322,-0.005821002004614146,0.004117845600027594,0.9918727802755442
2015-03-10,-1,-0.0018555054289013367,-0.0015994158416291994,-0.005821002004614146,0.006732967438051146,0.992418843553409
2015-03-12,-1,-0.0026373284762540253,-0.0022254991870108236,-0.005821002004614146,0.0036117825012426576,0.9926416069757695
2015-03-16,-1,-0.0022821666945463484,-0.0019154391001913805,-0.005821002004614146,0.0036117825012426576,0.9926600565733706
2015-03-18,-1,-0.0016443205791890625,-0.0013540027878132933,-0.005821002004614146,0.0036117825012426576,0.992902013955689
2015-03-20,-1,-0.001437739048787306,-0.001217646825999222,-0.006490795583058039,0.0036117825012426576,0.9927732881733261
2015-03-24,-1,-0.001269591833810015,-0.0011054438792643306,-0.0031709971245156027,0.007749887668836141,0.9923987831894835
2015-03-26,-1,-0.0011063280355871116,-0.0009707853064387384,-0.0027649369290796825,0.011737829210247934,0.9918212878951842
2015-03-30,-1,-0.0002442793261710648,-0.00023645447826831068,-0.0027649369290796825,0.009988416338544366,0.9922166175618358
2015-04-01,-1,-0.0005386401755145539,-0.0005381961040609157,-0.0011486303233365779,0.009988416338544366,0.9927498763884218
2015-04-06,1,0.00014209976470783153,0.00024873207108150666,-0.0006976531836863905,0.007037637056646507,0.994223787823021
2015-04-08,-1,-0.0005419365063674882,-0.0005005996392756817,-0.0006976531836863905,0.005196632621962992,0.9941562658371141
2015-04-10,-1,-0.0005987221931217901,-0.0005386016532272543,-0.0010462881301277849,0.009988416338544366,0.9935577318020752
2015-04-14,-1,-2.6915586549663212e-05,-1.858809580095644e-05,-0.0012349991811215367,0.009544006524365573,0.9938953905748806
2015-04-16,1,0.00046266941422430034,0.000534747477380331,-0.001450504809881931,0.005752570348396864,0.9934821109058065
2015-04-20,1,0.00034800005094269483,0.00043514907908541293,-0.0012349991811215367,0.005752570348396864,0.993848061662802
2015-04-22,1,0.0010411137857687458,0.001228708086923663,-0.0012349991811215367,0.003957544335166146,0.9946027472610176
2015-04-24,1,0.001273100185594268,0.0014616968111720047,-0.0017125293976181786,0.002772344840884232,0.9949307705683603
2015-04-28,1,0.0014023195718425128,0.0015962527447183743,-0.002978765631568729,0.0024621416308971294,0.9950844642412717
2015-04-30,1,0.0017014524294396859,0.0019832426603937866,-0.003689773654382843,0.002149460949822961,0.9943017235146868
2015-05-04,1,0.0017316864284839255,0.0020138939965252886,-0.003689773654382843,0.0025955206287020284,0.9942679487562198
2015-05-06,1,0.0008568151296137871,0.0009679055155829733,-0.003689773654382843,0.003072433337482001,0.9941212679097675
2015-05-08,1,0.0014402299735424605,0.0016543119493060976,-0.004052516110242488,0.003072433337482001,0.9941194966458651
2015-05-12,1,0.0015521468249321177,0.0017665628473243766,-0.004052516110242488,0.003403820232866462,0.9942405010554565
2015-05-14,1,0.0015833516146912163,0.0018631744813825495,-0.004052516110242488,0.003403820232866462,0.9942672232048007
2015-05-18,1,0.0019169980386118395,0.002284918858231523,-0.004432077181052919,0.003940549649370408,0.9941571605592961
2015-05-20,1,0.0018303609535587012,0.0021801574431020974,-0.004432077181052919,0.004090750232272932,0.9934810595615609
2015-05-22,1,0.00195675693084604,0.0023368155245572174,-0.004958310959991038,0.005183377580263414,0.9931400898188325
2015-05-27,1,0.0016866900296229896,0.002003170037827463,-0.005543028075701934,0.005896371868553265,0.9927620694534378
2015-05-29,1,0.0007069348787637922,0.0008514985093920954,-0.005543028075701934,0.005896371868553265,0.9925943259148172
2015-06-02,1,0.0006796385738645698,0.0007941097549098876,-0.006821587856303886,0.005896371868553265,0.9920065683444348
2015-06-04,1,0.0005200327670453743,0.0006334538759319046,-0.005543028075701934,0.005896371868553265,0.9926300000963522
2015-06-08,1,0.00022701304419499508,0.0002641663116664076,-0.005603961831667977,0.005955471062871863,0.9923043610384923
2015-06-10,1,0.00018169201657240912,0.00019030492408907523,-0.007004389124202015,0.005360482453238087,0.9920298653445115
2015-06-12,-1,-1.675497479789272e-05,-1.5022397618797184e-05,-0.005603961831667977,0.005777347606731485,0.9928089584976936
2015-06-16,1,0.00012376083255842592,0.00015964342204779247,-0.008108459624256022,0.005777347606731485,0.9917759549549818
2015-06-18,1,0.0001263804043970688,0.00014833043903192752,-0.008108459624256022,0.005360482453238087,0.992353754719468
2015-06-22,-1,-0.00014485223746872996,-6.153386629718935e-05,-0.010738056201280224,0.005360482453238087,0.9915714804097205
2015-06-24,1,0.00016676505881864622,0.0001823372239017624,-0.011962533259500852,0.005777347606731485,0.9907094232929595
2015-06-26,1,0.0003650129817179276,0.0004439972921249613,-0.010738056201280224,0.005777347606731485,0.9916027066923357
2015-06-30,-1,-0.0004784161266483552,-0.0004188563979140221,-0.00785968566327418,0.005777347606731485,0.992038613324354
2015-07-02,-1,-0.0007519810657038191,-0.0006511494929867253,-0.009112494219118045,0.006403506269184673,0.9910382940745293
2015-07-07,-1,-0.0005896298618516015,-0.0005013416348686794,-0.010738056201280224,0.005855132499699475,0.9909473089788673
2015-07-09,-1,-0.0010101503741773992,-0.000853856676738617,-0.009112494219118045,0.005855132499699475,0.9913046133469078
2015-07-13,-1,-0.0006222835613555627,-0.000516317186613172,-0.009112494219118045,0.005916144054296411,0.9907793153028465
2015-07-15,-1,-0.0014057060246995608,-0.0012263487790828995,-0.005385127242101578,0.006651494484951389,0.9909209365042702
2015-07-17,-1,-0.0010539736625303545,-0.0009122976618564842,-0.009529648485257149,0.005916144054296411,0.9905434873987802
2015-07-21,-1,-0.0012773967780941628,-0.0011291898230946064,-0.005734267433685555,0.005916144054296411,0.99142303709428
2015-07-23,-1,-0.0018509749211240876,-0.001629823220943297,-0.005466629476584434,0.004775713685131709,0.9923880057948488
2015-07-27,-1,-0.002323164083911251,-0.002025286396244624,-0.009529648485257149,0.004775713685131709,0.990296473055907
2015-07-29,-1,-0.0018422011376566056,-0.0016012173996292852,-0.009529648485257149,0.006138011294241725,0.9894676475586147
2015-07-31,-1,-0.001932828586424224,-0.0016514882254767107,-0.008271954259942328,0.006138011294241725,0.9892373654594142
2015-08-04,-1,-0.002119799372500978,-0.0018268698981295296,-0.008271954259942328,0.0049198384826080275,0.9892724227400886
2015-08-06,-1,-0.001758642052828213,-0.0015255589548525688,-0.010954625865721867,0.008192659994408687,0.9881800052038583
2015-08-10,-1,-0.0008082809060276648,-0.0007116961757486048,-0.010954625865721867,0.008192659994408687,0.9871857555900525
2015-08-12,-1,-0.0010269334214771514,-0.0008929265663402886,-0.010532364901096979,0.0027626637124835637,0.9878458834469782
2015-08-14,-1,-0.0018176151516306302,-0.0015812378407887779,-0.010532364901096979,0.0027626637124835637,0.9882069992676475
2015-08-18,-1,-0.0015739689236783476,-0.0013670592667477137,-0.010532364901096979,0.005809293608863939,0.9876344462602752
2015-08-20,-1,-0.0017026543919031413,-0.0014998708576399813,-0.01694748462070376,0.005809293608863939,0.9864166741521777
2015-08-24,-1,-0.003434735277565889,-0.0029990652643075225,-0.010532364901096979,0.005809293608863939,0.9882980910473317
2015-08-26,-1,-0.002457343241359879,-0.002157630126391556,-0.010532364901096979,0.004303052287115053,0.9886144198307848
2015-08-28,-1,-0.0018013824636289601,-0.0015742942201769144,-0.010532364901096979,0.0018198283363640793,0.9894440884351159
2015-09-01,-1,-0.002292969354409752,-0.002012307369764341,-0.010405400097966453,0.004357944691376736,0.9896349836552862
2015-09-03,-1,-0.0017777188167648903,-0.0015790221625824798,-0.010445919280110584,0.004357944691376736,0.9884740035789903
2015-09-08,-1,-0.0008218553242910129,-0.0007594791492168791,-0.009680367780430896,0.01248898983128001,0.9884042204324021
2015-09-10,-1,-0.001365027989350873,-0.0012243680399168632,-0.008616584234166317,0.016297248418799273,0.987098581436921
2015-09-14,-1,-0.001566826258092559,-0.00143292585737309,-0.00943652667504567,0.016297248418799273,0.9866911059457072
2015-09-16,-1,-0.0006063415958141528,-0.0006018212059561759,-0.00993562972536349,0.014849979480753929,0.9870854408155455
2015-09-18,-1,-0.0014798968614743863,-0.0013980638634771034,-0.00943652667504567,0.014849979480753929,0.9856821270959427
2015-09-22,-1,-0.001521751840861419,-0.0014293696306516446,-0.00993562972536349,0.014849979480753929,0.9847646555237968
2015-09-24,-1,-0.001247409723320231,-0.0011937175730206543,-0.00993562972536349,0.016297248418799273,0.9837858755489064
2015-09-28,-1,-0.001571523581750742,-0.0014706779420956841,-0.00993562972536349,0.016297248418799273,0.9837146746982712
2015-09-30,-1,-0.0007745266721934563,-0.0007579065561717417,-0.012513118636241499,0.01793301041711617,0.9824838983413826
2015-10-02,-1,-0.000494828020953833,-0.0004215712475662894,-0.00993562972536349,0.016297248418799273,0.9843702403774053
2015-10-06,1,0.00042213419148015926,0.0005931707040707116,-0.00993562972536349,0.006100261720950097,0.9859165847820603
2015-10-08,1,0.001368065421726624,0.0016623153083105326,-0.00993562972536349,0.001803631417709303,0.986755415174414
2015-10-12,1,0.0006540864036280149,0.0008537366937533989,-0.008341880600082346,0.004927202246292566,0.9871681031526558
2015-10-14,1,0.00028778615584000876,0.00044186252942003814,-0.007511033573104236,0.006100261720950097,0.987563808271124
2015-10-16,-1,-0.0014610700823494607,-0.0013991878380790687,-0.009193177323923989,0.006100261720950097,0.9873967044668688
2015-10-20,-1,-0.0025960717768295375,-0.0023738036579246434,-0.009193177323923989,0.006899326356723345,0.9870512140478893
2015-10-22,-1,-0.0010910313014918802,-0.0010601506902038734,-0.009193177323923989,0.006899326356723345,0.987732865670274
2015-10-26,-1,-0.0016500935971686715,-0.001541322813393403,-0.007782757925807075,0.006899326356723345,0.9878053394735014
2015-10-28,-1,-0.0013080516860072755,-0.001245750628625399,-0.004515787889970098,0.005647330511031559,0.9896366144717181
2015-10-30,-1,-0.0005727829599518626,-0.0005211474823953895,-0.004515787889970098,0.005006915653360018,0.9900271245427393
2015-11-03,-1,-0.0005728130089940753,-0.0005478960465605368,-0.0068336056762048165,0.005032976896769131,0.9895372393603872
2015-11-05,-1,-0.0006647298878240827,-0.0006503753942965154,-0.0068336056762048165,0.005725514241258899,0.9890496834808076
2015-11-09,-1,-0.00034621218410780277,-0.00024526152451793097,-0.010761071579797749,0.005032976896769131,0.9891604218590998
2015-11-11,1,0.00014584918127930318,0.0003221885116644677,-0.010761071579797749,0.005032976896769131,0.98902155530277
2015-11-13,-1,-0.0016944437030475123,-0.0016364333288573796,-0.010038108470359308,0.005725514241258899,0.9901705658746172
2015-11-17,-1,-0.0023557133779385166,-0.0022057126432625807,-0.006741167592842555,0.005861541461249063,0.9907550797279617
2015-11-19,-1,-0.0016490293342340838,-0.0015643163385011213,-0.009880037377239597,0.005032976896769131,0.991809446638088
2015-11-23,-1,-0.0015979778867092915,-0.0015154419164399562,-0.009880037377239597,0.00783341816968548,0.9901424780289537
2015-11-25,-1,-0.001265965331243855,-0.0012407699482558745,-0.009880037377239597,0.01061105851323114,0.989477139027863
2015-11-30,-1,-0.0009236188670650479,-0.0009102413437310794,-0.009880037377239597,0.01061105851323114,0.9895467933983595
2015-12-02,-1,-0.0007794893999827589,-0.0007238031236840565,-0.009880037377239597,0.01061105851323114,0.9897273285849822
2015-12-04,-1,-0.0009556236194493636,-0.0009410443971315243,-0.010036195440233561,0.008082316084471077,0.9897881104842806
2015-12-08,-1,-0.0015730348851102226,-0.001510503090755462,-0.009698896142009621,0.008082316084471077,0.9906689943809537
2015-12-10,-1,-0.0017649457336497286,-0.0016614834488263767,-0.009970562430476112,0.00713311447323488,0.9896944519132506
2015-12-14,-1,-0.0019664217667310587,-0.0018179241329584106,-0.009970562430476112,0.0031697393659336714,0.9907824046905017
2015-12-16,-1,-0.0013821195249887222,-0.00130313311105019,-0.009970562430476112,0.0032569747236915686,0.9902513648240818
2015-12-18,-1,-0.001658417481232397,-0.0015607944577481522,-0.011160996197087679,0.0032569747236915686,0.9893206956570552
2015-12-22,0,-0.0001033804865780949,1.307051029730209e-05,-0.011160996197087679,0.0032569747236915686,0.9896206877101065
2015-12-24,1,0.00031286120761350907,0.00046359744701212876,-0.011160996197087679,0.0024590716598832797,0.9898178947979891
2015-12-29,1,0.00039950599867665215,0.0005637994556046976,-0.011160996197087679,0.0024590716598832797,0.9882276682831734
2015-12-31,1,0.0004084215022226416,0.0006201126776730828,-0.011160996197087679,0.006141947549821898,0.9876554524259938
2016-01-05,1,4.717494261389821e-05,0.00020873711267054246,-0.011160996197087679,0.010633544135484282,0.9860556200829769
2016-01-07,-1,-0.0006195367296201171,-0.0005854500930706529,-0.011160996197087679,0.015809920154314056,0.9839271133194921
2016-01-11,-1,-0.0016461879607647643,-0.00157492991723737,-0.00809956832171939,0.015809920154314056,0.9851076586451599
2016-01-13,-1,-0.0024062970338951297,-0.0022360432616097842,-0.005818338136058939,0.015809920154314056,0.9843069585143168
2016-01-15,-1,-0.002655283841737531,-0.0023801503367658705,-0.005818338136058939,0.017150965958083696,0.9830316557073192
2016-01-20,-1,-0.0033577265166039646,-0.0030421426689913856,-0.002397876865689281,0.017150965958083696,0.983417521532416
2016-01-22,-1,-0.0017468131218669062,-0.0016713444533310497,-0.002397876865689281,0.01712016869261573,0.9841985417027075
2016-01-26,-1,-0.002303385460737545,-0.002136296082151839,-0.0030728294333999154,0.01712016869261573,0.9838168860721483
2016-01-28,-1,-0.0006923585660089484,-0.0006422359343678269,-0.002397876865689281,0.01398370644920644,0.9857700672774936
2016-02-01,1,0.0007814846408952544,0.0010762017606581833,-0.0030944353689169746,0.01398370644920644,0.9859033863306826
2016-02-03,1,0.0006940931801503223,0.0009553252007733099,-0.0030944353689169746,0.011788213675508457,0.9873209670439708
2016-02-05,1,0.002208596932273513,0.0026303409761919685,-0.0030944353689169746,0.010665441387451673,0.9898482665921715
2016-02-09,1,0.0028491487807659798,0.003397946123721726,-0.005827534745643948,0.010665441387451673,0.989036028770137
2016-02-11,1,0.0013590665490060057,0.001636648048988591,-0.004630004212876244,0.010665441387451673,0.9898179785720829
2016-02-16,1,0.002818558004494159,0.003273852418649568,-0.004630004212876244,0.006705053323648021,0.9916980892619067
2016-02-18,1,0.0031138540595631887,0.003613010590961248,-0.004630004212876244,0.007937565206254361,0.9906929899813769
2016-02-22,1,0.003725391866581976,0.004289426109784223,-0.004630004212876244,0.007374495971142542,0.9906266820544364
2016-02-24,1,0.0032734385801426197,0.0038088661285280035,-0.0034199832025505134,0.007374495971142542,0.9920510548449083
2016-02-26,1,0.003465585773367225,0.004024454371473165,-0.0042236162028606,0.00580091405323176,0.9916910500336413
2016-03-01,1,0.005053556010605563,0.0059028826255095295,-0.0033421098473696955,0.008808118397511774,0.992317197489846
2016-03-03,1,0.005377976991962325,0.006340333106974338,-0.0009934209709060728,0.008808118397511774,0.9928324909786614
2016-03-07,1,0.00523986525297139,0.006126283839033953,-0.0033421098473696955,0.008767458330783968,0.9921656327554501
2016-03-09,1,0.00414537536059854,0.004853589464224817,-0.0036364707421560546,0.008767458330783968,0.9929486096723347
2016-03-11,1,0.0029920688357790697,0.003423889646970734,-0.0010915412691681926,0.008767458330783968,0.9936190122390139
2016-03-15,1,0.0024065231506999844,0.0026958437595961055,-0.0036364707421560546,0.010391246294501085,0.992173678537372
2016-03-17,1,0.004384904218450562,0.005012673176637578,-0.0036364707421560546,0.007816999404104606,0.9935680430688906
2016-03-21,1,0.004104644241778546,0.00465904055647467,-0.00497362342672512,0.005281969737373043,0.9928195580009153
2016-03-23,1,0.004382982919811211,0.004980538816974234,-0.007401525279059092,0.004970925255671007,0.9918221280592162
2016-03-28,1,0.004376655858266566,0.004996872772152499,-0.007401525279059092,0.005999513358620565,0.9922591747721393
2016-03-30,1,0.005193502276288771,0.005928206387152606,-0.007401525279059092,0.005999513358620565,0.9910286839183229
2016-04-01,1,0.00506520608215406,0.005764838004431123,-0.008493703976198008,0.005999513358620565,0.990033095063612
2016-04-05,1,0.004757297963431647,0.005401374195730781,-0.007401525279059092,0.003573938926603199,0.9904453945587823
2016-04-07,1,0.004284166022190278,0.004885843110581257,-0.007401525279059092,0.005999513358620565,0.9904603525430767
2016-04-11,1,0.0031505526626888665,0.003453799376069797,-0.007636128857627839,0.003573938926603199,0.9903753864372898
2016-04-13,1,0.0028382703992924736,0.00305329357528608,-0.007401525279059092,0.003573938926603199,0.9914258217287473
2016-04-15,1,0.0033258557519515253,0.0036518595215723083,-0.007636128857627839,0.0020707261454617843,0.9899380257940628
2016-04-19,1,0.0024222328648304554,0.0026193519103302467,-0.0075803889728258,0.005783154865674972,0.9904539559220095
2016-04-21,1,0.001974893275552153,0.002112465843287746,-0.009030295057498134,0.005783154865674972,0.9902239392682046
2016-04-25,1,0.002157144883317793,0.0023340067941273815,-0.009030295057498134,0.004543245363008739,0.9903357374714422
2016-04-27,1,0.0033027034351922257,0.0036139430710806306,-0.009030295057498134,0.002564368646797968,0.9909015430117069
2016-04-29,1,0.0026375720061039133,0.002866887505992565,-0.007449296014702489,0.004144382547268538,0.9917575065989191
2016-05-03,1,0.0016671858851829832,0.0017008254025791345,-0.007449296014702489,0.005612293732336515,0.9919940535530091
2016-05-05,1,0.0013347751341619887,0.0013574371431088741,-0.007449296014702489,0.005612293732336515,0.9927729180100711
2016-05-09,1,0.0007886590786653267,0.0008870472235616426,-0.006280439108533632,0.005612293732336515,0.9932169139488566
2016-05-11,1,0.0009642590940067984,0.0010230154942701389,-0.0075172927129090565,0.005619322399780843,0.9926165832617985
2016-05-13,-1,-0.00038078363610681695,-0.0001296528466019969,-0.009588949435805067,0.005619322399780843,0.9915436126674126
2016-05-17,1,0.00028790082732502154,0.00038518169811102733,-0.0075172927129090565,0.005619322399780843,0.9920921831820461
2016-05-19,-1,-0.0001453055237247621,-2.4720116327699366e-05,-0.0023932624442030096,0.006947573413288266,0.992554349818745
2016-05-23,0,-1.759220967439013e-05,9.096423323184331e-05,-0.0023932624442030096,0.006947573413288266,0.992575134047873
2016-05-25,1,8.756746717686082e-05,0.00021360542639215868,-0.0023932624442030096,0.006947573413288266,0.9926603768456663
2016-05-27,-1,-0.0004518407394174768,-0.00023885294499974372,-0.006113528994816788,0.006947573413288266,0.9910709065197155
2016-06-01,-1,-0.0005253924776331601,-0.00027672008131144905,-0.006113528994816788,0.006947573413288266,0.9909532579054485
2016-06-03,-1,-0.001668211997671494,-0.001209639848832124,-0.001879683644417548,0.007955901705112824,0.9888895580896517
2016-06-07,-1,-0.0021701233325540402,-0.0016104742475242777,-0.011302982817875529,0.007955901705112824,0.9880045011433201
2016-06-09,-1,-0.0022483015655676156,-0.0017050452466317503,-0.006526932424846522,0.008697485201302228,0.9873631442257705
2016-06-13,-1,-0.004690440058526128,-0.003804891444410972,-0.001754750791029533,0.008697485201302228,0.9878123996852982
2016-06-15,-1,-0.003938830888872379,-0.003180333092702923,-0.001007245129721941,0.008139148113203234,0.9883816994587392
2016-06-17,-1,-0.004163252888015069,-0.0033485368294737575,-0.0049616711890069255,0.008139148113203234,0.9886381029951815
2016-06-21,-1,-0.003373263768118337,-0.0027071568727875446,-0.006526932424846522,0.008139148113203234,0.987263192368563
2016-06-23,-1,-0.0024476844564710926,-0.0019319490412701488,-0.008675232339194403,0.008139148113203234,0.9872661026852291
2016-06-27,-1,-0.004227781973121624,-0.003498072104421658,-0.0056777711604562185,0.008139148113203234,0.9881041364123808
2016-06-29,-1,-0.002711134916727936,-0.002247097985398073,-0.0056777711604562185,0.006189716418972758,0.9889455451082952
2016-07-01,-1,-0.0007995561725365612,-0.000568171927078806,-0.0067159895102547225,0.00453275091821128,0.9913533982753955
2016-07-06,-1,-0.0024280260633370984,-0.001965682676896648,-0.005182811118885078,0.00453275091821128,0.9919326463114293
2016-07-08,-1,-0.0003796025798164463,-0.00023646048180824691,-0.005182811118885078,0.00451210280436536,0.9927139538103048
2016-07-12,-1,-0.0002833008794100475,-0.0001638767951493385,-0.0053276383772380455,0.004228841896203941,0.9928730426810474
2016-07-14,1,0.0002792701576138866,0.0002981774042242407,-0.0053276383772380455,0.0042737601293839364,0.9908232109782341
2016-07-18,-1,-0.0006503742357922797,-0.0004862277237548665,-0.0037714505962313984,0.00482504023350522,0.9909894425021406
2016-07-20,-1,-0.0023142419891803096,-0.001970635394971138,-0.002094527396049174,0.00482504023350522,0.9929466289770321
2016-07-22,-1,-0.0016464075387495878,-0.0014251917799472523,-0.0015667257975243633,0.0042737601293839364,0.9939088281249412
2016-07-26,-1,-0.0015595821268226046,-0.001333634242806776,-0.002010487056425532,0.003947185143953438,0.9943364968256714
2016-07-28,-1,-0.0011798409410816559,-0.0010184478567359313,-0.002010487056425532,0.0023992673496772525,0.9945538841301824
2016-08-01,-1,-0.0019496343582371444,-0.0016597190822171285,-0.0007628828934752765,0.005358016987104353,0.9936027124426453
2016-08-03,-1,-0.002249411028693303,-0.001911483159831482,-0.0011400956636633721,0.005358016987104353,0.9932408003157339
2016-08-05,-1,-0.001605797207515598,-0.0013479044860446984,-0.0015667257975243633,0.0031680275758893097,0.99383249810515
2016-08-09,-1,-0.0009866500792137143,-0.0008668346646421713,-0.001213668032578837,0.0031680275758893097,0.9935867401313219
2016-08-11,1,0.0005177540184974147,0.0005881110406713495,-0.002010487056425532,0.0031680275758893097,0.9940694305505503
2016-08-15,1,0.0008494224262841099,0.0009765595034176368,-0.004220770422984973,0.0031680275758893097,0.9936653986025423
2016-08-17,1,0.0007618944258249495,0.0008696135635937071,-0.004220770422984973,0.00762828760005924,0.9925754244452102
2016-08-19,1,0.0011884598552927852,0.0013947319990970266,-0.009052340351513855,0.008051928025401141,0.9900168592928223
2016-08-23,1,0.0011870597754462808,0.0014006980073927996,-0.010252191198038507,0.008181077908397342,0.9889757505164316
2016-08-25,1,0.0011609563803867805,0.0013658448223358068,-0.013067348351098122,0.008486994290453711,0.9877355653509355
2016-08-29,1,0.0014196698957167672,0.0016292996013256963,-0.013067348351098122,0.008181077908397342,0.9880340232284393
2016-08-31,1,0.0010500061947111598,0.0012306645420159465,-0.010252191198038507,0.008181077908397342,0.9886178307202299
2016-09-02,1,0.0011015080168361921,0.00130109485739829,-0.010252191198038507,0.008486994290453711,0.9882001205662808
2016-09-07,1,0.0008557604121482561,0.0010339373457465269,-0.011665390633741057,0.008831127037164394,0.9872945839166248
2016-09-09,-1,-0.00019102659047228555,-0.00019031653622727872,-0.011291006546672663,0.009822880800979534,0.987332998619628
2016-09-13,-1,-0.00044570937991678577,-0.00039962551765875036,-0.016508334435025765,0.009822880800979534,0.9864661260711025
2016-09-15,1,0.0005316298094974268,0.000619884743520207,-0.01767938903099549,0.008717600585717081,0.9866197335708893
2016-09-19,1,0.0002706994531646618,0.00040445553704653134,-0.016508334435025765,0.007377352406686639,0.9890559892813056
2016-09-21,-1,-0.00026256415745554596,-0.00022779148275213934,-0.016508334435025765,0.006914981922616827,0.9880205756292664
2016-09-23,-1,-0.0006178843446789707,-0.0005964630662991502,-0.010239119406368435,0.006590139166731138,0.9887652345735969
2016-09-27,-1,-0.00036331281406425076,-0.0003561652157702228,-0.010295969316341677,0.005854297104117618,0.9885185110525583
2016-09-29,-1,-0.00010797044890968095,-7.854884638801067e-05,-0.010295969316341677,0.006590139166731138,0.9877221013757443
2016-10-03,1,0.000842432283485682,0.0010029898767089363,-0.010295969316341677,0.005511207401390942,0.9885232307267166
2016-10-05,1,0.0003294473963581621,0.00038172554269099357,-0.01023855038715957,0.0029832990448454885,0.9888872862245907
2016-10-07,1,0.00018972938158475763,0.00021891155006825979,-0.008293125729163204,0.0031428650980981077,0.9899555361571125
2016-10-11,-1,-0.0014884729426107698,-0.0012859176575047042,-0.00668255639715161,0.006093709460885367,0.9901017898814644
2016-10-13,-1,-0.0019376636623761024,-0.0016928405516970237,-0.0057293743691678965,0.00819693514803051,0.987600062099377
2016-10-17,-1,-0.0013783029315776955,-0.0012280429716546178,-0.00668255639715161,0.00819693514803051,0.9873275448005561
2016-10-19,-1,-0.003097778169733941,-0.0027460430651819762,-0.0057293743691678965,0.00819693514803051,0.988574011783918
2016-10-21,-1,-0.0030058660449973768,-0.0026878690157900132,-0.006701506367142691,0.00819693514803051,0.9878401773573265
2016-10-25,-1,-0.0030212205590621176,-0.002702094738526603,-0.0057293743691678965,0.015028479657265177,0.9865483427262991
2016-10-27,-1,-0.002145596390291231,-0.0019403405887980026,-0.003749219231480294,0.010178531510099568,0.9877264097839702
2016-10-31,-1,-0.0018683635897300379,-0.0016856106774229308,-0.007027982308662881,0.012532868340780637,0.9873192862915895
2016-11-02,-1,-0.0036955159828674297,-0.003220228848722353,-0.0022033555045903263,0.019186797793832457,0.9847937320713431
2016-11-04,-1,-0.0030295548079433848,-0.002654898869074229,-0.005444385647021131,0.019186797793832457,0.9855658984676883
2016-11-08,-1,-0.0015847285201034023,-0.0013953060520713713,-0.005444385647021131,0.014485380148880258,0.9869497267655175
2016-11-10,1,0.0013077696054467087,0.0014888117917899154,-0.005444385647021131,0.0090645046089727,0.990555645715131
2016-11-14,1,0.0009555625572377701,0.0011196606882075692,-0.005444385647021131,0.0090645046089727,0.9907077332741162
2016-11-16,1,0.0002813175930382938,0.0003018937038431793,-0.006952174114032122,0.0090645046089727,0.9900047406043371
2016-11-18,-1,-0.0007448890552395578,-0.000630070579330395,-0.0030655318177989933,0.010437978454821894,0.9908640352575239
2016-11-22,1,0.0015826250359061726,0.0018691034880031307,-0.0032569224664203197,0.008067724326467502,0.992517190023403
2016-11-25,1,0.001148423629237979,0.0013154244476417708,-0.004868649518477978,0.008067724326467502,0.9923808653945766
2016-11-29,1,0.0019008904575833789,0.0022391463397567687,-0.004868649518477978,0.005212106301525463,0.9925012299261404
2016-12-01,1,0.003818069179704814,0.004409120671726642,-0.005312563502200751,0.003530275953958482,0.9935141448695582
2016-12-05,1,0.003448091183026652,0.004000233924187065,-0.003132405242455857,0.005212106301525463,0.9942250857503676
2016-12-07,1,0.003413158179808715,0.003930656068643562,-0.004939011830307364,0.005061676559078461,0.9928782222237952
2016-12-09,1,0.0027226679256662084,0.003025272207294124,-0.005106594779458091,0.003333939692301801,0.9928927465335653
2016-12-13,1,0.0023297869641296775,0.002585097638809968,-0.004799993277563757,0.005073544289123145,0.992678567786945
2016-12-15,1,0.001879963748368138,0.0020892052552668704,-0.00364016160892462,0.008103327516601554,0.9929695100093735
2016-12-19,1,0.002256056857970171,0.002519164224403802,-0.00364016160892462,0.008103327516601554,0.9924772648586948
2016-12-21,1,0.002174322223096149,0.0024010312963175765,-0.00364016160892462,0.008369010992838075,0.9924264254916111
2016-12-23,1,0.0017932218732763172,0.001955765787155106,-0.002765539659554919,0.010419697072168308,0.9916555718524843
2016-12-28,1,0.0015258153610559013,0.0016879684468415882,-0.0019982593877028547,0.012886218433525418,0.9920870980233898
2016-12-30,1,0.0010450887435885033,0.0011257350840070406,-0.002765539659554919,0.012886218433525418,0.9916100332233037
2017-01-04,1,0.002573853358424855,0.002957026077931652,-0.0036960225919748626,0.012886218433525418,0.9918762540008809
2017-01-06,1,0.0019021957279772472,0.0022118837547415414,-0.0020475902697332194,0.012886218433525418,0.9926675848424397
2017-01-10,1,0.0017571734315887067,0.0020462968031361474,-0.0018152353378556294,0.012886218433525418,0.9927965058963306
2017-01-12,1,0.0026774637539605664,0.003092050434423917,-0.0020475902697332194,0.01025506768082382,0.9933488169290181
2017-01-17,1,0.003315295484803562,0.003806625411980219,-0.002653214319743987,0.00846163192893026,0.9934337599005805
2017-01-19,1,0.003806829406261313,0.004361426063680334,-0.002653214319743987,0.0075502491674894505,0.9938683282167526
2017-01-23,1,0.004333806888636677,0.004993562724136261,-0.002445503853440988,0.0075502491674894505,0.9937672236558057
2017-01-25,1,0.005025623469414527,0.005732595658772745,-0.0035161384659036544,0.0049056675616456,0.9923338339180463
2017-01-27,1,0.005508835308499034,0.006270691667093577,-0.0035161384659036544,0.004147347340522851,0.9922034038342298
2017-01-31,1,0.004565448370251529,0.005170298119074425,-0.002824089082307327,0.0049056675616456,0.9926878975233228
2017-02-02,1,0.003895207403929864,0.004350290042094845,-0.002824089082307327,0.00650074527044172,0.9924287976318864
2017-02-06,1,0.0038429036576040736,0.0042821113159741495,-0.0035161384659036544,0.00650074527044172,0.9920830617466353
2017-02-08,1,0.004421050161303884,0.004993390937225284,-0.005890240230739553,0.00650074527044172,0.9904092664812671
2017-02-10,1,0.003718480596860636,0.004112244997226831,-0.003825063630355158,0.005250082328291578,0.9912474083002013
2017-02-14,1,0.0030697872483790335,0.0033477334244335667,-0.006959734879255453,0.00650074527044172,0.9910287510639336
2017-02-16,1,0.0028669637589658634,0.0030904697832263004,-0.00792533627587835,0.005312446690246797,0.9904865282493786
2017-02-21,1,0.0033177143819400376,0.0036091933156723374,-0.008458315907704161,0.004717304926135579,0.9898214568046076
2017-02-23,1,0.0020781076749254368,0.002223239160397414,-0.008019213050618677,0.004717304926135579,0.9919159019206422
2017-02-27,1,0.0026316987269016895,0.0029086915448784333,-0.008328317619889648,0.004717304926135579,0.9909989257930555
2017-03-01,1,0.002659713250152555,0.002921929853567689,-0.008019213050618677,0.004717304926135579,0.9916265918318292
2017-03-03,1,0.0021183657243376763,0.0022963585235821395,-0.008019213050618677,0.0031367016673709276,0.9916150258310767
2017-03-07,1,0.0013053887914565106,0.0013279497405927702,-0.008019213050618677,0.00046880957512863015,0.9921682608213941
2017-03-09,-1,-0.0004927396034723385,-0.0002230941877658367,-0.008019213050618677,0.002976122996532102,0.9937539513171582
2017-03-13,0,-0.000147680484336778,7.932830226882112e-05,-0.008019213050618677,-7.841375505721613e-05,0.9939338914193073
2017-03-15,-1,-0.001420938076885316,-0.0009410801099820896,-0.008145273123695996,-7.841375505721613e-05,0.994208096449433
2017-03-17,-1,-0.002452142490681912,-0.001838565166947831,-0.008145273123695996,0.0004687930551914955,0.9943120053294705
2017-03-21,-1,-0.002538674646685077,-0.0019958135401039307,-0.009232978873634898,0.0004687930551914955,0.9896197336450715
2017-03-23,-1,-0.002235641959538042,-0.0017560195101834816,-0.009232978873634898,0.0004687930551914955,0.9894793866289606
2017-03-27,-1,-0.00268241414822461,-0.002156790567448845,-0.010218300436762542,0.0012057442327672097,0.9888799585335615
2017-03-29,-1,-0.003175643906772686,-0.0025562876469305113,-0.010218300436762542,0.0012057442327672097,0.9891853628060837
2017-03-31,-1,-0.0038145674459989097,-0.0031299036588969186,-0.010218300436762542,0.0012057442327672097,0.9892383405563252
2017-04-04,-1,-0.0036874719236499503,-0.0030566207047008223,-0.010218300436762542,0.004069339395527577,0.9884311889099027
2017-04-06,-1,-0.002282596968951541,-0.001933420407003609,-0.01259086127658611,0.004800942136853754,0.9873787004359184
2017-04-10,-1,-0.0026345675740064344,-0.0022206012627431857,-0.01259086127658611,0.004800942136853754,0.9873308630365153
2017-04-12,-1,-0.003273389666833648,-0.0027923649740956152,-0.010218300436762542,0.004800942136853754,0.9883489065333162
2017-04-17,-1,-0.003902909387705651,-0.0033047974095022125,-0.016431062103462804,0.003389218797960341,0.9878586838982858
2017-04-19,-1,-0.006492145470819149,-0.005640151737016343,-0.016431062103462804,0.003389218797960341,0.9913404180834493
2017-04-21,-1,-0.006657779512125027,-0.005789952763615191,-0.016431062103462804,0.00484509495794491,0.9910400239067592
2017-04-25,-1,-0.006733860876860217,-0.005865066097648603,-0.013516914829514996,0.00484509495794491,0.9907896158036761
2017-04-27,-1,-0.005566230964528131,-0.004911539116006748,-0.013516914829514996,0.004633326109619762,0.9908060696709011
2017-05-01,-1,-0.006139549032889718,-0.005407313801623709,-0.013382460308433394,0.004633326109619762,0.9908712716128681
2017-05-03,-1,-0.0053937357265258935,-0.004764495913639857,-0.013382460308433394,0.00232864590558043,0.9910692438657833
2017-05-05,-1,-0.005480081044531875,-0.0048614789607474744,-0.010209346537233176,0.00232864590558043,0.9920058360054463
2017-05-09,-1,-0.0056603348429632785,-0.0050149026151011305,-0.013382460308433394,0.00232864590558043,0.9912166535691617
2017-05-11,-1,-0.005720803431489797,-0.0050552922028265935,-0.013382460308433394,0.006491561928813108,0.9892391325068709
2017-05-15,-1,-0.006569384399140088,-0.005826394218639366,-0.009312040726363328,0.006801178770722078,0.988957339891896
2017-05-17,-1,-0.0073609044123319495,-0.0065417501781645186,-0.008160236048148582,0.006801178770722078,0.9895975755332062
2017-05-19,-1,-0.007221037886281062,-0.006419366149803847,-0.006483432293245025,0.006801178770722078,0.9890229006739246
2017-05-23,-1,-0.006945242519245003,-0.006164359301526323,-0.006483432293245025,0.006491561928813108,0.9895264544705284
2017-05-25,-1,-0.006873351403115894,-0.0060976600434314646,-0.006483432293245025,0.006801178770722078,0.9887243551125703
2017-05-30,-1,-0.007141949910671482,-0.006369742772023119,-0.005696314767654503,0.007425512196079381,0.9879616736322671
2017-06-01,-1,-0.006970614160420544,-0.006195734468770977,-0.005696314767654503,0.010878979287719834,0.9874021118464325
2017-06-05,-1,-0.006696903046847425,-0.005956859171591862,-0.005696314767654503,0.013013434935474997,0.9860177625657282
2017-06-07,-1,-0.006855086838556377,-0.006142152056886854,-0.005696314767654503,0.013013434935474997,0.9863901194127839
2017-06-09,-1,-0.004881719149492838,-0.00443627861191857,-0.006997905173894914,0.010878979287719834,0.9891714156502929
2017-06-13,-1,-0.004007753944393764,-0.003695169876770101,-0.009053608578779706,0.009264143146758743,0.9881267829398602
2017-06-15,-1,-0.004039390518003189,-0.0037529634829469335,-0.009053608578779706,0.010832892974526725,0.9870796941799505
2017-06-19,-1,-0.0025874419656636847,-0.0025259358970986493,-0.009053608578779706,0.010832892974526725,0.9870560615068511
2017-06-21,-1,-0.0035614170731347646,-0.003463613333800312,-0.009053608578779706,0.01116372978171333,0.9837661690220392
2017-06-23,-1,-0.002835329671968354,-0.0028053732385571314,-0.009053608578779706,0.01116372978171333,0.9841915551694744
2017-06-27,-1,-0.0027648316089905474,-0.002753069135557995,-0.009053608578779706,0.01141695839663027,0.9838723798953217
2017-06-29,-1,-0.0015547977365294077,-0.00138121771943391,-0.011045969369039755,0.011278699457050942,0.9842657486647115
2017-07-03,1,3.1938352584246973e-05,0.0004361523273311849,-0.011045969369039755,0.011278699457050942,0.9847397549989997
2017-07-06,0,-0.000361039013939523,7.526439321576617e-06,-0.009053608578779706,0.011278699457050942,0.9855201695456982
2017-07-10,-1,-0.0006996067906477315,-0.0003729407866682093,-0.00983013967211659,0.011278699457050942,0.985132195058293
2017-07-12,-1,-0.0020701074137193694,-0.0018997241442631626,-0.007953454252270467,0.011278699457050942,0.9858627907991317
2017-07-14,-1,-0.0007872209508068869,-0.00040897479135205885,-0.013914877489873093,0.009821245453491226,0.9864709502006275
2017-07-18,-1,-0.00046563405392183394,-0.0001067173443719913,-0.013914877489873093,0.009821245453491226,0.9857898898039601
2017-07-20,-1,-0.0016077761182850098,-0.0013799363415407636,-0.011922264813167533,0.009147719559054532,0.9900350136932382
2017-07-24,-1,-0.0009157865122728354,-0.0005658879306188352,-0.015831471850028044,0.008106747959764665,0.9892631470472536
2017-07-26,-1,-0.0008277735324958829,-0.0004711722584583324,-0.015831471850028044,0.008106747959764665,0.9880273743675966
2017-07-28,-1,-0.0005724094639718927,-0.0001620976683098733,-0.016889573371615514,0.009147719559054532,0.9876668630145804
2017-08-01,1,0.00022937013317224147,0.000705058415834054,-0.017411058836130595,0.005350522041326537,0.9875523499987231
2017-08-03,1,0.0006955620954868357,0.0012690416467644504,-0.017411058836130595,0.00918607676967662,0.986186061392651
2017-08-07,1,0.0007177729301888159,0.0013169949340503596,-0.016924602810550214,0.00918607676967662,0.986206797725276
2017-08-09,1,0.0005795199271205786,0.001142945891092003,-0.01602865329748954,0.010860911806437473,0.986282483633795
2017-08-11,1,0.00020276207434301438,0.0007001240154831498,-0.015506056640124943,0.014970355721507464,0.9863065438944807
2017-08-15,1,0.0008517546706187087,0.0014527149361777793,-0.015506056640124943,0.013687747260565705,0.9867520551640706
2017-08-17,1,0.0008605516004326309,0.0014496716800148754,-0.015506056640124943,0.013687747260565705,0.9866738781747253
2017-08-21,0,-6.70853440583926e-06,0.0004851037316233389,-0.0038015394060915086,0.013687747260565705,0.9876927993504901
2017-08-23,1,0.0006423314039959035,0.0011947418892542863,-0.0022861932315080677,0.013687747260565705,0.9892231211851156
2017-08-25,1,0.00048297414555461085,0.0010110109628187478,-0.002076382668332423,0.013687747260565705,0.9897509454028752
2017-08-29,1,0.00022040652229878368,0.0007203233390510216,-0.0010408156184015776,0.013687747260565705,0.9903632399529722
2017-08-31,1,0.0016686846092105467,0.002369569152929028,-0.002076382668332423,0.012314640717089277,0.9920809096578612
2017-09-05,1,0.001308970020780336,0.0019305235475308952,-0.0018764883775994976,0.012595200109157892,0.9924239420312543
2017-09-07,1,0.0018412252139179644,0.002548027355595632,-0.0018764883775994976,0.012314640717089277,0.9930140985752749
2017-09-11,1,0.0005041530906470441,0.0008581253071202814,-0.002076382668332423,0.012265393756650308,0.9920373402835483
2017-09-13,1,0.001707437972122188,0.0022315030600911297,-0.0052360856066062614,0.008660087713486572,0.9916217938622607
2017-09-15,1,0.0017708577223245158,0.0022857681650491025,-0.0052360856066062614,0.012314640717089277,0.9897348119025244
2017-09-19,1,0.002332235269315699,0.002924873655321691,-0.0052360856066062614,0.012692983832986577,0.9854820311068866
2017-09-21,1,0.003209130331294631,0.003867490200925388,-0.00803154955825125,0.012692983832986577,0.984928381284594
2017-09-25,1,0.004361881317471279,0.005210887951753771,-0.00803154955825125,0.01416623941656404,0.984762811143889
2017-09-27,1,0.004652771065457117,0.005508895198315788,-0.009071134836150787,0.01416623941656404,0.9820295805560083
2017-09-29,1,0.004242940798912048,0.0050258579017604145,-0.009071134836150787,0.015706454378821975,0.9814524157631317
2017-10-03,1,0.004886634074695408,0.005754550962644056,-0.009347285470970195,0.015706454378821975,0.9811061124602993
