JNU-Tangyin/eata/results/Batch4_SP500/Batch4_SP500-LDOS.csv
Date,Action,Predicted_Q25,Predicted_Q75,Actual_Q25,Actual_Q75,RL_Reward
2010-12-14,0,0.0,0.0,-0.0014231246892334995,0.004910379225039552,0.9952662124541659
2010-12-16,0,0.0,0.0,-0.0014231246892334995,0.007695661611646635,0.9943175686014847
2010-12-20,0,0.0,0.0,-0.0022050745617213916,0.006434255577928486,0.994821040825216
2010-12-22,1,0.07352566667514025,0.0779381059114744,-0.0017258602301980584,0.006434255577928486,0.9315250264098355
2010-12-27,1,0.0016586415216481036,0.002043369716013041,-0.0007783202961537672,0.006434255577928486,0.9954602207187938
2010-12-29,1,0.0017498595787579208,0.0021418543861029963,-0.0025758200837113737,0.007189913197067129,0.9950971842330285
2010-12-31,1,0.0016388140273386528,0.001993005373661284,-0.0025758200837113737,0.009970412805822481,0.9943427583197465
2011-01-04,1,0.0007518319431667808,0.0008347452718734515,-0.0025758200837113737,0.007189913197067129,0.9945814538999229
2011-01-06,1,0.0007248909532792324,0.0007990362336630257,-0.0025758200837113737,0.0065545299834649465,0.9946004599166116
2011-01-10,1,0.0005766637892749389,0.0006251472276432201,-0.00014487477688590914,0.009207050921908487,0.994231978894562
2011-01-12,1,0.000596124889725352,0.0006370387385256442,-0.00014487477688590914,0.006302668801080253,0.9945981922211058
2011-01-14,1,0.0006300485243282641,0.0006375867757327646,-0.003181042047607228,0.003799997845467503,0.9943951788414825
2011-01-19,1,0.0008836251645033203,0.0009104414181290239,-0.0025573675020620426,0.003799997845467503,0.994695963885914
2011-01-21,1,0.0007822442271985007,0.0007878209227153461,-0.0025573675020620426,0.0037899958474586926,0.9946637703721737
2011-01-25,1,0.0010028014880786727,0.0010601879455023893,-0.0043315218805042265,0.0037899958474586926,0.9929803733328036
2011-01-27,1,0.0012677369983458682,0.0013747907055828127,-0.004918752787189232,0.003197849697949531,0.9933408038699696
2011-01-31,1,0.0009035121219296143,0.0009441791202690653,-0.0038014992519373476,0.0037899958474586926,0.9929847376567416
2011-02-02,1,0.000833104220799526,0.0008541887007550745,-0.003834468751942883,0.004088513717914831,0.9927439482763626
2011-02-04,1,0.0010235475015336756,0.0010984591245753461,-0.003834468751942883,0.0036352572276961374,0.9927387902428259
2011-02-08,1,0.0008936616146737486,0.0009907932749745004,-0.003834468751942883,0.0036352572276961374,0.9921335771387465
2011-02-10,1,0.0012039278635882647,0.001327036409224306,-0.003834468751942883,0.0037881104970019725,0.9916422111801215
2011-02-14,1,0.0008402093565256794,0.0009224591844724762,-0.004791249610917258,0.0037881104970019725,0.9922937219932575
2011-02-16,0,0.0,0.0,-0.006158740949395218,0.004692651459878331,0.9912288080808114
2011-02-18,0,0.0,0.0,-0.006158740949395218,0.0067267290644211115,0.9905798695937645
2011-02-23,1,0.0003813762927685216,0.0003935835654132121,-0.003834468751942883,0.0067267290644211115,0.9920205456044037
2011-02-25,1,4.42932357340339e-05,0.00013592489438913225,-0.004236988204237787,0.0067267290644211115,0.9910397348859995
2011-03-01,1,0.0011184157030794178,0.0011841612950843478,-0.004236988204237787,0.006585095434323157,0.9920417828145447
2011-03-03,0,0.0,0.0,-0.006158740949395218,0.005493458270331434,0.991742429055582
2011-03-07,1,0.0007726685986319925,0.0008720975515837943,-0.006158740949395218,0.007895580191507198,0.9912573929896054
2011-03-09,1,0.001079806813472056,0.0012081304086661714,-0.006158740949395218,0.006036999169684257,0.9921813047076092
2011-03-11,1,0.0009209669554658714,0.0010406200374304202,-0.006158740949395218,0.006036999169684257,0.9925209753791754
2011-03-15,1,0.00037650049677120326,0.0003968931663764697,-0.0038877985021586793,0.00751961063881801,0.9921136832434093
2011-03-17,1,0.00046804385669418897,0.0004987227079979342,-0.0052495747097268545,0.006036999169684257,0.9921719126247602
2011-03-21,1,0.0007448745608563541,0.0008016438151823617,-0.0052495747097268545,0.005493458270331434,0.9927764779363651
2011-03-23,1,0.0007713079679768454,0.0008217989607356068,-0.0052495747097268545,0.005599343254475895,0.9924020722180059
2011-03-25,1,0.00048552260872783876,0.0005114756311587353,-0.0033440580326673844,0.005599343254475895,0.9934828884718732
2011-03-29,1,0.0009426400219208965,0.0010408297720611826,-0.0033440580326673844,0.006631662564306249,0.9934619311747546
2011-03-31,1,0.0010126236659560354,0.0011365292489875036,-0.0033440580326673844,0.006631662564306249,0.9935978900980778
2011-04-04,1,0.0011997974168791406,0.001316221239014243,-0.0033440580326673844,0.0051347263947505595,0.9943657078329479
2011-04-06,1,0.0011141449190489512,0.0011971742798577586,-0.0052495747097268545,0.0037682179771909388,0.9941414455753395
2011-04-08,1,0.0007890608803949395,0.0008233291665610988,-0.003342872688152845,0.0054117348369391695,0.9941218034275745
2011-04-12,1,0.0005550781863841204,0.0005759670124525863,-0.003342872688152845,0.0037682179771909388,0.9944285998357475
2011-04-14,1,0.00015886990125929214,0.0002078754077461401,-0.0020264808454995877,0.0054117348369391695,0.9947335194873766
2011-04-18,1,7.630642690656454e-05,0.00014678860211272664,-0.003315849825355385,0.0044518689951685755,0.994769391317348
2011-04-20,1,0.0004637710094006988,0.00048609857707911417,-0.003315849825355385,0.0044518689951685755,0.9948085017406292
2011-04-25,1,0.00016040758477618301,0.00023524773171781699,-0.0048768804121341785,0.0044518689951685755,0.9943643094470656
2011-04-27,1,0.0011475869812849566,0.001254771173722308,-0.006006883796825215,0.003007344222955609,0.994085652195176
2011-04-29,1,0.0006975272332217796,0.0007204823980363148,-0.005316807404136147,0.0041803863178922415,0.9941138499403702
2011-05-03,0,0.0,0.0,-0.006006883796825215,0.006680932583153471,0.9927971631087495
2011-05-05,0,0.0,0.0,-0.00686302974232387,0.006680932583153471,0.9917342457656422
2011-05-09,1,2.6250975642583773e-05,0.00011890283743034213,-0.009342236222775937,0.00373946784424711,0.9915579052220145
2011-05-11,-1,-0.00011339356127418429,-3.568409790975259e-07,-0.008072398616125307,0.006455303001710117,0.9917488930491427
2011-05-13,0,0.0,0.0,-0.00950900191514655,0.00373946784424711,0.991333643705311
2011-05-17,0,0.0,0.0,-0.00950900191514655,0.006455303001710117,0.9910411214281046
2011-05-19,0,0.0,0.0,-0.00950900191514655,0.006455303001710117,0.9906353559983966
2011-05-23,1,0.0004924236864582348,0.0005734579573198719,-0.008072398616125307,0.006723112538382793,0.9907954011167224
2011-05-25,0,0.0,0.0,-0.005827375128994502,0.006455303001710117,0.991541616973818
2011-05-27,0,0.0,0.0,-0.005179893265362051,0.006723112538382793,0.9914276624359443
2011-06-01,0,0.0,0.0,-0.0043130207397401865,0.005712217109754997,0.9925964763268225
2011-06-03,0,0.0,0.0,-0.004236445965434385,0.006723112538382793,0.9933831542904293
2011-06-07,0,0.0,0.0,-0.003302539730914739,0.00723337317364184,0.9910417434147478
2011-06-09,-1,-0.001092601052037085,-0.0009211288092412541,-0.004181687771820264,0.008772871823851402,0.9902785916577536
2011-06-13,-1,-0.002056224287423382,-0.001766096558636038,-0.003292499670171236,0.008772871823851402,0.9905387120002204
2011-06-15,-1,-0.001844653730203327,-0.0015878571435541207,-0.002972712125145157,0.008772871823851402,0.9909488596480815
2011-06-17,-1,-0.0010253194811808083,-0.0008688045738443897,-0.003292499670171236,0.0061581335913289325,0.9917529020400825
2011-06-21,0,0.0,0.0,-0.003292499670171236,0.0064563990273443575,0.9914295386816145
2011-06-23,0,0.0,0.0,-0.004181687771820264,0.009926127304470627,0.9906313378417724
2011-06-27,0,0.0,0.0,-0.0037587227480297904,0.006714858199917309,0.991105201722721
2011-06-29,0,0.0,0.0,-0.006401763444568368,0.005862930887433053,0.9904987011233659
2011-07-01,0,0.0,0.0,-0.009462333130929357,0.001971582238041973,0.9894892795785708
2011-07-06,0,0.0,0.0,-0.009462333130929357,0.001971582238041973,0.9912844908452516
2011-07-08,0,0.0,0.0,-0.011493107265465752,0.001971582238041973,0.9903322747817329
2011-07-12,-1,-0.0017658033592649666,-0.0015673773750935881,-0.01229258658193607,0.004702700364649018,0.9876561608123452
2011-07-14,-1,-0.0015030324595861344,-0.0012057290621603715,-0.01724389971079511,0.0065088056998296225,0.984406774681402
2011-07-18,-1,-0.004251166787774209,-0.0036494521090708735,-0.01724389971079511,0.008610796202764923,0.9842412405601304
2011-07-20,-1,-0.003500369119114277,-0.0029755400637686133,-0.01724389971079511,0.0065088056998296225,0.9850193276700288
2011-07-22,-1,-0.0008703744557997994,-0.000731006477873957,-0.021775571532032433,0.0020392797077660864,0.9828494655818569
2011-07-26,-1,-0.0009468310520980327,-0.0008071587301451759,-0.021775571532032433,0.008095979954659738,0.9808156716779968
2011-07-28,-1,-0.002041420965353076,-0.0016797060591216895,-0.021775571532032433,0.009934657452248906,0.9808528396155388
2011-08-01,-1,-0.003028365982737417,-0.0025986135150166435,-0.012613097730711845,0.013824339969928628,0.9803505665837974
2011-08-03,0,0.0,0.0,-0.007228296859849657,0.013824339969928628,0.9814335277836795
2011-08-05,-1,-0.0034285052609972226,-0.0029996106419525955,-0.007228296859849657,0.013824339969928628,0.9780217873400542
2011-08-09,-1,-0.00464301518379355,-0.004080086383083103,-0.00621227340480229,0.013824339969928628,0.9800329158161136
2011-08-11,0,0.0,0.0,-0.007228296859849657,0.011914492625013273,0.9829615023941107
2011-08-15,0,0.0,0.0,-0.007228296859849657,0.009483441057751705,0.983028696706086
2011-08-17,0,0.0,0.0,-0.007228296859849657,0.00986423722338624,0.9826511885829009
2011-08-19,0,0.0,0.0,-0.005086959297236668,0.00986423722338624,0.9850169002336353
2011-08-23,0,0.0,0.0,-0.006411758160958722,0.008238325768723432,0.9855665681271069
2011-08-25,0,0.0,0.0,-0.008788089242474125,0.007725610306243717,0.9842472846847868
2011-08-29,0,0.0,0.0,-0.008788089242474125,0.006890571071210588,0.9850544185620859
2011-08-31,1,0.000266131961644602,0.00032502740252099253,-0.015779591136854742,0.006890571071210588,0.983464641965932
2011-09-02,-1,-0.002703441674897242,-0.0024191918973332617,-0.021496924743239106,0.006890571071210588,0.9847374031261308
2011-09-07,-1,-0.00271555581065491,-0.002407766075873067,-0.021496924743239106,0.008238325768723432,0.9832660872130843
2011-09-09,-1,-0.003762124214882025,-0.0033407203761725603,-0.01328224883548974,0.009693261509382552,0.9829256545008976
2011-09-13,-1,-0.003317766421113382,-0.0029878989605406805,-0.01328224883548974,0.013105447652461157,0.981895082473951
2011-09-15,-1,-0.0027026829027433094,-0.0024498359179637007,-0.01328224883548974,0.021096534497359997,0.9813771350921039
2011-09-19,-1,-0.002477641725058988,-0.0022838057615176695,-0.026433412462095192,0.021096534497359997,0.980051747286775
2011-09-21,-1,-0.0034813791336280263,-0.0031674729312464183,-0.020145519882116183,0.022996591209611998,0.9795304261134226
2011-09-23,-1,-0.004236020271808818,-0.0038460471698650656,-0.011304137119923825,0.022996591209611998,0.9804204771288761
2011-09-27,-1,-0.0035771274204689416,-0.0032565419393718923,-0.018512192679705206,0.022996591209611998,0.980382192343976
2011-09-29,-1,-0.0032360898465663554,-0.0029759397131109916,-0.011304137119923825,0.022996591209611998,0.9813238479908513
2011-10-03,-1,-0.005964522840336849,-0.00537941376433519,-0.008734839676166733,0.022996591209611998,0.9819803075696714
2011-10-05,-1,-0.003937338740920795,-0.0036133067929378145,-0.011304137119923825,0.013982152312456753,0.9845762272164842
2011-10-07,-1,-0.0031756854450417163,-0.002946156554898543,-0.01102259669170888,0.013982152312456753,0.9836016350886873
2011-10-11,-1,-0.0016091149971206482,-0.001591848387756423,-0.01102259669170888,0.013867683662860305,0.9839636429651837
2011-10-13,-1,-0.0011417992357444261,-0.0010956220364356955,-0.018512192679705206,0.009428221296351359,0.9829424396607247
2011-10-17,-1,-0.0015237432527411244,-0.001520423204452862,-0.018512192679705206,0.013450369010565639,0.9822276355846137
2011-10-19,-1,-0.0022675263125716792,-0.002246443514652606,-0.016915522085340567,0.013450369010565639,0.9822206283941937
2011-10-21,-1,-0.0016685066620943342,-0.0015739562782432187,-0.019688073971988133,0.011583525210198911,0.9821964050704012
2011-10-25,-1,-0.001023745245267891,-0.0009677865574797398,-0.02078945334082265,0.009779416905357307,0.9820860069767385
2011-10-27,-1,-0.0010140640299714863,-0.0009812475094332592,-0.022632046108734406,0.008032614491409837,0.9816566183277491
2011-10-31,-1,-0.0015342871557009865,-0.0015088650991296904,-0.020726854819746357,0.013190111737599462,0.9821188882561285
2011-11-02,-1,-0.0022800970585306595,-0.002147229698005274,-0.01796933824992066,0.01506831215074919,0.9797019640179166
2011-11-04,-1,-0.00039245275919819336,-0.00028491130203379283,-0.01796933824992066,0.013190111737599462,0.9816908708579499
2011-11-08,1,0.00047029869256427466,0.0007225126759422334,-0.01796933824992066,0.013190111737599462,0.9793318985119457
2011-11-10,0,-4.032076123246253e-05,0.000157300649522128,-0.01796933824992066,0.013190111737599462,0.979726632512485
2011-11-14,1,0.0003112351389721144,0.0005562656554400895,-0.016791255629243565,0.010071107740302038,0.9806626155861433
2011-11-16,1,0.0009268189874753704,0.0012773756581371102,-0.016791255629243565,0.008485584648752624,0.9821788043994334
2011-11-18,1,0.0003613572790861975,0.0006617220648885714,-0.016791255629243565,0.008485584648752624,0.9828054888042285
2011-11-22,-1,-0.0003780325180278149,-0.0001490496560742553,-0.012535988189013605,0.011252265767792773,0.982578524923356
2011-11-25,-1,-0.0006304953671049693,-0.0004498370117362823,-0.01014393430861563,0.00943975886138895,0.9839452701624005
2011-11-29,-1,-0.0005181151283673055,-0.00028939194017293306,-0.01014393430861563,0.008485584648752624,0.9843884656840565
2011-12-01,1,0.0009573762252077813,0.0013652356965496327,-0.01014393430861563,0.005980503977813403,0.9871972272274904
2011-12-05,1,0.0013986026949025546,0.0018731038840391918,-0.01014393430861563,0.006374223320310315,0.9862350270506731
2011-12-07,1,0.0031592722541190655,0.003846018272485169,-0.010577878116759984,0.004868683016081811,0.9887208210324723
2011-12-09,1,0.0027407897370094786,0.0034101195514130464,-0.008020062571490509,0.01050542494727952,0.9893602203208705
2011-12-13,1,0.002075142160289023,0.0026738071860592186,-0.0018137684090385959,0.01050542494727952,0.990800809782382
2011-12-15,1,0.002255406363478178,0.0028764179269045722,-0.0035019481656157255,0.01050542494727952,0.9905795009847587
2011-12-19,1,0.0014790228642291817,0.0019603816774246257,-0.0018137684090385959,0.01050542494727952,0.9909104911207962
2011-12-21,1,0.0023235662739977793,0.0028660129505731786,-0.0035019481656157255,0.007617596412633727,0.9912684488418382
2011-12-23,1,0.00241122841303754,0.0029474078049395187,-0.006958867367948877,0.008897601554391935,0.9905430652377643
2011-12-28,1,0.0013146855571287723,0.0016575052453923801,-0.006880817027042284,0.008897601554391935,0.9906062525317473
2011-12-30,1,0.0010535321706997684,0.0012923222319657316,-0.006880817027042284,0.008897601554391935,0.9902323667484637
2012-01-04,1,0.0013129682213950569,0.0015816699833587462,-0.0075039833688588815,0.008897601554391935,0.9893776881998007
2012-01-06,1,0.0014733496930406822,0.0017977456217499665,-0.0075039833688588815,0.008897601554391935,0.9890011281364696
2012-01-10,1,0.0026839219174087394,0.003162376216933859,-0.0075039833688588815,0.007404436064520362,0.9902465021706368
2012-01-12,1,0.002335767241848757,0.002666430519991456,-0.01043597717862943,0.007404436064520362,0.9897005121931289
2012-01-17,1,0.0026638003966609454,0.0031105497129628613,-0.01043597717862943,0.007404436064520362,0.9898254225326754
2012-01-19,1,0.003325313494377318,0.0038826885364926594,-0.01043597717862943,0.008784340601147102,0.9892542866477381
2012-01-23,1,0.0035969703414751204,0.0042555335389044555,-0.0075039833688588815,0.008784340601147102,0.9902434496931236
2012-01-25,1,0.00362443757929391,0.004289646991883804,-0.007512893412580676,0.00764841661379401,0.9899750107061945
2012-01-27,1,0.0007560112220620789,0.0009699802546402173,-0.009727597345951671,0.00764841661379401,0.9903991869792521
2012-01-31,1,0.0014411686326484983,0.0017847428633421616,-0.011468111419992724,0.004076655298827742,0.9903252633668841
2012-02-02,1,0.0005712781614932846,0.0007237504669553398,-0.009727597345951671,0.0025548681336536364,0.9923677123095261
2012-02-06,1,0.0004706495779866307,0.0006184008179709847,-0.009727597345951671,0.0025548681336536364,0.9919672264045604
2012-02-08,1,0.0008807768206623656,0.0011103169829150548,-0.009727597345951671,0.004699277177219088,0.9907259088238423
2012-02-10,1,0.0003480026791557431,0.0004932675251260643,-0.007194654132765796,0.005961859374695804,0.9912526579901056
2012-02-14,1,0.00033157810460336407,0.0004014288393958284,-0.007194654132765796,0.010113406177106928,0.9906351872402442
2012-02-16,1,0.0004793198366676734,0.0004997515901388261,-0.007194654132765796,0.008270337369880035,0.9905764906832568
2012-02-21,1,0.0007792118104244713,0.0008697139560948131,-0.009727597345951671,0.010954857946927698,0.9897307419590194
2012-02-23,-1,-0.00024469362673716757,-0.00020747342823851101,-0.01115285526686865,0.012009919246863327,0.987337846598818
2012-02-27,-1,-0.0029865975798151444,-0.0024759119768702296,-0.0053085362778178685,0.012009919246863327,0.9868853421731052
2012-02-29,-1,-0.0026716778981309064,-0.0022797347319937723,-0.00516841850262641,0.012009919246863327,0.9871132980802525
2012-03-02,-1,-0.0018054698889978522,-0.0015623278387936397,-0.0037500689587428816,0.012009919246863327,0.9875270624602601
2012-03-06,-1,-0.0021462381551150887,-0.0019010463212120856,-0.0037500689587428816,0.010954857946927698,0.9885412727977969
2012-03-08,-1,-0.0006912831372174518,-0.0006522861022163599,-0.006580005438240621,0.00887294049741628,0.9894807686626155
2012-03-12,-1,-0.0008514149793096256,-0.000765002288091259,-0.010089232875834771,0.00887294049741628,0.9884579177803219
2012-03-14,-1,-0.00019090898963914564,-0.0001870904253860695,-0.010089232875834771,0.00887294049741628,0.988593774522109
2012-03-16,1,0.000296324667711944,0.00038880061723745626,-0.0112262470617425,0.0026498889680659668,0.9884212956444091
2012-03-20,1,0.0006157888489615679,0.0007479998808047777,-0.012927151979214875,0.0026498889680659668,0.9878233708201196
2012-03-22,-1,-0.00010484665023749967,-6.145776991278316e-05,-0.010089232875834771,0.0026498889680659668,0.9903814854634347
2012-03-26,1,0.00019077298585985265,0.00019127355895254391,-0.012495005904042218,-0.00037831737877436363,0.9902780781203637
2012-03-28,-1,-0.0007746834253426562,-0.0006362071724598474,-0.012495005904042218,0.000977625229937934,0.9911093229125322
2012-03-30,-1,-0.0002823839768762954,-0.00026792477373520775,-0.012495005904042218,0.00353633805373499,0.9904485912468575
2012-04-03,1,7.304105997505837e-05,0.0001401762886092928,-0.012495005904042218,0.004968459685098201,0.9902049136774654
2012-04-05,-1,-0.0017880392004175987,-0.0016053968469225714,-0.01562676399567528,0.004968459685098201,0.9892735567004987
2012-04-10,-1,-0.0030892783211447657,-0.0027491086720982574,-0.01562676399567528,0.004968459685098201,0.9894964762058873
2012-04-12,-1,-0.0023041568270525206,-0.0020828230188184,-0.01562676399567528,0.00353633805373499,0.9897896817287387
2012-04-16,-1,-0.003998492735655934,-0.003524447684609572,-0.011212267742146297,0.00353633805373499,0.9905736794058
2012-04-18,-1,-0.004613308328945019,-0.004009523780717058,-0.010547924011912744,0.0021740137710792927,0.9915341403170238
2012-04-20,-1,-0.0043295646057198486,-0.003746656874203964,-0.01562676399567528,0.0016749449866414988,0.990609365700204
2012-04-24,-1,-0.005356433530049509,-0.004631509294171269,-0.013391591304149167,0.0021740137710792927,0.9904826008550793
2012-04-26,-1,-0.00459513410799048,-0.0040477515156130284,-0.013391591304149167,0.002053580796733437,0.9903242731489325
2012-04-30,-1,-0.0037937023167321756,-0.0033600466879834864,-0.013391591304149167,0.002053580796733437,0.9883227857541761
2012-05-02,-1,-0.0019193366385431153,-0.0018098273143606087,-0.013391591304149167,0.0020161905420555326,0.9883467071843135
2012-05-04,-1,-0.004856203232363783,-0.0043375802375831655,-0.010547924011912744,0.0027449611628338312,0.9889888481075759
2012-05-08,-1,-0.0065269380132940615,-0.005759551714333797,-0.00854191214343379,0.004279592930840263,0.9870719091961611
2012-05-10,-1,-0.006277760096702317,-0.005547218808402631,-0.00854191214343379,0.005406146776059499,0.9870641381631535
2012-05-14,-1,-0.0070981189238409036,-0.006244578749559908,-0.005284059801015182,0.008589833817315408,0.9863109101785531
2012-05-16,-1,-0.006949630556246587,-0.0061842867621075236,-0.0014251572628371807,0.008589833817315408,0.9856345735624804
2012-05-18,-1,-0.008633420050382042,-0.007768354693937212,-0.00023786166825314612,0.010215256069810212,0.9819035755571697
2012-05-22,-1,-0.007357117574178866,-0.006590833127515178,-0.00023786166825314612,0.009514990192041693,0.9831897575912028
2012-05-24,-1,-0.00674735979126352,-0.006079311608285232,-0.0010850708850840413,0.009997450716197592,0.9832381620463051
2012-05-29,-1,-0.005842519042587878,-0.005313238311330183,-0.005363141257088424,0.008879227615705022,0.9862745665930146
2012-05-31,-1,-0.005596015102443444,-0.00509046902124897,-0.005363141257088424,0.009997450716197592,0.9858027026770818
2012-06-04,-1,-0.00471228402197272,-0.0043661721189064105,-0.0029758200279762378,0.009997450716197592,0.9864493150072434
2012-06-06,-1,-0.0029000036399648814,-0.0027955193260300573,-0.005363141257088424,0.008879227615705022,0.9883542144213737
2012-06-08,-1,-0.002580787728824946,-0.0025193967769833025,-0.0092748760781448,0.008879227615705022,0.9874420430610101
2012-06-12,-1,-0.0017876278181635614,-0.0017109955425126824,-0.0092748760781448,0.007544285407573679,0.9877005914460967
2012-06-14,-1,-0.001602721685693854,-0.0015321229586361161,-0.011867923912236976,0.007544285407573679,0.9875714891509157
2012-06-18,-1,-0.002275416901529166,-0.0022664623461830804,-0.011867923912236976,0.007418215323576089,0.9902449645843036
2012-06-20,-1,-0.002222561538630424,-0.0021865193614908213,-0.011867923912236976,0.005685440094780386,0.9904903415110003
2012-06-22,-1,-0.0020080134777285385,-0.0019822416292965502,-0.0131557910966204,0.005035933754949583,0.9898116049276929
2012-06-26,-1,-0.002465680430417158,-0.002421745441142752,-0.0131557910966204,0.005035933754949583,0.9900009101293584
2012-06-28,-1,-0.0018633043292719384,-0.0018393219533537133,-0.0131557910966204,0.005035933754949583,0.9893759156203732
2012-07-02,-1,-0.0010988986528131172,-0.000949838307837301,-0.0131557910966204,0.005685440094780386,0.9886857269804655
2012-07-05,-1,-0.0014890940978784422,-0.0014028471691231521,-0.013181585475691465,0.006272234371748786,0.9885232881738683
2012-07-09,-1,-0.0024861111665140335,-0.002444123178470722,-0.01087488522983884,0.007418215323576089,0.9882836481028142
2012-07-11,-1,-0.001564451607293732,-0.0014370297190004879,-0.01087488522983884,0.008591911517356162,0.9881992139374195
2012-07-13,-1,-0.0016247164757754143,-0.001489372987828432,-0.006060448983496841,0.008591911517356162,0.9880488737715021
2012-07-17,-1,-0.0017764708129297065,-0.0016791086731879987,-0.005509894847766971,0.007125850292010389,0.9888117312628886
2012-07-19,-1,-0.0022039910222896295,-0.0022032394921166626,-0.005100121671439429,0.008680738745864825,0.9886218874721467
2012-07-23,-1,-0.003838777115972947,-0.003622351710893569,-0.0036509867635474047,0.008680738745864825,0.9892437423188292
2012-07-25,-1,-0.00371044810320589,-0.003511825333137087,-0.00334951241095266,0.008680738745864825,0.9894105283246885
2012-07-27,-1,-0.0026225787061880325,-0.0025490824981699665,-0.0040202461828818615,0.007125850292010389,0.9910213177697718
2012-07-31,-1,-0.0014327570871652596,-0.0012957815518793029,-0.0040202461828818615,0.006003521881834411,0.9930514593635974
2012-08-02,-1,-0.0015194061664465532,-0.0013784295210526407,-0.00334951241095266,0.0059236545446754016,0.9938689493143689
2012-08-06,0,-0.0001768118073208337,0.00019547227896120388,-0.0040202461828818615,0.0058761907617897735,0.9936766185339498
2012-08-08,1,0.0005299618188944245,0.0010177608582612435,-0.0061126429734630955,0.004026579804359775,0.9926485044175046
2012-08-10,1,0.0013213330786974804,0.0019517536849820492,-0.0061126429734630955,0.00341075207230241,0.9927881887032803
2012-08-14,1,0.000670669014216513,0.0011628610115297798,-0.0040202461828818615,0.005366908846122523,0.9924741274905365
2012-08-16,1,0.0013529069626770761,0.0019740308437945237,-0.0027585741993070606,0.0076097559156634124,0.9919368892098256
2012-08-20,1,0.0008917902762174744,0.0014049156828724793,-0.0027585741993070606,0.0076097559156634124,0.9913962664814164
2012-08-22,1,0.0009930821476180215,0.0015236809976075167,-0.0012283320148523734,0.0076097559156634124,0.9915762919486004
2012-08-24,1,0.0010561728174731842,0.0015936267703559142,-0.003898963587389857,0.0076097559156634124,0.9910641595657094
2012-08-28,1,0.000818334178582364,0.0012757449913559232,-0.008209365686424237,0.0076097559156634124,0.9900710471054293
2012-08-30,1,0.0006151995742939883,0.00100300140639115,-0.009117084166986582,0.0076097559156634124,0.989412951505908
2012-09-04,1,0.000610261463039962,0.0010335308353981907,-0.009540034555276073,0.004651030329467589,0.9904977515922859
2012-09-06,1,0.0006306492695484819,0.001021084072861697,-0.0105523479144447,0.002203287076220528,0.990763841504752
2012-09-10,1,0.0008926668951589655,0.0013192867118866473,-0.011660920211186504,0.0016221716797736624,0.9902286287265581
2012-09-12,1,0.0019181924098015844,0.002506132102629911,-0.012867523866580926,0.00019701491810476495,0.9889792070157709
2012-09-14,1,0.0026969442019700463,0.0033622110579061013,-0.012867523866580926,-0.0026802780801724433,0.9883952464798399
2012-09-18,1,0.0020431090719465307,0.0026243570387354904,-0.011660920211186504,-0.0005905793425510667,0.9899785532378714
2012-09-20,1,0.0024848717987678327,0.003157360918816755,-0.011660920211186504,-0.002025194822532109,0.98950506694291
2012-09-24,1,0.0021965340480991453,0.0028492087878584016,-0.012867523866580926,0.0004401278257685407,0.9897818797483695
2012-09-26,1,0.00026604146436091404,0.0005444250470187,-0.011660920211186504,-0.0015850669967635684,0.9912970732196142
2012-09-28,-1,-0.0005281384421298447,-0.00041248429844868684,-0.011660920211186504,0.0024682270486793712,0.9916345324136477
2012-10-02,-1,-0.0010306686464949314,-0.0009685296819147799,-0.008998594495937963,0.004800991589775091,0.9907660748956437
2012-10-04,-1,-0.0021531689092823885,-0.002066905022609037,-0.00798060882939668,0.005692740778380271,0.9912050547425348
2012-10-08,-1,-0.0028668857960459245,-0.0026641934971121358,-0.00798060882939668,0.0073747818463519264,0.9893385347273084
2012-10-10,-1,-0.004835033400403628,-0.004326283270269614,-0.007406312074654183,0.0073747818463519264,0.9894918707703616
2012-10-12,-1,-0.004839398012089793,-0.004360553297925597,-0.006615483798722664,0.010463784390378886,0.9888953781629091
2012-10-16,-1,-0.00408030216800964,-0.003700021503917814,-0.007413822054421102,0.011141808985557276,0.9891043362583968
2012-10-18,-1,-0.003817827584646982,-0.0035087497423549408,-0.007413822054421102,0.011727914263083769,0.9884748561588943
2012-10-22,-1,-0.003858962132219578,-0.003553768727390696,-0.006615483798722664,0.013194055514676464,0.9883961068449211
2012-10-24,-1,-0.004159486194697842,-0.003795523370477819,-0.006615483798722664,0.01734094315711427,0.9868705832366843
2012-10-26,-1,-0.0034558592320961265,-0.0032602949233310518,-0.005850738509865056,0.01734094315711427,0.986636820902694
2012-11-01,-1,-0.0021714300050426644,-0.002144199963374634,-0.007843573529420977,0.011727914263083769,0.9879085183927021
2012-11-05,-1,-0.0016726559018193326,-0.001618457522775057,-0.007690247122476122,0.01117907439227396,0.9882971282020694
2012-11-07,-1,-0.0020102385251539144,-0.001978512960517009,-0.007690247122476122,0.01117907439227396,0.988472560364986
2012-11-09,-1,-0.00256423425137117,-0.0023867963774239246,-0.005799629707550104,0.01117907439227396,0.9888826649356102
2012-11-13,-1,-0.001592038294827244,-0.0015468925590060444,-0.005799629707550104,0.010676193251621315,0.9891641536943961
2012-11-15,-1,-0.0014667180389800873,-0.0014291091383504648,-0.005372901889254832,0.011411731408833756,0.9891381045348889
2012-11-19,-1,-0.0011800243167812696,-0.0011577813331757883,-0.0019937287548330647,0.009061191251794542,0.9897326595196446
2012-11-21,-1,-0.0002823946786125264,-0.00014507244383965497,-0.002389035314751849,0.007346896422814202,0.9907475152908316
2012-11-26,1,0.0004955412043668848,0.0007652936534253315,-0.007385300145587927,0.006261988149049356,0.9915767040946655
2012-11-28,1,0.0008738937266511596,0.0011697954875092564,-0.009301034874182799,0.005438742096313443,0.9908836095493658
2012-11-30,1,0.0002134290970207738,0.0003489757481829812,-0.0075482100731432186,0.006068682300449267,0.9905663573069962
2012-12-04,1,0.0006244712199813773,0.0008296875729329335,-0.0075482100731432186,0.009844485665326069,0.990233814563344
2012-12-06,-1,-0.00037909364621214114,-0.000336240984730455,-0.002464615569815028,0.009844485665326069,0.9911670429443281
2012-12-10,-1,-0.0002604805180862896,-0.0002226769879323332,-0.002464615569815028,0.011028344394246992,0.9905948924159901
2012-12-12,0,-4.1223103152598505e-05,6.575725984936539e-06,-0.006153012752180624,0.01029085984472931,0.9907824919062719
2012-12-14,1,8.167480271351471e-05,0.00010528942942810526,-0.007229298766860516,0.009707344702987175,0.9908662469157985
2012-12-18,1,0.0003010429084076495,0.00030863873232496187,-0.007769214164278425,0.010269987633603136,0.9902002777225738
2012-12-20,1,0.0005621215648943214,0.0006479226978736262,-0.007229298766860516,0.010269987633603136,0.9906186395273063
2012-12-24,-1,-0.00016888616403394033,-0.00015231338540120623,-0.0039505163721850495,0.011156328604861258,0.9911256994952127
2012-12-27,-1,-0.0013712812827403635,-0.0012248032385164895,-0.00268339006273313,0.011156328604861258,0.991759221047912
2012-12-31,1,0.00036568938297481705,0.0004892318324471118,-0.00268339006273313,0.010269987633603136,0.9928008005444503
2013-01-03,1,0.0006764248973213638,0.0008740611084832922,-0.003317413979186147,0.009326523398122925,0.9932259606685743
2013-01-07,1,0.0016508278768776594,0.0020061274286007433,-0.0039505163721850495,0.007231398693289355,0.9937343108532435
2013-01-09,1,0.0019907994227862623,0.0023732153478522623,-0.0039505163721850495,0.004785727871348451,0.9943661200449896
2013-01-11,1,0.0019024685134434694,0.002294966413422194,-0.004341582929445637,0.004785727871348451,0.9942350545821839
2013-01-15,1,0.0015203234131033654,0.0018435362114842392,-0.003540093444647198,0.0029069024363440827,0.9947232962593735
2013-01-17,1,0.0014352778986931086,0.0017433877148325927,-0.002703811289591725,0.004785727871348451,0.9947645945309943
2013-01-22,1,0.0016374074261726653,0.0019664612771642417,-0.003540093444647198,0.0035155152604304783,0.9927527721900493
2013-01-24,1,0.0020422407251824808,0.002435593998230953,-0.004978604532060495,0.0019378311701757358,0.9916872326200965
2013-01-28,1,0.002092865132407769,0.0025010351103538445,-0.007108923109934357,0.0019378311701757358,0.9913525449557912
2013-01-30,1,0.00220893100969292,0.002580350460049876,-0.007108923109934357,0.0035155152604304783,0.9899214657327411
2013-02-01,1,0.0025100638699977274,0.0029450634865250186,-0.004887221239886677,0.00500860106948995,0.9898877787253914
2013-02-05,1,0.0024734632214537754,0.0029139802597024653,-0.0029161518237966776,0.007528248254381099,0.9901852815557052
2013-02-07,1,0.003087549952480299,0.0036691949663647284,-0.0029161518237966776,0.009344332812282622,0.9899465505585655
2013-02-11,1,0.003511838283106647,0.004236554509482767,-0.0010743674243416054,0.012337166394900038,0.9904781886799077
2013-02-13,1,0.0033658622194552325,0.003960188665036868,-0.00021911649035572398,0.012337166394900038,0.9903243372471937
2013-02-15,1,0.004415264918522613,0.005152307825551203,-0.00021911649035572398,0.00964791770201992,0.9901334000373104
2013-02-20,0,0.0,0.0,-0.00021911649035572398,0.012363782145081418,0.9902800869731768
2013-02-22,0,0.0,0.0,-0.00021911649035572398,0.012363782145081418,0.9912189033546385
2013-02-26,0,0.0,0.0,0.0006265962975480236,0.012599139092731457,0.9907227240155195
2013-02-28,0,0.0,0.0,0.0006265962975480236,0.012599139092731457,0.9901059579379115
2013-03-04,0,0.0,0.0,-0.0009889253560663254,0.013116587686386395,0.9897960192914795
2013-03-06,0,0.0,0.0,-0.004239507794474772,0.013116587686386395,0.9896164556548926
2013-03-08,0,0.0,0.0,-0.004239507794474772,0.01531367036554485,0.9891446302993545
2013-03-12,0,0.0,0.0,-0.004239507794474772,0.01531367036554485,0.9890953424483341
2013-03-14,0,0.0,0.0,-0.004239507794474772,0.01531367036554485,0.9885788129371101
2013-03-18,1,0.0017507321883242152,0.0018839693542468897,-0.004239507794474772,0.01531367036554485,0.9890008410780419
2013-03-20,1,0.0018214322413381834,0.0019453787398076802,-0.0034004105339670294,0.013116587686386395,0.9897148789319627
2013-03-22,1,0.0011811150816057627,0.0011897034605772138,-0.0028308861292931312,0.013116587686386395,0.9898664812815602
2013-03-26,1,0.0012304638406011542,0.0012340037196247049,-0.0012602582516551683,0.01531367036554485,0.9896697184157324
2013-03-28,1,0.003431409358626601,0.0037966865142846375,-0.0028308861292931312,0.010968655236425229,0.9915241852957886
2013-04-02,1,0.0032925600385177696,0.0036374609661477056,-0.0012602582516551683,0.010945198340808157,0.9918777762660198
2013-04-04,1,0.0026598916394277665,0.0028785351077006763,-0.0012398335378096482,0.010945198340808157,0.9915764930599381
2013-04-08,1,0.0030235416453718634,0.0032701185248490998,-0.0012398335378096482,0.009619771541468734,0.9919883000138302
2013-04-10,1,0.003277523244258898,0.0035618968849927624,-0.0012398335378096482,0.009786404566719871,0.9920227766247812
2013-04-12,1,0.0023700839089095273,0.0025327764604482356,-0.0028308861292931312,0.009786404566719871,0.9927088128519302
2013-04-16,1,0.0035572580662844577,0.0038926982736258776,-0.002960470910215911,0.009786404566719871,0.9927656732904913
2013-04-18,1,0.0030345926698931483,0.0033132349604426117,-0.0003298277316546045,0.009786404566719871,0.9931114364650931
2013-04-22,1,0.0035215037859132907,0.003866945007954295,-0.0003298277316546045,0.01002076432162071,0.9930896440133465
2013-04-24,1,0.00441565367645891,0.004899205615064727,-0.0036681665802808594,0.009556826614262312,0.992974118024181
2013-04-26,1,0.004045900268359837,0.00444842835979661,-0.0036681665802808594,0.008290706636817125,0.9934761047947616
2013-04-30,1,0.0044488997915304845,0.004898114689103093,-0.004128434915795271,0.005436749642066603,0.9931515728053218
2013-05-02,1,0.003441973194286463,0.003712325921724473,-0.004128434915795271,0.006924178519079043,0.9916735718884011
2013-05-06,1,0.003621164956538866,0.003928914870673161,-0.004688620275252939,0.006924178519079043,0.9907023728769848
2013-05-08,1,0.0037376975461115413,0.004062377434480822,-0.0050278089048828,0.006924178519079043,0.9897058506956787
2013-05-10,1,0.0035621920802660634,0.0038966930596670973,-0.005176020547665278,0.0070275917447749775,0.9893896173656206
2013-05-14,1,0.003893417897661254,0.004275622138770151,-0.00796152126664029,0.0070275917447749775,0.985580308439597
2013-05-16,1,0.003312906730055294,0.003611371482843335,-0.012852188948910636,0.007501711682790227,0.9841173950343546
2013-05-20,1,0.0028880243124305444,0.003076672261258442,-0.012852188948910636,0.006635140228303317,0.9843142914485613
2013-05-22,1,0.001999909487784443,0.0020357052209698926,-0.016255481520488606,0.006635140228303317,0.9829989799225648
2013-05-24,1,0.002033393246541579,0.002104899884007779,-0.016255481520488606,0.006635140228303317,0.982843407464971
2013-05-29,1,0.0019607067743305268,0.002039004882821474,-0.016255481520488606,0.013383525125778771,0.9811368530680514
2013-05-31,1,0.0009634494645392795,0.000985748334560512,-0.013108362431408399,0.015313102733761264,0.9825806531427644
2013-06-04,1,0.0019170591403103786,0.002039476685951516,-0.013108362431408399,0.013383525125778771,0.9838811212831439
2013-06-06,1,0.001500567423817472,0.001543381314674773,-0.012575757395411735,0.010822423160589125,0.9844139756430487
2013-06-10,1,0.0010665432474993661,0.0010879792595322752,-0.007714808130005062,0.010822423160589125,0.9850106458766301
2013-06-12,-1,-0.0011667026247646666,-0.0008812072293930504,-0.003230425602778208,0.010039583581752509,0.9894113592721215
2013-06-14,-1,-0.0011934494939276322,-0.000906161317101289,-0.0026745307900138465,0.006758833082076228,0.9906678760449438
2013-06-18,-1,-0.0010620452545526576,-0.0008000508938991212,-0.0042327897822382705,0.007283992770138865,0.9903560870926974
2013-06-20,-1,-0.0025297629261053695,-0.0020863337762098157,-0.0026730367325936135,0.007283992770138865,0.9915998500355531
2013-06-24,-1,-0.0026074564292939877,-0.002164903501214544,-0.0010695910794508063,0.010039583581752509,0.9903176979994859
2013-06-26,-1,-0.0012487147017047466,-0.0009630979905581853,-0.0010695910794508063,0.007283992770138865,0.9926717311394088
2013-06-28,-1,-0.0007712117368082818,-0.0005287947341383804,-0.0010695910794508063,0.005848753812108052,0.9938224066943219
2013-07-02,-1,-0.0008998381592283667,-0.000646052399020917,-0.0007063747157409077,0.007283992770138865,0.9927703112721892
2013-07-05,-1,-0.0012102639090187854,-0.0008928653680651303,-0.0006818524148490374,0.007283992770138865,0.9921632335986194
2013-07-09,-1,-0.0012779941506447926,-0.0009403993490907903,-0.00016847164439776736,0.005848753812108052,0.9925241250889486
2013-07-11,-1,-0.0008345306400241732,-0.0005845647782572263,0.0009572888184584253,0.005848753812108052,0.9926686344655095
2013-07-15,-1,-0.0015860679762689303,-0.001189588598604496,0.0012775343881473574,0.006834796939687295,0.9919682880298005
2013-07-17,-1,-0.0021761806328608243,-0.0016698365268218677,0.0009572888184584253,0.005907961444643879,0.991349324184727
2013-07-19,-1,-0.002679418584752772,-0.0020953609559300522,0.0004889412019689987,0.005907961444643879,0.9902593664173176
2013-07-23,-1,-0.0011628063888276662,-0.0008171099393798529,0.0,0.004824667230224531,0.9924952866991922
2013-07-25,-1,-0.0007650058041367356,-0.0004769314918989928,0.0,0.004824667230224531,0.9925180388595747
2013-07-29,-1,-0.0006371088012495885,-0.00036437784620758755,0.0,0.005642784099303055,0.992438380154708
2013-07-31,0,-5.801335064831788e-05,0.00013583440942819083,-0.007512977643393124,0.004733954187843008,0.9924872280452559
2013-08-02,1,0.0006136743644491521,0.0007170794350984029,-0.009626191123526827,0.004495899065660208,0.9924936864083749
2013-08-06,1,0.0002205359592507023,0.00038361970020448616,-0.013201561147366436,0.00477654736845135,0.9898919262026104
2013-08-08,1,0.0005813871509495884,0.0006434305674138229,-0.013201561147366436,0.00477654736845135,0.9896834681108552
2013-08-12,1,0.0009534275514023689,0.0009640773523039756,-0.013201561147366436,0.00466724024675878,0.9898754791718472
2013-08-14,1,0.00014740595590055942,0.0002690518454638955,-0.009626191123526827,0.005770563641128083,0.9890929720105054
2013-08-16,-1,-0.00026053661964486907,-8.20497350620859e-05,-0.007512977643393124,0.01043439865753251,0.9882308861891145
2013-08-20,1,0.000342170593785794,0.0003947147949752472,-0.007121181115082092,0.01043439865753251,0.9883675566463778
2013-08-22,1,0.0004906281164314685,0.0005234636872625447,-0.008303742438181473,0.007963269026924093,0.9884379883627292
2013-08-26,1,0.0004879577292104096,0.0005351852332684346,-0.008303742438181473,0.007060061090253918,0.9886618656131453
2013-08-28,1,4.83514034194487e-05,0.0001185656944377959,-0.005937935902251352,0.010643605207209056,0.9878418040868626
2013-08-30,1,9.202216820597544e-05,0.00014535430041521188,-0.004759717511512458,0.01132152425297656,0.9837485479162509
2013-09-04,-1,-0.0011055958365554413,-0.0008868904376023378,-0.004759717511512458,0.014831069151437379,0.9837789951713698
2013-09-06,-1,-0.0009845187839513333,-0.0008241909383635897,-0.0051460099746332205,0.014831069151437379,0.9830776065501338
2013-09-10,-1,-0.001072481052877904,-0.0008834122914054754,-0.007173278767132234,0.014831069151437379,0.9825105236876466
2013-09-12,1,0.00026193487137318467,0.0002784459078218595,-0.007173278767132234,0.01185748213522354,0.983516103019751
2013-09-16,1,0.0012074613001283277,0.0013492741250007278,-0.007173278767132234,0.008833926333896519,0.9851730382360044
2013-09-18,1,0.0007903619467891287,0.0008730517782525246,-0.007501316698000389,0.011827907276286086,0.984434412899249
2013-09-20,1,0.0006725086965666104,0.0007686326526032423,-0.004160889710936184,0.01491900626772084,0.9837837343126371
2013-09-24,1,0.0005678089688373236,0.0006332107738135545,-0.0051847536583137345,0.01491900626772084,0.9833109634921116
2013-09-26,1,0.0016569953001196655,0.0018776040306551906,-0.0051847536583137345,0.011215938797004867,0.9851179234908359
2013-09-30,1,0.004082701052403601,0.0046393302220283225,-0.0051847536583137345,0.00987285354666172,0.9894002982216836
2013-10-02,1,0.004376085781614255,0.004949801926647315,-0.003952813369662271,0.007676851676481857,0.9911004969472753
2013-10-04,1,0.0039057386225886583,0.004433111388669999,-0.0034868307008853166,0.007676851676481857,0.9920802916200576
2013-10-08,1,0.0035726558216907754,0.004064750758205653,-0.0038495090025414723,0.007676851676481857,0.9923483882230654
2013-10-10,1,0.003851514177617306,0.004387623403652233,-0.00388284923567491,0.006836125476319529,0.9925885516143065
2013-10-14,1,0.003636054201985121,0.0041193016349859515,-0.00388284923567491,0.007554949687147969,0.9925120964517871
2013-10-16,1,0.003615077313146522,0.00409305168575076,-0.0037997157439756276,0.007554949687147969,0.9928557614663548
2013-10-18,1,0.0037383162494378478,0.004222994608195214,-0.003719798615466988,0.007106530060328674,0.9938402517761109
2013-10-22,1,0.0028606218664005067,0.003165955933313705,-0.003719798615466988,0.006345760464497116,0.9939564788891968
2013-10-24,1,0.0036199345180769776,0.004066156190324467,-0.0037997157439756276,0.006345760464497116,0.993201171973996
2013-10-28,1,0.00316489026303661,0.0035380784127888847,-0.00429916154670469,0.006345760464497116,0.9929364805671081
2013-10-30,1,0.002805686023451417,0.0031149830141554476,-0.005354187443310633,0.007106530060328674,0.9925200403633037
2013-11-01,1,0.0021643931708201355,0.0022747056958666075,-0.005354187443310633,0.00665679904495089,0.9928322893509196
2013-11-05,1,0.002262161101606797,0.002328215113093093,-0.006930228367294787,0.00665679904495089,0.9880658668493861
2013-11-07,1,0.0019356852543661654,0.001953639667309333,-0.006930228367294787,0.00665679904495089,0.9881620616594506
2013-11-11,1,0.0014612858030794934,0.0015792115760889878,-0.006930228367294787,0.00665679904495089,0.9879914590128309
2013-11-13,1,0.0019093697934256275,0.0020047966558270837,-0.007695031622469851,0.0054046071106114025,0.9866535201706464
2013-11-15,1,0.002325616174268464,0.0023718816194188844,-0.007695031622469851,0.0054046071106114025,0.9837605132210049
2013-11-19,1,0.00229735836094394,0.0023705870853021715,-0.007585077398465022,0.009975259424178689,0.982999756434099
2013-11-21,1,0.0023472321492372683,0.0024098521901433083,-0.006937226966545164,0.011035537368499063,0.982925149092416
2013-11-25,1,0.0015071677777972314,0.0015524558432196218,-0.0067153222081286195,0.014952726732198659,0.9830623660699264
2013-11-27,1,0.0014265438277479038,0.0014810466103719801,-0.004378514870696286,0.014952726732198659,0.9833875842780776
2013-12-02,1,0.0016082037455973784,0.0016448383882531833,-0.004378514870696286,0.014952726732198659,0.9835260470119079
2013-12-04,-1,-0.0019009423747463213,-0.0014529689018642337,-0.002351392486891544,0.015713777877302847,0.9872013560026045
2013-12-06,-1,-0.0021234343786471314,-0.0016473144660085137,-0.00399087664368852,0.018241295418284502,0.9857615252016869
2013-12-10,-1,-0.0016488008014878546,-0.0012101444751879647,-0.00399087664368852,0.015713777877302847,0.9865871537600134
2013-12-12,-1,-0.0026552296750064963,-0.002143358397883764,-0.002351392486891544,0.015713777877302847,0.9868751267130498
2013-12-16,-1,-0.0008198218831758683,-0.000541003232756902,-0.000954459920781762,0.014157838081035863,0.9898474675845675
2013-12-18,1,0.0003614243156606522,0.0004946286609493596,-0.00399087664368852,0.008309492652703039,0.9909789593259215
2013-12-20,1,0.001034020473995562,0.0010610539191494876,-0.005209011701717151,0.006564058373515563,0.9915466935340238
2013-12-24,1,0.0018027983876859573,0.0019080378747228382,-0.0060598555192141815,0.0060118515223161135,0.9915691120243207
2013-12-27,1,0.001964011505071521,0.0020844886544408333,-0.006995519409634828,0.004975820130127015,0.9911065942724632
2013-12-31,1,0.001684501324571886,0.0017707984083373991,-0.008594290796517256,0.006333999173116844,0.9903974483538422
2014-01-03,1,0.0020766734544245824,0.0022341627634959896,-0.010224147454387973,0.0048653988376682325,0.9896996258759091
2014-01-07,1,0.0021011017238719417,0.0022252479917781575,-0.008594290796517256,0.0048653988376682325,0.9910845257889969
2014-01-09,1,0.001568748548495624,0.0015851050719998371,-0.008594290796517256,0.006333999173116844,0.9910704489660351
2014-01-13,1,0.0004198884078650001,0.0005552145104736052,-0.006995519409634828,0.006333999173116844,0.9924784144973512
2014-01-15,1,0.0010435469035989038,0.0011018945329106808,-0.00771119649052491,0.00389493531810327,0.9922689185955015
2014-01-17,1,0.0004126409580962205,0.0005388412784658109,-0.006834848386683865,0.006411615582358579,0.9926102533817923
2014-01-22,-1,-0.0007193269910734032,-0.00041772436400158263,-0.006834848386683865,0.006411615582358579,0.9921773985904233
2014-01-24,-1,-0.0011852900862112607,-0.0008184806620234822,-0.006834848386683865,0.006411615582358579,0.9919030783131072
2014-01-28,-1,-0.00217768642447177,-0.0015983790095049331,-0.0054957861269858965,0.004850438204542822,0.992337618597547
2014-01-30,-1,-0.002921891193787784,-0.0022347571825433593,-0.0054957861269858965,0.0034372220927315236,0.9927165996437937
2014-02-03,-1,-0.003991586740904296,-0.0031832592858072033,-0.0030340270027726804,0.0050384759062433405,0.9928399571809995
2014-02-05,-1,-0.003031288647433553,-0.002392001270184278,-0.007727620318235203,0.0034372220927315236,0.9933672161765061
2014-02-07,-1,-0.002260967413387018,-0.0017706299894107496,-0.007727620318235203,0.002957982444009827,0.9937797582381356
2014-02-11,-1,-0.002520981479446064,-0.0019695119175814225,-0.00880904066221522,0.0015497102716842924,0.9930431022129826
2014-02-13,-1,-0.005126328497876747,-0.004383417626859592,-0.009280906083267199,0.0004990783370897699,0.9939477219792632
2014-02-18,-1,-0.004306631048359487,-0.0036726602005598247,-0.009280906083267199,0.0007242549597331217,0.993955289250248
2014-02-20,-1,-0.003612526778684507,-0.003157513144076379,-0.009280906083267199,0.00022388896752840667,0.9940131673684316
2014-02-24,-1,-0.0017129576895382323,-0.001486762844497525,-0.00880904066221522,0.0012653108538326534,0.9935944203792245
2014-02-26,-1,-5.536403712387683e-05,-1.780309816526527e-05,-0.00880904066221522,0.0040390417844511336,0.992567545659256
2014-02-28,-1,-0.0009065019573322484,-0.0007297832609373085,-0.00960485041033897,0.0040390417844511336,0.9875472919943242
2014-03-04,-1,-0.0007496189878204331,-0.0005603158167147993,-0.00960485041033897,0.005280347232365634,0.9848512050888896
2014-03-06,-1,-0.0012941434238386506,-0.0010647613363481915,-0.009280906083267199,0.005280347232365634,0.9851099043633152
2014-03-10,-1,-0.0014723198775436048,-0.0012332672011693847,-0.009280906083267199,0.005280347232365634,0.9851020276036774
2014-03-12,-1,-0.002735301482730141,-0.002351739378222694,-0.006840683160928849,0.006376731008970165,0.9857312746630037
2014-03-14,-1,-0.0030591064163148106,-0.002657649681418334,-0.00629896766603186,0.006376731008970165,0.9856598223701605
2014-03-18,-1,-0.0021961402618349843,-0.0019080324885630531,-0.00629896766603186,0.005500266992251421,0.9859534337320672
2014-03-20,-1,-0.0026739833714872806,-0.0023525023058110824,-0.0014135219033078366,0.005500266992251421,0.9861664062435707
2014-03-24,-1,-0.002491587578724922,-0.002182186255523598,-0.0032160345790032446,0.007626350764263172,0.9861775095180504
2014-03-26,-1,-0.0016528409133958581,-0.0014426704174823274,-0.004775817365859403,0.004619366234781618,0.9869612702284718
2014-03-28,-1,-0.006379090866344899,-0.0056285872176537275,-0.0032160345790032446,0.007041290016311914,0.9896871738243052
2014-04-01,-1,-0.0035562366348450922,-0.003118946161069271,-0.0032160345790032446,0.00378282820307354,0.994315797893861
2014-04-03,-1,-0.0037665131159481,-0.0033010950472499787,-0.0032160345790032446,0.003385527670290779,0.9943946256036273
2014-04-07,-1,-0.003099579354856135,-0.002753958947719102,-0.0032160345790032446,0.002572204113885238,0.9947689085842033
2014-04-09,-1,-0.0023044408692063103,-0.00209912485075238,-0.0017484889758501176,0.002572204113885238,0.9947132360743036
2014-04-11,-1,-0.0023209446521666294,-0.0021269156293462496,-0.0009377635953883874,0.007640749947316339,0.9937118642068256
2014-04-15,-1,-0.0017006685831784862,-0.0015758526505995946,-0.0019104338332525932,0.004593335948706564,0.9944220642701391
2014-04-17,-1,-0.0013553599998418733,-0.0012867996351289329,-0.0040266861875091625,0.004593335948706564,0.9933731373525333
2014-04-22,-1,-0.0012825342258893804,-0.001199734651074236,-0.007533603909840784,0.004593335948706564,0.9925648381157364
2014-04-24,-1,-0.0016770532497611698,-0.0015540648623967527,-0.002992778250031593,0.006438709550358529,0.9924708902108949
2014-04-28,-1,-0.0013235126092874662,-0.0012658989486594332,-0.0014038529966909274,0.00754528322124972,0.9923431375730916
2014-04-30,-1,-0.0036771690492724517,-0.0031315510421285253,-0.0014038529966909274,0.008633554156992719,0.990770641781964
2014-05-02,-1,-0.003882732552417687,-0.0033197468984902103,-0.0014038529966909274,0.009554640249676713,0.9904596051068983
2014-05-06,-1,-0.003368306151327002,-0.0029057668133326943,-0.0019582452448253934,0.01151140906620146,0.9876959436120915
2014-05-08,-1,-0.004097253365099988,-0.003457016673649539,-0.0019582452448253934,0.009554640249676713,0.9871621604306277
2014-05-12,-1,-0.0017465151858019547,-0.001493648081927455,-0.008982315005963254,0.008437888123535887,0.9883988546748841
2014-05-14,-1,-0.0012834912098682162,-0.0011646109737875401,-0.008572678678732966,0.008437888123535887,0.9881812424874983
2014-05-16,-1,-0.0017062297493179084,-0.0015747253521705708,-0.008572678678732966,0.008596682174156725,0.9883806511987622
2014-05-20,-1,-0.0013699472067147686,-0.0013200311744741293,-0.008221982993377345,0.008437888123535887,0.9895500179370063
2014-05-22,-1,-0.0006008347230228679,-0.0005201944461831942,-0.008221982993377345,0.008437888123535887,0.9897981431027053
2014-05-27,1,0.00016914805554534668,0.00035567772443987483,-0.008572678678732966,0.007868061551752742,0.9897284429726511
2014-05-29,1,0.0010586416415737385,0.0013930402795564265,-0.008572678678732966,0.005665136155593445,0.989687794110909
2014-06-02,1,0.0016696941196421354,0.0021194125933080817,-0.008572678678732966,0.005665136155593445,0.9897003083211473
2014-06-04,1,0.0035814103001887473,0.004304098785433065,-0.008221982993377345,0.005665136155593445,0.9918099020209489
2014-06-06,1,0.003795896515598909,0.0044855828126565064,-0.008221982993377345,0.004079624890887321,0.9915368243691506
2014-06-10,1,0.0036903194859594373,0.004409559855370832,-0.00784997981866489,0.004079624890887321,0.99217063725246
2014-06-12,1,0.002549820950251913,0.003069422208651325,-0.007191908907769785,0.004079624890887321,0.9924441087705619
2014-06-16,1,0.002296388426386897,0.0027544575559858616,-0.0066722358055480505,0.004079624890887321,0.9931574654257324
2014-06-18,1,0.0016289171600071721,0.001987711592219242,-0.0066722358055480505,0.004508717786748042,0.9933652495248294
2014-06-20,1,0.0014274133534046226,0.001771419549811914,-0.0066722358055480505,0.004767216421201667,0.9935866726551381
2014-06-24,1,0.000751304942416589,0.0009914177633388154,-0.006275015688104331,0.004767216421201667,0.99439702410456
2014-06-26,1,0.00012693130538087342,0.00021676575489489074,-0.006385571440835342,0.004529090487815093,0.9942201153765369
2014-06-30,1,0.0009456016325905425,0.0011712649729622823,-0.006549653608685734,0.003889517324430194,0.9940753636146379
2014-07-02,1,0.0013655972757229892,0.001640810648551684,-0.006549653608685734,0.003889517324430194,0.9934770511925102
2014-07-07,1,0.0014300718937720286,0.0017308434900643519,-0.006693634459603302,0.0039892653366261025,0.9932795430130538
2014-07-09,1,0.0010399384953829987,0.0013072496465375064,-0.006234154955816893,0.0039892653366261025,0.9938977612366312
2014-07-11,1,0.0006588265659990896,0.0009244082650485043,-0.006026736997598941,0.0039892653366261025,0.9946495964379609
2014-07-15,1,0.0009296588971781939,0.0012164390016194326,-0.006026736997598941,0.003386466680223659,0.9947352226495823
2014-07-17,1,0.0007532169883790712,0.0009809726523075833,-0.006026736997598941,0.00406943522078429,0.9945733629377442
2014-07-21,1,0.0010949795497566526,0.0013696026809052113,-0.0066304054834992925,0.00406943522078429,0.9941283618186373
2014-07-23,1,0.0011319617144709315,0.0013914540597773201,-0.0066304054834992925,0.005771190308885591,0.9937836023634394
2014-07-25,1,0.0012527427771586812,0.0015658223799079045,-0.006026736997598941,0.007987502289179403,0.9937247815431494
2014-07-29,1,0.000360327944774647,0.0005098938895786067,-0.0048722991112673435,0.007987502289179403,0.9935103906944003
2014-07-31,1,0.00015478920781804154,0.00025943023939642575,-0.004358099526636278,0.007708628750488522,0.9944155763682376
2014-08-04,-1,-0.0003603670345333057,-0.0003593296642594036,-0.0032602682412911374,0.005949658555381668,0.9947156176076096
2014-08-06,-1,-0.0007907577938393665,-0.0007115225203836696,-0.0027356394573407805,0.005949658555381668,0.9945679226806321
2014-08-08,-1,-0.0006225020801054382,-0.0005986951880985523,-0.0027356394573407805,0.005949658555381668,0.9942854277215756
2014-08-12,-1,-0.0009678944406892702,-0.0008639993059790998,-0.0033042527075302225,0.007987502289179403,0.9866230615527273
2014-08-14,-1,-0.0002398733230211814,-0.0002343732761579441,-0.004083508228782325,0.006015802999913964,0.9870337333296901
2014-08-18,1,0.00025388653871999563,0.000358178730356817,-0.002908718042300646,0.006015802999913964,0.9872576802159695
2014-08-20,-1,-0.0021852376691430773,-0.0016317077704358684,-0.002908718042300646,0.005072168120787403,0.9868793184853284
2014-08-22,1,0.0005361965993844183,0.0005952944644869714,-0.005616001591420038,0.004316072746155302,0.9872962844580386
2014-08-26,1,1.9967660756155e-05,0.00015639944896186805,-0.005616001591420038,0.0042032872814959,0.9868319244873106
2014-08-28,-1,-0.0003220151181951705,-0.00014915513793174577,-0.006222008358882116,0.0042032872814959,0.986857632024816
2014-09-02,-1,-0.0002571126297158051,-9.757752658778168e-05,-0.006222008358882116,0.0042032872814959,0.9869083164156849
2014-09-04,-1,-0.0002170539906780004,-4.5513332330705716e-05,-0.006222008358882116,0.003970418492359372,0.9871526307662116
2014-09-08,0,-0.00012263396281509087,9.655952151314026e-06,-0.004285510484603018,0.003970418492359372,0.9870683086288357
2014-09-10,-1,-0.00033633332802379044,-0.00017973037798573382,-0.002665629326201298,0.00405666498620495,0.9932521291080496
2014-09-12,-1,-0.0002017178725159624,-7.308140766791116e-05,-0.006222008358882116,0.003925197160236377,0.9914546929691335
2014-09-16,1,0.00012127617892760257,0.0002463954780261511,-0.00694734450335517,0.003925197160236377,0.9911456701847969
2014-09-18,1,0.0004504116796728637,0.000536055293213141,-0.00694734450335517,0.0024661063328578793,0.9912176247249754
2014-09-22,-1,-0.0003832494545008313,-0.00021262240042552063,-0.006428544431844014,0.0031580827025455825,0.9915776483432359
2014-09-24,-1,-0.0015845567484713214,-0.0012541144026172323,-0.004768191615410448,0.0038289710899386273,0.992413389661587
2014-09-26,-1,-0.001961126867138053,-0.001592308599858389,-0.0028265230364704413,0.005423511857599794,0.9912094522159135
2014-09-30,-1,-0.0015559437828111305,-0.0012681900734170873,-0.0032027772749697253,0.0056810070228,0.9910385967582214
2014-10-02,-1,-0.0008286790521766656,-0.000681547255005245,-0.0032027772749697253,0.00822031417990306,0.9903021786243691
2014-10-06,-1,-0.0004339591158859829,-0.0003051568692952051,-0.0032027772749697253,0.00822031417990306,0.9904176516825015
2014-10-08,1,0.000605960931142047,0.0006721130544108921,-0.0032027772749697253,0.00822031417990306,0.9899976358143452
2014-10-10,-1,-0.0023138246727247946,-0.002006713579724798,-0.001802053736020555,0.010592789184139,0.9904741732928891
2014-10-14,-1,-0.0018568574751936266,-0.0016189083363469699,-0.0012163384741125517,0.010592789184139,0.990693497941578
2014-10-16,-1,-0.0015623589759212312,-0.0013912553341606248,0.0016891923955617858,0.011505333297529166,0.9898455505333801
2014-10-20,-1,-0.001248032640136028,-0.0011418652804488483,0.0016891923955617858,0.011505333297529166,0.9901798186426006
2014-10-22,-1,-0.0010740039372760845,-0.001002188242599579,0.0007608040461264468,0.011505333297529166,0.9895752544347651
2014-10-24,1,0.0007184577926247419,0.0009585087877799084,0.0007608040461264468,0.01036849799803763,0.9913414086566619
2014-10-28,1,0.0012287579390864098,0.0015736274638521895,0.0007608040461264468,0.01036849799803763,0.991724328453377
2014-10-30,1,0.001441650768672525,0.001765697797340534,-0.0008067460349665546,0.009241819840877123,0.9921160043865422
2014-11-03,1,0.0016498083508385485,0.0019684610392121655,-0.0010083796969526497,0.008094371493700672,0.9916823557826233
2014-11-05,1,0.0030703312603495144,0.003572782694686117,-0.0008067460349665546,0.008094371493700672,0.9908519421252916
2014-11-07,1,0.0036174751787993826,0.004183499292356999,-0.0008067460349665546,0.008094371493700672,0.9913565554163529
2014-11-11,1,0.0039898899931768315,0.004584943498171261,-0.0027813465000831616,0.0076265285189621446,0.9908099586595714
2014-11-13,1,0.004203303280544924,0.004794031537079645,-0.004849451702701832,0.007301890642938087,0.990491653625301
2014-11-17,1,0.004304610369618874,0.0049009687165921505,-0.005603606917944723,0.006371661660427651,0.9903579911029604
2014-11-19,1,0.0036377260094984233,0.004168909490094241,-0.0027813465000831616,0.0077824310490708865,0.9913436460764566
2014-11-21,1,0.003928493447843358,0.00449725685861813,-0.0035035282920586634,0.007301890642938087,0.9911742800334398
2014-11-25,1,0.0038984204264777447,0.00445470637992317,-0.0035035282920586634,0.00790513883767456,0.9909270103100786
2014-11-28,1,0.0037669203240187016,0.004274166902713497,-0.003925319634666092,0.00790513883767456,0.9904210825136741
2014-12-02,1,0.0030999477302581227,0.003472805265126197,-0.003925319634666092,0.007278230833811671,0.9906079641142078
2014-12-04,1,0.0055044181055012385,0.0062039472592710036,-0.008016808934807163,0.00623624490174473,0.9913851114313207
2014-12-08,1,0.005706032557366901,0.006428336837996722,-0.008016808934807163,0.00623624490174473,0.9907514384762445
2014-12-10,1,0.004954130274037358,0.005583061056715216,-0.008016808934807163,0.00623624490174473,0.9911994932675213
2014-12-12,1,0.004792995355300729,0.005401791353863468,-0.008105718678870267,0.00709934279680072,0.9911067424543056
2014-12-16,1,0.004443412751996355,0.004987106326552301,-0.008849884509060013,0.00709934279680072,0.9904709140599988
2014-12-18,1,0.0048380217622385445,0.00540061763142426,-0.009199794273369147,0.003761270719554556,0.9895221822255558
2014-12-22,1,0.0047341319037654764,0.00526847871125736,-0.009199794273369147,0.004173942484086911,0.9887340951234739
2014-12-24,1,0.005073554568696438,0.005643834880610456,-0.009199794273369147,0.0035533031695269344,0.988642622884269
2014-12-29,1,0.004428249991506553,0.004900061475158021,-0.009872039290110981,0.004821424893850638,0.9890677022187
2014-12-31,1,0.003726816730299085,0.004083339549782308,-0.009872039290110981,0.004821424893850638,0.9884477039296434
2015-01-05,1,0.002685696855881648,0.0028981027190565552,-0.009199794273369147,0.008849638672431612,0.9889942184828471
2015-01-07,1,0.0032025251053350275,0.0035025405479873523,-0.009872039290110981,0.006475440146717856,0.9883891783022125
2015-01-09,1,0.002511809645608531,0.00271575804214627,-0.009199794273369147,0.006475440146717856,0.9894803931482166
2015-01-13,1,0.0024907706154952336,0.002705226592623633,-0.007112961536061389,0.006987720728751682,0.9897638775435302
2015-01-15,1,0.002087125375646341,0.0022787694886112946,-0.005622632561136751,0.01338166358272976,0.9889655299988196
2015-01-20,1,0.002186917221292075,0.002375746093664318,-0.005049774053809083,0.012527154687576349,0.9895241950252277
2015-01-22,1,0.0026619260871348577,0.0028942477657347577,-0.005049774053809083,0.012527154687576349,0.9900023998141582
2015-01-26,1,0.002518641561650498,0.002726118091168492,-0.005314858499377835,0.012527154687576349,0.9896764864162811
2015-01-28,1,0.0022255061450835185,0.002400642348218178,-0.005314858499377835,0.012527154687576349,0.9898650297935111
2015-01-30,1,0.0010150910761856525,0.0010196509150155128,-0.002899004393196004,0.01338166358272976,0.9902607380653329
2015-02-03,1,0.0011677387953208792,0.0012257897403873074,-0.005314858499377835,0.012527154687576349,0.9909251090392663
2015-02-05,1,0.00011331418703027169,0.0002999042941402145,-0.0048775925999157005,0.012527154687576349,0.991000378624694
2015-02-09,1,0.0003444033270035488,0.0004851997399521573,-0.00585748783398405,0.012527154687576349,0.9899497167216288
2015-02-11,1,0.0009608774263071756,0.0010195010524394767,-0.00585748783398405,0.010919824800333006,0.9898214205215485
2015-02-13,1,0.00187878112888872,0.0018933190673956686,-0.00878131286489047,0.008643713133752114,0.9904923306957217
2015-02-18,1,0.0012901611370266526,0.0013972487885962532,-0.00878131286489047,0.008230645381372918,0.990989218882958
2015-02-20,1,0.001773334416391567,0.001849905940837829,-0.00878131286489047,0.008230645381372918,0.9895896488332753
2015-02-24,1,0.000997075055337326,0.0011749722378659637,-0.00906138730838099,0.008941206322792477,0.9887784550471734
2015-02-26,1,0.0005069998900030238,0.0007832631471261357,-0.011793726977382946,0.008941206322792477,0.9843225275433269
2015-03-02,1,0.001144778391964748,0.0013281935238172071,-0.011793726977382946,0.008862916773404013,0.9845629154596542
2015-03-04,1,0.0010050900053198255,0.0011453841424903717,-0.0093694805518149,0.008862916773404013,0.9849707347852185
2015-03-06,-1,-0.001302211216001565,-0.0007999804900491517,-0.006783639508994488,0.008862916773404013,0.9852002278039024
2015-03-10,-1,-0.001812329828189031,-0.0012495133970058716,-0.00130368071720105,0.008862916773404013,0.9858879036523579
2015-03-12,-1,-0.0014625034199668872,-0.0009222895825567398,-0.0030626588294813354,0.006613549844381312,0.9867362844006358
2015-03-16,-1,-0.0022702466595386117,-0.001621327449114342,-0.0030626588294813354,0.006099734081844709,0.9869066964637101
2015-03-18,-1,-0.0028276534780410684,-0.002102237098942678,-0.001720862281894353,0.006099734081844709,0.986750419893839
2015-03-20,0,-0.0003665554875813921,2.9156953415925653e-05,-0.0030626588294813354,0.00572869443808265,0.988153853170192
2015-03-24,-1,-0.0011128026982418604,-0.0006250158020848669,-0.001720862281894353,0.004629237498542993,0.9893146208154832
2015-03-26,-1,-0.0046213005263968125,-0.003752836023809402,-0.0009538591980386933,0.004530361380810356,0.9918551740121541
2015-03-30,-1,-0.0038303133754851977,-0.003075138453289691,-0.001307194015140154,0.004096169694748896,0.9925955124935645
2015-04-01,-1,-0.0033205567320463564,-0.002695621150050358,-0.001720862281894353,0.004096169694748896,0.9924400788275781
2015-04-06,-1,-0.0026129932913536774,-0.002106397886822144,-0.001720862281894353,0.005357031469090051,0.9925336241859805
2015-04-08,-1,-0.002150609728772115,-0.0017314790692701553,-0.004974251918482131,0.005357031469090051,0.9922756575733319
2015-04-10,-1,-0.0016909768132379206,-0.0013550037335064251,-0.004974251918482131,0.006352973685316234,0.9909342301277573
2015-04-14,-1,-0.0022630510265862066,-0.0018738215193029254,-0.004974251918482131,0.006352973685316234,0.9875655670604594
2015-04-16,-1,-0.0027778969784335054,-0.00228158106675841,-0.004974251918482131,0.011988665442069122,0.9858792714592268
2015-04-20,-1,-0.0029181407872122577,-0.0024246847059944234,-0.0017942064552504244,0.011988665442069122,0.986090281914064
2015-04-22,-1,-0.0027416673350895244,-0.0022716243841133443,-0.0017942064552504244,0.011988665442069122,0.9858555123565866
2015-04-24,-1,-0.0023566771434033436,-0.0019417704081999335,-0.004974251918482131,0.011988665442069122,0.98620428993119
2015-04-28,-1,-0.0021189543191027574,-0.001719544365033481,-0.009062135188017078,0.012331086988681406,0.9852162005306773
2015-04-30,-1,-0.0013427268998435168,-0.0011736481685561333,-0.004535646234970981,0.012331086988681406,0.9855292779927861
2015-05-04,-1,-0.0004886947519069962,-0.0004418128121046819,-0.004535646234970981,0.012331086988681406,0.9859789560188071
2015-05-06,-1,-0.0017991068836135447,-0.0015624761306575054,-0.004476809795258681,0.012366787162284797,0.985539692395454
2015-05-08,-1,-0.00045202988513060293,-0.00036825026157981383,-0.00740377164298861,0.01022305723404255,0.9870445891952769
2015-05-12,-1,-0.003476385479501574,-0.003036119536216581,-0.0067914454070931475,0.012366787162284797,0.9897178861883764
2015-05-14,-1,-0.0014330338595310139,-0.0012785147268110017,-0.00740377164298861,0.008388526424476916,0.9908983529647202
2015-05-18,0,-9.594109248569016e-06,1.2212608125728239e-05,-0.008090887181801534,0.006977224605515076,0.9913626691596694
2015-05-20,1,0.0007535878291249162,0.0009158820999164996,-0.008090887181801534,0.007186307089805436,0.9912763025387118
2015-05-22,1,0.00012264213722713182,0.00018034690598083157,-0.00740377164298861,0.007186307089805436,0.9913699514684213
2015-05-27,1,0.0002256110858714487,0.00027524879946576444,-0.00741414113860165,0.006422688683423208,0.9922204227499386
2015-05-29,-1,-0.000348146878007897,-0.00027676646946821236,-0.00741414113860165,0.006031365868602532,0.9928439152302091
2015-06-02,1,0.00013051607314081763,0.0001442946442950411,-0.0084987939276708,0.005888658893465603,0.9917552764805275
2015-06-04,-1,-0.00022275730254621055,-0.00016154327681615325,-0.008322278607575203,0.005888658893465603,0.992032155813348
2015-06-08,-1,-0.0007094580580779344,-0.0005886327717302897,-0.007988079058870336,0.005888658893465603,0.9925031797797671
2015-06-10,-1,-0.0008691636170391505,-0.0006960471115930202,-0.010220607688476858,0.002771283088626765,0.9926086244773376
2015-06-12,-1,-0.0008500385982062356,-0.0006981751567726028,-0.007988079058870336,0.002783120293808188,0.9926082248724138
2015-06-16,-1,-0.00048649283993818193,-0.0004183698888638589,-0.006944552774686176,0.0021738048416979185,0.9932531013872469
2015-06-18,-1,-0.00018134115558913948,-0.00014974112595063054,-0.006944552774686176,0.0021699141610524546,0.9932658981614126
2015-06-22,-1,-0.00040711849951833695,-0.0003344488363334894,-0.005902801965460582,0.0017998254001907353,0.9937720333787722
2015-06-24,-1,-0.0018600455861861455,-0.0015611378169839824,-0.0040601466910942146,0.0017998254001907353,0.9944203082986689
2015-06-26,-1,-0.0012834473311351523,-0.0011144547042989759,-0.006795664519538662,0.0017998254001907353,0.9923020464289903
2015-06-30,-1,-0.0029176805402205035,-0.00251494201998775,-0.005505330452350024,0.0034752366586324017,0.9901983625500503
2015-07-02,-1,-0.0028100512766232708,-0.0024263091037475455,-0.00342000466371804,0.0034752366586324017,0.9905085062386033
2015-07-07,-1,-0.0023590996850799007,-0.002063499235836301,-0.005505330452350024,0.003840676419295264,0.9899403997666855
2015-07-09,-1,-0.0019687398591290714,-0.0018022154745950807,-0.005505330452350024,0.005590522380686983,0.9857460198500968
2015-07-13,-1,-0.0010991999324655908,-0.0010525226223908795,-0.005505330452350024,0.007482058126977699,0.9848565847541322
2015-07-15,-1,-0.0002984591002556773,-0.00018646616989205093,-0.005505330452350024,0.007482058126977699,0.9850348844474923
2015-07-17,-1,-0.00046933575477795377,-0.0004003816382868383,-0.004460563932547068,0.007884654069319675,0.9848331611416004
2015-07-21,-1,-0.0004709394883383909,-0.00041151264525671205,-0.004460563932547068,0.007884654069319675,0.9846407550364777
2015-07-23,-1,-0.0003674844576575088,-0.0002568966018451098,-0.006386004007914815,0.007884654069319675,0.9839866822552077
2015-07-27,-1,-0.0024191052896210454,-0.0022580502917207822,-0.006386004007914815,0.007884654069319675,0.9825878572154351
2015-07-29,-1,-0.0002647169730913526,-0.00021563515307936794,-0.014491766067570149,0.007482058126977699,0.9829002532114557
2015-07-31,0,-3.545648478134046e-06,6.724347400301249e-05,-0.014491766067570149,0.008686284596037423,0.98210902345685
2015-08-04,1,0.00011320363499488413,0.00024035708260163036,-0.018195451320775866,0.008686284596037423,0.9806096917361862
2015-08-06,1,0.002150228091814678,0.0025225612916796106,-0.01126490437176389,0.008686284596037423,0.9843494274791574
2015-08-10,1,0.003126301657045643,0.0036158387329836973,-0.016505637900538443,0.008686284596037423,0.982824865459245
2015-08-12,1,0.0038128475578421655,0.004492788802324345,-0.016505637900538443,0.008686284596037423,0.9825283506836081
2015-08-14,1,0.0037559544123877634,0.0044065671190257885,-0.016505637900538443,0.007795650478370201,0.9821260872083877
2015-08-18,1,0.002113060729175301,0.002375548921545916,-0.016505637900538443,0.011012035811745313,0.9815214272147172
2015-08-20,1,0.0016765558201773745,0.0019057078027106616,-0.014076436514028677,0.011012035811745313,0.9826114256293992
2015-08-24,-1,-0.0005159963330875431,-0.000452584255776941,-0.011180459324781867,0.011012035811745313,0.9842189973385834
2015-08-26,1,8.062144465698758e-05,0.00010237463197799812,-0.011180459324781867,0.009036281727215018,0.9860526650404522
2015-08-28,1,0.0008124204319925065,0.0009351511064782287,-0.014076436514028677,0.0077972854863564405,0.9857809971227409
2015-09-01,-1,-0.0004897732892275763,-0.00045184866075314374,-0.011180459324781867,0.0077972854863564405,0.9877496042148
2015-09-03,-1,-1.479237606700041e-05,-9.021272097381668e-06,-0.011180459324781867,0.0077972854863564405,0.9881236812831675
2015-09-08,1,0.0007418669701844904,0.0008386925354535064,-0.0029434645004558103,0.00796046674141708,0.9893535056865022
2015-09-10,1,0.0005108765867801521,0.0005622182507845258,6.522130563503187e-05,0.010931403554259783,0.9883045473558285
2015-09-14,1,0.00037912811574612385,0.0004195972345403794,6.522130563503187e-05,0.010931403554259783,0.9888079518178977
2015-09-16,1,0.001238939734412662,0.0014045180475111539,-0.005303229450594018,0.008153496162953628,0.989001214252028
2015-09-18,1,0.0015694520153948178,0.0017952722840764068,-0.005303229450594018,0.008153496162953628,0.9890342316185853
2015-09-22,1,0.0006777084813677297,0.0007457557489702097,-0.0018834608168313645,0.010045140316054224,0.9895850116110819
2015-09-24,1,0.00023029060399820813,0.0002607582142461313,-0.0018834608168313645,0.011068190071985704,0.9896175372400691
2015-09-28,-1,-0.0005998462710750099,-0.0004977203351434869,-0.000208761985931319,0.012609537549648433,0.9895242451032904
2015-09-30,1,9.35142776544917e-05,0.00012597459861851055,0.0016060644975973669,0.014999662753634688,0.9879855835606818
2015-10-02,-1,-0.0006091366928314922,-0.00044504639604818594,0.0024683823103251144,0.01661284089835864,0.9847295814448067
2015-10-06,1,0.001125676161086707,0.0012253280608815994,0.0024683823103251144,0.01661284089835864,0.9850622069902901
2015-10-08,1,0.0026557675151880618,0.0030115972371584673,-0.0018834608168313645,0.012114903288403865,0.9865849718223729
2015-10-12,1,0.0028607568126722406,0.003259937328260741,-0.0016264011606963238,0.012114903288403865,0.9869214355272009
2015-10-14,1,0.0017945323541643855,0.002027647172208033,0.0017920343894430692,0.012319598409612805,0.9871626408925743
2015-10-16,1,0.002104123700866802,0.002388707169538828,-0.0021682077601192515,0.012319598409612805,0.9851384908599795
2015-10-20,1,0.0023256142885498005,0.0026357588552630125,-0.0021682077601192515,0.015166241763160103,0.9841215026242884
2015-10-22,1,0.00245606007670064,0.0027882253039391916,-0.0012608221306083787,0.015166241763160103,0.9845674921845675
2015-10-26,1,0.003243937331869849,0.003678897301507727,-0.0012608221306083787,0.013622926253500789,0.9852202350311292
2015-10-28,1,0.004195113660698395,0.004732116795760505,-0.0012608221306083787,0.012319598409612805,0.9865817386513273
2015-10-30,1,0.006524749839486369,0.007373887027397497,-0.0020550162991331876,0.011746530434500971,0.9897781607084517
2015-11-03,1,0.007627341158025007,0.008603887439629272,-0.0028914489186728314,0.011453080937906063,0.9899861091803402
2015-11-05,1,0.00724488579893906,0.008153892355108288,-0.0028914489186728314,0.011758964984012694,0.9886693656074785
2015-11-09,1,0.00719636408149495,0.008101613866221753,-0.005854682785479896,0.011758964984012694,0.9876315096851525
2015-11-11,1,0.007199739666722146,0.008093038168530686,-0.011436073760752808,0.011453080937906063,0.9866711120042976
2015-11-13,1,0.005235077536929971,0.0058261803610604205,-0.005854682785479896,0.011453080937906063,0.9876775664031999
2015-11-17,1,0.006126785459490965,0.006816593202773627,-0.005854682785479896,0.011221627260286469,0.9878199598060162
2015-11-19,1,0.005737827223628115,0.006312166359377573,-0.011436073760752808,0.011221627260286469,0.9863973506342755
2015-11-23,1,0.006095152257191724,0.006706155966657122,-0.011436073760752808,0.01015106067569076,0.9860235638767966
2015-11-25,1,0.0060973578788598125,0.006693749536705015,-0.011436073760752808,0.01015106067569076,0.9855382301935975
2015-11-30,1,0.0056497387383902305,0.00613117402454365,-0.011436073760752808,0.01015106067569076,0.985849790081717
2015-12-02,1,0.005807077757989025,0.006321111994330001,-0.01609226589339898,0.009357057166535038,0.9853521338493171
2015-12-04,1,0.005879669408260699,0.006396499597854131,-0.01609226589339898,0.009357057166535038,0.9848018538621203
2015-12-08,1,0.00483392369690027,0.005195467505067022,-0.018234646155944313,0.009357057166535038,0.9840066537636385
2015-12-10,1,0.0040428033111960405,0.004290059133747023,-0.017140917124210935,0.008717965338279466,0.9853478482118246
2015-12-14,1,0.0028051554371378365,0.002856472197159328,-0.017140917124210935,0.009357057166535038,0.9833904006838293
2015-12-16,1,0.002627035297442221,0.0026859503398539526,-0.017140917124210935,0.008717965338279466,0.9823164594215282
2015-12-18,1,0.002324800326825527,0.0023298666541334704,-0.017140917124210935,0.011983418329454322,0.9816144647019311
2015-12-22,1,0.002126876013887952,0.002137690166471384,-0.017381220335021028,0.020561176063168644,0.9805603193732477
2015-12-24,1,0.0023712164938287255,0.002386617436863978,-0.023911867682742147,0.01149729915342888,0.9758825764760778
2015-12-29,1,0.00348862729260737,0.00373649853075289,-0.025233379347997135,0.008076347225802905,0.9724087872041303
2015-12-31,1,0.003021789660866101,0.0032625500053485405,-0.025233379347997135,0.013799352161147069,0.9731139044656306
2016-01-05,1,0.002207276425296876,0.00232447922226399,-0.025233379347997135,0.005902324687884407,0.9742087407470675
2016-01-07,1,0.0008527678674764334,0.0009073534486221436,-0.027380558474154677,0.010049223531229497,0.9741660112887173
2016-01-11,1,0.0007141495660501465,0.0007849683543800604,-0.027380558474154677,0.010049223531229497,0.9736637809023264
2016-01-13,1,0.0007035676682110941,0.0008173898788498472,-0.02445843452662775,0.0018404413707784509,0.9764305422304228
2016-01-15,0,-0.00025233018090125496,0.000113626685805199,-0.02445843452662775,0.010049223531229497,0.9766853251479625
2016-01-20,-1,-0.0004974387441324681,-0.00011490007853864241,-0.02496591312112848,0.010049223531229497,0.9757689087969352
2016-01-22,0,-7.782091471428742e-05,0.00022613727250000418,-0.02496591312112848,0.010049223531229497,0.9761323470652874
2016-01-26,-1,-0.005480275574100261,-0.0044472844815252625,-0.017535884815578592,0.010049223531229497,0.982461681179928
2016-01-28,-1,-0.007586307446677015,-0.006342301584156745,-0.011476501446176929,0.013126613483634562,0.9838978221290801
2016-02-01,-1,-0.007183626799700195,-0.0060240156521288845,-0.010915368473957174,0.018773101357282294,0.9826245858789415
2016-02-03,-1,-0.008602973547136072,-0.007269724563391902,-0.008114431676876357,0.022111758619653463,0.9810758526656532
2016-02-05,-1,-0.010143976008508079,-0.00861722189058189,-0.007208601620194307,0.022111758619653463,0.980842345628238
2016-02-09,-1,-0.010246319576841125,-0.008758441249976878,-0.007208601620194307,0.022111758619653463,0.9808013457346508
2016-02-11,-1,-0.01071261402522115,-0.009185755901786193,-0.005357240388218988,0.022400970940628064,0.9779657070506286
2016-02-16,-1,-0.009039854048682752,-0.0076742081638533875,-0.007208601620194307,0.021660151600946337,0.9824256758782866
2016-02-18,-1,-0.0104474926206958,-0.008874562704989056,-0.005357240388218988,0.020787529682035268,0.9822521224069035
2016-02-22,-1,-0.010312345406446523,-0.008727266885809794,-0.004398170854861477,0.01835873096147233,0.9821831773410792
2016-02-24,-1,-0.010542486171792636,-0.008934674716071936,-0.004398170854861477,0.01835873096147233,0.9819875492840888
2016-02-26,-1,-0.00976266970983743,-0.008282147978145263,-0.0018305589555314972,0.017264406621037107,0.9826076531817359
2016-03-01,-1,-0.007762389208885308,-0.006579427039211332,-0.004398170854861477,0.017264406621037107,0.9844547904049491
2016-03-03,-1,-0.005836247223362123,-0.004944067444000574,-0.004398170854861477,0.017264406621037107,0.9856869934589518
2016-03-07,-1,-0.004955860039257223,-0.004170738403322557,-0.0048240094796364865,0.01582995311204477,0.9869380915681099
2016-03-09,-1,-0.006641290037578691,-0.005609405973898692,-0.0044145445373975165,0.01582995311204477,0.9862930365672995
2016-03-11,-1,-0.0048783522977121335,-0.004066258044387681,-0.004930349888193615,0.008704599808899207,0.9894101153289886
2016-03-15,-1,-0.005425222478602642,-0.0045629697514736976,-0.0019834209521471936,0.012557896495787785,0.987760138883873
2016-03-17,-1,-0.004157536079577471,-0.003447615035067792,-0.004930349888193615,0.008704599808899207,0.9888962266069763
2016-03-21,-1,-0.0029722839660850054,-0.0024479916080283846,-0.0065057696198000245,0.007632911892589921,0.9893918939661231
2016-03-23,-1,-0.0023231277306538668,-0.0019463707789396992,-0.010668793357995855,0.007632911892589921,0.9891589390598629
2016-03-28,-1,-0.0003337627781073952,-0.00032849564493722547,-0.010668793357995855,0.008421041223882512,0.9890752766858315
2016-03-30,1,0.0009295978602316153,0.0011814620166886274,-0.010668793357995855,0.008311270162606549,0.989616635980519
2016-04-01,1,0.0018232248931984761,0.0021901556237328597,-0.01108127434540518,0.007179996902201577,0.9896894145805241
2016-04-05,1,0.001724378928137003,0.0020818766835927235,-0.010668793357995855,0.004860331031958386,0.9900547195532025
2016-04-07,1,0.001714746736211856,0.0020895633939262,-0.009978755994529407,0.004732802819479831,0.9901512227649634
2016-04-11,1,0.0009647140597261477,0.0011568935933946047,-0.009978755994529407,0.0069894375516914575,0.9902468684574393
2016-04-13,1,0.0024154377433171313,0.002872190132002474,-0.011286541522351963,0.0069894375516914575,0.9896650734550398
2016-04-15,1,0.0025506365443546527,0.0030450200489424246,-0.010249662465033303,0.0069894375516914575,0.9901538682995733
2016-04-19,1,0.0028024123771712888,0.003373215466963119,-0.010249662465033303,0.007596517807023366,0.9893591902641324
2016-04-21,1,0.002751089857005394,0.0033395403470662614,-0.009844408053328816,0.007596517807023366,0.989680933953257
2016-04-25,1,0.003058199688360266,0.003700362800738651,-0.010367630979534253,0.007596517807023366,0.9889477640938508
2016-04-27,1,0.0029069888967110345,0.0035487060834956466,-0.009844408053328816,0.008083456366562951,0.9893457288146102
2016-04-29,1,0.002585172692188666,0.0032082570751943273,-0.009683438259726547,0.008083456366562951,0.9905493807004063
2016-05-03,1,0.002150053678528282,0.0026836835089993237,-0.009844408053328816,0.008333808143566544,0.9902349791021242
2016-05-05,1,0.001877824150864245,0.002358167807567789,-0.010367630979534253,0.008333808143566544,0.989816836624405
2016-05-09,1,0.0016899388430830146,0.0021020041635360248,-0.010367630979534253,0.008333808143566544,0.9896960669633954
2016-05-11,1,0.0022091872799168384,0.0027573520484382545,-0.007646229896675143,0.007139302784547447,0.9907938203063074
2016-05-13,1,0.0019341703241925964,0.0023995100533244305,-0.009900404679568696,0.0067461492596576035,0.9902292049787035
2016-05-17,1,0.001764380599295008,0.002208862645801807,-0.009900404679568696,0.0059873452423997685,0.9911074007788423
2016-05-19,1,0.0022523508259916425,0.0028065288590748143,-0.009900404679568696,0.0057499853510707705,0.990878866374932
2016-05-23,1,0.002761752022741173,0.003406706756472184,-0.008564923805874175,0.0057499853510707705,0.9914984560763878
2016-05-25,1,0.002780681951170038,0.0033817771672955913,-0.009728862850071011,0.00556847145560199,0.9919535046345921
2016-05-27,1,0.002832044814185042,0.0034101225461658008,-0.010631039399467595,0.0047794116092478725,0.9897333990238805
2016-06-01,1,0.0021511958035157486,0.0025694565796695393,-0.009728862850071011,0.006088660947858736,0.9898585957726256
2016-06-03,1,0.001927906985333953,0.0023121926391287072,-0.008564923805874175,0.007773784045304868,0.9891339496862527
2016-06-07,1,0.0021905229618592852,0.002643346661312741,-0.008564923805874175,0.009625530960236526,0.9888874367233351
2016-06-09,1,0.0027837729594677157,0.0033678983624005265,-0.008564923805874175,0.011833714353067532,0.9881186012489751
2016-06-13,1,0.002121676724978853,0.0026282965633668246,-0.005606760741718157,0.015175528181273336,0.985580986617284
2016-06-15,1,0.001954545567558738,0.0024619302126028288,-0.002981472119013564,0.01732968183052069,0.9851648816464604
2016-06-17,-1,-0.00030460735829660986,-0.0002925899990738883,-0.004330924594895394,0.01732968183052069,0.9837498944570782
2016-06-21,-1,-0.00097361034900011,-0.0007630876514071276,-0.005533420298307141,0.015175528181273336,0.9840530512046856
2016-06-23,-1,-0.00115216930537692,-0.0009228712681080035,-0.004330924594895394,0.018259657463313886,0.983257591829585
2016-06-27,-1,-0.003602931483008275,-0.0030200173579923023,-0.0024275487783003828,0.021930911561628175,0.9826768563963879
2016-06-29,-1,-0.003517212090601264,-0.002880795277894649,-0.004330924594895394,0.021930911561628175,0.9823220042200919
2016-07-01,-1,-0.002649837905956627,-0.00207268381426985,-0.005533420298307141,0.013615048856427319,0.9836789142190139
2016-07-06,-1,-0.003107778677548587,-0.002430799272558188,-0.009130765525446418,0.013360816688181938,0.9822599972952638
2016-07-08,-1,-0.0007596293770065737,-0.000458183603620056,-0.013543937306277917,0.01179784594637178,0.9825467485874821
2016-07-12,-1,-0.0028773228226416396,-0.0022866036368084583,-0.009130765525446418,0.009460796530618881,0.9862031022049776
2016-07-14,-1,-0.0016352226526395904,-0.0012054065163606765,-0.009130765525446418,0.008977943433805376,0.9864540043441705
2016-07-18,-1,-0.0028310619787832577,-0.002237165475357218,-0.007599256357410544,0.01179784594637178,0.9854568563611987
2016-07-20,-1,-0.0023394232477603376,-0.0018542159035725774,-0.008767600623295006,0.01754941080173109,0.9801022696427271
2016-07-22,-1,-0.0006642265377468269,-0.0004638873823035025,-0.008767600623295006,0.01754941080173109,0.9805542456488276
2016-07-26,1,0.000434742153729491,0.0004729021668295493,-0.008767600623295006,0.016992585169313595,0.9808014368990061
2016-07-28,1,7.922922820016194e-05,0.0001337491867281102,-0.007607649613009455,0.016992585169313595,0.9822070482303277
2016-08-01,-1,-0.00045755451640314517,-0.00030495383872966217,-0.006888075501347108,0.016992585169313595,0.9825868719794001
2016-08-03,-1,-0.0009182664746469169,-0.0007627595268391089,-0.005597077900247506,0.016992585169313595,0.9839228441283349
2016-08-05,-1,-0.0013129827968714047,-0.0010892054859100112,-0.004141860648017336,0.01576720453061048,0.9846771525543476
2016-08-09,-1,-0.0011382683743645847,-0.0009753166024672279,-0.0013115114672034415,0.01645523733498159,0.9839545858885156
2016-08-11,-1,-0.0002356055247641004,-0.00019965173109788998,-0.0021898447161316768,0.013993089254651024,0.9847308379362538
2016-08-15,1,0.0003885318227312363,0.0004214733120292163,-0.004506623638530578,0.013993089254651024,0.9843521967306206
2016-08-17,-1,-0.0012910116269322235,-0.0011313668149759487,-0.0034765336683815866,0.013993089254651024,0.9894628167809807
2016-08-19,-1,-0.0003969723761160121,-0.0003585355282719736,-0.004506623638530578,0.013993089254651024,0.9893955243961413
2016-08-23,1,0.0003053054842767015,0.0003921957144168897,-0.0034765336683815866,0.012164054325258963,0.9902097305705917
2016-08-25,1,7.805459493827633e-05,0.00012981068541522006,-0.002750997927447502,0.013993089254651024,0.989689321350024
2016-08-29,1,0.00019817873875860485,0.0002583793208914081,-0.0018815144390493845,0.013993089254651024,0.9899155820371317
2016-08-31,1,0.0004689944390562381,0.0005639537265130458,-0.002750997927447502,0.011952503145543015,0.9899532247206158
2016-09-02,1,0.0011373730705077694,0.001355295910991961,-0.005898066426513098,0.011692637887059291,0.9899233481968871
2016-09-07,1,0.0016098863667264388,0.0018876290919194439,-0.00911487663002393,0.009435617381341837,0.9900745128720314
2016-09-09,1,0.001219886739374784,0.001439416677060329,-0.00911487663002393,0.011694405459719346,0.9894738212099706
2016-09-13,1,0.0011028720825493358,0.0012933224232118984,-0.00911487663002393,0.009435617381341837,0.9904754887172755
2016-09-15,1,0.0014900791170663111,0.0017381410983798753,-0.00911487663002393,0.009435617381341837,0.9903220628108098
2016-09-19,1,0.0013995195956999933,0.0016193759837625971,-0.008472201220672531,0.0067211577085029995,0.9910678834523191
2016-09-21,1,0.001313034213801872,0.0014928538080999682,-0.008472201220672531,0.005630756586585863,0.9915695310333549
2016-09-23,1,0.0014973847913400584,0.001689093753374121,-0.008472201220672531,0.003907006082080414,0.9924013753544707
2016-09-27,1,0.0016071078138137082,0.0018021982541574387,-0.00911487663002393,0.003907006082080414,0.9916685545874385
2016-09-29,1,0.001515118344099111,0.0017013153808189707,-0.009724962800186315,0.0033571113152977873,0.9916183860194371
2016-10-03,1,0.0010564015389064683,0.0011734075594267905,-0.008472201220672531,0.0044152840667490536,0.9923666477938525
2016-10-05,1,0.0007449544438353205,0.0008217486908712107,-0.007813977665170793,0.0044152840667490536,0.9926049957749215
2016-10-07,1,0.0005486444595310984,0.0005874073831984441,-0.007813977665170793,0.0044152840667490536,0.9896695903549045
2016-10-11,1,0.00013059400110079983,0.00014564994139228772,-0.007813977665170793,0.005387371042458806,0.989298243358549
2016-10-13,1,0.0003700840433646652,0.0003928008441082356,-0.005352290891833593,0.006466948690080739,0.9879522039367099
2016-10-17,1,0.00044543577887082346,0.0004937456726941012,-0.004214440391005091,0.010525181083772612,0.9870223560787278
2016-10-19,1,0.0006426508630322759,0.0007289332561093071,-0.004214440391005091,0.011554586868710364,0.9866760776574659
2016-10-21,1,0.000660134539856802,0.0007421726350164176,-0.005113264344403172,0.014239058812485429,0.9856661429639425
2016-10-25,1,0.00047195747899588046,0.0005185587143456231,-0.004214440391005091,0.017329577125018675,0.9856475789128603
2016-10-27,1,0.00011157215265160595,0.00011567366522049303,-0.0018049032446105374,0.017329577125018675,0.9857586572849037
2016-10-31,1,0.00032428451487559164,0.0003489910390023938,-0.0018049032446105374,0.018685457339386816,0.9850747174023515
2016-11-02,-1,-0.00032667722020367104,-0.00023725157686917375,-0.0002608474487220923,0.018685457339386816,0.9851952138763892
2016-11-04,1,0.000931208418392871,0.0009749850600866383,0.0003033436418871805,0.017329577125018675,0.9895361269800104
2016-11-08,1,0.0005687925889804225,0.0005890838785496867,0.0003033436418871805,0.017329577125018675,0.9898770392679702
2016-11-10,1,0.0019472318465798848,0.002132781555551589,-9.565935330263234e-05,0.011554586868710364,0.9927694132934421
2016-11-14,1,0.002626286346900703,0.00288669230843936,-0.0005478255086299893,0.009970817058151494,0.9918715922042062
2016-11-16,1,0.0021938731247244008,0.0023285868837560272,-0.0003849810860947991,0.00782931242069473,0.9921194404098087
2016-11-18,1,0.0025649902234547804,0.0027760729200612044,-9.565935330263234e-05,0.006315090518296682,0.9932431165046736
2016-11-22,1,0.003425059433728832,0.003801574254708017,-0.0003849810860947991,0.005728152005281446,0.9941383362790923
2016-11-25,1,0.003564529303409393,0.003962067635740882,-0.0005866230102731579,0.00555444593311202,0.9935702332310647
2016-11-29,1,0.004397656999817652,0.004945723594433828,-0.0013636486154840876,0.0034302444279878707,0.9934032672785644
2016-12-01,1,0.0031916784362227973,0.0035285735956410635,-0.00267361039570265,0.004293632444329416,0.9937834856185835
2016-12-05,1,0.0035970838570747654,0.004020262451370563,-0.004002638345543395,0.0034302444279878707,0.9932979635589476
2016-12-07,1,0.0033194442198691155,0.0036742004570226817,-0.004002638345543395,0.003325047873197801,0.9931471246113484
2016-12-09,1,0.003212552312113926,0.0035467685240469166,-0.005011492194804276,0.0034302444279878707,0.9924931317670261
2016-12-13,1,0.0028257909214374306,0.003140142642465725,-0.004002638345543395,0.003325047873197801,0.9946066022693418
2016-12-15,1,0.0029489379318699367,0.0033122585060159993,-0.005011492194804276,0.0025835779848742556,0.9938615553338054
2016-12-19,1,0.002629780359953238,0.002918574858520556,-0.005011492194804276,0.0026832748349293624,0.9936458797429023
2016-12-21,1,0.0024874639164929415,0.00274988539929463,-0.00579607680230975,0.0006366076359001268,0.9932854830570005
2016-12-23,1,0.0017279012430306505,0.0018399559928151234,-0.005355879433846351,0.0037547063451749733,0.9939189929424633
2016-12-28,1,0.0014610387768128137,0.0015290425512476881,-0.004002638345543395,0.0036928234609236235,0.9942553696396503
2016-12-30,1,0.001282349207066341,0.0013064222515974963,-0.006540727389241054,0.001061011127488176,0.9936703699582786
2017-01-04,1,0.0014093085324445068,0.001475414930785239,-0.006540727389241054,0.001061011127488176,0.9933774765967459
2017-01-06,1,0.0013036967318188388,0.0013858387919664697,-0.0040789047132577935,0.004342261663007895,0.9933382784367764
2017-01-10,1,0.0006137554985854592,0.0008266605981620301,-0.0040789047132577935,0.004637498347923873,0.9938176891342958
2017-01-12,1,0.0006696082075872098,0.0008402195159801561,-0.0034996326378150112,0.0072609446016250875,0.9934416946172927
2017-01-17,1,0.0003088224081014558,0.0004992382518962758,-0.0023139944069887385,0.0072609446016250875,0.9939544464731238
2017-01-19,1,4.523780573760137e-05,0.00029219523623240666,-0.0010066691898781973,0.007829814374936996,0.9935773649872288
2017-01-23,-1,-0.0003488215443323287,-6.346364633049817e-05,-0.0004435835301953797,0.009232104550104033,0.9931166851627881
2017-01-25,0,-6.356427670101909e-05,0.00017485602265889996,-0.0014190632455937107,0.009435762986695543,0.9925516450804266
2017-01-27,0,-8.038397794107584e-06,0.00020318517470617275,-0.0008431407556637714,0.011281185199837226,0.9911437470736747
2017-01-31,-1,-0.0006018856806009338,-0.00035764888597172937,-0.0003401046490320225,0.01258355549793636,0.9901673757161621
2017-02-02,-1,-0.0005269554232239428,-0.00026492467429308506,-0.0008431407556637714,0.011281185199837226,0.9898796283162128
2017-02-06,1,7.26695919904324e-07,0.00020642795555841638,-0.003998134158725169,0.009435762986695543,0.9904538334864171
2017-02-08,1,7.559636441239873e-05,0.0002560695307561422,-0.003577541616845075,0.009435762986695543,0.9906739173620683
2017-02-10,1,0.00040771203798672094,0.0005570366365523654,-0.003577541616845075,0.009435762986695543,0.9902396848255927
2017-02-14,1,0.0005278599285787064,0.0006542288427690032,-0.00521520077488502,0.011642323255196815,0.9890624150031622
2017-02-16,1,0.0013002351905972672,0.0013197193649888118,-0.006806466771563771,0.010110645122968314,0.9885869118938635
2017-02-21,1,0.0017217365224748262,0.00177077261446275,-0.010275407438332074,0.0053616541254910745,0.9880604413882349
2017-02-23,1,0.0013666948940893365,0.0013799515491418606,-0.006806466771563771,0.003974216024804826,0.988890580768433
2017-02-27,1,0.0018111907402598609,0.0018135187387071433,-0.0106873268868467,0.003078122275138669,0.9892183034743331
2017-03-01,1,0.0016799239292769133,0.0017242896321422187,-0.006806466771563771,0.003078122275138669,0.990707351384469
2017-03-03,1,0.0006854591179184513,0.0008544737549467142,-0.006806466771563771,0.00211347234586712,0.9911210945316187
2017-03-07,-1,-0.00040267784600053,-6.849036923329568e-05,-0.007269397195400601,0.0033508066624076127,0.991469162211804
2017-03-09,-1,-0.000593614899690408,-0.00023650953992210917,-0.012399507666665425,0.002292773571562898,0.9911904565497461
2017-03-13,0,-0.00022817768155030576,0.00010038075223833722,-0.012399507666665425,0.002292773571562898,0.9916665634650842
2017-03-15,1,0.00018479256152589872,0.00046756756951869816,-0.012399507666665425,0.002292773571562898,0.9922562226614461
2017-03-17,-1,-0.0006404614872623977,-0.0002596488347627252,-0.0065607107115707095,0.002292773571562898,0.9929942919242563
2017-03-21,-1,-0.0018152394935421108,-0.001279869850945186,-0.00392076110416616,0.004223578662967209,0.9934479764828975
2017-03-23,-1,-0.002472788571536983,-0.0018291610979739958,-0.005530079908396719,0.007425814832642489,0.9924348197144715
2017-03-27,-1,-0.0031995659499242817,-0.0024814835809398163,-0.0038560480621076306,0.008193058370251877,0.9918630809658711
2017-03-29,-1,-0.0033256333840531995,-0.0025665726219509604,-0.0038560480621076306,0.007425814832642489,0.9921393648828672
2017-03-31,-1,-0.0033426110896415304,-0.002648765025217797,-0.002851114979599059,0.008527313729038652,0.9913826582264251
2017-04-04,-1,-0.004109762723144561,-0.003302867163554954,-0.0012441649605509802,0.008527313729038652,0.9912886101752794
2017-04-06,-1,-0.0035576131631778504,-0.00291366106640123,-0.00038226183685514926,0.011850890948997116,0.9911892416065928
2017-04-10,-1,-0.0022931834922546492,-0.0018649678366656794,-0.002851114979599059,0.0087897563284659,0.9912025197695997
2017-04-12,-1,-0.0020403402494514637,-0.001657937148616178,-0.0021965045819361964,0.008708635638913474,0.9915287568071375
2017-04-17,-1,-0.0013884582146966344,-0.0011031896717458931,-0.0012731698311263394,0.0057119927570125064,0.9922229656034955
2017-04-19,-1,-0.0005138904465661707,-0.0003735455579681722,-0.003566248715408131,0.007309920411278632,0.9908343691766868
2017-04-21,1,6.737618237904821e-05,0.00012157348468095483,-0.004945997626005046,0.006676202874966074,0.9908297188354126
2017-04-25,1,0.0012609131549177342,0.0014147314710093494,-0.004945997626005046,0.01212641717357112,0.9895655483420193
2017-04-27,1,0.001322269400641847,0.0014794011281810686,-0.004945997626005046,0.01212641717357112,0.9895686581646804
2017-05-01,1,0.00165002202499008,0.0018794899517034333,-0.0028463233928722243,0.006676202874966074,0.9905968540803747
2017-05-03,1,0.0017838483843662704,0.0020402997832907,-0.0028463233928722243,0.013353032611075065,0.9895213699597658
2017-05-05,1,0.0023907807551140745,0.0027311427729888784,-0.00526373682924147,0.01167782306038285,0.9895914275397959
2017-05-09,1,0.0005236954149384059,0.0005626302037080986,-0.0028463233928722243,0.01167782306038285,0.9909711895879166
2017-05-11,1,0.0006484609629232097,0.000709046792408042,-0.004563228529671641,0.01167782306038285,0.990990463563211
2017-05-15,1,0.0007475135532185223,0.0008271047074748792,-0.004563228529671641,0.01167782306038285,0.990952585053078
2017-05-17,1,0.00036131058306329995,0.00038887400639733583,-0.004563228529671641,0.006200214110298042,0.9924992048861617
2017-05-19,1,9.29814122751396e-05,0.00011212932202857615,-0.004563228529671641,0.004284111681063423,0.9925751943914055
2017-05-23,1,0.0017837058582892973,0.0019760938843873858,-0.005101461484190164,0.004193850684193883,0.9938188772078785
2017-05-25,1,0.0021064288117295014,0.002348674875669696,-0.005101461484190164,0.0011229870158685935,0.9934781814771313
2017-05-30,1,0.0019192564958505957,0.0021424425493421747,-0.006707480457779651,0.0016440396369602314,0.9924817306361065
2017-06-01,1,0.002578028724382458,0.002853017012956637,-0.008057076104638287,0.0011229870158685935,0.9922883364278143
2017-06-05,1,0.0019659857313842496,0.002137517582986706,-0.007313817216958284,0.0025697060120553365,0.9930255882656405
2017-06-07,1,0.0015744320234823918,0.001676868190623547,-0.00995666257055538,0.0032177865041154077,0.9920800174497635
2017-06-09,1,0.0010102252595978588,0.0010127479970496018,-0.00995666257055538,0.004480881651895993,0.99170861054209
2017-06-13,1,0.001194160280052469,0.0012233382659590066,-0.00995666257055538,0.004899798243981708,0.9910263362405516
2017-06-15,1,0.0004764300208092744,0.0005545507760947557,-0.009330529327389763,0.00632543994925168,0.9905969188598102
2017-06-19,-1,-0.00040116840460449165,-0.00023140168490011742,-0.009088776596044313,0.00632543994925168,0.9911159721482475
2017-06-21,-1,-0.0006978162696539104,-0.0004860209090269212,-0.00451425269660545,0.00632543994925168,0.9909316210163917
2017-06-23,-1,-0.0015815024894989655,-0.0012139820987225624,-0.004778032102907924,0.00632543994925168,0.9907768188265254
2017-06-27,-1,-0.0023770996651465044,-0.0019461294976129521,-0.0044197435408027605,0.0075776030881024034,0.9912933975569279
2017-06-29,-1,-0.002492840890987255,-0.0020863851716020117,-0.003093182711590304,0.0075776030881024034,0.9917872634192689
2017-07-03,-1,-0.002108291719890508,-0.0017446607858064293,-0.003093182711590304,0.0075776030881024034,0.9925807785986279
2017-07-06,-1,-0.0023276541998960456,-0.0019699817583582976,-0.003093182711590304,0.01058512325131773,0.9888915330078552
2017-07-10,-1,-0.0015844643435698226,-0.0013207381589004034,-0.0044197435408027605,0.005761399324518334,0.989413663830542
2017-07-12,-1,-0.0004209853930064753,-0.00032680803396295007,-0.00769229805960654,0.004606274602178708,0.9895292834229487
2017-07-14,-1,-4.366935976155246e-05,-1.6445888359744066e-05,-0.0044197435408027605,0.004521434635550778,0.9900206752780377
2017-07-18,-1,-0.0005934383995042031,-0.0004961007078731837,-0.0030780444282647187,0.005246835586991542,0.9899973340039172
2017-07-20,1,0.0006937274207428607,0.0008144471795436047,-0.0044197435408027605,0.004099444727104463,0.9896509553793252
2017-07-24,1,0.0007770583838244382,0.0009363337655439357,-0.00769229805960654,0.004099444727104463,0.9893451043214413
2017-07-26,1,0.0005243487600259541,0.0006113848141043037,-0.004225036101248533,0.005246835586991542,0.9894883196623285
2017-07-28,1,0.00035812352261664117,0.00039595784546867066,-0.008076590816376445,0.005512179082233329,0.9888822417967345
2017-08-01,1,0.00012418624381108933,0.00012679244190996855,-0.008076590816376445,0.005553633114770822,0.9885045457102929
2017-08-03,1,0.002717835415403295,0.003103959269875089,-0.003164244686569926,0.006897417158808234,0.992645493599951
2017-08-07,1,0.002823705156245777,0.0032589923560239903,-0.003295906693118336,0.008113240124158892,0.9920766544567546
2017-08-09,1,0.0023505231692108686,0.0026849123472766122,-0.002299468340048464,0.008113240124158892,0.9923040713103125
2017-08-11,1,0.0021710540519421385,0.0024325297617555485,-0.005920694018355172,0.008113240124158892,0.9916956596141109
2017-08-15,1,0.0024163671162465185,0.0027020389776185273,-0.009577836237350076,0.005985857175944893,0.991675173989625
2017-08-17,1,0.0011491999127229199,0.0012236465028449362,-0.009577836237350076,0.005985857175944893,0.9920929519997743
2017-08-21,1,0.0008580161359347662,0.0009117777127904754,-0.005704870830073821,0.011144829835964171,0.9913758850875989
2017-08-23,1,0.0009419336833854895,0.0009574694236260547,-0.005704870830073821,0.008410149887374145,0.9919713840992065
2017-08-25,1,0.0003712449758517334,0.00044432935049001774,-0.004308605170301606,0.010216733039833458,0.9919845405479122
2017-08-29,1,0.0004545333762657387,0.0005469173639246745,-0.004308605170301606,0.010187584312387735,0.9919860568253549
2017-08-31,1,0.0016466558122658827,0.001720396954341714,-0.005551816899345616,0.005747135882726413,0.9930172794342784
2017-09-05,1,0.0012310936914456867,0.0012490501967205646,-0.005392184484312508,0.006349330266879517,0.9926548512132354
