JNU-Tangyin/eata/results/Batch4_SP500/Batch4_SP500-JCI.csv
Date,Action,Predicted_Q25,Predicted_Q75,Actual_Q25,Actual_Q75,RL_Reward
2010-12-14,0,0.0,0.0,-0.0020943991440918516,0.00713151066714603,0.9943076216729738
2010-12-16,0,0.0,0.0,-0.0013473406958360717,0.00713151066714603,0.9928774671844077
2010-12-20,1,0.0007118829986480976,0.0007488393658585577,-0.0020943991440918516,0.007119977831382527,0.9929175784520835
2010-12-22,1,0.0011283688181502822,0.0012758623641658752,-0.0013473406958360717,0.009344234653333675,0.9927515271105822
2010-12-27,1,0.0017182768990593443,0.0019284647924071932,-0.0013473406958360717,0.009344234653333675,0.9927507448490639
2010-12-29,1,0.0014424249824752865,0.0015872621294887267,-0.0013725940927409922,0.009344234653333675,0.9927084459127348
2010-12-31,1,0.0007547229298354784,0.0008253005885955107,-0.00099106830402773,0.009344234653333675,0.9929341000036734
2011-01-04,0,0.0,0.0,-0.00099106830402773,0.008376068909272031,0.9931074848530851
2011-01-06,0,0.0,0.0,-0.0009603474324390487,0.008376068909272031,0.9929095894625872
2011-01-10,0,0.0,0.0,-0.0005587139640036556,0.00801224476125113,0.9927349718520445
2011-01-12,1,0.0015542420097717966,0.001731522117522825,-0.001173673669311571,0.007226473949928301,0.9934167473054756
2011-01-14,0,0.0,0.0,-0.0022278294261406056,0.006134069609607582,0.9935124937906286
2011-01-19,0,0.0,0.0,-0.0005587139640036556,0.007226473949928301,0.9937339088468116
2011-01-21,0,0.0,0.0,-0.00043852690090304374,0.00801224476125113,0.9931237949745387
2011-01-25,-1,-0.9701979068225669,-0.9665973453314511,-0.001173673669311571,0.00801224476125113,0.5080251797329703
2011-01-27,1,0.0019385614244123214,0.002182017308917581,-0.0005503024544449058,0.00801224476125113,0.9910778779013584
2011-01-31,0,0.0,0.0,-0.002839086508162925,0.008980073773936928,0.9894811665261689
2011-02-02,0,0.0,0.0,-0.002839086508162925,0.00886585494238719,0.9888621764136979
2011-02-04,1,0.0036032144421166996,0.00404747322651975,-0.011782576181132438,0.00886585494238719,0.987813415228728
2011-02-08,0,0.0,0.0,-0.011782576181132438,0.007260359626092412,0.9883230488608091
2011-02-10,0,0.0,0.0,-0.01722810981092929,0.011966925266638737,0.9871212772819086
2011-02-14,1,0.0022051969378134185,0.002435119655054786,-0.01290657303449254,0.011966925266638737,0.9872547402137358
2011-02-16,1,0.003940381214988767,0.0043063368045419175,-0.01722810981092929,0.012008392006758663,0.9857836323488842
2011-02-18,1,0.004348474482924091,0.004683924843947439,-0.01722810981092929,0.007727847315505965,0.9855227509409114
2011-02-23,0,0.0,0.0,-0.011400192371440323,0.007727847315505965,0.9885555090249512
2011-02-25,1,0.0003511042218205709,0.000524937023860482,-0.011400192371440323,0.013682977081528845,0.9879569764564362
2011-03-01,1,0.0003266102008729163,0.0004462271034012023,-0.009746319480990468,0.008517959722878065,0.9887353609102544
2011-03-03,1,0.0015958817764344588,0.0016307994687954541,-0.009746319480990468,0.00414559199902597,0.9897804794466715
2011-03-07,1,0.0003757280287276321,0.0004990276287833854,-0.007996127284695528,0.011665931791263741,0.9899179017227566
2011-03-09,1,0.0005944979670218868,0.0006694609070730441,-0.007996127284695528,0.014745552813406544,0.9891186524609167
2011-03-11,1,0.0005500912799537339,0.000646833604989151,-0.006625344624977698,0.011665931791263741,0.9906738918792347
2011-03-15,1,2.2992058560916478e-05,0.00015837762649020392,-0.0026927089642747913,0.016696010929925915,0.986458993155379
2011-03-17,-1,-0.00036061110590679087,-0.0001871248773339011,-0.0026927089642747913,0.01595738179305856,0.9877091041049343
2011-03-21,1,0.00019957085758166675,0.000326736124472201,-0.0049943069709782965,0.011665931791263741,0.9883978357121048
2011-03-23,-1,-0.0005432186223458603,-0.0003189324941665311,-0.0049747983746374624,0.011665931791263741,0.9869616415528278
2011-03-25,-1,-0.0005835721360782229,-0.00031904384808094865,-0.006056557944140403,0.007573489286260169,0.9871966647747463
2011-03-29,0,-0.00016656349788143497,8.875575972117045e-06,-0.006053102201543977,0.009452381751788114,0.9871014983576953
2011-03-31,-1,-0.0005302574306984226,-0.00029736278618154306,-0.006104716505373631,0.009452381751788114,0.9866340817214914
2011-04-04,1,0.0009985084162867067,0.001033359215705856,-0.006104716505373631,0.004155127752398375,0.9877191245715414
2011-04-06,1,0.0007484216323583326,0.0008668967407311508,-0.006104716505373631,0.0031280118122857434,0.988718714236587
2011-04-08,0,0.0,0.0,-0.006104716505373631,0.004155127752398375,0.9879415708715201
2011-04-12,1,0.0031125303663843717,0.003238662406764076,-0.00627876060856367,0.0031280118122857434,0.9909415291256057
2011-04-14,1,0.0028557185252216194,0.002963910553605669,-0.0062683933807743935,0.004155127752398375,0.9902523549343178
2011-04-18,1,0.0018186952720960355,0.001855679765703798,-0.00830800631753998,0.004155127752398375,0.989810285216307
2011-04-20,1,0.0003003125345404792,0.0005081096501414668,-0.006560886777480275,0.00718494361938917,0.9921026533285893
2011-04-25,0,-0.00011477309692296822,0.00014881704534508346,-0.010062688222031142,0.00718494361938917,0.9910757799825217
2011-04-27,1,0.001062995160882775,0.0010841999730034555,-0.010062688222031142,0.004015216826388653,0.991064988024421
2011-04-29,1,0.0009112345837406409,0.0009491244332887722,-0.00718874550726406,0.006557150531232718,0.991296427363046
2011-05-03,1,0.00062857728549147,0.0007077279433297642,-0.012139376191709213,0.008135781450263727,0.9887330432104834
2011-05-05,1,0.0007207657532501347,0.0007828655544677146,-0.012927856151096543,0.009183166568993154,0.9868939288068052
2011-05-09,1,0.0014690521964556844,0.0015299769464163977,-0.012927856151096543,0.008135781450263727,0.9874346031660238
2011-05-11,1,0.0013622900190752843,0.0014115001193224933,-0.012547408991819326,0.007925411843447694,0.9879256178042883
2011-05-13,1,0.0017344804804609799,0.0018133551097927057,-0.012547408991819326,0.00650411228931311,0.9887705556902492
2011-05-17,1,0.0005701536632687208,0.0006577797748325478,-0.010841317796697012,0.007925411843447694,0.9882997541038137
2011-05-19,1,0.000805867458445927,0.0008622749527297861,-0.010841317796697012,0.00650411228931311,0.9884198859332746
2011-05-23,-1,-0.0003420247663183929,-0.00014607474528017844,-0.00600106015749695,0.008859690976527421,0.9891355952641685
2011-05-25,-1,-0.0009167163989702012,-0.0006370762496204978,-0.008151731438467171,0.008859690976527421,0.9887878292486033
2011-05-27,0,-5.757672275177498e-05,7.91426264708003e-05,-0.008151731438467171,0.011207432427717063,0.9886171955926122
2011-06-01,0,0.0,0.0,-0.007409862203003872,0.011207432427717063,0.9895926795264729
2011-06-03,0,0.0,0.0,-0.004872691023343815,0.010460354977797456,0.9909151729344753
2011-06-07,-1,-0.0006973975899458415,-0.0005270059197609806,-0.004872691023343815,0.010460354977797456,0.991188997333973
2011-06-09,-1,-0.0009849699286314656,-0.0008657250989494378,-0.004804082984264632,0.010460354977797456,0.9908508316853374
2011-06-13,-1,-0.0012733176667513051,-0.0011003089252546489,-0.006191959344427235,0.010460354977797456,0.9903765494432429
2011-06-15,-1,-0.0010767369466313079,-0.0009200451437284872,-0.006089861476279009,0.008439961487146503,0.9919506332298589
2011-06-17,-1,-0.0010887194041128308,-0.0008914797763241516,-0.007204038085766323,0.008439961487146503,0.9911094894444561
2011-06-21,-1,-0.0004833739385315895,-0.00035785734001328164,-0.007204038085766323,0.006588516335682461,0.9915351939124736
2011-06-23,-1,-0.0008798709071557168,-0.0007050933461064461,-0.006089861476279009,0.006588516335682461,0.9921376451809358
2011-06-27,-1,-0.00024080546668455723,-0.0001743399954450146,-0.00668109331212029,0.0038181628301515334,0.991966577273209
2011-06-29,1,0.0005033153930653258,0.0005600176330957508,-0.00810275080759081,0.0016627141269731128,0.991610391574548
2011-07-01,1,0.0010810913738526053,0.0011991967665623245,-0.010903368021375226,0.0014762254843014727,0.9913025801568758
2011-07-06,1,0.0009597864241410875,0.001048976301496937,-0.012008390112654817,0.0014762254843014727,0.9883656190514045
2011-07-08,1,0.00047685760442841185,0.0004881474902687805,-0.014336454927045347,0.0008719183099450301,0.9865281300681799
2011-07-12,1,0.0002020788157559151,0.00023176225077243114,-0.014585602477473144,0.0014762254843014727,0.9807596077139835
2011-07-14,0,0.0,0.0,-0.022634767480606683,0.002011190205145834,0.9760371217833863
2011-07-18,0,0.0,0.0,-0.022634767480606683,0.006018559955735997,0.9762367374814115
2011-07-20,-1,-0.001066183713244979,-0.0008491377831565579,-0.022634767480606683,0.004341443432826078,0.9766850164507798
2011-07-22,-1,-0.0012247100050075388,-0.0009818140268390654,-0.039154332917544096,0.004341443432826078,0.9725816637659069
2011-07-26,-1,-0.0010933867613184636,-0.0009156062944675125,-0.039154332917544096,0.010009369098109563,0.97098314668487
2011-07-28,-1,-0.0027406898833309363,-0.0023350829752847653,-0.026344782339478564,0.013043872510065014,0.9720143872256553
2011-08-01,-1,-0.0028940256208194372,-0.002471531856162914,-0.026344782339478564,0.021366235328745035,0.9705350874376126
2011-08-03,-1,-0.0032261869497288184,-0.0027662532033010177,-0.01190973395986669,0.015854520193777186,0.9728525351348031
2011-08-05,-1,-0.005204337778741661,-0.004484593084466016,-0.01190973395986669,0.015854520193777186,0.9730317754484217
2011-08-09,-1,-0.005719062099290409,-0.004937754163482091,-0.0069876982052574045,0.015854520193777186,0.9780527938707976
2011-08-11,-1,-0.004549104223010885,-0.00394031853285847,-0.008992092964789162,0.011510920337176291,0.9829654054977766
2011-08-15,-1,-0.0045531697475013864,-0.003920547803131971,-0.008992092964789162,0.014521405127904672,0.9820260436353834
2011-08-17,-1,-0.004221052275550337,-0.003645738145120217,-0.008992092964789162,0.01718239651557374,0.9810248402923438
2011-08-19,-1,-0.007109178667479032,-0.006195592927184598,-0.004883471032570454,0.024165049431374624,0.9808132709318675
2011-08-23,-1,-0.005038380108611082,-0.004371833812398919,-0.0069876982052574045,0.023531982691350123,0.9831171988549703
2011-08-25,-1,-0.004606802477140082,-0.004041493521622,-0.007509478344406183,0.023531982691350123,0.983086463342875
2011-08-29,0,0.0,0.0,-0.009448039229768238,0.01718239651557374,0.985555938424753
2011-08-31,0,0.0,0.0,-0.011764214544612626,0.020877972361890162,0.9838737342971638
2011-09-02,0,0.0,0.0,-0.017054794418822638,0.020877972361890162,0.9825631013185102
2011-09-07,0,0.0,0.0,-0.017054794418822638,0.02104311833780526,0.9815626864405826
2011-09-09,0,0.0,0.0,-0.012325056779223988,0.023537893651842817,0.981285283527539
2011-09-13,-1,-0.0005309045880396673,-0.0005234347196814355,-0.012325056779223988,0.021771015215152827,0.9813851852075751
2011-09-15,1,0.000422117036887615,0.0005569334861716593,-0.012325056779223988,0.020345375088408016,0.9821281931515048
2011-09-19,1,0.001756696289508125,0.0020774795399588295,-0.022597969521736656,0.014559055771550086,0.9830238781097055
2011-09-21,1,0.0012524521777193545,0.0015083808043019993,-0.02294356628633959,0.018016795390143225,0.9817969269759672
2011-09-23,1,0.0009923561254823036,0.0012128991715988332,-0.013203119485505076,0.020345375088408016,0.9817615019708055
2011-09-27,1,0.000186109240183439,0.00030761728266514085,-0.011132693716975867,0.020345375088408016,0.9810745410854919
2011-09-29,1,0.0009707357154600134,0.0012324865103504783,-0.007175660773234794,0.021409289302696907,0.9812875306997876
2011-10-03,-1,-0.0032192677442383563,-0.0029240566860566034,-0.005711190654673561,0.021409289302696907,0.981114899349749
2011-10-05,1,0.00043014468706592567,0.000642967866293239,-0.007175660773234794,0.016824195678930558,0.9825647797996744
2011-10-07,1,0.0008928739823917386,0.0011180150734397287,-0.007175660773234794,0.01456703303257285,0.9835033650542965
2011-10-11,1,0.002058904523764071,0.002429131029066608,-0.007175660773234794,0.01456703303257285,0.983816776089082
2011-10-13,1,0.001602012517525512,0.0018830832353797203,-0.013706655573959635,0.01456703303257285,0.9818872478348558
2011-10-17,1,0.000864707897473645,0.0010363416243635987,-0.006569177940334816,0.016997037360121012,0.9818522556779015
2011-10-19,1,0.0012308841334340466,0.0014802135774658292,-0.005597249129582515,0.016997037360121012,0.9830681288851993
2011-10-21,1,0.0018975765053619769,0.0021956727677765464,-0.006833836197961658,0.01456703303257285,0.9830669204704353
2011-10-25,1,0.0020630070420318966,0.0023827826759770117,-0.01201947433231933,0.013199270512415765,0.9824967762534884
2011-10-27,1,0.0027251293482817803,0.003153335026098457,-0.015604332833951467,0.01129235108972424,0.9834032574501379
2011-10-31,1,0.0015258145184471154,0.0017561162835670143,-0.01201947433231933,0.012010409262720735,0.9834754063242634
2011-11-02,1,0.0014914140362904795,0.001726006460809349,-0.01105583932691771,0.014346253383447416,0.9829271875800016
2011-11-04,1,0.001880391399166445,0.002157258360687197,-0.01105583932691771,0.013759744283317606,0.9830249711707179
2011-11-08,1,0.002729472397814318,0.0031138640705025704,-0.01105583932691771,0.004446125007069926,0.9840333191411385
2011-11-10,1,0.0018782521608457525,0.002263083753419467,-0.01105583932691771,0.01266830881265454,0.9847412915455414
2011-11-14,1,0.0026621029832078202,0.0030555115965277893,-0.012431498978688539,0.004446125007069926,0.9844832483465786
2011-11-16,1,0.0036293368181210756,0.004171581241450907,-0.015604332833951467,0.001796934749104093,0.9843429275093684
2011-11-18,1,0.0038831352829007152,0.0045867000053269194,-0.012713427817746604,0.00036911467585108026,0.9845476747190766
2011-11-22,1,0.002905684401932719,0.0034288335149021553,-0.009537263299886514,0.001796934749104093,0.9845511532125291
2011-11-25,0,0.0,0.0,-0.007752105649647614,0.005980541579528027,0.9861774860026974
2011-11-29,0,0.0,0.0,-0.007752105649647614,0.0029325228138749613,0.9878611860503377
2011-12-01,0,0.0,0.0,-0.007360092031801152,0.0029325228138749613,0.9899096487675773
2011-12-05,0,0.0,0.0,-0.006481587673223323,0.004577944188803269,0.9889946295836913
2011-12-07,0,0.0,0.0,-0.006481587673223323,0.005424195962679309,0.9888952461955115
2011-12-09,1,0.0028560217428634242,0.003319076390703704,-0.005528394712925584,0.006653815050068329,0.9904258172676699
2011-12-13,1,0.0020713004008898524,0.0024304324925265002,-0.004842840968923434,0.008124563927706266,0.9913531519456509
2011-12-15,1,0.0014655394259026169,0.0017205863504885734,-0.004842840968923434,0.008124563927706266,0.9916631762197242
2011-12-19,1,0.0008414295986130024,0.0009661689287356501,-0.004236486869867614,0.008124563927706266,0.9915421394068332
2011-12-21,1,0.0016983478324490249,0.0019284812487193157,-0.004842840968923434,0.008124563927706266,0.993253332356116
2011-12-23,1,0.001916929747856665,0.002166261499486911,-0.004842840968923434,0.008124563927706266,0.9932394176957583
2011-12-28,1,0.0008344177475535183,0.0008619618771456964,-0.00450737319307332,0.008124563927706266,0.9929594241556787
2011-12-30,1,0.0007854170191965461,0.0008024189135366482,-0.0021774008505168084,0.008961073384250525,0.991834503419553
2012-01-04,1,0.0015410276183719456,0.0016824558832633787,-0.004868210546662184,0.006831610013230378,0.9926441044524974
2012-01-06,1,0.0011908222481333533,0.0012563418609242377,-0.004868210546662184,0.007810253851097182,0.9923731028802245
2012-01-10,1,0.001399846330798741,0.0014883360006692657,-0.006354704187608508,0.0065086801586972,0.9922097089077742
2012-01-12,1,0.0001979752835584594,0.0003595502603115336,-0.008032978830557628,0.005527531837227076,0.9923733858863631
2012-01-17,1,0.0007449882296443573,0.0007524507098638942,-0.008032978830557628,0.0065086801586972,0.991681379175665
2012-01-19,0,0.0,0.0,-0.00810937492673243,0.007804044037903763,0.9916278453114062
2012-01-23,0,0.0,0.0,-0.00810937492673243,0.008809858445335718,0.9903153970924996
2012-01-25,0,0.0,0.0,-0.00810937492673243,0.007804044037903763,0.9908594975285309
2012-01-27,0,0.0,0.0,-0.007876320831172682,0.008809858445335718,0.9901010324107475
2012-01-31,0,0.0,0.0,-0.007876320831172682,0.007804044037903763,0.9915825737220646
2012-02-02,0,0.0,0.0,-0.007807787476379622,0.007804044037903763,0.991875389158132
2012-02-06,-1,-0.00019821689160494762,-7.733988922577309e-05,-0.00810937492673243,0.007821359345245183,0.9915006117373527
2012-02-08,1,0.00039838107969664474,0.00041611315685975876,-0.007807787476379622,0.008809858445335718,0.9909499374057402
2012-02-10,1,0.0005406829976196121,0.0005915573752412613,-0.004535982830506781,0.008809858445335718,0.991190090389312
2012-02-14,0,-4.532681427042433e-05,1.3663543897906335e-05,-0.00327286272681046,0.008665309015219329,0.9916701056870735
2012-02-16,1,5.277832403710126e-05,0.00011437356972543661,-0.0031186692203276733,0.00917608452634999,0.991733615465514
2012-02-21,1,0.0013206928868778997,0.0014976649699747911,-0.0033831004330319076,0.006622755102346048,0.9932994622001227
2012-02-23,1,0.00047430072483166846,0.0005036845444236133,-0.0033831004330319076,0.006622755102346048,0.9930838394958356
2012-02-27,-1,-0.0008424626112064937,-0.0005794956517228106,-0.0032467346864170086,0.006260512009390845,0.9941805070314667
2012-02-29,0,0.0,0.0,-0.0031186692203276733,0.006681856915158078,0.991875079696795
2012-03-02,0,0.0,0.0,-0.0024983441076676226,0.006681856915158078,0.9917109251899173
2012-03-06,0,0.0,0.0,-0.0024983441076676226,0.00633311542778074,0.9921222337397014
2012-03-08,0,0.0,0.0,-0.004208712476384691,0.006123438124968459,0.9920863650743055
2012-03-12,0,0.0,0.0,-0.007381056797938093,0.0054977174367320065,0.991318721890189
2012-03-14,1,0.0005471435945198381,0.0007285798239887129,-0.007381056797938093,0.006280212613661521,0.9905576730993899
2012-03-16,0,0.0,0.0,-0.007381056797938093,0.004682766250039918,0.9907221765562395
2012-03-20,0,0.0,0.0,-0.00634764447548678,0.00595791639452771,0.9909622891170417
2012-03-22,0,0.0,0.0,-0.00634764447548678,0.00595791639452771,0.9909118133042442
2012-03-26,0,0.0,0.0,-0.007381056797938093,0.0055574215011601575,0.9907066571136048
2012-03-28,0,0.0,0.0,-0.007381056797938093,0.004186482175830984,0.9912973298098487
2012-03-30,0,0.0,0.0,-0.00986339071454366,0.0055574215011601575,0.9895897585214392
2012-04-03,0,0.0,0.0,-0.00986339071454366,0.0055574215011601575,0.9897298432514435
2012-04-05,0,0.0,0.0,-0.007012029174269336,0.0055574215011601575,0.9904511963340239
2012-04-10,0,0.0,0.0,-0.006350676068740424,0.0055574215011601575,0.9914699619537207
2012-04-12,0,0.0,0.0,-0.006350676068740424,0.003115786553659808,0.9926995091612977
2012-04-16,0,0.0,0.0,-0.003600995611447999,0.003102546173784389,0.9929174040859166
2012-04-18,0,0.0,0.0,-0.006895285862233989,0.0015041302880711574,0.9922003651573709
2012-04-20,0,0.0,0.0,-0.007369709459057373,0.0008229758535593945,0.991371919557441
2012-04-24,1,0.0011290303287716094,0.0011651339865687452,-0.006895285862233989,0.0027793740921768116,0.9900406677723924
2012-04-26,1,0.002716173655841901,0.0029138513280717437,-0.006895285862233989,0.003819998360953955,0.9906791774652972
2012-04-30,1,0.0005461407712871846,0.0005753804291325621,-0.006606701894904623,0.0027793740921768116,0.9928882573875701
2012-05-02,1,0.0017833918679782909,0.0018611601867796596,-0.006725928656500635,0.0027793740921768116,0.9915386011722739
2012-05-04,0,0.0,0.0,-0.006725928656500635,0.0031144886730928244,0.9907855872903504
2012-05-08,0,0.0,0.0,-0.004868505634903306,0.004396277025381766,0.9898391625533102
2012-05-10,0,0.0,0.0,-0.004868505634903306,0.004451472935553961,0.9897847643799231
2012-05-14,0,0.0,0.0,-0.008698450841012879,0.006640496573426984,0.9889312766453949
2012-05-16,0,0.0,0.0,-0.008698450841012879,0.007239070779591795,0.9880969329722412
2012-05-18,0,0.0,0.0,-0.0052573825095188365,0.007947834088278911,0.9882554510922404
2012-05-22,0,0.0,0.0,-0.00755010354320537,0.007847175163800934,0.9890208677845892
2012-05-24,0,0.0,0.0,-0.011698012991648476,0.0045791634200157885,0.9884101523016466
2012-05-29,0,0.0,0.0,-0.016541085461893725,0.0045791634200157885,0.9870987925530541
2012-05-31,0,0.0,0.0,-0.011698012991648476,0.007226269488215513,0.9868259946329522
2012-06-04,0,0.0,0.0,-0.008140376686338024,0.010725647200330046,0.9867476209287475
2012-06-06,0,0.0,0.0,-0.008140376686338024,0.010725647200330046,0.9868658465366512
2012-06-08,0,0.0,0.0,-0.011698012991648476,0.013453976436820683,0.9854054711036998
2012-06-12,0,0.0,0.0,-0.013096043568471199,0.013453976436820683,0.9850262778900413
2012-06-14,0,0.0,0.0,-0.011584452360649568,0.013453976436820683,0.9855008457018988
2012-06-18,0,0.0,0.0,-0.011584452360649568,0.00980253667454082,0.9860373134646994
2012-06-20,0,0.0,0.0,-0.009175163353146625,0.012597769943154993,0.9862905743790881
2012-06-22,-1,-0.0017183620459204395,-0.0015078387587660926,-0.010464705347263147,0.012597769943154993,0.9865573216839028
2012-06-26,-1,-0.0030577066699690562,-0.002677784501874718,-0.008801068963755192,0.012597769943154993,0.9871002095687943
2012-06-28,0,0.0,0.0,-0.008801068963755192,0.013324422684580924,0.9865745378772521
2012-07-02,0,0.0,0.0,-0.008801068963755192,0.013324422684580924,0.9871587847923924
2012-07-05,0,0.0,0.0,-0.008801068963755192,0.012597769943154993,0.988121500389164
2012-07-09,0,0.0,0.0,-0.007647137715839273,0.013324422684580924,0.9887482722006102
2012-07-11,0,0.0,0.0,-0.004172347773977283,0.01361331432249336,0.9892429133370624
2012-07-13,0,0.0,0.0,-0.002745151049265407,0.01289477925216308,0.9904501528580566
2012-07-17,0,0.0,0.0,-0.003339167628222566,0.01289477925216308,0.9906560778351906
2012-07-19,-1,-0.0006753120669512657,-0.0005543887260677249,-0.003339167628222566,0.01361331432249336,0.990091565473563
2012-07-23,0,0.0,0.0,-0.002745151049265407,0.01361331432249336,0.9907550873083805
2012-07-25,0,0.0,0.0,-0.003324304248849577,0.01361331432249336,0.9912490645495584
2012-07-27,0,0.0,0.0,-0.003339167628222566,0.0039261611524733404,0.9930096019079102
2012-07-31,0,0.0,0.0,-0.003739328707893592,0.0039261611524733404,0.993654672807248
2012-08-02,0,0.0,0.0,-0.004967264709279384,0.0027849077311173434,0.9936363250269798
2012-08-06,0,0.0,0.0,-0.005185259028434589,0.0027849077311173434,0.9942755020769115
2012-08-08,0,0.0,0.0,-0.005185259028434589,0.0027849077311173434,0.9936960577786825
2012-08-10,0,0.0,0.0,-0.005575836043192128,0.0016835881128369398,0.993017210433868
2012-08-14,0,0.0,0.0,-0.005575836043192128,0.0028315423793793303,0.9927635982961522
2012-08-16,0,0.0,0.0,-0.006731761289966198,0.0016018843248379233,0.9931277469617694
2012-08-20,0,0.0,0.0,-0.006731761289966198,0.0016018843248379233,0.9929887664245579
2012-08-22,0,0.0,0.0,-0.006731761289966198,0.003547876724123678,0.9925629348309601
2012-08-24,0,0.0,0.0,-0.006597091032360628,0.005544300104558608,0.9922339171249274
2012-08-28,1,0.0016820286304465317,0.001956521913778071,-0.007802467316382367,0.00360249202565667,0.9912766989751162
2012-08-30,1,0.0013873234117629425,0.0015666244619528193,-0.007802467316382367,0.006615456874600755,0.9905076240066416
2012-09-04,1,0.002084546042590073,0.0023556739093111077,-0.007802467316382367,0.013118455647302341,0.989468006335455
2012-09-06,1,0.002318347123514298,0.002641788601615132,-0.007802467316382367,0.010211646319792678,0.9902963600130276
2012-09-10,1,0.0008769022592450313,0.0010117288872254532,-0.007802467316382367,0.010211646319792678,0.990427599796863
2012-09-12,0,0.0,0.0,-0.007802467316382367,0.006018551390692947,0.9905594328638294
2012-09-14,0,0.0,0.0,-0.009504807241829148,0.006018551390692947,0.9895972334612633
2012-09-18,0,0.0,0.0,-0.005336656272420756,0.013094228266318916,0.9891049486789741
2012-09-20,0,0.0,0.0,-0.005336656272420756,0.011794239301450843,0.9898074195106514
2012-09-24,0,0.0,0.0,-0.00967856800821602,0.005671825535716593,0.9897551112690667
2012-09-26,0,0.0,0.0,-0.010819210798365312,0.005671825535716593,0.9894560029514856
2012-09-28,1,0.0011693627173204927,0.0013129382699367063,-0.010819210798365312,0.004971499012579837,0.9901615704868817
2012-10-02,1,0.0021054339505911165,0.002372599962137783,-0.010819210798365312,0.0027307280799668005,0.9900484041416058
2012-10-04,1,0.0024498218647564522,0.0027950790409655875,-0.009800729539864968,0.003967161227297074,0.9902803095678996
2012-10-08,1,0.0014466633774709813,0.0016124946959841116,-0.009800729539864968,0.006790901478986333,0.9888679870061041
2012-10-10,1,0.0009952058672388479,0.0010531974843075087,-0.009800729539864968,0.006790901478986333,0.9886473152922757
2012-10-12,-1,-0.0004160044347797073,-0.00032419455248954227,-0.006222870976454713,0.006790901478986333,0.9902665058771022
2012-10-16,1,0.0007798107745604806,0.0008843869211648042,-0.007229635674272202,0.0027307280799668005,0.9896855392916071
2012-10-18,1,0.0007102208720321056,0.0007719947695801236,-0.007229635674272202,0.006487844178141567,0.9889816772087162
2012-10-22,1,0.0005987725389168207,0.0006089234506495247,-0.005612424033045104,0.006487844178141567,0.989512775152588
2012-10-24,-1,-0.0011888462867655253,-0.0009471721193285845,-0.0032224042759156145,0.008894742932300326,0.9902342411482247
2012-10-26,-1,-0.00023659691012440132,-0.00016019052777982017,-0.004274884784346377,0.008990933632868632,0.9894063292332265
2012-11-01,0,0.0,0.0,-0.004274884784346377,0.006653185240570538,0.9903425666237498
2012-11-05,0,0.0,0.0,-0.004884338839796907,0.00868390478470797,0.989463447955683
2012-11-07,0,0.0,0.0,-0.004274884784346377,0.00868390478470797,0.9912767782839458
2012-11-09,0,0.0,0.0,-0.003667781944917993,0.00868390478470797,0.9914942947341914
2012-11-13,0,0.0,0.0,-0.003667781944917993,0.009267591092625859,0.9909222860046539
2012-11-15,0,0.0,0.0,-0.0021892716444567393,0.009267591092625859,0.9920950617781898
2012-11-19,-1,-0.0019969055121525046,-0.0017052017437441044,-0.0021892716444567393,0.009713371254496905,0.9913489111708622
2012-11-21,0,0.0,0.0,-0.0024139231431913612,0.009713371254496905,0.9916110413065236
2012-11-26,0,0.0,0.0,-0.003740548625948739,0.008396079936714325,0.9920577839205548
2012-11-28,0,0.0,0.0,-0.004206444940267142,0.007725964287791928,0.9930744723827731
2012-11-30,1,0.0006537700624864572,0.0006540234239340933,-0.004536443639688312,0.008396079936714325,0.9916634859939966
2012-12-04,-1,-0.00041601175963528153,-0.0002492663874362755,-0.004536443639688312,0.009148888946746033,0.9897737497711975
2012-12-06,0,0.0,0.0,-0.004536443639688312,0.007725964287791928,0.9904160023897499
2012-12-10,0,0.0,0.0,-0.004536443639688312,0.009148888946746033,0.9892044344239412
2012-12-12,1,0.0003169946272211476,0.00037133723109171213,-0.004672900470123379,0.007725964287791928,0.9896261997454233
2012-12-14,-1,-0.0006478130418743575,-0.0004297869484488964,-0.004470323352144688,0.007745034903063283,0.9897373661648078
2012-12-18,1,0.00032998643602994316,0.0004311886780569365,-0.004470323352144688,0.007745034903063283,0.9895616752261164
2012-12-20,1,0.001383420011593601,0.0014952115052696258,-0.004470323352144688,0.003137371030248969,0.9895639990080051
2012-12-24,1,0.001234103012069089,0.0013546642700067114,-0.004886122354087914,0.003137371030248969,0.9895199685733574
2012-12-27,0,0.0,0.0,-0.004886122354087914,0.008036301842561775,0.988998992056214
2012-12-31,1,0.000924612597204726,0.0009841947931117493,-0.00516781612205044,0.003137371030248969,0.9897485618778572
2013-01-03,0,0.0,0.0,-0.004886122354087914,0.0018199173658219666,0.9931528717758792
2013-01-07,0,0.0,0.0,-0.00516781612205044,0.0036383791549820235,0.9919259107226888
2013-01-09,1,0.0028626877200048613,0.0032310305738192206,-0.005230907822565129,0.0018199173658219666,0.991946004411531
2013-01-11,1,0.0027685701540111846,0.0031849638189886667,-0.005165676662885992,0.0036383791549820235,0.9922391550523338
2013-01-15,1,0.0028420095035760645,0.0032291564218386846,-0.005165676662885992,0.009176962348359423,0.9915820977683517
2013-01-17,1,0.003534917575287243,0.003992523435843062,-0.005165676662885992,0.009176962348359423,0.9921298783526703
2013-01-22,1,0.003055621064281139,0.003438527950025726,-0.005165676662885992,0.009176962348359423,0.9922117310314259
2013-01-24,0,0.0,0.0,-0.005468828106468905,0.009176962348359423,0.9918941652826018
2013-01-28,0,0.0,0.0,-0.005468828106468905,0.009064182428550697,0.9922936189752836
2013-01-30,0,0.0,0.0,-0.0010406698081217734,0.00946182670110507,0.992000984714739
2013-02-01,1,0.001788400718827494,0.0020037058678418415,-0.0022347638248103067,0.00946182670110507,0.9915804757566169
2013-02-05,1,0.0018860898652045422,0.002061774915435355,-0.0012374612044578125,0.00946182670110507,0.9922781422554331
2013-02-07,1,0.0017483212739273163,0.0019263590339194218,-0.0012374612044578125,0.00946182670110507,0.9917349469903023
2013-02-11,1,0.0015639298608073626,0.001681866076731095,-0.003585095499108435,0.009064182428550697,0.9910677997281323
2013-02-13,1,0.00211268301135185,0.0022608814642754854,-0.003585095499108435,0.0070943798763,0.9920461937161869
2013-02-15,0,0.0,0.0,-0.009296795661695195,0.005477352219015063,0.991561164145874
2013-02-20,0,0.0,0.0,-0.009296795661695195,0.005477352219015063,0.9915321910186293
2013-02-22,0,0.0,0.0,-0.009296795661695195,0.007051134819383244,0.9910142382853623
2013-02-26,0,0.0,0.0,-0.008330473178100671,0.007407939759910193,0.9910884801641896
2013-02-28,1,0.0031637388568979434,0.003511731955533175,-0.008330473178100671,0.007407939759910193,0.9909602328010737
2013-03-04,1,0.0028439273971538823,0.0031176254295866624,-0.008040894955554581,0.007407939759910193,0.9909692143410164
2013-03-06,1,0.0025542605216728152,0.002735426222325754,-0.008040894955554581,0.00558187218021846,0.9912787195557116
2013-03-08,1,0.002350100851890923,0.0024917040568523843,-0.008040894955554581,0.0047924011100860826,0.9913746291303438
2013-03-12,1,0.0010144831774260529,0.001136326530022322,-0.007860034463815424,0.007701642802925929,0.9908851584745384
2013-03-14,1,0.0016200408050829776,0.0016372430446401718,-0.008040894955554581,0.008420414435670938,0.9899447143977428
2013-03-18,1,0.0008549109570018202,0.0009674290934851726,-0.007860034463815424,0.008420414435670938,0.9892915382356398
2013-03-20,1,0.00041368283028243716,0.000608259130275242,-0.010223579541381403,0.008420414435670938,0.9887246684999361
2013-03-22,-1,-0.0005953293646112458,-0.00022986725920773245,-0.010223579541381403,0.008420414435670938,0.9888493933415669
2013-03-26,-1,-0.0005335760085038632,-0.0001907186705486922,-0.011699754261289932,0.008353366329773192,0.9886862379355585
2013-03-28,1,0.0013808209164819034,0.0014404161979934293,-0.011699754261289932,0.009068105985295666,0.9887776808396497
2013-04-02,1,0.0004568747215927926,0.000629073285846594,-0.011699754261289932,0.011299099262847393,0.9882272879104905
2013-04-04,1,0.0006926590520282424,0.0008435236689159274,-0.013252868409602126,0.011299099262847393,0.9871721576396987
2013-04-08,0,-0.0001806592816943703,9.392500094123051e-05,-0.011699754261289932,0.012845497671423567,0.9863054284885449
2013-04-10,1,0.0010448694107946235,0.0011914828886434984,-0.011699754261289932,0.011299099262847393,0.987077925414053
2013-04-12,0,-0.00032876624685128255,2.6005380956809127e-05,-0.009795883100293508,0.011299099262847393,0.987620672970935
2013-04-16,-1,-0.0007942728291973952,-0.0004104887246317694,-0.004313534920912807,0.011299099262847393,0.9888221878367319
2013-04-18,-1,-0.0016745080055821711,-0.0011894121083766886,-0.0015953745252593055,0.011299099262847393,0.9891166773062438
2013-04-22,-1,-0.0014898135422338143,-0.0010502129321736703,-0.0007488633720489032,0.010475986852996095,0.9900785695067547
2013-04-24,-1,-0.0006769271361385714,-0.0003948177487995545,-0.0007488633720489032,0.010475986852996095,0.991086199500628
2013-04-26,-1,-0.00030779572267500103,-5.1644644780311603e-05,-0.0007510961562590933,0.008897282888327317,0.9920599655759916
2013-04-30,1,0.0005280557975874329,0.00068830421960117,-0.0011026729615423504,0.008157098448918678,0.9926582610475561
2013-05-02,1,0.0002576295047123005,0.0004376701079415663,-0.0011026729615423504,0.007742225636528569,0.9933371750373062
2013-05-06,1,0.0018237767600711183,0.0018265449476139559,-0.0029482773158461613,0.0063020224535162124,0.9943835333779228
2013-05-08,1,0.0023682416773858914,0.0024370820706849624,-0.004195598402551539,0.005761088586920872,0.9943474801218469
2013-05-10,1,0.0017931011670630436,0.0018200131788717584,-0.004195598402551539,0.0063020224535162124,0.9938769479470934
2013-05-14,1,0.002414485200261337,0.002498393442854789,-0.007299814032744778,0.004823232312984896,0.9922287224236992
2013-05-16,1,0.0020759918798406145,0.002120643874462089,-0.005969467637053409,0.004823232312984896,0.992436219807254
2013-05-20,1,0.002024035002207661,0.0020322127157516474,-0.005969467637053409,0.004823232312984896,0.9925275496774092
2013-05-22,1,0.0013536314593984998,0.001441299125504726,-0.010850833688134874,0.004823232312984896,0.9907323156820219
2013-05-24,1,0.001905220708263293,0.0019576638366466358,-0.011519130075243453,0.004444258422928449,0.9896695163092579
2013-05-29,1,0.0018464484877095066,0.0018860415200155896,-0.011519130075243453,0.004444258422928449,0.9900467246653621
2013-05-31,1,0.0011587838118702445,0.0011883116967358106,-0.010966409673085565,0.005536431452467959,0.9895596039978068
2013-06-04,1,0.0012733801509881614,0.0013354158417544736,-0.010966409673085565,0.008250902855593566,0.9877259902276524
2013-06-06,1,0.0010311097022051106,0.001034217478537952,-0.008115639057965718,0.008842935862693328,0.9877479980729525
2013-06-10,1,0.0016130355418810228,0.0017060201020575082,-0.008115639057965718,0.008842935862693328,0.9880612468505554
2013-06-12,1,0.0010504828675028024,0.0011117205501391288,-0.0044838388264891674,0.008842935862693328,0.9892719366878225
2013-06-14,1,0.0008315741335749452,0.0008424621699962538,-0.00219884739501776,0.010392117610123824,0.9891066906938424
2013-06-18,1,0.0010589365022253899,0.001079773055062781,-0.0058509252412454645,0.008713109578934558,0.9891597725335965
2013-06-20,-1,-0.0004760747754988334,-0.0002943104942371732,-0.0004983997659960649,0.010244778649755901,0.9906171571527492
2013-06-24,-1,-0.0011499478358763674,-0.0008639493211331233,-0.00113921151057738,0.010244778649755901,0.9910426163031855
2013-06-26,-1,-0.0009276412704508703,-0.0006671624886433175,-0.0014267971965825329,0.010244778649755901,0.9912463757001676
2013-06-28,1,0.0004330717537382099,0.0005096479697747939,-0.0058509252412454645,0.007115690598582907,0.9914222628919321
2013-07-02,1,0.0013992176324947067,0.0014224474769196657,-0.0058509252412454645,0.007115690598582907,0.9926404790901641
2013-07-05,1,0.0013650701497036186,0.0013881064441744104,-0.003058194501452142,0.007115690598582907,0.9924874447991443
2013-07-09,1,0.0022268230653574826,0.0024129202988010445,-0.003058194501452142,0.006048752494333156,0.9929707486754084
2013-07-11,1,0.0019220888078806473,0.002072917720021439,-0.006508541125928872,0.006048752494333156,0.9924694009747702
2013-07-15,0,0.0,0.0,-0.009730093129514467,0.004456118819355092,0.9922989140906611
2013-07-17,0,0.0,0.0,-0.011252209392859747,0.006048752494333156,0.9914304632558085
2013-07-19,0,0.0,0.0,-0.011252209392859747,0.004456118819355092,0.9915056349526068
2013-07-23,0,0.0,0.0,-0.011252209392859747,0.004832987369795104,0.9912913784141882
2013-07-25,1,0.001556153935677133,0.0016843256859514085,-0.011252209392859747,0.004871460538992834,0.9906466108915196
2013-07-29,1,0.0007785313815549728,0.0008106810497861988,-0.008668330107369145,0.004871460538992834,0.9910415853863062
2013-07-31,1,0.001103822511108357,0.0011738469168720235,-0.012541291815248934,0.0040636881675749845,0.9909263149840659
2013-08-02,1,0.0015198420770375267,0.0016150848750522133,-0.012541291815248934,0.0013939912218036035,0.9912479730968068
2013-08-06,1,0.0015807137282990808,0.001694297268423082,-0.012541291815248934,0.0013939912218036035,0.9907298934430908
2013-08-08,1,0.0007824532159964731,0.0008020713858715948,-0.0091580954262191,0.0026620369341423204,0.9912684694198642
2013-08-12,1,0.0004607649225461431,0.0005403665494155222,-0.007069987851266111,0.006957410230960055,0.9914476180563085
2013-08-14,1,0.00010746457351054357,0.00022410247048264845,-0.007069987851266111,0.0047258533623762864,0.9921877141136379
2013-08-16,1,0.0001327680279187893,0.0002719741911647459,-0.00483935124858703,0.006957410230960055,0.9914367537867187
2013-08-20,1,0.00013527971669770265,0.00020520774001880516,-0.003534030611405368,0.011511749566036417,0.9911108955235967
2013-08-22,1,0.00046358640136091314,0.0005430139501114379,-0.00483935124858703,0.006957410230960055,0.9909092096329277
2013-08-26,-1,-0.0003831290091821024,-0.000199552840697038,-0.00483935124858703,0.006957410230960055,0.9914397319931029
2013-08-28,-1,-0.0012849295000037068,-0.0009847417970450163,-0.003534030611405368,0.011511749566036417,0.9909628170316509
2013-08-30,-1,-0.0008499719231911353,-0.0006823743671936145,-0.003534030611405368,0.011511749566036417,0.9909578883266528
2013-09-04,-1,-0.0005302388280010123,-0.0003683247004904965,-0.004464340320962592,0.009431096266391738,0.9914399557829141
2013-09-06,-1,-0.0007216629660314845,-0.0004949536692125597,-0.0039313608240133,0.006406305307270718,0.9919136833976914
2013-09-10,0,0.0,0.0,-0.007295175472249844,0.004316133062502636,0.9918973201052039
2013-09-12,0,0.0,0.0,-0.005852689259543265,0.005834938765198052,0.9909552252976519
2013-09-16,-1,-0.001590756377126245,-0.0012017013068729837,-0.005852689259543265,0.00552493176420543,0.9916614022813476
2013-09-18,0,-5.3528178541050115e-05,8.29004998259899e-05,-0.007295175472249844,0.00392074501849376,0.991992498451646
2013-09-20,-1,-0.00047220769370573043,-0.0003172328709579419,-0.006067585214091438,0.0067378545841205555,0.9915824251553725
2013-09-24,-1,-0.0011090255928022442,-0.0008605328040215781,-0.005484706083475613,0.007949970339724534,0.9914352043329081
2013-09-26,1,0.00036033913090437956,0.0003765282664879617,-0.005484706083475613,0.005118026675130736,0.9925951170157259
2013-09-30,1,0.0005638279379260495,0.0006162105416803092,-0.005484706083475613,0.0067378545841205555,0.9921805607303243
2013-10-02,1,0.00040958645959079346,0.0004375380066320525,-0.004002992808862692,0.00766314085275655,0.9921809895786617
2013-10-04,1,0.0004412266028329953,0.000486339650789544,-0.0037190710035894365,0.00766314085275655,0.9923230957640118
2013-10-08,-1,-0.0003010940330455615,-0.00024196843506650204,-0.00027603709578748225,0.00766314085275655,0.9928404977842626
2013-10-10,1,0.000938309552971219,0.0010524150408240227,-0.0037190710035894365,0.0067378545841205555,0.9933810191776188
2013-10-14,1,0.0010384384450128948,0.0011558652821022457,-0.0037190710035894365,0.007943921473935706,0.9925328850577826
2013-10-16,1,0.0004923664092760264,0.0005494180925346549,-0.0009717941863029976,0.009083164015062279,0.9924359484019335
2013-10-18,1,0.0013143579994433785,0.0014718275754701505,-0.004333324711482007,0.009083164015062279,0.9921445818260672
2013-10-22,1,0.0013081131841678525,0.0014395377054782841,-0.002837037225949382,0.009116228877726293,0.9921145373767082
2013-10-24,1,0.0011363094163858287,0.0012367064264973786,-0.008515362051089577,0.010864860290255246,0.9910038113910898
2013-10-28,1,0.000988037501563091,0.0010605407171226052,-0.002837037225949382,0.011680517220496012,0.9908469336636347
2013-10-30,1,0.001635631892063966,0.0018373854331946433,-0.008459390630616797,0.011680517220496012,0.9906845197859103
2013-11-01,1,0.0010894422810365945,0.0011523563956177334,-0.009754738952304335,0.011680517220496012,0.9900009897220798
2013-11-05,1,0.0013916782246625476,0.001489270500082021,-0.009754738952304335,0.011680517220496012,0.989524354341354
2013-11-07,1,0.00054822441311754,0.0005591401148163772,-0.009275315363913496,0.013053958526519412,0.9898428148432526
2013-11-11,1,0.0004506412688121758,0.0005369128579312767,-0.009275315363913496,0.011281691481182817,0.990774086926882
2013-11-13,0,-0.00010949765953021089,7.93027868848669e-05,-0.009264838240858284,0.013053958526519412,0.9908152800961627
2013-11-15,1,0.00023431886321220068,0.0003719247584647753,-0.009264838240858284,0.013053958526519412,0.9911830667367627
2013-11-19,1,0.0011534892801158703,0.001175874855463097,-0.009264838240858284,0.013633721633176495,0.9902211594786323
2013-11-21,1,0.0021494896866802167,0.0023833414104603057,-0.007509739161287652,0.013949299850770926,0.9902742947173389
2013-11-25,1,0.0027433268546255,0.0030602415656642546,-0.007509739161287652,0.013665588146863583,0.9905587603781689
2013-11-27,1,0.0026119002141873375,0.0029539534389761875,-0.005906216541821748,0.014426680387936411,0.9905339454178781
2013-12-02,1,0.0021229195273340593,0.002380283195969616,-0.0044625667532932145,0.014426680387936411,0.990812238400619
2013-12-04,1,0.0021523983590027865,0.0024345318511420624,-0.0054491447891597935,0.014426680387936411,0.9905333586409708
2013-12-06,1,0.0021174352140580694,0.002372430942140772,-0.004424127669283515,0.014426680387936411,0.991111194543139
2013-12-10,1,0.001935273512477422,0.002189157777545567,-0.004103998795191819,0.014426680387936411,0.9911881477040891
2013-12-12,1,0.0019458718728128975,0.0021635092329764126,-0.004103998795191819,0.010831385843879533,0.991345887694436
2013-12-16,1,0.0020564613380536735,0.0022988897539606584,-0.0035735662396634937,0.010748337033408743,0.9917803726517199
2013-12-18,1,0.002598948771138806,0.002849831376207685,-0.0035735662396634937,0.00974147608568488,0.9929671463285342
2013-12-20,1,0.003090299348719386,0.003437338579547989,-0.002122043834391106,0.00930533223327192,0.9937559988272711
2013-12-24,1,0.004026988869775769,0.00454788887199593,-0.004450319082875006,0.005776256416665167,0.9914887526103835
2013-12-27,1,0.00474122976472175,0.005358243762704306,-0.004450319082875006,0.004436054611592961,0.9911850469677457
2013-12-31,1,0.003963763681036386,0.004433798700724256,-0.005685084732979516,0.004436054611592961,0.9914800504822256
2014-01-03,1,0.003001072289799795,0.003301073167950933,-0.004724698110704428,0.005889100779662104,0.9906889735659554
2014-01-07,1,0.003182314378663895,0.0034934553749394154,-0.004724698110704428,0.00860032462852504,0.9904223602968808
2014-01-09,1,0.002940341658479857,0.0032002538286708755,-0.002899182902286441,0.010748337033408743,0.9896174227511274
2014-01-13,1,0.002030919523973961,0.0021419696507034352,-0.002174666552059846,0.010748337033408743,0.9902000171106747
2014-01-15,1,0.003050145124749412,0.0033298528852919547,-0.003668937482680938,0.00860032462852504,0.9905653359610554
2014-01-17,1,0.0025249013623676094,0.0026823938151104686,-0.003668937482680938,0.00860032462852504,0.9905983925321963
2014-01-22,1,0.001971914459517908,0.002015257798715457,-0.004511015967146607,0.010139520083534467,0.9897306438397231
2014-01-24,-1,-0.00032097913992696584,-6.337688632464939e-05,-0.0012804042774110674,0.010139520083534467,0.9914439769828391
2014-01-28,1,0.0003646095253224894,0.0005252842884369863,-0.002665194843675239,0.00860032462852504,0.9919879920814808
2014-01-30,0,-3.789210377758438e-05,0.00016267618122417016,-0.0036461563397652045,0.00860032462852504,0.9917297610937015
2014-02-03,1,3.4640201324479826e-05,0.00020286289937386352,-0.002665194843675239,0.00920122244969707,0.9924703103895086
2014-02-05,1,0.0003196282017071268,0.00048614209472622237,-0.002665194843675239,0.00751368694896103,0.9930091245611449
2014-02-07,1,0.0018783275707299164,0.0019402014600195631,-0.0034698319731420206,0.006165957139049242,0.994503268581976
2014-02-11,1,0.002136067597216591,0.0022775638947939124,-0.0035058318973458244,0.006165957139049242,0.9939598287061411
2014-02-13,1,0.0017502855260137144,0.0017970934308290374,-0.0035058318973458244,0.006008738652545257,0.9938114309260648
2014-02-18,1,0.0015784507856757613,0.0015867863949900393,-0.004464228157498946,0.006165957139049242,0.9929761141419007
2014-02-20,1,0.002022543589675757,0.0021113018824670806,-0.004464228157498946,0.005934279450750996,0.9932251586782354
2014-02-24,1,0.001846845841755201,0.0018924529517454298,-0.00669245846962033,0.005952215105450476,0.9922150910217686
2014-02-26,1,0.001637724310134522,0.0016414299367654528,-0.00669245846962033,0.005952215105450476,0.9922221063758958
2014-02-28,1,0.000940776586050385,0.0010297996479006844,-0.008176984245243994,0.005952215105450476,0.9919934712933411
2014-03-04,1,0.0013708959383781217,0.0014554176005564627,-0.008176984245243994,0.005952215105450476,0.992096096099159
2014-03-06,1,0.002173378167682358,0.0022483389759769506,-0.011670213535149807,0.005578766496743469,0.9915790042596084
2014-03-10,1,0.0020342380217031096,0.0020943373816616263,-0.012016453963299364,0.005578766496743469,0.9899690847383851
2014-03-12,1,0.0006809985349333515,0.0008380153218646839,-0.011670213535149807,0.006102096950122215,0.9905904256101539
2014-03-14,1,0.0010639222547893523,0.0011226127237446433,-0.011943853512351747,0.005817831340647611,0.9900508801792013
2014-03-18,1,0.0010172719776913534,0.001072890864558521,-0.01186563306617612,0.004869632011545958,0.9909609275419304
2014-03-20,1,0.0002730594866167761,0.0004248804689418064,-0.009499635991505277,0.007120588773949823,0.9900634866502213
2014-03-24,-1,-0.00037990610030415187,-0.0001411392367793216,-0.007655236958218831,0.006678770676331955,0.9907163426445312
2014-03-26,1,3.299480694984283e-05,0.0002110336387947987,-0.007655236958218831,0.006678770676331955,0.990855748611967
2014-03-28,-1,-0.0005884192416239823,-0.0003414066925478418,-0.009313245881502757,0.006678770676331955,0.9901608688545814
2014-04-01,1,0.0007935621730237015,0.000846471125110016,-0.009313245881502757,0.004069006231011124,0.9911369221401657
2014-04-03,-1,-0.0006344349475778229,-0.0003472798142394617,-0.007655236958218831,0.004069006231011124,0.9917996964373136
2014-04-07,-1,-0.001549310937011375,-0.0011986474953993896,-0.004592994014006856,0.004069006231011124,0.9933709244739714
2014-04-09,-1,-0.001214477545176017,-0.0008998055106190974,-0.004592994014006856,0.004838780786016726,0.9930928100124322
2014-04-11,-1,-0.0020815773014209032,-0.0016714506042999173,-0.002820690085558454,0.0069734676597562615,0.9916912990590461
2014-04-15,-1,-0.0015740393035434178,-0.0012392600977020342,-0.0035041928693874754,0.0069734676597562615,0.9920378738277004
2014-04-17,-1,-0.0002718773498363188,-9.788130087963123e-05,-0.004525324788726185,0.004872935575784417,0.9929696589691714
2014-04-22,1,0.0001358188272249095,0.00023738719384431092,-0.004725393118632199,0.004872935575784417,0.992273291398299
2014-04-24,-1,-0.0006322637325389964,-0.0004184330356974094,-0.0035483259042625895,0.004872935575784417,0.9925729215626807
2014-04-28,-1,-0.0019353398496857108,-0.0015522129999046331,-0.002786103436307921,0.00807756842022656,0.9930384611336642
2014-04-30,-1,-0.0021848062861182906,-0.0017650437730754307,-0.002786103436307921,0.00807756842022656,0.9930660467684103
2014-05-02,-1,-0.0022039166642516456,-0.0017934906523472747,-0.002591691275961213,0.00807756842022656,0.9930087667948942
2014-05-06,-1,-0.0027108048715442376,-0.0022198664380601533,-0.0026763834563799547,0.008836393370958085,0.9918458797165552
2014-05-08,-1,-0.00193017359997112,-0.0015471512102573472,-0.0026763834563799547,0.008836393370958085,0.9920982588067592
2014-05-12,-1,-0.00021356748565741056,-3.20771596369414e-05,-0.0034445659565109916,0.008544036685383203,0.993901912635046
2014-05-14,-1,-0.00012391791618767697,-1.165615951436626e-05,-0.0017898070132831368,0.008544036685383203,0.9940756291663548
2014-05-16,1,5.836163345846997e-06,8.742079066285352e-05,-0.0011828816237404124,0.009520397124175746,0.9938023008316489
2014-05-20,1,0.00019711448206683206,0.00024100233570943072,-0.0006229728528942814,0.009520397124175746,0.9940145889864624
2014-05-22,1,0.0006578318708052625,0.0007178508410288661,-0.0006229728528942814,0.009520397124175746,0.9939967509173661
2014-05-27,1,0.0011948981323378382,0.0013137874476969093,-0.0022673826758304134,0.006527786437424398,0.994331266762466
2014-05-29,1,0.0009057080923505353,0.0009511629725849834,-0.004510570054191943,0.006527786437424398,0.9938562881019876
2014-06-02,1,0.0011585457504568763,0.0012607518461092274,-0.005082573181784637,0.006527786437424398,0.9936111929582593
2014-06-04,1,0.0010918975039683999,0.0011817861754292848,-0.005082573181784637,0.005755864555152028,0.9940404038036069
2014-06-06,1,0.0012380128869588663,0.0013102932257585812,-0.005515146068245798,0.005755864555152028,0.9936988049432531
2014-06-10,1,0.001685968687424161,0.001865502572122713,-0.005515146068245798,0.0053551524611800665,0.9940991396935773
2014-06-12,1,0.001626760557226842,0.0017984618943847706,-0.005634775674101571,0.005755864555152028,0.9934253508964729
2014-06-16,1,0.0021839734306090455,0.0024227125944552685,-0.005634775674101571,0.0053551524611800665,0.9938959731673278
2014-06-18,1,0.001753640841412126,0.0018289317972925712,-0.005692095227546027,0.004952026896964663,0.9936019559821867
2014-06-20,1,0.0018233636074514205,0.0019363543142075922,-0.005692095227546027,0.004952026896964663,0.9935322357330758
2014-06-24,1,0.001008981160599852,0.0010268149444645806,-0.005692095227546027,0.004952026896964663,0.9938534354216115
2014-06-26,1,0.0008598995293120947,0.0009056416333117384,-0.005692095227546027,0.005171039451479618,0.9937945778642313
2014-06-30,1,0.00125022870568575,0.0012914297571701566,-0.005925023922822143,0.003688861199849483,0.9934182362250487
2014-07-02,1,0.001599056552031372,0.001747321987996367,-0.006950002138937394,0.002707340837675179,0.99216644777809
2014-07-07,1,0.0012295425351772926,0.0013215842433209187,-0.005925023922822143,0.002707340837675179,0.9929699043603087
2014-07-09,1,0.0010338806897350378,0.0011086691752106703,-0.006403188428329969,0.002707340837675179,0.992733963067418
2014-07-11,1,0.0013349638896203197,0.0014606013475074841,-0.004430195904107701,0.002707340837675179,0.99243630960944
2014-07-15,1,0.0013994109087591285,0.0015429890186033886,-0.004430195904107701,0.0021561913240683477,0.992333722252469
2014-07-17,1,0.0007675739685439873,0.0008308912857667961,-0.0030606243012987096,0.003671749495874063,0.992847171120648
2014-07-21,1,0.001368166558531853,0.001511886029387996,-0.0030606243012987096,0.003671749495874063,0.9925997884513021
2014-07-23,1,0.0006810086421364855,0.0007096045687951496,-0.0030283860730334743,0.005879022251694923,0.992796503246868
2014-07-25,1,0.0014373511457348863,0.0016259707194988485,-0.0030606243012987096,0.005281781422407709,0.992941387490018
2014-07-29,1,0.0010567375692789067,0.0012087102809797147,-0.003515454023987721,0.005281781422407709,0.993069939498425
2014-07-31,-1,-8.220890235766957e-05,-8.110885711612193e-05,-0.0030283860730334743,0.005281781422407709,0.9945194008371188
2014-08-04,-1,-0.00021800450858118538,-0.0001715335845375751,-0.003439214531162779,0.004288118458118154,0.9942625288778587
2014-08-06,-1,-0.0007194709055629283,-0.0006104953989305667,-0.00405066511542228,0.004288118458118154,0.994372863873869
2014-08-08,-1,-4.545077002876953e-05,-1.4677160387047172e-05,-0.00405066511542228,0.004288118458118154,0.9948515258962677
2014-08-12,-1,-0.0005841918270449253,-0.0004683198779312325,-0.004557991137092949,0.005879022251694923,0.994387525361978
2014-08-14,-1,-0.0003433163766070118,-0.00023375398057782614,-0.004966362057195453,0.005879022251694923,0.9937449493747565
2014-08-18,1,0.0002553969515475947,0.000279425637382318,-0.004966362057195453,0.005354427496164574,0.9941090215361725
2014-08-20,1,0.00034062517412652125,0.00038096929393554186,-0.004966362057195453,0.0041349443903782234,0.993699545385516
2014-08-22,1,0.0007604432145576573,0.0008271983784373536,-0.005819958167161276,0.003834701844094802,0.9935788693340715
2014-08-26,1,9.54106708401035e-05,0.00013340818153969875,-0.004842523173748224,0.003834701844094802,0.9939063080466435
2014-08-28,-1,-0.00042602641245711114,-0.0002611904460242788,-0.005819958167161276,0.005663107483807966,0.993369399115538
2014-09-02,-1,-0.0007990304803044725,-0.0006097438507289251,-0.004842523173748224,0.006333272727637571,0.9935748408186479
2014-09-04,-1,-0.0017903749248173167,-0.0014411517392204595,-0.004842523173748224,0.006333272727637571,0.9927506274053594
2014-09-08,-1,-0.0012483569639882676,-0.0009771065414452191,-0.006021727569018824,0.005684645141200861,0.9924118485434602
2014-09-10,-1,-0.00042294266361121333,-0.0003055222831873202,-0.007861463334425473,0.005684645141200861,0.9905855549094402
2014-09-12,-1,-0.0003922329664503018,-0.00028833958207791644,-0.010767217468883466,0.005287921194480093,0.9900907245459162
2014-09-16,-1,-0.0005117668319978774,-0.0003727668064682705,-0.011904660916303296,0.0025739741261112097,0.9878031040737918
2014-09-18,-1,-0.0009252638369491064,-0.0006530598414583344,-0.012800572451512827,1.055006925391208e-05,0.9880688909984229
2014-09-22,-1,-0.0014238307978654478,-0.0010994378747766131,-0.012800572451512827,0.0025739741261112097,0.9869309231312062
2014-09-24,-1,-0.0019116022393391241,-0.0015241120400443953,-0.014614556874901378,0.005684645141200861,0.9854111332476695
2014-09-26,-1,-0.0020670591908645733,-0.0016549530419331542,-0.014614556874901378,0.00798324382509048,0.9844822582262402
2014-09-30,-1,-0.0014998393132505392,-0.0011822315044656669,-0.014614556874901378,0.014342706648175904,0.9839174268519469
2014-10-02,-1,-0.0016821257057483305,-0.0014274058026213956,-0.012800572451512827,0.014342706648175904,0.9848490643470412
2014-10-06,-1,-0.0021854132471021553,-0.0018548275537863899,-0.01206155434053865,0.016357745982521876,0.984728967732432
2014-10-08,-1,-0.0013545990453085533,-0.0011196858880078663,-0.010859473292556798,0.014320233817884892,0.9863477620444963
2014-10-10,-1,-0.00295991875111014,-0.0025408047448444012,-0.0042868126572653854,0.014320233817884892,0.9872336511454614
2014-10-14,-1,-0.005061957105367764,-0.0043989615665724615,-0.0032927370614272587,0.014320233817884892,0.9879776971300519
2014-10-16,-1,-0.0051541037066786324,-0.004522386038100406,-0.0032927370614272587,0.014320233817884892,0.9877789946918393
2014-10-20,-1,-0.0037144980958012264,-0.00325733064523445,-0.0032927370614272587,0.009473112384049971,0.9899016276419529
2014-10-22,-1,-0.0037063986630595574,-0.003255387694860329,-0.0042868126572653854,0.00741101255877008,0.9910170917284886
2014-10-24,-1,-0.0020981140904982195,-0.0018373001931452355,-0.0049723873621196615,0.005481155795770163,0.991228003440343
2014-10-28,-1,-0.0013100069716577736,-0.00116906815682099,-0.0065002004571698534,0.005481155795770163,0.9909255935423507
2014-10-30,-1,-0.001050973012744698,-0.0009470059873475406,-0.00755287509945406,0.005481155795770163,0.9905837068953072
2014-11-03,-1,-0.0005947181294526334,-0.0005464074128910029,-0.00755287509945406,0.005375420454808946,0.9911902731216197
2014-11-05,1,0.00011036742233548464,0.00018629556533729532,-0.00755287509945406,0.0067305528611887,0.9909975824917484
2014-11-07,1,0.0005855049099113838,0.0007609990780215591,-0.00755287509945406,0.005217515931117961,0.9913303214200363
2014-11-11,1,0.0006806501291949439,0.0008692755707738483,-0.008056516854589973,0.003086779505700704,0.9908377900311821
2014-11-13,-1,-0.00014401764461093174,-8.924086551629308e-05,-0.008056516854589973,0.003086779505700704,0.9910924320071738
2014-11-17,1,4.3096529245268414e-05,0.00012695278927200344,-0.008056516854589973,0.0015383200111243537,0.9912861438774461
2014-11-19,-1,-0.0006148009845218806,-0.0006139498378313395,-0.005753649687481715,0.006187069337127388,0.9906430240958161
2014-11-21,1,0.0005335655280649617,0.0006852687949991715,-0.004749477067932118,0.006187069337127388,0.9922900850469334
2014-11-25,1,0.0008043862615802345,0.0009817731252594725,-0.0016752458440490916,0.0067305528611887,0.9927015116496737
2014-11-28,1,0.00033341099271882356,0.00043948425685548905,-0.0016752458440490916,0.0067305528611887,0.9927329438212371
2014-12-02,1,0.0006550732840659565,0.0008173324786694336,-0.005625344819252663,0.006187069337127388,0.992304412295838
2014-12-04,1,0.0007895014126473955,0.0009752187380436635,-0.0071645603486334315,0.004543690160748011,0.9917607235206738
2014-12-08,1,0.0006175088055866987,0.0007494994714631969,-0.007924913733891566,0.006366640722396778,0.9905425701437076
2014-12-10,1,0.0002138649177712805,0.000326710758313847,-0.0071645603486334315,0.008763926867403474,0.990453370067584
2014-12-12,-1,-0.0005498749586744982,-0.0005446053474787457,-0.0071645603486334315,0.008763926867403474,0.9906706335911201
2014-12-16,-1,-0.0003155881406085308,-0.00027542482560635376,-0.007924913733891566,0.008763926867403474,0.9900493266569754
2014-12-18,1,0.0006316794846440907,0.0007733254518255378,-0.008282310998801676,0.004900634977698225,0.9910159300805146
2014-12-22,1,0.0005759020680867527,0.000646783019373782,-0.008282310998801676,0.004900634977698225,0.99120940696375
2014-12-24,1,0.0013011934283069357,0.0014762376853217048,-0.008282310998801676,0.0005199766246259615,0.9914096996569155
2014-12-29,1,0.0009690198433773299,0.001076635251923244,-0.009243816785407453,-0.002637784268901654,0.9908612656682309
2014-12-31,1,0.0006869241118341593,0.0007855533961122624,-0.010455311527368717,0.0005199766246259615,0.9902597648911267
2015-01-05,-1,-2.2253268013201396e-05,-2.0639738246828822e-05,-0.009243816785407453,0.010090698535404943,0.9903670842510748
2015-01-07,1,0.00037949363981270765,0.00045533348640538053,-0.009243816785407453,0.010090698535404943,0.9903348626954644
2015-01-09,1,0.0009030274710441438,0.0010680343814669082,-0.010348005200685146,0.0059013994584082565,0.9906813683872839
2015-01-13,1,0.0008823555817927984,0.0010662510758221704,-0.009299079226751435,0.006065403210095709,0.9910424303713459
2015-01-15,1,0.0004025281652445115,0.0005216936323231716,-0.008752914197338825,0.010090698535404943,0.9906092575482727
2015-01-20,-1,-8.034528655337297e-05,-4.4675698599465984e-05,-0.008311223934598185,0.010090698535404943,0.9907340493794551
2015-01-22,1,0.00046284743529755,0.000586689061233116,-0.008311223934598185,0.007191546035207817,0.9911180274342187
2015-01-26,-1,-4.740841553345987e-05,-1.348373474175937e-05,-0.008311223934598185,0.007191546035207817,0.9912390695842198
2015-01-28,-1,-0.0009379729825858348,-0.0008494053225585694,-0.004900838490029029,0.007577906208534232,0.9917636968533174
2015-01-30,-1,-0.0008964880340530737,-0.0008315673787166011,-0.004900838490029029,0.007577906208534232,0.9916386354115684
2015-02-03,-1,-5.344284620618827e-05,-7.6057179108069664e-06,-0.005543864896315993,0.005164629658899319,0.9924113174047244
2015-02-05,1,0.0001503935956143924,0.00022494199092238886,-0.005543864896315993,0.004625244965507831,0.9928219190285182
2015-02-09,1,4.2569290036362716e-05,0.00011095940718857262,-0.005543864896315993,0.005164629658899319,0.9921168811501981
2015-02-11,1,0.0004112803676646707,0.0005542372885878401,-0.005543864896315993,0.006419559208453566,0.9912265252883515
2015-02-13,1,0.0011435685658886148,0.0013667111389992887,-0.007164405551339258,0.0035440266565511776,0.9917344791381999
2015-02-18,1,0.0007421368354264273,0.0008986097928161778,-0.005458278461544694,0.0059790384850757355,0.991650882882471
2015-02-20,1,0.0007509568638319309,0.0009093707424760071,-0.006313038104270288,0.007598491263635845,0.9909645367884361
2015-02-24,1,0.000805055230378704,0.0009835555956886248,-0.006313038104270288,0.008057344957401893,0.9908196928484052
2015-02-26,1,0.00041129981048312555,0.0004877735782944636,-0.007164405551339258,0.008057344957401893,0.9906686349282011
2015-03-02,1,0.0007470966715849106,0.0008542798414132415,-0.006313038104270288,0.008057344957401893,0.991527499539485
2015-03-04,1,0.0006917964147063445,0.0008266677167845014,-0.006313038104270288,0.008057344957401893,0.9916436971355997
2015-03-06,-1,-0.0004635575410020427,-0.00038646039107692826,-0.0048038990383554685,0.008057344957401893,0.9920823783995519
2015-03-10,-1,-0.0015063541715416703,-0.0012463480286504396,-0.0048038990383554685,0.006206793494167688,0.9929577155567137
2015-03-12,-1,-0.0011666859420973819,-0.0009311305358656988,-0.0048038990383554685,0.006206793494167688,0.9934335197306395
2015-03-16,-1,-0.0009765333992538032,-0.0007913288948976978,-0.0048038990383554685,0.006206793494167688,0.9936478501965923
2015-03-18,-1,-0.0005909702724615088,-0.00044259733992924245,-0.0048038990383554685,0.005130679352630167,0.994219789175729
2015-03-20,1,8.220813450962364e-06,3.663570391981853e-05,-0.005015578626210885,0.005130679352630167,0.9936769677048225
2015-03-24,1,0.00015193767919426349,0.00015322034738815129,-0.005015578626210885,0.003829563666671094,0.9939570359997624
2015-03-26,-1,-0.00017954192071726384,-0.00014459779325294832,-0.004709253977102233,0.003829563666671094,0.9917309425070328
2015-03-30,1,0.00030976292597941456,0.00034363238130907337,-0.004709253977102233,0.002084346555784341,0.9924651466033679
2015-04-01,1,0.0003095631627287579,0.0003552119443330252,-0.004709253977102233,0.002084346555784341,0.992121401171993
2015-04-06,1,0.0002643175218204522,0.0003039679171311639,-0.004709253977102233,0.003829563666671094,0.9919906484950616
2015-04-08,1,0.00017723175855240472,0.00020608181485831873,-0.004709253977102233,0.0025765279590315984,0.9921112157530205
2015-04-10,1,0.00021767437570870157,0.0002440077228767883,-0.004709253977102233,0.0025765279590315984,0.9923837048467822
2015-04-14,1,0.0001895436837716778,0.00020977081379597588,-0.007223238472647104,0.0025765279590315984,0.9918885660070399
2015-04-16,-1,-0.00011947426235715952,-7.801283322143325e-05,-0.007223238472647104,0.005072749713495148,0.9914847014701805
2015-04-20,1,0.00015687405463760487,0.00019662644144240779,-0.004617526692566686,0.005072749713495148,0.9922928062167339
2015-04-22,1,0.00026555131057253464,0.0003267080841343617,-0.004285277842814602,0.006129103288997077,0.9912242247619096
2015-04-24,-1,-0.0009854857381168501,-0.000873977035351794,-0.0016334496155577102,0.006129103288997077,0.993813454308332
2015-04-28,-1,-0.0008949409021710008,-0.0007986930669129746,-0.004285277842814602,0.00653479371775644,0.9928099922253157
2015-04-30,-1,-0.001213140212068277,-0.0010824255094488474,-0.004285277842814602,0.00653479371775644,0.9930842661392256
2015-05-04,-1,-0.0009144454598305838,-0.0008200388146977118,-0.004285277842814602,0.00619090205553781,0.9936599004278778
2015-05-06,-1,-0.0011982196866802994,-0.001049720094736692,-0.004285277842814602,0.00619090205553781,0.9934242109562524
2015-05-08,-1,-0.001374665911110636,-0.0011897963008687751,-0.004285277842814602,0.00619090205553781,0.9934555412011353
2015-05-12,-1,-0.0016949486644147064,-0.0014752599270430413,-0.00254269572132048,0.006247832416127058,0.9935046136910551
2015-05-14,-1,-0.0007141177765518431,-0.0006484502346399814,-0.0034943032649932455,0.005022147256439526,0.9940219379160102
2015-05-18,-1,-0.0005089144004622319,-0.00047905617275405504,-0.0045811234940240295,0.005022147256439526,0.9934519941866465
2015-05-20,1,0.00024066748858230506,0.0003195628915910937,-0.0045811234940240295,0.00452931736282047,0.9943099399361108
2015-05-22,1,4.867615752298437e-05,0.00010173729954910356,-0.007718293164723777,0.00452931736282047,0.9938127463023038
2015-05-27,-1,-9.507510473645258e-05,-7.946301246695455e-05,-0.005103423002192201,0.003924327686605967,0.9944741409537913
2015-05-29,-1,-0.0005449477070661079,-0.0004911819818946441,-0.005103423002192201,0.004500098143305489,0.9941457313427009
2015-06-02,-1,-0.00022807142920608728,-0.00022348269793270002,-0.007718293164723777,0.004500098143305489,0.9928193684261665
2015-06-04,-1,-0.00036159726064026725,-0.00034353573205658946,-0.007718293164723777,0.004500098143305489,0.9925743332544975
2015-06-08,-1,-0.0003869258756062676,-0.0003653707196584423,-0.007718293164723777,0.004934489597894585,0.9919954277402022
2015-06-10,-1,-0.0003121610931334547,-0.0002845011539497163,-0.008679120390352821,0.004766840765805594,0.9910758150282473
2015-06-12,-1,-0.00043115416684553684,-0.000386047757123978,-0.008515624508573065,0.005737279993114655,0.9907833287557332
2015-06-16,-1,-9.922390182468906e-05,-8.045365429224024e-05,-0.006854051565431514,0.004766840765805594,0.9917630710061734
2015-06-18,-1,-0.0003182345341516631,-0.0002859086599312609,-0.006854051565431514,0.004766840765805594,0.9917901412359337
2015-06-22,-1,-0.0007760702362642625,-0.0006723825158338119,-0.006148763734358994,0.004766840765805594,0.9920286054908803
2015-06-24,-1,-0.000879702778464479,-0.000774832927463224,-0.00770588153654072,0.004766840765805594,0.9911011327309184
2015-06-26,-1,-0.000766176413395162,-0.0006842651685609938,-0.00770588153654072,0.004258801066917364,0.990944158605346
2015-06-30,-1,-0.0010187426077441874,-0.0009167319811106737,-0.006148763734358994,0.006310271291442402,0.9917478379143668
2015-07-02,-1,-0.0012065539408381131,-0.0010733032071346443,-0.005406123911529884,0.006372601037959243,0.9910756536621009
2015-07-07,-1,-0.0007650691347650413,-0.0006846157541994728,-0.0045881429261183555,0.005074760645587753,0.9914881951795209
2015-07-09,-1,-0.0010256180145020138,-0.0009460977165017758,-0.003947404529158725,0.004350315381935222,0.9927174375692625
2015-07-13,-1,-0.0009543097343553941,-0.0008719590728668094,-0.003947404529158725,0.004350315381935222,0.992429787403822
2015-07-15,-1,-0.0006831025695036673,-0.0006427715048029004,-0.0045881429261183555,0.004350315381935222,0.9916164623082787
2015-07-17,-1,-0.0006598040344869445,-0.0006162248167849244,-0.006785543239026368,0.0038874057943065784,0.9915598477335139
2015-07-21,-1,-0.0008690584866957576,-0.0007986846914325262,-0.005370046933139642,0.004350315381935222,0.9911978972219186
2015-07-23,-1,-0.0008481536395604346,-0.0008134293985823045,-0.00968484289070891,0.004350315381935222,0.9907705470943818
2015-07-27,-1,-0.0018453630100182404,-0.0016867191819102871,-0.012843311986868822,0.004350315381935222,0.9886956074051081
2015-07-29,-1,-0.0009355225355414784,-0.0008480034602015066,-0.012843311986868822,0.004284167540803272,0.9883095976028453
2015-07-31,-1,-0.00032583910665165416,-0.000301427349671133,-0.012843311986868822,0.004284167540803272,0.9887775182361856
2015-08-04,-1,-0.000251496913777888,-0.00023269299693561585,-0.017412918506831222,0.003813488138049833,0.9879175376200432
2015-08-06,-1,-0.00026674146078859145,-0.00026590606413251256,-0.017412918506831222,0.005934702337290289,0.986970183226553
2015-08-10,1,0.00018233472745263717,0.0002736091212214412,-0.017708829966856392,0.005934702337290289,0.9858103664042771
2015-08-12,1,8.84096219016547e-05,0.00015618575198948287,-0.017412918506831222,0.005934702337290289,0.985862649456324
2015-08-14,-1,-0.00022915508085608605,-0.00020746624767797254,-0.017412918506831222,0.007220852111192067,0.9861633870444714
2015-08-18,-1,-0.00014471008764272136,-0.00012116259490657072,-0.017412918506831222,0.009551781851242022,0.9856170788982329
2015-08-20,-1,-0.0003663879784380598,-0.00033865348561066427,-0.015973160043646777,0.009551781851242022,0.9854992556850705
2015-08-24,-1,-0.0006941919108835554,-0.000680630214239855,-0.012925493993855322,0.009551781851242022,0.9874898975838241
2015-08-26,-1,-0.00021974325938918762,-0.00017333698387216894,-0.012925493993855322,0.006671118502495108,0.9878931773768472
2015-08-28,-1,-0.000287488954471971,-0.00025754043133329125,-0.014944335738205246,0.006654278739326659,0.9875311509013629
2015-09-01,-1,-0.0005560779928495698,-0.0005518087833177446,-0.012925493993855322,0.006654278739326659,0.9884351231539914
2015-09-03,-1,-0.00013708451763085947,-7.253394536378962e-05,-0.012925493993855322,0.0073224997227247755,0.9881166418027206
2015-09-08,1,0.00023040260116293448,0.0003426728657521315,-0.011782837394036136,0.007680612902677127,0.9893946087506305
2015-09-10,-1,-0.00036517608388141146,-0.00033142036079004467,-0.009118801199862223,0.011806659267459208,0.9886906584085762
2015-09-14,0,-9.526731854262512e-06,8.220175364690021e-05,-0.009118801199862223,0.011806659267459208,0.9886713444408568
2015-09-16,-1,-0.00025155747603227644,-0.00023613674880643655,-0.009956135707500622,0.009629607042857391,0.988877775817832
2015-09-18,-1,-0.001151706358292451,-0.0010623346207426507,-0.007852349862160936,0.01123385570089263,0.989890760157165
2015-09-22,-1,-0.001650071868222881,-0.0014826074880545568,-0.007852349862160936,0.011806659267459208,0.9895261242742247
2015-09-24,-1,-0.0016828361840416249,-0.0015297357654909941,-0.005501910575310288,0.012509640492018352,0.9880776177128482
2015-09-28,-1,-0.002377041370737378,-0.0021409408746533984,-0.005962932034841487,0.012509640492018352,0.9890095564014495
2015-09-30,-1,-0.0021676863925012444,-0.0019619016513525434,-0.00796916753317631,0.012509640492018352,0.9882741272586673
2015-10-02,-1,-0.0011463782729838063,-0.0010391847374901385,-0.00796916753317631,0.01123385570089263,0.9895656304997419
2015-10-06,-1,-0.0007916820814825754,-0.0007538194166190555,-0.00796916753317631,0.01123385570089263,0.9898284104661423
2015-10-08,1,0.00035262161565055735,0.0004674814033389269,-0.00796916753317631,0.007622155226339857,0.9912497040116167
2015-10-12,1,0.00016402567902876696,0.0003016100745193892,-0.007258411957580375,0.007622155226339857,0.9913651828373178
2015-10-14,1,0.00032716547058460273,0.00047580796500607496,-0.005726013509642842,0.00815690477901827,0.9913641534513113
2015-10-16,1,0.0005701755180764833,0.0007636246270347375,-0.009016471784617775,0.00658757366555977,0.9891216088907289
2015-10-20,1,0.0006940575844938849,0.0008772761138375285,-0.007500531115291302,0.00658757366555977,0.9893005006356574
2015-10-22,1,0.0012863961601862416,0.001556587863746102,-0.006518842314029052,0.00658757366555977,0.9908876304415632
2015-10-26,1,0.00042893621956513597,0.0005749368649927769,-0.006518842314029052,0.00658757366555977,0.9911014184532587
2015-10-28,1,0.00046138428241969637,0.0006121265032424889,-0.005587356361240388,0.0038259598265868106,0.9920221348006242
2015-10-30,1,0.0005957298943447853,0.0007831222835184325,-0.005587356361240388,0.0031693676400806033,0.9920539045046126
2015-11-03,1,0.0010628828497944315,0.0013072944783093737,-0.00733047528727621,0.0015291661586028689,0.9908867918004698
2015-11-05,1,0.0010314154356456853,0.0012739855455336075,-0.009111749161818963,0.0031693676400806033,0.9904277804716771
2015-11-09,1,0.0009575823809986925,0.0011998107009198533,-0.009511126791125545,0.0019900373452656347,0.9897464909319545
2015-11-11,1,0.0012041149770568816,0.0014608982618828461,-0.009511126791125545,0.0007354193904848883,0.9899786567229756
2015-11-13,1,0.0004792529594964143,0.000635098574017964,-0.009511126791125545,0.0007354193904848883,0.9912700247254986
2015-11-17,1,4.6190665003885986e-05,0.00014094674574327516,-0.009511126791125545,0.0014028548252057274,0.9916197073029449
2015-11-19,1,0.00011716051712330137,0.00019510984400406459,-0.01434230990887098,0.0007354193904848883,0.9899645453366016
2015-11-23,-1,-0.00015007217420250128,-0.00011230183951298292,-0.01434230990887098,0.002790433639889179,0.9893143656080877
2015-11-25,1,0.00016097895799982974,0.0002744560224761772,-0.01434230990887098,0.005044093357737284,0.988236762265106
2015-11-30,-1,-0.0003825247937299642,-0.0003775401928811607,-0.01434230990887098,0.007646490461598187,0.9877894149014538
2015-12-02,-1,-0.0011127413143394616,-0.0010338928582448853,-0.013853490530645756,0.007646490461598187,0.9884499719599535
2015-12-04,-1,-0.0008146220794422175,-0.0007790977283477751,-0.013853490530645756,0.0050926479760317,0.9885611859276952
2015-12-08,-1,-0.001543405994045098,-0.0014328186997055212,-0.013853490530645756,0.0050926479760317,0.9880797526699518
2015-12-10,-1,-0.0017556973436179044,-0.001605663438638439,-0.013853490530645756,0.0050926479760317,0.98849472463439
2015-12-14,-1,-0.0028250198936875305,-0.0025217191348155467,-0.012410657540714139,0.009939132829175376,0.9885072463975932
2015-12-16,-1,-0.002595939770375364,-0.002297104816410749,-0.012410657540714139,0.009939132829175376,0.9884105608933025
2015-12-18,-1,-0.0034966961316429913,-0.003124249201918278,-0.010208852325425257,0.009939132829175376,0.9887213151537741
2015-12-22,-1,-0.0015355230490087727,-0.0014442002660912212,-0.010208852325425257,0.008089256232879401,0.9889397388465955
2015-12-24,-1,-0.0013186713493521574,-0.0012315145513308488,-0.010208852325425257,0.008089256232879401,0.985060605834587
2015-12-29,-1,-0.0007140940965431471,-0.0007056826478173284,-0.010934219614380417,0.006173976858503244,0.9852711569085076
2015-12-31,-1,-0.001147873218531216,-0.0010981677209974195,-0.009811957581584723,0.008089256232879401,0.9846432146575345
2016-01-05,-1,-0.0013911880375565098,-0.001304612745512504,-0.009584112610052535,0.01062139291429133,0.9840545661030184
2016-01-07,-1,-0.002199910489361456,-0.002008270740000627,-0.005987064006131735,0.01262750301891862,0.9843558985939584
2016-01-11,-1,-0.0018750651092603473,-0.0017382314889132072,-0.007613764855920881,0.01262750301891862,0.9842508898999606
2016-01-13,-1,-0.002591556289178687,-0.002336624063451415,-0.009181477305212963,0.01262750301891862,0.9841618396608844
2016-01-15,-1,-0.0026388581600975142,-0.002333556186077887,-0.009181477305212963,0.013114999347954502,0.9835880040710073
2016-01-20,-1,-0.002470668747599752,-0.00222008433227067,-0.009181477305212963,0.016779446826516026,0.9833672380946541
2016-01-22,-1,-0.0018748856741748364,-0.0017155047288269659,-0.009910966052769858,0.01624605413622277,0.9825750087116328
2016-01-26,1,2.7016516739244696e-05,6.65244101052055e-05,-0.010330825008567905,0.016065180819099002,0.9860946930205626
2016-01-28,-1,-0.0002779320301314964,-0.00024591888713619114,-0.009823074066503686,0.016065180819099002,0.9853708928963066
2016-02-01,1,0.00045258192247607385,0.000600352863823895,-0.009823074066503686,0.016065180819099002,0.9857888371513756
2016-02-03,1,0.0003572749108459956,0.00046050763834465977,-0.007920932433195131,0.015683618595406814,0.9864478241162387
2016-02-05,1,0.0009989995401556077,0.0012050808694354957,-0.007920932433195131,0.015683618595406814,0.9872483478640478
2016-02-09,1,0.0010097461034807489,0.0012495958650205442,-0.010901100774862253,0.015683618595406814,0.9868385824623885
2016-02-11,-1,-0.0003258310205136841,-0.0003169300538180326,-0.007432226473365918,0.017330502561201354,0.9864699778569855
2016-02-16,1,0.00021890607631017925,0.00028060465056785897,-0.009764302191235197,0.015683618595406814,0.9873396167806855
2016-02-18,1,9.690655184182949e-05,0.00011945628348584853,-0.007272682863010406,0.01426383416369811,0.9882062955543514
2016-02-22,-1,-0.0003123315136784288,-0.00025357339129550077,-0.004747137622233243,0.010297184582347508,0.9901038190865872
2016-02-24,1,0.00016231062853059908,0.00016512131324274897,-0.007199603735387965,0.007672761354319962,0.9904241675348455
2016-02-26,1,0.0010373696257065213,0.0012061604471055188,-0.007199603735387965,0.007028331129810355,0.991389340432773
2016-03-01,1,0.0015501348057148623,0.0018004320224003071,-0.005451417067233894,0.007028331129810355,0.9922861496787306
2016-03-03,1,0.0020646738154857566,0.002439817895259426,-0.004781796389789696,0.005992146066167098,0.9928640512975467
2016-03-07,1,0.0018931339103037503,0.00221630392849859,-0.00938552119801236,0.005992146066167098,0.9909523703033669
2016-03-09,1,0.00169621930089445,0.002002749149976407,-0.008440587396047156,0.005133503851388523,0.9912505945626534
2016-03-11,1,0.0021899766497248683,0.00257395067740506,-0.006081169025695711,0.0064594219258258395,0.9926230319327227
2016-03-15,1,0.002062936128120557,0.002443553350217555,-0.005159272051876572,0.008358636914473026,0.9920624121088966
2016-03-17,1,0.0027045699348025873,0.003195878025700349,-0.005663981675553232,0.008268252690343942,0.9918724459626552
2016-03-21,1,0.00221241681001711,0.002601392344708511,-0.006085784784754763,0.008268252690343942,0.991856524376468
2016-03-23,1,0.0016428948058710667,0.0019510718615290607,-0.005159272051876572,0.008852486477282855,0.989981915172174
2016-03-28,1,0.002029764294582829,0.0023927230515543075,-0.005159272051876572,0.009073265975067147,0.9899906237251966
2016-03-30,1,0.0026532903347155023,0.003127061624663326,-0.005159272051876572,0.008790481459696305,0.9902543035873068
2016-04-01,1,0.0027773214686448522,0.003261704330895395,-0.006085784784754763,0.008790481459696305,0.9885186741285475
2016-04-05,1,0.0017930171102305326,0.0021384776039660445,-0.005532170013572714,0.008790481459696305,0.9893753911347478
2016-04-07,1,0.0018171123485889896,0.0021935224012181015,-0.006085784784754763,0.008790481459696305,0.9891902068753091
2016-04-11,1,0.0016785957222111088,0.001971769057792667,-0.006085784784754763,0.008790481459696305,0.9892617825525166
2016-04-13,1,0.00240527482005352,0.0027880493490506433,-0.006085784784754763,0.00792775375970873,0.9896570468561072
2016-04-15,1,0.002473064613735006,0.002879828284263499,-0.00647955964438086,0.007240722876856197,0.9897081822537929
2016-04-19,1,0.0022303255642018268,0.0025852303525434007,-0.005908212727144403,0.008001346925636825,0.9877086307615411
2016-04-21,1,0.003902818753630947,0.0044754967139702135,-0.005908212727144403,0.007240722876856197,0.9905088152895404
2016-04-25,1,0.003745957561866565,0.004293978371597882,-0.005908212727144403,0.007240722876856197,0.9901578296610483
2016-04-27,1,0.0035512948972689536,0.004019034658132669,-0.005908212727144403,0.008840829446845371,0.9891148636384349
2016-04-29,1,0.0027481088438108354,0.003104324420751004,-0.002491777333786162,0.008840829446845371,0.9906321503171315
2016-05-03,1,0.0018989618001447027,0.002102601929943903,-0.001405561107582738,0.012095482606441112,0.9909927300706586
2016-05-05,1,0.0012811923699813051,0.0013877537081272491,4.6930879268860344e-05,0.012095482606441112,0.9912776501588617
2016-05-09,1,0.0010548990538262024,0.0010751392252545127,0.0005282348219542934,0.009658063238422662,0.9915965444714949
2016-05-11,1,0.0016666267337420316,0.001785959744732488,-5.907493038033234e-06,0.006323382080753557,0.9924712979022349
2016-05-13,1,0.0007176823397977157,0.0007887693409718531,-0.001405561107582738,0.006323382080753557,0.9923612242196361
2016-05-17,1,0.002170228551716387,0.002325705910876847,-0.001405561107582738,0.00490775749892197,0.9945740352069321
2016-05-19,1,0.002277310159467003,0.0024507225841736056,-0.0020902335402665736,0.00490775749892197,0.9941318999495594
2016-05-23,1,0.002793445894873853,0.0030549560628561913,-0.0020902335402665736,0.004466479842571305,0.9947184918781141
2016-05-25,1,0.003105456071860693,0.003364286000474731,-0.0020902335402665736,0.004466479842571305,0.9955147877705572
2016-05-27,1,0.0025587308441832636,0.002725268414753896,-0.004421080019626265,0.004466479842571305,0.9913614750291359
2016-06-01,1,0.0023996753199046527,0.0024842536852055586,-0.004421080019626265,0.00490775749892197,0.9906166449689905
2016-06-03,1,0.0020422695423870283,0.002066566636543832,-0.004421080019626265,0.0066085984443015,0.9898893116093309
2016-06-07,1,0.0015225659239554898,0.0015850317357984699,-0.004876679483091256,0.0066085984443015,0.9882948637270077
2016-06-09,1,0.0018702706721079707,0.0018752502176013434,-0.004876679483091256,0.007912600828356386,0.9872601757061525
2016-06-13,1,0.0010699903761173248,0.0012280348744867378,-0.0019844189239508294,0.007912600828356386,0.98762025967292
2016-06-15,1,0.0008753332155707683,0.001006161006096271,0.00016721444571220087,0.007912600828356386,0.9877323709029282
2016-06-17,1,0.0024266731313872555,0.0025770317225599156,-0.0007725407978327679,0.007912600828356386,0.9882417738593889
2016-06-21,1,0.002010768223360497,0.0020603486832974087,-0.0007725407978327679,0.007912600828356386,0.9881639147279419
2016-06-23,1,0.002741204586857656,0.002907914711912086,-0.0007725407978327679,0.018067064274944363,0.9863761664143987
2016-06-27,0,-3.5834824955991644e-05,0.000143547983647844,0.0001668122780578111,0.018067064274944363,0.9890384512432822
2016-06-29,1,0.0014141767137371944,0.0014343273662512893,-0.0007725407978327679,0.007198794533132506,0.9906029178423669
2016-07-01,1,0.001864276194248564,0.0019138403302139655,-0.0007725407978327679,0.004549911747846034,0.9916687114680995
2016-07-06,0,-0.00012057750473184277,0.00014435402015379147,-0.001027878216139319,0.004549911747846034,0.9919703780492187
2016-07-08,1,0.0015816023646656233,0.0016077874350977604,-0.0018650332286586971,0.004549911747846034,0.9924090971297388
2016-07-12,1,0.0012479455341243878,0.001308550283964229,-0.004399383393887558,0.004345131648989843,0.9919006125277078
2016-07-14,1,0.0010221380178760005,0.0011257207395960146,-0.004992985204289374,0.003684911116300382,0.9917769241069968
2016-07-18,1,0.0008731524988926014,0.0009827296953255518,-0.007246348653321154,0.005067219603396957,0.9909846170823219
2016-07-20,1,0.0011972793845531865,0.0012359019591586557,-0.007246348653321154,0.005693580657028906,0.9905086943696483
2016-07-22,1,0.0032383723903519897,0.003488421306119783,-0.007246348653321154,0.004378172437643617,0.9921495556068337
2016-07-26,1,0.0027489287466376557,0.002928822012580963,-0.007246348653321154,0.004378172437643617,0.9917548810188428
2016-07-28,1,0.002531090472747344,0.0026831446019366777,-0.007941367664453155,0.004378172437643617,0.9909632094163681
2016-08-01,1,0.0023670003757194067,0.002466272294115802,-0.00957482777595613,0.005693580657028906,0.9900131395141502
2016-08-03,1,0.0018217805364330127,0.0018613964821811652,-0.00788599437771316,0.005693580657028906,0.9904151373731851
2016-08-05,1,0.0017408555455654686,0.0017419169900571103,-0.007834419689825602,0.009042050501130628,0.9896133491935023
2016-08-09,1,0.001316741539623108,0.0013416393419538237,-0.007834419689825602,0.012982607034784073,0.9876454506033666
2016-08-11,1,0.000782337790731604,0.0008844998521403021,-0.010587105341619295,0.013342632564595239,0.9852419160059057
2016-08-15,0,-0.00014376598200531367,0.00011875815818937919,-0.010587105341619295,0.013342632564595239,0.9847017927059564
2016-08-17,0,-5.9409393050044294e-05,0.00017731215863070525,-0.010587105341619295,0.013342632564595239,0.9845149068653091
2016-08-19,1,0.0005762013380724202,0.000723308260338948,-0.010587105341619295,0.012982607034784073,0.9845256324920638
2016-08-23,1,0.0006512087172962805,0.0007863609744783664,-0.008272093927270033,0.012982607034784073,0.9850696837866094
2016-08-25,-1,-0.0012853847012848714,-0.0008492191780358053,-0.008272093927270033,0.012982607034784073,0.9854820292131925
2016-08-29,-1,-0.0015889924076539952,-0.0010904327279368839,-0.007418632835843567,0.013052918085210237,0.9857809978988396
2016-08-31,-1,-0.0020828468195300378,-0.0015435186808144409,-0.0073152424156661296,0.013635819652269395,0.9846919206593259
2016-09-02,0,-5.1744363675153304e-05,0.0002009598090075039,-0.0073152424156661296,0.013516886320257153,0.9857865656359261
2016-09-07,-1,-0.0006996536769873539,-0.0003622663451933808,-0.0073152424156661296,0.011293465315919776,0.9873173130894685
2016-09-09,-1,-0.0021401620306513375,-0.001624790087103402,-0.0073152424156661296,0.009541454569128846,0.9898793851935483
2016-09-13,-1,-0.0016406306152427202,-0.0012822480123853546,-0.007863756035077305,0.009541454569128846,0.990468226114255
2016-09-15,-1,-0.0021941211491374214,-0.001774439306191375,-0.00870849751466332,0.009541454569128846,0.9903708825175839
2016-09-19,-1,-0.0019651421782235683,-0.0015978196397782726,-0.00870849751466332,0.009541454569128846,0.9903932218576273
2016-09-21,-1,-0.0024109618808851214,-0.0019339780574908283,-0.00870849751466332,0.009233488384138148,0.9905727508737829
2016-09-23,-1,-0.0031491390887070717,-0.002550538083613159,-0.006868139964269956,0.009056807212402027,0.9916427440392752
2016-09-27,-1,-0.002923887932495011,-0.002321615362406296,-0.008617886206081855,0.007859197143128493,0.9916261650967907
2016-09-29,-1,-0.0022802260699094144,-0.001770703036144346,-0.008617886206081855,0.0058161859228114,0.9928241340194397
2016-10-03,-1,-0.0017237915034223072,-0.001302837419438367,-0.010903847371573214,0.004389059255356202,0.9895535187917708
2016-10-05,-1,-0.0014213679597877638,-0.001110082194722572,-0.008617886206081855,0.004389059255356202,0.989501243365827
2016-10-07,-1,-0.0012487160666453893,-0.0010125093227282929,-0.010903847371573214,0.004389059255356202,0.9893094138503246
2016-10-11,-1,-0.0017017983796316903,-0.0014171589476703263,-0.004631078837096899,0.007859197143128493,0.9866070553702239
2016-10-13,-1,-0.0016384791485173802,-0.0013822055774836814,-0.0034631948736634065,0.009056807212402027,0.9856382556412856
2016-10-17,-1,-0.0012168876426921036,-0.0010485102299939097,-0.004631078837096899,0.007948439982187718,0.9850631850339194
2016-10-19,-1,-0.0008330461246255254,-0.000706091221200185,-0.004631078837096899,0.008056608909751075,0.9852652993767318
2016-10-21,-1,-0.0005124732619473221,-0.0004547881341394654,-0.003126978859569627,0.008056608909751075,0.9852498890467026
2016-10-25,-1,-0.0008981176938875288,-0.0007820660960442739,-0.0020974842112096445,0.009128291814602032,0.9854455987444349
2016-10-27,-1,-0.0008570123109413497,-0.0007444330768288599,-0.0020974842112096445,0.009128291814602032,0.9849766615237328
2016-10-31,-1,-0.0020687074113325985,-0.001832878906723891,-0.0010124608780181829,0.00927719205746883,0.9870568246208467
2016-11-02,-1,-0.0021059175513238777,-0.001846556361489487,-0.0020974842112096445,0.00927719205746883,0.987257186358175
2016-11-04,-1,-0.002365995165223895,-0.002072932385174505,-0.00391046929827134,0.00927719205746883,0.9869146638243549
2016-11-08,-1,-0.00018477905733843832,-0.00014797325336051844,-0.00885228304443967,0.008196523929934772,0.9902434645809104
2016-11-10,1,0.0002828375530613036,0.00030681539423094124,-0.00969311809322903,0.0065931869669754945,0.9911882489207103
2016-11-14,-1,-0.00013121754859727176,-0.00012526744552458628,-0.00885228304443967,0.0065931869669754945,0.9919770271822109
2016-11-16,-1,-0.0011964061099617364,-0.000977647966558182,-0.010738154062747845,0.005410334738468534,0.9913999187083475
2016-11-18,-1,-0.0006976289123894702,-0.0005752443086966164,-0.010738154062747845,0.005634070703114527,0.9910166826452369
2016-11-22,0,-1.010529020376604e-05,6.3204399006952505e-06,-0.010738154062747845,0.005634070703114527,0.9908350995290903
2016-11-25,-1,-8.243971303891677e-05,-3.438379076409778e-05,-0.010738154062747845,0.0023382664148262596,0.9912022760586783
2016-11-29,1,0.0004013834112232495,0.0004806670908307591,-0.010738154062747845,0.0013224200330133919,0.9917149789371192
2016-12-01,1,0.0001911045266693502,0.0001968638053191393,-0.01178607813080592,-0.0007615619884322833,0.9922249405207489
2016-12-05,-1,-0.0004928566444640523,-0.0004216368582609474,-0.010708354120019482,0.0015187733898938403,0.9921261155388503
2016-12-07,-1,-0.0004387109440319542,-0.00037269247035742086,-0.010708354120019482,0.0015187733898938403,0.9912488790616703
2016-12-09,-1,-0.00073464849345138,-0.0006413757969565534,-0.00860101245372747,0.002427036705924958,0.9907403273339692
2016-12-13,1,7.931262789792073e-06,8.721030800808193e-05,-0.00860101245372747,0.006793669385134305,0.9901038680005882
2016-12-15,-1,-0.000652267386912641,-0.0006218015974352579,-0.006937976208406709,0.006793669385134305,0.9906772872049825
2016-12-19,-1,-0.00046804434143189776,-0.0004609749697296453,-0.005473957908255613,0.00375493773962848,0.9910491848467042
2016-12-21,-1,-0.0002959490549146029,-0.00027135623574348544,-0.005473957908255613,0.003041947418152768,0.9912539499148691
2016-12-23,-1,-0.0004595003385608989,-0.00045165350994011037,-0.005473957908255613,0.008638401521817735,0.9904895078575646
2016-12-28,-1,-0.0006738306703075302,-0.0006456134812078281,-0.005473957908255613,0.008638401521817735,0.9904232467041734
2016-12-30,-1,-0.0010710148895066794,-0.0009810015977342167,-0.004606665374913781,0.008638401521817735,0.9907213158383347
2017-01-04,-1,-0.0004107286950647825,-0.00039628514871373395,-0.005473957908255613,0.006076879414476957,0.9906074218427581
2017-01-06,0,-2.828177432065074e-05,2.4963091180513712e-06,-0.005473957908255613,0.006076879414476957,0.9914144082538973
2017-01-10,1,0.00042188675417952765,0.0005199014305914055,-0.007043934124342535,0.004963514850611708,0.9912804328813124
2017-01-12,1,0.0005123818227711795,0.0006351445565871574,-0.006111670810242638,0.005924367531462943,0.9911911076058457
2017-01-17,1,0.00017507671990482464,0.00026591994553177195,-0.005558838761354304,0.005924367531462943,0.9915160700913327
2017-01-19,-1,-0.00016359597964478385,-0.00015151834777676467,-0.005558838761354304,0.005924367531462943,0.9914929809256128
2017-01-23,1,0.0002552852442967666,0.00033816916586995355,-0.005558838761354304,0.005967508273458849,0.99092608021424
2017-01-25,1,0.0002897224525059591,0.00035294745488960064,-0.009026772387994028,0.004977895097943677,0.9906122551609001
2017-01-27,1,0.0005113916334987337,0.0006525899048712821,-0.006780336756270444,0.0074749416654555055,0.9905793430473291
2017-01-31,1,0.0008277579160149665,0.0010004295077390506,-0.007436466745562873,0.008092919962845285,0.9896063160768973
2017-02-02,-1,-0.0002662223681529465,-0.0002582493126389709,-0.007436466745562873,0.008092919962845285,0.9906871704394365
2017-02-06,-1,-0.0003208749864357424,-0.0003008490869594331,-0.007109943505340689,0.0074749416654555055,0.9908647907242335
2017-02-08,-1,-0.0010639670774973999,-0.0009410123556122287,-0.007294132615575646,0.0074749416654555055,0.9917173160809801
2017-02-10,-1,-0.00041504129321133856,-0.00037245814282096837,-0.007294132615575646,0.006127086270628387,0.9921131110759309
2017-02-14,-1,-0.00045536887043457,-0.0004199343783180738,-0.007823133877416115,0.008476029020984004,0.9908272131948221
2017-02-16,-1,-0.0006366191942089803,-0.0005670975741048997,-0.007823133877416115,0.008476029020984004,0.9907057896379412
2017-02-21,1,0.0002744697048733386,0.00035747590893715997,-0.008089942968664601,0.0073493772476046606,0.9903109495250301
2017-02-23,-1,-0.00037290407187726084,-0.0003650376784849153,-0.0075054727160014925,0.008476029020984004,0.9908283091088806
2017-02-27,1,0.00020976246400943927,0.00028866100484356935,-0.0075054727160014925,0.005378093857367587,0.9911611905525018
2017-03-01,1,0.0003462826659113355,0.0004428350776099342,-0.0075054727160014925,0.007657869978114234,0.9913320346447214
2017-03-03,-1,-0.00010497250264645533,-8.7503275474741e-05,-0.007203186642188664,0.007657869978114234,0.9919214441714137
2017-03-07,-1,-0.0005466394362943875,-0.0004966434192295932,-0.0075054727160014925,0.007657869978114234,0.9913519541430953
2017-03-09,-1,-0.0007259973104209702,-0.0006502168719707251,-0.0069138505886092005,0.007657869978114234,0.9914326917596721
2017-03-13,-1,-0.0005130029797505128,-0.0004563191834314074,-0.0069138505886092005,0.005447322223374962,0.9916346983649866
2017-03-15,1,0.00015511991115710672,0.0002011669952943307,-0.0069138505886092005,0.004811219783664294,0.9927983686567172
2017-03-17,-1,-9.911414788388167e-05,-8.770990577218616e-05,-0.00735490993563114,0.005447322223374962,0.9922484507267506
2017-03-21,-1,-0.0005475966468225279,-0.0004947236444994838,-0.006893978319614743,0.0052422192989639675,0.9932596615981613
2017-03-23,-1,-0.00042276858220132905,-0.000387409008496604,-0.005147132275787933,0.006602834898565968,0.9931894478193845
2017-03-27,-1,-0.0025529445520053283,-0.0021406706864209426,-0.0031061377703597483,0.007868467660056562,0.9918269949246701
2017-03-29,-1,-0.0012565414394311628,-0.00103986269856811,-0.005294152058128579,0.006435237747957417,0.9922681544260592
2017-03-31,-1,-0.001522602678185413,-0.0012600472297244463,-0.007438322443292334,0.006435237747957417,0.9917511849531714
2017-04-04,-1,-0.0006655685462844119,-0.0006318487452896805,-0.005294152058128579,0.006435237747957417,0.9926608869104425
2017-04-06,-1,-0.0001524072129603365,-6.154160631050546e-05,-0.003757657325451331,0.006925949901915625,0.9925529354948425
2017-04-10,-1,-0.0006319542840392109,-0.000611424866355885,-0.0033914851995779224,0.006925949901915625,0.9927917023215657
2017-04-12,-1,-0.0005616868771584576,-0.000555909102817271,-0.0033914851995779224,0.007951950813333577,0.992242808973975
2017-04-17,-1,-0.00019907454787824672,-0.00013371998042017747,-0.0021107841229103886,0.007951950813333577,0.9926111219829861
2017-04-19,1,0.00019684497701291507,0.00034484940231778666,-0.0048421263347471835,0.007951950813333577,0.9917590304666607
2017-04-21,1,0.001171996208414865,0.0014808581929334833,-0.0048421263347471835,0.009579337572504152,0.9912283627120764
2017-04-25,1,0.0019403214604139657,0.0023322614179573367,-0.009661217741739428,0.005093881216104093,0.9913897348848908
2017-04-27,1,0.0013980785959062715,0.001739066066986341,-0.004761354052154179,0.005093881216104093,0.9927677339787825
2017-05-01,1,0.0004252212002036798,0.0005865524269107547,-0.0031537778816415757,0.005093881216104093,0.9932864139118648
2017-05-03,1,0.0004769114196429467,0.000634837568723533,-0.0038335758022491643,0.009579337572504152,0.9927730877098037
2017-05-05,1,0.0005763278870514292,0.0007223704622028384,-0.0050379493721368655,0.004879193967291507,0.9932096355290571
2017-05-09,1,0.0004985194585207641,0.0006215893435423114,-0.006168398142760908,0.004879193967291507,0.9921713210879566
2017-05-11,0,-2.2554422045048467e-06,5.324728225260847e-06,-0.0050379493721368655,0.004936952347685189,0.9920748986005808
2017-05-15,1,0.00041908754406491775,0.0004783819466212732,-0.006168398142760908,0.0050131789616716365,0.9914986601078499
2017-05-17,-1,-0.0003089671239878153,-0.00029744001411518206,-0.0035552357382708094,0.0050131789616716365,0.9925855845942114
2017-05-19,1,0.0006864505858131629,0.0007905470430776445,-0.0035552357382708094,0.0028373173632608656,0.9932730892929424
2017-05-23,-1,-0.0002023663946664377,-0.00016224352698329642,-0.0050379493721368655,0.0028373173632608656,0.9927955800539219
2017-05-25,-1,-0.0004015122019991181,-0.00030831104248810757,-0.0050379493721368655,0.004235982166154824,0.9926111286729857
2017-05-30,1,0.00011595102243543952,0.00014463444512748347,-0.0050379493721368655,0.009209173370353515,0.9919775984388994
2017-06-01,1,0.00046405944983098367,0.0005571932011686156,-0.005651778907053365,0.009407579537652557,0.9914953724747304
2017-06-05,1,0.000691079818562233,0.000856426792653704,-0.004760190645311888,0.011067588403047425,0.9907725054761148
2017-06-07,1,0.00013250160369048983,0.00023225271959688199,-0.004760190645311888,0.011067588403047425,0.990896118020925
2017-06-09,1,0.0006954849069754505,0.000835982534448884,-0.004760190645311888,0.009407579537652557,0.9916248819976171
2017-06-13,1,0.000438572829524241,0.0005351547707530075,-0.004565109028340225,0.0078026229502463715,0.9921319017377149
2017-06-15,1,0.0006304057548069099,0.0007721173574193803,-0.004565109028340225,0.0078026229502463715,0.9918564134256919
2017-06-19,1,0.0014904445954609649,0.001788171355035555,-0.004565109028340225,0.007406136019555013,0.992574988110337
2017-06-21,1,0.0004561652044658074,0.0005966424640448831,-0.002165190593963804,0.007406136019555013,0.9934929543234182
2017-06-23,1,0.0009438292600494991,0.0011671547824750697,-0.0028480878529772444,0.007360611063014795,0.9937776336556898
2017-06-27,1,0.0005229208465211677,0.0006113073400159682,-0.0029775818958083654,0.005659972752049779,0.9932162407353237
2017-06-29,1,0.0006027907532056842,0.0006959034818154368,-0.004953591156833587,0.005035468495014133,0.990180231873343
2017-07-03,1,0.00048528370764720156,0.0005135465785386844,-0.00817041570472438,0.004321898132758599,0.9900361461979671
2017-07-06,1,0.0006684771337537422,0.0007619355888087195,-0.005580008648961874,0.004321898132758599,0.9901907692935805
2017-07-10,1,0.0007988873013338371,0.0008921873859712977,-0.007024018115036061,0.004321898132758599,0.9893731325998972
2017-07-12,1,0.0006887435736431021,0.000766722411008278,-0.005688415199362693,0.0036148552608501537,0.989588815241016
2017-07-14,1,0.0014493359433084899,0.0016685245564510365,-0.008626029019763497,0.002566787779366097,0.9888226605013198
2017-07-18,1,0.0008785972056559002,0.0009662328691466862,-0.012891106663586678,0.00193170415505189,0.9881373537963107
2017-07-20,1,0.0012585475758150567,0.0014338406421369118,-0.014998070125848353,6.55681697941707e-05,0.9868629891926626
2017-07-24,1,0.0012417776466983848,0.0014266598248895228,-0.014998070125848353,0.0027372353890074324,0.985495901255637
2017-07-26,1,0.0005578646506675761,0.0006238909953311127,-0.012891106663586678,0.002798810055811102,0.9863587680775876
2017-07-28,-1,-0.001794131789282545,-0.00155664433308443,-0.007362328671238521,0.0048077288328251845,0.9907392119715961
2017-08-01,-1,-0.0028150777812014794,-0.002445850293534865,-0.006080068971436684,0.0048077288328251845,0.9914911973290992
2017-08-03,-1,-0.0018173847115901041,-0.0015835668790509753,-0.006080068971436684,0.006950829645208635,0.9913887862565776
2017-08-07,-1,-0.0012053868879351502,-0.001075537900592666,-0.0046193469579594625,0.0065588663943305925,0.9918566790961129
2017-08-09,-1,-0.0018347985231284402,-0.0016184911508563661,-0.007926207715399114,0.0065588663943305925,0.9912558851672342
2017-08-11,-1,-0.002669959593864633,-0.002334261341642219,-0.003588302359323155,0.0065588663943305925,0.9913533152865986
2017-08-15,-1,-0.0031422836802198293,-0.002758442190000981,-0.0023628924760203574,0.00796961507973101,0.9912316067126064
2017-08-17,-1,-0.0035715937784818975,-0.0031522708580956726,-0.0017444526696220827,0.00796961507973101,0.9912677844066781
2017-08-21,-1,-0.0014244628025564584,-0.0012853901003814236,-0.00338214088353883,0.0065588663943305925,0.9935281833820464
2017-08-23,-1,-0.001885894606911152,-0.00167759794266675,-0.00338214088353883,0.0065588663943305925,0.9926428333178706
2017-08-25,-1,-0.0019277465015430624,-0.0016967627774490345,-0.00338214088353883,0.006490972189886299,0.992778859460015
2017-08-29,-1,-0.0019270827131210402,-0.0016922502530806265,-0.006329470525351074,0.008199363966145774,0.9913132844449462
2017-08-31,-1,-0.0013582457610750122,-0.0011859817463012,-0.007798892807858538,0.005871800415350041,0.9918194073974101
2017-09-05,-1,-0.0011871965970933016,-0.0010293047202143543,-0.007798892807858538,0.005770921539130872,0.9921013359666675
2017-09-07,-1,-0.0015073300368770577,-0.001333079585045558,-0.00338214088353883,0.006110940904338823,0.9919005333194122
2017-09-11,-1,-0.001359148572952218,-0.0011924133835777913,-0.006329470525351074,0.005865865502274956,0.9917181774298047
2017-09-13,-1,-0.0006381808768067276,-0.0005901307584598491,-0.006329470525351074,0.005865865502274956,0.9913504401947454
2017-09-15,-1,-0.00033525483876757325,-0.0003146681713832854,-0.0040379576116627265,0.0063907818036944486,0.9915305462141795
2017-09-19,-1,-0.001019816164389881,-0.00094456492584065,-0.00321012029368918,0.0063907818036944486,0.9915663958670408
2017-09-21,-1,-0.0005518106775737758,-0.0004955732009798425,-0.004941167489294549,0.0063907818036944486,0.9915785360852469
2017-09-25,-1,-0.00032442593658768635,-0.00030751361851188866,-0.004941167489294549,0.007739653935784142,0.9915212944637175
2017-09-27,-1,-0.00015875080330985647,-0.00014557972370202665,-0.004941167489294549,0.007538932621602594,0.9918488438380357
2017-09-29,-1,-4.783480263007265e-05,-2.4509960880725456e-05,-0.00321012029368918,0.008612124077632182,0.9911916300924548
2017-10-03,-1,-6.96372747664486e-05,-5.072593860099854e-05,-0.007635801901654594,0.008612124077632182,0.9902283664197342
2017-10-05,1,0.000705326061885547,0.0008539260190225089,-0.011859634111041194,0.007538932621602594,0.9902253410052244
2017-10-09,-1,-0.0002706725235455134,-0.000244500995658487,-0.008051529896417844,0.008612124077632182,0.9903973538035644
2017-10-11,1,0.0008566808842484296,0.0010433453828748158,-0.008051529896417844,0.007538932621602594,0.9916194897280431
2017-10-13,1,0.0008650590318109389,0.0010124884029889397,-0.013217599764947335,0.006371318005681125,0.9868349960480972
2017-10-17,1,0.0005719119735507095,0.0006946479078186439,-0.014461576113195445,0.006371318005681125,0.9861778449656611
2017-10-19,1,0.0008059016635709977,0.0009519738523496077,-0.014461576113195445,0.006371318005681125,0.9866545514440032
2017-10-23,1,0.000978965494978233,0.0011627398619113369,-0.014461576113195445,0.005997853066216731,0.9862782791324134
2017-10-25,1,0.0006821132542004997,0.0008105510949354979,-0.010138652224268218,0.005997853066216731,0.9865226115609482
2017-10-27,1,0.001248526659046873,0.0014243548337052278,-0.010138652224268218,0.003665478964121445,0.9873405376734822
2017-10-31,1,0.0009592078588627467,0.001155784017409173,-0.008709011656322721,0.005386937348253697,0.9865803187369346
2017-11-02,1,0.00024359014989534344,0.0003233097366999437,-0.008709011656322721,0.005386937348253697,0.9867233590713548
2017-11-06,1,0.0006790519803072521,0.0008155791563255009,-0.008709011656322721,0.003665478964121445,0.9866564691239805
2017-11-08,1,0.0008408098529938631,0.0010246487204868203,-0.008709011656322721,0.003665478964121445,0.9866030755873673
