JNU-Tangyin/eata/results/Batch4_SP500/Batch4_SP500-WST.csv
Date,Action,Predicted_Q25,Predicted_Q75,Actual_Q25,Actual_Q75,RL_Reward
2010-12-14,1,0.0,0.005460352600365264,-0.00547719201058163,0.004677098055880522,0.9937133952877442
2010-12-16,1,0.007091058960986971,0.00806411212802687,-0.00547719201058163,0.004677098055880522,0.9904572530318211
2010-12-20,1,0.005691027420238267,0.006410913382180117,-0.00547719201058163,0.004677098055880522,0.9911020330894615
2010-12-22,1,0.006754357388269365,0.007676495207968018,-0.012203268652327945,0.0036671497087635363,0.9885417359600618
2010-12-27,1,0.006571511563410606,0.007413902147790412,-0.012203268652327945,0.0036671497087635363,0.9883655232667308
2010-12-29,1,0.005660224879983888,0.0063096281872768315,-0.012203268652327945,0.00551276050362259,0.9888798205315131
2010-12-31,1,0.00438133107515732,0.004837344344977499,-0.012203268652327945,0.00551276050362259,0.989431803395714
2011-01-04,1,0.0036909186292117687,0.004006868937874206,-0.008379005937347994,0.00551276050362259,0.9903607264649615
2011-01-06,1,0.002724187771479211,0.0028367245634116573,-0.01191337129317729,0.00551276050362259,0.9902248232772861
2011-01-10,1,0.00346131891447709,0.0037914298153353208,-0.01191337129317729,0.0059198749469355485,0.9902890274106111
2011-01-12,1,0.0017776239867840426,0.001790361160288572,-0.01015250322467872,0.0059198749469355485,0.9905128478118489
2011-01-14,1,0.001660477546088882,0.0017216632502551456,-0.01015250322467872,0.0059198749469355485,0.9903978761597542
2011-01-19,1,0.0004359007196614857,0.0006321574902931256,-0.0037172429354816044,0.007531248652982645,0.990736100625114
2011-01-21,-1,-0.001143131962457293,-0.0007528345637577941,-0.0006215611940367316,0.013063312415423951,0.9897710888730903
2011-01-25,1,0.000341931106678629,0.0005192942464472673,-0.009876599516040375,0.007531248652982645,0.9890193046329758
2011-01-27,1,0.0021772228403372975,0.002280725609527517,-0.009876599516040375,0.007531248652982645,0.9890490694224447
2011-01-31,-1,-0.000464780911152882,-0.00012659400927409186,-0.009876599516040375,0.007531248652982645,0.9895455014311639
2011-02-02,0,0.0,0.0,-0.009876599516040375,0.007531248652982645,0.98953050219901
2011-02-04,-1,-0.0005246624578562823,-0.0002431099269246149,-0.009659534493399013,0.007531248652982645,0.9897904419346661
2011-02-08,-1,-0.0005901994078706778,-0.00028667866926619255,-0.009659534493399013,0.01270173748657346,0.9884436317036419
2011-02-10,-1,-0.0008772098897871115,-0.0005641962853512416,-0.009958943066978424,0.01270173748657346,0.9879492411636449
2011-02-14,-1,-0.0008528605877100057,-0.000518934088922251,-0.009958943066978424,0.009655969485521752,0.988220732336614
2011-02-16,-1,-0.0006407020348464022,-0.000296017530309633,-0.009958943066978424,0.007645994340514408,0.9887479582462453
2011-02-18,0,-2.2652177730291597e-05,0.00023463485321786155,-0.009641838396790421,0.009628883947696969,0.9883994926745053
2011-02-23,-1,-0.001471196493613914,-0.0010804758186830465,-0.002487597288692058,0.009628883947696969,0.9903463261503429
2011-02-25,-1,-0.001264619309725983,-0.0008487049057380393,-0.002487597288692058,0.007645994340514408,0.9913148327244443
2011-03-01,-1,-0.0015152770341246742,-0.001113664761766834,-0.0004723342686705769,0.009008997648658883,0.9908818352773129
2011-03-03,-1,-0.0007431506623043683,-0.00045560292723583254,-0.0004723342686705769,0.008347924756132035,0.9914983519148713
2011-03-07,-1,-0.00109952104628061,-0.0007800329851592124,0.0004618710754416489,0.008494297600287462,0.9909127296828837
2011-03-09,1,0.000387987715242832,0.000501253467276977,0.0004618710754416489,0.008341477596536946,0.9928921165992681
2011-03-11,-1,-0.00024323051162946068,-4.114322431871074e-05,-0.00046983491582753466,0.008341477596536946,0.9924548901005161
2011-03-15,0,0.0,0.0,0.00023214955249972204,0.008341477596536946,0.9926223591072966
2011-03-17,0,0.0,0.0,0.000577802264781036,0.008156776794605088,0.9928983741645215
2011-03-21,1,0.0004932348465916019,0.0006154750664968425,-0.00012204134780937327,0.006659699564729122,0.9945885037665559
2011-03-23,1,0.00025086770652324306,0.0004127832653804388,-0.0006678614538573087,0.007659447603514843,0.9931649832258447
2011-03-25,1,0.00022116707350646294,0.0003961292465875886,-0.003993824171523206,0.007659447603514843,0.993015572527463
2011-03-29,1,0.0017269625266470691,0.0018411684887255084,-0.003993824171523206,0.006659699564729122,0.9930661685894687
2011-03-31,1,0.002549562313298254,0.0028215147093118773,-0.003993824171523206,0.007659447603514843,0.992202255524711
2011-04-04,1,0.0026291501446625678,0.002872591836219,-0.003993824171523206,0.005412106161102838,0.9923606294018709
2011-04-06,1,0.00281413670811485,0.0030876293643836627,-0.007915545978677038,0.005023240670947391,0.9913709171911241
2011-04-08,1,0.0016131477146077763,0.0016951211373323555,-0.003993824171523206,0.005831349131600556,0.992379547886958
2011-04-12,1,0.001255249206966424,0.0012578827558378217,-0.0054394752311993175,0.008294833512450805,0.9917518268727905
2011-04-14,1,0.0016706019845213146,0.0017498727097700556,-0.00628030353669428,0.006079763731475371,0.9914531492428746
2011-04-18,1,0.0010687262462592884,0.001097005385467983,-0.007717854572983745,0.006079763731475371,0.9910581972903753
2011-04-20,1,0.0015458191432824835,0.0015995769243621432,-0.00628030353669428,0.006047036033909674,0.9920752708561358
2011-04-25,1,0.0010140206818651286,0.0010680081863108104,-0.009182152710337111,0.005977284166914986,0.9911470741146431
2011-04-27,1,0.0020968248628067325,0.002225029542706286,-0.009182152710337111,0.004287765858044141,0.9915953692337195
2011-04-29,1,0.0025136851317036466,0.0026843959378717508,-0.009182152710337111,0.005282939460942628,0.9921904128518251
2011-05-03,1,0.0023026052210152097,0.00242388081795822,-0.009887593632029033,0.00806325693248207,0.9906018213431136
2011-05-05,1,0.0019723902254610397,0.0020968637294542483,-0.011030459421791452,0.00806325693248207,0.9902409400681146
2011-05-09,1,0.002777991018551502,0.0030736674407847216,-0.011030459421791452,0.005282939460942628,0.9895954880217938
2011-05-11,1,0.003127322397050267,0.003504046750220819,-0.011030459421791452,0.0038641990312367415,0.990231555894694
2011-05-13,1,0.0023424360656444953,0.002571314784595737,-0.011014287734683118,0.002295611272045756,0.9902455480270657
2011-05-17,1,0.001984326047031834,0.002200837573305571,-0.01197225001095919,0.004696981567379846,0.9900014091264164
2011-05-19,1,0.0023484758215126895,0.0026298038373572417,-0.01197225001095919,0.004507684404879409,0.9895686494480548
2011-05-23,1,0.001367566190186051,0.0015094168519255687,-0.009005725249718814,0.007569944275899458,0.9907898794072285
2011-05-25,1,0.0007590300219151312,0.0007646739073313433,-0.01114331523649651,0.007569944275899458,0.9898903669292825
2011-05-27,1,0.0011452897282478698,0.001196650662945593,-0.01114331523649651,0.0049414947671688044,0.990452173643703
2011-06-01,1,0.0005036082597137096,0.0005319251546045611,-0.009261941278881284,0.0049414947671688044,0.9916754232670472
2011-06-03,-1,-0.0004126133734824828,-0.0002706451340328623,-0.008035933718419104,0.007601827319635794,0.9917714679693399
2011-06-07,-1,-0.0012838204290609543,-0.0010096739890785974,-0.005440502058219533,0.008112331261880667,0.9913682418491832
2011-06-09,-1,-0.000740705107663874,-0.0005582474082063487,-0.005440502058219533,0.00909205577824135,0.9912001388568411
2011-06-13,-1,-0.0019587038607353172,-0.001581254233019554,-0.0037870944883900822,0.00909205577824135,0.9909011702448944
2011-06-15,-1,-0.0029523305236430564,-0.002416603857386515,-0.0037870944883900822,0.00909205577824135,0.9908279383429116
2011-06-17,-1,-0.00247984380640509,-0.0020454541308842934,-0.0038460065503197866,0.00909205577824135,0.9910294335731884
2011-06-21,0,0.0,0.0,-0.008237223736018193,0.010656171837170181,0.9911618910024049
2011-06-23,0,0.0,0.0,-0.001469840609776019,0.012712873978739655,0.9912870226531206
2011-06-27,-1,-0.0021151958525301518,-0.0017541142307163009,-0.008237223736018193,0.012712873978739655,0.9897368679702648
2011-06-29,-1,-0.0020147245303317888,-0.0016393273704729348,-0.010322814996796483,0.010656171837170181,0.9893023790410123
2011-07-01,-1,-0.0008433049036881634,-0.000617098391851595,-0.011546081494900957,0.007171488202763476,0.9894592392789936
2011-07-06,-1,-0.0007630030014031419,-0.0005185809076373398,-0.013094061817892765,0.006297590759009705,0.9889053474846313
2011-07-08,-1,-0.0003877652805775434,-0.00020708739712266104,-0.015623972731124387,0.006297590759009705,0.988260911563746
2011-07-12,0,0.0,0.0,-0.016166659310022917,0.006793218097624949,0.9845887425049087
2011-07-14,0,0.0,0.0,-0.017835132173820156,0.006793218097624949,0.9817430241079608
2011-07-18,0,0.0,0.0,-0.017835132173820156,0.009100846268560805,0.9808715582001
2011-07-20,0,0.0,0.0,-0.01983334449542452,0.006793218097624949,0.9804492621291425
2011-07-22,-1,-0.00039873898397357074,-0.00019458752122004832,-0.020548856282460618,0.006297590759009705,0.979278706683724
2011-07-26,-1,-0.0012408182365540484,-0.0009652668279463015,-0.020548856282460618,0.006793218097624949,0.9792751785435685
2011-07-28,-1,-0.0025800656303615055,-0.002126091699721745,-0.020548856282460618,0.006793218097624949,0.9800309337748919
2011-08-01,-1,-0.0025523462558443098,-0.002155632988798623,-0.018705955648818277,0.011097799356073901,0.9793582674888481
2011-08-03,-1,-0.003145532817350734,-0.002663028500162434,-0.017459335891618074,0.011097799356073901,0.9799075923310112
2011-08-05,-1,-0.003981333175320595,-0.0033812036025317677,-0.01933618135848043,0.011097799356073901,0.9791973992160027
2011-08-09,-1,-0.003172546406244675,-0.002676981817384092,-0.013939515072063232,0.011097799356073901,0.9812372638877859
2011-08-11,-1,-0.003122767581912991,-0.0027085957848347938,-0.01759726867369211,0.006345483630386749,0.983356241948622
2011-08-15,-1,-0.0025642743678360056,-0.0022076360730414277,-0.01759726867369211,0.008663675509051097,0.983263017174106
2011-08-17,-1,-0.0038424254384384193,-0.003353831172002681,-0.013441641135029166,0.011998623991128445,0.9827695708192227
2011-08-19,-1,-0.0049823398613451355,-0.004394186387716202,-0.013441641135029166,0.011998623991128445,0.9834926174957531
2011-08-23,-1,-0.003342408871506021,-0.00296767831566542,-0.017498701372312023,0.008663675509051097,0.9846283850295677
2011-08-25,-1,-0.003666118603971727,-0.0032842240675885863,-0.017498701372312023,0.010297589989005467,0.983851142858227
2011-08-29,-1,-0.001969417591644531,-0.0018018951003017363,-0.017498701372312023,0.010297589989005467,0.984292030022565
2011-08-31,-1,-0.0024831240990411535,-0.002211259861992206,-0.018871039770607008,0.012716612561106466,0.9819782479698071
2011-09-02,-1,-0.0041706568024020944,-0.0037117600643210413,-0.018871039770607008,0.012716612561106466,0.9818395235122673
2011-09-07,-1,-0.0025389259441918987,-0.002287674878322935,-0.018871039770607008,0.01464402645277748,0.9805287679033727
2011-09-09,-1,-0.004269274951942948,-0.003809550871708621,-0.018446609528809017,0.01464402645277748,0.9813928216293399
2011-09-13,0,0.0,0.0,-0.018446609528809017,0.01472717683022866,0.9812111895666339
2011-09-15,0,0.0,0.0,-0.018446609528809017,0.01165804985620716,0.9817845682343682
2011-09-19,0,0.0,0.0,-0.021053961203548428,0.013087855298671531,0.9803595262336237
2011-09-21,0,0.0,0.0,-0.014737012867083928,0.013967784618078977,0.9812044755845719
2011-09-23,0,0.0,0.0,-0.009858137528566131,0.01587413944083107,0.9810757781878603
2011-09-27,0,0.0,0.0,-0.014737012867083928,0.01587413944083107,0.9797019116724003
2011-09-29,0,0.0,0.0,-0.009858137528566131,0.018120779270227722,0.9796120513707862
2011-10-03,0,0.0,0.0,-0.008419992476589882,0.018120779270227722,0.9793176283921456
2011-10-05,-1,-0.002001913740248863,-0.001995129613586181,-0.0118223102267883,0.015477116571856835,0.9798425996685222
2011-10-07,-1,-0.0033103024580205045,-0.003128349945714237,-0.00959784699166393,0.01920788729975407,0.9788884863011251
2011-10-11,-1,-0.001941667478309355,-0.0019386803850011897,-0.00959784699166393,0.015477116571856835,0.9793518191158587
2011-10-13,-1,-0.0023046166479114205,-0.002219352415873821,-0.016159112908404084,0.01759557404461793,0.9769257815771406
2011-10-17,-1,-0.0030130391106411437,-0.0028465597935813337,-0.01301008982190779,0.018815871769517992,0.977472103098172
2011-10-19,-1,-0.0018658844952100574,-0.0018592912149964455,-0.018228147227325717,0.018815871769517992,0.9769710724672985
2011-10-21,-1,-0.001016494401570593,-0.0009141674816111582,-0.018228147227325717,0.016970990509683204,0.9783604751966043
2011-10-25,-1,-0.001541706121812899,-0.001511934034622913,-0.016558628193849567,0.01509135740784743,0.9801981414413004
2011-10-27,0,-8.89931960384737e-05,5.2838636591618434e-05,-0.018228147227325717,0.010659458014053953,0.981688243133389
2011-10-31,-1,-0.0015617912009137519,-0.0015251667703963866,-0.016558628193849567,0.01509135740784743,0.9828022539390795
2011-11-02,0,0.0,0.0,-0.012914524145233544,0.015498123316147451,0.9825535769408015
2011-11-04,0,0.0,0.0,-0.01256260235805407,0.010659458014053953,0.983729546383536
2011-11-08,1,0.0002885567144267176,0.00039138108516294413,-0.01256260235805407,0.007303339948847456,0.984656246845695
2011-11-10,0,0.0,0.0,-0.01256260235805407,0.007303339948847456,0.9854830643730639
2011-11-14,-1,-0.00027705142834056435,-0.0002588095696872898,-0.010239423158036129,0.004526037476427909,0.9863587853401914
2011-11-16,-1,-0.0005985365599121362,-0.0005805409881190443,-0.010239423158036129,0.004044130982624869,0.9870870513230586
2011-11-18,-1,-0.00035937588371208034,-0.0003214109982171842,-0.010239423158036129,0.004044130982624869,0.9871523199541754
2011-11-22,-1,-0.00034453546475090116,-0.0002581267415209635,-0.009287447238353461,0.007690951268040703,0.9866737256255894
2011-11-25,-1,-0.0008743854693588037,-0.0008322122714534766,-0.008552984599692164,0.007690951268040703,0.98772919990923
2011-11-29,1,2.6572320071938018e-05,0.00020564114116190812,-0.008583408893187415,0.007690951268040703,0.9883917971357389
2011-12-01,1,0.0010357607788955012,0.001344777708348588,-0.008386190408540661,0.006624712317355943,0.9909929405379404
2011-12-05,0,0.0,0.0,-0.008386190408540661,0.00648222562921399,0.9909892869073182
2011-12-07,0,0.0,0.0,-0.008386190408540661,0.00648222562921399,0.9909367446644056
2011-12-09,1,0.0010422531751178431,0.0013723544867589516,-0.005611215739764153,0.00648222562921399,0.9930942832411684
2011-12-13,1,0.0008925150823217858,0.0012369896774817532,-0.0008933553071633365,0.006653509240727406,0.993662432247573
2011-12-15,1,0.00043829405672779823,0.0006688236563518045,-0.0008933553071633365,0.006653509240727406,0.9932075275447058
2011-12-19,0,-8.25305054034052e-05,3.9303579165108694e-05,0.001845614753956923,0.011301360861738064,0.9918019242169646
2011-12-21,0,0.0,0.0,0.0007938789605369122,0.006653509240727406,0.9928462209191647
2011-12-23,0,0.0,0.0,0.0007938789605369122,0.008169272930217202,0.992318587441468
2011-12-28,0,0.0,0.0,0.0007938789605369122,0.006653509240727406,0.9929133483659154
2011-12-30,0,0.0,0.0,0.00035506443602963513,0.005632618708668498,0.9928631302581783
2012-01-04,0,0.0,0.0,0.0009746380475656517,0.008359820550145525,0.9923228675939382
2012-01-06,0,0.0,0.0,0.00010346273657894142,0.01337750783765802,0.9909214715657179
2012-01-10,0,0.0,0.0,-0.0026098599549163716,0.008359820550145525,0.9912007584638147
2012-01-12,0,0.0,0.0,-0.005789299816251995,0.007237203704285402,0.9905472382472371
2012-01-17,1,0.00046076914506624263,0.0007589532840462307,-0.005318740327577593,0.009774148412656801,0.9914133924014811
2012-01-19,0,0.0,0.0,-0.005318740327577593,0.005931733488041087,0.9907410913911874
2012-01-23,0,0.0,0.0,-0.005481136228614398,0.0054068479088735435,0.9907985682083491
2012-01-25,0,0.0,0.0,-0.005481136228614398,0.0047833345226251,0.991489404591225
2012-01-27,1,0.0016951084263456162,0.0019027369753969138,-0.005481136228614398,0.0047833345226251,0.9915045108720419
2012-01-31,1,0.0020873708515570973,0.0024024695250649914,-0.006836023035965655,0.0047833345226251,0.9909101090779211
2012-02-02,0,0.0,0.0,-0.007982064612933222,0.004637602510762513,0.9905950565849146
2012-02-06,0,0.0,0.0,-0.007982064612933222,0.0029134720651155196,0.9912364922289604
2012-02-08,0,0.0,0.0,-0.007982064612933222,0.005674659064027657,0.9909601748866693
2012-02-10,1,0.001873070508161163,0.0021423447179145082,-0.006836023035965655,0.006337414664123693,0.9911173504014857
2012-02-14,1,0.0015684068987356335,0.0017446903621434133,-0.007917766033245108,0.006337414664123693,0.9894908391618518
2012-02-16,1,0.0022897897275275317,0.0025400393566412127,-0.007917766033245108,0.006219068563979583,0.9906657396924717
2012-02-21,1,0.0017875279139238508,0.002005375881170369,-0.007917766033245108,0.006659055057216196,0.9905101902860823
2012-02-23,1,0.0016967015912934722,0.0018778042488585183,-0.007917766033245108,0.006659055057216196,0.9901344603975352
2012-02-27,1,0.0003480498419924702,0.00043578622934539117,-0.0072771605521911205,0.00817228036470943,0.9894091060350603
2012-02-29,1,0.0008408387288708006,0.0009145389263979279,-0.004629451705025666,0.00817228036470943,0.9900306772809782
2012-03-02,-1,-0.00012653551409827978,-3.984904812894303e-05,-0.004629451705025666,0.00817228036470943,0.9912956165691031
2012-03-06,0,-3.651446734817529e-05,8.955528513031325e-06,-0.004629451705025666,0.008819513875621363,0.9914680260633507
2012-03-08,1,0.0005111518133983127,0.0005348633624317108,-0.005955219024228584,0.008285364701061582,0.9904944817949836
2012-03-12,-1,-0.00012450794881732283,-2.6656234672782573e-05,-0.006641452032867381,0.006904089377768107,0.990028533901896
2012-03-14,1,0.00040473511249231986,0.00041821403960430684,-0.005955219024228584,0.007466146732860109,0.9909768068520106
2012-03-16,1,0.000938345763474679,0.0010398877571276114,-0.006641452032867381,0.007466146732860109,0.9899348056672962
2012-03-20,1,0.000846608512996232,0.0009018844819679116,-0.009304985566921564,0.007466146732860109,0.9839829859838816
2012-03-22,1,0.001680964431670036,0.00195318949168079,-0.01355691407281358,0.007466146732860109,0.9837580881436382
2012-03-26,1,0.0013941343678052513,0.001530732791328125,-0.015492179094606512,0.005511855457223271,0.9841601439362451
2012-03-28,1,0.0013023245340010674,0.0014232655457231966,-0.015492179094606512,0.007818879558199439,0.9830850651286864
2012-03-30,1,0.001300069260426336,0.001436979302004387,-0.015492179094606512,0.010790529930154648,0.9821228356039163
2012-04-03,1,0.0016263996221510227,0.001836554290106957,-0.015492179094606512,0.010790529930154648,0.9826684418541175
2012-04-05,1,0.0005566416771988904,0.0005820681000558603,-0.015492179094606512,0.010790529930154648,0.9821269020484134
2012-04-10,-1,-0.0005499624587074747,-0.0004401353789230253,-0.012381966491309404,0.013228996575315916,0.9823189682886422
2012-04-12,-1,-0.00023442267572528343,-0.00013650407074617185,-0.012381966491309404,0.013228996575315916,0.9829973559086455
2012-04-16,-1,-0.0005904058608312806,-0.0004511696822692821,-0.005853074707829661,0.013228996575315916,0.983980200722417
2012-04-18,1,0.0003435856094363119,0.0004057067592003246,-0.00331835788371214,0.013228996575315916,0.9895982325420798
2012-04-20,-1,-0.0004306987423996887,-0.00022468985767486454,-0.00331835788371214,0.013228996575315916,0.9890444149232092
2012-04-24,-1,-0.0004807159463206802,-0.0002989364712864997,-0.00331835788371214,0.014788545867569523,0.9885225426557602
2012-04-26,1,0.0010712565797533662,0.0011237734576554853,-0.00331835788371214,0.013571997870830143,0.9889745594990944
2012-04-30,1,0.0016256735909837582,0.0017365634782974962,-0.00331835788371214,0.013571997870830143,0.9894679847302367
2012-05-02,0,0.0,0.0,-0.003412385699269687,0.013571997870830143,0.9890383267414474
2012-05-04,0,0.0,0.0,-0.002655859861660217,0.013571997870830143,0.9905521537048364
2012-05-08,0,0.0,0.0,-0.002655859861660217,0.009291424584449228,0.9909592616822009
2012-05-10,0,0.0,0.0,-0.003412385699269687,0.009291424584449228,0.9908934647477602
2012-05-14,0,0.0,0.0,-0.004876871382402471,0.013205680469376658,0.9901181904866111
2012-05-16,0,0.0,0.0,-0.004876871382402471,0.013205680469376658,0.9901800587833086
2012-05-18,0,0.0,0.0,-0.0030142870782438216,0.013205680469376658,0.9911234430125974
2012-05-22,0,0.0,0.0,-0.0027759458805951868,0.012041051017750583,0.9920908465415533
2012-05-24,0,0.0,0.0,-0.0034473232564834156,0.008560306853956114,0.9927719702674712
2012-05-29,1,0.0018858200809960556,0.001969963471348958,-0.004876871382402471,0.003547098654525253,0.9928418439174592
2012-05-31,1,0.001690769100770281,0.0017542824268526724,-0.004161847789456567,0.008560306853956114,0.9926117439608783
2012-06-04,1,0.0016322473845116164,0.0017056226149508454,-0.0027759458805951868,0.012041051017750583,0.9917428184067267
2012-06-06,0,0.0,0.0,-0.004161847789456567,0.010072497232126826,0.99216436857059
2012-06-08,0,0.0,0.0,-0.0036951514712744776,0.010072497232126826,0.9920310751022592
2012-06-12,1,0.002262008049671697,0.002434257432956137,-0.0027759458805951868,0.0082914984246053,0.9925571177190258
2012-06-14,1,0.0027213635264410523,0.0029541347818398144,-0.0036951514712744776,0.0082914984246053,0.9917833556137016
2012-06-18,0,0.0,0.0,-0.005958789793081681,0.0082914984246053,0.9910351670526191
2012-06-20,0,0.0,0.0,-0.008622096216550103,0.006284520076182846,0.9912244373827835
2012-06-22,0,0.0,0.0,-0.008622096216550103,0.006284520076182846,0.991190339464104
2012-06-26,0,0.0,0.0,-0.006206705963085767,0.008002673607298613,0.9909475321354595
2012-06-28,0,0.0,0.0,-0.00962343603636882,0.008002673607298613,0.9906384886486648
2012-07-02,0,0.0,0.0,-0.010751669407611256,0.005863549703966974,0.9913049592825953
2012-07-05,0,0.0,0.0,-0.011920126921277177,0.005863549703966974,0.9901575971859238
2012-07-09,0,0.0,0.0,-0.011920126921277177,0.006623478898232252,0.9886980037918428
2012-07-11,0,0.0,0.0,-0.011920126921277177,0.004789750020699268,0.9884928578445995
2012-07-13,1,0.0033737779706595828,0.0037324876089776934,-0.011582306249935429,0.0023991000191423304,0.9882828390768565
2012-07-17,1,0.0031869926592063913,0.0035374230553747088,-0.011582306249935429,-0.0015863443121671519,0.9881117812675574
2012-07-19,1,0.0025051819002243738,0.002737883357638803,-0.011582306249935429,0.0035950977520552434,0.9887950621035031
2012-07-23,1,0.0017105004776477016,0.0017947148026496535,-0.011684385438132175,0.006739762490650999,0.9883054907198026
2012-07-25,1,0.001553260372607352,0.0015700445845763216,-0.011684385438132175,-0.0004115718887663922,0.9885312785820817
2012-07-27,0,0.0,0.0,-0.010198951328934107,-0.0006732372001526507,0.9900843537653135
2012-07-31,0,0.0,0.0,-0.009086385508932922,0.0019409648932427555,0.9902445173709762
2012-08-02,0,0.0,0.0,-0.008494298318801621,0.002565166687300945,0.9912864901774011
2012-08-06,0,0.0,0.0,-0.008494298318801621,0.002565166687300945,0.9925253781189927
2012-08-08,1,0.0004835209486737748,0.0005154905606419717,-0.006733009883513991,0.002565166687300945,0.9930543725840023
2012-08-10,-1,-0.0006755100387868296,-0.0004506193710985566,-0.00448114588555972,0.002565166687300945,0.9938961143025847
2012-08-14,-1,-0.00167990387958815,-0.0013249631927309718,-0.002806082039480244,0.002565166687300945,0.9943912041393972
2012-08-16,-1,-0.0004165419539867,-0.00025897644374321183,-0.002806082039480244,0.0038212712060070168,0.9936995936259725
2012-08-20,-1,-0.0005429423635076316,-0.0003599613675505316,-0.001767901529416139,0.006755899574005146,0.9946582764215808
2012-08-22,0,0.0,0.0,-0.0010976342691370723,0.006755899574005146,0.9944482219542037
2012-08-24,0,0.0,0.0,-0.00010418891906738284,0.008129061477933621,0.9933287380184892
2012-08-28,-1,-0.0014804861984752703,-0.0011392587487984414,-8.355771480300403e-05,0.00783667370871853,0.9931439311591331
2012-08-30,-1,-0.002747169299390737,-0.0021866128294163803,-8.355771480300403e-05,0.009397967901413364,0.991478405245321
2012-09-04,-1,-0.002071371955041747,-0.0016183797029525723,0.0007452777313576466,0.009622249921854214,0.9915399303804036
2012-09-06,-1,-0.002597182391275446,-0.0020529117202503595,0.0004688014624652631,0.009622249921854214,0.9912735074352572
2012-09-10,-1,-0.0017854934554050635,-0.0014079663047642209,0.0004688014624652631,0.009622249921854214,0.9916930480095788
2012-09-12,-1,-0.0020466319827822338,-0.0016221778488125006,4.3030409125913594e-05,0.009622249921854214,0.9911084807098963
2012-09-14,-1,-0.0015287992438181906,-0.0011344047554710304,-0.0021522145753342095,0.006842194380497858,0.9927347234117302
2012-09-18,-1,-0.00042614475546360947,-0.00020978326332657664,-0.0021522145753342095,0.010959402523365034,0.9924423123351347
2012-09-20,1,0.000297647763980574,0.00038192919539151453,-0.0031908093956940532,0.010959402523365034,0.9925939025657028
2012-09-24,1,0.0011963015562022625,0.0012124828929928053,-0.0031908093956940532,0.002037616877214653,0.9938168671090067
2012-09-26,1,7.08717916445802e-05,0.0002722984582879905,-0.004266335014441658,0.0009723831782028927,0.9938010833365702
2012-09-28,1,0.001104600349740149,0.001129058664630539,-0.0031908093956940532,0.0009723831782028927,0.9946041596787243
2012-10-02,1,0.00146121678008598,0.0014638924015624778,-0.004266335014441658,0.0008380601885914676,0.9945402401492454
2012-10-04,0,0.0,0.0,-0.005536871841009037,0.0022970569798366346,0.9933471658170828
2012-10-08,0,0.0,0.0,-0.006248809602381085,0.005079991038017087,0.9925453352965876
2012-10-10,0,0.0,0.0,-0.004434807872298294,0.006531701156728617,0.9925760059676959
2012-10-12,0,0.0,0.0,-0.004641327060100436,0.006531701156728617,0.992276872548411
2012-10-16,0,0.0,0.0,-0.0075757460388414175,0.002609250252566515,0.9921229412664354
2012-10-18,0,0.0,0.0,-0.0075757460388414175,0.005079991038017087,0.9915286640852974
2012-10-22,0,0.0,0.0,-0.0075757460388414175,0.007577549782188748,0.9904011837573978
2012-10-24,0,0.0,0.0,-0.006824128928043064,0.010466086468614069,0.9894880065289775
2012-10-26,0,0.0,0.0,-0.00808543732177969,0.010466086468614069,0.9891902525364444
2012-11-01,0,0.0,0.0,-0.008041199084035243,0.010466086468614069,0.9893591386477336
2012-11-05,0,0.0,0.0,-0.007374286233579762,0.010466086468614069,0.9900315849101441
2012-11-07,0,0.0,0.0,-0.006066823341140036,0.011400298163632859,0.9903116824193515
2012-11-09,0,0.0,0.0,-0.006066823341140036,0.011400298163632859,0.9907235746068321
2012-11-13,1,0.0002566149585960108,0.00030710556263983973,-0.0058448204383258874,0.012464360703387436,0.9904860827413833
2012-11-15,-1,-0.0001585555060497764,-7.586487855156698e-05,-0.0058448204383258874,0.012464360703387436,0.9914169662601159
2012-11-19,0,0.0,0.0,-0.0058448204383258874,0.011915577192819039,0.9917632822840458
2012-11-21,0,0.0,0.0,-0.005982559786293872,0.011223572479791293,0.9919192458003061
2012-11-26,1,0.0025062261686229614,0.002838300578623802,-0.006835792923566236,0.005546513194980386,0.992170583447581
2012-11-28,1,0.0017609225336395079,0.0019657855461365126,-0.006426143396969765,0.008173523868240594,0.9922573616621062
2012-11-30,1,0.0017448774293780584,0.0019482574529034878,-0.006426143396969765,0.010621223905843559,0.992106670324028
2012-12-04,1,0.002223050607055189,0.0025146616082965673,-0.005982559786293872,0.009180963303067986,0.992894819649536
2012-12-06,1,0.0024872665979051535,0.0028325957779521435,-0.006126215272880934,0.0058823263399228505,0.9932633495504942
2012-12-10,1,0.002536371596489745,0.0028662098401175348,-0.006126215272880934,0.0058823263399228505,0.9931636205990702
2012-12-12,1,0.0024091925578127687,0.0026975057350724836,-0.006126215272880934,0.003946108182432132,0.9936964095553062
2012-12-14,1,0.0017281702365750623,0.001894818080592347,-0.0040148779366795465,0.003946108182432132,0.9941474879564253
2012-12-18,1,0.0018753170371930135,0.002088827578442456,-0.003284325846360418,0.0034760999838757394,0.9944030367093739
2012-12-20,1,0.001852327435691682,0.0020592262355356057,-0.002891470402273024,0.004310033374123508,0.9946630477288555
2012-12-24,0,0.0,0.0,-0.002577416515644231,0.006974101914996979,0.993359990698314
2012-12-27,0,0.0,0.0,-0.0015868119595977344,0.00836355389670596,0.9933707272907155
2012-12-31,1,0.0005302247156703664,0.0005585014145205265,-0.0015868119595977344,0.00787026905805615,0.9934490131823042
2013-01-03,0,0.0,0.0,-0.002577416515644231,0.00787026905805615,0.99335908455934
2013-01-07,0,0.0,0.0,-0.002577416515644231,0.00787026905805615,0.9931925239018552
2013-01-09,0,0.0,0.0,-0.001804695573857138,0.00787026905805615,0.9932136173040541
2013-01-11,-1,-0.0006609198526337167,-0.00044774162457712524,-0.0015469308332572236,0.00787026905805615,0.993334396182058
2013-01-15,-1,-0.0007960123308786042,-0.0005716267958627081,-0.0019713688171920404,0.00787026905805615,0.9928854083104884
2013-01-17,-1,-0.001117491449427205,-0.0008443044101269487,-0.0019713688171920404,0.00787026905805615,0.9925485467266756
2013-01-22,0,0.0,0.0,-0.0033990872572822574,0.00610711951102753,0.9932623592455283
2013-01-24,0,0.0,0.0,-0.0033990872572822574,0.00787026905805615,0.9937603586559427
2013-01-28,1,0.0016527362683557254,0.0016882475320248978,-0.005151334565273674,0.0049115182691270454,0.9938785145755407
2013-01-30,1,0.0016501875735037326,0.001664767777209377,-0.0033990872572822574,0.004808869162587295,0.9942727815942726
2013-02-01,1,0.0016480049182595966,0.0016854721146416446,-0.002507505913062754,0.004808869162587295,0.9945565511449861
2013-02-05,1,0.0012644678882916482,0.001355117624881848,-0.00207719207594241,0.004808869162587295,0.9947937733278658
2013-02-07,1,0.001049674869275905,0.0011717310892513232,-0.003611278559455585,0.005468818942410561,0.9940376423421943
2013-02-11,0,0.0,0.0,-0.003611278559455585,0.005468818942410561,0.993977776436365
2013-02-13,1,0.001624641837758073,0.001635569192663073,-0.0020608489029775743,0.006642550288577245,0.9938032542378074
2013-02-15,0,0.0,0.0,-0.0020608489029775743,0.006642550288577245,0.9934302771817813
2013-02-20,0,0.0,0.0,-0.00041309603462477294,0.007916656103111545,0.9930261601174748
2013-02-22,0,0.0,0.0,-0.0006483137682290679,0.006642550288577245,0.994185675365309
2013-02-26,0,0.0,0.0,-0.0006483137682290679,0.007418577124432833,0.9940626609878251
2013-02-28,1,0.002533567276844291,0.0028144980172988563,-0.00019483772926205084,0.008027535160965263,0.9946545875631929
2013-03-04,1,0.002710213111915184,0.0030049356209316544,-0.0010567785327075508,0.008027535160965263,0.9935547577516597
2013-03-06,0,0.0,0.0,-0.001381813895750113,0.008685357137343067,0.9922291813371323
2013-03-08,0,0.0,0.0,-0.0018295552727762925,0.008027535160965263,0.9927087531558368
2013-03-12,1,0.002469320954762637,0.0026583936735037296,-0.0032770683194866443,0.008685357137343067,0.9920417334148474
2013-03-14,1,0.00349815929037424,0.0038763823587193783,-0.004304039975406817,0.008027535160965263,0.9921045634957469
2013-03-18,1,0.0028599895723514486,0.0031307401596763922,-0.004304039975406817,0.008685357137343067,0.9904230779313492
2013-03-20,0,0.0,0.0,-0.0070664843933218495,0.008027535160965263,0.9907454362801261
2013-03-22,0,0.0,0.0,-0.0070664843933218495,0.008084099976729955,0.9903700616588041
2013-03-26,1,0.0029350585214726393,0.0031964726659935334,-0.009153319071264323,0.00882899393828901,0.9895780960652234
2013-03-28,1,0.0030809566412226238,0.003358194740078177,-0.009153319071264323,0.003977865322146232,0.9893070881710326
2013-04-02,0,0.0,0.0,-0.009122040697627568,0.008630599693547573,0.990633184721274
2013-04-04,0,0.0,0.0,-0.006859847738123551,0.008286481444956001,0.9912652904865172
2013-04-08,0,0.0,0.0,-0.006859847738123551,0.008286481444956001,0.9911013727651716
2013-04-10,0,0.0,0.00035413658335887587,-0.006859847738123551,0.008286481444956001,0.9914443858503584
2013-04-12,1,0.0006027407975257252,0.0007451595990231078,-0.006859847738123551,0.008286481444956001,0.991254554931818
2013-04-16,1,0.0005247631760645126,0.0006797586009962816,-0.005170946892015022,0.008286481444956001,0.9930191746811216
2013-04-18,1,0.0005688151065695148,0.0006811503549591012,0.0005134042286271119,0.008630599693547573,0.9927775370274492
2013-04-22,0,0.0,0.0,0.0023488310477143286,0.008630599693547573,0.9924817285160173
2013-04-24,0,0.0,0.0,0.0005279746986297106,0.008286481444956001,0.9923630583667672
2013-04-26,1,0.0019148224891279467,0.0019169820342726906,0.0008776499062425644,0.008286481444956001,0.9935090148309822
2013-04-30,1,0.002287634183603535,0.002358253070542516,-0.0037515884579786382,0.008370843163740314,0.9932545038232844
2013-05-02,1,0.001866004073600145,0.0018842278767924423,0.0002452788967687346,0.008989636423165723,0.9930193418753237
2013-05-06,1,0.001614716900411001,0.0016265360256567335,0.0002452788967687346,0.008989636423165723,0.9929579342089752
2013-05-08,1,0.0023278643829007725,0.0024220200441424557,-0.004901981176692839,0.008790737047509697,0.992771381604582
2013-05-10,1,0.00212733840897183,0.002167507321501251,-0.005472421193057456,0.008790737047509697,0.9922617507437249
2013-05-14,1,0.0023639164638929507,0.0024238239340299865,-0.005472421193057456,0.008162014619538712,0.9924224552519001
2013-05-16,0,0.0,0.0,-0.005472421193057456,0.005695921166831963,0.9927304037012624
2013-05-20,0,0.0,0.0,-0.005472421193057456,0.006344721885286347,0.9928278157784918
2013-05-22,1,0.0014730349975398279,0.0015418755371322957,-0.007057237152718067,0.006344721885286347,0.9924611260143698
2013-05-24,0,0.0,0.0,-0.007057237152718067,0.00784138328004088,0.9919110202997953
2013-05-29,0,0.0,0.0,-0.005472421193057456,0.00784138328004088,0.991885773820544
2013-05-31,0,0.0,0.0,-0.005472421193057456,0.00784138328004088,0.9922523953013574
2013-06-04,1,0.0010462896037652563,0.0011003614546309139,-0.003980144515381172,0.008241248124489458,0.9918276482848055
2013-06-06,0,-0.00011708345965646147,8.521283323896522e-05,-0.001536846807527336,0.011316726355170432,0.992165229677581
2013-06-10,-1,-0.0005709997299452413,-0.0003084931197595167,-0.0016371381082561248,0.011316726355170432,0.9921169756945071
2013-06-12,-1,-0.0008705305670558906,-0.0005632338098227177,-0.0016371381082561248,0.011316726355170432,0.9918953537727964
2013-06-14,-1,-0.00022869650254015784,-2.9655297072958314e-05,-0.0020417471254149853,0.008241248124489458,0.9923237165170823
2013-06-18,0,0.0,0.0,-0.0020417471254149853,0.006897745809722383,0.9928527609184654
2013-06-20,0,0.0,0.0,-0.0006625978603928037,0.01131535896804758,0.9930231825183844
2013-06-24,0,0.0,0.0,-0.0010572209129546355,0.0068511182272980205,0.9938830503317719
2013-06-26,0,0.0,0.0,-0.0014647232046044818,0.0068511182272980205,0.9934673458944019
2013-06-28,0,0.0,0.0,-0.0037510170799527685,0.005146710924615399,0.9927955967929833
2013-07-02,0,0.0,0.0,-0.00257638397794971,0.006587547278462157,0.99267475203662
2013-07-05,0,0.0,0.0,-0.00257638397794971,0.006587547278462157,0.9921203926343051
2013-07-09,0,0.0,0.0,-0.0009612878096677028,0.009712027190209797,0.9910383070940239
2013-07-11,0,0.0,0.0,-0.0010513390357347972,0.009712027190209797,0.99118997383483
2013-07-15,0,0.0,0.0,-0.0009612878096677028,0.009712027190209797,0.9915780845861343
2013-07-17,0,0.0,0.0,-0.0010513390357347972,0.009712027190209797,0.9910574695915378
2013-07-19,0,0.0,0.0,-0.004439178966322261,0.007865890808836888,0.990248033957145
2013-07-23,0,0.0,0.0,-0.004439178966322261,0.007951690209141256,0.9902050436872227
2013-07-25,0,0.0,0.0,-0.0036889704060652914,0.007659481095675673,0.9909702453653446
2013-07-29,0,0.0,0.0,-0.0010513390357347972,0.007659481095675673,0.9919319501807936
2013-07-31,0,0.0,0.0,-0.003230221411428014,0.00540258400708893,0.9926454285650969
2013-08-02,0,0.0,0.0,-0.004439178966322261,0.002346266850537582,0.9927394603143129
2013-08-06,1,0.0012353359187907505,0.00142971218870872,-0.004439178966322261,0.002346266850537582,0.993464776207093
2013-08-08,1,0.0011891686026047465,0.0013582853068801587,-0.004439178966322261,0.004578302109044741,0.9932271549252468
2013-08-12,0,0.0,0.0,-0.004439178966322261,0.007659481095675673,0.9911519483293338
2013-08-14,0,0.0,0.0,-0.0053873930209797985,0.008170654062648415,0.990184232528382
2013-08-16,0,0.0,0.0,-0.003230221411428014,0.008170654062648415,0.9918695681967896
2013-08-20,1,0.0017208417331529514,0.00186608882987516,-0.003230221411428014,0.00965511040039406,0.991230408216805
2013-08-22,1,0.0013896942645634008,0.0014422637673316314,-0.0038074497480088563,0.011648928430855437,0.9905916117900012
2013-08-26,1,0.0011101179779775979,0.0011189970214909245,-0.003954552469985391,0.011648928430855437,0.990429790604189
2013-08-28,1,0.0005029635217597304,0.0005889988721240828,-0.004458532079111695,0.011648928430855437,0.990020291350024
2013-08-30,1,7.456593123611227e-05,0.00017142464706027964,0.0006018629137805541,0.011648928430855437,0.9908432592032851
2013-09-04,1,6.377413608321105e-05,0.0001872630647840867,-0.001021647670661979,0.011648928430855437,0.9905166831608505
2013-09-06,1,0.0007773845776104389,0.0008115273971402777,-0.005614860253968893,0.011648928430855437,0.9902336146415592
2013-09-10,1,0.001267358091882593,0.001274974499654847,-0.008827940815436723,0.009605537352786579,0.9897629504176292
2013-09-12,1,0.0011326124496349,0.0011596390028352076,-0.005614860253968893,0.011648928430855437,0.9895962852954933
2013-09-16,1,0.0008384125910014729,0.0009142730976406313,-0.005614860253968893,0.014077745199454279,0.9878915205811666
2013-09-18,1,0.0016139842527817165,0.0016146257779944529,-0.008827940815436723,0.014154862534461505,0.9872564131648612
2013-09-20,1,0.0013558305172274936,0.0013726392128038313,-0.005614860253968893,0.014154862534461505,0.987944411896159
2013-09-24,1,0.0013261445444399916,0.0013700892492306154,-0.005614860253968893,0.014154862534461505,0.9879212748871297
2013-09-26,1,0.0011156375900233369,0.001201308188226238,-0.0034610444861953257,0.014154862534461505,0.9882877533122602
2013-09-30,1,0.001955251538794062,0.002012427360691228,-0.00392835065279454,0.016153951821752336,0.9880390257897518
2013-10-02,1,0.0014723250683391833,0.0014789407660109717,-0.0032059473647160757,0.016153951821752336,0.9883753536731809
2013-10-04,1,0.0008741397504994192,0.0009280941833895278,-0.0023643997669867884,0.01848679647670422,0.986170636142995
2013-10-08,1,0.0025250362489342435,0.0027083317472524366,-0.0023643997669867884,0.016153951821752336,0.9888222094748225
2013-10-10,1,0.0033503473762123938,0.003661905372043343,-0.003717508625362303,0.009183646991411052,0.9893065665619797
2013-10-14,1,0.0038386138377083257,0.004169498956149635,-0.003717508625362303,0.006061511554839242,0.9899654487362745
2013-10-16,1,0.0039029101299399064,0.00422946035774812,-0.0032059473647160757,0.0052314493424855234,0.9917862899430815
2013-10-18,1,0.0036495190378581692,0.003929081456903457,-0.0032059473647160757,0.005740180611768967,0.9915977655631953
2013-10-22,1,0.0037655629044587103,0.004083624813368356,-0.003814886745607828,0.005740180611768967,0.9910035443191606
2013-10-24,1,0.003953830723699538,0.004294451558801973,-0.003814886745607828,0.006480248221039201,0.9897373820271141
2013-10-28,1,0.003695254074458055,0.003943492865869515,-0.00427038108908477,0.004282759365249527,0.990121818325285
2013-10-30,1,0.002997817504810413,0.003127508297164866,-0.00427038108908477,0.010096062761705885,0.9894967605757574
2013-11-01,1,0.002965981610190327,0.0030712058213079297,-0.00427038108908477,0.006480248221039201,0.9913976352935413
2013-11-05,1,0.0025902422857900513,0.002655394278211552,-0.004774876776930881,0.006480248221039201,0.9909606184785028
2013-11-07,1,0.0020386305723961683,0.002049029366595458,-0.0033469936467076505,0.010096062761705885,0.9913810155793619
2013-11-11,1,0.0018346853329307918,0.001898287100193503,-0.004739489615035367,0.006883121748253045,0.9910109933537858
2013-11-13,1,0.0023787050918752115,0.002413131473532114,-0.008376671762183067,0.006883121748253045,0.9894611111171167
2013-11-15,1,0.002797733096123727,0.00290431746491874,-0.008376671762183067,0.007025830129277832,0.9889177271731578
2013-11-19,1,0.002132053008747197,0.002155587877229972,-0.011801320370402567,0.011013029415808794,0.9871643065099827
2013-11-21,1,0.0035206162038196073,0.003749641296047886,-0.014912508092147933,0.011013029415808794,0.9863588469750877
2013-11-25,1,0.0031703527522209222,0.00338480650271233,-0.014912508092147933,0.011013029415808794,0.9862419615116815
2013-11-27,1,0.0037715481209272717,0.004026608879160498,-0.014912508092147933,0.006014214757030102,0.9867895825508616
2013-12-02,1,0.0027813483373412815,0.0029030582011387632,-0.011826946016080602,0.006014214757030102,0.9876785798115647
2013-12-04,1,0.002249609786428845,0.00228990392198697,-0.010018743439924361,0.007117942634102805,0.9877233703446756
2013-12-06,1,0.002615332244874691,0.0026886176347192927,-0.010018743439924361,0.0067518606160356836,0.9877583772924509
2013-12-10,1,0.002122304283333663,0.002155327691266218,-0.008273035018199905,0.00794034523484188,0.9877708455046381
2013-12-12,1,0.0010565819843129677,0.001156049545244229,-0.007922321448032999,0.00794034523484188,0.9888545651603732
2013-12-16,1,0.0020723979154513303,0.0020882005096290106,-0.007922321448032999,0.00794034523484188,0.9891266806689761
2013-12-18,1,0.0012731435198391045,0.0014085889696184427,-0.007922321448032999,0.00794034523484188,0.9901960915827077
2013-12-20,1,0.0018703139875203567,0.0018899670734545116,-0.007343989525366382,0.0067518606160356836,0.9922213618287766
2013-12-24,1,0.002248231744306045,0.002270575635971581,-0.007343989525366382,0.005702219099815528,0.9912189015200744
2013-12-27,1,0.002158583659307222,0.0022083882867259966,-0.007343989525366382,0.00794034523484188,0.9902074797680334
2013-12-31,1,0.0021309694228729315,0.0021434490962338156,-0.007922321448032999,0.00945378539153638,0.988826543102728
2014-01-03,1,0.0019350618917676617,0.0019426482885375096,-0.015033030893489917,0.008355539337335013,0.9875808738237498
2014-01-07,1,0.001801647816333709,0.0018276523432247513,-0.015033030893489917,0.006108354084670545,0.9875679407284501
2014-01-09,1,0.0008464126184525852,0.0010646048285618938,-0.015033030893489917,0.009382954589141058,0.9877832999231707
2014-01-13,1,0.00045846198526372506,0.0007180648706544062,-0.015033030893489917,0.009688696046025645,0.9876411994737506
2014-01-15,1,0.0011811321497273547,0.001358901696724644,-0.015033030893489917,0.009688696046025645,0.9874439008415586
2014-01-17,1,0.0007166534735218616,0.000953453476181985,-0.010375350910441746,0.010027770193809744,0.9878552723331377
2014-01-22,0,-0.00021499488272289633,0.00016028139941382273,-0.01525591344709607,0.012602684887968446,0.9868574476835801
2014-01-24,-1,-0.0027101604217184003,-0.001972048671505528,-0.01525591344709607,0.012602684887968446,0.9876700377198006
2014-01-28,-1,-0.0027669757998211634,-0.002034670665743373,-0.01525591344709607,0.010027770193809744,0.988506019819322
2014-01-30,-1,-0.002872907412254319,-0.002137387819562913,-0.010375350910441746,0.009046064038144347,0.9896583118351222
2014-02-03,-1,-0.003609015331887326,-0.00287131906649842,-0.008706397360150976,0.010027770193809744,0.9892296260376425
2014-02-05,-1,-0.004198257142937128,-0.0033884325363507492,-0.008042027218452225,0.010027770193809744,0.9891125903552856
2014-02-07,-1,-0.0033592692468422856,-0.0026403500775943117,-0.008042027218452225,0.008023308021431164,0.9903888513199349
2014-02-11,-1,-0.002254084140447924,-0.0017095687841884566,-0.009126283118699745,0.005032521499316985,0.98993162868386
2014-02-13,-1,-0.0019252209132309466,-0.0014124690271460202,-0.011947931977643975,0.001018889134273992,0.9898758348536265
2014-02-18,-1,-0.001983618235762096,-0.0014583759779819999,-0.011947931977643975,0.004826577189452964,0.9898870795896388
2014-02-20,-1,-0.002430230181029434,-0.0018458241389404065,-0.00949397234406361,0.001018889134273992,0.9914508453767319
2014-02-24,-1,-0.0032320138373619508,-0.002574080267097666,-0.01149975038061139,0.001018889134273992,0.9910496516269707
2014-02-26,-1,-0.004485967575163435,-0.003668649273567969,-0.01149975038061139,0.004781197326265767,0.9908967111181884
2014-02-28,-1,-0.005665618873008414,-0.004669152062723883,-0.014854159579499013,0.004781197326265767,0.9904733061541687
2014-03-04,-1,-0.004126907816380384,-0.003366816952866371,-0.014854159579499013,0.006943499556962364,0.9882661058970771
2014-03-06,-1,-0.003168396252342178,-0.002590736179717984,-0.014854159579499013,0.007285583456387974,0.9879084329799154
2014-03-10,-1,-0.0027899043852346473,-0.0023278701539370572,-0.014854159579499013,0.007285583456387974,0.9871226322327437
2014-03-12,-1,-0.002963254210909409,-0.0024976746528509036,-0.013545317292041729,0.00748460875828213,0.9863626433095685
2014-03-14,-1,-0.0038217926521791597,-0.0032754523865122414,-0.015512576976028983,0.00748460875828213,0.9848556802336316
2014-03-18,-1,-0.002632982708409191,-0.002238143965677471,-0.015512576976028983,0.006336243520037861,0.9852643826846014
2014-03-20,-1,-0.002693373742810022,-0.0023151846520982457,-0.015512576976028983,0.00734846916872054,0.9844113173750276
2014-03-24,-1,-0.00383578235065607,-0.003351655955376317,-0.011812691478249697,0.00734846916872054,0.9855492393432116
2014-03-26,-1,-0.004402211425997053,-0.003844317204314141,-0.011812691478249697,0.006786592994983234,0.9861629425297828
2014-03-28,-1,-0.0052837578702364055,-0.004631500904022996,-0.011377736370750647,0.010765862706818813,0.9854779980947977
2014-04-01,-1,-0.00225424782273247,-0.001955487060597615,-0.011377736370750647,0.006786592994983234,0.9887165506027399
2014-04-03,-1,-0.0026060160530127227,-0.002230354476808738,-0.011953565072736344,0.007232263094267841,0.9877880852627655
2014-04-07,-1,-0.003042989868472572,-0.002654611728195095,-0.009776230523704382,0.007232263094267841,0.9883094248799607
2014-04-09,-1,-0.0014840230692542066,-0.0012895371592209393,-0.012096785240438564,0.0027349710711218247,0.9893950795463652
2014-04-11,-1,-0.0033617733570399967,-0.0029777727465068356,-0.006854904779316013,0.011336325418722249,0.9897561056627435
2014-04-15,-1,-0.0032636361380595407,-0.002867294309908568,-0.012096785240438564,0.011336325418722249,0.9883237067162088
2014-04-17,-1,-0.001717723151137175,-0.0015694202805448417,-0.012096785240438564,0.005661298979691801,0.9890277686514518
2014-04-22,-1,-0.0020074432245062775,-0.0018145291696930067,-0.014599974366443762,0.011336325418722249,0.9871778675190286
2014-04-24,-1,-0.0019487990441332966,-0.0018278596760911109,-0.012096785240438564,0.013546575277285196,0.9873199735777505
2014-04-28,-1,-0.0018642581409305894,-0.0017216452828964222,-0.010354405798905652,0.014333056255232315,0.9869397670492751
2014-04-30,-1,-0.0015463974688973397,-0.0014238479446026424,-0.014599974366443762,0.014333056255232315,0.9864887104062577
2014-05-02,-1,-0.0008068184725117253,-0.0008010517704560474,-0.012857332848183807,0.013546575277285196,0.9873000095440962
2014-05-06,-1,-0.0015093710730520796,-0.0014099498502781267,-0.012857332848183807,0.013546575277285196,0.9870149329395757
2014-05-08,-1,-0.0027058648479846917,-0.0024249841583978042,-0.010876419224568012,0.014333056255232315,0.9867146752923782
2014-05-12,-1,-0.00034325207216702317,-0.0002847707528283688,-0.010876419224568012,0.007398997094478835,0.9882770785230311
2014-05-14,-1,-0.00204052452694085,-0.001899652534847582,-0.00981931395207002,0.007398997094478835,0.989502849980387
2014-05-16,-1,-0.0013931238522934674,-0.0013507338816766635,-0.009864214796091928,0.007398997094478835,0.9890913418909377
2014-05-20,-1,-0.001870842510606892,-0.0017681843883540491,-0.00955206467781441,0.0063945162809568344,0.990704829784314
2014-05-22,-1,-0.0012762593821305506,-0.0012367271304505006,-0.00955206467781441,0.008628191434048152,0.9904412141443311
2014-05-27,1,0.00022370272941619367,0.0003914676632843546,-0.009864214796091928,0.005120574834065576,0.9911479976805595
2014-05-29,-1,-0.0006263392653620471,-0.000563183603196572,-0.008034361602537336,0.0054255697646461605,0.9921832170770315
2014-06-02,-1,-0.0006899235497606867,-0.0006248299025095065,-0.0062674182257648325,0.006243407294433597,0.9923485445006398
2014-06-04,-1,-0.0006089593456147738,-0.0005199110167455393,-0.0062674182257648325,0.008368687959761265,0.9908998069830971
2014-06-06,0,-7.662236182190651e-05,7.439200101448201e-05,-0.008034361602537336,0.008368687959761265,0.9907520335032894
2014-06-10,1,0.0006344166711554239,0.0009402640491092904,-0.009943036141283118,0.008368687959761265,0.9906389782126761
2014-06-12,-1,-0.00020980284156060054,-2.271990956156239e-05,-0.008034361602537336,0.008368687959761265,0.9913325417154782
2014-06-16,-1,-0.0002230630415144232,-4.3230146866487834e-05,-0.009463792725162415,0.008368687959761265,0.9906637145686582
2014-06-18,-1,-0.0003742379540597406,-0.0002788312962968953,-0.014330028325385885,0.007254331167532988,0.9892667031294208
2014-06-20,1,0.00047143249527903754,0.0006982324472095404,-0.014330028325385885,0.00587246310714812,0.9889368648371591
2014-06-24,-1,-0.00050680610152794,-0.00040648032114198814,-0.011805713510257696,0.0072558553979048335,0.9893309183629921
2014-06-26,-1,-0.0007688885916351444,-0.0007516522278131082,-0.011805713510257696,0.0072558553979048335,0.9892256396575871
2014-06-30,-1,-0.0004602380953718554,-0.0004443995379459755,-0.011805713510257696,0.004676509062034049,0.9894053467758313
2014-07-02,1,0.0005199268155836836,0.0007261466606105687,-0.009463792725162415,0.005087436122090665,0.9905862903165684
2014-07-07,1,0.0008092860478487616,0.0010828759982837327,-0.009463792725162415,0.004919770226756359,0.9909341530711758
2014-07-09,1,0.0008345148527194059,0.0011437923165444805,-0.007943570575071193,0.005977920192815704,0.991257297577665
2014-07-11,1,0.0012154122517076798,0.0015875225707385956,-0.009847304783742444,0.0049942750339627634,0.9906339859655907
2014-07-15,1,0.0001325004226675414,0.0003589074645075557,-0.00883290105847159,0.0049942750339627634,0.9910709927440616
2014-07-17,-1,-0.001318683172148041,-0.001309142000031683,-0.0053486797380391604,0.007576630650887733,0.9901042530103102
2014-07-21,-1,-0.0012860412452283983,-0.00124474113910074,-0.0045352133144522504,0.011883797183209454,0.9896644519382911
2014-07-23,-1,-0.0007827587663638261,-0.0007766198453817567,-0.0045352133144522504,0.011883797183209454,0.9892091041084926
2014-07-25,-1,-0.0005821565243820407,-0.0004987525964289556,-0.0045352133144522504,0.011883797183209454,0.9891783423754614
2014-07-29,-1,-0.0005330520346617808,-0.00042698398917210596,-0.0021169542063992916,0.01196406242225968,0.9882680704998532
2014-07-31,-1,-0.00019277508529002592,-6.112185548121747e-05,-0.008693931704798756,0.01196406242225968,0.9878866157843623
2014-08-04,-1,-0.0002432088272345746,-0.00012679265960422083,-0.005707651196482238,0.01245789976272788,0.9881525134780625
2014-08-06,-1,-0.00036000401875070046,-0.0003210423634173609,-0.006577448808108525,0.01245789976272788,0.9881916860446246
2014-08-08,-1,-0.0005650610041547871,-0.0004991556475167565,-0.005024605757968307,0.01245789976272788,0.9886700456697589
2014-08-12,-1,-0.0015314680191874101,-0.001461712297926973,-0.0018188331337533684,0.01245789976272788,0.9884099817537966
2014-08-14,0,-3.3218614364000556e-05,6.227492709499265e-08,-0.006015350273561512,0.011401803857435172,0.9912795321045466
2014-08-18,1,0.0007276526096436713,0.0008305333210849857,-0.006015350273561512,0.006582632566819258,0.9924122359146423
2014-08-20,1,0.0010816140091271054,0.0011719051348558908,-0.006015350273561512,0.006244201081491534,0.992377296784051
2014-08-22,1,0.002334442978948132,0.002764872783247967,-0.006015350273561512,0.006244201081491534,0.9927020511040248
2014-08-26,1,0.0032972200429553936,0.0038565259226110956,-0.006015350273561512,0.004280113238627619,0.9929525633882708
2014-08-28,1,0.001712801165156957,0.002006135153898826,-0.0051499030787611755,0.004890757252869502,0.9941479639571961
2014-09-02,1,0.0029959034353916397,0.00354210428622623,-0.0051499030787611755,0.004890757252869502,0.9940932114351415
2014-09-04,1,0.001612374159402545,0.0018395081074879804,-0.0051499030787611755,0.00564528746556752,0.9933149266461152
2014-09-08,1,0.0020796540558125,0.002386248600449702,-0.0051499030787611755,0.007589774152770512,0.9927623832952445
2014-09-10,1,0.0020188070581092185,0.0023569653703132765,-0.0051499030787611755,0.008425884037340852,0.9913852101465692
2014-09-12,1,0.001809879433003189,0.002107486731190957,-0.0051499030787611755,0.008425884037340852,0.9912226857237356
2014-09-16,1,0.0013143984735971483,0.001489847013973875,-0.004409254469270211,0.009928217035424704,0.9907225832622565
2014-09-18,1,0.002426445411369268,0.002770240813944512,-0.006649328021387722,0.007589774152770512,0.990462998971364
2014-09-22,1,0.0021960634931490718,0.0025308002517865917,-0.005510392214797517,0.008487270590622153,0.9906699917083138
2014-09-24,1,0.0022268673265538725,0.0025748967455168047,-0.007705546746343165,0.008487270590622153,0.990378716850388
2014-09-26,1,0.0020460856376338507,0.00233857624908076,-0.007705546746343165,0.008847402615700314,0.9903541449611124
2014-09-30,1,0.0016486908552403303,0.0018414092815378371,-0.007705546746343165,0.009411646516467849,0.9887885399319793
2014-10-02,1,0.0023161024172380943,0.0026947258682548008,-0.007267917575198058,0.011484438294772492,0.9868619475070065
2014-10-06,1,0.0017369315602506145,0.0019285339794612856,-0.007989481688077178,0.013659898550281721,0.9856006153177177
2014-10-08,1,0.0018866584721289328,0.0021078853390190566,-0.007267917575198058,0.009634823936990802,0.9875934977935327
2014-10-10,1,0.0010323856459441658,0.001108377509260655,-0.007989481688077178,0.009634823936990802,0.9870887099475054
2014-10-14,1,0.002214859435036772,0.0024781309111755,-0.007989481688077178,0.009634823936990802,0.9871871667234209
2014-10-16,1,0.0020111126210937452,0.0023333763756998595,-0.00108181291250299,0.013973620250092434,0.9873192232473661
2014-10-20,1,0.0020589803672777045,0.0023156066739863494,-0.0064628730664541235,0.011454473630741884,0.9867829273018145
2014-10-22,1,0.001477425350381075,0.001637904769917494,-0.0064628730664541235,0.011454473630741884,0.9861806101871072
2014-10-24,1,0.002077777960522732,0.002305070601704637,-0.0064628730664541235,0.011454473630741884,0.9865218204521368
2014-10-28,1,0.003991383880941115,0.0045017494426939555,-0.006480381399925536,0.010109169473807526,0.9869696445719301
2014-10-30,1,0.0056122157952707055,0.006337916521763229,-0.006105716027451945,0.006716264912325931,0.9895626355630075
2014-11-03,1,0.005170176678923159,0.005765030339523965,-0.005130046042350005,0.006716264912325931,0.9900288244139078
2014-11-05,1,0.0051214196802043775,0.005695504376779863,-0.005578281333229387,0.008221049216293038,0.9894561316093002
2014-11-07,1,0.004409313474150953,0.004904997303956863,-0.005578281333229387,0.010980135990890292,0.9899621331063804
2014-11-11,1,0.005701356310693766,0.006399756068749277,-0.006105716027451945,0.010980135990890292,0.9880926492088324
2014-11-13,1,0.0052766837411174486,0.005840260489632977,-0.006260924040157042,0.010826497260138316,0.9884080510026957
2014-11-17,1,0.004997276206710845,0.005544767470645487,-0.006260924040157042,0.010826497260138316,0.988094389269927
2014-11-19,1,0.004074469527272237,0.004508256514974803,-0.005584117444386524,0.01301600471507958,0.9876004558562984
2014-11-21,1,0.004257100199950921,0.004733504247161699,-0.006260924040157042,0.01301600471507958,0.9870332039512081
2014-11-25,1,0.0048089805319337115,0.005346612022186243,-0.006866463425311685,0.011419172109031796,0.987374896061196
2014-11-28,1,0.0042471467823915875,0.004679499118545381,-0.006866463425311685,0.011419172109031796,0.987223156780159
2014-12-02,1,0.0051601425180841124,0.005716777041892076,-0.007300773897207727,0.010826497260138316,0.9874986960254991
2014-12-04,1,0.004461285155654297,0.004834928975274417,-0.010552701038270823,0.0077091866749871485,0.9863597149511648
2014-12-08,1,0.003268575030150896,0.0034043213105066127,-0.014629592456169205,0.007855532047700982,0.9859910402177322
2014-12-10,1,0.0028962782669912784,0.002992641648780041,-0.012040329825160678,0.007855532047700982,0.9871947227854814
2014-12-12,1,0.003243636656554762,0.003414289700981438,-0.012040329825160678,0.007930428877418867,0.9876085008719895
2014-12-16,1,0.0018939633490335415,0.0019266519502139103,-0.014226491375666749,0.007930428877418867,0.9874699798436924
2014-12-18,1,0.003548976744577765,0.003701834077312245,-0.014226491375666749,0.002983058834254827,0.9877743429443672
2014-12-22,1,0.0030595040868887937,0.0031529945224763184,-0.014226491375666749,0.002983058834254827,0.9879166512311999
2014-12-24,1,0.0024239277925567357,0.0024284753833786303,-0.012171834418230889,0.0041946227741656555,0.9884501716799842
2014-12-29,1,0.0020077171388623184,0.00204966882695684,-0.014226491375666749,0.0041946227741656555,0.9873010083501652
2014-12-31,1,0.0006284096853112758,0.0008892592940340056,-0.01567029352251543,0.008612981282617702,0.9872590637953063
2015-01-05,-1,-0.0016287060641415935,-0.0010501697921858884,-0.013068124551316576,0.012076200563917783,0.9886445879447178
2015-01-07,-1,-0.0003196628172992118,-1.0348560034181766e-05,-0.011785712143447499,0.012076200563917783,0.9885430689901653
2015-01-09,1,0.0002850638448059508,0.00047771892482563125,-0.013068124551316576,0.008612981282617702,0.9884419101730854
2015-01-13,1,0.0011403549526756566,0.001190149171155907,-0.013068124551316576,0.010072332024891516,0.9876793533003418
2015-01-15,-1,-0.0005292831233468895,-0.00026273009294807044,-0.008891786081283607,0.011821024503339486,0.988760488399703
2015-01-20,1,0.0006273336466243165,0.000713893516422038,-0.008891786081283607,0.011821024503339486,0.9889448070126842
2015-01-22,-1,-0.0007683727582584994,-0.0004509854464448558,-0.0064066923675041455,0.013713902956410468,0.9882110721546651
2015-01-26,-1,-0.0002442037602024186,-1.2154928692502897e-05,-0.005961644980224729,0.011925487295532881,0.9883098827480873
2015-01-28,-1,-0.002092964421905281,-0.0016217403029962305,-6.20486942075108e-05,0.011925487295532881,0.9888302930794772
2015-01-30,-1,-0.0023168599439418285,-0.0018332709838183904,-6.20486942075108e-05,0.011925487295532881,0.9892271867058324
2015-02-03,-1,-0.002159759694307938,-0.001668836943554567,-0.0036510276052415937,0.010979478218671073,0.989623635267285
2015-02-05,-1,-0.0011833544158781344,-0.0007971830316578512,-0.004461446545231964,0.010811043628425002,0.9904985377981531
2015-02-09,-1,-0.0028216044471559534,-0.002240339451519686,-0.0036510276052415937,0.010811043628425002,0.9906579987419759
2015-02-11,-1,-0.001078375051123606,-0.0007543873126362408,-0.0036510276052415937,0.00813739352125311,0.9919129469932518
2015-02-13,-1,-0.001231150153865425,-0.0008664278106611011,-0.0032128472613648473,0.00813739352125311,0.9912399134556884
2015-02-18,-1,-0.0007162189434841412,-0.0004017019032196605,-0.0032128472613648473,0.00682137770688203,0.9918109660779015
2015-02-20,1,0.00010670793927125479,0.0003293217006626034,-0.0032128472613648473,0.007574046123455918,0.9919641836377693
2015-02-24,1,0.0006719678615456372,0.0008280960593888042,-0.0032128472613648473,0.006820593974766118,0.9926132588386543
2015-02-26,1,0.00038270558749131005,0.0005949277422303482,-0.004218472103894557,0.006820593974766118,0.9921057709100628
2015-03-02,1,0.0005364697545312631,0.0007274580679451523,-0.0036838848038957973,0.007571694927108185,0.9911782389440321
2015-03-04,0,-0.0002597305338659497,2.4719851685759764e-05,-0.003423900226685304,0.008532253860530645,0.9886185051811535
2015-03-06,-1,-0.0014211275145176376,-0.000957304554707949,-0.0038477495001839005,0.008532253860530645,0.9886957697571439
2015-03-10,-1,-0.0010869041757803376,-0.0006959503555995482,-0.0032674688267942146,0.008532253860530645,0.9890164340236082
2015-03-12,-1,-0.0016084603692419449,-0.0010919754749622794,-0.0033236872519247303,0.008532253860530645,0.9890859749033406
2015-03-16,-1,-0.0004311465722211824,-7.885126234105058e-05,-0.0033236872519247303,0.007571694927108185,0.9904481676086206
2015-03-18,-1,-0.00044759890433780387,-6.768857173863017e-05,-0.0038477495001839005,0.007571694927108185,0.9900915856465107
2015-03-20,1,0.000954684964907926,0.0011408981191921444,-0.005037894083216933,0.006496516073288269,0.9902671259779416
2015-03-24,1,0.002078079409257446,0.002115689251087997,-0.0073448214142890645,0.0061236520307684575,0.989888744348971
2015-03-26,1,0.0021680873654167186,0.002338689312971722,-0.0047129760645365,0.00841570069270093,0.9898617795087576
2015-03-30,1,0.0034185499311308615,0.0037614709276906026,-0.008194889903040996,0.0061236520307684575,0.9898542200441295
2015-04-01,1,0.001436670940054311,0.0015240358875651754,-0.009907144806164397,0.005627861050498608,0.9905692286316204
2015-04-06,1,0.0006586205351448084,0.0007080322878069918,-0.008194889903040996,0.006110967696036442,0.9909037607939624
2015-04-08,1,0.0013572640487487062,0.0014523046068521926,-0.010119439022179344,0.006206412536972702,0.9903430921453105
2015-04-10,1,0.0016525600919076817,0.0018125580591360027,-0.010119439022179344,0.006293433621614322,0.9904292688975898
2015-04-14,1,0.0014986313361366622,0.001618682315999291,-0.010119439022179344,0.006293433621614322,0.9900050597324018
2015-04-16,1,0.0005109481459758173,0.0005632561854016301,-0.008194889903040996,0.007037755528731253,0.9901611639540683
2015-04-20,1,0.0007812827769001982,0.0007993491592989093,-0.006807378519640626,0.007037755528731253,0.9904867098198339
2015-04-22,1,0.0009477553966384366,0.0009907532201084929,-0.005338612635552038,0.007037755528731253,0.9908841865983281
2015-04-24,1,0.0016415623158926404,0.0017714104376096748,-0.005338612635552038,0.006293433621614322,0.9913715568869583
2015-04-28,1,0.001125970418127262,0.001232130165420876,-0.005338612635552038,0.00700184090480848,0.9903689116377968
2015-04-30,-1,-0.0007152024493179475,-0.0006040724968083956,-0.005338612635552038,0.00700184090480848,0.9914044886760236
2015-05-04,-1,-9.728451154125906e-05,-6.218919829890853e-05,-0.005338612635552038,0.008604922419557817,0.991332266695812
2015-05-06,-1,-0.0005296274428094009,-0.00043358538211999196,-0.005338612635552038,0.009883805611534917,0.9900883421697889
2015-05-08,-1,-0.00011665021701045408,-7.421115546307652e-05,-0.005338612635552038,0.008758180292946161,0.9901069453806844
2015-05-12,-1,-0.0008370217642728802,-0.000673344482550809,-0.0040806255291786836,0.01040146772010078,0.9897158842464941
2015-05-14,1,0.0008177074232740153,0.0009614009365104284,-0.0040806255291786836,0.008758180292946161,0.9904467020523237
2015-05-18,1,0.0008896180129613033,0.0010214217053648683,-0.005229238448920186,0.008758180292946161,0.9896829523522049
2015-05-20,1,0.0006237258904423612,0.0006962833059227559,-0.005229238448920186,0.011061447639086787,0.9886257381409741
2015-05-22,1,0.0007421105299545584,0.0008224830539472862,-0.005229238448920186,0.012403204589014807,0.98847401428202
2015-05-27,1,0.0007697771461877298,0.0008311959087808588,-0.005229238448920186,0.010790831548342624,0.9900084862851036
2015-05-29,-1,-0.0010045838238531394,-0.000786394275953922,-0.0010737401716886786,0.010790831548342624,0.9900289354949112
2015-06-02,-1,-0.0005719618828104026,-0.0003998934028299682,-0.0039451548549754595,0.010103757798488138,0.9901741468054746
2015-06-04,-1,-0.00036514886514727536,-0.00022914887587003176,-0.0039451548549754595,0.00780846301155549,0.9917061558286034
2015-06-08,0,-6.908412974437656e-06,6.688523440121462e-05,-0.0012303494138825421,0.010103757798488138,0.9896999408881418
2015-06-10,-1,-0.00030009282859959244,-0.00013515259689253717,-0.0064843534011887975,0.005456016095033459,0.9896299670092797
2015-06-12,1,0.0001605331293714294,0.0002458815904991419,-0.0064843534011887975,0.00811458359113097,0.9894707318741702
2015-06-16,1,0.00019122476153003037,0.00029811280362180583,-0.0047127214540322055,0.007384606523412826,0.9905742360607234
2015-06-18,1,0.00114035749975848,0.0011556892997322686,-0.0047127214540322055,0.007384606523412826,0.9911848730107358
2015-06-22,1,0.0008626123573533687,0.0009437805602140481,-0.0047127214540322055,0.0057536337380639955,0.9914766700047841
2015-06-24,0,-0.00014589130096036263,7.989104057409477e-05,-0.0047127214540322055,0.0057536337380639955,0.991501358869069
2015-06-26,1,8.977847929368882e-05,0.0002765351686435754,-0.0064843534011887975,0.004987075912611716,0.9912841500368417
2015-06-30,1,0.00022632192921395597,0.00034635298062893,-0.0042377169667758875,0.0057536337380639955,0.9913355587216676
2015-07-02,-1,-0.0009921472116450375,-0.0006699358527897498,-0.0042377169667758875,0.0057536337380639955,0.991434223045654
2015-07-07,1,0.0014500560592490195,0.0014512692583491576,-0.0042377169667758875,0.0057536337380639955,0.9935721397484945
2015-07-09,1,0.0007974399791601343,0.0008678726109569713,-0.003028381386733506,0.006671723844086358,0.9933849005141276
2015-07-13,1,0.0014216755156464412,0.0014582412512275083,-0.003028381386733506,0.005548488915167201,0.9935467874145085
2015-07-15,1,0.001863314705694286,0.0020093954384825573,-0.00405590016699601,0.004987075912611716,0.9934227596980243
2015-07-17,1,0.002277019226684914,0.0025113065693004766,-0.00405590016699601,0.0033615482246367413,0.9937761485249318
2015-07-21,1,0.002322309353901579,0.002565778674496452,-0.00405590016699601,0.0033615482246367413,0.9935659158462476
2015-07-23,1,0.0021336991717375146,0.002360407218188342,-0.007307638244345795,0.0018503022638610665,0.9917326862265013
2015-07-27,1,0.0012191039902033872,0.001286861310935751,-0.013651370681408944,0.0018503022638610665,0.9907903441719648
2015-07-29,1,0.0013284743294765529,0.0013901221412153009,-0.013651370681408944,0.0037527059157157617,0.9887062036951694
2015-07-31,1,0.0007966677971107326,0.0008125789837011997,-0.012109047284949565,0.0037527059157157617,0.9886920369133306
2015-08-04,1,0.001137175852950894,0.0011774618525749018,-0.015437438393814505,0.0018503022638610665,0.9870133501663908
2015-08-06,1,0.0011341526576984402,0.001220597863910064,-0.014668576658919984,0.0018503022638610665,0.9869282344706283
2015-08-10,1,0.0012847234048109306,0.0014117877420332635,-0.014668576658919984,0.003975545833501338,0.985482184871449
2015-08-12,1,0.0014577243696953777,0.0016643532552357695,-0.014668576658919984,0.01154261030721839,0.9847082179463816
2015-08-14,1,0.001592154924869202,0.0018302231819136755,-0.014668576658919984,0.012263708141308931,0.983694091353742
2015-08-18,1,0.0017490904866734216,0.0019823992848270484,-0.014668576658919984,0.011683044697010498,0.98370024694372
2015-08-20,1,0.0006884573223642305,0.0008523789722934181,-0.011659664381815961,0.011683044697010498,0.9855182969365172
2015-08-24,-1,-0.0017284357474248917,-0.0015099750169072273,-0.010046054615042361,0.011683044697010498,0.9876134318459029
2015-08-26,1,2.10682127525891e-06,4.3815802860921896e-05,-0.010046054615042361,0.0102815178058165,0.9885613884454202
2015-08-28,-1,-0.0005529105117796304,-0.00044873078615625955,-0.010785962714806592,0.0102815178058165,0.9864292685476872
2015-09-01,-1,-0.00196471687207909,-0.0017010678424556483,-0.007908145327443621,0.0102815178058165,0.9883365821468946
2015-09-03,-1,-0.0014151057694129425,-0.0012226915206038536,-0.007908145327443621,0.009803920916416116,0.9885916307802659
2015-09-08,-1,-0.0007228755029051204,-0.0005957294158948212,-0.010046054615042361,0.009803920916416116,0.9882913862917435
2015-09-10,-1,-0.0005091801880470699,-0.0004153739234661229,-0.007908145327443621,0.009803920916416116,0.9887416844618253
2015-09-14,-1,-0.0005287051693796101,-0.0004239530930237255,-0.0058284813962456525,0.009803920916416116,0.988843741950394
2015-09-16,-1,-1.5972095709695847e-05,-1.079654616980961e-05,-0.008037712479653233,0.009803920916416116,0.9885762277641517
2015-09-18,-1,-0.0006135198458338557,-0.0004947644588289592,-0.0058284813962456525,0.011205394882827768,0.9882199320883988
2015-09-22,-1,-0.0021888953096424937,-0.0017970486100540699,-0.008259153406514867,0.011205394882827768,0.9879857911133615
2015-09-24,-1,-0.000911866464475012,-0.0006884311177699696,-0.008259153406514867,0.008274416266304539,0.9888672481270253
2015-09-28,-1,-0.0035180103869141078,-0.0029719007781936254,-0.005462327774197587,0.011205394882827768,0.9899754793235707
2015-09-30,-1,-0.0034259745041764662,-0.002910219398226813,-0.005462327774197587,0.012743666004078075,0.9874076968095653
2015-10-02,-1,-0.003400904760145606,-0.00287439322530095,-0.00417129987276397,0.012743666004078075,0.9878426030219221
2015-10-06,-1,-0.0035525015953669042,-0.0030356505421459926,-0.002157000741426675,0.013509662462785184,0.98838182850523
2015-10-08,-1,-0.002800716867441914,-0.002385140922910928,-0.002157000741426675,0.013568919165428774,0.9883199926753867
2015-10-12,-1,-0.0021254891511252377,-0.001784817125485563,-0.00417129987276397,0.014136991562215415,0.9886139376298486
2015-10-14,-1,-0.002582970332932532,-0.002199122162955486,-0.0032221950851051423,0.014136991562215415,0.9886483546659068
2015-10-16,-1,-0.001408369901868648,-0.001172491361189037,-0.005862615523737061,0.009624161826431837,0.989379016531377
2015-10-20,-1,-0.0026404281800866984,-0.002214513514883527,-0.0018406324788737324,0.010718199097974293,0.9885950709236503
2015-10-22,-1,-0.002301257693953496,-0.0019391722369640776,-0.0018406324788737324,0.010718199097974293,0.9889072348860358
2015-10-26,-1,-0.0011381738317686396,-0.0009157177179548173,-0.0018406324788737324,0.00858654183865078,0.9904893417975862
2015-10-28,1,0.0007630386945389535,0.0007663729026257592,-0.0018406324788737324,0.00858654183865078,0.9922313036958804
2015-10-30,1,0.0009506948978700087,0.0010033761441592356,-0.003310727148053888,0.00858654183865078,0.9912599000464158
2015-11-03,1,0.0016057024618289484,0.0017538198818749184,-0.004229045722805249,0.00858654183865078,0.9912253150568676
2015-11-05,1,0.0025061413585195074,0.0027916804639214103,-0.0067356085225049695,0.008432385386974089,0.990180303703677
2015-11-09,1,0.003243468035620713,0.003674853923492564,-0.009005919751934491,0.008432385386974089,0.9898211313994942
2015-11-11,1,0.00307513542300267,0.0035136241040157248,-0.00968198727154528,0.008432385386974089,0.9900742792689419
2015-11-13,1,0.002386873069894149,0.0026999201525150784,-0.00968198727154528,0.008432385386974089,0.9896458899499677
2015-11-17,1,0.0029848435925249536,0.0033843170206908453,-0.00968198727154528,0.009123605047185821,0.9895008199256579
2015-11-19,1,0.0023478791956921367,0.002639554971046356,-0.00968198727154528,0.009123605047185821,0.9885079826512532
2015-11-23,1,0.0022562962340579823,0.0025137325755386656,-0.00968198727154528,0.009123605047185821,0.9887170852847896
2015-11-25,1,0.003794975598625871,0.0043667839547073,-0.00968198727154528,0.008884863655958825,0.98879797499871
2015-11-30,1,0.0031516876379059323,0.003603918981957815,-0.009428983718942711,0.00847148997866022,0.9898063817797633
2015-12-02,1,0.003671806434899244,0.004212521678411855,-0.00968198727154528,0.00736125124155948,0.9886753222496257
2015-12-04,1,0.003205250328866327,0.003690615850297556,-0.010931112488086224,0.005906374295976692,0.9876837156338953
2015-12-08,1,0.0037195686138414893,0.004288604875263982,-0.015007378701234848,0.005745201460123547,0.9876127791644191
2015-12-10,1,0.0034562762489639717,0.00399353789356496,-0.015007378701234848,0.005745201460123547,0.9873162147514617
2015-12-14,1,0.002371795159543434,0.002750877374016293,-0.01053582856648482,0.006843097844685574,0.9882359335772637
2015-12-16,1,0.0026366173166144135,0.003009134405047237,-0.010825527485971933,0.005745201460123547,0.9874508656286437
2015-12-18,1,0.0017036780623292684,0.0019818960805664705,-0.009919803228621845,0.00847148997866022,0.9880406626607569
2015-12-22,1,0.0017527780393265932,0.0020114476001469733,-0.010825527485971933,0.01217468597924559,0.9860430212629208
2015-12-24,1,0.002164975505124522,0.0024924496167770963,-0.012229459273666629,0.009155683771773627,0.9858713706926236
2015-12-29,1,0.002269590160635526,0.002591482764065952,-0.015007378701234848,0.008568260596270775,0.9839750279430571
2015-12-31,1,0.0011606067246510254,0.0013364421662434276,-0.012229459273666629,0.014565380765611362,0.9840004174608812
2016-01-05,-1,-0.0011053131133671895,-0.000979808236072422,-0.009919803228621845,0.014565380765611362,0.9869627679121316
2016-01-07,-1,-0.00165918741744773,-0.0014721882013864532,-0.010677479410673856,0.014565380765611362,0.9866902608548543
2016-01-11,-1,-0.001865849285732438,-0.0016813727051757695,-0.010677479410673856,0.01620988997854637,0.9860069939939355
2016-01-13,-1,-0.002484779937830783,-0.0021350973319100137,-0.012666403483291481,0.015195549757469715,0.9861278844069277
2016-01-15,-1,-0.0033377000766827633,-0.002799282734922417,-0.012666403483291481,0.015688053533732225,0.9858236789207361
2016-01-20,-1,-0.0006065997829518876,-0.0004956259194375129,-0.012666403483291481,0.00989839092200761,0.9863709887689411
2016-01-22,-1,-0.0011917569722418265,-0.0009802074957526892,-0.011988178339604664,0.00989839092200761,0.9857128326648639
2016-01-26,-1,-0.002678234322687236,-0.002214655292211369,-0.009013359527775874,0.012578291374018138,0.9843260422366286
2016-01-28,-1,-0.004146442808830643,-0.0035311254588025398,-0.003923656904840264,0.014351857058519882,0.9842895569237478
2016-02-01,-1,-0.0020427057557876453,-0.0017172836325558209,-0.00648387632366137,0.014351857058519882,0.9850518056916989
2016-02-03,-1,-0.0021524765927924553,-0.0018202959166727214,-0.00648387632366137,0.014351857058519882,0.9845623081974313
2016-02-05,-1,-0.0037230202238244066,-0.0032137158913558995,0.002937101315453227,0.014351857058519882,0.9846967734616365
2016-02-09,-1,-0.0029768983664906594,-0.0025575066743253752,0.002937101315453227,0.010536092573869657,0.9854584562572639
2016-02-11,-1,-0.00369248739170542,-0.003187782303132873,0.003379588342931885,0.014045216649968943,0.9849501148633221
2016-02-16,-1,-0.0026750182224928552,-0.0022655573650925,-0.0031952333953732467,0.010536092573869657,0.9871464668765293
2016-02-18,-1,-0.0020203392273162356,-0.0017464212174913758,-0.00038444993282240377,0.007997412733538163,0.9881285176036623
2016-02-22,-1,-0.0011788015969470796,-0.0008793017374603884,-0.0016486872455265525,0.0077385439486116975,0.9908891999674854
2016-02-24,1,0.00016124840354916897,0.000316647516218084,-0.0031952333953732467,0.0077385439486116975,0.9917252148475114
2016-02-26,1,0.0008589966831026297,0.0009269674690893596,-0.0031952333953732467,0.007004599388405484,0.9918309953923053
2016-03-01,1,0.0008375595737480093,0.0009433630386888843,-0.0031952333953732467,0.007004599388405484,0.9917077195072775
2016-03-03,1,0.0013638747330560115,0.0013846849125205016,-0.0031952333953732467,0.013129522497759758,0.9905849135585726
2016-03-07,1,0.002013084788250164,0.0021105243344370366,-0.004644546378087993,0.013129522497759758,0.9899289504016794
2016-03-09,1,0.0010487731707432043,0.0011127967473795043,-0.004644546378087993,0.013129522497759758,0.9900048904624467
2016-03-11,1,0.0020571927088718286,0.0021773498859859923,-0.0065730340798385665,0.011596159621545529,0.9902420817653071
2016-03-15,1,0.0012737286844520712,0.00130163457500147,-0.0065730340798385665,0.013335699745583072,0.9892949552099716
2016-03-17,1,0.0011311169338272635,0.0011782208886325805,-0.0065730340798385665,0.013335699745583072,0.9892697239052196
2016-03-21,1,0.0019957279761698542,0.002116022466480786,-0.0065730340798385665,0.013335699745583072,0.9898213165468178
2016-03-23,1,0.002849196018260924,0.003189273134170054,-0.003364630794261875,0.012630814879459927,0.9910915719188765
2016-03-28,1,0.003380838128159926,0.0037883516808072427,-0.003364630794261875,0.009410615617993017,0.9914823401074496
2016-03-30,1,0.0047840498170567975,0.005413926246287762,-0.002983265255701627,0.006846471643937797,0.9929495185280007
2016-04-01,1,0.006304927848403658,0.007184669069428277,-0.005428937464157823,0.005364161201285661,0.9918459723981365
2016-04-05,1,0.00570136379157396,0.006522441361714215,-0.002983265255701627,0.006049157769280656,0.9925405105296528
2016-04-07,1,0.005071653531921164,0.005778780607087874,-0.002983265255701627,0.0065537087037221215,0.9928284781032445
2016-04-11,1,0.004620299846601311,0.0052407855187810975,-0.002937287439290278,0.00855240216177783,0.9929149245049657
2016-04-13,1,0.006131217141076993,0.006985701159490104,-0.002937287439290278,0.0067336560621681545,0.9932635043962964
2016-04-15,1,0.005874202670220554,0.006660491871684578,-0.004289902577999524,0.0067336560621681545,0.9927601978208546
2016-04-19,1,0.006194462910215286,0.00702997213190037,-0.005865770228862105,0.008195313543970153,0.9903446543507709
2016-04-21,1,0.006244445631487194,0.007115672751065472,-0.005865770228862105,0.008195313543970153,0.9905526584680895
2016-04-25,1,0.006166537432221224,0.007000363627627723,-0.006979104867951319,0.00838759125848579,0.9897508469154557
2016-04-27,1,0.0061706894471377696,0.007024284594434004,-0.006979104867951319,0.009275152034009922,0.989221881137219
2016-04-29,1,0.00518382832746974,0.005866468215929219,-0.0046610141243625955,0.010269767978656983,0.9899119888712342
2016-05-03,1,0.004950344888571592,0.005619336364081266,-0.0033910743755739842,0.010269767978656983,0.990868933129526
2016-05-05,1,0.004694896239095977,0.005310245295580531,-0.0033910743755739842,0.009090373745762485,0.9911541188337062
2016-05-09,1,0.004355977808404236,0.004858680760219016,-0.0017930198765650736,0.009056991844720556,0.9914094346382091
2016-05-11,1,0.005140349667562473,0.005785927702010323,-0.0017930198765650736,0.010818528807173919,0.9913495508291437
2016-05-13,1,0.003957259205273026,0.0043618267706223585,-0.003808163738348405,0.010818528807173919,0.9908584342997013
2016-05-17,1,0.003627430936434514,0.0039972927050236865,-0.005917808411362381,0.008008636657207038,0.9923832697356249
2016-05-19,1,0.0037022704925900717,0.00409537715471725,-0.006035378053167658,0.008008636657207038,0.9916324145247223
2016-05-23,1,0.004275645822242459,0.004758092320470572,-0.006035378053167658,0.008008636657207038,0.9920735718024013
2016-05-25,1,0.004121654105087882,0.004502332254220046,-0.006035378053167658,0.007482746148604788,0.9930994310146709
2016-05-27,1,0.0028693759472841287,0.0029617498486747395,-0.007426300835548905,0.006823612068132888,0.9907143600717111
2016-06-01,1,0.0026035262580015733,0.002607940123342695,-0.007426300835548905,0.007482746148604788,0.9894076397419377
2016-06-03,1,0.0018817337088808568,0.0020025350624242664,-0.007426300835548905,0.010134155350893558,0.9888336815224741
2016-06-07,1,0.002308328862645024,0.0023721693902934186,-0.009890532877886054,0.008793108608587074,0.9886476928227309
2016-06-09,1,0.002780338462094143,0.0027957811935106994,-0.009890532877886054,0.008793108608587074,0.9884738688036353
2016-06-13,1,0.0023391541274157737,0.002344000310480003,-0.006075882725772572,0.010213529915271686,0.9891662743357426
2016-06-15,1,0.0013352806921234303,0.0014776106941330276,-0.0041724235714709025,0.010213529915271686,0.9891895540345004
2016-06-17,1,0.00011585626937577018,0.00043501623628739057,-0.00487472241996846,0.010213529915271686,0.9891587450493007
2016-06-21,-1,-0.0008109300409196868,-0.00029718110252348654,-0.00487472241996846,0.010213529915271686,0.9890558976322473
2016-06-23,1,0.00034915717368111637,0.0006635843190950374,-0.00685810799483622,0.010213529915271686,0.988971329966953
2016-06-27,-1,-0.0024293638500121613,-0.0017714883398911492,-0.00487472241996846,0.010213529915271686,0.9902388024228165
2016-06-29,-1,-0.0021763227672576776,-0.0014643239987813753,-0.00487472241996846,0.010213529915271686,0.9909956838431145
2016-07-01,-1,-0.0009077191913088854,-0.0003582460652877342,-0.00487472241996846,0.007996462614601487,0.9923612612665897
2016-07-06,-1,-0.0021468426633448417,-0.001398227764130319,-0.0023897895397159293,0.007996462614601487,0.9923171229714756
2016-07-08,-1,-0.0011051917477088705,-0.0005252479784742447,-0.0023897895397159293,0.007389338162525405,0.9930393404791447
2016-07-12,-1,-0.000899251982904067,-0.0003221325501058963,-0.00487472241996846,0.007389338162525405,0.9929404559529573
2016-07-14,1,9.465573020046077e-06,0.000359708172103857,-0.0030228368524129086,0.007389338162525405,0.9933983171144658
2016-07-18,1,0.00014750684819993872,0.0004071921457129738,-0.001940470927493382,0.007389338162525405,0.9935768345368158
2016-07-20,1,0.0008339310606653373,0.0009850387493423713,-0.0031280726787085685,0.006808922630993735,0.9936509459294579
2016-07-22,1,0.000587324410690303,0.000754462468222489,-0.001940470927493382,0.007360675055845863,0.993730142895827
2016-07-26,1,0.0005552310669564044,0.0007180795609701221,-0.002478059468416474,0.006943822737242823,0.9940913491794517
2016-07-28,1,0.0015501417123725018,0.0015845850377798633,-0.002604492613715026,0.004292481520439716,0.9949499873304878
2016-08-01,1,0.0014919070508452436,0.0015654226896811376,-0.002604492613715026,0.006386751024061686,0.9946081202124315
2016-08-03,1,0.001557050236378021,0.001603765388442111,-0.002883643285542956,0.006386751024061686,0.9941474112234969
2016-08-05,1,0.0014697360137197748,0.0015485753264916319,-0.002883643285542956,0.006660601903178454,0.9930398772057945
2016-08-09,1,0.0009912331954722861,0.0011292747328272203,-0.002883643285542956,0.004062911148833908,0.9937892995164247
2016-08-11,1,0.0009713965867030069,0.0011022828656118253,-0.005170616190021333,0.0032397555122117357,0.9920350918105347
2016-08-15,1,0.0005600731393175112,0.0007365549279975223,-0.0066103550758027825,0.006660601903178454,0.9899294458063135
2016-08-17,1,0.00016988794535984972,0.0003678274134323729,-0.0041585586488025105,0.008975536998407602,0.9893646051520876
2016-08-19,1,0.0013779888447706622,0.0013803910639790433,-0.0066103550758027825,0.006621942397454374,0.9890768951523216
2016-08-23,1,0.00155497370910455,0.0016323802212765786,-0.008455779558742228,0.006621942397454374,0.9854706964012242
2016-08-25,1,0.0008530961984554077,0.0008850891804297088,-0.011811764453934597,0.006621942397454374,0.9843334159587692
2016-08-29,1,0.0012034768959548775,0.00121512724363767,-0.011811764453934597,0.0019026843379242012,0.9833364859392454
2016-08-31,1,0.0006355801090140061,0.0007252231756019341,-0.013501843757118564,0.009959175186519486,0.9826677514877676
2016-09-02,1,0.0018757080600899706,0.001995589567527848,-0.013501843757118564,0.008284680889577976,0.9831031507490776
2016-09-07,1,0.0016000932818574154,0.0016838994111248234,-0.01436142356875943,0.009948654026349315,0.9824240876954392
2016-09-09,1,0.0004043295975256945,0.00045997328450157645,-0.013501843757118564,0.010906855460232436,0.9837947690402993
2016-09-13,1,0.0002229569731317669,0.00030824898902700234,-0.013501843757118564,0.009948654026349315,0.9853950060498275
2016-09-15,1,0.0011680924156301812,0.0012045032376617627,-0.013501843757118564,0.007763697210242765,0.9857429093312234
2016-09-19,1,0.0005360026962000902,0.0005848830970957692,-0.012335850920130594,0.007763697210242765,0.9863206215196157
2016-09-21,-1,-0.0024065055934737204,-0.0019915538186487964,-0.010831646273214552,0.007763697210242765,0.9903250748671085
2016-09-23,-1,-0.003648419582645635,-0.0030771169000996896,-0.010650152758612284,0.007763697210242765,0.9912617379083905
2016-09-27,-1,-0.0031632021575329124,-0.002650658550979713,-0.011355415192955447,0.006895715804784248,0.9919733056865687
2016-09-29,-1,-0.0029435089604864257,-0.0024679219801654268,-0.008698136474177564,0.006895715804784248,0.9917653632829501
2016-10-03,-1,-0.0024452197377861744,-0.0020461500885901023,-0.008698136474177564,0.007763697210242765,0.9897494088084117
2016-10-05,-1,-0.0029097662519804255,-0.002440139656923089,-0.008698136474177564,0.006895715804784248,0.9898654201046071
2016-10-07,-1,-0.002362643872559341,-0.0019491169785898542,-0.008698136474177564,0.00542747926522333,0.9901247300550378
2016-10-11,-1,-0.002924611187765673,-0.002446624969942062,-0.004443182407738905,0.007605155294778218,0.9895655398422805
2016-10-13,-1,-0.003114897537542196,-0.002637576438320288,-0.0032917330743511167,0.007605155294778218,0.9897641524791672
2016-10-17,-1,-0.002884027221287609,-0.0024661556191041623,-0.00353879937106541,0.007605155294778218,0.9895701462992575
2016-10-19,-1,-0.0026695303289706093,-0.0022916196178357686,-0.00353879937106541,0.010472525414986713,0.9882964276751666
2016-10-21,-1,-0.00295792314874888,-0.0025592066427118625,-0.0006610586805096972,0.010472525414986713,0.9879490788462995
2016-10-25,-1,-0.003127491862139735,-0.0027116808323616338,-0.00025259681331137247,0.010472525414986713,0.9883474848566447
2016-10-27,-1,-0.002260007426191711,-0.0019670919299858425,0.00045166466141506167,0.010445977601876084,0.9893914570694798
2016-10-31,-1,-0.0003879793156529349,-0.0003371380452460061,-0.00025259681331137247,0.008134898952964955,0.9925149341131663
2016-11-02,-1,-0.0014143665996635252,-0.0012132627133650277,-0.0006610586805096972,0.008134898952964955,0.9917817372579788
2016-11-04,-1,-0.001258724142590346,-0.0010564643867162706,-0.0006610586805096972,0.008889675723157933,0.9914396774445265
2016-11-08,-1,-0.0006319529509158177,-0.00048191033878591637,-0.0006610586805096972,0.008889675723157933,0.991965129786656
2016-11-10,-1,-0.0005215828453184957,-0.00039828908612502,-0.0003340111487363396,0.009403715303521586,0.9915426641073116
2016-11-14,-1,-0.0004088074896499403,-0.00031888553461030755,0.00020711281405100322,0.009403715303521586,0.9916193983019349
2016-11-16,-1,-0.0006338896125651709,-0.00042083272433432895,0.00020711281405100322,0.008470147887780563,0.992550348916977
2016-11-18,1,0.00027593806449575464,0.0003225899035519935,0.00020711281405100322,0.008306245479752838,0.9927698697616286
2016-11-22,1,0.0008979436071067552,0.0009819714215104434,-0.0012751495425574455,0.008306245479752838,0.9925394485805744
2016-11-25,1,0.0012340345208803724,0.001344145883325514,-0.005254757668683364,0.007689798326529844,0.9929479131369723
2016-11-29,1,0.0015605626697030722,0.0017414338874872704,-0.0024059185584881498,0.00790054703236936,0.993156583719085
2016-12-01,1,0.0008220901775102764,0.0009337180248153926,-0.00032553650582570746,0.00790054703236936,0.994188045200739
2016-12-05,1,0.0013761464347916191,0.0015530923706740887,-0.0016155441734231287,0.0061377280254267105,0.9941244890270874
2016-12-07,1,0.0018681039202733739,0.0020878613982867715,-0.003547311906764944,0.0061377280254267105,0.9941872203708471
2016-12-09,1,0.002292889102265809,0.0025895119342990427,-0.003547311906764944,0.0061377280254267105,0.9942810960235064
2016-12-13,1,0.002233901181649995,0.0025085476684092167,-0.0054835752547604645,0.0061377280254267105,0.9932094501621704
2016-12-15,1,0.0024452141924380614,0.0027452195377827646,-0.007959106278856643,0.004783582629086172,0.9921788228355083
2016-12-19,1,0.0026058730372792906,0.0029694582112984964,-0.00766971790246165,0.004709732102278012,0.9921569308622338
2016-12-21,1,0.0026031059172159036,0.002985611851659354,-0.00766971790246165,0.003234008116133488,0.9917485024401108
2016-12-23,1,0.0023826208900998083,0.0027347637987372754,-0.0053871124626288,0.006478632228074849,0.9914360297052193
2016-12-28,1,0.0027291485473057066,0.003142471588176595,-0.007841415343325074,0.0036401383137364372,0.9910069208691811
2016-12-30,1,0.0026262625900705756,0.0030151116058279104,-0.007841415343325074,0.004700018664838192,0.9906979483793587
2017-01-04,1,0.0027803970055464418,0.0031894752307855844,-0.0042865366572269695,0.0025594687460472314,0.991414989124303
2017-01-06,1,0.0031464519305720827,0.003596808939110116,-0.007848832677667932,0.0025594687460472314,0.9907221326772102
2017-01-10,1,0.003218339070126232,0.00365092805829038,-0.007848832677667932,0.0015424589776253579,0.9908743669624875
2017-01-12,1,0.0028990475483531425,0.0033239895223231555,-0.0042865366572269695,0.0015424589776253579,0.9919575481274931
2017-01-17,1,0.0021487533788715593,0.002462960410151701,-0.002418962242873931,0.004452212308313567,0.993251102809821
2017-01-19,1,0.0018557208759130868,0.002122939820205485,-0.002418962242873931,0.004452212308313567,0.990881515525357
2017-01-23,1,0.0017465944769718884,0.0020360524613039143,-0.0011896373707510934,0.005910172646597907,0.9912388905635952
2017-01-25,1,0.002383655761000059,0.002738156295977701,-0.0018409297266300509,0.005910172646597907,0.9917798912659068
2017-01-27,1,0.00249752577050533,0.002917910739205636,-0.0018409297266300509,0.005910172646597907,0.9921181479268121
2017-01-31,1,0.0027046981337659464,0.0031381927704168294,-0.0018409297266300509,0.005910172646597907,0.9910438262942264
2017-02-02,1,0.0019759326056693776,0.002236050681640336,-0.005730519442024018,0.005910172646597907,0.9894891740432873
2017-02-06,1,0.0023735303197432115,0.002684028521483288,-0.004066410895903496,0.004698475631195075,0.9904632614423438
2017-02-08,1,0.0029457518331726757,0.003386384237872399,-0.0055430419241456926,0.005910172646597907,0.9896647132068701
2017-02-10,1,0.0026125008850729978,0.0029786878152647284,-0.0055430419241456926,0.006044064863629065,0.9897363602641986
2017-02-14,1,0.0017631555172233557,0.001842761725461579,-0.0055430419241456926,0.006557107760568904,0.9891546761874749
2017-02-16,-1,-0.0014074723464400033,-0.001042915244924391,-0.0055430419241456926,0.006557107760568904,0.9915769519990782
2017-02-21,-1,-0.0005934002868729052,-0.0003412775211516965,-0.008636602842454197,0.006061475016307563,0.9909133988875743
2017-02-23,-1,-0.0005304513793292418,-0.00028626660880142255,-0.008636602842454197,0.004713015107560437,0.9910420164739485
2017-02-27,-1,-0.00046408243692456575,-0.0002426383629339176,-0.008636602842454197,0.006251466091406698,0.9904820960362706
2017-03-01,-1,-0.0004408284591779563,-0.0002043748759853446,-0.00515058204773991,0.005004123861239685,0.992023088827169
2017-03-03,-1,-0.0014323028689297713,-0.001115184300314729,-0.003935590937101568,0.005004123861239685,0.9932232499057194
2017-03-07,-1,-0.002215152178845733,-0.0017700160272499262,-0.004032336837890768,0.005004123861239685,0.9923961705779798
2017-03-09,-1,-0.0026736550185082436,-0.002140089940527772,-0.004032336837890768,0.00466360223887302,0.9928522631895826
2017-03-13,-1,-0.0026426974948474107,-0.0020958513166930946,-0.006930293912791124,0.0035510871846234577,0.9930410747866517
2017-03-15,-1,-0.0022837165230283015,-0.001776070619361855,-0.006930293912791124,0.0033361590754850835,0.9936655621951574
2017-03-17,-1,-0.0029943037964977994,-0.0023638643544334386,-0.00676525647954704,0.0033361590754850835,0.9936174508628339
2017-03-21,-1,-0.004757060851354331,-0.0038955770135470644,-0.0047772592317910905,0.00466360223887302,0.9934968663801967
2017-03-23,-1,-0.004711587441381861,-0.003890373111878859,-0.0047772592317910905,0.005311651153174101,0.992359962112402
2017-03-27,-1,-0.002820094442235659,-0.002314243836348505,-0.0047772592317910905,0.005560293026206799,0.9933180645145497
2017-03-29,-1,-0.003311759626738544,-0.0026915891446668777,-0.0047772592317910905,0.007523044047366084,0.9879775123365208
2017-03-31,-1,-0.0025893637096584387,-0.0021144287179199004,-0.00676525647954704,0.008740451811214377,0.987558542529283
2017-04-04,-1,-0.002437366441683648,-0.0020261333912388164,-0.003083959214818627,0.009914629443235247,0.9876474729012552
2017-04-06,-1,-0.002811609013546563,-0.0023534280554503868,-0.0001979585919423404,0.011788819335866278,0.9865187907733969
2017-04-10,-1,-0.003472749154796693,-0.0029296837988539203,-0.0001979585919423404,0.011788819335866278,0.9863404970317815
2017-04-12,-1,-0.002745602973597273,-0.0023406686995789336,-0.0008817620854512645,0.011788819335866278,0.9867518451127498
2017-04-17,-1,-0.0025096985565551634,-0.0021463544348048758,-0.0008817620854512645,0.012233586712985838,0.9867760535292517
2017-04-19,-1,-0.0017959871414794937,-0.0015241735470123093,-0.0025170015395404063,0.012233586712985838,0.9875854208674806
2017-04-21,-1,-0.0007851736792816633,-0.0006645512105591122,-0.003620173898185458,0.011628939589159355,0.9881463129192035
2017-04-25,-1,-0.0002771579436779253,-0.00022188927156409886,-0.003620173898185458,0.011628939589159355,0.9885761845094994
2017-04-27,1,0.002885120479933671,0.0031732668109403553,-0.003620173898185458,0.008015092265652661,0.9937460268534843
2017-05-01,1,0.0032792731307638525,0.003657830393932169,-0.0029998090591458696,0.007346384391550101,0.9945346175334839
2017-05-03,1,0.004003446409206748,0.00452185602952955,-0.0032811776013959276,0.007346384391550101,0.9937500020145169
2017-05-05,1,0.004797571590534996,0.005432948188873352,-0.0032811776013959276,0.003995502925429774,0.9937788186376784
2017-05-09,1,0.004357093195536978,0.00493517839566506,-0.0024466628082126436,0.003995502925429774,0.9946210030261907
2017-05-11,1,0.004174781767235681,0.0047433588358691305,-0.003070161407412639,0.003995502925429774,0.9943027669986471
2017-05-15,1,0.004237753404202524,0.0048031440468809345,-0.003070161407412639,0.003995502925429774,0.9933825625958502
2017-05-17,1,0.004199180712101471,0.004744843141296807,-0.006492914604423807,0.003312658070233891,0.9926908323798315
2017-05-19,1,0.0036862409481953264,0.00414526388549888,-0.004203057891688796,0.003995502925429774,0.9931146807162314
2017-05-23,1,0.003685025722701374,0.00415558456502552,-0.006492914604423807,0.005302461371499435,0.9928161590072632
2017-05-25,1,0.0039500639087523635,0.004452630018159003,-0.006492914604423807,0.003748310885590445,0.992482966397502
2017-05-30,1,0.004211967128704433,0.004754650769197309,-0.007054644986208815,0.002729986569154885,0.9916957708150396
2017-06-01,1,0.004814019527423456,0.005461797102845251,-0.007693696920390863,0.002729986569154885,0.9911622198139802
2017-06-05,1,0.005028597481517652,0.00572389926253073,-0.008904950851346332,0.0021099262596441723,0.9903111614780165
2017-06-07,1,0.004576202404468483,0.00516771727326378,-0.008904950851346332,0.0031707703458507958,0.9903548923601517
2017-06-09,1,0.003596690126669323,0.004012541047280695,-0.009250069214137763,0.004720161441238557,0.9897735414794894
2017-06-13,1,0.0032723474972557037,0.0036262144892865557,-0.007793920125917486,0.004619773286064463,0.9915054515429899
2017-06-15,1,0.0023797572978051275,0.0025775734311864014,-0.0067557286387469285,0.004619773286064463,0.992242591533285
2017-06-19,1,0.002917028266805675,0.0032325915336862583,-0.0067557286387469285,0.0032366105120232164,0.9925632911866669
2017-06-21,1,0.0024639613012825494,0.0026937852869604426,-0.005943045217697663,0.0027185049171207384,0.9930138642470039
2017-06-23,1,0.002457271705228618,0.002702683599018087,-0.005943045217697663,0.0032366105120232164,0.9926090108557915
2017-06-27,1,0.0020910186000107868,0.002280471844501665,-0.005943045217697663,0.004619773286064463,0.9920742582014592
2017-06-29,1,0.0018202465687185286,0.0019920384794480574,-0.005943045217697663,0.003262976999874291,0.9914435032755273
2017-07-03,1,0.0014208989240504552,0.0015458244888595617,-0.006839158037401618,0.003262976999874291,0.9910610375999908
2017-07-06,1,0.0014201842112375898,0.0015386358258363889,-0.006839158037401618,0.0021371647127751865,0.9914832878512708
2017-07-10,1,0.0014276109937737184,0.0015671891947071396,-0.006839158037401618,0.0021371647127751865,0.9927483298173901
2017-07-12,1,0.0002544178738566335,0.0003557305032349461,-0.006839158037401618,0.0016812185025295108,0.992840192367905
2017-07-14,1,0.00037327663508449744,0.00042603856280805114,-0.009655602094161001,0.0019186742899832366,0.9919791124361999
2017-07-18,1,0.0005325521191330831,0.0005856505371702129,-0.009655602094161001,0.002209679981469704,0.9917905121885465
2017-07-20,1,0.0002434349419161898,0.0003346130331353759,-0.009655602094161001,0.003065449158486426,0.9915327131978425
2017-07-24,1,0.0004766163105220936,0.0005319175591558458,-0.009655602094161001,0.002209679981469704,0.9920495796970084
2017-07-26,-1,-0.0008747805681511944,-0.0006018034829175411,-0.009655602094161001,0.002209679981469704,0.9925101472256546
2017-07-28,-1,-0.0023844345986278968,-0.0019207929432397644,-0.00830391795892746,0.003065449158486426,0.9935855003551103
2017-08-01,-1,-0.003186343413388101,-0.002628016128837624,-0.005650098211220931,0.0039418289964197415,0.9935901331625185
2017-08-03,-1,-0.00322808261884796,-0.0026760335493224326,-0.005004294324551619,0.00673428844970182,0.9924637170361198
2017-08-07,-1,-0.0032325566842224696,-0.002698473387248672,-0.004024255337242478,0.005545727960537299,0.992863708241911
2017-08-09,-1,-0.00364513438235626,-0.003056486219936835,-0.0019322402041809473,0.00673428844970182,0.991436344765391
2017-08-11,-1,-0.004990769441562923,-0.004188296743616807,-0.0012071688519175055,0.007686469567326495,0.9902218425718846
2017-08-15,-1,-0.005014711460554858,-0.0041947066128676675,-0.0019322402041809473,0.007686469567326495,0.9906866663457321
2017-08-17,-1,-0.005694485665497892,-0.004843822736931061,-0.0012071688519175055,0.010657115900297515,0.9877431884513284
2017-08-21,-1,-0.004519997901758881,-0.0038047458640036247,-0.00126394267122424,0.010657115900297515,0.9874947969035893
2017-08-23,-1,-0.004923313809408724,-0.004156887267472462,-0.00126394267122424,0.010657115900297515,0.9879980027921943
2017-08-25,-1,-0.004763449590775251,-0.003999248144400774,-0.0004924231229824739,0.010361312674355722,0.9880353924408236
2017-08-29,-1,-0.005149922918352517,-0.004324724402630781,-0.00040379976621889594,0.010361312674355722,0.9876772694013338
2017-08-31,-1,-0.00472376263255673,-0.003921256357219341,-0.0005468094242397857,0.007877001513605968,0.9888453340954996
2017-09-05,-1,-0.00458967176830454,-0.003803130606556017,-0.0007185329373078694,0.007877001513605968,0.9885426051038899
2017-09-07,-1,-0.004005612442058657,-0.003284727748025791,-0.0011330846781967864,0.006439803977056152,0.989758221441416
2017-09-11,-1,-0.002964144441718215,-0.0023897617615925375,-0.002060482694555864,0.006151957489082052,0.9907506195615388
2017-09-13,-1,-0.0028986859862911957,-0.002355028650382851,-0.0026366155659330835,0.006151957489082052,0.9903989316486914
2017-09-15,-1,-0.0008817837844131201,-0.0005894870260190303,-0.0026366155659330835,0.005690132289882895,0.993166268893876
2017-09-19,1,0.0008724740396720821,0.000986091245299072,-0.0026366155659330835,0.005332140999552249,0.9933303880884875
2017-09-21,1,0.000726669849060683,0.0008313040671133088,-0.0026656856849370534,0.005332140999552249,0.9932014474273071
2017-09-25,1,0.001333843851020652,0.001543647454561661,-0.006030026913326957,0.005332140999552249,0.992235278104363
2017-09-27,1,0.001897806844187826,0.0022281576349839887,-0.006814095220280326,0.004821484548555235,0.9918745533828426
2017-09-29,1,0.0011208984168973742,0.0013035291900525743,-0.006814095220280326,0.004821484548555235,0.9874032588320725
2017-10-03,1,0.0007065332705292771,0.0008257584894224246,-0.006030026913326957,0.004821484548555235,0.9884519758333558
2017-10-05,1,0.0008096883297965445,0.0009504328395761037,-0.006814095220280326,0.004821484548555235,0.9879680883665586
2017-10-09,1,0.0007118475322126894,0.0008457129995128039,-0.006030026913326957,0.004821484548555235,0.9883612906966087
2017-10-11,1,0.0006141220513354222,0.0007264078490464485,-0.00535821675386537,0.004593775476778817,0.9886345973098569
2017-10-13,1,0.0008633611181007885,0.001008482017441968,-0.00535821675386537,0.0028025757078798974,0.9890879199581286
2017-10-17,1,0.0005555412953725918,0.0006744791657211471,-0.00535821675386537,0.002196456759674957,0.990252106554971
2017-10-19,1,0.0005338179699330675,0.0006625798771129471,-0.005690926927899492,0.0025477858272204864,0.9893288155959481
2017-10-23,1,0.0007612978822835903,0.0009383826921327951,-0.003857687616654957,0.002629076065012357,0.9907012972833524
2017-10-25,1,0.0006566724125497457,0.0008255293109413451,-0.003857687616654957,0.0028143557512752227,0.9903363465127437
2017-10-27,1,0.002689687495419106,0.0031313228430496086,-0.005690926927899492,0.002629076065012357,0.9941791575423528
2017-10-31,1,0.002541147539599581,0.0029437992462507056,-0.00796153619354564,0.0028143557512752227,0.9921988788202984
2017-11-02,1,0.002337210724213604,0.0027118693736192965,-0.007807600740556165,0.0028143557512752227,0.992597957432936
2017-11-06,1,0.002241376744863906,0.002583566274651426,-0.007807600740556165,0.002681983045817266,0.9931754204447507
2017-11-08,1,0.0024295130706328827,0.0028049590828785505,-0.007807600740556165,0.002681983045817266,0.9928617354657532
2017-11-10,1,0.0024394246589633144,0.0028095910314332355,-0.007807600740556165,0.002681983045817266,0.9923942940005818
2017-11-14,1,0.0022282982096585875,0.0025673327756257774,-0.006191720070796545,0.002681983045817266,0.9926960198800837
2017-11-16,1,0.001696715913353766,0.0019563987633037113,-0.005177947974410627,0.002681983045817266,0.9937101594872825
2017-11-20,1,0.0015961853233790574,0.001823476171424494,-0.005177947974410627,0.003177418396189958,0.9932315945370465
