JNU-Tangyin/eata/results/Batch4_SP500/Batch4_SP500-CUK.csv
Date,Action,Predicted_Q25,Predicted_Q75,Actual_Q25,Actual_Q75,RL_Reward
2010-12-14,0,0.0,0.0,-0.001710226568187183,0.01494780059667071,0.9891275813938603
2010-12-16,0,0.0,0.0,-0.001710226568187183,0.017566003761635543,0.9886766056946649
2010-12-20,0,0.0,0.0,-0.005142602524028575,0.01494780059667071,0.9883677252437001
2010-12-22,0,0.0,0.0,-0.006278337259139337,0.006871697480262503,0.9910613113519601
2010-12-27,1,0.0027252379087423792,0.0030759177525442527,-0.005877593672288777,0.006871697480262503,0.990971329403312
2010-12-29,0,0.0,0.0,-0.006917385025423884,0.013083003679598892,0.9895310700390889
2010-12-31,0,0.0,0.0,-0.010712789707941865,0.013083003679598892,0.9873293213564037
2011-01-04,0,0.0,0.0,-0.010712789707941865,0.009154462730634569,0.9878401477190332
2011-01-06,0,0.0,0.0,-0.010712789707941865,0.0055621838306077285,0.988233262009381
2011-01-10,1,0.0018586800989076142,0.0018982089581648211,-0.006917385025423884,0.01297103965628422,0.9879083360251453
2011-01-12,0,0.0,0.0,-0.006917385025423884,0.0088407615894951,0.9884653267250764
2011-01-14,0,0.0,0.0,-0.010102834780837866,0.007059043779783825,0.9889567479648045
2011-01-19,1,4.834668837950184e-05,0.0003112658404493245,-0.004845426936853617,0.007059043779783825,0.9903889403619633
2011-01-21,0,0.0,0.0,-0.004845426936853617,0.007059043779783825,0.990297472175056
2011-01-25,0,0.0,0.0,-0.009609176868051846,0.007059043779783825,0.9869919600043702
2011-01-27,-1,-0.00019392350793829386,-0.00018676016251379152,-0.005709746521539075,0.007059043779783825,0.9872746111482832
2011-01-31,-1,-0.0008903947249004907,-0.0005929674981400751,-0.005709746521539075,0.005993209285747885,0.986683425296716
2011-02-02,0,0.0,0.0,-0.005079533585055338,0.008346911304496744,0.9862004829898715
2011-02-04,0,0.0,0.0,-0.010464750313994606,0.008346911304496744,0.9848922717891507
2011-02-08,0,0.0,0.0,-0.010464750313994606,0.007936165733845028,0.9844739425909995
2011-02-10,1,0.0003550548272093053,0.00044733367439100876,-0.011345830012179852,0.0070125475748804384,0.9833610389358942
2011-02-14,0,0.0,0.0,-0.01560324336711163,0.0070125475748804384,0.9825199398507626
2011-02-16,0,0.0,0.0,-0.01944189023118214,0.011404926171894404,0.9812769717149095
2011-02-18,0,0.0,0.0,-0.01944189023118214,0.013188564946458802,0.9803037546702302
2011-02-23,0,0.0,0.0,-0.01944189023118214,0.013188564946458802,0.9818416097871775
2011-02-25,0,0.0,0.0,-0.01944189023118214,0.011404926171894404,0.9830255386901564
2011-03-01,0,0.0,0.0,-0.015124407869612975,0.011404926171894404,0.9853324718093902
2011-03-03,0,0.0,0.0,-0.015124407869612975,0.006652841450725741,0.9855807917348061
2011-03-07,-1,-0.002955514726005498,-0.0025932733225642033,-0.01210817496067068,0.011350055685571674,0.9866548395083619
2011-03-09,-1,-0.0020939957149261664,-0.0018268256087564136,-0.01210817496067068,0.00824070989865068,0.9874223625815429
2011-03-11,-1,-0.0028014950154898765,-0.0024642659315625443,-0.015124407869612975,0.00824070989865068,0.9867467257753612
2011-03-15,-1,-0.003752815475785447,-0.003286478028433751,-0.01210817496067068,0.010930473072129951,0.9861520312059938
2011-03-17,-1,-0.003968542872780096,-0.0034908605829352323,-0.01210817496067068,0.00824070989865068,0.9869802653590728
2011-03-21,-1,-0.001675660078473313,-0.0014832057499781965,-0.01210817496067068,0.007792677317943868,0.988121465005458
2011-03-23,-1,-0.002939869167944905,-0.002575091551280607,-0.01118647808635578,0.007792677317943868,0.9898416576031785
2011-03-25,-1,-0.003134046721834949,-0.0027482616226443086,-0.01210817496067068,0.007792677317943868,0.9892782207801532
2011-03-29,-1,-0.0031417584563406143,-0.0027764276945306116,-0.01118647808635578,0.009090639374533287,0.9881638789199793
2011-03-31,0,0.0,0.0,-0.00798694605107422,0.007792677317943868,0.9891818760185948
2011-04-04,0,0.0,0.0,-0.00798694605107422,0.007792677317943868,0.9892285840233238
2011-04-06,0,0.0,0.0,-0.00798694605107422,0.007321137774860802,0.9878830818391178
2011-04-08,0,0.0,0.0,-0.00668530130958044,0.007321137774860802,0.989208100986827
2011-04-12,0,0.0,0.0,-0.007033607209401882,0.007321137774860802,0.9892318507893977
2011-04-14,0,0.0,0.0,-0.007033607209401882,0.010231945558626648,0.988580399206735
2011-04-18,-1,-0.0030331861136732273,-0.0025398951553448883,-0.007033607209401882,0.008910476539660974,0.987693759985293
2011-04-20,-1,-0.002414121039735659,-0.00200357895997671,-0.007033607209401882,0.007877763923370614,0.9881007882191792
2011-04-25,0,0.0,0.0,-0.007305343949795914,0.007877763923370614,0.987125706684543
2011-04-27,-1,-0.0022987271546801953,-0.0020081600186135523,-0.008807170140636724,0.005512822728404724,0.9879825944337738
2011-04-29,-1,-0.00283902849204242,-0.0024634340573848742,-0.008807170140636724,0.006168737652036134,0.9879227597621973
2011-05-03,-1,-0.001957365999108742,-0.0017127908781765268,-0.013319556345946405,0.006168737652036134,0.9863046220942214
2011-05-05,1,0.000557506430285243,0.0006218384680712626,-0.01437662677666961,0.006168737652036134,0.9865104982992654
2011-05-09,-1,-0.001538107113907387,-0.0013206344487083532,-0.01437662677666961,0.008480427229707292,0.9870171265246445
2011-05-11,-1,-0.0008265026060722288,-0.0007113899588864035,-0.016758232932567143,0.008480427229707292,0.9862613097747038
2011-05-13,-1,-7.160039895828384e-05,-6.646835938198686e-05,-0.020659899333241045,0.006168737652036134,0.9862187248861388
2011-05-17,1,0.0004314503148405185,0.000586949669005079,-0.020659899333241045,0.008480427229707292,0.9854998344157782
2011-05-19,1,5.52192879070765e-06,8.016348543941687e-05,-0.020659899333241045,0.009771316612349442,0.9848130771910775
2011-05-23,-1,-0.000882860940885875,-0.0008375248700008175,-0.015677182243560912,0.009976212955049546,0.9841853124446067
2011-05-25,-1,-0.0009039772646853601,-0.0008662685128943174,-0.020115439186323324,0.010791387320734935,0.9828468496307151
2011-05-27,0,0.0,0.0,-0.020115439186323324,0.010791387320734935,0.9831045339650388
2011-06-01,0,0.0,0.0,-0.012920669133854283,0.009976212955049546,0.9848442287005871
2011-06-03,0,0.0,0.0,-0.008780448232067545,0.011002629999465042,0.984664500049355
2011-06-07,0,0.0,0.0,-0.012140792777037748,0.010502113706697349,0.9842542850769223
2011-06-09,-1,-0.0009793521854783189,-0.0008254096144499762,-0.012140792777037748,0.009288250973741467,0.9854645283547756
2011-06-13,-1,-0.0014895474053756253,-0.0014730699465233398,-0.016952548142241387,0.009288250973741467,0.9846737047190558
2011-06-15,-1,-0.001985858577201409,-0.0019326855905761435,-0.016952548142241387,0.008731620483824924,0.9857307157889125
2011-06-17,-1,-0.0015004218083621795,-0.0014754019421356244,-0.016952548142241387,0.00818528083343091,0.9859610654761019
2011-06-21,1,0.0002853171529732105,0.00048796981169002096,-0.016952548142241387,0.005503663475875674,0.987122627749753
2011-06-23,1,0.00039011626027118484,0.000560640938042873,-0.014706288500769509,0.008312921750397294,0.9877295627170644
2011-06-27,1,0.00013951905411428136,0.00031129761185482525,-0.014706288500769509,0.008312921750397294,0.9874870912827931
2011-06-29,1,0.00019268954694724066,0.0003799800134680001,-0.01728868899709329,0.005503663475875674,0.9855992466854168
2011-07-01,1,0.0018186682281969974,0.0022597520449379083,-0.01728868899709329,-0.000193041740994173,0.9850742316596468
2011-07-06,1,0.0010702905565912943,0.0014340524274851047,-0.018525859256573494,0.0011640782762123052,0.9847198991892258
2011-07-08,1,0.0007370279739317088,0.0010362861349056738,-0.01945216586583533,0.005243678092483813,0.9838091116575093
2011-07-12,-1,-0.00017075072176468074,-1.545733973365806e-05,-0.01945216586583533,0.007525625276233412,0.9800531658712782
2011-07-14,-1,-0.00022536082081657402,-0.00010028938988353663,-0.024669708221717126,0.010340747883494672,0.9748935580435959
2011-07-18,-1,-0.001127322955096218,-0.0010839994680355953,-0.024669708221717126,0.017106544493587828,0.9739400888200516
2011-07-20,-1,-0.0005142416179082575,-0.0004705562697991974,-0.024669708221717126,0.01452837481576511,0.974627608825479
2011-07-22,-1,-0.00039438455916402553,-0.0003926221701557542,-0.030856769144467392,0.007525625276233412,0.9723804679091874
2011-07-26,-1,-0.0002898019735360919,-0.0002488754761519101,-0.030856769144467392,0.010761676981593738,0.9712380481812477
2011-07-28,-1,-0.00150525069112525,-0.0013762422287344539,-0.029447017673528978,0.017360499899611928,0.9714206243235527
2011-08-01,0,0.0,0.0,-0.029447017673528978,0.023154231490613846,0.9685005885108098
2011-08-03,-1,-0.0029186653920841273,-0.0026567846848552065,-0.02692564589609316,0.023154231490613846,0.9693791923060807
2011-08-05,-1,-0.003965870716063125,-0.003550037349480643,-0.02719995652693888,0.023154231490613846,0.9687900545906922
2011-08-09,0,0.0,0.0,-0.026736156485716343,0.023154231490613846,0.9718236982856562
2011-08-11,-1,-0.004565812644590763,-0.004137389112354624,-0.026736156485716343,0.022185425370050152,0.9758449215601166
2011-08-15,-1,-0.002583826941182224,-0.002327368965428034,-0.026736156485716343,0.02188490486234332,0.9757013198397103
2011-08-17,-1,-0.0029990580470339104,-0.0026900435413405683,-0.026736156485716343,0.023154231490613846,0.9739277478223376
2011-08-19,-1,-0.004798350839094733,-0.004272275463978103,-0.01864356749346809,0.023154231490613846,0.9755381586323804
2011-08-23,-1,-0.0032832785535242444,-0.0029397750857376474,-0.026736156485716343,0.023154231490613846,0.9742486453858584
2011-08-25,-1,-0.003599301870175437,-0.0032313342259509903,-0.02743487728043323,0.0225029746775389,0.9739572724614125
2011-08-29,-1,-0.0007794851813567638,-0.0007717199700095583,-0.02743487728043323,0.02132312037394666,0.9768106347816061
2011-08-31,-1,-0.0016629737143445985,-0.0015040894010315805,-0.02743487728043323,0.02195066902782962,0.9751416298923747
2011-09-02,-1,-0.0023904037920839385,-0.0021797326647848793,-0.029163433103370127,0.02195066902782962,0.974256223973676
2011-09-07,-1,-0.0013500261324266947,-0.0012509690057454978,-0.029163433103370127,0.02195066902782962,0.976051685523096
2011-09-09,-1,-0.002645969662725544,-0.002406797848804787,-0.02705985846450101,0.023705604735884636,0.9753521040895222
2011-09-13,-1,-0.001189110734961204,-0.0011198465500949903,-0.02705985846450101,0.02676999600636689,0.9759017842190514
2011-09-15,0,0.0,0.0,-0.02705985846450101,0.024319215590680947,0.9768311312971749
2011-09-19,0,0.0,0.0,-0.02653598582483644,0.024319215590680947,0.9770680490865096
2011-09-21,0,0.0,0.0,-0.01867583261314735,0.024319215590680947,0.9781981680610553
2011-09-23,0,0.0,0.0,-0.005135459939668682,0.02676999600636689,0.9784688626535765
2011-09-27,0,0.0,0.0,-0.017859037040792093,0.027941543150140958,0.9775618860301616
2011-09-29,0,0.0,0.0,-0.005135459939668682,0.030251413532212692,0.9769695271832887
2011-10-03,0,0.0,0.0,-0.005135459939668682,0.030251413532212692,0.9783319720840896
2011-10-05,0,0.0,0.0,-0.017777395498869232,0.030251413532212692,0.975855441957162
2011-10-07,0,0.0,0.0,-0.017777395498869232,0.026038746330270708,0.9771769311060872
2011-10-11,1,0.0025093948210678845,0.003061021240546421,-0.017777395498869232,0.02403018205897627,0.9793928471274084
2011-10-13,1,0.002137083843763264,0.002628502012121096,-0.022998335113462838,0.020844013595902218,0.9774126509526816
2011-10-17,1,0.0019097317971773725,0.002396496504302065,-0.017777395498869232,0.02547257007848361,0.9770364958666493
2011-10-19,1,0.0025088696265955744,0.0029612535480793498,-0.022998335113462838,0.020844013595902218,0.977651152867306
2011-10-21,1,0.002823840458713191,0.003412604607861162,-0.023895672475456358,0.020844013595902218,0.9766592937155081
2011-10-25,1,0.0028186075382686825,0.0033661588884452216,-0.02451626521383772,0.015441493654018708,0.9770340109648813
2011-10-27,1,0.003877507799638445,0.004574514032983663,-0.027372282900307365,0.007568756814855354,0.97725422737134
2011-10-31,1,0.0023901800867737037,0.002867845581040344,-0.026035637430013907,0.015969713131960144,0.9776722886373275
2011-11-02,1,0.002386049801873056,0.002837385096204236,-0.01608617593626294,0.015969713131960144,0.9792324285574207
2011-11-04,1,0.002249948112869109,0.00263330295998674,-0.01608617593626294,0.01915963221659986,0.978757475716847
2011-11-08,1,0.0026553126074664434,0.0030892813864510545,-0.01608617593626294,0.01915963221659986,0.9787851356427851
2011-11-10,1,0.0027301966595541624,0.003237351284778312,-0.01608617593626294,0.01915963221659986,0.9799458760827284
2011-11-14,1,0.003211983517800619,0.0038020989182129808,-0.015716934184899965,0.015526133436239105,0.980847233796906
2011-11-16,1,0.0022252180847860993,0.002684975694297648,-0.015716934184899965,0.015526133436239105,0.98144421005008
2011-11-18,1,0.0030319967354930626,0.00360811886282306,-0.015277951719080543,0.012905297083095017,0.9826918057279181
2011-11-22,1,0.002634488603572749,0.003224289141547137,-0.007263924915204207,0.015526133436239105,0.9835483341057443
2011-11-25,1,0.0012026028570192322,0.0015636710030672634,-0.007263924915204207,0.01730818442090123,0.9839935230230173
2011-11-29,1,0.0022010839722809645,0.0026601846237434665,-0.011848625682317348,0.012905297083095017,0.9854990145437841
2011-12-01,1,0.002109285703056599,0.0024796572819470427,-0.011848625682317348,0.010541312552534574,0.9873933777207141
2011-12-05,1,0.002879441530156612,0.003323942453807149,-0.011848625682317348,0.007042557341011565,0.9875596388261675
2011-12-07,1,0.00254417051005534,0.002912800235956775,-0.01270750230979473,0.007042557341011565,0.987254563640447
2011-12-09,1,0.0021346717197525448,0.0024970601010647253,-0.010724117457985436,0.007476185933318296,0.9887186718383145
2011-12-13,1,0.0025211698784867766,0.0030007359023570875,-0.006973073389781119,0.013207547229033612,0.9875458525770217
2011-12-15,1,0.0018196111512529874,0.0022034219980601785,-0.01270750230979473,0.013207547229033612,0.9827714157358591
2011-12-19,1,0.0006365296203518103,0.0007296866099052316,-0.006973073389781119,0.01795018261269518,0.9808506615878311
2011-12-21,1,0.0008383324759479082,0.0009236320707916872,-0.01231156868975887,0.016073777633432276,0.9809811792448823
2011-12-23,1,0.000578246483511017,0.000600355387149444,-0.01231156868975887,0.012700352847938062,0.98136397014811
2011-12-28,-1,-0.0003695691857205319,-0.00025067988787831017,-0.01231156868975887,0.012700352847938062,0.9810941672413049
2011-12-30,-1,-0.00030356888048001354,-0.0001974845283584341,-0.01231156868975887,0.012700352847938062,0.9813760947389722
2012-01-04,0,-3.7386293368609446e-05,7.520036824042718e-05,-0.01231156868975887,0.011917293137714238,0.981703531500176
2012-01-06,-1,-0.0005498117191490796,-0.00038730008581253924,-0.010579893431434076,0.013432831653812023,0.9806542859649392
2012-01-10,-1,-0.0003424153422567769,-0.00018850548847207577,-0.010579893431434076,0.013432831653812023,0.981379138527034
2012-01-12,0,-0.00013693608353942727,8.653464562495626e-05,-0.015281442725748181,0.006625635000293475,0.9825697160201153
2012-01-17,1,0.0012794817386677256,0.0012873318379291701,-0.010579893431434076,0.006625635000293475,0.9872944412939827
2012-01-19,1,0.002247227184646384,0.0023441614612572685,-0.010579893431434076,0.005644991748229816,0.9891836513228911
2012-01-23,1,0.0025391613099118807,0.0027932274666183777,-0.009672489532319604,0.006625635000293475,0.9890671845455405
2012-01-25,1,0.0019817003430293557,0.0021413578799396875,-0.009672489532319604,0.005644991748229816,0.9891324277830208
2012-01-27,1,0.0005816748032683454,0.0006713670642312208,-0.005850443644971327,0.0037817711980352993,0.9901117757828334
2012-01-31,1,0.0009661647304643487,0.0009785669676689247,-0.005850443644971327,0.005450807180906039,0.9900625522958634
2012-02-02,1,0.0007850570156626021,0.0008879232194880923,-0.005850443644971327,0.004235403071660288,0.9898143708850835
2012-02-06,1,0.0017974871120205722,0.0018875650277745907,-0.01703708691081257,0.002501885060662488,0.9885635305966681
2012-02-08,1,0.0018643782378314803,0.0020016715663139736,-0.01703708691081257,0.007330582838723659,0.9865143126706966
2012-02-10,1,0.000804598418654096,0.0008457836626601251,-0.015256403087078041,0.012998150555102493,0.9864896865443626
2012-02-14,1,0.00047427969319894766,0.000540205632563353,-0.009155711496619203,0.015329828645608057,0.9855376593872062
2012-02-16,1,0.0003723363654151051,0.00047481751489856475,-0.007711748163224139,0.013661811032156503,0.9860799959254726
2012-02-21,0,0.0,0.0,-0.006173413305287903,0.012854171014417697,0.9865575690539052
2012-02-23,0,0.0,0.0,-0.0064539505365647535,0.012854171014417697,0.9870641620252061
2012-02-27,0,0.0,0.0,-0.0064539505365647535,0.014673875152566754,0.9865183694001517
2012-02-29,0,0.0,0.0,-0.007540437777943207,0.014673875152566754,0.9862918717834823
2012-03-02,0,0.0,0.0,-0.00812851220167014,0.012854171014417697,0.9869572200551872
2012-03-06,-1,-0.0006496847483919235,-0.00031832837920115777,-0.006286719191642785,0.012854171014417697,0.9891711852065649
2012-03-08,0,0.0,0.0,-0.007540437777943207,0.004827756157660602,0.9893760087998511
2012-03-12,0,0.0,0.0,-0.007540437777943207,0.004641153591725793,0.9893227238801494
2012-03-14,0,0.0,0.0,-0.007540437777943207,0.008412992991107242,0.9895813012781908
2012-03-16,1,0.0009014747211558326,0.0010889942024418626,-0.00812851220167014,0.006428366795113401,0.9894749476227308
2012-03-20,0,0.0,0.0,-0.007540437777943207,0.006428366795113401,0.9893850750974231
2012-03-22,0,0.0,0.0,-0.007626818166904234,0.009663457904829026,0.9882965399813419
2012-03-26,0,0.0,0.0,-0.007626818166904234,0.00902784785990973,0.9885152582057417
2012-03-28,0,0.0,0.0,-0.0070004952792537,0.012067830209040923,0.9879433987903674
2012-03-30,1,0.0012943296887423632,0.0014315621295694471,-0.0074676972764406565,0.014061341727858544,0.9868554474121073
2012-04-03,1,0.001314002192297445,0.001476542565330518,-0.0074676972764406565,0.014685017030306875,0.986263929686454
2012-04-05,0,-5.2586601953914124e-05,1.2335632626060325e-05,-0.01091519715393121,0.014685017030306875,0.9869078601900401
2012-04-10,-1,-0.0003051425505473937,-0.00022116726595296926,-0.006355580963508959,0.014685017030306875,0.9879655372374533
2012-04-12,1,0.00015645663362822047,0.00023569816339447143,-0.01091519715393121,0.012154511593100657,0.9885072935634325
2012-04-16,1,0.0003556420634238207,0.0003775198377139373,-0.007014316760139127,0.012154511593100657,0.988944979399805
2012-04-18,1,5.602357194465737e-05,0.00017533448667627087,-0.007405014518452822,0.011710925074943231,0.9891236282523113
2012-04-20,-1,-0.0008976714023261612,-0.0006079436279469969,-0.009764879000597127,0.010035070194382842,0.9892763883642225
2012-04-24,1,0.0001796352050210497,0.00026838745980197517,-0.009764879000597127,0.012990626325565465,0.9874722824576604
2012-04-26,1,0.0012540943419949374,0.0013383424445957857,-0.009764879000597127,0.010313775105204443,0.987883202317664
2012-04-30,1,0.001360305162481578,0.0015087620420432093,-0.007488357698795831,0.008865888149730505,0.9893828025477723
2012-05-02,1,0.0017255780741653052,0.0019142994512503677,-0.009764879000597127,0.008006258903931841,0.9890053406137246
2012-05-04,1,0.0006286207217129979,0.0006456409044055241,-0.007488357698795831,0.008006258903931841,0.9888903800232485
2012-05-08,1,0.00014300313963586605,0.00021377436284138448,-0.007488357698795831,0.008865888149730505,0.987861163250074
2012-05-10,-1,-0.0007152101657904409,-0.0005139332534542791,-0.005951390630469148,0.011503678264018128,0.9875203805332428
2012-05-14,-1,-0.0006211675221298536,-0.00041442598595495153,-0.007488357698795831,0.014192348074641401,0.9855760487036194
2012-05-16,-1,-0.00030459536664477087,-0.0001700898517818916,-0.007501434131277211,0.019249662891232547,0.9850612036485404
2012-05-18,-1,-0.0012952330664184012,-0.0010442756690581376,-0.0030612464154280844,0.019249662891232547,0.985725282102383
2012-05-22,-1,-0.0009128994288244198,-0.0006696355729965654,-0.0030612464154280844,0.014600925050396002,0.986903914958128
2012-05-24,-1,-0.0010239770165069533,-0.0007647530735553616,-0.00930331582596528,0.014600925050396002,0.9851295398688734
2012-05-29,-1,-0.00029792791011655414,-0.00014526376160808147,-0.01324186051533469,0.014600925050396002,0.9847611997663018
2012-05-31,-1,-0.0010965082335481209,-0.0008188746304041576,-0.008843704654674617,0.014600925050396002,0.9855777317022667
2012-06-04,-1,-0.0017418496875168442,-0.001409755871361414,-0.007239848298425288,0.017262038191301683,0.9856149050982911
2012-06-06,1,4.5271195041597586e-05,9.325608145676186e-05,-0.008010814740145015,0.014600925050396002,0.9868194640814362
2012-06-08,1,0.0010288956855564366,0.0011227105312896155,-0.00905083238261747,0.012552968834073572,0.9874408597158739
2012-06-12,1,0.0021073092242215987,0.0024173340090143922,-0.008010814740145015,0.009046627694385983,0.989032704368304
2012-06-14,1,0.00202914228460726,0.002289102789512065,-0.00905083238261747,0.007972196184856938,0.9894113746516894
2012-06-18,1,0.0019310596982426496,0.002157428436496232,-0.00905083238261747,0.006077431644097635,0.9900053645499745
2012-06-20,1,0.002321112701506831,0.002572041633494189,-0.00905083238261747,0.004203247052092654,0.9903712334643612
2012-06-22,1,0.0012318868211925456,0.0013290259157301668,-0.00905083238261747,0.004203247052092654,0.9914990490443627
2012-06-26,1,0.0015310778026044938,0.0017109394397295794,-0.00905083238261747,0.004203247052092654,0.9910649233963685
2012-06-28,1,0.0014562021719033537,0.0016474436676890106,-0.00905083238261747,0.0076903092646822355,0.9899471271424067
2012-07-02,1,0.0018058347163756954,0.0020341241617760006,-0.009399705898755821,0.005990528458450866,0.9898448136162568
2012-07-05,1,0.0010087792495101292,0.0010919642362167059,-0.010552027262253353,0.0076903092646822355,0.9893361448031058
2012-07-09,1,0.00022974431925389474,0.0002722536458838175,-0.010552027262253353,0.008947459475172425,0.9887127707206086
2012-07-11,1,8.480454676586935e-05,0.00012917243651043635,-0.010552027262253353,0.008947459475172425,0.988383759721045
2012-07-13,-1,-0.00043746540611842865,-0.0003188237475385177,-0.009911855878923577,0.008686749918232118,0.9891350619652692
2012-07-17,-1,-0.00048637982953017914,-0.00033894993261486745,-0.009911855878923577,0.008686749918232118,0.98933894978033
2012-07-19,-1,-0.00017682931219700255,-5.8025294959761816e-05,-0.009911855878923577,0.007589346534835156,0.9899874692847775
2012-07-23,-1,-0.001024587922662159,-0.0008045391211573949,-0.002041516807038624,0.007589346534835156,0.9914147874098969
2012-07-25,-1,-0.00039651085829570516,-0.00030595925425927446,-0.002041516807038624,0.006926776030735087,0.991579412473791
2012-07-27,-1,-0.00014845049243717237,-4.958496267409038e-05,-0.004650663528987249,0.0035114919365493488,0.9924316842715344
2012-07-31,-1,-0.0004363829894085421,-0.00036547694767426165,-0.0027551217120609507,0.006926776030735087,0.9912859503396826
2012-08-02,-1,-0.00048485008219199024,-0.00039519733470731635,-0.0027551217120609507,0.0049702293849859585,0.9922262171799823
2012-08-06,1,0.0002914610135891522,0.00034320803023096813,-0.0036281607119109977,0.0035114919365493488,0.9929337326179597
2012-08-08,1,0.0004940979208363987,0.0005552863491874521,-0.0027551217120609507,0.0035114919365493488,0.9922167408624222
2012-08-10,1,0.0005695767206365669,0.0006883034196566334,-0.0036281607119109977,0.004090575930758321,0.990597498259408
2012-08-14,1,0.00019430180451651978,0.0002374725779803238,-0.00346361894598381,0.006973967325948992,0.9904341191815483
2012-08-16,1,0.00040568888435754577,0.0004977141180276444,-0.00346361894598381,0.010493117190261317,0.9895299711698436
2012-08-20,1,0.0002759036810100615,0.0003203154001432469,-0.004869484880398484,0.010493117190261317,0.9892634514026579
2012-08-22,1,0.00039501786656987153,0.00041511770503669147,-0.0031713119281054462,0.010493117190261317,0.990125911908562
2012-08-24,-1,-0.0007789021981210659,-0.0006768162939383901,-0.0041842620628447106,0.010493117190261317,0.99039450916205
2012-08-28,1,0.0005920311012806328,0.0006025598016306528,-0.0041842620628447106,0.005806241456444417,0.9919001913297862
2012-08-30,-1,-0.0008614952524771499,-0.0006595031886964301,-0.0041842620628447106,0.005806241456444417,0.9919226890982237
2012-09-04,1,3.63039831631311e-06,5.838595315692686e-05,-0.0041842620628447106,0.005806241456444417,0.9921752281572616
2012-09-06,1,0.0008805643717636985,0.0009237280571506347,-0.0041842620628447106,0.009243504281546577,0.9919599996249575
2012-09-10,1,0.0012421142634493685,0.0013583517687512086,-0.003041145159285421,0.006700260584706873,0.9934032675135354
2012-09-12,1,0.001317192710830863,0.0014363494573725057,-0.004822925517525787,0.0054485199176942615,0.993008284746628
2012-09-14,0,0.0,0.0,-0.004822925517525787,0.0054485199176942615,0.9940384604651016
2012-09-18,0,0.0,0.0,-0.00443242521106571,0.008612092029685521,0.9929039001901929
2012-09-20,1,0.0035171696316418305,0.0037440355386361567,-0.00443242521106571,0.013687670703532509,0.9918036155189339
2012-09-24,1,0.0033498735340785906,0.00356845688421731,-0.003361436540110109,0.013687670703532509,0.9914360267732611
2012-09-26,1,0.003226961497135742,0.0033938611391094962,-0.005739758397499405,0.009759564996395114,0.9908378318776201
2012-09-28,0,0.0,0.0,-0.005739758397499405,0.014104058447443692,0.9891152628918674
2012-10-02,0,0.0,0.0,-0.004227064011311734,0.015405702530281316,0.9882986298431542
2012-10-04,0,0.0,0.0,-0.00578845406565748,0.009759564996395114,0.9896823647806757
2012-10-08,0,0.0,0.0,-0.006550094571192612,0.0109398290097648,0.9891603272275485
2012-10-10,0,0.0,0.0,-0.006107234947787659,0.014461901920511736,0.9886267954226189
2012-10-12,0,0.0,0.0,-0.007855298002545323,0.014461901920511736,0.9880251338019804
2012-10-16,0,0.0,0.0,-0.011805238011205931,0.008809688584920993,0.988026863469513
2012-10-18,0,0.0,0.0,-0.011805238011205931,0.008809688584920993,0.9876697143238867
2012-10-22,1,0.0015157034920321188,0.001689059501819019,-0.010036320275608907,0.005031876945250728,0.988486947873544
2012-10-24,1,0.0004387543964317953,0.00045172672367707037,-0.009613623600211226,0.011825537815376522,0.9883537107596273
2012-10-26,1,0.0009266250397548187,0.0010270498698104684,-0.008554571543453996,0.010751429513396686,0.9895236676731994
2012-11-01,1,0.0018038337350925813,0.0020284608903713974,-0.008554571543453996,0.005031876945250728,0.9903710800246089
2012-11-05,1,0.0017010379479190198,0.0019295825975215169,-0.009613623600211226,0.005031876945250728,0.9895390237393251
2012-11-07,1,0.001774630180344363,0.0020316362905748965,-0.010597705081935374,0.004589909893934549,0.9893445910583336
2012-11-09,1,0.0020120677793719556,0.0023042153125236156,-0.010597705081935374,0.003936003198045582,0.9900531878059671
2012-11-13,1,0.0016432819331490055,0.0019201058845329045,-0.008554571543453996,0.004633518692436904,0.991252576710015
2012-11-15,1,0.0001621398791679933,0.00019310667624158174,-0.004292179269522302,0.004633518692436904,0.9922243139112118
2012-11-19,1,0.001322516802868457,0.0014492479225594354,-0.004292179269522302,0.006260364305359061,0.9921124356431615
2012-11-21,1,0.001064947499075091,0.001159319582092701,-0.006594349322773818,0.006260364305359061,0.9892106283686004
2012-11-26,1,0.001063361084637081,0.0011793165854995335,-0.005908149700648361,0.006260364305359061,0.989744539518207
2012-11-28,1,0.001143770625048367,0.0012489166531067597,-0.005908149700648361,0.004633518692436904,0.9899990574950063
2012-11-30,1,0.000646634447131077,0.0006636617639957192,-0.007553607922896104,0.006260364305359061,0.9883089164063873
2012-12-04,1,0.00012657021972210623,0.0001650714911511694,-0.007553607922896104,0.009456875046596591,0.9879811845354225
2012-12-06,1,0.0002753489593696589,0.0003004746377272925,-0.005908149700648361,0.007495154958929686,0.9887540419322909
2012-12-10,1,0.00021732052858200538,0.00024043272754550507,-0.005908149700648361,0.011062362432355439,0.9884888713644217
2012-12-12,1,4.801978332995071e-05,8.851288678527776e-05,-0.0059250010533216406,0.011062362432355439,0.9882223460167437
2012-12-14,0,-5.114015666611368e-05,1.2315290009652841e-05,-0.005863985738785427,0.011062362432355439,0.987838639874273
2012-12-18,1,0.000518608606113084,0.000522542517206429,-0.005863985738785427,0.009474937750896181,0.9888849728565691
2012-12-20,-1,-0.0006551973837277228,-0.0005503789376123311,-0.005522880452246775,0.010499540184199626,0.9908621361892838
2012-12-24,-1,-0.0005139487634025213,-0.0003828697052174772,-0.004480098706298033,0.009474937750896181,0.9912250972379334
2012-12-27,-1,-0.0008282556131952684,-0.0006539696552058342,-0.0043377012050590524,0.009474937750896181,0.9914169436938699
2012-12-31,-1,-0.0001532846308406459,-8.69955914285402e-05,-0.0043377012050590524,0.00885339613547484,0.9926640723844715
2013-01-03,-1,-0.0006097846043282358,-0.0004820342015463871,-0.0043377012050590524,0.007943970306500452,0.9930913025066628
2013-01-07,-1,-0.0003872322262646673,-0.00029999520749124636,-0.0043377012050590524,0.007943970306500452,0.9928935164346614
2013-01-09,-1,-0.0004989935877069687,-0.0003827147683436205,-0.0043377012050590524,0.007874290216102824,0.9926596901606579
2013-01-11,-1,-0.00036032164226035057,-0.00027400223028308993,-0.0043377012050590524,0.007874290216102824,0.992573987561818
2013-01-15,-1,-4.5538810907234424e-05,-8.707198662106239e-07,-0.005577092448983377,0.007660017969937312,0.991000181233373
2013-01-17,-1,-0.0001589573255065797,-6.356372990799173e-05,-0.008590638393174513,0.007455517228320993,0.9910689170611543
2013-01-22,-1,-0.0005858298919793744,-0.00042953926868056157,-0.009992815168559996,0.006230101324848287,0.9902417284740839
2013-01-24,1,0.00038688616130004095,0.0003872913044784453,-0.010054297021011935,0.004035079660994823,0.989960129247967
2013-01-28,0,-5.117223733718074e-05,1.6796517690282887e-05,-0.01038920770802566,0.004487737777208718,0.9891125184443046
2013-01-30,-1,-0.00026598038914512343,-0.00016484137799292628,-0.01038920770802566,0.007660017969937312,0.9881402269699634
2013-02-01,1,0.0001222196642333933,0.00014333599719560031,-0.010054297021011935,0.007857300994514267,0.9885449140234992
2013-02-05,-1,-0.00035087289807434266,-0.0002648525008271752,-0.009992815168559996,0.007857300994514267,0.9890363914118006
2013-02-07,1,0.00020434091510445433,0.00021153516026228394,-0.010054297021011935,0.003947029910531009,0.9891635171247871
2013-02-11,1,0.00014132840381978553,0.00014831525338973635,-0.010030013622380788,0.0031236443170485446,0.989259421725156
2013-02-13,-1,-0.0010456258901410365,-0.0009097785674556417,-0.009090368577249888,0.002392183905327819,0.9917591720199757
2013-02-15,-1,-0.0008437018171570418,-0.0007323500438649166,-0.010391230717678744,0.002392183905327819,0.9898058434521405
2013-02-20,-1,-0.0016721713670760708,-0.0014659234888462632,-0.010391230717678744,0.0047724499105124465,0.990039347962859
2013-02-22,-1,-0.001233795826861451,-0.0010537092079467886,-0.007185689707552425,0.007372542117778655,0.9897977987137143
2013-02-26,-1,-0.0014457609535799421,-0.0012410505250839766,-0.007185689707552425,0.0047724499105124465,0.9905174776478185
2013-02-28,-1,-0.001203845683523027,-0.00102734618738503,-0.007185689707552425,0.00253684731799327,0.9909791588316254
2013-03-04,-1,-0.0004391929243737811,-0.00039487186297266954,-0.009189861263424984,0.00253684731799327,0.9907198251250365
2013-03-06,0,0.0,0.0,-0.014756510835379315,0.00253684731799327,0.9892556035743001
2013-03-08,0,0.0,0.0,-0.014756510835379315,0.0042544823046532015,0.9889706150518828
2013-03-12,0,0.0,0.0,-0.014756510835379315,0.006057696054896814,0.9888828627008884
2013-03-14,0,0.0,0.0,-0.014756510835379315,0.006057696054896814,0.9890391456004257
2013-03-18,0,0.0,0.0,-0.010076360104324271,0.009547947150616938,0.9901065650749677
2013-03-20,0,0.0,0.0,-0.005381256831311113,0.008227270264230077,0.9909631001774516
2013-03-22,0,0.0,0.0,-0.007085116917398865,0.00561815212534873,0.991250081071869
2013-03-26,0,0.0,0.0,-0.006556959436461474,0.008229315361972685,0.991066111472444
2013-03-28,0,0.0,0.0,-0.006556959436461474,0.008229315361972685,0.9903298327301695
2013-04-02,0,0.0,0.0,-0.006556959436461474,0.008814751346371134,0.9900859298049975
2013-04-04,0,0.0,0.0,-0.003998188341844329,0.01046853401505048,0.9902892966762572
2013-04-08,0,0.0,0.0,-0.005500241067405773,0.01046853401505048,0.9899413544971994
2013-04-10,-1,-0.22309321500253532,-0.21286918963777937,-0.005500241067405773,0.012092839746977141,0.8187251020214487
2013-04-12,-1,-0.0019714083952736493,-0.001740868384173869,-0.006556959436461474,0.012092839746977141,0.9893868379553231
2013-04-16,0,0.0,0.0,-0.006556959436461474,0.009356186590346687,0.990059580602929
2013-04-18,0,0.0,0.0,-0.006556959436461474,0.009356186590346687,0.9904270319847641
2013-04-22,0,0.0,0.0,-0.005500241067405773,0.01222582128471143,0.990092696526749
2013-04-24,0,0.0,0.0,-0.009708935013463095,0.009356186590346687,0.9872525760869433
2013-04-26,-1,-4.659028480274287e-05,-1.2924170851108475e-05,-0.009708935013463095,0.007516983436996572,0.9890867263884648
2013-04-30,-1,-0.00013440557291429092,-0.00013314005373674023,-0.006278099662623673,0.005024391139110115,0.9898362217735193
2013-05-02,1,8.35256102378287e-05,0.00012568708239826183,-0.006278099662623673,0.005024391139110115,0.9901419145240052
2013-05-06,1,3.462259505046579e-05,7.029789304943624e-05,-0.010253084068062187,0.002623059723973059,0.990030994828981
2013-05-08,1,0.0003540859155227226,0.00042947738723010654,-0.010253084068062187,0.0011781501101399082,0.9904142132665209
2013-05-10,1,0.0001745422181820633,0.00022970357359971383,-0.010253084068062187,0.0032086225537517445,0.9905167620155537
2013-05-14,1,0.00046578879934412086,0.0005763930757495947,-0.008774047068159126,0.0032086225537517445,0.9900397556558477
2013-05-16,-1,-0.00026329605528035917,-0.00023868998100966686,-0.008774047068159126,0.006716686053894765,0.9883737598168756
2013-05-20,1,0.00031180324546420374,0.0003874944319605096,-0.008774047068159126,0.006716686053894765,0.988295326588475
2013-05-22,-1,-0.0010633202783420085,-0.0009597076935612215,-0.008774047068159126,0.006716686053894765,0.9909046208773816
2013-05-24,-1,-0.0007618541090161269,-0.0007032362264084626,-0.008774047068159126,0.006716686053894765,0.990709398171474
2013-05-29,-1,-0.0007566173806193572,-0.0006969835979018931,-0.008774047068159126,0.007458441064877531,0.9886692742283494
2013-05-31,-1,-0.000907074848768286,-0.0008327702021875465,-0.008774047068159126,0.006716686053894765,0.9890324778756754
2013-06-04,-1,-0.0010627687608679014,-0.0009796099714597408,-0.004123207912936721,0.008359777445673046,0.9893374789929393
2013-06-06,-1,-0.0007801189827535023,-0.0007329044369178613,-0.004123207912936721,0.008359777445673046,0.9891159959790937
2013-06-10,-1,-0.0006350422542983393,-0.0006213149225612936,-0.0034522694740247188,0.008359777445673046,0.9893828313017055
2013-06-12,-1,-0.0002541740056474993,-0.00020141502019219265,-0.0026086098178628265,0.008359777445673046,0.9895140289726009
2013-06-14,1,0.000304998875013249,0.0004313118856200177,-0.0026086098178628265,0.008043171594064969,0.9914983366150303
2013-06-18,1,0.0007370970990056184,0.0009426796765178533,-0.00254663102830104,0.008043171594064969,0.9917832841018939
2013-06-20,1,0.0002521746094026098,0.00039674890102816624,-0.0004147888377631206,0.008291197630868552,0.9922479276691152
2013-06-24,1,0.0002917646163552959,0.0004408564548894442,-6.70204761613125e-05,0.008291197630868552,0.9920257819946214
2013-06-26,1,0.0009873339873834367,0.0012296332101658044,0.0009057273458244856,0.00815047902717583,0.9944263777435339
2013-06-28,1,0.000721510185318924,0.0009148240089107931,0.0013295958842479048,0.008291197630868552,0.9943437590391064
2013-07-02,1,0.0011673722221536113,0.001438800472346026,0.0009057273458244856,0.008026976314697513,0.9950039684581827
2013-07-05,1,0.0013697729161134533,0.0016652081606746273,-0.0002576341294611856,0.008242611792766186,0.994512998629755
2013-07-09,0,0.0,0.0,-0.0009857784917956397,0.008242611792766186,0.9938203251820545
2013-07-11,0,0.0,0.0,-0.003291671119827348,0.005185656214625383,0.994518513242955
2013-07-15,0,0.0,0.0,-0.0047414566406494925,0.005185656214625383,0.9937895752177557
2013-07-17,0,0.0,0.0,-0.0047414566406494925,0.005185656214625383,0.9936834146690864
2013-07-19,1,0.0020532448201250842,0.0023090770272427086,-0.004966689878760935,0.003579970192906867,0.9937967836901769
2013-07-23,1,0.002436178353949741,0.0027787621576102774,-0.005654113278316842,0.003579970192906867,0.9931074853960551
2013-07-25,1,0.002583499532601654,0.0029563607086710714,-0.005654113278316842,0.004893124273653194,0.9921118207788888
2013-07-29,1,0.0026612219931220283,0.00304300010370413,-0.005231968345895988,0.004617803455460723,0.9926403784027429
2013-07-31,1,0.0023836435342635756,0.002712171481977026,-0.007417407460962179,0.004617803455460723,0.9907388664532021
2013-08-02,1,0.0025827397878120813,0.002919808242447615,-0.007417407460962179,0.0042579150554805795,0.9913307618949763
2013-08-06,1,0.002429106486975125,0.0027429060689037996,-0.01040941259787388,0.0042579150554805795,0.9905927698270421
2013-08-08,1,0.0016990434086444977,0.0018369696170411499,-0.008944111311339492,0.0042579150554805795,0.9913068976936746
2013-08-12,1,0.0012338837701698897,0.0012888671715109447,-0.0069289736987840495,0.0057550892679519355,0.9901337285081175
2013-08-14,1,0.0013706584134657034,0.0014710424216015502,-0.0069289736987840495,0.004617803455460723,0.9904612250026689
2013-08-16,1,0.000913886247232132,0.0009292544441528394,-0.005246075403510378,0.0057550892679519355,0.990546278809077
2013-08-20,1,0.0008164720708879644,0.0008346039247498212,-0.0035892732678487072,0.00501545726345518,0.9913903760703858
2013-08-22,1,0.0013476508940710706,0.0014251019286094693,-0.006096212158229375,0.00449931642763291,0.9916162488368645
2013-08-26,1,0.0009895385983538002,0.0009936094211454507,-0.008944111311339492,0.003818652758826203,0.987718089093671
2013-08-28,1,0.0002076737059645072,0.00022112271086288147,-0.006096212158229375,0.005230122293866814,0.9868793261031538
2013-08-30,1,0.00028554036523414266,0.0002930684589241445,-0.006242754181000676,0.005537354409875062,0.986728964642078
2013-09-04,-1,-0.00013488431590053893,-8.988353975362205e-05,-0.005727064735950187,0.005537354409875062,0.9869697228245066
2013-09-06,-1,-0.0003212675924773081,-0.00023709230604100994,-0.005727064735950187,0.005537354409875062,0.9869958433885926
2013-09-10,1,0.0007234505608460363,0.0007806597743514234,-0.00657342655495245,0.0025707357330058407,0.9881524781445448
2013-09-12,1,0.0005504461828706826,0.0005727685458534025,-0.0076662532333190815,0.004999380940963449,0.9875780174330123
2013-09-16,1,0.0007560989691954385,0.0008098170933832128,-0.0076662532333190815,0.004999380940963449,0.9872422259362799
2013-09-18,1,0.0012192196609454664,0.0013762487675452809,-0.0076662532333190815,0.0024664534483223497,0.9869801381273628
2013-09-20,1,0.0008161754087587404,0.0009156431606855358,-0.006557112050685509,0.005537354409875062,0.9868363972944842
2013-09-24,-1,-0.0011167460312947787,-0.0009790748726702814,-0.006051378321859669,0.006907775223612399,0.9896980824088469
2013-09-26,-1,-0.0021631144012137452,-0.0019197517332275162,-0.005807462243583512,0.009139698272666467,0.9915018267657907
2013-09-30,-1,-0.0015475683707794228,-0.0013827032072585878,-0.005807462243583512,0.009139698272666467,0.9915193038631154
2013-10-02,-1,-0.0021182248971465057,-0.0018781256471477649,-0.004351076989856098,0.009139698272666467,0.9915791608368003
2013-10-04,-1,-0.0022307840839189456,-0.0019725408939422757,-0.004219614811433402,0.009139698272666467,0.991224315228876
2013-10-08,-1,-0.0026896734581305314,-0.0023762928539553772,-0.0020411530816099627,0.009139698272666467,0.9907410515250568
2013-10-10,-1,-0.0025563816241599615,-0.0022775835330366835,-0.0020411530816099627,0.01050780481315194,0.9897447451968581
2013-10-14,-1,-0.003915916353701606,-0.003366721802260159,-0.0036568705160781485,0.012376989992254091,0.9883157823423803
2013-10-16,-1,-0.004114060053384825,-0.003537579409775769,-0.0036568705160781485,0.012376989992254091,0.9876050510008039
2013-10-18,-1,-0.0031887552013674355,-0.002724376497049008,-0.004068293485152885,0.0086604198977381,0.989097863435525
2013-10-22,-1,-0.0022337379483648627,-0.0018777148817095731,-0.0054514376109702015,0.0074673134163586,0.9905023382405745
2013-10-24,-1,-0.0022243100672379966,-0.0018284178753334528,-0.0054514376109702015,0.007105092507921759,0.9913196508402192
2013-10-28,-1,-0.0019288990511977,-0.001575834835183975,-0.0054514376109702015,0.0074673134163586,0.9910775288439667
2013-10-30,-1,-0.00210300901022589,-0.001731834712123754,-0.006722171681428954,0.0074673134163586,0.9903930007491212
2013-11-01,-1,-0.0018950017560185465,-0.0015613088308326557,-0.007183597814047755,0.0074673134163586,0.9907060881826927
2013-11-05,-1,-0.000810446415336919,-0.0006532555305457947,-0.010332428972983459,0.005827828791710657,0.9910650162550186
2013-11-07,-1,-0.0006137893501208408,-0.000491913030378414,-0.010332428972983459,0.00549786352325561,0.9916330738889574
2013-11-11,-1,-0.0007536759156314067,-0.0005739420622501447,-0.006801434383214171,0.00549786352325561,0.9930096207796886
2013-11-13,-1,-0.0011832421386581322,-0.0009422661356584186,-0.006801434383214171,0.004874461736850018,0.9935191782187311
2013-11-15,-1,-0.000403138346727274,-0.00031282920860825495,-0.006801434383214171,0.005573763834430995,0.9929069842242949
2013-11-19,-1,-0.00108053404720129,-0.0008872024797177266,-0.004942669687749358,0.006454373638211107,0.9926640262520653
2013-11-21,-1,-0.0008386271651916078,-0.0006956297040443813,-0.003917272825813525,0.009542801083377806,0.989229750113054
2013-11-25,-1,-0.0001807810168358223,-0.0001333388155612737,-0.003917272825813525,0.010121409736315444,0.9889112957912115
2013-11-27,-1,-0.000361165910920587,-0.0003011919812429514,-0.0016472511794528352,0.012069467994667012,0.9890458860503635
2013-12-02,-1,-6.83154856410224e-05,-4.914666738547129e-05,0.0007726330269032216,0.012069467994667012,0.9889478966178576
2013-12-04,-1,-0.0004106009600682346,-0.00038942006587943935,0.0027797840655327186,0.012069467994667012,0.9883119480107605
2013-12-06,-1,-0.0007092188088036395,-0.0006626153991582765,0.0027797840655327186,0.012069467994667012,0.9884452013309616
2013-12-10,-1,-0.0001050733988486197,-4.597604435789456e-05,0.0024985896104889136,0.012069467994667012,0.9888713297171411
2013-12-12,-1,-0.00025650944357443286,-0.0002072786304858648,0.003805364782244424,0.01270267717377714,0.9873478251603841
2013-12-16,1,0.00047749123824742876,0.000633283337929185,0.0024985896104889136,0.012069467994667012,0.988453513880089
2013-12-18,1,0.001001956412282132,0.0012363228601703522,-0.001468427564686455,0.00944835516376408,0.9890626528942141
2013-12-20,1,0.0029898035994620573,0.003478631581979698,-0.0020592034817062377,0.008299335241654018,0.9927863883623825
2013-12-24,1,0.003917984483562351,0.004563240513706492,-0.0040699775248060534,0.007941134388714955,0.9910299050486339
2013-12-27,1,0.004094046736328074,0.004749784178919884,-0.0040699775248060534,0.007941134388714955,0.9899536316017183
2013-12-31,1,0.0038932623594615154,0.004493619636202585,-0.007393720512224395,0.008299335241654018,0.9883435584847001
2014-01-03,1,0.00317388079257512,0.0036502640333922792,-0.01125631047379862,0.008299335241654018,0.9874832650281564
2014-01-07,1,0.003266788229058611,0.0037741831960756205,-0.008173398737353265,0.008219575661922782,0.9876879309769312
2014-01-09,1,0.0033664482281500923,0.0038746097680269435,-0.008173398737353265,0.008219575661922782,0.9864682264469564
2014-01-13,1,0.003804940020895569,0.004354613767799581,-0.008173398737353265,0.007918325860738743,0.9881770067122533
2014-01-15,1,0.004200867000605982,0.004838725894281025,-0.008173398737353265,0.006764039133925861,0.9878769483287809
2014-01-17,1,0.004159570708960338,0.004804147051879416,-0.013990224499795423,0.007918325860738743,0.9873291997365575
2014-01-22,1,0.003629512267248792,0.0041349513824346295,-0.015095326392499026,0.006856852891661804,0.9867618699091407
2014-01-24,1,0.002410960407578636,0.0027512032617690654,-0.008173398737353265,0.007735203850953702,0.9893434784609109
2014-01-28,1,0.0030224523348096975,0.0034118738971544707,-0.008173398737353265,0.007735203850953702,0.9902646196342704
2014-01-30,1,0.0026179840944903455,0.0029504226201996133,-0.008173398737353265,0.007731248721419599,0.9906501876759668
2014-02-03,1,0.0022671059136005075,0.0026155579425963587,-0.0041109185856862225,0.008184901745344262,0.9893817974832854
2014-02-05,1,0.002198738942687015,0.0025325215857075383,-0.005397954006477771,0.007731248721419599,0.9891482040177526
2014-02-07,1,0.0029830757806665557,0.00343149533419414,-0.012014264646950549,0.0060110997628896575,0.9896925926750394
2014-02-11,1,0.003155790420622258,0.0036346645122491985,-0.012014264646950549,0.007003822382076786,0.9892642855353042
2014-02-13,1,0.002795617215349403,0.0031977354077004417,-0.013784809514162152,0.007003822382076786,0.9885300659718504
2014-02-18,1,0.0014370230862985273,0.0015691204980244182,-0.012014264646950549,0.007731248721419599,0.9884927281355084
2014-02-20,1,0.0004966738174730024,0.0005572164164071685,-0.00957655099668871,0.008688042291893773,0.9881527858019652
2014-02-24,1,0.0006073887195309567,0.0006624074943398978,-0.00957655099668871,0.008688042291893773,0.9884543060988584
2014-02-26,1,0.0004429486267038427,0.0005332605825550669,-0.012014264646950549,0.007153721680206972,0.9865167434554059
2014-02-28,0,-4.932578678900387e-05,0.00010908430958157225,-0.011273746291191183,0.0058185907491521156,0.9873860308039629
2014-03-04,-1,-0.0006414041617985839,-0.0003903944422458535,-0.009483260124420741,0.007660817356290588,0.989565487932811
2014-03-06,-1,-0.0011041899067923743,-0.000797972848807662,-0.006862545665103589,0.010224809586304739,0.989180654163232
2014-03-10,-1,-0.0012861111643509835,-0.0009654478035166211,-0.006862545665103589,0.010224809586304739,0.9894125017234972
2014-03-12,-1,-0.0014053871658627453,-0.0010618303116962608,-0.006862545665103589,0.010224809586304739,0.9894297088415139
2014-03-14,-1,-0.0015861380553032923,-0.001245762286169357,-0.009483260124420741,0.010224809586304739,0.9890343613125172
2014-03-18,-1,-0.000536232311734638,-0.0003544244154378162,-0.01157249087855847,0.0030209895693421225,0.9894160863833343
2014-03-20,-1,-0.0002610681567934921,-0.0001260023865704568,-0.01157249087855847,0.0064358006551506215,0.9891209299270719
2014-03-24,-1,-0.0003008644017081476,-0.00016610919937879348,-0.01157249087855847,0.009521424664827135,0.9886900370544845
2014-03-26,-1,-0.0016455883814433475,-0.0013452564014103414,-0.0074282774299377465,0.010491793787859504,0.9901282779983624
2014-03-28,-1,-0.0019430094955694727,-0.001610551277654409,-0.003984790714418908,0.010491793787859504,0.9899837396180113
2014-04-01,-1,-0.0012559267738951091,-0.00101884913642991,-0.003984790714418908,0.009741968067901544,0.9903602448879059
2014-04-03,-1,-0.0010419526154029166,-0.000831321115239923,-0.0055098195456947455,0.009741968067901544,0.9902787049499915
2014-04-07,-1,-0.0011325328897117907,-0.0009271503141209988,-0.002003656149055337,0.011409229459187608,0.9901120021436297
2014-04-09,-1,-0.0010864385141497036,-0.0008785655157166049,-0.003670419802093011,0.011409229459187608,0.9901787322140474
2014-04-11,-1,-0.0019331146727363231,-0.0016280741344784585,-0.0011683520878367148,0.012224247902713585,0.9908586301851429
2014-04-15,-1,-0.0026133234935538214,-0.0022157755571610635,-0.0011683520878367148,0.012224247902713585,0.9904837486755723
2014-04-17,-1,-0.0020939120849212635,-0.001751999820833973,-0.004972722979121595,0.00999777353000642,0.9912631535883124
2014-04-22,-1,-0.0018242128314789315,-0.0015248272278359115,-0.004972722979121595,0.012224247902713585,0.9902913728716821
2014-04-24,-1,-0.0014839936290562275,-0.0012139644200532909,-0.004972722979121595,0.009785345998391046,0.9908940703485282
2014-04-28,-1,-0.0014612127742494034,-0.0011841560163233353,-0.004972722979121595,0.009785345998391046,0.9911355581246317
2014-04-30,-1,-0.0012693037407299939,-0.0009976965615756397,-0.006012241450374391,0.00823507948024707,0.9916149769070537
2014-05-02,-1,-0.0016232761846673408,-0.0012863366031187029,-0.004972722979121595,0.00823507948024707,0.9920556965807911
2014-05-06,-1,-0.0012308745506718875,-0.0009468181883284095,-0.004972722979121595,0.004990014973257146,0.9926464897188452
2014-05-08,-1,-0.0015390418557750041,-0.001202346934109357,-0.004055001843526458,0.00823507948024707,0.9921023249409621
2014-05-12,-1,-0.0010080581654097775,-0.0007589947515693688,-0.005768782827843841,0.007254726575275767,0.9921593980468789
2014-05-14,-1,-0.001371825760408005,-0.0011010986029749551,-0.004693096107800928,0.007254726575275767,0.9920664446974368
2014-05-16,-1,-0.000952266229526652,-0.0008153639716293626,-0.004693096107800928,0.007254726575275767,0.9919701119186951
2014-05-20,1,2.591036481259838e-05,2.8228561476817875e-05,-0.0047884259692489144,0.004222514875786908,0.9932998881019821
2014-05-22,1,0.00042734176910761725,0.0005037504143485334,-0.0047884259692489144,0.0036847874705132205,0.9936325535980357
2014-05-27,1,0.0005071109468223943,0.0006069286454970401,-0.007926524243197801,0.004222514875786908,0.9919905481494793
2014-05-29,1,0.00027817167761386483,0.00033160429522218095,-0.008040959859449127,0.003915290367694412,0.9919032195094197
2014-06-02,1,0.0004168326225585321,0.0004857178489270558,-0.008040959859449127,0.003485618008935293,0.9925263100200953
2014-06-04,1,0.000594022633418848,0.0006972225123068369,-0.008040959859449127,0.002878642318571198,0.9923603864637299
2014-06-06,1,0.001300055998616394,0.0015340474005857952,-0.008040959859449127,0.0020462340106326094,0.992547657770034
2014-06-10,1,0.0014040482951287222,0.0016629710606559749,-0.010042396595122606,0.0018003362693683749,0.9919306218851849
2014-06-12,1,0.0008202861743609979,0.0009959007693269694,-0.010042396595122606,0.0020462340106326094,0.9922361572854945
2014-06-16,1,0.00026620971968951436,0.0003772408403791525,-0.005235251593802311,0.002878642318571198,0.9934363323082093
2014-06-18,-1,-0.0003882336659053912,-0.00035412726669298603,-0.00923342866580884,0.0035544659994068252,0.9925795743925977
2014-06-20,1,0.000308845012816863,0.0004225914211759694,-0.009650017842876134,0.0036823532181809813,0.9915954245665821
2014-06-24,-1,-0.000377024093317969,-0.00036952971073648654,-0.00923342866580884,0.0036823532181809813,0.993170321790045
2014-06-26,-1,-0.0012310679683610341,-0.0010947214090093129,-0.009650017842876134,0.004235774917865851,0.9921454315400986
2014-06-30,-1,-0.001129909822971341,-0.001009447047468991,-0.009831381764466664,0.004235774917865851,0.9917958418929893
2014-07-02,-1,-0.0004997205683105428,-0.0004978295038578827,-0.010854838623505276,0.0049464164158949326,0.9907921393181709
2014-07-07,-1,-0.0002653673814623993,-0.00022569973965196679,-0.010854838623505276,0.004486665126991088,0.990646553983785
2014-07-09,-1,-0.000868216415976151,-0.0008300234448499606,-0.010216742191830039,0.005426506261591071,0.9908188110306141
2014-07-11,-1,-0.0013919225449748984,-0.0013242265702091594,-0.009831381764466664,0.00782465643803771,0.9912929371230474
2014-07-15,-1,-0.0015007133326094615,-0.0013935749743372676,-0.009831381764466664,0.008851072797512972,0.9903835247998276
2014-07-17,-1,-0.001609577872904603,-0.001508004041605267,-0.0070044098362120055,0.010710724686201274,0.9907438442624832
2014-07-21,-1,-0.0012301116294663082,-0.0011811184902322015,-0.0025418342910146314,0.010710724686201274,0.9911992178491308
2014-07-23,-1,-0.0010818893419283935,-0.00104093012494454,-0.00328537591757737,0.010710724686201274,0.9915688847174791
2014-07-25,-1,-0.0015038720954780155,-0.0014597167557675525,-0.0019696903212168067,0.008851072797512972,0.9928689448853262
2014-07-29,-1,-0.001979966762446446,-0.0018677179225754948,-0.0019696903212168067,0.008851072797512972,0.9929119375439273
2014-07-31,-1,-0.0020971369827770528,-0.0019646716124457767,-0.0024254652252868095,0.008199544548364577,0.9930163178313239
2014-08-04,-1,-0.0018998117790895244,-0.00179569729539663,-0.0019696903212168067,0.009360558795679808,0.9927575037699683
2014-08-06,-1,-0.002188498326961934,-0.002031774259543397,-0.001467697411453524,0.01227410637517598,0.9920267970004821
2014-08-08,-1,-0.0016011454520271622,-0.001559581868967597,-0.0019696903212168067,0.009395482490154006,0.9924160339619365
2014-08-12,-1,-0.0008091140121251453,-0.0007367763510186388,-0.0024254652252868095,0.006032133950839038,0.9931117306149799
2014-08-14,-1,-0.0004658534593614788,-0.00034547405561672685,-0.0024254652252868095,0.005695859230823157,0.9935183276000482
2014-08-18,-1,-0.0012056021873055444,-0.0011745366265638747,-0.0024254652252868095,0.005599631888139634,0.9938083408857665
2014-08-20,-1,-0.0016081373498616548,-0.0015158825375935847,-0.0014268925536421982,0.006032133950839038,0.9925259742206844
2014-08-22,-1,-0.0010479077086522444,-0.0010285361277318627,-0.0032483991482931958,0.0073374216183909515,0.9918037075538478
2014-08-26,-1,-0.0010921613453567767,-0.0010072437131264488,-0.0020526248774653732,0.00946451356993171,0.9911598235617712
2014-08-28,-1,-0.0017786626417238991,-0.0017415370320443804,0.0001410229977800904,0.00946451356993171,0.9909609697161825
2014-09-02,-1,-0.0011404719191743023,-0.0010786431403501822,-0.005337092536265459,0.0075220710460810565,0.9915663652992314
2014-09-04,-1,-0.0011099896127824752,-0.0010982497567407889,-0.007875380464107077,0.007029303557969954,0.9911396110534666
2014-09-08,-1,-0.001430162993946998,-0.0013388793363328596,-0.007875380464107077,0.0075220710460810565,0.9901245621195994
2014-09-10,-1,-0.00012175915825234491,-8.075321864895309e-05,-0.008324516197602697,0.009432898880141302,0.9875808275922815
2014-09-12,1,0.00011399133042076567,0.00011950614402281013,-0.011454649489011526,0.009432898880141302,0.9850045605672196
2014-09-16,1,0.0005377966730222437,0.0006198825303893938,-0.01355979477655107,0.012423934528323476,0.9823066354341564
2014-09-18,1,0.0007497156539299732,0.0009887644726203756,-0.01355979477655107,0.008508544698878313,0.9829398463361366
2014-09-22,1,0.0009252129511139667,0.0012121335367338468,-0.012406233471714033,0.008508544698878313,0.9824072335694914
2014-09-24,1,0.0011882761092606136,0.001500964936690642,-0.012406233471714033,0.008508544698878313,0.9804198600856727
2014-09-26,1,0.0012958228560774978,0.0016354254848294243,-0.011601609652713589,0.012738838580144025,0.9806404109209934
2014-09-30,1,0.0010527109656516922,0.001358328337198407,-0.011601609652713589,0.014719774159084088,0.980449488866186
2014-10-02,1,8.649125301201039e-05,0.0002897535048137779,-0.0031954000549253483,0.017439477744766514,0.981176553509974
2014-10-06,1,0.0005422758583588507,0.0007664800723854048,-0.0031954000549253483,0.014684962666871037,0.9824229695421237
2014-10-08,-1,-0.0017053595146096082,-0.0015958865938140994,-0.0021337496542812562,0.014684962666871037,0.9849253734302527
2014-10-10,-1,-0.00332758847491449,-0.003053240781781846,-0.0018752002574045025,0.014684962666871037,0.98608490382075
2014-10-14,-1,-0.0034526174196669633,-0.0031845949606864486,0.0004803253005667479,0.012810232852730384,0.9879900223074556
2014-10-16,-1,-0.003070578066820452,-0.0028486246248620424,0.0004803253005667479,0.0144362316294704,0.9876210046120963
2014-10-20,-1,-0.0020382926295730085,-0.0019352308835979967,0.0004803253005667479,0.012810232852730384,0.9895655863855767
2014-10-22,-1,-0.000990525633733569,-0.0009577064805582258,0.0004803253005667479,0.012810232852730384,0.9913449296645086
2014-10-24,-1,-0.00037706966332368857,-0.0002529171923719411,-0.0019968863019668884,0.00844227482005903,0.9923607299260478
2014-10-28,1,0.00027165259936308265,0.0005091521571188981,-0.00044328471725382996,0.00844227482005903,0.9926171738326008
2014-10-30,1,0.00092880031355418,0.0012543109120082608,-0.0028412228927835147,0.00844227482005903,0.9910678319822367
2014-11-03,1,0.0004330539891299805,0.0006628307165836349,-0.004267815906641395,0.00844227482005903,0.9890561328882556
2014-11-05,1,0.0001453937677034264,0.00028677930959940343,-0.004267815906641395,0.01116757079211771,0.9886343997388517
2014-11-07,1,6.701725031608253e-05,0.00019690077221661575,-0.004267815906641395,0.013236910229966469,0.9876801843074958
2014-11-11,1,0.0008046012601075445,0.0010254681387096723,-0.0060913719392282645,0.011916968820102632,0.9876278138014093
2014-11-13,1,0.0007950025094378109,0.0009802072749254976,-0.007051083705118184,0.009839716298237721,0.9874834674968154
2014-11-17,1,0.0007629214506408998,0.0009280607700214889,-0.007051083705118184,0.009839716298237721,0.9877190023119294
2014-11-19,1,0.000803829580871554,0.0009771737709106257,-0.005472065660639472,0.009839716298237721,0.9876460376910932
2014-11-21,1,0.0007271537658903605,0.0008910626889430188,-0.005472065660639472,0.009839716298237721,0.9877099649076114
2014-11-25,1,0.0012631562765670684,0.0015040865424947561,-0.005472065660639472,0.008825180690832215,0.9883055369906455
2014-11-28,1,0.0019473981236840135,0.0022332457249401097,-0.002051419961904639,0.008599663123684907,0.9907188370879578
2014-12-02,1,0.0009379131964332279,0.0010729911782722816,-0.005187347479971254,0.008599663123684907,0.9917930195285736
2014-12-04,1,0.0011888990565162335,0.0013535395403340461,-0.005187347479971254,0.00767099802541785,0.9920395797354009
2014-12-08,1,0.0011005087275311174,0.0012307840809225416,-0.0019503072459215644,0.0063424721994663254,0.9933255241503689
2014-12-10,1,0.0005991951660333419,0.000667121807292241,-0.0007343087874538792,0.00767099802541785,0.9931636807431199
2014-12-12,1,0.0004826091336620212,0.0005404783703729918,-0.0007343087874538792,0.0063424721994663254,0.9938681408952263
2014-12-16,1,0.0006640906550402091,0.000743428300578856,-0.005041219158752524,0.0063424721994663254,0.99353694996249
2014-12-18,1,0.0010591506870866563,0.0011788506218097976,-0.005041219158752524,0.0063424721994663254,0.9946528885660928
2014-12-22,1,0.0010178181870490815,0.0011223733530413324,-0.005041219158752524,0.008230588123981617,0.9938237252005442
2014-12-24,1,0.001175307642780821,0.0012965072123404743,-0.005041219158752524,0.007552642458626582,0.9940218734904512
2014-12-29,1,0.0013408376866315657,0.001482223361449759,-0.0062599467350307955,0.006051419531095557,0.9932298667539193
2014-12-31,1,0.0015360607372581203,0.0016329183797003373,-0.006984786214544422,0.006051419531095557,0.992472407625981
2015-01-05,1,0.0018474854115836158,0.0020154896554096073,-0.007172458876838296,0.006679484453514278,0.9918387801168701
2015-01-07,1,0.00205995162790339,0.002268252365061945,-0.007489891485225377,0.008184054884936417,0.991245912350677
2015-01-09,1,0.002214326898245574,0.0024618629391335474,-0.009161414078206661,0.006679484453514278,0.9908470144452645
2015-01-13,1,0.0018957102058781965,0.002091601680245332,-0.009161414078206661,0.008184054884936417,0.9902596412939563
2015-01-15,1,0.0015180932151028456,0.0016725699459097273,-0.00978231919089639,0.00845628768204355,0.9893510335828556
2015-01-20,1,0.0016187167761314626,0.0017820115193753602,-0.00978231919089639,0.00845628768204355,0.9887247391117279
2015-01-22,1,0.0016932560724780554,0.0018310904662152269,-0.011586641659313314,0.00784960139634007,0.9887021663623696
2015-01-26,1,0.0019396077447807628,0.0021094183081688624,-0.011586641659313314,0.00843832377269452,0.9885184287747314
2015-01-28,1,0.001520050180584986,0.001668609241676968,-0.00978231919089639,0.00843832377269452,0.9898394397563631
2015-01-30,1,0.0007738876273081696,0.0008218208934851385,-0.008554167075922174,0.008572693395603235,0.9901873537020673
2015-02-03,1,0.0005749564680965068,0.0005887537136105635,-0.008554167075922174,0.008572693395603235,0.9903972606011563
2015-02-05,1,0.0005620368077850868,0.0005791733627411044,-0.009798942962642231,0.009828447143200629,0.9893580959294672
2015-02-09,1,3.0264085526699065e-06,4.842635596941788e-05,-0.005748890353638042,0.012657414933790781,0.9890587073890075
2015-02-11,1,0.0009147689179227999,0.0010005517879131936,-0.006190616650411879,0.012657414933790781,0.988838072952679
2015-02-13,1,0.0007016461815318961,0.0007587076040334384,-0.003975167555565179,0.013405307037431882,0.9894404553805122
2015-02-18,1,0.001247827549557239,0.001367329201201196,-0.006190616650411879,0.013405307037431882,0.988744588732546
2015-02-20,1,0.0007760034023123161,0.000824424743092727,-0.0036268193497552862,0.013405307037431882,0.989020749731577
2015-02-24,1,0.0007243899759066905,0.0007463215459693847,-0.012493389083850143,0.013405307037431882,0.9875183869909073
2015-02-26,1,7.515736501170723e-05,0.00018682384763318524,-0.01574970225429,0.013405307037431882,0.986666394286835
2015-03-02,1,0.000944126202067989,0.0009754135455058302,-0.01574970225429,0.013509946102737248,0.9836557013618519
2015-03-04,0,-7.5490498481312e-05,7.614919578803603e-05,-0.01574970225429,0.013509946102737248,0.9838831369850328
2015-03-06,-1,-0.0011660149143964667,-0.0008273757751725139,-0.009983272164649917,0.012361566228809531,0.9853852417211584
2015-03-10,-1,-0.001628389908653765,-0.0012152225744087267,-0.005353911010678471,0.013023129586418443,0.9858993475318825
2015-03-12,-1,-0.0011874264474029436,-0.0008258244477647278,-0.004770723665919699,0.009599338434452568,0.9873931238641951
2015-03-16,-1,-0.00041997559057814135,-0.00019993504853818133,-0.008457321173663813,0.007539543575292046,0.9876968676799266
2015-03-18,0,-5.721200755825004e-05,9.740982265246862e-05,-0.008457321173663813,0.005794546128095129,0.9885819906994199
2015-03-20,1,7.357531415984927e-05,0.00019974024014418883,-0.01034099065937597,0.004615127233326138,0.9881163257442309
2015-03-24,-1,-0.0006045963292597467,-0.00041598761742092487,-0.005308183503512317,0.0056926473776108995,0.9897590462323763
2015-03-26,-1,-0.0008660522019871601,-0.0006705541024852384,-0.004789397246508021,0.0056926473776108995,0.990340981149543
2015-03-30,1,0.0006513123773656909,0.000669053063516522,-0.007873566162769657,0.004601751173061124,0.9931842557757176
2015-04-01,1,0.0004911894038182839,0.0005322681771343314,-0.008165924850736637,0.0009407409180859777,0.9923699317331676
2015-04-06,1,0.0005382216207283177,0.0005834015747372571,-0.008165924850736637,0.0009362478139373373,0.9921430354813537
2015-04-08,1,0.0008380133680951938,0.0008418659768032745,-0.009701488096694143,-0.0017374880949485882,0.9914410765099098
2015-04-10,1,0.0007308671080798675,0.0007513792752784298,-0.009701488096694143,0.004601751173061124,0.9885085172661393
2015-04-14,1,0.00046827750183889945,0.0005130193511868141,-0.01069278371835071,0.0053271039164875765,0.9885051211267564
2015-04-16,1,0.00015835022062785884,0.00024312309826755944,-0.00849635672462216,0.005787645208168142,0.9878335269473125
2015-04-20,-1,-0.0004568232259378103,-0.0002895847113467474,-0.007206107371630859,0.007612105056426878,0.9880210283841769
2015-04-22,0,-9.645975886897565e-05,6.80356493246929e-06,-0.00849635672462216,0.008747543182597295,0.9871135694808779
2015-04-24,1,0.000475041976272233,0.00048774595132484007,-0.00849635672462216,0.008747543182597295,0.9872451942029746
2015-04-28,-1,-0.0005113090817868641,-0.00036919372771106163,-0.004807135563583621,0.010847672541058121,0.9876424347502756
2015-04-30,-1,-0.0011381264255881612,-0.0009379732115944577,-0.00512845408804835,0.010847672541058121,0.987988376911634
2015-05-04,-1,-0.0008625888984472407,-0.000703709992499784,-0.00512845408804835,0.010356724800889106,0.9877638226121487
2015-05-06,-1,-0.0018441789140707689,-0.0015482191289151745,-0.00512845408804835,0.013629361019772185,0.9876269301189867
2015-05-08,-1,-0.0002466095171169756,-0.00012562631802993615,-0.008794439160312114,0.00858389393587429,0.9906423567259217
2015-05-12,-1,-0.00038074937707572947,-0.00024878035452358723,-0.00512845408804835,0.00858389393587429,0.9912130586851161
2015-05-14,1,0.0007424060859033796,0.000780539977523369,-0.008794439160312114,0.00858389393587429,0.9914044522005955
2015-05-18,1,0.001007086065824356,0.0010802595298036895,-0.008794439160312114,0.006275940419568511,0.9919080574142687
2015-05-20,1,0.0009007612855692169,0.0009740604870707205,-0.00512845408804835,0.0065820258047292555,0.9922498125953001
2015-05-22,1,0.0009775597691258878,0.001078905547905193,-0.004837188559701918,0.012115656835183973,0.9907614989349459
2015-05-27,1,0.0009431516365499559,0.0010233890464646045,-0.008161072334700616,0.010996507853633531,0.9906312286007356
2015-05-29,1,0.0003929712570047661,0.00040620412717715066,-0.0010733122977482565,0.011953614453830598,0.9910342788969596
2015-06-02,1,0.0007634629161073865,0.0008366174320572707,-0.004790455146271799,0.011953614453830598,0.9900827025329897
2015-06-04,1,0.0008911768845733979,0.0009858952343952453,-0.0010733122977482565,0.010996507853633531,0.9909530263817065
2015-06-08,1,0.0005691110803639602,0.0006163397820460094,-0.0009206234719847249,0.01185478429859907,0.9904263041248157
2015-06-10,1,0.0004648968497004863,0.00048405471490579346,-0.004790455146271799,0.01185478429859907,0.9891297133750033
2015-06-12,1,0.0005600810526690957,0.0005988734778028129,-0.0003067358660667689,0.011975788938378766,0.9880527376623718
2015-06-16,1,0.0007529582047330317,0.0008441483485638762,-0.001000794452537479,0.011975788938378766,0.9877877521501914
2015-06-18,1,0.001196138693064447,0.0013558941598163753,-0.002719476235841031,0.01185478429859907,0.9883602385653948
2015-06-22,1,0.0015443090145084205,0.0017154495643242518,-0.004792641906587287,0.00923998545560995,0.989942747015549
2015-06-24,1,0.0012254698188666458,0.001320545799304995,-0.004792641906587287,0.008734448996705984,0.9897293968053036
2015-06-26,1,0.0014721483637286788,0.001584870243782529,-0.0071110788017356005,0.008426626926508224,0.9890671507357467
2015-06-30,1,0.0008602393919555495,0.0008856707832388558,-0.005882555419770933,0.008734448996705984,0.9898015791182533
2015-07-02,1,0.0006895020975146693,0.000712041824434929,-0.006571094052023704,0.009531005267164721,0.9879073172654479
2015-07-07,1,0.000906776441323649,0.0009451414976255216,-0.006571094052023704,0.008734448996705984,0.987700272656841
2015-07-09,1,0.00044351007245943465,0.0004691516806148324,-0.006571094052023704,0.009872400999191226,0.9880332692185183
2015-07-13,1,0.0014692839183862065,0.0015891536319637123,-0.006571094052023704,0.00847774022045569,0.9900358834320014
2015-07-15,1,0.001248365192051181,0.001316503602082849,-0.00714210818474024,0.008342676419439372,0.9895663357881284
2015-07-17,1,0.0013806798043676579,0.0014717166212499617,-0.00714210818474024,0.008342676419439372,0.9891273208321557
2015-07-21,1,0.0012373770732644978,0.0013065642806256992,-0.00714210818474024,0.008621994398775746,0.9890160640052478
2015-07-23,1,0.0012881799688047384,0.001389799487136954,-0.009918837897081432,0.008621994398775746,0.9868611705416614
2015-07-27,1,0.00046142918640030206,0.0005370270463547898,-0.016896418578203093,0.008621994398775746,0.9849859118484915
2015-07-29,1,0.0009170774177673015,0.0009443338796594225,-0.016896418578203093,0.010569367316538077,0.9840648276592009
2015-07-31,1,0.001369185085952859,0.0014525880754280253,-0.016896418578203093,0.010569367316538077,0.985439102891001
2015-08-04,1,0.0011140101113706474,0.0011858721703475986,-0.01702927108380479,0.010569367316538077,0.9850089722848023
2015-08-06,1,0.001366891173859103,0.0014914555601954933,-0.01702927108380479,0.010569367316538077,0.9844985287720583
2015-08-10,1,0.001480382012057441,0.0016222766774225427,-0.01702927108380479,0.01452105796302086,0.9833295728567575
2015-08-12,1,0.0010222398873258511,0.0011035075064849721,-0.010343462560129083,0.01452105796302086,0.9839848285364204
2015-08-14,1,0.0009694230688557107,0.000992929261964304,-0.010343462560129083,0.011373589715621659,0.9845628421959484
2015-08-18,1,0.0007523322062457348,0.0007926863570614299,-0.010343462560129083,0.015062825313569674,0.9836179498641133
2015-08-20,1,0.00036079707767314216,0.0003630182579398907,-0.0051745023952336966,0.015062825313569674,0.9862169428055831
2015-08-24,-1,-0.0011803764257278023,-0.0009992793554059872,-0.003896359611596311,0.015062825313569674,0.9862841086995369
2015-08-26,-1,-0.00015991614572646498,-0.0001088877549523701,-0.0051745023952336966,0.01142511488108256,0.9859022500788345
2015-08-28,1,0.00020175203000286773,0.0002052661264286242,-0.00725790409440398,0.007256365783934932,0.9850313744150881
2015-09-01,-1,-0.0005924388615627229,-0.0004955812331369483,-0.005000491172575831,0.013797227039051344,0.9848944055954758
2015-09-03,-1,-4.648887138614062e-05,-3.1158826101711874e-07,-0.005000491172575831,0.00893563940475,0.9860400378989127
2015-09-08,1,0.00021285503530509592,0.0002395852912573764,-0.006735870426430385,0.00893563940475,0.9859318346022802
2015-09-10,1,7.960102797407168e-06,7.790400535752134e-05,-0.008124430386933728,0.008302245227884943,0.985649870526929
2015-09-14,1,0.00012544763216282634,0.0001766833387331438,-0.010339773648248762,0.009181693150209808,0.9846606044607397
2015-09-16,1,0.0006776893260797055,0.0006881571674016639,-0.011285987267647778,0.008302245227884943,0.9845306062917705
2015-09-18,1,0.00022500149228177097,0.00029969964093095995,-0.011285987267647778,0.009181693150209808,0.9827704303219291
2015-09-22,-1,-0.0014389479586303928,-0.0011336900601987268,-0.010339773648248762,0.01200267291657714,0.9852494899916897
2015-09-24,-1,-0.0009638318794693283,-0.0007195775848163731,-0.00880020090965461,0.01200267291657714,0.9865067534295126
2015-09-28,-1,-0.002263353215772052,-0.0018335149849868116,-0.006975281585394307,0.014789699871453382,0.9869659187668777
2015-09-30,-1,-0.0007885908584712282,-0.0006112571044019801,-0.007090690513973828,0.01200267291657714,0.9881136777425737
2015-10-02,-1,-0.0007972601111919356,-0.0006110038818903847,-0.007090690513973828,0.013878463329299078,0.9878863333461012
2015-10-06,-1,-0.000632063231095795,-0.0004968656660169701,-0.007090690513973828,0.013878463329299078,0.9886305239291416
2015-10-08,-1,-0.0005503148052172945,-0.0004366072440863145,-0.007090690513973828,0.013878463329299078,0.989069784198613
2015-10-12,-1,-0.0005345684179809608,-0.0004143268500640921,-0.007090690513973828,0.00838029601437557,0.9893722229761478
2015-10-14,-1,-0.001249767488431352,-0.0010392886934873255,-0.004321824254426178,0.010367609969766298,0.9901250983641755
2015-10-16,-1,-0.00012812546883260618,-5.551268599173582e-05,-0.0073403370725440885,0.007287403191988414,0.9913381842077076
2015-10-20,-1,-0.000267909353214558,-0.000151156480164792,-0.010125698541124665,0.005060380622100068,0.9912833089837714
2015-10-22,1,5.1359170691061174e-05,0.00011723183867597486,-0.010125698541124665,0.005060380622100068,0.9908095991394112
2015-10-26,1,0.0004946737138815961,0.0005065045406713283,-0.010125698541124665,0.0016732284027659756,0.9915845935880103
2015-10-28,1,0.00020062098060830662,0.00025801068115235374,-0.012665661552062477,0.002194756597685343,0.9903830597923443
2015-10-30,1,0.00045324443484441335,0.00047912813468282197,-0.012665661552062477,0.00018382654033126638,0.990699547657222
2015-11-03,0,-3.0036989093806013e-05,4.532406421313995e-05,-0.010187817576072173,0.0017942634054726198,0.9901945972874314
2015-11-05,-1,-0.0003032497446905598,-0.0001909008433549375,-0.01308443858490148,0.007287403191988414,0.9880225463146182
2015-11-09,-1,-0.0003051770866591781,-0.00020959148343204924,-0.012612926559277452,0.002456498459256693,0.9883913058816333
2015-11-11,1,0.0003139479121789529,0.00033066906777345527,-0.012612926559277452,0.00810406886949764,0.9876486382752956
2015-11-13,-1,-0.00025341754768890023,-0.00020414429736501755,-0.0076881522268936985,0.00810406886949764,0.9885657335501034
2015-11-17,-1,-0.00044927812834467446,-0.0003940871958703159,-0.006017973251294262,0.01352811275202018,0.9881908770672074
2015-11-19,-1,-0.00031175149349078467,-0.00024420030614442066,-0.0076881522268936985,0.01352811275202018,0.9861450811411889
2015-11-23,-1,-0.0003224956244380679,-0.0002542192990674576,-0.0076881522268936985,0.018001978307974405,0.9847137437202769
2015-11-25,-1,-0.00044986122469415724,-0.00036922940978393573,-0.004429701278525353,0.015820286230289075,0.9863478999711232
2015-11-30,-1,-0.0007800360378243559,-0.0006426792063942875,-0.004429701278525353,0.019489263644039953,0.9854210902651048
2015-12-02,1,0.00021664398965979338,0.00025196459409571655,-0.004916232355940521,0.014023874530708698,0.9866767165385132
2015-12-04,1,0.00013636192563292962,0.00016439439066126625,-0.007394215624494688,0.008678572193246414,0.9885882769017537
2015-12-08,-1,-5.1815585436421364e-05,-3.9200572001456736e-05,-0.007394215624494688,0.008678572193246414,0.9880773416895612
2015-12-10,1,0.0002990626282173855,0.0003537625304138298,-0.007394215624494688,0.009901564664496706,0.9870929216449474
2015-12-14,1,0.00015766262521796178,0.00018888915930520615,-0.007394215624494688,0.017094395237670944,0.9848723482810563
2015-12-16,1,0.00041241309793815106,0.00044436167783817176,-0.00966482417345994,0.009702079095567164,0.9834066579547776
2015-12-18,1,0.0007544335933072634,0.0008579973403097646,-0.00966482417345994,0.0035551614208736908,0.9858028871581088
2015-12-22,1,0.0018978043666685231,0.002193509209085397,-0.00966482417345994,0.001241939610777187,0.9857357983343245
2015-12-24,1,0.0015476178726569795,0.0017657081405145058,-0.011810085877338908,0.00595277161193177,0.9846178119318257
2015-12-29,1,0.0020934571343566677,0.002391983080700605,-0.01698048127434193,-0.0013555263730690476,0.9821445224300084
2015-12-31,1,0.00201075453400177,0.0023089613768541104,-0.01698048127434193,0.017607635288718733,0.9810303838501832
2016-01-05,1,0.0012787501172444654,0.0014482349030875085,-0.02361479521404376,0.017607635288718733,0.9780651039659569
2016-01-07,1,0.0009843195207384862,0.0011419082350346717,-0.027842763504243806,0.017607635288718733,0.9766604598220596
2016-01-11,1,0.0018416955369231827,0.0021292597813478793,-0.03110973743731666,0.017607635288718733,0.9759558739959434
2016-01-13,1,0.00045538132185761525,0.0004696237088869738,-0.027842763504243806,0.013146937233568464,0.9780538228017014
2016-01-15,-1,-0.0021115067620583183,-0.0017373074510026421,-0.018075131375803587,0.019823016996614026,0.979070452249159
2016-01-20,-1,-0.002095677719980397,-0.0017723718317524657,-0.01627882404489324,0.019823016996614026,0.9786165134223764
2016-01-22,-1,-0.0013724111028159446,-0.0011473470759805606,-0.01627882404489324,0.02006389432883735,0.9775926791337982
2016-01-26,-1,-0.0018049240999102965,-0.0014811121124298707,-0.012406514139765802,0.02006389432883735,0.9788012297732296
2016-01-28,-1,-0.002846155578011194,-0.0024491766209177018,-0.0052711389992587876,0.02006389432883735,0.9801911152241899
2016-02-01,-1,-0.0012551618462816575,-0.001071462092165599,-0.0052870631169356875,0.019539528021683992,0.9811748119906253
2016-02-03,-1,-0.0031086681724345694,-0.002721531729832035,-0.007363586195360769,0.019539528021683992,0.9838939571828836
2016-02-05,-1,-0.004237998353999921,-0.003728475101207119,-0.007363586195360769,0.019539528021683992,0.9855019841213913
2016-02-09,-1,-0.003979897494553275,-0.0035453900041371444,-0.007363586195360769,0.017847759364196917,0.9870366297332072
2016-02-11,-1,-0.0038600134317179485,-0.003432007565800412,-0.005939618916309805,0.01954879081001744,0.986087536319552
2016-02-16,-1,-0.003603793614133023,-0.0031397931334420605,-0.006403006353013716,0.01574963471652975,0.987739479076254
2016-02-18,-1,-0.0030097320953163358,-0.002646724675635365,-0.005548697585021658,0.015648239032943087,0.9876990477298676
2016-02-22,-1,-0.002258558948946667,-0.0019321461806706126,-0.005548697585021658,0.008230985820256156,0.9893824771660611
2016-02-24,-1,-0.0017653211433493392,-0.0015327327452477712,-0.007260729957618684,0.008230985820256156,0.988408014934963
2016-02-26,-1,-0.0013143776209619523,-0.0011436996878661189,-0.007260729957618684,0.008230985820256156,0.988183092675916
2016-03-01,-1,-0.0007282843189657976,-0.0006148579118907965,-0.007260729957618684,0.010226768745499982,0.9865709097158867
2016-03-03,-1,-0.0016440319719216705,-0.0014211922300541202,-0.004811016780020744,0.010226768745499982,0.9873022785297267
2016-03-07,-1,-0.0019391714753804823,-0.0016917789950676243,-0.004811016780020744,0.010226768745499982,0.9868283073633103
2016-03-09,-1,-0.0037923145867631105,-0.0033557682048622963,-0.004811016780020744,0.013315363564265933,0.9858979698064165
2016-03-11,-1,-0.002141334305509218,-0.0019651316480745933,-0.004876748235275814,0.010226768745499982,0.987886786978728
2016-03-15,-1,-0.0018466063776610988,-0.0017236494228632711,-0.0006015520758319339,0.011364984696952306,0.9876184922480045
2016-03-17,-1,-0.001080736314448506,-0.0010644775383383653,-0.004876748235275814,0.009671564055612787,0.9885235001578483
2016-03-21,-1,-0.0004202042675348913,-0.000320368139451189,-0.004876748235275814,0.007627430374584949,0.9890707478725155
2016-03-23,-1,-0.001183918600081876,-0.0011796981450153121,-0.006300477477267961,0.007627430374584949,0.9886732983858701
2016-03-28,-1,-0.0003283689787264591,-0.00018495290613865543,-0.00892371214250983,0.007627430374584949,0.988449429656901
2016-03-30,1,0.0010264595435859817,0.0013220576746182876,-0.00892371214250983,0.004574219097031295,0.9911481578268864
2016-04-01,1,0.0010654160217107222,0.0013551698428580362,-0.011251105409149111,0.004009795952959058,0.9904303987767951
2016-04-05,1,0.00039787681577832805,0.0005894084675126495,-0.00892371214250983,0.004733577350883543,0.9912516465627499
2016-04-07,1,0.0006304295910871659,0.000864239208128034,-0.00892371214250983,0.004009795952959058,0.9913552477497636
2016-04-11,1,0.0002842552215450302,0.0004300958622586218,-0.00892371214250983,0.007627430374584949,0.9903899064416217
2016-04-13,1,0.0004521853976132184,0.0005990063244351108,-0.00892371214250983,0.005861457507238679,0.9904159858120747
2016-04-15,1,0.0005051380640628086,0.0006938337326245452,-0.011251105409149111,0.011420664275580404,0.9889835072985831
2016-04-19,1,0.0003282503506214553,0.0004825544434246187,-0.011251105409149111,0.011420664275580404,0.9888658489889844
2016-04-21,-1,-0.000700811113858816,-0.0006731110812525773,-0.00770707756386441,0.011420664275580404,0.9890259112767444
2016-04-25,-1,-0.0005193326393091333,-0.0004682725604501201,-0.004502685161240234,0.009436195345449132,0.9900329483346252
2016-04-27,-1,-0.00018104337283884512,-5.532566109695062e-05,-0.008618730770313793,0.011420664275580404,0.9878673761765221
2016-04-29,-1,-0.0004163903576259708,-0.00034835540629591993,-0.009002836688035268,0.01309292940063843,0.986085967182503
2016-05-03,-1,-0.0003542964166314374,-0.00029755418898081624,-0.017397351406159372,0.01309292940063843,0.9857715213429625
2016-05-05,-1,-0.0005504196357226245,-0.0004990684990664391,-0.011147929103416976,0.01309292940063843,0.9862510574378567
2016-05-09,1,0.00014135491307465842,0.0002731268809258076,-0.016682747313354583,0.00975881125003393,0.98644060887706
2016-05-11,1,0.0009086608223055017,0.0011795408280631217,-0.016682747313354583,0.008528440574724055,0.9869928894681825
2016-05-13,1,0.0007981179830749917,0.0010722023875529502,-0.016682747313354583,0.007492501635701867,0.9874106074370229
2016-05-17,1,0.0014242642107576576,0.001830477041680053,-0.016682747313354583,0.008528440574724055,0.9868440026550384
2016-05-19,1,0.0012150078858535495,0.0016013306383293225,-0.013026937628880457,0.008832004623106238,0.9878352419352947
2016-05-23,1,0.001730570289731147,0.0022627656792764553,-0.013026937628880457,0.010669503395180474,0.9870213353278685
2016-05-25,1,0.0015972024022932391,0.002099146579180824,-0.009623461742981393,0.010669503395180474,0.9889341642669711
2016-05-27,1,0.0009641798091121252,0.0013007166426562452,-0.013026937628880457,0.008060269328651663,0.9838067150311189
2016-06-01,1,0.00040480888907153687,0.0006182815310345303,-0.009623461742981393,0.011320721433073687,0.9834198289768042
2016-06-03,1,0.0006516131227190877,0.0009303708489254266,-0.006434293157163182,0.013176533661054524,0.9830573576123721
2016-06-07,1,0.00043391079195526387,0.000668809209001252,-0.010080154239229068,0.012128623686610246,0.9825642881796837
2016-06-09,1,5.013549394962093e-05,0.0001645532838743317,-0.010080154239229068,0.015601015217314286,0.9814870479181472
2016-06-13,-1,-0.0007427138437052648,-0.0007181089296595768,-0.003318471789181874,0.016499393690118054,0.9804368890795504
2016-06-15,-1,-0.00028332667372515366,-0.00023119478010485416,-0.003119427824072751,0.01609243393635319,0.9813542694103738
2016-06-17,1,2.7528135306192707e-05,0.0001304169401136329,-0.005210123852625108,0.01609243393635319,0.9804384200401735
2016-06-21,-1,-7.616749835462931e-05,-5.664473038289915e-05,-0.008009691492650944,0.01609243393635319,0.9803610491924042
2016-06-23,1,0.000550700913593157,0.000695516697705545,-0.010478229051482204,0.016090109549402938,0.9802864359257195
2016-06-27,-1,-0.003526197140312999,-0.0031104921955728924,-0.004728982073502636,0.016090109549402938,0.9864550421435552
2016-06-29,-1,-0.003274469832792927,-0.002868838769980748,-0.004728982073502636,0.011376975297381256,0.9873790028977426
2016-07-01,-1,-0.0031046350558739328,-0.0027392000336046553,-0.004728982073502636,0.009549816389999227,0.9878511702735786
2016-07-06,-1,-0.003516433868682993,-0.0030678240943145044,-0.0032786467504776744,0.009549816389999227,0.9878382515806803
2016-07-08,-1,-0.0027891786648714754,-0.0024574716971008997,-0.0032786467504776744,0.00916431333717885,0.9881247176925182
2016-07-12,-1,-0.0020848814235466034,-0.001842410146665877,-0.0080204786430829,0.008680638256891506,0.9890580277791777
2016-07-14,-1,-0.0018317884473038986,-0.0016551629380515537,-0.0080204786430829,0.008715342315708727,0.9884176952506752
2016-07-18,-1,-0.001981725700987109,-0.0017850055576012695,-0.00421183596381962,0.008715342315708727,0.9897373070854424
2016-07-20,-1,-0.0016656519196370598,-0.0015147533897876062,-0.0017293722425151979,0.008715342315708727,0.9903910089079847
2016-07-22,-1,-0.0014289296708629579,-0.0013184588481009586,-0.003109818812279615,0.007438655579170567,0.9912585023345238
2016-07-26,-1,-0.0016416692433361016,-0.0014946333603825701,-0.003109818812279615,0.009491155012554722,0.9903139846564704
2016-07-28,-1,-0.0015464132070385074,-0.0014033411726217847,-0.004049574313273776,0.009491155012554722,0.9903975253097308
2016-08-01,-1,-0.0014742264831373202,-0.0013345191229257763,-0.004049574313273776,0.008824289540834019,0.9909019109953298
2016-08-03,-1,-0.0015251617410480993,-0.001404751150433215,-0.0031685174037118604,0.008824289540834019,0.9917079773639003
2016-08-05,-1,-0.0012381328965745527,-0.0011561807267730436,-0.004049574313273776,0.007542048819832809,0.9895746135985777
2016-08-09,-1,-0.0015218538577369176,-0.0014197238897296818,-0.004049574313273776,0.007542048819832809,0.9902104194406142
2016-08-11,-1,-0.001187543377958642,-0.001131388585459467,-0.010163916776410738,0.004860119601846836,0.9901868887510282
2016-08-15,-1,-0.0014086546788547663,-0.001307335296116182,-0.010163916776410738,0.007561097604087432,0.9888783452206853
2016-08-17,-1,-0.0009806591638658881,-0.0009450095707682364,-0.010163916776410738,0.007370276772862688,0.9889490803994896
2016-08-19,-1,-0.0009213267043601225,-0.0009103066989046874,-0.010163916776410738,0.007370276772862688,0.9886486477320836
2016-08-23,-1,-0.0005762539667171876,-0.0005140039068014404,-0.010163916776410738,0.005952198908814567,0.9891039115395189
2016-08-25,-1,-0.000725424338375277,-0.0006959744387838457,-0.009789660085812913,0.008346010001518325,0.9882943545382298
2016-08-29,-1,-0.0005591446865521946,-0.0005044170291002477,-0.010163916776410738,0.00885809306797653,0.9855654320205297
2016-08-31,-1,-0.0002924494883336132,-0.00020215287762640843,-0.010598440887430042,0.009721053555315768,0.984831518954903
2016-09-02,-1,-0.0005608330027649068,-0.0004902091592141881,-0.010163916776410738,0.00968803582861629,0.9875199323609317
2016-09-07,-1,-0.0008144295455042238,-0.0007798607427378971,-0.009789660085812913,0.00968803582861629,0.9879744945428899
2016-09-09,-1,-0.000964831507517418,-0.0009523706223166033,-0.008402060350516488,0.00968803582861629,0.987763588302254
2016-09-13,-1,-0.0008135950115689281,-0.0008023982722865923,-0.010351718843800707,0.00876221641992339,0.9882929280719666
2016-09-15,-1,-0.0005192382686435782,-0.0004640744138068525,-0.010351718843800707,0.00863366349729807,0.9887903468656786
2016-09-19,-1,-0.0005772165074868214,-0.0005267972675828981,-0.012775450886787512,0.00863366349729807,0.9887390418920095
2016-09-21,-1,-0.0005270980554798433,-0.00047511646509568477,-0.012775450886787512,0.008389539680638665,0.9890359424252085
2016-09-23,0,-4.3402475912841635e-05,8.052733847805526e-05,-0.012775450886787512,0.00720492719570032,0.9896095823246894
2016-09-27,1,0.00019436841209398772,0.0003377827599008298,-0.010547806480504464,0.004088390478080979,0.992274127816459
2016-09-29,1,0.0002910385942861241,0.0004705705413867025,-0.010239506186419728,0.003370452006120169,0.9927416837570062
2016-10-03,1,0.000643999919250369,0.0008847419628543177,-0.010239506186419728,0.003370452006120169,0.9910250495955142
2016-10-05,1,0.0005577119929181521,0.0007774969654223087,-0.009974879038395657,0.003370452006120169,0.9909491020623531
2016-10-07,1,0.00043723169861375653,0.0006488547559793037,-0.00827305642220788,0.003370452006120169,0.9916609631688512
2016-10-11,1,0.00019121752537115444,0.00036487493764599205,-0.004653329613803818,0.008838962348947654,0.9911394333058829
2016-10-13,1,0.00029214169919876236,0.0004890312097541924,-0.004721758068783366,0.008838962348947654,0.9909607411236523
2016-10-17,1,0.0001877180852251901,0.0003774444729914444,-0.004363505940833568,0.010425551574871328,0.9910217886176866
2016-10-19,1,0.00026815027536851747,0.0004603989063948899,-0.004363505940833568,0.010425551574871328,0.9911192321682213
2016-10-21,1,0.00023586835920874052,0.0004223543441491496,-0.003749420664922557,0.013172117195539377,0.9914283729584604
2016-10-25,1,0.00031107401424597186,0.0005099462272808238,-0.003749420664922557,0.013172117195539377,0.9912264124573784
2016-10-27,1,0.0002700956687032185,0.0004589260579235036,-0.0032336624400456544,0.013172117195539377,0.9913007793400623
2016-10-31,1,0.0009125568792243189,0.0011945850033203936,-0.003749420664922557,0.009396350761642353,0.9925794130920406
2016-11-02,1,0.000621142719737339,0.0008378370406380183,-0.0037722301499157392,0.009396350761642353,0.990275958531083
2016-11-04,1,0.0006830621466758177,0.0009021257784966934,-0.0032336624400456544,0.013172117195539377,0.9888926594860458
2016-11-08,1,0.0012084448784798934,0.0015191311940677557,-0.0032336624400456544,0.012342360050033982,0.9895617899429743
2016-11-10,1,0.0013813110173236144,0.0017034190459831542,-0.0030597622279072935,0.012342360050033982,0.9896410563596116
2016-11-14,1,0.0018259932126704062,0.002142105531209017,-0.0032336624400456544,0.009153173455607119,0.989121395890509
2016-11-16,1,0.000480559562714642,0.0005183164522601259,-0.0030597622279072935,0.011117245716774518,0.9884980257454545
2016-11-18,1,0.0010418076346882493,0.001099544911121046,-0.007300893570093719,0.008825861113199041,0.9875535897702611
2016-11-22,1,0.001290492287292866,0.0013963926664737067,-0.007300893570093719,0.011117245716774518,0.9868959613343445
2016-11-25,1,0.001066781766436836,0.0010875286746239825,-0.009687959082055036,0.011181683533236958,0.9861898455989444
2016-11-29,1,0.0015342100177891044,0.001650318415217014,-0.010747502757699211,0.010811412646520586,0.9868142162872343
2016-12-01,1,0.0006378693924371766,0.0006984645360778652,-0.00603675407033806,0.010811412646520586,0.9893983135801794
2016-12-05,1,0.0013844430401826436,0.0015394907876062841,-0.00603675407033806,0.008725066540090497,0.9907001527122399
2016-12-07,1,0.0016546590355646343,0.0018201132792136573,-0.00603675407033806,0.0075527787018996855,0.9908040198480128
2016-12-09,1,0.0019075521952120968,0.0021227738975142024,-0.00603675407033806,0.010811412646520586,0.9904819557543169
2016-12-13,1,0.0012667276638101356,0.0013875050516309443,-0.00603675407033806,0.010811412646520586,0.9904370937579613
2016-12-15,1,0.0016205753078617213,0.0017957992212632632,-0.00603675407033806,0.007522980035141954,0.9904982431954449
2016-12-19,1,0.0009030111318208073,0.000994234584763309,-0.0034933373986966616,0.007906291371198007,0.9918959152625892
2016-12-21,1,0.001614265559866205,0.0018071536012802794,-0.0034933373986966616,0.007295023969976933,0.992613437825236
2016-12-23,1,0.0012444307699354916,0.0013579653286993924,-0.0032512637163532006,0.009593940923894338,0.9921711707543027
2016-12-28,1,0.0011688501323427495,0.0013066797394845702,-0.0028110894687627098,0.01313766915054228,0.9916649526008393
2016-12-30,1,0.000577684246096641,0.0005793324414110032,-0.003426268683577589,0.01313766915054228,0.9911022253114722
2017-01-04,1,0.0010274019661225039,0.0011046574871243775,-0.004112471768696183,0.009648188953155463,0.9913557105078401
2017-01-06,1,0.001236322183667381,0.0013402715638999086,-0.004112471768696183,0.007295023969976933,0.991918423652511
2017-01-10,1,0.0016430296545530707,0.001821296040809589,-0.004112471768696183,0.006533127004546947,0.9925396364164246
2017-01-12,1,0.0011372477951337614,0.0012314209370610073,-0.003008450674360122,0.007295023969976933,0.9932572822385762
2017-01-17,1,0.0012336174628870215,0.0013758286879098998,-0.0019112426949366578,0.007295023969976933,0.9935147296236495
2017-01-19,1,0.0010833998202636843,0.0011820495383307807,-0.002389834475649327,0.006537369813386526,0.9934773747822712
2017-01-23,1,0.001177785096825857,0.0012860388889279662,-0.004580773875297559,0.006455468556451542,0.9930700595657637
2017-01-25,1,0.00198791913881326,0.0022118662817052926,-0.005663570652112,0.004472761512526234,0.9936125612329494
2017-01-27,1,0.0019891206505807573,0.002154025475900323,-0.004580773875297559,0.002926746630097026,0.9949305963354601
2017-01-31,1,0.0010952771972561042,0.0010954501254420855,-0.0011353724010732993,0.004472761512526234,0.9954286444955107
2017-02-02,1,0.00046107521424066647,0.0005696034488365731,-0.0011353724010732993,0.004472761512526234,0.9951735621413895
2017-02-06,1,0.0006603942715324395,0.0006758410181981882,-0.0015463637390895264,0.002926746630097026,0.9952099633216648
2017-02-08,1,0.0007933219313006256,0.0008122770064498578,-0.0015463637390895264,0.0049980168734148735,0.9947400882628654
2017-02-10,1,0.0006730647303277406,0.0006963257348589635,-0.0014122458318738497,0.0049980168734148735,0.9945608528316561
2017-02-14,1,0.0006735874142727572,0.0006978467794080824,-0.002716399263980472,0.006687619584176312,0.9942832161330662
2017-02-16,1,0.0007883642663690216,0.0008151164073839567,-0.0014122458318738497,0.006687619584176312,0.9946078002331749
2017-02-21,1,0.000946971074884499,0.00104899190988889,-0.0008208245998958379,0.0038213474627793466,0.9955359593862837
2017-02-23,1,0.001077651092384751,0.0011465278366958743,-5.0182186195565004e-05,0.006062466847181487,0.9960239859367804
2017-02-27,1,0.0012916060516619374,0.001410760552785413,-5.0182186195565004e-05,0.006062466847181487,0.9959459895967611
2017-03-01,1,0.0011997766900949574,0.0012953746352031509,-5.0182186195565004e-05,0.004877363443010636,0.9959547579907652
2017-03-03,1,0.0005071291137168978,0.0005356225059094471,-5.0182186195565004e-05,0.006062466847181487,0.9956150206240164
2017-03-07,0,-0.0001006064810931968,2.8274519964703463e-05,-0.00012725403822225778,0.006062466847181487,0.9953849580749881
2017-03-09,1,0.0001253498839983877,0.00023203719952973989,-0.0005198526119821944,0.004877363443010636,0.9959272247734924
2017-03-13,1,0.00017052330755078828,0.0002914688146426232,-0.0019476268186778408,0.004387165434511384,0.9964620996734437
2017-03-15,1,0.0002814950353811693,0.0003839276041260233,-0.0019476268186778408,0.004338966587173887,0.996434333923307
2017-03-17,1,0.00022900502584915827,0.0003424739034607863,-0.0019628476739761962,0.004387165434511384,0.9957856946094517
2017-03-21,1,0.00011526772545880241,0.00025242731188637583,-0.0019628476739761962,0.004387165434511384,0.9956371901839248
2017-03-23,1,0.0001251454280395926,0.00027189521723126344,-0.002709400307945878,0.004338966587173887,0.9954795352285365
2017-03-27,1,0.0009945629953834652,0.0010212170187231641,-0.002709400307945878,0.0050657952870918005,0.994694258163889
2017-03-29,1,0.000621712098391299,0.0006664303698497752,-0.0019628476739761962,0.008230762375795467,0.9943500956754665
2017-03-31,1,0.00044702340024472344,0.0005172368973086646,-0.0017382155161118865,0.010742828700140856,0.994032607635001
2017-04-04,1,0.000805026243411332,0.0008162906768157727,-0.001154455808840338,0.010742828700140856,0.994086838012872
2017-04-06,1,0.0008292805193180568,0.0008423914793753387,-0.001154455808840338,0.010742828700140856,0.9939530338735297
2017-04-10,1,0.0007569415051272737,0.0007805458417327702,-0.0003719048739637185,0.010742828700140856,0.9937656254937535
2017-04-12,1,0.00045177724010076067,0.0004946802808525534,-0.0011595294272731232,0.010742828700140856,0.9931873215731769
2017-04-17,1,0.0009476964811246024,0.0009807880929279045,-0.0029759471761123066,0.008492373091051638,0.9933210120346889
2017-04-19,1,0.0010202078859477596,0.001067666512293182,-0.003144491903166137,0.008492373091051638,0.9924270346352374
2017-04-21,1,0.00136408781189588,0.0014745589192914884,-0.0030560825925171117,0.008492373091051638,0.9919432572747665
2017-04-25,1,0.0019723679276072055,0.0021685525915453633,-0.0030560825925171117,0.008118201350775834,0.9923389517038277
2017-04-27,1,0.0014203348191478618,0.0014381215656734912,-0.0030560825925171117,0.007440810910876892,0.9923092964815093
2017-05-01,1,0.0024382132281380213,0.0026499674933417043,-0.0030560825925171117,0.006738689135688316,0.993282227331514
2017-05-03,1,0.0027182394841946504,0.0029972087684335975,-0.0030560825925171117,0.006861426309447035,0.992602083726801
2017-05-05,1,0.0029394245244048676,0.0032454051095879006,-0.0034924237297238167,0.006898379397187649,0.9921849349744217
2017-05-09,1,0.0026075469269363034,0.0028219951309883503,-0.004249688626613123,0.006898379397187649,0.9919539637664025
2017-05-11,1,0.0021354361204505945,0.0023036437232080357,-0.003920873066749682,0.006898379397187649,0.9920672020640844
2017-05-15,1,0.000928693282012535,0.0009791870427093832,-0.0014433847829293236,0.007551670174098734,0.9920634236545178
2017-05-17,1,0.0005909662639824338,0.0005983264054906833,0.00012389539101001078,0.009628426714520485,0.992206215607432
2017-05-19,1,0.0012804743416854865,0.0013661062461444665,0.00012389539101001078,0.007842565721981123,0.9934042789934543
2017-05-23,1,0.0011034113689829368,0.0011288156898141915,0.00012389539101001078,0.008192584659340356,0.9929276354923587
2017-05-25,1,0.0013472409617774372,0.0013990103850382105,-0.0027531218043031925,0.008007748862893332,0.9925402466078224
2017-05-30,1,0.00172572246219249,0.001849551278248488,-0.007052944555530563,0.008007748862893332,0.9921730890414593
2017-06-01,1,0.0023306690414049668,0.002542676395131196,-0.008324804861260648,0.008007748862893332,0.991950755976758
2017-06-05,1,0.002201665952242005,0.002410895052123662,-0.00835006677573303,0.008007748862893332,0.9919138040499235
2017-06-07,1,0.0015471809640728975,0.0016390303231270588,-0.00857151669308745,0.009915823354744847,0.990829645095597
2017-06-09,1,0.0007981874697110014,0.0008168167158408572,-0.007688018712347201,0.009915823354744847,0.9913551115857933
2017-06-13,1,0.0009402455390902625,0.0009404692331433346,-0.007688018712347201,0.008007748862893332,0.9913321681072943
2017-06-15,1,0.0012754571197532909,0.0013286008908341682,-0.007688018712347201,0.0073220237928207695,0.9918505614610696
2017-06-19,1,0.001507093990358748,0.0016602102754235354,-0.007688018712347201,0.007896436691288934,0.9913059049789568
2017-06-21,1,0.0015615918172327539,0.0017090251468069493,-0.005277978827329715,0.007855316763788861,0.9917369015165544
2017-06-23,1,0.001236029288202337,0.0013182510953029915,-0.004571163803070045,0.007190626846841524,0.9925429181887202
2017-06-27,1,0.0007839475276250291,0.0008031753718018054,-0.004534667131217376,0.007190626846841524,0.9929995542116233
2017-06-29,1,0.0007642023027694125,0.0007863804107020452,-0.004534667131217376,0.007040131008131764,0.9937750465912083
2017-07-03,1,0.0008974290040694935,0.000905563744416102,-0.004392165565619712,0.0070715619710576905,0.993762566686092
2017-07-06,1,0.0008766929193136685,0.0008916670738045307,-0.004039740849094198,0.006010169476706302,0.9952507831945434
2017-07-10,1,0.000938038385434572,0.0009606769311110834,-0.004039740849094198,0.004830667937729445,0.9952746269623562
2017-07-12,1,0.0008027356620299395,0.0008086883751665007,-0.0027453268426473687,0.004230108385051041,0.9956696222131574
2017-07-14,1,0.0005707634055315768,0.0006122037824236376,-0.0027700088410518293,0.004230108385051041,0.9953185654451217
2017-07-18,1,0.0008023581677910985,0.0008326998864018724,-0.0008797852402639735,0.004830667937729445,0.995597680404547
2017-07-20,1,0.0009306430264764432,0.0009482799716927325,-0.002838464411436113,0.004230108385051041,0.9949398703317396
2017-07-24,1,0.0008068407611830974,0.0008403466946736042,-0.0014314537745073325,0.004830667937729445,0.9944261409698025
2017-07-26,1,0.00043300779011748854,0.0005306587113036096,-0.0024133310977665543,0.004830667937729445,0.9941741332782703
2017-07-28,1,0.00010327125310051916,0.00024247650953759364,-0.0014314537745073325,0.006200309098546642,0.9942098239787549
2017-08-01,1,0.0005335789514977884,0.0006067036691942637,-0.0024133310977665543,0.004718600028398106,0.9943675050930757
2017-08-03,1,0.0005618203340509717,0.0006149668638966017,-0.0016401769378158121,0.007075753195148375,0.993499269584683
2017-08-07,1,0.000687917469758158,0.0007343820519883097,-0.004910500346527559,0.007075753195148375,0.9921154942362258
2017-08-09,1,0.0007276931020544131,0.0007851925870595195,-0.00788809005448737,0.007075753195148375,0.9913091915532081
2017-08-11,1,0.00034738732163996423,0.0004547726485379009,-0.004910500346527559,0.007823647516434155,0.9904270425071299
2017-08-15,1,0.0007919344648780167,0.0008261728291909551,-0.004910500346527559,0.00674758532124972,0.9907818401738508
2017-08-17,1,0.00033168776272959384,0.00041414537886872853,-0.004910500346527559,0.00674758532124972,0.9897306189935903
2017-08-21,1,0.0005560187239103942,0.0006155780314474172,-0.00788809005448737,0.005602438744049339,0.9898290771883977
2017-08-23,1,0.00014282398263480776,0.0002539516151408166,-0.00796960839336744,0.005602438744049339,0.9898421241157817
2017-08-25,1,0.00014157542557579939,0.0002624745957364642,-0.008902550707930463,0.005020245045705423,0.9893203922312533
2017-08-29,0,-1.1313114200374463e-05,0.0001111292573248091,-0.010369966417576721,0.0053908770302063215,0.9872842141652357
2017-08-31,1,0.0003086716980768765,0.0004166274983474081,-0.010369966417576721,0.0023341531908211556,0.987989295699085
2017-09-05,-1,-0.0008992714265476248,-0.0006345699197988096,-0.008902550707930463,0.0023341531908211556,0.9896936104467101
2017-09-07,-1,-0.0012462108021444574,-0.0009594197638968625,-0.004878020748607575,0.0050139638075836004,0.9892528590566634
2017-09-11,-1,-0.0005670614271176595,-0.000360205401767119,-0.004878020748607575,0.0050139638075836004,0.9901670423879062
2017-09-13,-1,-0.0003783266649846226,-0.00019587141574936475,-0.004878020748607575,0.0050139638075836004,0.9898010425886855
2017-09-15,-1,-0.0013613047864664365,-0.0010836814844267383,-0.0038094056315938585,0.0064638189412871,0.9911545717515537
2017-09-19,-1,-0.0014199294016912652,-0.0011586334899997548,-0.0034494632867311937,0.0064638189412871,0.9914549363610444
2017-09-21,-1,-0.0012012164699909647,-0.0009932213862271799,-0.0038094056315938585,0.0064638189412871,0.9908809426658118
2017-09-25,-1,-0.0016606625370200593,-0.001399957981967476,-0.002911485109545427,0.0064638189412871,0.9912172478391166
2017-09-27,-1,-0.0014314086444078829,-0.0012072199178434174,-0.002314052223502719,0.004141719066334427,0.9938555949660358
2017-09-29,-1,-0.0012602536285923123,-0.0010592561677811396,-0.002314052223502719,0.007269419426441403,0.9933439945241772
2017-10-03,-1,-0.0017185735199218063,-0.0014395386238170334,-0.002155894204972685,0.007269419426441403,0.992388338005452
2017-10-05,-1,-0.001481432761371885,-0.0012058959888826086,-0.0032109716248128984,0.00705712911388596,0.992031218406373
2017-10-09,-1,-0.0016347399927409765,-0.0013166938399327278,-0.00262463080770288,0.005978637239402456,0.9921645644098913
2017-10-11,-1,-0.0008177802465176625,-0.0006332531298063399,-0.005490023907977629,0.005978637239402456,0.9923436526953415
