JNU-Tangyin/eata/results/Batch4_SP500/Batch4_SP500-PKG.csv
Date,Action,Predicted_Q25,Predicted_Q75,Actual_Q25,Actual_Q75,RL_Reward
2010-12-14,0,0.0,0.0,-0.003081070860522774,0.008928392151715224,0.9921579849230732
2010-12-16,0,0.0,0.0,-0.0020851802701388135,0.008928392151715224,0.9924335345160059
2010-12-20,1,0.0004920727396549904,0.0005441767273796192,-0.0020851802701388135,0.008928392151715224,0.9924066504830805
2010-12-22,1,0.0005492769387144335,0.0006202266484226262,-0.002086962250152052,0.010038849735803983,0.9908447951560713
2010-12-27,1,0.0016126662708663962,0.001823205608623664,-0.002086962250152052,0.012567419692080342,0.9891540538486853
2010-12-29,1,0.0013348069990407184,0.0014773077785727032,-0.002086962250152052,0.01615929675724152,0.9876576781131845
2010-12-31,1,0.0012626606002370897,0.0013909535538146995,-0.0028316568796383007,0.01615929675724152,0.9861349143009636
2011-01-04,0,0.0,0.0,0.0008814849441467236,0.012567419692080342,0.986034688214621
2011-01-06,0,0.0,0.0,-0.0031408186737078266,0.011060846962994704,0.9875483588579119
2011-01-10,1,0.0040670130266975,0.004450187884766119,-0.0031408186737078266,0.011060846962994704,0.9891384921274445
2011-01-12,0,0.0,0.0,-0.007484059482278858,0.008608149520475016,0.9885647073163765
2011-01-14,0,0.0,0.0,-0.007484059482278858,0.010081523815160195,0.9881948117388287
2011-01-19,1,0.0004903406513740024,0.0004980444128725857,-0.0013035280056651697,0.011575173966037121,0.9870566995422843
2011-01-21,0,0.0,0.0,-0.0038076192583901794,0.010701961584635773,0.9884274455815106
2011-01-25,0,0.0,0.0,-0.006483853688371313,0.01001419241917515,0.9890427892128093
2011-01-27,0,0.0,0.0,-0.006483853688371313,0.008031292314680614,0.9901525069188395
2011-01-31,1,0.0005599606794954823,0.0007368516507990989,-0.007463792991266367,0.006984321193368283,0.9903981287964415
2011-02-02,1,0.0011705231027752281,0.0012651158115318968,-0.007463792991266367,0.006984321193368283,0.9900120135674241
2011-02-04,1,0.0006515348648517777,0.0008133266678498176,-0.008377681805318393,0.006984321193368283,0.989639496574751
2011-02-08,1,0.001169883871966035,0.0012438725642214665,-0.008377681805318393,0.004934256468025279,0.9897620039755601
2011-02-10,1,0.002227327558785271,0.002302845856914159,-0.008455347261318545,0.004934256468025279,0.9885240932979438
2011-02-14,0,0.0,0.0,-0.008455347261318545,0.002282510793532281,0.9895214335481869
2011-02-16,0,0.0,0.0,-0.010095309929272591,0.001200278937132918,0.9906904566445636
2011-02-18,0,0.0,0.0,-0.010095309929272591,0.002282510793532281,0.9897314387391092
2011-02-23,0,0.0,0.0,-0.010084435207335159,0.003431330146459596,0.9909530096183073
2011-02-25,0,0.0,0.0,-0.010084435207335159,0.0032564467615704053,0.9911989626030755
2011-03-01,0,0.0,0.0,-0.004178907912766666,0.003431330146459596,0.9922797689176465
2011-03-03,0,-0.00031102326023777003,8.362902214451343e-05,-0.004178907912766666,0.0032564467615704053,0.9923635563637124
2011-03-07,-1,-0.0010604660262006145,-0.0005904728404009705,-0.0037065759103036243,0.007226191640096719,0.9920836110356106
2011-03-09,0,0.0,0.0,-0.004008127210537622,0.007226191640096719,0.9915002919998017
2011-03-11,0,0.0,0.0,-0.004395182102610636,0.007226191640096719,0.9923194774497145
2011-03-15,0,0.0,0.0,-0.006706944877697794,0.007226191640096719,0.9913209425461489
2011-03-17,-1,-0.0019004916212086607,-0.0014874416322718832,-0.006226202526290043,0.007754589825588423,0.9914106351267632
2011-03-21,-1,-0.0008838688026977094,-0.0006009824603826042,-0.006706944877697794,0.007041933233181707,0.9914880337156228
2011-03-23,-1,-0.0011810716325512287,-0.000861674784016043,-0.006706944877697794,0.007754589825588423,0.9882111074951502
2011-03-25,-1,-0.001060948677055887,-0.0007580512641889737,-0.00886451836093966,0.007754589825588423,0.9878158777349406
2011-03-29,-1,-0.0006766671547944642,-0.000422451086024121,-0.00886451836093966,0.00910305242425717,0.9871193231989233
2011-03-31,1,0.0010486457853016186,0.0010620958607370633,-0.00886451836093966,0.008890091417234056,0.9876891356667375
2011-04-04,1,0.0009220952406441566,0.0009709973797973001,-0.011559908601559126,0.008337316196489017,0.9877069265457141
2011-04-06,1,0.00040596549455899027,0.0005023199496968199,-0.007830898779048846,0.008337316196489017,0.9884257119317524
2011-04-08,-1,-0.0006514449445021681,-0.0003932809020350727,-0.007199829435766942,0.010882476185722516,0.9880344744424187
2011-04-12,0,0.0,0.0,-0.003924519527845899,0.011759420538590045,0.9884163996578975
2011-04-14,0,0.0,0.0,-0.006355010904103052,0.012590068049634199,0.9874688925957936
2011-04-18,0,0.0,0.0,-0.006355010904103052,0.012590068049634199,0.9881612008784689
2011-04-20,0,0.0,0.0,-0.0022731123825103674,0.012590068049634199,0.9912408209822129
2011-04-25,0,0.0,0.0,-0.004343546378924307,0.012590068049634199,0.9906887954712907
2011-04-27,0,-5.84164641726756e-06,7.592808130233431e-05,-0.004343546378924307,0.010648685412857024,0.9914525716935372
2011-04-29,-1,-0.000334396610893669,-0.0001695997198760922,-0.004343546378924307,0.00984830048402267,0.9917944861193467
2011-05-03,-1,-0.0010802108533100037,-0.0008079565794381147,-0.004343546378924307,0.011174511735643159,0.990122843055483
2011-05-05,-1,-0.0015323791310908014,-0.0011983204902563571,-0.015171610987005205,0.011174511735643159,0.9886686938451071
2011-05-09,-1,-0.0005376045965693675,-0.00034890150983657865,-0.015865525483656072,0.010342882158045238,0.9861387179987082
2011-05-11,-1,-0.0007694562357206338,-0.0005055621025871915,-0.015865525483656072,0.010342882158045238,0.9858157945743545
2011-05-13,-1,-0.0013783504112822812,-0.001032229782622972,-0.01471893233982432,0.005020623153225953,0.986686736518805
2011-05-17,-1,-0.0016729218139951004,-0.0013088413549342231,-0.01471893233982432,0.011193689840339235,0.98339828515862
2011-05-19,-1,-0.0002858479953759045,-0.00014631578161878846,-0.014842212525296258,0.005020623153225953,0.9828003512526987
2011-05-23,-1,-0.0006506132457258982,-0.0004739075523019368,-0.014528720902764677,0.011193689840339235,0.982127935837806
2011-05-25,-1,-0.00047824287185651275,-0.00032508145351725664,-0.014528720902764677,0.006643222368741825,0.9824538371322539
2011-05-27,-1,-0.00017661316016108372,-7.16203153712204e-05,-0.014528720902764677,0.008436885809000906,0.9822492004638081
2011-06-01,1,0.00013446318242446519,0.00014156351791561376,-0.01179248087346427,0.006619331567077764,0.983789914935187
2011-06-03,0,0.0,0.0,-0.00983613271365406,0.01787512443747427,0.9836021755887947
2011-06-07,0,0.0,0.0,-0.00983613271365406,0.014766723796566319,0.9860400714502281
2011-06-09,0,0.0,0.0,-0.00983613271365406,0.010123276571071444,0.9866473027957107
2011-06-13,0,0.0,0.0,-0.011356420105868261,0.010123276571071444,0.985889949685327
2011-06-15,-1,-0.0009369065195842768,-0.0008268591272615107,-0.011356420105868261,0.007940975240531348,0.9889532597182834
2011-06-17,-1,-0.001975091290361271,-0.0017196153853635356,-0.011356420105868261,0.007940975240531348,0.9888073369175823
2011-06-21,-1,-0.0008046700182366169,-0.0007263494241803077,-0.006553749339596661,0.009506796050737966,0.9896723620189583
2011-06-23,-1,-0.0007921359281500805,-0.0006887443066903708,-0.007711939715097292,0.011967606634905308,0.9889286461953907
2011-06-27,-1,-0.0004975204325892166,-0.00046117557470381365,-0.010418001227975614,0.011967606634905308,0.988601636324885
2011-06-29,-1,-0.0004137519431440811,-0.000372613759817297,-0.01278054206831449,0.011967606634905308,0.9874599100385242
2011-07-01,1,0.0008986442926914898,0.0010337984598612917,-0.01278054206831449,0.006485919036637185,0.989058365886918
2011-07-06,1,0.0007557581951373601,0.0008623244435413508,-0.013744987742563336,0.003970387124122223,0.988913184708118
2011-07-08,1,0.0011500692173432082,0.001351628133934264,-0.01750682864695593,0.002224207957098702,0.9845505332802821
2011-07-12,1,0.0007277262163775749,0.0009268746983102844,-0.01771046681817793,0.003970387124122223,0.979243290848037
2011-07-14,1,0.0002891092955134089,0.0003966070117883158,-0.02179875604651338,0.005359885896666831,0.977160176527371
2011-07-18,-1,-0.0005646351586985792,-0.0005195947111340374,-0.013586555442461939,0.01317008637171182,0.9766992231714251
2011-07-20,1,0.0002872104144616808,0.00036208098397663593,-0.013586555442461939,0.009459650241227928,0.9772200643516115
2011-07-22,-1,-6.10579496765505e-05,-4.149039220625878e-05,-0.025484812194425315,0.004303530277148868,0.9753995759193427
2011-07-26,0,0.0,0.0,-0.025484812194425315,0.009459650241227928,0.9750788056413162
2011-07-28,-1,-0.000891261296608894,-0.0007586388374459827,-0.025934272974633098,0.01617133624723379,0.9739682758683683
2011-08-01,-1,-0.0009603376528043873,-0.0008330803099779636,-0.025934272974633098,0.022931759040792338,0.9713591631736835
2011-08-03,-1,-0.002438340764414676,-0.0020829888665945206,-0.007386056789174413,0.022931759040792338,0.9708504248920741
2011-08-05,-1,-0.003834831680951497,-0.003365474942618645,-0.008107860945560543,0.022931759040792338,0.9739802333457206
2011-08-09,-1,-0.004245268196722618,-0.0036766989841923803,-0.0010848186261958642,0.022931759040792338,0.9783148670110315
2011-08-11,0,0.0,0.0,-0.004268935115949994,0.022072935596894515,0.982658951007701
2011-08-15,-1,-0.0015749054722135937,-0.001397293485490781,-0.004268935115949994,0.020550892143712824,0.9834627511779775
2011-08-17,0,0.0,0.0,-0.004268935115949994,0.022072935596894515,0.9827928322681536
2011-08-19,0,0.0,0.0,-0.004268935115949994,0.022072935596894515,0.9839831768482951
2011-08-23,0,0.0,0.0,-0.009495032801479982,0.020550892143712824,0.982822438522819
2011-08-25,0,0.0,0.0,-0.009495032801479982,0.018821974904451054,0.9832146869912726
2011-08-29,0,0.0,0.0,-0.009495032801479982,0.013994341164005688,0.984308966034993
2011-08-31,-1,-0.0004955874888487912,-0.0004037926969289106,-0.0124800438554014,0.01340975914500455,0.983493688341962
2011-09-02,-1,-0.002747251791516697,-0.002469823657865481,-0.020313625668696166,0.01340975914500455,0.9809574331587778
2011-09-07,0,0.0,0.0,-0.020313625668696166,0.01340975914500455,0.9805802351464824
2011-09-09,-1,-0.000314372609023547,-0.00028831020411425833,-0.020313625668696166,0.018448227018986366,0.9792339565279566
2011-09-13,-1,-0.0008468935144236243,-0.0007240974477910087,-0.020313625668696166,0.01992975106056802,0.9774014426396975
2011-09-15,0,0.0,0.0,-0.020313625668696166,0.018448227018986366,0.9784309776443492
2011-09-19,1,0.0017220491957023513,0.0019896423803914425,-0.03336498642394222,0.015609398424627777,0.9773642991607592
2011-09-21,1,0.00033054725043645764,0.000428531647068897,-0.014948488727932738,0.020361965966829654,0.9780856978999822
2011-09-23,-1,-0.000246240788506636,-0.0002459053505072733,-0.008789020554673652,0.02380813679151597,0.9785979475937404
2011-09-27,1,0.0006574979695699131,0.00077313567849917,-0.012764424414645016,0.019782181988258582,0.9785479537650226
2011-09-29,1,9.02711483974956e-05,0.00016908055909159862,-0.008789020554673652,0.02380813679151597,0.9785084050126718
2011-10-03,-1,-0.0018172323866248558,-0.0016710130240133133,-0.008789020554673652,0.02380813679151597,0.9803199602416394
2011-10-05,1,8.128601012594318e-05,0.0001566802919155728,-0.009862054431824576,0.017632066680720978,0.9811497606595038
2011-10-07,1,0.00011068164166125631,0.0001690063204465833,-0.009862054431824576,0.015996498632097674,0.98220313254283
2011-10-11,0,0.0,0.0,-0.009592408276561127,0.015195970566455498,0.9839211234995453
2011-10-13,0,0.0,0.0,-0.013722231269349872,0.015195970566455498,0.9819115873162227
2011-10-17,1,0.0003194915772557763,0.00044383595686971997,-0.013722231269349872,0.015996498632097674,0.9829981556654375
2011-10-19,1,0.0007878617959930687,0.0009733411271409656,-0.013722231269349872,0.015195970566455498,0.984209797101708
2011-10-21,1,0.0018113556275018317,0.0021131554130312227,-0.01815946515440967,0.014819373746010854,0.9841991050561664
2011-10-25,1,0.000749917815394209,0.0008554251160588931,-0.013722231269349872,0.013522444621435061,0.9847823863443104
2011-10-27,0,0.0,0.0,-0.01815946515440967,0.010939471708703252,0.9852086939185019
2011-10-31,0,0.0,0.0,-0.013215739352215341,0.013522444621435061,0.9852742510131367
2011-11-02,0,0.0,0.0,-0.013215739352215341,0.013522444621435061,0.9846139409827181
2011-11-04,0,0.0,0.0,-0.013215739352215341,0.011817196168969568,0.9848495645328648
2011-11-08,0,0.0,0.0,-0.013215739352215341,0.011817196168969568,0.9845655250990025
2011-11-10,0,0.0,0.0,-0.013215739352215341,0.00894904079923552,0.9852507009131148
2011-11-14,0,0.0,0.0,-0.016562135189302756,0.007283198849111827,0.9853583981551141
2011-11-16,0,0.0,0.0,-0.016562135189302756,0.00894904079923552,0.9850648693250541
2011-11-18,-1,-0.0008589075683509912,-0.0006903699480858577,-0.012617870426217648,0.007283198849111827,0.9865456237918784
2011-11-22,0,0.0,0.0,-0.012220105623584821,0.00894904079923552,0.9857970939348651
2011-11-25,0,0.0,0.0,-0.0108613821076066,0.012203643601544691,0.9861921707448106
2011-11-29,1,0.0029510152481077518,0.0034763289403676005,-0.011188915348227201,0.00894904079923552,0.9866467716608855
2011-12-01,1,0.0016827073513982689,0.002083079837291385,-0.0108613821076066,0.0074667865919595,0.9889966064376137
2011-12-05,1,0.000874991550359567,0.0010382610214721992,-0.0108613821076066,0.006931352537694632,0.9889459942913464
2011-12-07,1,0.00045845752538957885,0.0005590656415723812,-0.008143551533647733,0.008602545674132621,0.9886733801405442
2011-12-09,1,0.0006253940224937534,0.0007666468090567833,-0.005253039799558937,0.013244027180103687,0.9891942172620628
2011-12-13,-1,-0.00011280400710197657,-5.9580655571156736e-05,-0.0038534639428562424,0.013244027180103687,0.9903688252313294
2011-12-15,1,1.3487564630358298e-05,5.84679150058009e-05,-0.00421780343380322,0.010701396176213846,0.9904663825330381
2011-12-19,0,0.0,0.0,-0.003235013312500249,0.013244027180103687,0.9900567078061774
2011-12-21,0,0.0,0.0,-0.003235013312500249,0.010701396176213846,0.9906839580794369
2011-12-23,1,0.00045717319708943154,0.0005304356967196762,-0.004684579503740205,0.010701396176213846,0.9886238526312774
2011-12-28,0,0.0,0.0,-0.003235013312500249,0.010701396176213846,0.9887882385052725
2011-12-30,0,0.0,0.0,-0.004498353761430006,0.010701396176213846,0.9890392603524584
2012-01-04,0,0.0,0.0,-0.003235013312500249,0.010701396176213846,0.989122931235863
2012-01-06,0,0.0,0.0,-0.003235013312500249,0.010537745770687085,0.9894112949844648
2012-01-10,0,-9.834256707690867e-05,4.891844670988074e-05,-0.003235013312500249,0.007749869828556127,0.9904556984743591
2012-01-12,-1,-0.00033777437726810174,-0.0001426448640169238,-0.003971125472848265,0.007749869828556127,0.9901118609194263
2012-01-17,-1,-0.000613545338790159,-0.0004249110539044607,-0.0018809117600668112,0.00970352678566627,0.9897740384025525
2012-01-19,1,3.99370273830607e-05,0.0001569606289584742,-0.0018809117600668112,0.007749869828556127,0.990587905301461
2012-01-23,0,0.0,0.0,-0.0021203643717140155,0.006441668547727111,0.9910318707960951
2012-01-25,0,0.0,0.0,-0.0021203643717140155,0.006441668547727111,0.9931746981619017
2012-01-27,0,0.0,0.0,-0.003805396168367941,0.006190891477987628,0.9934050325714477
2012-01-31,0,0.0,0.0,-0.0021203643717140155,0.007662910176231882,0.9926370702434368
2012-02-02,0,0.0,0.0,-0.0021203643717140155,0.007372693022213124,0.9924914638808908
2012-02-06,0,0.0,0.0,-0.005946399959953768,0.006344929496387526,0.9927666069577452
2012-02-08,0,0.0,0.0,-0.005946399959953768,0.009506724804074338,0.9915123540068714
2012-02-10,0,0.0,0.0,-0.005203929882936768,0.009506724804074338,0.9917819805084389
2012-02-14,0,0.0,0.0,-0.006340101673863424,0.007372693022213124,0.9918028490500647
2012-02-16,0,0.0,0.0,-0.006340101673863424,0.007372693022213124,0.9918227165785883
2012-02-21,0,0.0,0.0,-0.006340101673863424,0.007372693022213124,0.9920068923522738
2012-02-23,1,0.0017027328867549553,0.0019113128789183856,-0.006340101673863424,0.005420114994159149,0.9924897020553527
2012-02-27,-1,-0.0007314090858845104,-0.00038810629474304273,-0.004671198941866963,0.007372693022213124,0.9921893179696109
2012-02-29,1,0.0013010118236028352,0.0013220425159157082,-0.004671198941866963,0.004788020563562045,0.9929963842787207
2012-03-02,1,0.001506295232728415,0.0015501037714478845,-0.004671198941866963,0.003200017731522617,0.9931148006278759
2012-03-06,1,0.0017803755575320568,0.0019469123292195811,-0.003509328298497517,0.003721970427116341,0.9939045317140444
2012-03-08,1,0.002603089480760352,0.002886349848646508,-0.004070750231151401,0.002185781022337501,0.9943219818061502
2012-03-12,1,0.002068631231183239,0.0021612994983295783,-0.004707117560636838,0.002185781022337501,0.9931359779798378
2012-03-14,1,0.002087738974146237,0.002230876400375359,-0.0036065409070716536,0.002866742007696984,0.9928727286951332
2012-03-16,1,0.0023130126125664096,0.0025388892705240085,-0.004707117560636838,0.002866742007696984,0.9923782932142615
2012-03-20,1,0.0019901064086288948,0.0021830898587260543,-0.006712310640029008,0.003721970427116341,0.9913742997083066
2012-03-22,1,0.0016135421174215568,0.001751036224521327,-0.003728129276691712,0.0062876396662901995,0.9917267618850159
2012-03-26,1,0.001558287629781684,0.001645629490339904,-0.0066837027330047625,0.004832374653686121,0.9916060873317866
2012-03-28,1,0.0012136069102725243,0.0012572518817700242,-0.0066837027330047625,0.006929532234658923,0.9914783145314849
2012-03-30,1,0.001310941757671387,0.001395696124953074,-0.00953950062326552,0.006929532234658923,0.9909115432062479
2012-04-03,1,0.001833828665415805,0.001986894567378842,-0.00953950062326552,0.006929532234658923,0.9906077150379744
2012-04-05,0,0.0,0.0,-0.009957778818455228,0.006929532234658923,0.9903137710585458
2012-04-10,0,0.0,0.0,-0.00953950062326552,0.01041759826518663,0.9908959178630377
2012-04-12,0,0.0,0.0,-0.00953950062326552,0.004832374653686121,0.9922796995904303
2012-04-16,0,0.0,0.0,-0.009871955097382493,0.004832374653686121,0.9918281047425828
2012-04-18,0,0.0,0.0,-0.010177583502607288,0.0046347916816464425,0.9922204711339894
2012-04-20,0,0.0,0.0,-0.01231121342021016,0.0010173362721940487,0.99147022519218
2012-04-24,-1,-0.0006720139306262501,-0.0005430943019846894,-0.01231121342021016,0.0010173362721940487,0.9914261147414934
2012-04-26,-1,-0.0003870610755933403,-0.00026250270840619705,-0.01231121342021016,0.0008073968157053445,0.9917981727174265
2012-04-30,-1,-0.0005655751003593591,-0.000446093091080862,-0.008947893114325745,0.000810853855361302,0.9916601833556652
2012-05-02,-1,-0.0011310243011095874,-0.0009051641405759866,-0.01231121342021016,0.001813820691768411,0.9907508078183103
2012-05-04,-1,-0.002344396756350074,-0.0019448113028932873,-0.01231121342021016,0.001813820691768411,0.991053546888833
2012-05-08,-1,-0.002805570125154257,-0.0023155014620280428,-0.007872697327042454,0.005208793284287398,0.9910053416990809
2012-05-10,-1,-0.0029352407718105404,-0.0024407170054788242,-0.007872697327042454,0.006924768397306408,0.9894634670786641
2012-05-14,-1,-0.003910531613484676,-0.003277146566777435,-0.005690578910020338,0.006924768397306408,0.989319364747973
2012-05-16,-1,-0.003929349231932922,-0.003300683680294539,-0.005690578910020338,0.009859233834923205,0.9880048118982071
2012-05-18,-1,-0.0047968308168774496,-0.00409604477081838,-0.002810190766961217,0.009859233834923205,0.9883813270566898
2012-05-22,-1,-0.004394638817614618,-0.0037331195429175556,-0.002810190766961217,0.007801707759110372,0.9889967932912089
2012-05-24,-1,-0.004171667903879911,-0.0035591694583920657,-0.005690578910020338,0.007801707759110372,0.9877101822720127
2012-05-29,-1,-0.004093220173070836,-0.003474608045197298,-0.006446723243135996,0.007115834879292882,0.9885058761643543
2012-05-31,-1,-0.0039656005555471375,-0.003416667464874503,-0.004272544537695948,0.007115834879292882,0.9891332605400694
2012-06-04,-1,-0.004138613372921181,-0.003595716072908677,-0.003301312875666564,0.007801707759110372,0.988202711309748
2012-06-06,-1,-0.0035646623785013194,-0.0030865476352668906,-0.004272544537695948,0.007801707759110372,0.987941607839358
2012-06-08,-1,-0.002978868504645855,-0.0025469598115923395,-0.006609290606090975,0.006440989312600834,0.9891741929805854
2012-06-12,-1,-0.002697373410799385,-0.0023304397264698592,-0.006609290606090975,0.007115834879292882,0.9887546624599352
2012-06-14,-1,-0.002491067495468487,-0.002153667234679961,-0.00560274287289591,0.00804118369160693,0.9895426660164326
2012-06-18,-1,-0.0016493021877426219,-0.0014392852035134658,-0.00560274287289591,0.01055328356399073,0.9879906665028075
2012-06-20,-1,-0.0009728083059336365,-0.0008410115116540314,-0.00560274287289591,0.014075350613591397,0.987402301798548
2012-06-22,-1,-0.0017368711628055519,-0.001510610719701532,-0.005556491320001102,0.014075350613591397,0.9887734845762969
2012-06-26,-1,-0.0019809764055908176,-0.0017395486710792755,-0.005556491320001102,0.014075350613591397,0.9885311338095486
2012-06-28,-1,-0.0010761576285502237,-0.0009784129279445553,-0.005556491320001102,0.01527927091925116,0.9881723139111304
2012-07-02,-1,-0.0003095273576114295,-0.00030689282890262353,-0.005556491320001102,0.0140328824878258,0.9898391854803772
2012-07-05,1,8.792564798690026e-05,0.00013820377809809463,-0.005556491320001102,0.01055328356399073,0.991493781257667
2012-07-09,1,8.073827564676871e-05,0.00015992442720499605,-0.002441735612726179,0.01201446068727043,0.9917902515518308
2012-07-11,1,0.0004834545149377294,0.0006243935633181086,-0.002441735612726179,0.010014245219990024,0.9922586820358364
2012-07-13,1,0.0006619802339635412,0.0008415762372349692,-0.0037538427762102847,0.008022675828566245,0.9921178787715946
2012-07-17,1,0.0017622875933136245,0.002065368225919466,-0.0037538427762102847,0.011826508805046435,0.9922765183364163
2012-07-19,1,0.0021464328357526465,0.002489113462114745,-0.0037538427762102847,0.011826508805046435,0.9925883355532398
2012-07-23,1,0.0023152104921526553,0.0027198940964575135,-0.0037613395016459416,0.011826508805046435,0.9925517070234562
2012-07-25,1,0.002314082506811771,0.0027382613707125263,-0.0036937747820301216,0.011826508805046435,0.9928912712716834
2012-07-27,1,0.0026515288921536797,0.0030831473538513133,-0.0036937747820301216,0.01042072265382353,0.9930281444432492
2012-07-31,1,0.003079567416269886,0.0036242385073399232,-0.004758181519051317,0.01042072265382353,0.9927220367555354
2012-08-02,1,0.002505759239060704,0.00294640906702967,-0.004758181519051317,0.01042072265382353,0.9929389304413233
2012-08-06,1,0.002500076447835556,0.002916345110670505,-0.004758181519051317,0.00937202239119551,0.9930354923438238
2012-08-08,1,0.002361091125928378,0.0027534510043484275,-0.00320231187803519,0.010771809115600243,0.9929903661432845
2012-08-10,1,0.0023492308580200646,0.0027605464208744148,-0.00320231187803519,0.010363408973207283,0.9924781138059949
2012-08-14,1,0.0030896859891896573,0.0035437132015348786,-0.0046581926684165775,0.007672158287463134,0.9931128549184423
2012-08-16,1,0.0036008523236943733,0.004142422781665827,-0.0046581926684165775,0.007672158287463134,0.9926340794321127
2012-08-20,1,0.0037425873221996918,0.004305723960452137,-0.0046581926684165775,0.00812603289582808,0.991512504515413
2012-08-22,1,0.003343869125382612,0.003843260138375894,-0.0006209905508929018,0.00937202239119551,0.9913034560039932
2012-08-24,1,0.003960530637451625,0.004515665857325407,-0.0006209905508929018,0.012763640640223173,0.9893373831716764
2012-08-28,1,0.0031343840046586637,0.0035726637329940737,0.0020291443196233834,0.012763640640223173,0.9894514889087531
2012-08-30,1,0.0017369055699973357,0.001946865962966133,0.002699836826190637,0.017433692858863516,0.9883909990305101
2012-09-04,1,0.003139553311162018,0.0035660588452979354,0.002207930486723638,0.017433692858863516,0.9887330713408489
2012-09-06,1,0.003365689304938335,0.0037991574551832375,0.0011625012637811267,0.01288127380060819,0.9892715680055796
2012-09-10,1,0.0028781601645586174,0.0032532552661125413,0.0011625012637811267,0.010287769857990452,0.9902043764883675
2012-09-12,1,0.0031309266353868733,0.003560350558269163,0.0004202954300908334,0.010287769857990452,0.9900841255310002
2012-09-14,1,0.0034936992710637074,0.003957112556792318,-0.0021702433949973305,0.007707992895669213,0.9903962027389329
2012-09-18,1,0.0029925481218284694,0.003403379483024732,0.0004202954300908334,0.013184923093793405,0.9911738936901945
2012-09-20,1,0.003769783810728215,0.004234279658909833,-0.0007569543408165657,0.008673710640936864,0.9915777107068743
2012-09-24,1,0.005157217275971206,0.005786204860786919,-0.004441106417447028,0.006025564998669368,0.9926755189370301
2012-09-26,1,0.004913227691635144,0.005451559319154311,-0.009186527157312777,0.0037095637666567684,0.9911111257120052
2012-09-28,1,0.0055756196082561976,0.006197296652334005,-0.009186527157312777,0.0031712401691501397,0.9903124369490779
2012-10-02,1,0.004778258540219378,0.005273380200855552,-0.008763614653802087,0.003517605200986313,0.9905533425612383
2012-10-04,1,0.0043767391671051484,0.004774457164908917,-0.009186527157312777,0.002236356707172103,0.9898637176635995
2012-10-08,1,0.0037591134117135752,0.004054124121284929,-0.009373856566298244,0.004982597599855452,0.9896984145159997
2012-10-10,1,0.002738808291691407,0.0028350370931913933,-0.010537488113676899,0.007984921642673126,0.9898364967438825
2012-10-12,1,0.00263156776473795,0.002728456171811438,-0.011034624916143486,0.007984921642673126,0.9896987880962563
2012-10-16,1,0.0034735415155416702,0.003681690446946887,-0.011837229018007957,0.0017535062441699032,0.9889014197951491
2012-10-18,1,0.003125374082955152,0.0032843252197608907,-0.011837229018007957,0.007984921642673126,0.9874082700642943
2012-10-22,1,0.0025706646525556617,0.0026032174927976383,-0.011837229018007957,0.00933180557195839,0.987966363304745
2012-10-24,1,0.0014792022454371463,0.001631753669228323,-0.009488281926668379,0.011128878822353151,0.9890213707764732
2012-10-26,1,0.0016474670216484408,0.0017354335190628064,-0.010701471775503997,0.00933180557195839,0.9891631415107238
2012-11-01,1,0.0029611658417591545,0.003079586943979456,-0.010701471775503997,0.007559314014111975,0.9899643471744383
2012-11-05,1,0.0022053242172760125,0.00221158234467805,-0.009110120499937134,0.007559314014111975,0.9904649862256177
2012-11-07,1,0.0018427637567379003,0.0018783215337531722,-0.009110120499937134,0.006924445118972647,0.99101833768312
2012-11-09,1,0.0014529129405915539,0.001543527220154215,-0.007939303978234976,0.007230763743867819,0.9916083980419509
2012-11-13,1,0.0009453264286009868,0.0010987414020006822,-0.005199643203586534,0.007644048303005565,0.9916456038985271
2012-11-15,-1,-0.00034510423316111015,-6.246835927868274e-07,-0.003150555398843176,0.007644048303005565,0.9918517291195342
2012-11-19,1,0.001039460269482464,0.0012506773115954603,-0.003150555398843176,0.007644048303005565,0.9933252660087342
2012-11-21,1,0.0012140919418638422,0.0013823918778887645,-0.003150555398843176,0.007644048303005565,0.9932779236766888
2012-11-26,1,0.0020936654654338262,0.002137593876070342,-0.003150555398843176,0.007000237443559371,0.9939030261277263
2012-11-28,1,0.0019236154240668537,0.001978165271961541,-0.0023216929777362724,0.0076033880799085355,0.9943728255064027
2012-11-30,1,0.0010042851222840255,0.0012028843000139043,9.85751924571489e-05,0.008213646534639822,0.9939556109894527
2012-12-04,1,0.0007728634756036735,0.00098325959545076,0.0002075378776343202,0.008658785234642388,0.9934886951178742
2012-12-06,1,0.0007605600429575968,0.0009284486486618968,0.0005917172692660049,0.008658785234642388,0.9941109140262756
2012-12-10,1,0.0016125250471302197,0.0016452417769903926,-0.0011551580453072695,0.008536804565351302,0.9945322969515291
2012-12-12,1,0.0021086157332166258,0.0021807727321590392,-0.002416658905379495,0.00961670855246393,0.9941852022094413
2012-12-14,1,0.0012179891519507973,0.0012843772343725717,0.00038172422980268736,0.00961670855246393,0.9946488379577683
2012-12-18,1,0.0017543926808018637,0.0017884070153928364,-0.0011551580453072695,0.008532954307247003,0.994341487961043
2012-12-20,0,0.0,0.0,-0.0026930605997182826,0.008026215319357603,0.9928593900007384
2012-12-24,0,0.0,0.0,-0.0026930605997182826,0.00970374365902751,0.9918207508404528
2012-12-27,0,0.0,0.0,-0.004127713218849954,0.00970374365902751,0.9918295175838057
2012-12-31,1,0.0013203009567052354,0.0013829296038824924,-0.004289934285978308,0.008386183315061812,0.9914569552520366
2013-01-03,1,0.0011139683686954911,0.0012218276685119706,-0.0047061423436535335,0.008386183315061812,0.991184321193048
2013-01-07,1,0.0010631529782576875,0.0011635531466821826,-0.0047061423436535335,0.008386183315061812,0.9911589378761834
2013-01-09,0,0.0,0.0,-0.0047061423436535335,0.008500769639558196,0.9907487659139869
2013-01-11,0,0.0,0.0,-0.0033817948795818306,0.008359433691680247,0.9911709281106243
2013-01-15,0,0.0,0.0,-0.0037116544649682414,0.008359433691680247,0.9911843121193366
2013-01-17,0,0.0,0.0,-0.003150980429515758,0.0072356670494978445,0.9922325399254626
2013-01-22,0,0.0,0.0,-0.0037116544649682414,0.0072356670494978445,0.9921118686194441
2013-01-24,0,0.0,0.0,-0.0037116544649682414,0.0072356670494978445,0.9902238225586235
2013-01-28,1,0.0016718621382264048,0.001753395989498432,-0.0037116544649682414,0.008359433691680247,0.9897048942433068
2013-01-30,0,0.0,0.0,-0.0010497171108923898,0.008359433691680247,0.9900846296796002
2013-02-01,1,0.0009492914653141187,0.0010296725107256743,-0.0010497171108923898,0.008359433691680247,0.9904628637066096
2013-02-05,1,0.0004028547230776195,0.0005947395315628736,-0.0010497171108923898,0.008359433691680247,0.9900650215144761
2013-02-07,0,0.0,0.0,-0.0010497171108923898,0.009174355574584426,0.989705378683125
2013-02-11,0,0.0,0.0,-0.0035680250093031024,0.007591868391623627,0.9896712434239221
2013-02-13,0,0.0,0.0,-0.005226341165664064,0.009089890853492771,0.9889677356604973
2013-02-15,0,0.0,0.0,-0.005226341165664064,0.009089890853492771,0.9889833063422211
2013-02-20,0,0.0,0.0,-0.0009908155890234259,0.009089890853492771,0.9903861937962563
2013-02-22,0,0.0,0.0,-0.0033913204436962106,0.005892362641929025,0.9929090792663124
2013-02-26,0,0.0,0.0,-0.0009908155890234259,0.005892362641929025,0.9932997168991929
2013-02-28,0,0.0,0.0,-0.0004624632883041616,0.00887389505358201,0.9925519269014156
2013-03-04,0,0.0,0.0,-0.0004624632883041616,0.00887389505358201,0.9928401366235666
2013-03-06,1,0.0018297725290520087,0.001954462689125097,-0.0076541297425836655,0.00887389505358201,0.9928526977314008
2013-03-08,0,0.0,0.0,-0.0076541297425836655,0.00887389505358201,0.9923440596745643
2013-03-12,1,0.0029496638531739897,0.0031312820049711415,-0.004272559411543178,0.00887389505358201,0.9932814578966123
2013-03-14,1,0.003681432185448678,0.0040356140488123585,-0.0018130487040193925,0.007087901692211322,0.9941893207208145
2013-03-18,1,0.0034692476523728224,0.0037579041237872546,-0.002840374188136258,0.008956554653613084,0.9899310861300676
2013-03-20,1,0.0028783775882389954,0.00307910040748183,-0.0076541297425836655,0.008956554653613084,0.9885974942999696
2013-03-22,0,0.0,0.0,-0.005122777133436458,0.00936814364686493,0.9885082485978127
2013-03-26,1,0.0029591944327937896,0.0031210355661341867,-0.005122777133436458,0.009837703855535755,0.9873543716443237
2013-03-28,1,0.003900308899599739,0.0042434786972828965,-0.007411905566642278,0.009529872739490748,0.9873091320910107
2013-04-02,0,0.0,0.0,-0.005180146836184962,0.009529872739490748,0.9864687334701451
2013-04-04,0,0.0,0.0,-0.0020964546113171525,0.009529872739490748,0.9865049328773218
2013-04-08,0,0.0,0.0,-0.0020964546113171525,0.010399893561558727,0.9859652876065187
2013-04-10,0,0.0,0.0,-0.0020964546113171525,0.012296410960352156,0.9847759137654902
2013-04-12,0,0.0,0.0,-0.005180146836184962,0.012296410960352156,0.9840668061446043
2013-04-16,-1,-0.0001707404743924478,-4.0120041376971336e-05,-0.003215060537492599,0.011920427898302154,0.9875132056225785
2013-04-18,0,0.0,0.0,0.0005084904086785601,0.011920427898302154,0.9882435173776131
2013-04-22,0,0.0,0.0,-0.0004056308165774738,0.011920427898302154,0.9884302092895707
2013-04-24,0,0.0,0.0,-0.00346819183469886,0.009818960226500747,0.9901625132153495
2013-04-26,1,0.0031695668809201914,0.0033040399374739023,-0.00346819183469886,0.009818960226500747,0.9909224736345248
2013-04-30,1,0.003041560510642639,0.003181463159960214,-0.00600530458253048,0.009545750967980635,0.9908466244144277
2013-05-02,1,0.0024462292540983663,0.00247574935744151,-0.00600530458253048,0.009545750967980635,0.9909463533829648
2013-05-06,1,0.003129041550627397,0.0032587076133170027,-0.00600530458253048,0.008210291841047993,0.9913224837030163
2013-05-08,1,0.004117810810430722,0.00438956903601718,-0.008710168176548457,0.004863132203194938,0.9906069069652688
2013-05-10,0,0.0,0.0,-0.00600530458253048,0.004863132203194938,0.9924810546405102
2013-05-14,0,0.0,0.0,-0.008710168176548457,0.0023238660157043527,0.9924804736743499
2013-05-16,0,0.0,0.0,-0.008710168176548457,0.002789402425687419,0.9918904207265122
2013-05-20,0,0.0,0.0,-0.008710168176548457,0.002789402425687419,0.9918341160066568
2013-05-22,0,0.0,0.0,-0.008710168176548457,0.0021918853598680977,0.9917294535495079
2013-05-24,0,0.0,0.0,-0.011755299010740157,0.0021918853598680977,0.9912558107658244
2013-05-29,0,0.0,0.0,-0.007093197765534247,0.0027770810955221018,0.9920057091031284
2013-05-31,1,0.0024917429021303187,0.0025012051569222407,-0.00325949573161893,0.0034813944202089697,0.992238591566151
2013-06-04,1,0.0013540888709621273,0.0014797307732215934,-0.0032402086885768254,0.005528733273903597,0.992173701048768
2013-06-06,0,0.0,0.0,-0.0016653416535502919,0.005528733273903597,0.9928169633149294
2013-06-10,1,0.0021451316792445245,0.0021781514987320874,-0.0016653416535502919,0.006042275642743929,0.9928144785240609
2013-06-12,0,0.0,0.0,-0.0014112135957053246,0.008948322044526346,0.9922049714462217
2013-06-14,0,0.0,0.0,-0.0014112135957053246,0.008948322044526346,0.9926581059643527
2013-06-18,0,0.0,0.0,-0.0016653416535502919,0.006427865981349298,0.9921567671354939
2013-06-20,1,0.00026462806898931875,0.0004644050192489223,0.0002212772789702412,0.010384013480999169,0.992116833580003
2013-06-24,-1,-0.0010304324400614935,-0.0006373283293175218,0.0002212772789702412,0.010384013480999169,0.9917706078537315
2013-06-26,-1,-0.0003567700142413212,-6.087770314146062e-05,-0.0014112135957053246,0.010282290221763338,0.9922413947420794
2013-06-28,0,0.0,0.0,-0.001802554412743879,0.010282290221763338,0.9920671701372735
2013-07-02,0,0.0,0.0,-0.001802554412743879,0.008876182982723281,0.9922089018277257
2013-07-05,0,0.0,0.0,-0.0001690670734220865,0.009053380144144165,0.9915332597312204
2013-07-09,0,0.0,0.0,-0.0032637598590840914,0.009053380144144165,0.991245494908387
2013-07-11,0,0.0,0.0,-0.0032637598590840914,0.009053380144144165,0.9921227514575282
2013-07-15,0,0.0,0.0,-0.0035692514109856195,0.007680637788721018,0.9923077616801959
2013-07-17,0,0.0,0.0,-0.0032637598590840914,0.007680637788721018,0.9931550624159904
2013-07-19,0,0.0,0.0,-0.004233434972973606,0.004818972348937587,0.9918052778049739
2013-07-23,1,0.0019450094476149997,0.0019656903345651434,-0.0035692514109856195,0.009053380144144165,0.9908454714637221
2013-07-25,1,0.0017185740462974544,0.0017528979547564373,-0.0038612620355363207,0.007141770763202798,0.9909844287117202
2013-07-29,1,0.0016445387426817794,0.001654910077656677,-0.0038612620355363207,0.008614661414275226,0.9908176378550242
2013-07-31,1,0.0017381985536995318,0.0017396736698700596,-0.00517419988075735,0.007289885887294468,0.9901429823567125
2013-08-02,1,0.002110944386447381,0.002142884623037959,-0.006407243816259019,0.004013610864453534,0.990611027700448
2013-08-06,1,0.0013074256327654985,0.0014105904844602234,-0.005440322766220906,0.0057990079213571695,0.9911781559368763
2013-08-08,1,0.0018078264136966657,0.0018329897449996864,-0.005440322766220906,0.0057990079213571695,0.9914032152931618
2013-08-12,1,0.0015510384347037173,0.001657887455354625,-0.005440322766220906,0.007497677706902827,0.9902533389713525
2013-08-14,1,0.001337101146745075,0.0014262446584812503,-0.009508143676529312,0.007497677706902827,0.9891313970051275
2013-08-16,0,-6.810742331800573e-05,0.00012858972512702854,-0.005440322766220906,0.011077816740045397,0.9865016400267977
2013-08-20,1,0.0015929267377663382,0.001735838460323015,-0.006227837340716627,0.007497677706902827,0.9871037481051342
2013-08-22,1,0.0016001172713766539,0.0017370821945995054,-0.008333033294984388,0.007497677706902827,0.9858276222587081
2013-08-26,1,0.0013737730791403544,0.0014395139935842688,-0.008474321277874616,0.006587460919088208,0.985589981846928
2013-08-28,1,0.00010628735024715153,0.00027327066363456683,-0.007990163010882817,0.009050044622676195,0.9859938894045297
2013-08-30,-1,-0.0006084366216967414,-0.0004955380301309902,-0.00839813175939428,0.009050044622676195,0.9847755445054255
2013-09-04,-1,-0.0006842008750152984,-0.000555370974411602,-0.009274363574738318,0.015847981717922895,0.9835168895522552
2013-09-06,-1,-0.0012166919119359861,-0.0009773428341405363,-0.009274363574738318,0.015847981717922895,0.9836371298248887
2013-09-10,-1,-0.0011635334160600107,-0.0008865319742843847,-0.009274363574738318,0.0043818997002338335,0.9850011571430012
2013-09-12,-1,-0.0007569159677396617,-0.00043481592165418783,-0.007990163010882817,0.00812504728398544,0.9852156836533094
2013-09-16,1,0.0009174167646933927,0.0009396435284499459,-0.007990163010882817,0.009716817008362967,0.9887026763819579
2013-09-18,1,0.0008807929343128902,0.000930237042656357,-0.00839813175939428,0.00911287169885818,0.9890307643534567
2013-09-20,1,0.0002048923245439396,0.0002108081687259109,-0.007573735838393665,0.01131574421142825,0.9887527778116074
2013-09-24,-1,-0.00047656287223081387,-0.0003695426961937249,-0.0056494172026721875,0.01131574421142825,0.9887241811999522
2013-09-26,1,5.792968676485041e-05,9.012836885287275e-05,-0.0078404166040149,0.010823479634678921,0.9884294948672753
2013-09-30,-1,-0.0007254166012674295,-0.0006409527235535082,-0.004812660646079721,0.010823479634678921,0.9895996655971717
2013-10-02,-1,-0.0013886475320054564,-0.0011960251707727916,-0.004812660646079721,0.010428947235039197,0.9909415013567439
2013-10-04,-1,-0.0009934593549417983,-0.0008781931704814733,-0.003520841167658427,0.010428947235039197,0.9906783822417573
2013-10-08,-1,-0.0013365461084955197,-0.0011901157162812048,-0.0015771718980190595,0.010823479634678921,0.9869538435175336
2013-10-10,-1,-0.0011878249021773446,-0.0010405087592556352,-0.004187987348588015,0.010428947235039197,0.9857240555984569
2013-10-14,1,0.0006255249660847189,0.000645813703767829,-0.004187987348588015,0.010428947235039197,0.9859067763696716
2013-10-16,0,-1.5230073361864626e-05,3.9456335300839634e-05,-0.004187987348588015,0.010540627967794656,0.9856894306832676
2013-10-18,1,0.0019899322451839424,0.0020976306743710187,-0.002341654833188673,0.009764777847411575,0.9882080413202088
2013-10-22,1,0.001891459887533293,0.0019804883607052377,-0.004039721775560697,0.009970742469128454,0.9879161400646503
2013-10-24,1,0.00041502649410354045,0.00044830854340515883,-0.003737063696963278,0.01022125675968764,0.9869834675982003
2013-10-28,1,0.0007332980862008115,0.0007536135897299328,-0.006487509346689254,0.009110070410977075,0.985878017735628
2013-10-30,1,0.0004913959646583864,0.0005016147158723914,-0.004883239409336268,0.01232555742743774,0.9854218550406019
2013-11-01,1,0.0002563729105469612,0.0003385597275580094,-0.005322419266928245,0.01232555742743774,0.9856974203339376
2013-11-05,-1,-0.0014043130521721762,-0.001162935645155723,-0.005322419266928245,0.01232555742743774,0.9879640820077064
2013-11-07,1,0.0001651832782650769,0.00030193574064354256,-0.005322419266928245,0.013061948192343862,0.9884948075861126
2013-11-11,1,0.00061361990037899,0.0007320440980398607,-0.007275853750903935,0.013061948192343862,0.987754330791806
2013-11-13,1,0.00015849892563800318,0.0003691043501185999,-0.008445122886629849,0.013061948192343862,0.9880774974444426
2013-11-15,1,0.0005248053665359367,0.0006697754577492782,-0.008445122886629849,0.014163502138788028,0.9867257429526605
2013-11-19,1,0.000613867363832303,0.0007498169634737113,-0.013216153113416436,0.015505574113719525,0.985727600707135
2013-11-21,1,0.001402415712967381,0.0014314622565007418,-0.015358660889108424,0.014163502138788028,0.9865267017053926
2013-11-25,1,0.00032396814547549797,0.0004747282216201764,-0.013216153113416436,0.014163502138788028,0.987548366151259
2013-11-27,1,0.0006034658745217435,0.0007160307878639079,-0.013216153113416436,0.012858413677298959,0.988152733330317
2013-12-02,1,0.001310491339404783,0.0013438676327560666,-0.013216153113416436,0.012858413677298959,0.9883143456830237
2013-12-04,1,0.001248237180262937,0.0012630761090153552,-0.006456699853978007,0.010593397740336288,0.9897668443491889
2013-12-06,1,0.0007833701770570942,0.0008513549440889651,-0.005980148275692829,0.010593397740336288,0.989820073612501
2013-12-10,1,0.001505854050845342,0.0015637931143870445,-0.004174706958654079,0.0077381445828536115,0.9917017167410602
2013-12-12,1,0.0004515332205694219,0.000544432752542833,-0.002329291610328371,0.010593397740336288,0.9917514356426745
2013-12-16,1,0.0012968232348415925,0.001308451091496732,-0.002329291610328371,0.0077381445828536115,0.9924813053804861
2013-12-18,1,0.0015401390223784117,0.001580553452473589,-0.002511409645512212,0.004592756895846047,0.9936691820246477
2013-12-20,1,0.0008058871539040192,0.0008515976806260594,-0.001802875973953027,0.009156292811249796,0.9937187335913482
2013-12-24,1,0.0016049774415156444,0.0016909822637627293,-0.004174706958654079,0.005065472971978109,0.9915101064557812
2013-12-27,1,0.001092710150161492,0.0011059213752786096,-0.0046001424073230605,0.009285726562637351,0.9908964489911635
2013-12-31,1,0.0012996954576229283,0.0013252261772231729,-0.0046001424073230605,0.011261685363990984,0.9904269529878866
2014-01-03,1,0.000982861538835506,0.0010055791078965532,-0.005484734331924849,0.011261685363990984,0.988599574222789
2014-01-07,1,0.0012043598421372136,0.0012060864386044027,-0.004347991195275559,0.01065615914287778,0.9894772226143265
2014-01-09,1,0.00019150650773017456,0.0003783029170257435,-0.003064835929304682,0.011349563462737317,0.9881421793328222
2014-01-13,1,0.000984818132687942,0.0010214079137078431,-0.003064835929304682,0.01065615914287778,0.9887942698070763
2014-01-15,1,0.0010272791175065712,0.0010532287297004032,-0.005484734331924849,0.01065615914287778,0.9840708260423149
2014-01-17,1,0.0007796318427597746,0.0008327373565948178,-0.003064835929304682,0.01135116335878657,0.9836786291186854
2014-01-22,1,0.0008429455804821346,0.0009157873345196719,-0.0055627086340019885,0.01135116335878657,0.9840456984727345
2014-01-24,-1,-0.0005239696436489135,-0.00027821178918779356,-0.0017355575744758388,0.01135116335878657,0.9864744950247604
2014-01-28,0,-0.0001582788449435846,3.671233185349417e-05,-0.0017355575744758388,0.009953893059086043,0.987214661832647
2014-01-30,1,0.00014989953084774152,0.00030377966124734134,-0.0017355575744758388,0.008961486566862811,0.9873617724228272
2014-02-03,0,-1.3854040268311031e-05,0.00013667104358092434,-0.0006901514055257017,0.009224867961042169,0.9885217240587887
2014-02-05,0,-0.00013662918561877868,6.7889415600088e-05,-0.0006901514055257017,0.007947962692459233,0.9886767273206339
2014-02-07,1,0.002194548533854242,0.00242216290725455,-0.0023533884876168485,0.005363645391096352,0.9898262670213724
2014-02-11,1,0.0021906569257098153,0.0024278679865049977,-0.00510878545129969,0.004478960399945308,0.9887655298775337
2014-02-13,1,0.0032955373490919163,0.0035854534302550293,-0.005560481428776551,0.003920871304026735,0.9926186797647879
2014-02-18,1,0.0034502508456048927,0.003737625710893691,-0.005560481428776551,0.003920871304026735,0.9926814216543792
2014-02-20,1,0.003492974532721223,0.0038030631396967717,-0.005560481428776551,0.004478960399945308,0.9920266581611433
2014-02-24,1,0.002731441395917554,0.0028940585170672698,-0.006618281114542226,0.004478960399945308,0.9915280206789641
2014-02-26,1,0.0023754852619712183,0.0024734300226676113,-0.00930822077555104,0.004478960399945308,0.9903217571731731
2014-02-28,1,0.0026118595377615573,0.002728316988403927,-0.00930822077555104,0.0022553953067854485,0.9895852831194466
2014-03-04,1,0.0027724047094126033,0.002878377580659364,-0.00930822077555104,0.006458327982904754,0.9891479525299387
2014-03-06,1,0.00264387687447381,0.0027458258915487284,-0.00930822077555104,0.012610449281711011,0.9886378377638929
2014-03-10,1,0.0027706720920868625,0.002941588931030233,-0.010161596710738359,0.012610449281711011,0.9865672507645954
2014-03-12,1,0.002025645852348352,0.002077519991654812,-0.0084200959922258,0.012610449281711011,0.9875726597151647
2014-03-14,1,0.001960559196122018,0.0020671851823574686,-0.0084200959922258,0.012610449281711011,0.9863418415395374
2014-03-18,1,0.002441560207265541,0.002635085236393953,-0.0084200959922258,0.012610449281711011,0.9861777937431956
2014-03-20,1,0.0024302508006700994,0.002609886799600929,-0.008097968141608727,0.012105732355429616,0.9867682844963421
2014-03-24,1,0.0016502642158398191,0.0017315727943809972,-0.007966859388927364,0.012610449281711011,0.9872046770478233
2014-03-26,1,0.0003044643694861279,0.00040958718723775725,-0.008097968141608727,0.012610449281711011,0.9877298062817713
2014-03-28,1,0.0009553899684989927,0.0009612784545631424,-0.008504591868338223,0.012105732355429616,0.9876536304976451
2014-04-01,1,0.001224619471077448,0.0012524117150497886,-0.008504591868338223,0.006071850742201118,0.987878521988163
2014-04-03,1,0.000713026399741493,0.0008429155441557015,-0.008504591868338223,0.002610897531903158,0.9887309701306671
2014-04-07,-1,-0.0002247794131323631,-3.768727398081862e-05,-0.006511157437650135,0.004321190823450383,0.9908233966301817
2014-04-09,1,0.00017395649548173324,0.00030596909060508426,-0.006511157437650135,0.004321190823450383,0.9908300135622946
2014-04-11,-1,-0.0012175212349059877,-0.0009166193343071729,-0.00566197165988209,0.005722306755270325,0.99160513098455
2014-04-15,-1,-0.00046841819554079315,-0.0002644178543840368,-0.006289203482130931,0.004321190823450383,0.9918966852443313
2014-04-17,-1,-0.0004731678275387713,-0.0003118776626586518,-0.006377433887680807,0.005722306755270325,0.9913324189145107
2014-04-22,-1,-0.0005933012039215155,-0.00036324602210590544,-0.006377433887680807,0.004022313787004286,0.9919441036736997
2014-04-24,-1,-0.0012466706160434273,-0.000956364944586516,-0.00566197165988209,0.004022313787004286,0.9929202888516359
2014-04-28,-1,-0.0018620141612748762,-0.0014966175116239342,-0.004921329421164731,0.005066917499727779,0.9932350231365916
2014-04-30,-1,-0.0013063201032283713,-0.0010028648883562263,-0.004921329421164731,0.005066917499727779,0.9935558688486074
2014-05-02,-1,-0.0017677967430742235,-0.0014020923211822442,-0.004669256614268882,0.0060133383144892975,0.9927191591928306
2014-05-06,-1,-0.0016151766019328237,-0.0012899530047687587,-0.004921329421164731,0.0060133383144892975,0.9928133897322973
2014-05-08,-1,-0.0020166275552700626,-0.0016070287662097553,-0.004921329421164731,0.006715875083167221,0.9922905297259157
2014-05-12,-1,-0.0008336716686661252,-0.0006037678217210708,-0.004780853651560681,0.005498162239405023,0.9936069242294601
2014-05-14,-1,-0.0011888554217189908,-0.0009319752604259221,-0.005043788848736095,0.005498162239405023,0.9933550945525871
2014-05-16,-1,-0.0013842338891021664,-0.0010627449576323476,-0.004780853651560681,0.005044848738067896,0.9941079329271415
2014-05-20,-1,-0.001284343535596473,-0.0010038129161597028,-0.0029027689177009656,0.005498162239405023,0.9940304450970268
2014-05-22,-1,-0.0015360810721858366,-0.0012182250084846928,-0.0013233342934970847,0.009247488845484,0.993233040258803
2014-05-27,-1,-0.0012261861504590484,-0.0009500682343814062,-0.005178463197667731,0.009247488845484,0.9930675532816968
2014-05-29,-1,-0.0008923210493442439,-0.0006425847309966503,-0.005178463197667731,0.008808939681745204,0.9934002057472667
2014-06-02,0,-8.134263875013718e-05,5.851192947672792e-05,-0.005178463197667731,0.006610231136637332,0.9940797975498149
2014-06-04,-1,-0.0005907508951589392,-0.00038553533723756025,-0.005178463197667731,0.008808939681745204,0.9930464817493313
2014-06-06,0,-3.1541834891497627e-05,9.96397477139745e-05,-0.006086762266095461,0.006610231136637332,0.9929742642984043
2014-06-10,1,0.00018363495179767817,0.00026942989935591847,-0.006977862810608124,0.005331637724305397,0.9929835877623843
2014-06-12,-1,-0.0005680688090376143,-0.00037981903374489966,-0.006729316672146097,0.0063519082925385766,0.9928819341122246
2014-06-16,-1,-0.0004121483206927338,-0.00026968089366467016,-0.0097301540557081,0.0063519082925385766,0.9921955354592692
2014-06-18,-1,-0.0009746252832199112,-0.0006940446339442762,-0.011978201543445461,0.004554100753748319,0.9915973125984138
2014-06-20,-1,-0.00026501533996413015,-8.107531657955598e-05,-0.012374862591379113,0.0041169464795054326,0.9905640694554371
2014-06-24,-1,-0.0008532422937059842,-0.000626241504428681,-0.011978201543445461,0.004554100753748319,0.9903741465362822
2014-06-26,-1,-0.0009837306225125037,-0.000710073761919317,-0.012374862591379113,0.004554100753748319,0.9881273070263342
2014-06-30,-1,-0.0007274090457301814,-0.000495827764870295,-0.012374862591379113,0.004457036668916492,0.9879840269300004
2014-07-02,-1,-0.0005237701403482296,-0.00036299516371259563,-0.012374862591379113,0.00444549502957216,0.9882100853990388
2014-07-07,-1,-0.0010043977729080255,-0.0007881091930175934,-0.011978201543445461,0.005539746403948501,0.9882321770368885
2014-07-09,1,9.873183326488083e-05,0.00015133103373129607,-0.012374862591379113,0.005539746403948501,0.9876696308483746
2014-07-11,1,0.00021720928106404693,0.0003258947792536898,-0.011978201543445461,0.005617627226768891,0.988041081814253
2014-07-15,-1,-7.90687050286464e-05,-1.4065107839331603e-05,-0.01157992397544932,0.005617627226768891,0.988254168993753
2014-07-17,-1,-0.0008800004540329593,-0.0008454140090466231,-0.010855833847562689,0.007798394319831087,0.9870777158013703
2014-07-21,-1,-0.0010376877963780866,-0.0009784977730374206,-0.008751148651786892,0.006008462828144671,0.9884723825433415
2014-07-23,-1,-0.00043830625940617554,-0.0003935984022361398,-0.00771801923140394,0.005617627226768891,0.9891533112066169
2014-07-25,1,0.0006956482519297966,0.0009357644884815214,-0.006534548938091348,0.005617627226768891,0.9913579852393878
2014-07-29,1,0.00032502063509944794,0.0005179590658309771,-0.005528876141578097,0.005617627226768891,0.9916236424219614
2014-07-31,0,-7.229727913358536e-05,6.196064203296803e-05,-0.0032369571158451242,0.005212338791551252,0.9925031589799933
2014-08-04,1,0.00021859918024785406,0.000341076585463942,-0.0032369571158451242,0.006008462828144671,0.9923224801609274
2014-08-06,-1,-0.0004683134090614372,-0.00046475064663584827,-0.0025540730231522445,0.009178159472804825,0.9918932243855788
2014-08-08,-1,-0.0001388306780083444,-6.981448855521838e-05,-0.0025540730231522445,0.009178159472804825,0.992190383408134
2014-08-12,-1,-0.00039584991678632214,-0.0003470881217355699,-0.0031653565336613185,0.009178159472804825,0.991746751672268
2014-08-14,-1,-0.0007457520774596987,-0.0007216114906706301,-0.0031653565336613185,0.008676626206579786,0.9924530880042913
2014-08-18,-1,-0.000991957256441789,-0.000879059645893262,-0.005906739188869744,0.008676626206579786,0.9924054076540154
2014-08-20,-1,-0.0011900849404592232,-0.001064096385056087,-0.006160656428305567,0.008676626206579786,0.9918006230982465
2014-08-22,1,1.0876130873299823e-05,9.968443527965282e-05,-0.006160656428305567,0.005634980389830219,0.9922458653725246
2014-08-26,1,0.0005685153908017775,0.0007524075976561674,-0.00775337931061193,0.004053362092222316,0.9919587674128006
2014-08-28,-1,-0.0001870695011517039,-0.0001750478225318644,-0.00948717485377931,0.008676626206579786,0.9902565413801139
2014-09-02,1,0.000760477151198555,0.0008938535671211055,-0.011552418431936835,0.0012634730285002386,0.9902719208134428
2014-09-04,1,0.0006728618637851943,0.0007080643371884005,-0.012940638651627851,-0.0010509377371948126,0.9900763641698944
2014-09-08,1,0.0008722418776711113,0.0009688537385570725,-0.012940638651627851,-0.0010509377371948126,0.9886104234916262
2014-09-10,1,7.809294804973253e-05,9.774122547291663e-05,-0.011939600984092181,0.0005756526164719984,0.9888434988596295
2014-09-12,-1,-2.904674834981776e-05,-2.596736951629978e-05,-0.014429371271741421,-0.0010509377371948126,0.988142570607552
2014-09-16,-1,-0.0011098942989318694,-0.0009414402401083531,-0.015566832094032097,-0.0010509377371948126,0.987676857493946
2014-09-18,-1,-0.002231028143422446,-0.001895158497743037,-0.014429371271741421,0.005045366713556241,0.985863394097525
2014-09-22,-1,-0.002099218403048982,-0.0018086541439145244,-0.014429371271741421,0.013252334238584117,0.9852319209297502
2014-09-24,-1,-0.002726783923132373,-0.002348460853237979,-0.015566832094032097,0.0175742539438363,0.9799553424666507
2014-09-26,-1,-0.00234848748919887,-0.002017951514872481,-0.0145852772030895,0.0175742539438363,0.9799715441258875
2014-09-30,-1,-0.0028456844344505617,-0.0024675627095284876,-0.011921055789287396,0.01926086739728304,0.9791789742614017
2014-10-02,-1,-0.003225369662860967,-0.0028430040019967323,-0.01114881371105609,0.01926086739728304,0.9788053346362572
2014-10-06,-1,-0.002994143842128826,-0.002613848996929161,-0.00918418276134356,0.0175742539438363,0.9796038508140672
2014-10-08,-1,-0.0022312553381378967,-0.0019537053940863257,-0.00918418276134356,0.017402433837439113,0.9801905267781157
2014-10-10,-1,-0.0041920789178862255,-0.0036819040696985782,-0.0037528611950341352,0.017402433837439113,0.9809953427001864
2014-10-14,-1,-0.005483637373610241,-0.0048228088740477106,-0.002111823904541255,0.017402433837439113,0.9805454235774159
2014-10-16,-1,-0.0024605105607674663,-0.002173059860125434,-0.003946798307027704,0.012454226442406539,0.9846423115492844
2014-10-20,-1,-0.0015648388781677525,-0.0014152867220808911,-0.005147385282588115,0.011989053438176196,0.9850012335028462
2014-10-22,1,0.0015082180552011579,0.0017901148576153336,-0.005093827596961288,0.010949698387689527,0.9905348383489646
2014-10-24,1,0.0026228669101525963,0.00303352537371832,-0.005093827596961288,0.009459963404702627,0.9917860289597311
2014-10-28,1,0.0033489112439393964,0.0038888330301407297,-0.003946798307027704,0.009459963404702627,0.9929130992214715
2014-10-30,1,0.003662124451502909,0.004245002546945279,-0.003946798307027704,0.008414710747130922,0.9934495316216716
2014-11-03,1,0.003632087045664368,0.00417760995298397,-0.004739777123284332,0.008414710747130922,0.992541792011707
2014-11-05,1,0.0038460352675095634,0.00441294463044419,-0.004739777123284332,0.010949698387689527,0.9914727405980164
2014-11-07,1,0.0042644618951801876,0.004907207086159727,-0.007156003824179524,0.010949698387689527,0.9914179089585061
2014-11-11,1,0.004483234930385898,0.005193955644418926,-0.007156003824179524,0.008307233457193568,0.9913711010454966
2014-11-13,1,0.004060449979088431,0.004668153042438913,-0.007526321731357999,0.009699805806411603,0.9907514356001418
2014-11-17,1,0.004193962878208923,0.004840343733824677,-0.007156003824179524,0.009699805806411603,0.9913324020757086
2014-11-19,1,0.0044156191357846,0.005103506914068396,-0.004801001802868155,0.01292787219629043,0.9909393721716696
2014-11-21,1,0.0041232384860173206,0.004748864891885168,-0.004801001802868155,0.01292787219629043,0.9911829750512672
2014-11-25,1,0.004356964995166241,0.004971762246057168,-0.007239078526363625,0.01087159034208688,0.9906524945454271
2014-11-28,1,0.004105459359258652,0.0046656182941264245,-0.004801001802868155,0.01087159034208688,0.991115196794045
2014-12-02,1,0.004243270296269084,0.004805085232549335,-0.004801001802868155,0.0062686955533369825,0.9917457131857237
2014-12-04,1,0.005150550440956348,0.005808470012432057,-0.007421080112103905,0.0030983352842338463,0.991791892009928
2014-12-08,1,0.004313296054937239,0.004803755177111197,-0.008688054725407908,0.0030983352842338463,0.9920465655604304
2014-12-10,1,0.0036375695783343468,0.004026008482805595,-0.003744929866988366,0.003689628428936639,0.9922943308647149
2014-12-12,1,0.0034569047062388016,0.003829404589975392,-0.002061645966664167,0.003331119868493668,0.9932125973765852
2014-12-16,1,0.004009205617441157,0.004485981172940917,-0.002061645966664167,0.0030983352842338463,0.9927314690263342
2014-12-18,1,0.004806798830348324,0.005351020352847951,-0.002061645966664167,0.0030983352842338463,0.9925802903677706
2014-12-22,1,0.004517710946222468,0.0049907883560161145,-0.002061645966664167,0.00484869852904761,0.9927663022160387
2014-12-24,1,0.004284769981151813,0.004764253225563485,-0.002061645966664167,0.00795432261825313,0.9914430506218854
2014-12-29,1,0.0024686025566276427,0.002673460158361821,-0.003899915394967577,0.00795432261825313,0.9887127582311138
2014-12-31,1,0.002094626407077709,0.002244508528414791,-0.0034639121836222047,0.00795432261825313,0.9888675736079335
2015-01-05,1,0.0017604784213152546,0.0018389137594719811,-0.0032477017178567068,0.00795432261825313,0.9887581026220638
2015-01-07,1,0.001682686639621784,0.0017797638989649994,-0.002046673577835568,0.00867655002698159,0.9885190484796205
2015-01-09,1,0.0017730988496156687,0.0018790043713081425,-0.002466831524917391,0.00795432261825313,0.9895686748392692
2015-01-13,1,0.0015996592039024611,0.001664807245983107,-0.002466831524917391,0.00867655002698159,0.9888037596110649
2015-01-15,1,0.0015217529604192948,0.0015823696431390409,-0.002466831524917391,0.015327460024325553,0.9868350720169395
2015-01-20,1,0.0022695592839334163,0.0024394739244603465,-0.004381214688027298,0.015375816695252818,0.9870896197375181
2015-01-22,1,0.002546323718517802,0.002747521141994775,-0.006776679247600051,0.015375816695252818,0.9870119673028033
2015-01-26,1,0.0021862123055856096,0.0023553602691907495,-0.006776679247600051,0.009295176019681113,0.988182285325613
2015-01-28,1,0.0019230402196777903,0.0020696023796452244,-0.006776679247600051,0.009295176019681113,0.9905924948847044
2015-01-30,1,0.0014800254746481364,0.0015515995887489648,-0.004381214688027298,0.009295176019681113,0.9910216658269514
2015-02-03,1,0.001228415120860611,0.001241629336568349,-0.007222175776819785,0.009295176019681113,0.9897909925896702
2015-02-05,1,0.0014065900577165378,0.0014131416238228251,-0.010889911651669165,0.0074388090816116925,0.989136990053227
2015-02-09,1,0.0008706972181759195,0.0009480506755162699,-0.010889911651669165,0.0074388090816116925,0.9889311883718764
2015-02-11,1,0.0010394725954043218,0.001115031676995202,-0.010889911651669165,0.0074388090816116925,0.9884809067620297
2015-02-13,1,0.002050158068041843,0.002084575925968935,-0.01420305246895964,0.005557687935258009,0.989468348121584
2015-02-18,1,0.0021103707274392654,0.002142268999301301,-0.01420305246895964,0.005557687935258009,0.9894490203709314
2015-02-20,1,0.0019249334739584489,0.0019303941539409108,-0.01420305246895964,0.005557687935258009,0.9886923275639574
2015-02-24,1,0.0006856899996379723,0.0008701868148553268,-0.01420305246895964,0.003095111238735405,0.9887740844950892
2015-02-26,1,5.04376388558729e-05,0.000336563119691554,-0.014993217010276842,0.003095111238735405,0.9881169355220616
2015-03-02,1,0.0002649468293295839,0.000519022962173032,-0.014993217010276842,0.006515679286030525,0.9873015755310506
2015-03-04,-1,-0.0006365867733048225,-0.00030196339157656754,-0.014228766243693743,0.006515679286030525,0.9879498478557621
2015-03-06,-1,-0.0024790514495394624,-0.0018418281607993816,-0.007929902463767277,0.009734478896499503,0.9889101499743339
2015-03-10,-1,-0.0030754267367046747,-0.0023279466160775293,-0.008575734142895914,0.013243955641288323,0.9879384543490827
2015-03-12,-1,-0.0008688401204272589,-0.000509652063409993,-0.008575734142895914,0.009734478896499503,0.9884926875786021
2015-03-16,-1,-0.0017840617407019455,-0.0013084356880090522,-0.008575734142895914,0.009734478896499503,0.9883038643180606
2015-03-18,0,-0.00010132544852619729,8.374149638466777e-05,-0.008575734142895914,0.007437621671168526,0.9886402105612528
2015-03-20,1,0.0007710720857667384,0.0008048616282444605,-0.008575734142895914,0.0062650226587446485,0.9894972872094071
2015-03-24,-1,-0.00024035821604601954,-9.31878408246084e-05,-0.008575734142895914,0.007437621671168526,0.9849545440050393
2015-03-26,-1,-0.0002652715229811215,-0.0001309733111058635,-0.008541426591942153,0.0062650226587446485,0.986195416870726
2015-03-30,-1,-0.00014475644614647215,-2.2505440855304765e-05,-0.009251243560157892,0.00404135776900634,0.9859477925939615
2015-04-01,-1,-0.0006456888289998521,-0.0004761739870865135,-0.009089194179209356,0.0062650226587446485,0.9867152484320212
2015-04-06,-1,-0.00030834456007705234,-0.00018568045187877173,-0.009089194179209356,0.0062650226587446485,0.9869086868109348
2015-04-08,1,1.0796040429217682e-06,9.870870050792709e-05,-0.009148320907296607,0.0062650226587446485,0.9862588207366734
2015-04-10,-1,-0.00027088912846422674,-0.00014097785874467907,-0.009148320907296607,0.007693552984566705,0.9859771691904147
2015-04-14,-1,-0.0005953769492692219,-0.0004315987379303002,-0.009148320907296607,0.007693552984566705,0.9864285367611205
2015-04-16,-1,-0.000467083213004712,-0.0003183042326628682,-0.009148320907296607,0.009972171013067743,0.9856464196253809
2015-04-20,-1,-0.0007310780756270031,-0.0005451315393543948,-0.009148320907296607,0.009972171013067743,0.9858282715744904
2015-04-22,-1,-0.0010427349671947542,-0.0008414685852702494,-0.005763953257906402,0.009680157644864932,0.9912345714221833
2015-04-24,-1,-0.0014549050898601708,-0.0012059704986620017,-0.004733141520882751,0.009680157644864932,0.9913218009122611
2015-04-28,-1,-0.0016860455770202243,-0.001428219297065567,-0.0042774517093585995,0.009680157644864932,0.9915537644329698
2015-04-30,-1,-0.0009243364970016591,-0.000762663335990006,-0.004733141520882751,0.008236122709046478,0.9915121211919588
2015-05-04,-1,-0.0008404907005572075,-0.0006803112335742978,-0.0056103726889136065,0.0076808587628420435,0.9916429768309484
2015-05-06,-1,-0.0008728986627724144,-0.000692582471100508,-0.004846068654215659,0.005106854015592001,0.9934400794978215
2015-05-08,-1,-0.0007811182545443231,-0.0006082119029383588,-0.0056103726889136065,0.00450892323434522,0.9933597793801224
2015-05-12,-1,-0.0010107460893993797,-0.000825296402256208,-0.0056103726889136065,0.005878855235130072,0.9930773852849666
2015-05-14,0,-4.0352894275697665e-05,2.067600375825341e-06,-0.006319451232121276,0.004406742413597343,0.9937061445137831
2015-05-18,0,-3.502334991641647e-05,1.0320315789740138e-05,-0.00824230443006652,0.00492659220435856,0.9930515944558818
2015-05-20,-1,-0.00014484241532938144,-7.836289006257202e-05,-0.00824230443006652,0.005137555092039991,0.992678875470587
2015-05-22,-1,-0.000267916185726465,-0.0001891987062945432,-0.010185178662211646,0.005798658287827309,0.9908581624320352
2015-05-27,-1,-0.00029735114193103394,-0.0002056497859607169,-0.01116681024740405,0.005137555092039991,0.9908871939599943
2015-05-29,-1,-0.0005955512236717252,-0.00046715056054604095,-0.011373146335330623,0.005137555092039991,0.9903952440320452
2015-06-02,-1,-0.0012042415253943994,-0.0010000183827860686,-0.011373146335330623,0.005137555092039991,0.990224030829683
2015-06-04,-1,-0.0010153629823278255,-0.0008450712627402083,-0.011373146335330623,0.005798658287827309,0.9894781384355406
2015-06-08,-1,-0.0012007621356734705,-0.0010134356756533584,-0.011373146335330623,0.0077859470822253425,0.9894448671879792
2015-06-10,-1,-0.0011303627215169191,-0.0009541467812462781,-0.012938667334545781,0.005655288925984009,0.9891590378970295
2015-06-12,-1,-0.0007942940488073127,-0.0006933168221264152,-0.012938667334545781,0.009125252681847055,0.988380843621831
2015-06-16,-1,-0.0005995908001732921,-0.0005407101421510645,-0.011601193454034237,0.009209046052187267,0.9883832957325727
2015-06-18,-1,-0.0004347826770024044,-0.00038110116858391333,-0.011601193454034237,0.009209046052187267,0.9873700528330104
2015-06-22,-1,-0.0022232266867816828,-0.0019767344602456462,-0.009991351333013536,0.009134676201959702,0.9888636430404202
2015-06-24,-1,-0.002026329393380799,-0.0017912458088840068,-0.009991351333013536,0.010088990269479462,0.9845807223018267
2015-06-26,-1,-0.0025339788075589673,-0.002239729107664486,-0.008053811104229916,0.010088990269479462,0.9857911607394456
2015-06-30,-1,-0.0025855194321924594,-0.00231199101522182,-0.006560486597528232,0.011747771912162887,0.9852709810325613
2015-07-02,-1,-0.0020443859470471665,-0.001834917515369591,-0.006560486597528232,0.010132639971338252,0.9863443200650989
2015-07-07,-1,-0.001449552342865076,-0.0013332055828590172,-0.008053811104229916,0.009788516865156546,0.9864745952658742
2015-07-09,-1,-0.0013269843756294857,-0.0012779163875618867,-0.005217189370820988,0.009788516865156546,0.9872848119796188
2015-07-13,-1,-0.0006010859055704866,-0.0005428089141648829,-0.005217189370820988,0.009788516865156546,0.9872561165883135
2015-07-15,-1,-0.0004686399582011603,-0.00038937007076940503,-0.005359143063063239,0.009788516865156546,0.9876573384256255
2015-07-17,0,-5.9981903779116616e-05,6.240785968610963e-05,-0.003447722654305689,0.009788516865156546,0.988794157038928
2015-07-21,1,9.484738469134346e-06,0.00014006446317244226,-0.003447722654305689,0.00925593907961279,0.9893438532339456
2015-07-23,1,0.0012307550895899078,0.001535636592902267,-0.004806619958715244,0.006425515634942205,0.9931007229265454
2015-07-27,1,0.0008262337396993326,0.0010440752990069036,-0.007145741321993936,0.006425515634942205,0.990142658687642
2015-07-29,1,0.001135323393350683,0.0013514980625470865,-0.009273017389864016,0.0044149305251477075,0.9887167632831492
2015-07-31,1,0.0010725968684865365,0.0012803212478003658,-0.009273017389864016,0.009462042853326467,0.9867359399138009
2015-08-04,1,0.0012710616536423553,0.001537797455046642,-0.010946205170143868,0.009462042853326467,0.9855568291932963
2015-08-06,1,0.001180740038092867,0.0014086786095713192,-0.010946205170143868,0.009462042853326467,0.9854678384120974
2015-08-10,1,0.0019414573740634037,0.002296779978226257,-0.01497072539421198,0.008662349421639085,0.9845926999162923
2015-08-12,1,0.0019001862494990572,0.0022679205536856135,-0.01497072539421198,0.008662349421639085,0.984375020492469
2015-08-14,1,0.001926675307597588,0.002264905856783763,-0.01497072539421198,0.006585172549178014,0.9846435163445908
2015-08-18,1,0.0015990568494618105,0.0018748376514761984,-0.01497072539421198,0.006585172549178014,0.9847605552238672
2015-08-20,1,0.0013715243424670884,0.0016347946972946562,-0.01497072539421198,0.006585172549178014,0.9845522173389641
2015-08-24,1,9.7847983793124e-05,0.00016163226792732034,-0.012162517635062306,0.006585172549178014,0.9869241847433678
2015-08-26,-1,-0.00015778098454767632,-0.00011426257590130796,-0.012162517635062306,0.006085800431402436,0.987988255408944
2015-08-28,1,0.0008767012492937867,0.0010803746371490816,-0.015458026915106154,0.004663081950886815,0.9880718204946715
2015-09-01,1,0.00014200879545428577,0.00024689768705733154,-0.012162517635062306,0.005207585218696358,0.9894965854758453
2015-09-03,1,0.0001410872698430289,0.00022243635682450244,-0.012162517635062306,0.006085800431402436,0.9880200160537471
2015-09-08,1,0.0004702657661385046,0.0006029611330818407,-0.011756066559337497,0.006085800431402436,0.9884494197583098
2015-09-10,1,0.00029964906533409407,0.0004080337625358186,-0.010737223731034761,0.012390862982281366,0.987654425722185
2015-09-14,-1,-0.00018799666305132368,-0.00017769098858665168,-0.013732447557731077,0.016230163821596567,0.9837011268914536
2015-09-16,-1,-0.0002972914310599694,-0.00025709267735699807,-0.013732447557731077,0.016230163821596567,0.9832603965352608
2015-09-18,-1,-0.001204091075386568,-0.0010319444000456027,-0.00806870442421977,0.016230163821596567,0.9841067270519722
2015-09-22,-1,-0.0013843746594106887,-0.0012125116308857485,-0.007930611301910999,0.016230163821596567,0.9843663133564332
2015-09-24,-1,-0.0014159344948344393,-0.0012461790766328308,-0.007930611301910999,0.016230163821596567,0.9824484563746282
2015-09-28,-1,-0.0018931372440123442,-0.0016736289066549008,-0.004778490508159324,0.017681734285410085,0.9820000477020895
2015-09-30,-1,-0.0012302921754756598,-0.001097361218382828,-0.006667313464443385,0.017681734285410085,0.9821874496547276
2015-10-02,-1,-0.00020248076250300423,-0.000170165980527347,-0.006667313464443385,0.013286747970829012,0.9837251481350113
2015-10-06,0,-2.0792270598849413e-05,4.450129388646783e-06,-0.006667313464443385,0.010784102308484853,0.9834508796140282
2015-10-08,1,0.0009351991988441118,0.0010904500837909008,-0.006667313464443385,0.00962593744417694,0.9852207679142315
2015-10-12,1,0.002042302281538789,0.002341366429128474,-0.006667313464443385,0.00857035901267816,0.9890258886348742
2015-10-14,1,0.0018606709498452574,0.002126870930789532,-0.004878422619881598,0.00857035901267816,0.9891625162758845
2015-10-16,1,0.002094104167623105,0.0023997503094842177,-0.007239631488697084,0.00857035901267816,0.9874587951456169
2015-10-20,1,0.0014865999014803699,0.0016924690186219257,-0.007239631488697084,0.00857035901267816,0.9870853508483015
2015-10-22,1,0.001190419627223867,0.0013305961820028885,-0.006593134684285235,0.009915135337748316,0.9880484643037398
2015-10-26,1,0.0019803354429666596,0.0022272685726321606,-0.006593134684285235,0.009618077886449177,0.989259376399008
2015-10-28,1,0.0019175387228363978,0.0021404102927973278,-0.006865656373372113,0.009915135337748316,0.988561792005407
2015-10-30,1,0.002001334364209789,0.002238128554166087,-0.006865656373372113,0.009915135337748316,0.9885050241059604
2015-11-03,1,0.001411222509429033,0.00156262357678064,-0.006865656373372113,0.010404985738883746,0.9887819243533625
2015-11-05,1,0.0012991159304116537,0.001430414235560992,-0.008599977356082417,0.010404985738883746,0.9882917946660755
2015-11-09,1,0.0012853438950499183,0.0014389334044691946,-0.011217575113736788,0.010404985738883746,0.98779204080012
2015-11-11,1,0.0012845327038772858,0.0014151195384184076,-0.011217575113736788,0.009610744763882486,0.9879245404162017
2015-11-13,1,0.000326939110032378,0.0003490006978068161,-0.011217575113736788,0.009610744763882486,0.9887682037311192
2015-11-17,-1,-0.0004197894212841627,-0.00028760374393183735,-0.008713041042770566,0.012301665779529378,0.9890596715034344
2015-11-19,1,0.0003300415099681814,0.0004069991357423062,-0.015420115905097443,0.007243743826549853,0.9873854472810634
2015-11-23,1,0.0007101129899932557,0.0007148087195663445,-0.015420115905097443,0.009726498948431127,0.9856690669253727
2015-11-25,1,0.000944341844490676,0.0009855456136495374,-0.01245234983325662,0.009726498948431127,0.9860144921706736
2015-11-30,1,0.00045030410150081633,0.0005219494295467936,-0.01245234983325662,0.008566401468519868,0.9860850344017147
2015-12-02,1,0.0006094446039504381,0.0006290413772958546,-0.011382180297574623,0.0068570446665794345,0.9868882622413496
2015-12-04,1,0.0005131796395348219,0.0005536340607934856,-0.012037674477970368,0.0068570446665794345,0.9869761835882572
2015-12-08,1,0.00012155738074962755,0.00018643575019118165,-0.016125890635288603,0.0068570446665794345,0.9858454592294463
2015-12-10,1,3.3470853617141236e-06,9.228068499940345e-05,-0.020232191130305183,0.008674164409843968,0.9843004868652662
2015-12-14,-1,-6.864960504850565e-05,-3.9467898881734786e-05,-0.021217293031475383,0.008674164409843968,0.9838554083821408
2015-12-16,1,0.0004112526808202635,0.00043800831613778905,-0.021217293031475383,0.007615783904023005,0.9840944880945789
2015-12-18,-1,-0.0009011020477769758,-0.000810064055929295,-0.015922416674295704,0.007615783904023005,0.9868931409405601
2015-12-22,1,0.000502677155874985,0.0005921386864469661,-0.01834696783238328,0.0056700182061089795,0.9867004935364009
2015-12-24,1,0.0008184393043511116,0.0009539794318946642,-0.01962176924732649,0.0009759614641072542,0.9823867642327312
2015-12-29,1,0.0006177527436955438,0.0007403294034462555,-0.01962176924732649,0.0012068113472032517,0.981849009139611
2015-12-31,1,0.0006466586278195973,0.0008228515407937389,-0.01962176924732649,0.0039454027878577285,0.9805961733674539
2016-01-05,1,0.00021756859246535218,0.00032489064568478037,-0.021150043123004444,0.0039454027878577285,0.9797701105049466
2016-01-07,-1,-0.0006093601609276924,-0.0005705342217767482,-0.018644989556486767,0.006080242929830593,0.9808209658519235
2016-01-11,-1,-0.00044956828037424543,-0.00039778309748431405,-0.018175837373080216,0.004263384522324691,0.981909291023666
2016-01-13,-1,-0.0017948903341824232,-0.0016516109730249947,-0.018644989556486767,0.004263384522324691,0.97992197716036
2016-01-15,-1,-0.0020208878830532315,-0.0017687286951279383,-0.018644989556486767,0.00584989328586883,0.9792994304259726
2016-01-20,-1,-0.0028608219959609894,-0.0024810833253071482,-0.018175837373080216,0.011635116624885262,0.979026576891733
2016-01-22,-1,-0.0020076306392666477,-0.0018007214163087526,-0.018971768995043096,0.011635116624885262,0.978622969440952
2016-01-26,-1,-0.005528454235384554,-0.004854205058355087,-0.0180959508285038,0.012177030152606936,0.9814738916456769
2016-01-28,-1,-0.005945617758309551,-0.005237336257466897,-0.017002909013809547,0.013706635624144476,0.980787901242052
2016-02-01,-1,-0.003985230178239414,-0.0035269308622536536,-0.017002909013809547,0.013706635624144476,0.9811588911137751
2016-02-03,-1,-0.005140702476720495,-0.0045420850414379455,-0.00252974301458216,0.017297428556130125,0.9795814212027852
2016-02-05,-1,-0.004333717343287285,-0.0038356103734864476,-0.00252974301458216,0.01477153466955421,0.9801847228222119
2016-02-09,-1,-0.004450420047493856,-0.003951721262774895,-0.0021496171459440675,0.017297428556130125,0.9781924375895305
2016-02-11,-1,-0.007302925872281922,-0.006430849902278017,0.0031848827494457698,0.01862336012863556,0.9785286641018354
2016-02-16,-1,-0.0065521990758748575,-0.0057423705197957335,-0.007149201526186024,0.01862336012863556,0.9804772298583168
2016-02-18,-1,-0.006998035534090818,-0.00610558165530998,0.00024199371429810138,0.02606325624670947,0.9783982934845118
2016-02-22,-1,-0.008112710811450721,-0.007050070260031776,0.0012476555154525499,0.02606325624670947,0.9788991771768492
2016-02-24,-1,-0.006335358964694272,-0.005511392608317588,-0.0025766192308915078,0.02084114527504163,0.9811472245572219
2016-02-26,-1,-0.004748887067214684,-0.004181340871351392,-0.0025766192308915078,0.02084114527504163,0.9824340478907688
2016-03-01,-1,-0.0029908455841488784,-0.0026316080435107156,-0.006696051886952478,0.019926692373248192,0.9839580451200504
2016-03-03,-1,-0.0007943225384077898,-0.0007555632175060516,-0.006696051886952478,0.018773465939689857,0.9853612215592215
2016-03-07,1,0.000712237870372222,0.0009716944064468218,-0.010456543283978898,0.018773465939689857,0.9852185580715402
2016-03-09,1,0.0018483768521052792,0.002262718894735027,-0.010456543283978898,0.016745948443193496,0.9869016078058425
2016-03-11,1,0.0021538248912436808,0.002628088431009476,-0.006696051886952478,0.016745948443193496,0.9874104774869426
2016-03-15,1,0.0011836733955077959,0.0015049760324045759,-0.0026481379694768743,0.018105171996002003,0.9870988896400615
2016-03-17,1,0.0022049403080529597,0.002618020060993314,-0.005805338720592209,0.016525585322930404,0.9885703344159511
2016-03-21,1,0.003403761075204211,0.0040549645577900185,-0.005805338720592209,0.016009200800777473,0.9896351578534277
2016-03-23,1,0.0034394846304941747,0.0041077051053011815,-0.00500332238168958,0.016525585322930404,0.9895503166814588
2016-03-28,1,0.004017876343275306,0.004781152482521693,-0.006805835744303429,0.017728251706122744,0.9880020317636847
2016-03-30,1,0.0040296235199041505,0.004764367751750898,-0.00500332238168958,0.016525585322930404,0.9891877492907227
2016-04-01,1,0.004743970726642889,0.005570312672376117,-0.006805835744303429,0.01638399673357223,0.9884758786137314
2016-04-05,1,0.003633112014800875,0.004294491532416718,-0.006805835744303429,0.017728251706122744,0.9888022836463243
2016-04-07,1,0.0038125380124208446,0.004511880778142334,-0.006805835744303429,0.017728251706122744,0.9895849026314546
2016-04-11,1,0.003874028232306571,0.004526441980062131,-0.006805835744303429,0.013858043354864954,0.9905662242271098
2016-04-13,1,0.004339651626902159,0.005008505860217069,-0.008718551291179925,0.01382817794278455,0.9902600764492964
2016-04-15,1,0.005322456317218619,0.006212621753247102,-0.008718551291179925,0.009260672811010503,0.990210784215849
2016-04-19,1,0.005827981225541488,0.006804862926886458,-0.00903815551068854,0.013770401799495447,0.988333255263121
2016-04-21,1,0.006201500274370044,0.007231391006444222,-0.009877542725164608,0.006959161570960609,0.98797892763845
2016-04-25,1,0.006911731337025138,0.008046415621938183,-0.009877542725164608,0.006959161570960609,0.9888740908131024
2016-04-27,1,0.007259225705686791,0.008425682083236498,-0.009877542725164608,0.0091775867906349,0.9881612468921768
2016-04-29,1,0.006526077610775237,0.0075827367094379134,-0.00903815551068854,0.012670920940975756,0.9895697255270971
2016-05-03,1,0.006380841993385383,0.007374286093195896,-0.005238169585179725,0.010948478535127464,0.9905007607885878
2016-05-05,1,0.006038175023056621,0.006975243939407164,-0.0033842789970539716,0.010948478535127464,0.9910623108768942
2016-05-09,1,0.005904339701092785,0.006780814328607655,-0.0033842789970539716,0.012670920940975756,0.9905546660365202
2016-05-11,1,0.006395942066491316,0.0073698261981853305,-0.003858429476761152,0.010948478535127464,0.9902150919178828
2016-05-13,1,0.004554633009025835,0.005135264092577892,-0.004931083267392608,0.010948478535127464,0.9882795040095298
2016-05-17,1,0.005199956285306735,0.005950367888764725,-0.0043323090823003795,0.008330259683061593,0.9891460669547222
2016-05-19,1,0.00502992049912844,0.005796641269773362,-0.0038765175352332166,0.008330259683061593,0.9901495102170002
2016-05-23,1,0.005356335244003654,0.006151787675583038,-0.0038765175352332166,0.008330259683061593,0.9894698749113967
2016-05-25,1,0.006073917244191743,0.006934574201821494,-0.0038765175352332166,0.008330259683061593,0.9901039645850985
2016-05-27,1,0.005850703140530418,0.0066573338245714255,-0.005651436095125894,0.007191236012577495,0.9856618228542772
2016-06-01,1,0.005332525235721839,0.005985076154619073,-0.005651436095125894,0.008697135654213973,0.9846485990612095
2016-06-03,1,0.0051023798759904865,0.0057232130357668005,-0.005651436095125894,0.012225557138120333,0.9845570901756845
2016-06-07,1,0.0051517769083794535,0.005714633601797012,-0.009838679549995875,0.012225557138120333,0.981786887008566
2016-06-09,1,0.004635410462240048,0.005146112770084273,-0.005651436095125894,0.013363586048023297,0.9825428583467768
2016-06-13,1,0.002659043685170177,0.002873709751627708,-0.0043323090823003795,0.013740468423058583,0.984601289754258
2016-06-15,1,0.0023145731526569447,0.0024572512681051662,0.0024947401168119773,0.013740468423058583,0.9845403763009059
2016-06-17,1,0.0003105708531557636,0.0005888372084066252,0.0007822060343362367,0.017387962554072964,0.9819919332044245
2016-06-21,1,0.0005601091811387978,0.000847862620197788,-0.005072901749508434,0.013740468423058583,0.9827979402219981
2016-06-23,1,0.001835958614792037,0.001911833672958428,-0.005072901749508434,0.013740468423058583,0.9835772497925414
2016-06-27,-1,-0.0024074128773192887,-0.0017624535582838397,-0.00073755094940557,0.016473750494487394,0.9855850900242266
2016-06-29,-1,-0.00041189937547446583,-2.6764989079224423e-05,-0.00323374636887536,0.013740468423058583,0.9885018416853202
2016-07-01,-1,-0.00042762882616097296,-1.2416182737916498e-05,-0.0036533118757372377,0.01220766123227426,0.9891959721741014
2016-07-06,-1,-0.0013008048790010135,-0.0006418456966358864,-0.0036533118757372377,0.009246364493068177,0.9922136414252385
2016-07-08,0,-0.00038039185107400933,0.00013490345758942405,-0.0036533118757372377,0.007469626546516011,0.9930223987413397
2016-07-12,-1,-0.0007125072814076834,-0.00014684311780680036,-0.003172684117794762,0.007469626546516011,0.9933095299242005
2016-07-14,-1,-0.0011811530552351523,-0.0005023947722805025,-0.003172684117794762,0.008274389157797355,0.9931633192545187
2016-07-18,1,4.947603271216513e-05,0.0005226577769860295,-0.003172684117794762,0.007448836737666343,0.9943395841289361
2016-07-20,0,-0.0001120999791187024,0.00036511050811138964,-0.002958718209037396,0.007448836737666343,0.9942565147389942
2016-07-22,1,0.0006374316849308915,0.0009655192489236445,-0.002958718209037396,0.006064141732816856,0.9942892687838669
2016-07-26,1,0.0014877905591460538,0.0016539855480676119,-0.002958718209037396,0.005895899997351527,0.9941480075620294
2016-07-28,1,0.0011332971821462912,0.0013276220400450854,-0.003172684117794762,0.007748874142551701,0.9920668269116496
2016-08-01,1,0.0012350729491265658,0.0013675197649566074,-0.003288665977860938,0.008318799550337664,0.9917990589712078
2016-08-03,1,0.0007943163895848576,0.0009814279043904826,-0.003288665977860938,0.008318799550337664,0.9914455000198517
2016-08-05,1,9.091168362788829e-05,0.000409018972299664,-0.003288665977860938,0.008697668956019467,0.9910618700149836
2016-08-09,1,0.001418215432880373,0.0014898877491662137,-0.003288665977860938,0.009294372746494538,0.9910208893147368
2016-08-11,1,0.0019963654639739543,0.002007877852069817,-0.0067395253918341395,0.008697668956019467,0.9903004884253773
2016-08-15,1,0.001166442361738546,0.0012672771227156554,-0.0067395253918341395,0.009294372746494538,0.9892407669978766
2016-08-17,1,0.0017578129806109842,0.0017795773930599024,-0.007508318067477387,0.009294372746494538,0.9888287936360021
2016-08-19,1,0.0018663519232793846,0.0018716525914617733,-0.007508318067477387,0.009294372746494538,0.9887968681329549
2016-08-23,1,0.001831470361001604,0.001855697448310237,-0.0069805063489747216,0.00983770480048158,0.9884378080764096
2016-08-25,1,0.0018520006922762326,0.001876636440079209,-0.0069805063489747216,0.00983770480048158,0.9892377256151651
2016-08-29,1,0.001520376744388206,0.001585572940994275,-0.008363693196809803,0.00983770480048158,0.9888580216603594
2016-08-31,1,0.0015455939496195103,0.001588623849055028,-0.008999627942914822,0.011070255705994155,0.9879433933390663
2016-09-02,1,0.002134809674345872,0.002205929355155096,-0.008999627942914822,0.01280934429164311,0.9873448515990917
2016-09-07,1,0.002631948719352622,0.002777772711850878,-0.013088573687312713,0.01280934429164311,0.9867110882821734
2016-09-09,1,0.0017321591628000456,0.0017611238346717318,-0.008999627942914822,0.018137610257078128,0.9872484638591321
2016-09-13,1,0.0018158730908442782,0.0018586911169300108,-0.008455168841583323,0.01280934429164311,0.9879298596702623
2016-09-15,1,0.002205245650736382,0.0023332530854466883,-0.010560491231413895,0.013187517725067996,0.9875207618162108
2016-09-19,1,0.0023512877745593794,0.002518259329141671,-0.010560491231413895,0.01635368373539188,0.9867569166553465
2016-09-21,1,0.0023611088054643218,0.0024865748368169916,-0.010560491231413895,0.01635368373539188,0.9872230386393235
2016-09-23,1,0.002575711488790019,0.002730280724759086,-0.010560491231413895,0.012199538027121766,0.9860864928005708
2016-09-27,1,0.00170847717659717,0.0017308051343501206,-0.010560491231413895,0.01395914548848542,0.985401753326501
2016-09-29,1,0.0012876466946337042,0.0013099616379870257,-0.006280990820894322,0.01395914548848542,0.9869076894823847
2016-10-03,1,0.00173965663892391,0.001779633672350574,-0.006280990820894322,0.01248186500570974,0.9872588041046447
2016-10-05,1,0.0007113416007991226,0.0008265562560667748,-0.0081801355535112,0.01248186500570974,0.9865421513887719
2016-10-07,1,0.0010260583402512756,0.0011134946830877184,-0.010560491231413895,0.010757785490523477,0.9869948633371656
2016-10-11,1,0.00047199895899134397,0.0006560245709758014,-0.008427595853513216,0.010598849527771076,0.9873405409688908
2016-10-13,1,0.0009485806823076219,0.0010614049320221504,-0.003234685665759651,0.010598849527771076,0.9876126985596497
2016-10-17,1,0.0020723029385032276,0.00215339718967931,-0.003234685665759651,0.010598849527771076,0.9868282690705877
2016-10-19,1,0.002857449512509546,0.0030509837495084086,-0.00361307606100928,0.007522667246960597,0.9876219621989984
2016-10-21,1,0.0014543424676786965,0.0014736889967058983,-0.0019493208769146419,0.010598849527771076,0.9893632364500536
2016-10-25,1,0.0007493333203305278,0.0008204234667880299,-0.00361307606100928,0.008829892791835475,0.989281575003931
2016-10-27,1,0.0011840530414140454,0.0012050782719296915,-0.00361307606100928,0.008829892791835475,0.9890661508497154
2016-10-31,1,0.001169507172372762,0.001194429751317979,-0.00361307606100928,0.008388431398657227,0.9897174861279566
2016-11-02,-1,-0.0012261690902752428,-0.0008380954122243448,-0.0019493208769146419,0.008388431398657227,0.990404616711829
2016-11-04,-1,-0.0018133998230283415,-0.0013306372720525252,-0.000892022977507404,0.008829892791835475,0.9898287948459045
2016-11-08,-1,-0.0014486661086421785,-0.0010115276682608639,-0.0019493208769146419,0.008388431398657227,0.9904686246386074
2016-11-10,-1,-0.0003520655238421035,-8.183522724465532e-05,-0.0010181531092572802,0.00647892356650004,0.9920785391199537
2016-11-14,1,0.0015438610146342022,0.0015737100809742304,-0.002348190455832485,0.004287598219452667,0.9936727220073004
2016-11-16,-1,-0.0009007915460814827,-0.00040771480783808873,-0.00304868276158565,0.004488997244602517,0.993421993700146
2016-11-18,1,0.0006738198682462869,0.0009064923423704528,-0.00304868276158565,0.003522058933079115,0.9944530612168958
2016-11-22,-1,-0.00042344763774208394,-8.31334548390631e-05,-0.0012091303561388806,0.003522058933079115,0.9958509871237625
2016-11-25,1,0.00015597409099510123,0.0003859249827630366,-0.0024126150362528192,0.003522058933079115,0.9957318371628644
2016-11-29,1,0.0005007069636972258,0.0006574932240543221,-0.003057643849832724,0.003522058933079115,0.9949252312527376
2016-12-01,1,0.00019326573330732076,0.00038475618126583273,-0.002521560269538775,0.0023995978735566826,0.9954441795399587
2016-12-05,1,0.0010994460481226626,0.001165162464816153,-0.002521560269538775,0.0024301491659431606,0.9954901569734017
2016-12-07,1,0.0014785367903953975,0.0014942138511723471,-0.003357596284949369,0.0024301491659431606,0.9940118065153077
2016-12-09,1,0.0013309305542574502,0.0013384235295360242,-0.003357596284949369,0.0035891919414623983,0.9938249345698751
2016-12-13,1,0.0009872910614601867,0.0010277719919074184,-0.003357596284949369,0.004674535863164437,0.9932021287055688
2016-12-15,1,0.0010301688926479646,0.001047405490816535,-0.0036477458052496746,0.0043889436282005985,0.9925776432767554
2016-12-19,1,0.0008145674000186714,0.0008720514082858075,-0.007191191688127781,0.005895899752536047,0.9917234783165199
2016-12-21,1,0.0003848005794078983,0.0005090333666603018,-0.007191191688127781,0.0062374350212024195,0.9905116771465963
2016-12-23,1,0.00010812729883109059,0.00029845066952729647,-0.004712492386345016,0.012696446056765365,0.9876274644653501
2016-12-28,-1,-0.0006214668903858646,-0.00035950040857947495,-0.005304993671969327,0.012696446056765365,0.9878629043997516
2016-12-30,-1,-0.0006810397718602184,-0.0004331050632543313,-0.00798178811463144,0.012696446056765365,0.9868863680157557
2017-01-04,1,0.0003674614363837381,0.00046031225785764,-0.00798178811463144,0.0103743485559742,0.9873589297463918
2017-01-06,1,0.0002597701711595281,0.0003958050165509016,-0.005304993671969327,0.009322775657142917,0.9885564229645232
2017-01-10,1,0.0006591808135772154,0.0007231225760444903,-0.007751862494227043,0.009501521802302466,0.9880808679751726
2017-01-12,1,0.00028353137520063527,0.0003826147135334903,-0.005304993671969327,0.009501521802302466,0.9888329501667702
2017-01-17,-1,-0.0005185663245376904,-0.00030754836887104703,-0.004594246408799079,0.009501521802302466,0.9891851372619389
2017-01-19,0,-2.8016286965811042e-05,8.158617575950637e-05,-0.0013006679832439677,0.009501521802302466,0.9896072244999178
2017-01-23,1,0.001004802424331396,0.0010130814234962874,-0.004594246408799079,0.0091631318943481,0.9903411789933597
2017-01-25,1,0.003026744324883695,0.0032933854193316382,-0.005304993671969327,0.006402718804731387,0.9929829527082461
2017-01-27,1,0.0026194658681065533,0.002851281876362805,-0.004860621805355134,0.006402718804731387,0.9933922221184772
2017-01-31,1,0.002474140748466401,0.00272330117179858,-0.004860621805355134,0.008493390164091525,0.9931565201558156
2017-02-02,1,0.002222772074082913,0.002373027713237944,-0.004860621805355134,0.006402718804731387,0.9932272866652019
2017-02-06,1,0.0026935719574183677,0.002906789259725422,-0.006675408680160549,0.004163376671079782,0.9927371110060329
2017-02-08,1,0.0027269137100136413,0.0029581559023092404,-0.004860621805355134,0.004126147797841525,0.9932822951282344
2017-02-10,1,0.002527150000640732,0.00272797528842532,-0.005925700095479472,0.003928772981387057,0.9930503100459903
2017-02-14,1,0.003018809974406079,0.0033106337122076265,-0.005925700095479472,0.003928772981387057,0.9925063077731742
2017-02-16,1,0.0036675855146330967,0.004044368472272941,-0.005925700095479472,0.0023271527149323792,0.9919502360353456
2017-02-21,1,0.002838228392275971,0.003057353752775958,-0.005925700095479472,0.0023271527149323792,0.990824401192142
2017-02-23,1,0.001841599319658061,0.0018920972563141684,-0.005392174692862944,0.004011471970557674,0.9921269159679578
2017-02-27,1,0.0018603448143160494,0.0019406610804467157,-0.008133331616109882,0.004011471970557674,0.9906076363349434
2017-03-01,1,0.0014634295936979203,0.0014741736056176756,-0.006942436477707724,0.004011471970557674,0.9907564852340187
2017-03-03,1,0.00159160156817172,0.0016258614709048556,-0.006942436477707724,0.005802543260481989,0.9902897489300899
2017-03-07,1,0.000904564238267034,0.0009623737106617897,-0.006942436477707724,0.005802543260481989,0.9905562382593869
2017-03-09,1,0.0011118195375629436,0.0011359430980941965,-0.006942436477707724,0.007367090298724153,0.9902005121943727
2017-03-13,1,0.0010667056160392353,0.0010744886812894146,-0.008058232781925884,0.007367090298724153,0.9901880086402046
2017-03-15,1,0.001953242584478025,0.00213598677626038,-0.008541590833950638,0.005782251462782421,0.99018788328108
2017-03-17,1,0.0005231704580770913,0.0006194739575437927,-0.008541590833950638,0.007367090298724153,0.9899871162676915
2017-03-21,-1,-0.00043336511305206143,-0.0001858692439260061,-0.008058232781925884,0.010787965781781695,0.9914319857357662
2017-03-23,0,-0.0001298572759137564,8.314101726975562e-05,-0.008058232781925884,0.010787965781781695,0.9917497158068718
2017-03-27,-1,-0.001127022046780001,-0.0008293200503524411,-0.0022631397869155388,0.010787965781781695,0.9929384089122449
2017-03-29,-1,-0.0017775709741841774,-0.0013277032722419531,-0.0013226674265532938,0.010787965781781695,0.990843502396038
2017-03-31,-1,-0.0009710460538989078,-0.0006358152821082031,-0.0022631397869155388,0.005671581048195793,0.9913919928544952
2017-04-04,-1,-0.0010851936366754935,-0.0007540913021809163,-0.0015824735930733023,0.005415639520579694,0.9917743479338857
2017-04-06,-1,-0.0005252568907053781,-0.00029760347598739123,-0.0012587353169038504,0.01236751007716273,0.9909030032908315
2017-04-10,1,7.021784250028321e-06,9.173479788839815e-05,-0.0015824735930733023,0.01236751007716273,0.9906175959588583
2017-04-12,-1,-0.0005862317377430271,-0.00041142622619116644,-0.0015824735930733023,0.013192707146902106,0.9898371034442469
2017-04-17,1,0.0003541485413072658,0.00038125438333268876,-0.0015535762571883996,0.01236751007716273,0.9904624553367889
2017-04-19,1,0.0004447320765901126,0.0005141480259752644,-0.0017309238939883648,0.004168835640160746,0.990541105669724
2017-04-21,1,0.000488962596940958,0.000543505233305802,-0.003212786332365776,0.004168835640160746,0.9900022560255033
2017-04-25,1,0.0006017789000291809,0.0006417622936381196,-0.003212786332365776,0.005513924081384356,0.9900136340522794
2017-04-27,1,0.002273215005350392,0.0024313394109380933,-0.003212786332365776,0.005513924081384356,0.991898664201772
2017-05-01,1,0.001786186230392047,0.0019181013090371671,-0.0017309238939883648,0.005513924081384356,0.9929780401637056
2017-05-03,1,0.0017595443036841955,0.0018817114048264782,-0.0017309238939883648,0.008277524706836504,0.9920567749060689
2017-05-05,1,0.0026985593810097287,0.0029409776350927436,-0.0017309238939883648,0.003951392080490795,0.993038484993396
2017-05-09,1,0.001792125590503825,0.001896123356484961,-0.0015874323112939944,0.004125316683474138,0.9937770855669601
2017-05-11,1,0.002180833638014492,0.002323987077786455,-0.001182671779613316,0.004125316683474138,0.9942696787695964
2017-05-15,1,0.0021428131453228535,0.00227876331937879,-0.0001910009774000953,0.004087877040728747,0.9944723879967061
2017-05-17,1,0.001183045483447605,0.001188205960112878,-0.0001193629728664288,0.0043322816223095445,0.9950805629175898
2017-05-19,1,0.0007777102583664197,0.0008384768986252234,0.0007237652140056415,0.005924095322496751,0.9944110695933797
2017-05-23,1,0.0004361035564234358,0.0005731530396997958,-0.001182671779613316,0.005689010021803079,0.9942559912010253
2017-05-25,1,0.0008362353579684222,0.0009379171157689373,-0.001182671779613316,0.005689010021803079,0.9944678342441043
2017-05-30,1,0.0012052386557078125,0.0012361991450847306,-0.0016129902452631812,0.007932558752958086,0.9935937861392636
2017-06-01,1,0.001850994464862228,0.0019167135653460202,-0.002244048766256962,0.007932558752958086,0.9931456208284232
2017-06-05,1,0.0015209046141478346,0.0015393545055571536,-0.002244048766256962,0.007932558752958086,0.9928439185456868
2017-06-07,1,0.0010316887730040286,0.0010949318280512217,-0.00239514148730746,0.007932558752958086,0.9926793123691271
2017-06-09,1,0.0009174941647388084,0.0010213612216235972,-0.00239514148730746,0.008560704635648028,0.9926026569853826
2017-06-13,1,0.0009757420472701161,0.0010794796298912819,-0.0038278925043092665,0.008560704635648028,0.9921246490071796
2017-06-15,1,0.0012737412528383489,0.0012906095030857075,-0.00239514148730746,0.01332881331616038,0.9918952409187154
2017-06-19,1,0.0026114967698305266,0.0028874759400493374,-0.0038278925043092665,0.00813378722979158,0.9919949491191138
2017-06-21,1,0.002030909157464117,0.0021968954724330713,-0.005519457730326751,0.008464832086107342,0.9914744005805275
2017-06-23,1,0.0025501000543027763,0.002765855061735417,-0.009135849206675288,0.006574135202112503,0.9912358140701993
2017-06-27,1,0.002796421249221119,0.0030675038251163664,-0.009135849206675288,0.005322448331999437,0.9917468125215634
2017-06-29,1,0.0034738627945759175,0.003870019134734358,-0.007555029272617636,0.005322448331999437,0.9918644752219457
2017-07-03,1,0.003395682537117149,0.0037827029424793435,-0.007555029272617636,0.00500810846560629,0.9918955200968629
2017-07-06,1,0.002784972959510614,0.0030765478185369372,-0.004984285036463842,0.00500810846560629,0.9926854452976419
2017-07-10,1,0.003405462732022249,0.0037870338755358135,-0.007555029272617636,0.0035732090888930283,0.9924446966200795
2017-07-12,1,0.003209584668329697,0.0035830927563131054,-0.004984285036463842,0.0022988614634207962,0.992827924410651
2017-07-14,1,0.0032101858392560674,0.0035616870381565014,-0.007555029272617636,0.0018774377176384003,0.992460800730554
2017-07-18,1,0.0024870964223989754,0.002704376118483315,-0.004984285036463842,0.0022988614634207962,0.9932349111777173
2017-07-20,1,0.00212205316744934,0.002277468147727837,-0.004984285036463842,0.0022988614634207962,0.9931908476162808
2017-07-24,1,0.0015724332024470136,0.0016525662773426678,-0.005698093965135092,0.0022988614634207962,0.9922213043331436
2017-07-26,1,0.001505729881702145,0.0015666691533393249,-0.005698093965135092,0.003852411694112696,0.9914349082448062
2017-07-28,1,0.0012010112235680272,0.0012120248917930837,-0.004390239571877538,0.003852411694112696,0.9921003134735984
2017-08-01,1,0.0012196994157985363,0.0012301255289244156,-0.005885900806056129,0.003187976831728497,0.9915373854907112
2017-08-03,1,0.0007839240233963312,0.0008659980990884241,-0.005885900806056129,0.009452583003457938,0.9900064533829931
2017-08-07,1,0.0006313601317041594,0.0007205746289717806,-0.005885900806056129,0.009795606289224839,0.9894517809713383
2017-08-09,1,0.0001569054824483206,0.0003210382598200313,-0.005885900806056129,0.009795606289224839,0.9892949446016954
2017-08-11,-1,-0.0006686904931331637,-0.0003906262772388145,-0.005162465034951126,0.013829896663413718,0.9881021170347178
2017-08-15,0,-2.8090412035011833e-05,0.00016498196867500091,-0.005885900806056129,0.012801306111788296,0.9877348340834131
2017-08-17,-1,-0.000480436349359661,-0.00018020274564726948,-0.00564942786085346,0.011716690918177975,0.9886828444351282
2017-08-21,-1,-0.001705268454416059,-0.0012716377556734203,-0.0030264888989789177,0.011716690918177975,0.9894270828938984
2017-08-23,-1,-0.0005052291334939042,-0.0002374477874627941,-0.004301773298491565,0.011716690918177975,0.9900132037306959
2017-08-25,-1,-0.0005601444036222946,-0.0002629422634891946,-0.008090682693587231,0.011716690918177975,0.9886053811904395
2017-08-29,-1,-0.0012123598836589887,-0.0008453049245529969,-0.004733337892559018,0.011716690918177975,0.9885961435914007
2017-08-31,-1,-0.0003503965079152824,-5.9143544102495155e-05,-0.007156840577385279,0.009024361706927084,0.990050584415771
2017-09-05,-1,-0.0009303072369303269,-0.0005457401243726618,-0.004733337892559018,0.009857805543780062,0.989933820842027
2017-09-07,-1,-0.0007136403268762379,-0.0003719877640956566,-0.004733337892559018,0.009857805543780062,0.9902324981955682
2017-09-11,1,0.0010491864590677041,0.0011500271546700876,-0.005303144145795936,0.004886813055001701,0.9920340773443908
2017-09-13,1,0.0006036605618663484,0.0007654050790219066,-0.0052266134155882936,0.004371980233611812,0.9927400435227678
2017-09-15,1,0.0002764556820501967,0.00047609634210864183,-0.0052266134155882936,0.004371980233611812,0.9924970987316871
2017-09-19,1,0.0019922171257369253,0.002071835522298051,-0.0052266134155882936,0.004371980233611812,0.9922837233534895
2017-09-21,1,0.0018922750006292843,0.0019056768650474374,-0.0052266134155882936,0.00361760933282822,0.993073450005254
2017-09-25,0,-5.6018151362579715e-05,0.00016033253232102754,-0.0024325706241392817,0.004371980233611812,0.9944166814878233
2017-09-27,1,0.0011559625518996071,0.0011637464997322974,-0.0031103872117044873,0.0037326529336707123,0.9945538233495725
2017-09-29,1,0.0002571782069378098,0.000412935961615129,-0.0031103872117044873,0.0037326529336707123,0.9942837983689806
2017-10-03,1,0.0015217502078779031,0.0015548075041801068,-0.004167345997093361,0.003702765923650677,0.9943246669292596
2017-10-05,1,0.0013663019728334049,0.0013809422303441004,-0.004167345997093361,0.003702765923650677,0.9942755922850214
2017-10-09,1,0.00042087493461806936,0.0005712360071827413,-0.004672035026988272,0.003702765923650677,0.9923884699062331
2017-10-11,0,-0.00017363651677596622,8.226143548284394e-05,-0.0039824865342266876,0.0035247026627454915,0.992932678963914
2017-10-13,-1,-0.0006136329671491741,-0.00031655175784983745,-0.0039824865342266876,0.003702765923650677,0.992108783204524
2017-10-17,1,0.0001212702978319126,0.00029553448489031477,-0.0039824865342266876,0.003702765923650677,0.9916413356394552
2017-10-19,0,-4.300428251507375e-05,0.00014849938503701796,-0.004940861403131431,0.003702765923650677,0.991465935826834
2017-10-23,1,0.0007893381028599271,0.0008542946020368934,-0.006575493637867266,0.003702765923650677,0.9916494682363258
2017-10-25,1,0.0006246625475179349,0.0007118722217580347,-0.006575493637867266,0.0035247026627454915,0.9919691899264581
2017-10-27,0,-0.00012289947224908488,6.482058400315328e-05,-0.00557131798938383,0.0032149241144689236,0.992561012110199
2017-10-31,-1,-0.00023175559098924067,-5.100703502930774e-05,-0.004371755466708442,0.003976919577918755,0.9917918099370875
2017-11-02,-1,-0.00020145669082483964,-3.630129324378909e-05,-0.00557131798938383,0.006402798831147786,0.9900726696723111
2017-11-06,-1,-0.002425543427614543,-0.001992549835871782,-0.00557131798938383,0.010356356102515991,0.9904978164548338
2017-11-08,-1,-0.001566073618354714,-0.0012910806584739564,-0.00557131798938383,0.010356356102515991,0.9906503841743322
2017-11-10,-1,-0.002184184339904577,-0.0018244713281209324,-0.004013414728995189,0.0072380228804640664,0.9916683901623492
2017-11-14,-1,-0.0008582644379472588,-0.000685317149909084,-0.00557131798938383,0.0053036993051904045,0.9926507309936431
