JNU-Tangyin/eata/results/Batch4_SP500/Batch4_SP500-ADM.csv
Date,Action,Predicted_Q25,Predicted_Q75,Actual_Q25,Actual_Q75,RL_Reward
2010-12-14,0,-0.0010134935133891462,0.0,-0.003472388151294363,0.0075456102181493175,0.9924077112197716
2010-12-16,0,0.0,0.0,-0.0015820073404618253,0.008979135205556628,0.9908361967268523
2010-12-20,0,0.0,0.0,-0.0007452849879443185,0.008979135205556628,0.9911001154010675
2010-12-22,0,0.0,0.0,-0.0007452849879443185,0.008259887083828478,0.9911093185239991
2010-12-27,0,0.0,0.0,-0.0007176669809586171,0.008259887083828478,0.9917533332094622
2010-12-29,0,0.0,0.0,0.0014225612560879687,0.008259887083828478,0.9921769957436128
2010-12-31,0,0.0,0.0,-0.0007176669809586171,0.008259887083828478,0.991600113892367
2011-01-04,0,0.0,0.0,2.2984127047513117e-07,0.00903612876512782,0.9884805565881405
2011-01-06,0,0.0,0.0,2.2984127047513117e-07,0.00903612876512782,0.9892702204690405
2011-01-10,0,0.0,0.0,-0.001271133125401231,0.00903612876512782,0.9895057832016364
2011-01-12,0,0.0,0.0,-0.002482102105031552,0.006806675737389772,0.9893375941980214
2011-01-14,0,0.0,0.0,-0.002482102105031552,0.007668130150040722,0.989098945600993
2011-01-19,0,0.0,0.0,-0.0030302366551390307,0.013417321257336013,0.9885713439423822
2011-01-21,0,0.0,0.0,-0.002482102105031552,0.013417321257336013,0.9887413226816769
2011-01-25,0,0.0,0.0,-0.004205440743227841,0.013417321257336013,0.9865698885661858
2011-01-27,0,0.0,0.0,-0.004205440743227841,0.0162223727973076,0.9853418382823587
2011-01-31,0,0.0,0.0,-0.004205440743227841,0.0162223727973076,0.9853220725394106
2011-02-02,1,0.0012780161700661804,0.0016012254584461007,-0.004205440743227841,0.012799852161796077,0.9889170225982128
2011-02-04,1,0.001699214767842903,0.002024015150597883,-0.006541930693628086,0.011992045906431206,0.9890159673484019
2011-02-08,1,0.002182669100032762,0.0026556298082924027,-0.009474166413557408,0.011992045906431206,0.9886778603804085
2011-02-10,1,0.001383695803653243,0.0017269400419587663,-0.009474166413557408,0.012799852161796077,0.9871402450793764
2011-02-14,1,0.002448794812166668,0.0029599377084967727,-0.009474166413557408,0.010361838839230654,0.9877816643801759
2011-02-16,1,0.0020860661942580503,0.0024721635426727534,-0.01167308169786163,0.009175474401442668,0.9869583425091858
2011-02-18,1,0.002847581062817478,0.0033797824888955824,-0.01167308169786163,0.009839020656878694,0.9861511467774793
2011-02-23,1,0.000593168100175362,0.0007556988505229383,-0.008564332801676395,0.009839020656878694,0.9881072146415842
2011-02-25,1,0.0010881849070041557,0.0012971283435132541,-0.009474166413557408,0.007137046600462832,0.9882716875984968
2011-03-01,1,0.0009402651406154243,0.0011647419144494163,-0.008564332801676395,0.0073537296899749615,0.9889342237566853
2011-03-03,1,0.00171338709832423,0.00206304489999463,-0.008564332801676395,0.0063203493857251014,0.9895311901867618
2011-03-07,1,0.0012573630215039254,0.001552653304736077,-0.00812158595058792,0.0073537296899749615,0.9895270431855955
2011-03-09,1,0.0011935758859140876,0.001492145917144498,-0.00812158595058792,0.008377735612278801,0.9893513623192668
2011-03-11,1,0.0012496580298936855,0.0015830544439341156,-0.00812158595058792,0.006976723494111576,0.9899500809327355
2011-03-15,1,0.0006002178222783421,0.0008415857482549653,-0.0014462415111595377,0.008253882834600934,0.9901789236020829
2011-03-17,-1,-0.0002973062622454148,-0.00016471732868060383,-0.0025577122595106415,0.006976723494111576,0.9910885439779684
2011-03-21,1,0.0008568893568536126,0.0011261939137898,-0.007222384558737515,0.006263954660627664,0.9919671984195644
2011-03-23,1,0.0009030069519426943,0.001175972291321524,-0.007222384558737515,0.008253882834600934,0.9903620703981841
2011-03-25,1,0.00023390286876267505,0.000368963286725373,-0.006991380179338389,0.008253882834600934,0.9906026269683564
2011-03-29,1,0.0005596235843629661,0.0006110448350758763,-0.006991380179338389,0.008253882834600934,0.9901524807815589
2011-03-31,1,0.0008735063090314977,0.0009749314474911943,-0.006991380179338389,0.009642334054162814,0.989608063103108
2011-04-04,1,0.0009865016025889374,0.0010793989593485859,-0.010217151895914755,0.008253882834600934,0.9870331348296988
2011-04-06,1,0.00039894956324234925,0.00042410761108403825,-0.010217151895914755,0.007152931609664682,0.9869523166780373
2011-04-08,-1,-0.001418326904039893,-0.0011937089011606525,-0.006991380179338389,0.007152931609664682,0.9884850661227836
2011-04-12,-1,-0.0017262067022830066,-0.001424768289470293,-0.010996365443948452,0.006239452408755956,0.9869448705224502
2011-04-14,-1,-0.0021367053651734228,-0.0017903293444562019,-0.010217151895914755,0.006239452408755956,0.9870853243569321
2011-04-18,-1,-0.0032514098089996358,-0.002737671581497144,-0.008942268422809648,0.006239452408755956,0.987402879653153
2011-04-20,-1,-0.002066953625345179,-0.0016946687167142017,-0.008942268422809648,0.001649955109268478,0.989083726389783
2011-04-25,-1,-0.002559602245622659,-0.00211955742626386,-0.008764996686067178,-0.0001986493991147653,0.9893905652324664
2011-04-27,-1,-0.0009587872592199947,-0.0007715936741903363,-0.008764996686067178,-3.5629134386737924e-05,0.9896593278920914
2011-04-29,-1,-0.0005342375743603795,-0.00038320856733050886,-0.008764996686067178,0.00032308304221444775,0.9886187277900514
2011-05-03,-1,-0.00276891679352809,-0.0023346041211651783,-0.008764996686067178,0.002726091639072035,0.9902953846359248
2011-05-05,-1,-0.00249802124467977,-0.002172392403858605,-0.009401597473336014,0.00032308304221444775,0.9904806355013495
2011-05-09,-1,-0.002879394530042948,-0.002468476381011396,-0.009401597473336014,-0.0012595817293324968,0.990807904499624
2011-05-11,-1,-0.004897576962099607,-0.004239428242122071,-0.008764996686067178,0.00032308304221444775,0.992113646751056
2011-05-13,-1,-0.005412416023878138,-0.0046867716540210606,-0.009401597473336014,0.0032480942085982008,0.9910875449979507
2011-05-17,-1,-0.0054221803333251205,-0.004730617242215907,-0.010484402913762448,0.006857348691661819,0.9892091731910574
2011-05-19,-1,-0.006118952430167605,-0.005310415112847914,-0.010484402913762448,0.009098754493025331,0.9879971114791191
2011-05-23,-1,-0.0069514957389408515,-0.006028553158519965,-0.010484402913762448,0.009209555517493959,0.9867438673388129
2011-05-25,-1,-0.00647845784741152,-0.005644345852060966,-0.012834111412597554,0.009209555517493959,0.9864993489674065
2011-05-27,-1,-0.004899624317933791,-0.004260357190250924,-0.012834111412597554,0.008838501497271322,0.9881092313524404
2011-06-01,-1,-0.005497281965585873,-0.00486770755225042,-0.010484402913762448,0.009442366059439246,0.9886533285679201
2011-06-03,-1,-0.006039013361391168,-0.005370312524649562,-0.0075452498758484966,0.011048311643796889,0.9877082683663965
2011-06-07,-1,-0.005918058170494494,-0.005293117295236372,-0.008496350458559662,0.011048311643796889,0.9871856710252382
2011-06-09,-1,-0.004832488249426439,-0.004390718352429285,-0.008496350458559662,0.012301919945777161,0.987089003483141
2011-06-13,-1,-0.00469997165031474,-0.004294678518228529,-0.008496350458559662,0.012301919945777161,0.9871336519517031
2011-06-15,-1,-0.005449572963128766,-0.00493573577360662,-0.009063170799335114,0.009613395179564409,0.9880753905426496
2011-06-17,-1,-0.0048334877228345795,-0.004397390740848236,-0.010158889338862047,0.009613395179564409,0.9877719779119597
2011-06-21,-1,-0.004338098954372259,-0.003970917041161194,-0.010158889338862047,0.015131725726923532,0.9856734738691582
2011-06-23,-1,-0.005958635543044778,-0.0053101217809196286,-0.008727317775426787,0.02017049999565908,0.9850744364620808
2011-06-27,-1,-0.003781377238859218,-0.0033602400238707765,-0.009210477196411094,0.02017049999565908,0.9857520439035202
2011-06-29,-1,-0.002133311395908862,-0.0019527785606050002,-0.010158889338862047,0.015131725726923532,0.9859344797693993
2011-07-01,-1,-0.0014400951541758045,-0.0013423470691356454,-0.012014633772829882,0.010312245353888073,0.9862816619900024
2011-07-06,-1,-0.0018975771978821635,-0.0017040704328516974,-0.014736079302235236,0.015131725726923532,0.9823473470119379
2011-07-08,-1,-0.0005077492743775342,-0.0004683261875970454,-0.01732316501974855,0.015546186553536645,0.9798277434743494
2011-07-12,-1,-0.0002578842047514222,-0.00021273119799808596,-0.0182189989861729,0.021829068733349208,0.974539290115681
2011-07-14,-1,-0.0011092990808324067,-0.0011082150036716932,-0.019531221583428418,0.025908603237321734,0.9708834780622075
2011-07-18,-1,-0.001985869538878306,-0.0017884622625739086,-0.015135111000624533,0.03108962103064547,0.970569095984094
2011-07-20,1,0.0008513690351108198,0.0010666307610904557,-0.015135111000624533,0.023523019351227754,0.9719336279865395
2011-07-22,1,0.0014404296632143608,0.0017264936429597928,-0.021239310764783026,0.01301521777839228,0.9720261123214453
2011-07-26,1,0.001210683486609733,0.0015152682165752286,-0.021239310764783026,0.02475963298759839,0.9708757150994612
2011-07-28,0,0.0,0.0,-0.02781301608294841,0.02475963298759839,0.9705440283749784
2011-08-01,0,0.0,0.0,-0.02781301608294841,0.03434395474332399,0.969509464244045
2011-08-03,-1,-0.001884836715114349,-0.0017639951676929667,-0.013672184406733009,0.024228648023226416,0.9736297803846986
2011-08-05,0,0.0,0.0,-0.013672184406733009,0.01620999169696748,0.9754949597492358
2011-08-09,-1,-0.004144502222996489,-0.0037532346347965476,-0.009820881753300236,0.015321321976229447,0.9802085621207957
2011-08-11,-1,-0.0031178097463089322,-0.0028680160324520724,-0.012336010122189404,0.007364352248035286,0.9842020697720768
2011-08-15,0,0.0,0.0,-0.012336010122189404,0.0056616288575386635,0.9856833836669724
2011-08-17,-1,-0.0015147331735314927,-0.001485840284836197,-0.012336010122189404,0.007638542794758745,0.984726515482796
2011-08-19,0,0.0,0.0,-0.012336010122189404,0.01239273253686114,0.9839878033807808
2011-08-23,-1,-0.0011191714882278114,-0.0010915769442276474,-0.01393186238520216,0.008792924249138245,0.9843642050877415
2011-08-25,-1,-0.0006189141184679601,-0.0004799079481549293,-0.01393186238520216,0.008792924249138245,0.9825403527498398
2011-08-29,0,0.0,0.0,-0.01393186238520216,0.009910295506922703,0.9831729167218057
2011-08-31,0,0.0,0.0,-0.018380976714328645,0.011953677237968406,0.9811064671068153
2011-09-02,-1,-0.0007620401936341632,-0.0006713206570101015,-0.02575815166955748,0.011953677237968406,0.979953789474844
2011-09-07,-1,-0.00028904058950950795,-0.00015002487538529757,-0.02575815166955748,0.01393648068116696,0.9799534373236849
2011-09-09,-1,-0.0011124575185592154,-0.0010956073021099154,-0.02575815166955748,0.016096699811090104,0.9789257136278888
2011-09-13,-1,-0.00041618200407647437,-0.00024260876918405744,-0.02575815166955748,0.01947037154033615,0.9776475419445829
2011-09-15,0,0.0,0.0,-0.02575815166955748,0.01947037154033615,0.9781753071488283
2011-09-19,0,0.0,0.0,-0.02575815166955748,0.022191669568197108,0.9778712163299103
2011-09-21,0,0.0,0.0,-0.01971808819906011,0.02296809200292788,0.9772854243448788
2011-09-23,-1,-0.002001293929349549,-0.0019683416112093116,-0.01760574941028184,0.02427671192721099,0.9780452877141628
2011-09-27,-1,-0.0009375481015836323,-0.0008571124925413533,-0.01971808819906011,0.02427671192721099,0.9777742633509335
2011-09-29,-1,-0.00041576429828443865,-0.0002569618447516214,-0.01760574941028184,0.026810759683978013,0.9769907706878265
2011-10-03,-1,-0.0031931989131101022,-0.002958006524186313,-0.0035582153091120415,0.026810759683978013,0.9762782630693656
2011-10-05,-1,-0.0014970050550474534,-0.0014335206713650933,-0.01760574941028184,0.027695379916058364,0.9757455174343503
2011-10-07,-1,-0.0012562136688149246,-0.001210229387376976,-0.012560750177693928,0.027695379916058364,0.9761683227923963
2011-10-11,0,0.0,0.0,-0.012560750177693928,0.027695379916058364,0.9770058758465546
2011-10-13,0,0.0,0.0,-0.019743889913983913,0.02719205398989611,0.9756353224741028
2011-10-17,-1,-0.0001967223019039165,-0.00013801876107281033,-0.012560750177693928,0.028245170543004204,0.9764934884762405
2011-10-19,1,0.0006454406050582866,0.0008676852866187713,-0.014075818361993946,0.026994023226293292,0.9779098885635636
2011-10-21,1,0.001276634386156471,0.0015317571947276024,-0.014075818361993946,0.018399458275873023,0.9793106761533753
2011-10-25,1,0.0005478435634729257,0.0006766879608942647,-0.013448449816176489,0.018399458275873023,0.9797783008178529
2011-10-27,1,0.002112172120859568,0.002435203752662438,-0.021286232420628295,0.011933641993479648,0.9821844395385959
2011-10-31,1,0.0010480006382585583,0.0012348549986765929,-0.013448449816176489,0.013379910474379982,0.9825676191026724
2011-11-02,1,0.0008033868228705921,0.0009428685986190733,-0.008684527064205163,0.013379910474379982,0.9840483696650648
2011-11-04,1,0.0010481815795001896,0.0012089426044089085,-0.007695010943951092,0.011933641993479648,0.9855482190992774
2011-11-08,0,0.0,0.0,-0.0089646402213083,0.00580672572547853,0.9859131567025545
2011-11-10,0,0.0,0.0,-0.0089646402213083,0.00580672572547853,0.9867179501552404
2011-11-14,0,0.0,0.0,-0.01850898605107946,0.004565389484574277,0.9860684831349036
2011-11-16,0,0.0,0.0,-0.015455981313529633,0.00580672572547853,0.9857899408442482
2011-11-18,0,0.0,0.0,-0.01605333408423179,0.004565389484574277,0.9852918160445853
2011-11-22,0,0.0,0.0,-0.014926123522882997,0.011771107160149478,0.9840535433240698
2011-11-25,1,0.0007221116333976584,0.0008936719125860651,-0.012693735311697445,0.012713138243374488,0.9847317399534287
2011-11-29,1,0.0017502172516212326,0.002076977354125314,-0.014926123522882997,0.01160147739876078,0.9851951906094865
2011-12-01,1,0.0024040982353858167,0.0028026959159771297,-0.014926123522882997,0.01160147739876078,0.9858231864299434
2011-12-05,1,0.0018677769569608654,0.0021525366517946144,-0.014926123522882997,0.012668108282000103,0.9855315364109057
2011-12-07,1,0.001517581540550652,0.0017455340874930991,-0.014926123522882997,0.012668108282000103,0.9857455188841178
2011-12-09,0,0.0,0.0,-0.010655955615314487,0.01160147739876078,0.9873398463178548
2011-12-13,0,0.0,0.0,-0.005581452118641817,0.01160147739876078,0.988899996511137
2011-12-15,0,0.0,0.0,-0.005581452118641817,0.010426735753582583,0.9898617138134926
2011-12-19,0,0.0,0.0,-0.004590323293363506,0.01160147739876078,0.9899934893322279
2011-12-21,0,0.0,0.0,-0.004901776991026472,0.010740746114657586,0.9912114653363648
2011-12-23,0,0.0,0.0,-0.004901776991026472,0.009074197567369352,0.99133571922866
2011-12-28,0,0.0,0.0,-0.004901776991026472,0.009074197567369352,0.9920787818539224
2011-12-30,0,0.0,0.0,-0.0051210323341175385,0.00762389888277662,0.9909910801543322
2012-01-04,1,3.4240101987583794e-05,7.864253734618184e-05,-0.0051210323341175385,0.006948207197178943,0.9913217736999402
2012-01-06,1,0.0011517885477836383,0.0013131670550425736,-0.004620861914056801,0.00762389888277662,0.9911534652724262
2012-01-10,1,0.0014103026369756033,0.0016167008981529617,-0.0026786376516892575,0.009796004689639455,0.9905839911807577
2012-01-12,1,0.0007863014971578648,0.000854869070217642,-0.004014963190069875,0.011392856226793455,0.9901371210462528
2012-01-17,1,0.0006819611818203843,0.0007913722631665121,-0.0026786376516892575,0.01208896693612514,0.9900002266439479
2012-01-19,0,0.0,0.0,-0.003570648917224335,0.011080160600625635,0.9904134308607694
2012-01-23,0,0.0,0.0,-0.0026392473010781316,0.009251272160361073,0.9914733215668362
2012-01-25,0,0.0,0.0,-0.0013967010085018457,0.008046640797895679,0.9914389553924495
2012-01-27,0,0.0,0.0,-0.0013967010085018457,0.008046640797895679,0.9911390199134598
2012-01-31,0,0.0,0.0,-0.0013967010085018457,0.008046640797895679,0.9923147063103066
2012-02-02,-1,-0.0003899062300654554,-0.0003802478143566087,-0.0004043347966699425,0.007898709929600296,0.9924332346227612
2012-02-06,-1,-0.00018376789233976842,-0.0001667069935679976,-0.003673350614647115,0.006976674816241769,0.9913075688992368
2012-02-08,1,0.0013091417561980983,0.0016128705929105004,-0.003673350614647115,0.006976674816241769,0.9920935796834509
2012-02-10,1,0.0015808175126122617,0.001737308407508277,-0.0006457674922835473,0.006551345404441232,0.9925969971760645
2012-02-14,0,0.0,0.0,-0.003673350614647115,0.006196991052340664,0.9908820518831521
2012-02-16,0,0.0,0.0,-0.001496319117927861,0.0061228269125435195,0.9910613965347069
2012-02-21,0,0.0,0.0,-0.003619215785017335,0.0061228269125435195,0.9908326621963949
2012-02-23,1,0.0005137660714967984,0.0005546890261275315,-0.00456235342516606,0.005866199938401198,0.9911299266542113
2012-02-27,-1,-0.0005796102081934967,-0.00038127979440671315,-0.003619215785017335,0.005657303933122397,0.9912386435284433
2012-02-29,-1,-0.00022979473837106808,-0.0001006098947559843,-0.003920776569083843,0.005657303933122397,0.9909061253329765
2012-03-02,-1,-0.0002978676385327662,-0.0001336644492524071,-0.003920776569083843,0.005657303933122397,0.9909796643416287
2012-03-06,-1,-0.0006500939384510313,-0.000489662516204538,-0.003920776569083843,0.005866199938401198,0.9912791856519261
2012-03-08,1,0.0003735527678848119,0.0003991928782813891,-0.005467035777365586,0.005657303933122397,0.9914986396211392
2012-03-12,0,-8.238938319470214e-05,1.3250850211428086e-05,-0.007169382197879439,0.005440869621559598,0.9911020413076006
2012-03-14,0,0.0,0.0,-0.005467035777365586,0.00540741319970465,0.9926850690319863
2012-03-16,0,0.0,0.0,-0.007169382197879439,0.004214533927747574,0.9923621978439957
2012-03-20,0,0.0,0.0,-0.00919687759017431,0.004214533927747574,0.9917308245817705
2012-03-22,1,0.0015532096701759701,0.0017378295164634122,-0.00919687759017431,0.004214533927747574,0.9914960734396079
2012-03-26,1,0.0009339742636042812,0.0010036631375134864,-0.009788841706841517,0.004041139195625578,0.9906734839987749
2012-03-28,0,0.0,0.0,-0.008851181986366639,0.0047781651858050085,0.9917136100509875
2012-03-30,0,0.0,0.0,-0.008851181986366639,0.0037952271585202954,0.9918838144531865
2012-04-03,0,0.0,0.0,-0.008225540748427794,0.0037952271585202954,0.9898629010783385
2012-04-05,0,0.0,0.0,-0.008851181986366639,0.0037952271585202954,0.9898306198552399
2012-04-10,0,0.0,0.0,-0.008225540748427794,0.00677258607042119,0.9895105704130429
2012-04-12,0,0.0,0.0,-0.008851181986366639,0.010898690846764673,0.9882219064056714
2012-04-16,0,0.0,0.0,-0.008851181986366639,0.010898690846764673,0.9875906338726241
2012-04-18,0,0.0,0.0,-0.009462591151415534,0.007201887774052399,0.9875508952245065
2012-04-20,0,0.0,0.0,-0.009566404995812102,0.007201887774052399,0.9872665024763224
2012-04-24,0,-7.817858006514005e-06,9.82241463867609e-05,-0.009566404995812102,0.007201887774052399,0.9880526263718635
2012-04-26,1,0.0006960944029885933,0.0007777115362184372,-0.009566404995812102,0.007201887774052399,0.9875663514079454
2012-04-30,1,0.00035635249320651284,0.0003772571935338413,-0.009566404995812102,0.00844961358595264,0.9875096555034268
2012-05-02,1,0.0019406280984908242,0.0021450995603100186,-0.009969426774952604,0.0065042121725958826,0.9898751249218858
2012-05-04,1,0.0010619216733246024,0.0011215925969071667,-0.009969426774952604,0.0065042121725958826,0.9894976148731374
2012-05-08,0,0.0,0.0,-0.009969426774952604,0.0065042121725958826,0.9887580337170722
2012-05-10,0,0.0,0.0,-0.009228259478057091,0.0057513615452804805,0.9900043594844181
2012-05-14,0,0.0,0.0,-0.008477309693552768,0.006122625563769723,0.9906366602492859
2012-05-16,0,0.0,0.0,-0.008477309693552768,0.006122625563769723,0.9907250577472101
2012-05-18,0,0.0,0.0,-0.007696561342797245,0.006451893957346462,0.9909080939351915
2012-05-22,0,0.0,0.0,-0.00877477331747371,0.005748803668689842,0.9892779723872769
2012-05-24,0,0.0,0.0,-0.009408725337360431,0.0050242267307361406,0.9888937066467273
2012-05-29,0,0.0,0.0,-0.012260288249568853,-0.0009324783130238538,0.988411458977269
2012-05-31,0,0.0,0.0,-0.010899829767818708,0.006451893957346462,0.9884814286389738
2012-06-04,-1,-0.0014949477861772858,-0.001207408749625902,-0.010781466093228312,0.007775738257105356,0.9889844652829215
2012-06-06,1,6.576089760016899e-05,0.000148483854970027,-0.016378510517172498,0.0015195180155666453,0.9896776517054543
2012-06-08,-1,-0.0009242870824447811,-0.0006954687434216125,-0.016733942272743076,0.0015195180155666453,0.9889646654643288
2012-06-12,0,0.0,0.0,-0.016733942272743076,0.001360582940729744,0.9889697636144865
2012-06-14,0,0.0,0.0,-0.016378510517172498,0.003013101238624768,0.9892339307725735
2012-06-18,0,0.0,0.0,-0.016733942272743076,0.003013101238624768,0.9883054501526574
2012-06-20,0,0.0,0.0,-0.016378510517172498,0.00454403608730162,0.9893474054547303
2012-06-22,0,0.0,0.0,-0.013555285718251889,0.00454403608730162,0.989577273522619
2012-06-26,0,0.0,0.0,-0.011587314750482008,0.00454403608730162,0.9903046310145017
2012-06-28,0,0.0,0.0,-0.011587314750482008,0.005606996069343154,0.9896623726141396
2012-07-02,0,0.0,0.0,-0.011587314750482008,0.003013101238624768,0.9885156864438006
2012-07-05,-1,-0.003106899314195697,-0.0026955198620806997,-0.01341895583986218,0.003013101238624768,0.9882818308249862
2012-07-09,-1,-0.0035567998691936153,-0.003133972556088598,-0.011587314750482008,0.00580153996021559,0.9883421272297098
2012-07-11,-1,-0.0032861059586153686,-0.002900001266193132,-0.011587314750482008,0.012687048195656123,0.9869297897006182
2012-07-13,-1,-0.003348403666470233,-0.002962435383798364,-0.012352605246869038,0.012687048195656123,0.986725863534543
2012-07-17,-1,-0.003108347569974004,-0.002771222508232221,-0.010777943395396627,0.005853874127042467,0.988004182851081
2012-07-19,-1,-0.003205732775634908,-0.0028567274743899274,-0.007680857994006155,0.005954125307952101,0.9879321350557434
2012-07-23,-1,-0.003707932028498692,-0.003279202548502189,-0.005949038258259467,0.013055249857905744,0.9873709490988183
2012-07-25,0,0.0,0.0,-0.006066086997785626,0.013055249857905744,0.9878624736523094
2012-07-27,0,0.0,0.0,-0.006066086997785626,0.004264380741754237,0.9889405925468113
2012-07-31,-1,-0.0040286722567400325,-0.0035782076957832786,-0.00460642893067994,0.004264380741754237,0.9907320415678571
2012-08-02,-1,-0.0048093158458601725,-0.004276183347201963,-0.001995756900492668,0.006855447871825354,0.9909893883586626
2012-08-06,-1,-0.00388176890376695,-0.003474734528283544,-0.001995756900492668,0.006855447871825354,0.9918514968209738
2012-08-08,-1,-0.002386650605997572,-0.002166378650141994,-0.0027735732637403873,0.006855447871825354,0.9926750139739611
2012-08-10,-1,-0.00303338843828814,-0.0027490674537948116,-0.0023526368436350446,0.006855447871825354,0.9932805441559744
2012-08-14,-1,-0.003050953132615644,-0.0027612288202210054,-0.0023526368436350446,0.006855447871825354,0.9930481650151434
2012-08-16,0,0.0,0.0,-0.003199489642136057,0.0067034586722557864,0.993684059114899
2012-08-20,0,0.0,0.0,-0.0023526368436350446,0.005266355571921703,0.9945349636015386
2012-08-22,0,0.0,0.0,-0.0023526368436350446,0.005266355571921703,0.9946013653385299
2012-08-24,0,0.0,0.0,-0.0022921914545907286,0.005483737089193655,0.9941387175445098
2012-08-28,0,0.0,0.0,-0.003199489642136057,0.005928312400409417,0.9937163275653168
2012-08-30,0,0.0,0.0,-0.005222110438868018,0.005007973481306247,0.9933780050327111
2012-09-04,-1,-0.00011899809349044378,-4.082777284862294e-05,-0.005222110438868018,0.004333933953343841,0.9927931200801656
2012-09-06,1,0.0003842123973086062,0.0005080844440602014,-0.003199489642136057,0.004333933953343841,0.9942329249996068
2012-09-10,1,0.0002451285547818103,0.0003663051284752825,-0.002933212775723493,0.004333933953343841,0.9941883159798813
2012-09-12,1,0.00010743712134656289,0.0001981821348643883,-0.0030327696090571604,0.004333933953343841,0.9941175873637635
2012-09-14,1,0.0003682177637233856,0.0005162011181455075,-0.002152837448822135,0.0039147767669619965,0.9948061125030425
2012-09-18,1,0.0005234988395401128,0.0006982621764592531,-0.002152837448822135,0.004333933953343841,0.9937342831976319
2012-09-20,1,0.00013566338954750374,0.0002448115968844918,-0.0007874110000361092,0.0057882719330810024,0.9933074656162041
2012-09-24,1,0.0019305229466390946,0.002392416015407171,-0.003228880139016522,0.004333933953343841,0.9927964627249753
2012-09-26,1,0.0015272949490540868,0.0018966784290924,-0.008863263715217177,0.0039147767669619965,0.9912018288061456
2012-09-28,1,0.0016644053601833817,0.0021061689385169593,-0.003457094961268491,0.0039147767669619965,0.9920167446164958
2012-10-02,0,0.0,0.0,-0.007506188782248617,0.0031269154173604614,0.9919466606424957
2012-10-04,1,0.0021474506252918907,0.0026771483085911824,-0.009246565798883243,0.0022242640175576364,0.9911555318539981
2012-10-08,1,0.001966573330027574,0.002429325912456537,-0.010281156927787936,0.0018926854822727643,0.9899942492925429
2012-10-10,1,0.0015975490248790422,0.0019953939054899164,-0.014101319962964178,0.0018926854822727643,0.9894634390007364
2012-10-12,1,0.0018577276788290739,0.002313819374834182,-0.015193342589190612,0.0018926854822727643,0.9884183547877554
2012-10-16,1,0.002851918122126281,0.0034449205627735814,-0.015193342589190612,-0.0004912701528008586,0.9875769309345346
2012-10-18,1,0.0032471253222863517,0.0039176262418420624,-0.015193342589190612,0.0014015866822143393,0.986224942714053
2012-10-22,1,0.002158665653980875,0.0026573149019074455,-0.013509647476010425,0.0022242640175576364,0.987576119307575
2012-10-24,1,0.0006444608434703117,0.0009013468781853645,-0.009246565798883243,0.004092744681011534,0.9893968751635861
2012-10-26,1,0.0016045967162484746,0.0020644677289095186,-0.009603970083949045,0.007245826360853107,0.9885091558715985
2012-11-01,1,0.0016378736560163,0.002079797608401379,-0.009603970083949045,0.006119295719639872,0.9889412514188589
2012-11-05,1,0.0012142538409357323,0.0016124790194387644,-0.006460799787140975,0.006119295719639872,0.9898083487885616
2012-11-07,0,0.0,0.0,-0.0036357336958010747,0.006119295719639872,0.9909748359427802
2012-11-09,0,0.0,0.0,-0.0035197161179383956,0.008139719231242121,0.9909052971532899
2012-11-13,0,0.0,0.0,-0.002089308387743597,0.0088774101771685,0.9914216432104818
2012-11-15,0,0.0,0.0,-0.002217976956321124,0.0088774101771685,0.991997987147549
2012-11-19,1,0.00035194196334369457,0.00041017981686512273,-0.002217976956321124,0.008330298843136208,0.9924455692480365
2012-11-21,1,0.0020184797794172305,0.002209162653980434,-0.002324506206040154,0.00667798454652438,0.993486166361483
2012-11-26,0,0.0,0.0,-0.0026752847965974425,0.006119295719639872,0.9935768257089983
2012-11-28,0,0.0,0.0,-0.0026752847965974425,0.005268583150638696,0.9938954793788357
2012-11-30,0,0.0,0.0,-0.003931293043102478,0.005618744080917172,0.9929293347411329
2012-12-04,-1,-0.0003987754691021292,-0.000344368223679846,-0.007006377032876984,0.008330298843136208,0.9905406271213864
2012-12-06,-1,-0.0006768554727240332,-0.0005669699275194548,-0.007800306039256109,0.011354406514511145,0.9872582978489919
2012-12-10,-1,-0.00029692374733371893,-0.00022784822693224885,-0.007080377352360789,0.011251002617569702,0.9876121743093059
2012-12-12,1,0.00021118874178675898,0.00021733869705438993,-0.007080377352360789,0.011251002617569702,0.9877965891517614
2012-12-14,-1,-0.0005396475192024734,-0.0004079226347492048,-0.007080377352360789,0.011251002617569702,0.9874506311332747
2012-12-18,1,0.000768096611914838,0.0007722997573761862,-0.007080377352360789,0.00876751723507722,0.9884005529206944
2012-12-20,1,0.0013177256213864567,0.0014700067111285068,-0.005692358488331476,0.011884907681642581,0.9878885459928138
2012-12-24,0,0.0,0.0,-0.005692358488331476,0.012373841633356721,0.9871362307533675
2012-12-27,0,0.0,0.0,-0.005692358488331476,0.012373841633356721,0.9869902508903398
2012-12-31,0,0.0,0.0,-0.004905381875144905,0.01206362994253239,0.9881944560947556
2013-01-03,1,0.0046515813458292525,0.004821238166607044,-0.004905381875144905,0.00876751723507722,0.9897560069030491
2013-01-07,0,0.0,0.0,-0.004905381875144905,0.00876751723507722,0.9917241098779869
2013-01-09,0,0.0,0.0,-0.004905381875144905,0.009049643392908473,0.9907445903500731
2013-01-11,-1,-0.0001551644644291954,-0.00012349939770148286,-0.004873885510146384,0.009049643392908473,0.9908210275205845
2013-01-15,1,7.208798004722935e-05,8.46430024558493e-05,-0.0034387253317684345,0.013116825661981177,0.9900031928949311
2013-01-17,1,0.00029657336944060415,0.00031615692408999663,-0.0034387253317684345,0.013785170686315948,0.9885603391019454
2013-01-22,1,0.0008340823501373311,0.0009303689333985783,-0.003616804443418464,0.013597168125107643,0.9880736283109794
2013-01-24,1,0.0006582938551298645,0.0007226053788033306,-0.003616804443418464,0.01243463229839962,0.9887558550229728
2013-01-28,1,0.000273253285803345,0.0003014259565639977,-0.003616804443418464,0.01243463229839962,0.9886135002696788
2013-01-30,1,0.0005196519594757471,0.0006066834855569285,-0.00467544835115712,0.01243463229839962,0.9883493559545182
2013-02-01,1,0.0008149071004427419,0.0009765924188810384,-0.003316337018775127,0.01243463229839962,0.9887720641690217
2013-02-05,1,0.001421868280989955,0.0016491632946888687,-0.0022270273685402056,0.00861662139476378,0.9906281737142881
2013-02-07,1,0.00223602181540356,0.002564760496738791,-0.001186179482904917,0.007710418379965559,0.9921978105458603
2013-02-11,1,0.0022367801793236417,0.002569427490967395,-0.0013054338701391222,0.007710418379965559,0.9921586322052129
2013-02-13,1,0.003226660606561575,0.0036913389219507733,-0.0013054338701391222,0.006375855049594901,0.992881444577193
2013-02-15,1,0.004321786745883446,0.004908894062701586,-0.0029376718328223733,0.004410908799377052,0.993578305861074
2013-02-20,1,0.004261092555209731,0.004877450131996536,-0.0013054338701391222,0.004410908799377052,0.9947994626472835
2013-02-22,1,0.0036286776196834203,0.004151338836829809,-0.0013054338701391222,0.005245020370405099,0.9952584810361071
2013-02-26,1,0.0031738949000866337,0.003608923580352696,-0.0013054338701391222,0.005489093951458314,0.995472725613682
2013-02-28,1,0.0034391212640151486,0.0039603732566409295,-0.0006857860029941767,0.006384098452236126,0.9949304680124434
2013-03-04,1,0.0038421210529113303,0.004431930345077627,-0.0009872704428675366,0.007797079422699608,0.9943732184605073
2013-03-06,1,0.0041519190837753725,0.0047918179511838455,-0.0015040785197771472,0.008357165805906518,0.9926518416954693
2013-03-08,1,0.004111494767669319,0.004722159963218977,-0.0034455060116032337,0.008357165805906518,0.9922305004548092
2013-03-12,1,0.004037134151859574,0.004630804771218042,-0.007153233483432582,0.009818436238542639,0.9911169372956012
2013-03-14,1,0.004723578840001059,0.005458445894943796,-0.00962280653668605,0.008357165805906518,0.9903147988751919
2013-03-18,1,0.00454516311992747,0.005254273580906563,-0.010761330194808828,0.009818436238542639,0.9884929096768861
2013-03-20,1,0.00397998241006209,0.004523174877858128,-0.010761330194808828,0.008695554602215279,0.9881333735096535
2013-03-22,1,0.0028559266758785514,0.003164920341656963,-0.007382059011299976,0.00905438449550948,0.9886364756035095
2013-03-26,1,0.0028450886119481826,0.003157738830973826,-0.006873340614198846,0.010389918437475972,0.9886016705902116
2013-03-28,1,0.0036888781307143573,0.004112291481167747,-0.006873340614198846,0.010389918437475972,0.9882861416307704
2013-04-02,1,0.0034440611849132228,0.003786575536660142,-0.006873340614198846,0.010389918437475972,0.9879934110720371
2013-04-04,1,0.0022407672331809627,0.002369548058647636,-0.006873340614198846,0.009115680268190478,0.9890860869868688
2013-04-08,1,0.0010737145861485792,0.0011349236236879705,-0.006635198837676575,0.011042338379927644,0.9887767734566216
2013-04-10,1,0.0001365467696724667,0.0003514371480954037,-0.0051738178586781276,0.011075843857723047,0.9897031584544849
2013-04-12,-1,-0.0011455421058085094,-0.000744209256491691,-0.004933902931028937,0.011075843857723047,0.9894543396682836
2013-04-16,-1,-0.001145089043205095,-0.0008211437982901036,-0.0037925958699500106,0.009115680268190478,0.9919179541875685
2013-04-18,-1,-0.0012641855983868684,-0.0009647311406703628,-0.0032124248710066377,0.011075843857723047,0.9904599191476227
2013-04-22,-1,-0.0008408224265505453,-0.0006030538588053218,-0.0060258115188112134,0.014365810156722107,0.9890543925249143
2013-04-24,-1,-0.0008976066120048811,-0.0006463478141956823,-0.009669251876741006,0.014365810156722107,0.9885489249526117
2013-04-26,1,6.887302169816134e-05,0.0002070952374990247,-0.009669251876741006,0.010152993479219087,0.9898509994328487
2013-04-30,1,0.00031345553297198195,0.0004270144481512949,-0.011516203150105023,0.008008459824775471,0.9894158024755076
2013-05-02,1,0.0002018485238819609,0.00032594431356372744,-0.014644564675712011,0.008008459824775471,0.9881727588499543
2013-05-06,1,0.00010443195066242898,0.0002441858621206877,-0.014644564675712011,0.009438594337511503,0.9883662165168382
2013-05-08,1,0.0007113385049443194,0.000772715633534986,-0.014644564675712011,0.008008459824775471,0.9883755806614481
2013-05-10,1,4.37456261895061e-05,0.00019359484270456515,-0.013052332790196885,0.00822528521479294,0.9886884284700231
2013-05-14,1,0.0009829024514080434,0.0010145509988664788,-0.013052332790196885,0.00822528521479294,0.9884675384870885
2013-05-16,1,0.0004827938458341072,0.0005315359537246229,-0.009993422502398312,0.00822528521479294,0.989017585913584
2013-05-20,1,0.00039318375726306147,0.0004722652279271765,-0.008468550180717085,0.00822528521479294,0.9900048014691807
2013-05-22,0,-0.0001419148667940868,1.922536251968321e-05,-0.009993422502398312,0.0077463693843265475,0.989420407066827
2013-05-24,-1,-0.000500187813249246,-0.00029011614190459385,-0.009993422502398312,0.008652323016164734,0.9888857051132736
2013-05-29,-1,-0.0007448471059049716,-0.0005374672600803396,-0.007529359106078026,0.011129950272171717,0.9892258421214818
2013-05-31,-1,-0.0026138998140938516,-0.0021458481051767403,-0.005362577491321216,0.011129950272171717,0.9898023894289115
2013-06-04,-1,-0.0014638544146571009,-0.0011576404733040914,-0.005362577491321216,0.01251437914902604,0.9899375760016238
2013-06-06,-1,-0.0019404652818918815,-0.0015718792826105378,-0.002499278388149794,0.01251437914902604,0.9902557474060114
2013-06-10,-1,-0.001670925574941086,-0.0013279802569951102,-0.002499278388149794,0.013171975839648808,0.9898656865399038
2013-06-12,-1,-0.0017984556117040687,-0.0014537812428762236,0.0010780289583932757,0.013171975839648808,0.989358619346979
2013-06-14,-1,-0.001468115127482937,-0.0011771773712900082,0.0010780289583932757,0.01251437914902604,0.9904125890840759
2013-06-18,-1,-0.0007986823897237473,-0.0005765541449605649,-0.001910120159856931,0.01072592888629019,0.9912199409022148
2013-06-20,-1,-0.0025150868697143697,-0.0020708644890761437,0.0013681606574888158,0.01251437914902604,0.9905156774943225
2013-06-24,-1,-0.002231810838648673,-0.0018184080747838834,0.0013681606574888158,0.011177048594146059,0.9904559700866203
2013-06-26,-1,-0.001832234432811473,-0.0014606251711480652,-0.0008502117404408348,0.011330749879365885,0.9904227180763511
2013-06-28,-1,-0.0011907573840789132,-0.0008929961190589154,-0.001910120159856931,0.011330749879365885,0.9908467668702343
2013-07-02,0,0.0,0.0,-0.0039724227881184114,0.010331385796403471,0.99137975485604
2013-07-05,0,0.0,0.0,-0.0039724227881184114,0.011210149236610487,0.9900926376379688
2013-07-09,0,0.0,0.0,-0.0039724227881184114,0.010562746866529426,0.9908495612401891
2013-07-11,0,0.0,0.0,-0.00468668719876611,0.011210149236610487,0.9906230779380115
2013-07-15,0,0.0,0.0,-0.00468668719876611,0.011210149236610487,0.9905747887463281
2013-07-17,0,0.0,0.0,-0.002605102704414584,0.011210149236610487,0.9910899914927643
2013-07-19,0,0.0,0.0,-0.00468668719876611,0.010562746866529426,0.990233609841871
2013-07-23,0,0.0,0.0,-0.00468668719876611,0.00841158532573383,0.990548801325892
2013-07-25,0,0.0,0.0,-0.006733478692046783,0.006385608757984754,0.9912824629328628
2013-07-29,1,0.029340329640956588,0.0340482754252502,-0.006733478692046783,0.006385608757984754,0.9669498638057372
2013-07-31,1,0.0017072153979864947,0.001853419914901195,-0.004157278424549143,0.0058517810591013335,0.9900687935124379
2013-08-02,1,0.0025601887240664528,0.0028167216530315506,-0.004157278424549143,0.0058517810591013335,0.9905839323962197
2013-08-06,1,0.0030399874053496706,0.003370823367004936,-0.004157278424549143,0.0058517810591013335,0.9899443081755852
2013-08-08,1,0.002851436300179199,0.0031395759073561233,-0.006733478692046783,0.005502694661374508,0.9900945194823118
2013-08-12,0,0.0,0.0,-0.006733478692046783,0.0058517810591013335,0.9897386134289212
2013-08-14,0,0.0,0.0,-0.006733478692046783,0.0058517810591013335,0.9896839790935369
2013-08-16,0,0.0,0.0,-0.004490178319500155,0.006149748929445936,0.9908655505194421
2013-08-20,0,0.0,0.0,-0.001977854029087564,0.007028247349359318,0.9911482899263574
2013-08-22,0,0.0,0.0,-0.0009861599071588172,0.007028247349359318,0.9915442194531195
2013-08-26,0,0.0,0.0,-0.0009861599071588172,0.007028247349359318,0.9932520812873927
2013-08-28,0,0.0,0.0,-0.0013459655159658683,0.007028247349359318,0.9931582164907837
2013-08-30,0,0.0,0.0,-0.0016904115082754935,0.006898377772046034,0.9932369199252669
2013-09-04,-1,-0.0011806533694783238,-0.0010389258937267688,-0.0016904115082754935,0.006898377772046034,0.9938441928880855
2013-09-06,-1,-0.0021547048376742896,-0.0018535381299879243,-0.001700310240430238,0.006898377772046034,0.9936646656083072
2013-09-10,-1,-0.002181643719735213,-0.001859257906512121,-0.004484959192977748,0.005240410305295581,0.9938026485474939
2013-09-12,-1,-0.002003583663699648,-0.0017123480487681365,-0.0036185527347685764,0.006898377772046034,0.9927060604575666
2013-09-16,-1,-0.0017596103294120063,-0.0015343758145546847,-0.006622167073086024,0.005748137021219566,0.9928171207547815
2013-09-18,1,0.0011148483205914148,0.001156018616789145,-0.006622167073086024,0.005748137021219566,0.9922138463033429
2013-09-20,1,0.0011780335180212793,0.0012624590506425798,-0.006622167073086024,0.00855498692506945,0.9919993078234158
2013-09-24,1,0.0006340979323520406,0.0006394274739100736,-0.004621838491492228,0.010192315169782919,0.9911311467947871
2013-09-26,1,0.0006731830614618647,0.000677170835530632,-0.005757095779380576,0.010192315169782919,0.9910028506991485
2013-09-30,1,0.0009289426683456336,0.0009952354000357711,-0.004435804027692395,0.011997342603762146,0.990768388934622
2013-10-02,1,0.001027054658225014,0.0010827221890861338,-0.004435804027692395,0.01737777898367065,0.9898713894145859
2013-10-04,1,0.0004851626048953198,0.0004974218574385585,-0.002843586613196313,0.01737777898367065,0.9903079731562567
2013-10-08,-1,-0.00011802050496953145,-3.1251997632874114e-05,-0.002263418575180202,0.019044175655035182,0.989588891524395
2013-10-10,1,0.0009534634731138442,0.0010077763816924584,-0.002843586613196313,0.01737777898367065,0.9899069464553942
2013-10-14,1,0.0005830024893130805,0.0005920847249133659,-0.002843586613196313,0.01737777898367065,0.99042289644671
2013-10-16,1,0.000862471491159724,0.0008704477310582601,-0.0031393953534778834,0.017410526916237595,0.9894707456382243
2013-10-18,1,0.0009059866350693697,0.0009241172935512323,-0.005323230248537106,0.017410526916237595,0.9876884256662949
2013-10-22,1,0.0014744455918228915,0.0015051091973709786,-0.005323230248537106,0.010466110894491766,0.9889415427535185
2013-10-24,1,0.0014237364218019162,0.0014267040070267073,-0.005740305936788961,0.015104208965746786,0.9866606127449329
2013-10-28,1,0.0016176640872407517,0.001621723115685176,-0.008475402941516646,0.014632085622278785,0.9862510053875909
2013-10-30,1,0.0027126180870773297,0.002870091024686018,-0.008475402941516646,0.010466110894491766,0.9869275500161395
2013-11-01,1,0.0021830733630174917,0.002251216845712391,-0.012310525210212244,0.014045302699588164,0.9851529245007152
2013-11-05,1,0.003010192110799093,0.003191017625542551,-0.012310525210212244,0.014045302699588164,0.9857390829996477
2013-11-07,1,0.002521340702574295,0.0026771553951532713,-0.008475402941516646,0.014045302699588164,0.9859960170837374
2013-11-11,1,0.001486264656973148,0.001551298062052407,-0.007718746971047753,0.014045302699588164,0.9856813890122114
2013-11-13,1,0.0018549364379786136,0.0018714804077662114,-0.012973814814898692,0.013096203749660414,0.9855235854008504
2013-11-15,1,0.001152019895581495,0.00122361047591488,-0.007718746971047753,0.011718963088489352,0.9872033932949925
2013-11-19,1,0.0015911823190404711,0.0016026574984924367,-0.007718746971047753,0.015012219218720107,0.9848219049677821
2013-11-21,1,0.0021883457826323933,0.002306270920269857,-0.0071277671505410155,0.014946910435693853,0.986520568581148
2013-11-25,1,0.002153824848529577,0.002259272912065291,-0.006517883745638877,0.013383367645831536,0.9873242279452025
2013-11-27,1,0.0025590961395608276,0.0027649682055181798,-0.006517883745638877,0.013383367645831536,0.9875380242995834
2013-12-02,1,0.0021354645974930894,0.002308209665205409,-0.006332269174960779,0.011718963088489352,0.9890172619027955
2013-12-04,1,0.002781542607226856,0.003035796466171906,-0.006823222946632299,0.009419925818290755,0.9891629115461432
2013-12-06,1,0.0024988294577806204,0.002674759432648527,-0.00789680018407558,0.008144946822130463,0.9893738509031933
2013-12-10,1,0.003284461494661586,0.003617970349951507,-0.009540150639795691,0.005991032949496949,0.9889140235550062
2013-12-12,1,0.0014474483834492709,0.001525209881413011,-0.00789680018407558,0.005991032949496949,0.9905474812517542
2013-12-16,1,0.0014206149925014133,0.0014958452866007757,-0.00789680018407558,0.006203414238315432,0.9902996871014583
2013-12-18,1,0.0033839752595894628,0.0036933926277540182,-0.009540150639795691,0.0032891760334283005,0.9906548758348589
2013-12-20,1,0.003402494731271099,0.0037131383067876647,-0.00789680018407558,0.004825094009500984,0.990756230150652
2013-12-24,1,0.003771385063398064,0.004191569382047218,-0.010131336360775931,0.0032891760334283005,0.9876968599466757
2013-12-27,1,0.004257433292709105,0.004748836345132309,-0.010131336360775931,0.0032891760334283005,0.986624499484473
2013-12-31,1,0.003920693222556761,0.004391710686758114,-0.010898353797440443,0.005337658276268789,0.9862337363801396
2014-01-03,1,0.0036880597692233045,0.004137970318232797,-0.012185812921820253,0.00397466077088198,0.9858646941003109
2014-01-07,1,0.003253650702712896,0.0036409074388683276,-0.015197320580994964,0.0077401748632155536,0.9854057537157408
2014-01-09,1,0.0018462345960162801,0.0019627263774323615,-0.015197320580994964,0.011345778929361313,0.9854282021350397
2014-01-13,1,0.0007180849873051694,0.0007874424893704156,-0.015197320580994964,0.011345778929361313,0.9856139933492043
2014-01-15,1,0.0010671478232939149,0.0011303224666612062,-0.015197320580994964,0.010665298618451313,0.9864922664404869
2014-01-17,-1,-0.0015990520822893033,-0.0011425564339147974,-0.008207262818862974,0.010665298618451313,0.9875282797249874
2014-01-22,-1,-0.0006091735118482645,-0.0002656408111618339,-0.014342174743640874,0.008163373961051228,0.988334605315651
2014-01-24,-1,-0.002973613270031217,-0.0023823620228577607,-0.005512884847421907,0.008163373961051228,0.9905563282100291
2014-01-28,-1,-0.002066922975466991,-0.0016242162005251218,-0.003962772164563166,0.006143838314703732,0.9913995448483922
2014-01-30,-1,-0.0029037270241945735,-0.0023460486772851636,-0.003962772164563166,0.006913099787125131,0.9910660095470791
2014-02-03,-1,-0.003364677289932577,-0.0027693944878274404,-0.003962772164563166,0.010665298618451313,0.9896908849515377
2014-02-05,-1,-0.0037707239540430014,-0.003122190050247143,-0.0013629260407373683,0.007596898334184683,0.9902693486148743
2014-02-07,-1,-0.00217360828173544,-0.001746305646477343,-0.0013629260407373683,0.007360662338946172,0.9907226278336896
2014-02-11,-1,-0.0014183878906177364,-0.0010947266190429199,-0.0013629260407373683,0.007360662338946172,0.9912575920938653
2014-02-13,-1,-0.0012887094622821191,-0.000984962462135448,-0.003962772164563166,0.007360662338946172,0.9908703209821527
2014-02-18,-1,-0.0018469284726685715,-0.0014505002443728936,-0.0013629260407373683,0.00890174133335019,0.9904785708710587
2014-02-20,-1,-0.0023373013962199227,-0.001881747800620942,-0.0013629260407373683,0.00890174133335019,0.990831741626078
2014-02-24,-1,-0.0023885549382272626,-0.0019253981979161774,-0.0021252030419407885,0.00890174133335019,0.990787967273591
2014-02-26,-1,-0.0020751295027062943,-0.0016621122404851141,-0.0021252030419407885,0.00890174133335019,0.9907279070383092
2014-02-28,-1,-0.002288844523704687,-0.0018226710126824296,-0.0007112687512968771,0.00886209466629732,0.9913248166608772
2014-03-04,-1,-0.002642952007500989,-0.002104848099468329,-0.00017565921228378953,0.007301919547933135,0.9925247359511687
2014-03-06,-1,-0.0020211387069834137,-0.0015947163751724753,-0.00017565921228378953,0.007301919547933135,0.9930657530926938
2014-03-10,-1,-0.000801146070394916,-0.0005082309229974333,-0.0011063651529699004,0.004833790029807457,0.9948499818432555
2014-03-12,0,-0.00014990513675632478,3.890458439449436e-05,-0.0017835107490428359,0.004833790029807457,0.994576883195885
2014-03-14,-1,-0.00043660736129662705,-0.0002333869144829577,-0.0017835107490428359,0.005784700686472447,0.9947369318809818
2014-03-18,1,0.0007115827246747096,0.0007133040897574746,-0.0029211441510802417,0.005651407512959975,0.9945229054943614
2014-03-20,1,0.00017444574203187547,0.0002586078082137712,-0.0017835107490428359,0.006438151994924609,0.9940342947550718
2014-03-24,1,7.50812957955164e-05,0.0001439604301901032,-0.0025707642514518868,0.006438151994924609,0.9939959330405479
2014-03-26,1,0.0009558825827221786,0.0010543156602804945,-0.0025707642514518868,0.005651407512959975,0.9942492643748284
2014-03-28,1,0.001228916737027324,0.001354245682833663,-0.003674160106734487,0.004482679753477597,0.9942863085153449
2014-04-01,1,0.0017504893303035359,0.001999199805349055,-0.00471204659506149,0.005651407512959975,0.9924827838275122
2014-04-03,1,0.0011418438914349033,0.0012676652843151962,-0.00471204659506149,0.006520951855192046,0.9921574365820411
2014-04-07,1,0.0014053357160520208,0.0015600500780992934,-0.005103888707694407,0.005651407512959975,0.9922456603311636
2014-04-09,1,0.0020887059950092227,0.0023496240226737056,-0.005103888707694407,0.005651407512959975,0.9916070602144772
2014-04-11,1,0.0015051817179978855,0.001645978986643433,-0.005084008891857313,0.006523082403699106,0.9917315985572517
2014-04-15,1,0.0015132262017695753,0.0016736999977823163,-0.006224192263853832,0.006523082403699106,0.9914424417806856
2014-04-17,1,0.002010790877894684,0.002244207798097485,-0.006502481387778393,0.006396298002837325,0.9914440168176122
2014-04-22,1,0.001633168632218141,0.0018172670588651966,-0.007487956241647056,0.006396298002837325,0.9914610931489958
2014-04-24,1,0.0016140431390724535,0.001800284567369554,-0.007487956241647056,0.00678887775394643,0.9908733544926619
2014-04-28,1,0.0011827633357299476,0.0012860084310425354,-0.007487956241647056,0.007192215349462317,0.9903811178059447
2014-04-30,1,0.0011088585010900543,0.0012389656719418625,-0.006489231390462529,0.007192215349462317,0.9918201694372988
2014-05-02,1,0.0009747522849915843,0.0010906145485393387,-0.005145899466386563,0.006855601963420248,0.992301693095779
2014-05-06,1,0.0008084312845241877,0.0009209030977032328,-0.005415355258767214,0.006855601963420248,0.9921877331644793
2014-05-08,1,0.0006698755947830322,0.0006862041956165587,-0.005415355258767214,0.006855601963420248,0.9927726306779753
2014-05-12,1,0.0010151279763696923,0.0010783945002612288,-0.005415355258767214,0.006676673291932407,0.9932145672015726
2014-05-14,1,0.001352188188586863,0.0015681359292980092,-0.005415355258767214,0.006676673291932407,0.9922807837080994
2014-05-16,1,0.0013126071039487302,0.0015193949106148811,-0.0027433795092602327,0.008054717926838685,0.9922690459944483
2014-05-20,1,0.0009536281214488274,0.0011093030341223658,-0.0020174700360875665,0.008054717926838685,0.9927983854058975
2014-05-22,1,0.001394486515285229,0.0016266296911124191,-0.0020174700360875665,0.008054717926838685,0.9925908275705105
2014-05-27,1,0.001643170682931971,0.001893565894357281,-0.002887200330905003,0.007015916440558647,0.9926484463024873
2014-05-29,1,0.0017120990047432261,0.001964738878266711,-0.006357478838451161,0.0051824228030072856,0.9924912969415334
2014-06-02,1,0.0016386106278505914,0.0018684260867305406,-0.006357478838451161,0.005156820424718798,0.9924770161174998
2014-06-04,1,0.0010957630206883096,0.00122712810005334,-0.003263193183220577,0.008550671184062077,0.9920275154485332
2014-06-06,1,0.0013212828147653932,0.0014520508753623684,-0.003263193183220577,0.008983282633767239,0.9917166225334955
2014-06-10,1,0.001589296577451793,0.0017908458765051104,-0.006357478838451161,0.008983282633767239,0.9911452951870585
2014-06-12,-1,-0.00010003680745245667,-2.9005650317614237e-05,-0.00028822987437406543,0.01049946806084339,0.9907735643808203
2014-06-16,1,0.0009879721993167933,0.0011038127341850962,-0.003263193183220577,0.01049946806084339,0.991250784890497
2014-06-18,0,-5.607386695723063e-05,6.352958582623138e-05,-0.006357478838451161,0.01049946806084339,0.9904652016089303
2014-06-20,1,0.0002966953574551598,0.0003551246675045852,-0.004079891748662167,0.01049946806084339,0.9907359729492041
2014-06-24,-1,-0.0005255736040987577,-0.0003376211565692213,-0.0009377973503580431,0.01049946806084339,0.9911845102794132
2014-06-26,-1,-0.0012181582454561743,-0.0009146528521694634,-0.0009377973503580431,0.01049946806084339,0.9909381240627684
2014-06-30,-1,-0.001161800151261081,-0.0008650079279215351,-0.002379544731001726,0.01049946806084339,0.9909497394282025
2014-07-02,1,0.00016304288187092314,0.0002658276722378113,-0.007758890176407458,0.005953072448528769,0.9913876388903495
2014-07-07,1,0.0012721859645541274,0.0013268478797924073,-0.007758890176407458,0.004605201929925728,0.9921609502849151
2014-07-09,1,0.0006598199727172665,0.0006752934471912764,-0.006619336145940346,0.005510666096598038,0.9911938997899503
2014-07-11,1,0.0015719519451858168,0.0016578823260827063,-0.006619336145940346,0.004605201929925728,0.9924075580495056
2014-07-15,1,0.0008992100408383217,0.0009158507435559182,-0.0041600116192898745,0.005510666096598038,0.992130490164403
2014-07-17,1,0.0006013493208151647,0.0006577540664966706,-0.002703564754222616,0.008083482046959044,0.9923393007057898
2014-07-21,1,0.001071547600638483,0.0010716606024732248,-0.0037104448559671693,0.004762327281838145,0.9929036775516291
2014-07-23,1,0.0011835821264247926,0.0012097111510870262,-0.0037104448559671693,0.004762327281838145,0.992806019780892
2014-07-25,1,0.000984974439494044,0.0009971531822198128,-0.004606680481412693,0.004762327281838145,0.9925233355562619
2014-07-29,1,0.0005109195264874954,0.0005748428162466496,-0.004606680481412693,0.006898512428321257,0.9926317037635348
2014-07-31,1,0.00042560791613493256,0.00044103455684793124,-0.002703564754222616,0.007807211260650744,0.9933606915463024
2014-08-04,1,0.0008783297268792143,0.0009345380453110011,-0.002703564754222616,0.006814899993333036,0.9937509023978258
2014-08-06,1,0.0015224766057576591,0.001636057867354531,-0.0028009310070697562,0.0056836848960608675,0.9950832501586343
2014-08-08,1,0.0018281355769403373,0.0019946883193005605,-0.0028009310070697562,0.004360329958912877,0.9956273752378916
2014-08-12,1,0.0018750891927947785,0.0020342917150251933,-0.002155587272224473,0.0040488585702407945,0.9963007785874062
2014-08-14,1,0.0017133937455379171,0.0018277267885835158,-0.0030983668496756826,0.0040488585702407945,0.9959867898584082
2014-08-18,1,0.0016217874015747157,0.001736046211134744,-0.002155587272224473,0.004354742161118606,0.9956502432986887
2014-08-20,1,0.0017316154001519354,0.0018737234608991705,-0.0016882084872704244,0.005052309513613273,0.9950193789464588
2014-08-22,1,0.001330617457965712,0.0014207673458913677,-0.0016882084872704244,0.005052309513613273,0.9949538744423293
2014-08-26,1,0.0012111930761363296,0.0012696772638429842,-0.0016882084872704244,0.005052309513613273,0.9941454964773961
2014-08-28,1,0.0016141293343728542,0.0017416379352821032,-0.00306007742052626,0.005052309513613273,0.9933742058478058
2014-09-02,1,0.001969608186637521,0.0021751316361532675,-0.0040363864725555055,0.005987139798366648,0.9929873961072097
2014-09-04,1,0.0019022571247217439,0.0020877306961258756,-0.005114005147632733,0.005631869578084277,0.9925617597712877
2014-09-08,1,0.0019262972024192823,0.002105676092157328,-0.007834347020833592,0.007907596339443549,0.9916206140819686
2014-09-10,1,0.002202751321253734,0.0024411261176118695,-0.010982718829452003,0.007907596339443549,0.9891717438086324
2014-09-12,1,0.0019422932397594073,0.002117463739863804,-0.01435837772768891,0.007907596339443549,0.9879935276551867
2014-09-16,1,0.002492338895478423,0.002734310370523467,-0.018661425739458296,0.0038659378771452183,0.9846886801746795
2014-09-18,1,0.0029992277597623218,0.0032825412157530274,-0.018661425739458296,0.0030396400961185655,0.9849930472910974
2014-09-22,1,0.0022207887645580345,0.002354721376832851,-0.018661425739458296,0.007907596339443549,0.9838659606319508
2014-09-24,1,0.001990049822714286,0.002073587872362373,-0.018661425739458296,0.006887389364316159,0.9849425070243981
2014-09-26,1,0.0011297294900185755,0.0011840683295659964,-0.016886831653107233,0.004967449772878535,0.9860797886155556
2014-09-30,1,0.0015956621534553652,0.0016406702677114187,-0.018940972566343216,0.004967449772878535,0.9843682966307028
2014-10-02,1,0.001287309665558872,0.0013175547692820208,-0.018940972566343216,0.00782552592122162,0.9844268450117528
2014-10-06,1,0.0007133507665868702,0.0007986479701844771,-0.018940972566343216,0.00721011079635853,0.9849237808548938
2014-10-08,-1,-0.0016127810175348902,-0.0012543249874812834,-0.007690176456954449,0.015803925914105323,0.9839475827539215
2014-10-10,-1,-0.0034003956608167334,-0.002811423291903173,-0.0029428957976021172,0.015803925914105323,0.9839431151444268
2014-10-14,-1,-0.006372608972856075,-0.00544629877421784,0.001204234827713488,0.015803925914105323,0.9842231622298325
2014-10-16,-1,-0.0058196534243977,-0.004990117231304823,0.001204234827713488,0.015803925914105323,0.984801467427295
2014-10-20,-1,-0.0035148929485557725,-0.002967698968813935,0.001204234827713488,0.011821080312127353,0.9874432120178666
2014-10-22,-1,-0.003157478938532167,-0.002659739368338873,0.000754932788459976,0.011821080312127353,0.9877922782400741
2014-10-24,-1,-0.0036614509299704085,-0.0030790143752627,0.002490338889214026,0.011821080312127353,0.9870032547001285
2014-10-28,-1,-0.0030223614148188627,-0.0025540449733467575,0.002490338889214026,0.010872559915471973,0.9890575076062458
2014-10-30,-1,-0.0022606034479930757,-0.0018784637118532562,0.0015751882990100935,0.009419472245261247,0.9900965697012881
2014-11-03,-1,-0.0027374506797586094,-0.0022211406986173124,0.00019403772029936078,0.010872559915471973,0.9898322333090817
2014-11-05,1,0.0002454679818315961,0.00038085700736173087,-0.0013273378694401276,0.0070461635084416935,0.9931949341675139
2014-11-07,1,0.000407843248361976,0.0005194696577925446,-0.0013273378694401276,0.0070461635084416935,0.9929751281555051
2014-11-11,1,0.0008961505123014347,0.0009387832160946409,-0.005137221179569632,0.00785365755640143,0.9913542466091037
2014-11-13,1,0.00015254912588243212,0.0003125391014978327,-0.007763013965650669,0.00785365755640143,0.9903638030275542
2014-11-17,1,0.0007141012278529077,0.0008277216678192936,-0.00961023329066723,0.0052180103622443946,0.9908701601132889
2014-11-19,1,0.000749739257528669,0.0008577401001925587,-0.00961023329066723,0.006902597508506704,0.9893036390080906
2014-11-21,1,0.0015288510225280967,0.001563281052925752,-0.00961023329066723,0.00897577174973292,0.9882424948323613
2014-11-25,1,0.0020300300936345345,0.0021823425418309094,-0.00961023329066723,0.00897577174973292,0.9880719973709361
2014-11-28,1,0.0015253431141581118,0.0015854488421494055,-0.007971216471610715,0.00897577174973292,0.9881642226883677
2014-12-02,1,0.0025217890330049885,0.002792030948912594,-0.011385055092454396,0.0086279293927763,0.9879642882491682
2014-12-04,1,0.0019517981996889809,0.0021243926904316143,-0.011385055092454396,0.0086279293927763,0.9873151560078232
2014-12-08,1,0.0014704468686742146,0.0015667741888673245,-0.011882972163978343,0.008698789593184264,0.9868427563598188
2014-12-10,1,0.0008436757776831549,0.0008901429414397278,-0.011328319541788628,0.007000075939836167,0.9878972736873183
2014-12-12,-1,-0.000166503126554762,-9.494308016603522e-05,-0.010799853538429684,0.007000075939836167,0.988820049231381
2014-12-16,-1,-0.0006979083599649356,-0.0005568677814271634,-0.013023357731435568,0.007000075939836167,0.9883364892840504
2014-12-18,1,0.0004457662279822009,0.0004764760122727605,-0.013023357731435568,0.006511572621442086,0.9889551076660492
2014-12-22,1,0.000887186226421055,0.0009143450378529528,-0.013023357731435568,0.006369291941625457,0.9893986998678714
2014-12-24,1,0.0011804146879357612,0.001210602433111821,-0.013023357731435568,0.006369291941625457,0.9891434163490819
2014-12-29,1,0.0018628985248927052,0.002046620457663336,-0.015047272692651669,0.003080600782694538,0.98847787639484
2014-12-31,1,0.0011848912277959277,0.0012924050059445475,-0.015047272692651669,0.008168310442671651,0.9881927239993673
2015-01-05,1,0.00014590303828666284,0.00014960649224193503,-0.013023357731435568,0.009279733670067533,0.9879529654626389
2015-01-07,1,0.00010164931804342379,0.00010573239724857558,-0.013023357731435568,0.009279733670067533,0.984378385900764
2015-01-09,-1,-0.0008897792170678824,-0.0007705854570443187,-0.013461874682574843,0.009279733670067533,0.9842902210099898
2015-01-13,-1,-0.0012964332115129903,-0.0011309036532432056,-0.01449429410704054,0.009279733670067533,0.9841130521869395
2015-01-15,-1,-0.0024456671413789306,-0.0021221400244068244,-0.011018191061757207,0.010715591159792367,0.9836119077140895
2015-01-20,-1,-0.0023973651911060948,-0.0020827277176883856,-0.00861336211895755,0.010715591159792367,0.9843140159123458
2015-01-22,-1,-0.001360613295716285,-0.0011891500906064608,-0.00861336211895755,0.009561523716871266,0.9848841635862929
2015-01-26,-1,-0.00100871219272531,-0.0008910400418228324,-0.00861336211895755,0.009561523716871266,0.9849336449050778
2015-01-28,-1,-0.0015479354296005837,-0.0013736147355050891,-0.011337601905419976,0.009561523716871266,0.9846648490914921
2015-01-30,-1,-0.002042205307849129,-0.0018241748659926194,-0.007971825352613043,0.008831646059513433,0.9858409621983266
2015-02-03,-1,-0.0001365089357726116,-0.00012381669487967364,-0.009770748676961906,0.007141047170699919,0.9875571951632967
2015-02-05,-1,-0.0001517237834806819,-0.00014933318388221,-0.009770748676961906,0.007141047170699919,0.991173042078268
2015-02-09,-1,-0.0007485022806297382,-0.0007137052752747174,-0.009770748676961906,0.007141047170699919,0.9914107830718608
2015-02-11,-1,-0.0006777656924104058,-0.0006731776963374599,-0.007487190434178617,0.007828236004596917,0.9910139095607586
2015-02-13,1,3.0246040067738022e-05,0.00010729994815289836,-0.007782220041509169,0.004812818805736868,0.9917407296163341
2015-02-18,-1,-0.00018228987336332334,-0.0001311352721721106,-0.007782220041509169,0.007141047170699919,0.9909022478323123
2015-02-20,0,-3.8396497263953894e-05,1.0403980698045018e-05,-0.009770748676961906,0.007225399624961823,0.9901614134520705
2015-02-24,1,0.00044733862699588574,0.000571666228077454,-0.009770748676961906,0.004812818805736868,0.9902401770317357
2015-02-26,-1,-0.0004997628165630465,-0.0004800967450187037,-0.00766180262284691,0.004812818805736868,0.9908035321644919
2015-03-02,-1,-0.00020233086985907626,-0.00018076858460968546,-0.00766180262284691,0.005201825321663415,0.9899204210922122
2015-03-04,-1,-0.0018662691404772106,-0.001599389947459618,-0.005815230698012633,0.005201825321663415,0.9905078072323238
2015-03-06,-1,-0.0032761221529175872,-0.002782984319485188,-0.0052027472830649514,0.005551438612839668,0.9908106859184429
2015-03-10,-1,-0.004949059693044034,-0.004155318884891783,-0.0039959238727390045,0.005551438612839668,0.9909668434188481
2015-03-12,-1,-0.003943875043434856,-0.0032773921538248748,-0.0052027472830649514,0.0039013353153198997,0.9924779805763723
2015-03-16,-1,-0.0030687920349368094,-0.002585321790675054,-0.0039959238727390045,0.003605924212104451,0.9928109323321626
2015-03-18,-1,-0.00239216655923827,-0.0019947790407991244,-0.003539915244248383,0.003605924212104451,0.9936639885356052
2015-03-20,-1,-0.002709170519925519,-0.0022720159997368624,-0.002429003413946139,0.0034742756105697915,0.9944985016948842
2015-03-24,-1,-0.002740665693869615,-0.002305392941538073,-0.002429003413946139,0.003367056671530279,0.9943160997260021
2015-03-26,-1,-0.002822038136211559,-0.0024055619967508846,-0.0016726952336640303,0.0034742756105697915,0.994278852184878
2015-03-30,-1,-0.001699495550432853,-0.0014316722151743355,-0.0016726952336640303,0.0035053741941114326,0.9955442111732639
2015-04-01,-1,-0.0006829877125316402,-0.0006270976302779827,-0.0016726952336640303,0.0035053741941114326,0.9955951496310587
2015-04-06,1,9.559450068225746e-05,0.00014617374006242533,-0.0014895221364437552,0.0035310423705998996,0.9953645221720793
2015-04-08,1,0.0001991869712156912,0.00028241121926117567,-0.0014895221364437552,0.0035064750327095783,0.9953208248745944
2015-04-10,-1,-5.5851305728846446e-05,-1.3165739630710045e-05,-0.0012897834851676917,0.007737708083655649,0.9944525969360265
2015-04-14,1,0.0003973670071073152,0.0005418951855157281,-0.0006213252487386356,0.007737708083655649,0.9942638052541968
2015-04-16,1,0.0006472688349294624,0.0008329228439282721,0.00020717273452594044,0.007781130820433658,0.9940153608082557
2015-04-20,1,0.000829784904667615,0.0010573800825796563,0.00142166661118721,0.007781130820433658,0.9940297354736538
2015-04-22,1,0.0008844313064574606,0.0011292022114867076,0.00013636099390195258,0.007781130820433658,0.9938609089157471
2015-04-24,1,0.0008970323558793736,0.0011355411820540857,8.961402669569981e-05,0.008559237612410965,0.9934031898592098
2015-04-28,1,0.001526061977150493,0.0018739708424610655,-0.0015009272381260636,0.009721252362653887,0.9926959302651385
2015-04-30,1,0.0014890036283963688,0.0018183154002761825,-0.002466254851715007,0.009721252362653887,0.9922654256810692
2015-05-04,1,0.002260081441654408,0.0026809247692731767,-0.004815950626528431,0.007024217028167298,0.993271055778023
2015-05-06,1,0.001774245240862699,0.00209551657992174,-0.005240127704440018,0.007024217028167298,0.9922537111838396
2015-05-08,1,0.0020677259485384044,0.002379155261030508,-0.006113197576745947,0.005017282643344969,0.9927598997300209
2015-05-12,1,0.0022432698422177495,0.0025577878007022707,-0.006113197576745947,0.003861651347807773,0.9919860210854278
2015-05-14,1,0.0032472316682247886,0.0037592426990697946,-0.006113197576745947,0.0031207546286854157,0.9916357476181308
2015-05-18,1,0.0036550026300516208,0.004264934834417658,-0.007943802660417673,0.0034321113888900984,0.9906823666848474
2015-05-20,1,0.003233224000599712,0.003791783714471573,-0.007943802660417673,0.003535129619677926,0.9911055089684239
2015-05-22,1,0.0033939389956645144,0.003975718580809793,-0.007943802660417673,0.003535129619677926,0.9913597161907682
2015-05-27,1,0.0034029701923206914,0.003949849074685317,-0.007943802660417673,0.0034321113888900984,0.9918912878832764
2015-05-29,1,0.00272161275624042,0.0031255930580706484,-0.010078660463756698,0.0027494784551434655,0.990799058280817
2015-06-02,1,0.0027210243214047733,0.003118564753441531,-0.01101493612715269,0.0007769044841453641,0.9895657973216032
2015-06-04,1,0.0016456165637704114,0.0018583434690268932,-0.010078660463756698,0.002775718313801908,0.9911714794553662
2015-06-08,1,0.0011808066362156227,0.0013122571098312416,-0.010810386112220887,0.002775718313801908,0.9911836747922393
2015-06-10,1,0.001551672046045738,0.0016885182925983704,-0.011715369248783795,0.001412446187460432,0.9909522218537243
2015-06-12,1,0.0012547122049970574,0.0013495409472093942,-0.011715369248783795,0.0027889245308095967,0.9912115046434032
2015-06-16,1,0.0011944223292348142,0.001311468835201619,-0.010810386112220887,0.0034375373976318914,0.9913754731346727
2015-06-18,1,0.0011424245771522337,0.0012593130096424695,-0.010810386112220887,0.004190928587094201,0.9918355430280253
2015-06-22,1,0.0011281420211529303,0.0012093327112432772,-0.0114642872383997,0.0027994194492784235,0.9916389961151558
2015-06-24,1,0.0004137831921102317,0.0004560792648182075,-0.0114642872383997,0.004526930525817429,0.991903410868469
2015-06-26,1,0.00014917855828522813,0.0001516462256171218,-0.009492348591585828,0.004526930525817429,0.9927851921698861
2015-06-30,-1,-0.000754441564872304,-0.0006522624126404927,-0.007388987840773302,0.006114658292826144,0.9925811858843986
2015-07-02,-1,-0.0010491836392897405,-0.0008646156050269415,-0.008483601175851029,0.004526930525817429,0.9924512016602974
2015-07-07,-1,-0.0015343690937954745,-0.0012779569243932883,-0.007270119589046492,0.006114658292826144,0.9918958956702595
2015-07-09,-1,-0.0018014273638946247,-0.0015541452277236338,-0.005809738706891938,0.006114658292826144,0.9924483527457916
2015-07-13,-1,-0.0017203281308265435,-0.0014673087453759774,-0.0065570003555431335,0.005954872982659635,0.9913697455069621
2015-07-15,-1,-0.0015427322948115565,-0.0013271606297683113,-0.00692187146723571,0.006211271284078409,0.9906455949852292
2015-07-17,-1,-0.0009417092726924176,-0.0008112053352798617,-0.006984851451598769,0.006211271284078409,0.9903522533370016
2015-07-21,-1,-0.0017823029807272563,-0.0015170709088747326,-0.006461910976393892,0.006708527493932399,0.9903429454759806
2015-07-23,-1,-0.0012665689716839564,-0.0010742636760871025,-0.008745068587035925,0.006070488569445975,0.9895955465053041
2015-07-27,-1,-0.0024914553414625536,-0.0021154174836787503,-0.01019709330520728,0.006070488569445975,0.9880928424672379
2015-07-29,-1,-0.0016390297683518905,-0.0013599551334307343,-0.01144750036949095,0.006070488569445975,0.9875187711616541
2015-07-31,-1,-0.002413376780964675,-0.0020216616257414154,-0.01144750036949095,0.008231411804538347,0.9870993360884741
2015-08-04,-1,-0.001014415826475633,-0.0008284753875066189,-0.014333223712450407,0.006829504782507736,0.9858122926752967
2015-08-06,-1,-0.0014392312844426496,-0.0012023536947662686,-0.014333223712450407,0.006829504782507736,0.9856671227810581
2015-08-10,-1,-0.00172766325265317,-0.001492471052032211,-0.014156805635896684,0.009016691814161655,0.9854817730620007
2015-08-12,-1,-0.0013903008404976694,-0.001171149462177147,-0.017042472903459914,0.006829504782507736,0.9859501415449798
2015-08-14,-1,-0.0018424815177551044,-0.0015630949300233059,-0.017042472903459914,0.00648732345216945,0.9865453658497427
2015-08-18,-1,-0.0017252042487964764,-0.0014435514475952492,-0.017042472903459914,0.00885574799130681,0.9856229888577437
2015-08-20,-1,-0.0020751442417982326,-0.0017948129334144115,-0.017042472903459914,0.00885574799130681,0.9857659256695283
2015-08-24,-1,-0.0029798120343519858,-0.002585413000039098,-0.01336145108660356,0.00885574799130681,0.9870828336860362
2015-08-26,-1,-0.002326737054197519,-0.002045812725641423,-0.01095222804506309,0.00674908345537722,0.9884579455183675
2015-08-28,-1,-0.0022990543269449147,-0.002009691295009419,-0.017042472903459914,0.00674908345537722,0.9874196389360113
2015-09-01,-1,-0.0030681769703561875,-0.0026816718131498205,-0.01095222804506309,0.007466061930535479,0.988769741838893
2015-09-03,-1,-0.0028210208493959924,-0.002469096033993767,-0.01095222804506309,0.01071780422547048,0.988139194852904
2015-09-08,-1,-0.0027734794456748158,-0.002429986797335546,-0.006477058909010951,0.01071780422547048,0.9883364270437374
2015-09-10,-1,-0.0031934983289233377,-0.002800092641627318,-0.0026710918118606026,0.013272211423828058,0.987113562668895
2015-09-14,-1,-0.0032818911308961553,-0.0028830877830486198,-0.0011391755837207784,0.013272211423828058,0.9868133131750992
2015-09-16,-1,-0.0022382623173913246,-0.0019602748490718013,-0.003574493711755349,0.01071780422547048,0.9883891322367863
2015-09-18,-1,-0.002771659871861696,-0.0024544498181533897,-0.0011391755837207784,0.011903652344984842,0.9879917967652205
2015-09-22,-1,-0.0030489520977837544,-0.0027000137991077303,-0.0011391755837207784,0.011903652344984842,0.9887681293886348
2015-09-24,-1,-0.0024072632196787376,-0.0021768852616415174,-0.0004258925198605171,0.013847168414080223,0.9875145076896228
2015-09-28,-1,-0.0032379121555048337,-0.0029077135237375717,-0.0004258925198605171,0.013847168414080223,0.9885478920195108
2015-09-30,-1,-0.002458757300092538,-0.0022523972669489752,-0.0008083515475056863,0.013847168414080223,0.9888488567627077
2015-10-02,-1,-0.0008473630817788275,-0.0008381555543121515,-0.0038934060162063534,0.012419316781353787,0.9892729218846951
2015-10-06,-1,-0.000428565855846434,-0.0003442893863461387,-0.006647941651523899,0.012419316781353787,0.9869637462117852
2015-10-08,1,0.0006204412449203707,0.0008289525067261996,-0.006647941651523899,0.007014257485599701,0.9886569968784892
2015-10-12,1,0.0003553521803768144,0.0005110132348019182,-0.010858359020964676,0.0052462649464588024,0.9871073723668262
2015-10-14,1,0.0003455109605375898,0.0005150065306781975,-0.011617192850917831,0.0052462649464588024,0.9864832451875982
2015-10-16,1,0.0012771816527269821,0.0016115912078804812,-0.019965455790393903,0.0015854952280215423,0.9837566303094802
2015-10-20,1,0.0009137245452488351,0.0011854266623243866,-0.02153280449799274,0.003158586105778402,0.9823810052355179
2015-10-22,1,0.0017963007186632724,0.002186349637126318,-0.02291772633848031,0.003158586105778402,0.9824678920263737
2015-10-26,1,0.0010537301953195198,0.0013150038742481282,-0.02291772633848031,0.0035527469939740505,0.9814428784935468
2015-10-28,1,0.001416004607978394,0.0017194802885769655,-0.02291772633848031,0.0035527469939740505,0.9805863763115814
2015-10-30,1,0.0012416316736490905,0.001572243346517818,-0.02153280449799274,0.0022829584178954147,0.9819797143643533
2015-11-03,1,0.00038769334687829653,0.0005857226135622952,-0.019965455790393903,0.0022829584178954147,0.9857070955851386
2015-11-05,1,5.3070978747668366e-05,0.0002007548748821545,-0.02153280449799274,0.005672596426623306,0.9842917401820404
2015-11-09,-1,-0.0007642811864333517,-0.0007187501134779949,-0.019965455790393903,0.005672596426623306,0.9852665329118495
2015-11-11,-1,-0.0009892879154288086,-0.0009479816225585064,-0.01875776010235921,0.005672596426623306,0.9857678987518013
2015-11-13,-1,-0.002803261897783658,-0.0026211809329096023,-0.01698205680244852,0.005672596426623306,0.987947969185187
2015-11-17,-1,-0.003415516671988453,-0.0031195701246068018,-0.01579390031833062,0.006843616202886035,0.9879067688765764
2015-11-19,-1,-0.0041579235489268875,-0.0037496210481955663,-0.01579390031833062,0.010564951506812756,0.9869049347948993
2015-11-23,-1,-0.003212291677487316,-0.00293861095568327,-0.010669881709875963,0.010564951506812756,0.9866880366706673
2015-11-25,-1,-0.003332156360168118,-0.0030590939222055976,-0.005937726929455476,0.00917027076162813,0.9875079676454881
2015-11-30,-1,-0.00378807694576176,-0.0034174584269357727,-0.005937726929455476,0.011454792461964085,0.9868347616366668
2015-12-02,-1,-0.003616699871371793,-0.0032832424063756215,-0.006505655733016957,0.011454792461964085,0.9871667410122154
2015-12-04,-1,-0.003631150470546865,-0.0033038329645415096,-0.006505655733016957,0.01224320749835292,0.9872089792937228
2015-12-08,-1,-0.0036069159643118665,-0.0033134946516249703,-0.012502931796821175,0.01224320749835292,0.9858049173441796
2015-12-10,-1,-0.0039307324495721375,-0.0035807658011444803,-0.01074117495909089,0.01224320749835292,0.9862950757550394
2015-12-14,-1,-0.003972666601653777,-0.0036423903969519614,-0.01074117495909089,0.01224320749835292,0.9861370976826038
2015-12-16,-1,-0.002840992475525054,-0.002635762104038938,-0.023011578022971005,0.007775963861090258,0.9854719796231426
2015-12-18,-1,-0.002546480305542409,-0.0024082367972949755,-0.023011578022971005,0.007775963861090258,0.9851340997550085
2015-12-22,-1,-0.0017361437146043068,-0.0016880150001821964,-0.023011578022971005,0.008351857540818982,0.9839158851575333
2015-12-24,-1,-0.0011240900212138734,-0.0010488527100803442,-0.02344692258387107,0.012411664545241433,0.981281289113576
2015-12-29,-1,-0.000747352108716887,-0.0006369538363824926,-0.02344692258387107,0.013404117804124604,0.980568199539296
2015-12-31,-1,-0.0013470080420633576,-0.0013358536063508236,-0.02344692258387107,0.01908249176985582,0.9798703687608398
2016-01-05,-1,-0.0010081868885510206,-0.0009576200878337368,-0.023835397192736186,0.02149200326101177,0.9757438071659155
2016-01-07,-1,-0.0021900587562301097,-0.0021027323085341127,-0.01085198565384131,0.024558250253021902,0.9764414726080614
2016-01-11,-1,-0.0020611696777899043,-0.002016162383491803,-0.022786408998646115,0.024558250253021902,0.9752572065045646
2016-01-13,-1,-0.0028673603276812938,-0.002689690990097527,-0.022969058654213614,0.024558250253021902,0.9739242033605645
2016-01-15,-1,-0.005170583261813042,-0.004670029445072104,-0.014584058303319842,0.02655681633458943,0.9727750179003263
2016-01-20,-1,-0.004720044594323404,-0.004294550984924312,-0.007885709539980674,0.02655681633458943,0.9745547744891169
2016-01-22,-1,-0.0026978874863385263,-0.002532757837527583,-0.014584058303319842,0.02655681633458943,0.9747238971580781
2016-01-26,-1,-0.002537720264608442,-0.002362586578178782,-0.007885709539980674,0.024648099155483143,0.9773470532268722
2016-01-28,-1,-0.0013691424719521376,-0.0013497123933129442,-0.007885709539980674,0.023116204736464,0.9777827592937337
2016-02-01,-1,-0.0005709920945836029,-0.0004761867702915857,-0.007885709539980674,0.023116204736464,0.9781567289660429
2016-02-03,-1,-0.002163348121322659,-0.002046669974221772,-0.005577524278456921,0.023116204736464,0.9814903895792527
2016-02-05,-1,-0.0016036899388739262,-0.0015521599615419455,-0.007885709539980674,0.02238519410057756,0.981360758663733
2016-02-09,-1,-0.00116198605012534,-0.0011034229893801247,-0.007885709539980674,0.02238519410057756,0.9815492354904666
2016-02-11,-1,-0.0032091306786515834,-0.0029971797475183905,-0.0016359117563595215,0.022861508790462993,0.9818656564374348
2016-02-16,-1,-0.0013110839944193858,-0.001302866934353759,-0.0047004251366884854,0.016793656629511017,0.9854390731231379
2016-02-18,-1,-0.001064561966489987,-0.0010469988897086212,-0.0010215044601096547,0.02238519410057756,0.9843287308902385
2016-02-22,-1,-0.0013197807312572943,-0.0012788238860708349,-0.0008507923136048579,0.020381949723302872,0.9874150570187185
2016-02-24,-1,-0.0009848263389818416,-0.000965532795942973,-0.005075057643245591,0.020381949723302872,0.9858212487567779
2016-02-26,1,0.0002459621909786413,0.0004785097895322936,-0.005075057643245591,0.01609422901692293,0.987263130264383
2016-03-01,1,0.001372743016482383,0.0018019072596526125,-0.0070959797235033125,0.015667645776077405,0.9871895398994119
2016-03-03,1,0.0030931477944166653,0.0038161076619131766,-0.008147946057698651,0.00688121583975395,0.9878538813497183
2016-03-07,1,0.003439211934017064,0.004218858945599294,-0.009296569987700818,0.003355734766301916,0.9872357917331823
2016-03-09,1,0.002649984872218174,0.0033138775419137363,-0.008147946057698651,0.006860351075260904,0.9888145554891309
2016-03-11,1,0.003614123787846244,0.004452679973309361,-0.0072017487295354555,0.00638812130432914,0.9894876158085245
2016-03-15,1,0.0036468920874175646,0.004485331323791869,-0.0072017487295354555,0.010830542179675922,0.9888213595802672
2016-03-17,1,0.005369188989932575,0.006481166075218785,-0.009296569987700818,0.008902316559594217,0.9883779697629737
2016-03-21,1,0.0053513815887094186,0.006452192342678456,-0.009296569987700818,0.011305772802038129,0.9884307781315312
2016-03-23,1,0.004498593921057681,0.005511471879427305,-0.0072017487295354555,0.012632788180400202,0.9896252606553017
2016-03-28,1,0.004084912406624882,0.005004390159543662,-0.0086205237294663,0.013918438109494934,0.9882870760624144
2016-03-30,1,0.004089750259744999,0.004960988271800982,-0.0086205237294663,0.012632788180400202,0.9889033476335285
2016-04-01,1,0.004107244279667528,0.004978224735127861,-0.004704845760129441,0.012632788180400202,0.9891533247726497
2016-04-05,1,0.002456721079276105,0.0030457525826027565,-0.0026814146317752107,0.012632788180400202,0.9888109058136354
2016-04-07,1,0.002668445387903372,0.003245275066678474,-0.009244401820592508,0.012425992441782208,0.9879074495002343
2016-04-11,1,0.0017601548968933483,0.002091070800343104,-0.010364874316025813,0.012425992441782208,0.9874580843488028
2016-04-13,1,0.0024593342968018015,0.0028570335443118622,-0.011669721500057198,0.012425992441782208,0.9874907873619135
2016-04-15,1,0.002311077502239808,0.0026526920273314027,-0.011669721500057198,0.012425992441782208,0.9872170843351168
2016-04-19,1,0.0031035404961650697,0.0035679077163922137,-0.011669721500057198,0.00900188395649667,0.9877139706763716
2016-04-21,1,0.002966036684987565,0.003394432096319966,-0.010153549272273943,0.00900188395649667,0.9881035415027329
2016-04-25,1,0.00363176278917736,0.004145181324509165,-0.010153549272273943,0.012798450358628564,0.9878498559507245
2016-04-27,1,0.004135574450611983,0.004712659068035115,-0.010153549272273943,0.015288219427224959,0.9861472009841302
2016-04-29,1,0.0038217814880725396,0.0043276786330358075,-0.010153549272273943,0.015288219427224959,0.9860523302150951
2016-05-03,1,0.0027230944236373766,0.003043590232759139,-0.009949134574942923,0.015288219427224959,0.9870307412194503
2016-05-05,1,0.0017516829071473883,0.0019286082626485985,-0.0006637887062473265,0.015288219427224959,0.9877175168879768
2016-05-09,1,0.0009915223252854079,0.001018659460125425,0.0003413893042206957,0.015288219427224959,0.9881057936933357
2016-05-11,1,0.0016318228238614853,0.0018061439397399084,0.0004556909987193314,0.015026909139474737,0.9896097409986494
2016-05-13,1,0.001127878294648479,0.0012125986053737096,0.0001139533557096405,0.014152365026772272,0.9889630511396161
2016-05-17,1,0.001562435331397342,0.0017729639220138006,0.0001139533557096405,0.014152365026772272,0.9889588797422122
2016-05-19,1,0.002332529317998613,0.002652632527397743,-0.0004108393088671862,0.011141669881374688,0.9897727790462766
2016-05-23,1,0.003978974474798749,0.004535370784831764,-0.0013105099032471126,0.006851369169285468,0.99114333567662
2016-05-25,1,0.005116843566041371,0.005797842857053041,-0.0013105099032471126,0.00433195098771497,0.9918562821565247
2016-05-27,1,0.005151901902971158,0.005811432931799606,-0.010984099346021452,0.003397841454642287,0.987581072644341
2016-06-01,1,0.003943248059666452,0.0043504400340541975,-0.004782946188279477,0.006851369169285468,0.9865859066808542
2016-06-03,1,0.0040969808979930585,0.004496216834155314,-0.007899771030760448,0.006851369169285468,0.9852566473366838
2016-06-07,1,0.003552211258973643,0.0038348845092916247,-0.012882967775494192,0.006851369169285468,0.9847943532302068
2016-06-09,1,0.0025766716303187625,0.002612085648712621,-0.012882967775494192,0.010868168464737076,0.9834304682119093
2016-06-13,1,0.000602176432606993,0.0008085728596662071,-0.0067361496025992494,0.010868168464737076,0.9854423760827036
2016-06-15,1,0.0016673557947470296,0.0016711927109318478,-0.0067361496025992494,0.010838732849740781,0.9852456107914971
2016-06-17,1,0.0018009501516080156,0.001836709037310796,-0.0067361496025992494,0.01233338188123482,0.9849976618667693
2016-06-21,1,0.0017245313271189696,0.001795986788899287,-0.0067361496025992494,0.01233338188123482,0.9846385143158368
2016-06-23,1,0.002452072838388882,0.002655894423728404,-0.0067361496025992494,0.009314946774655117,0.9850876976227418
2016-06-27,-1,-0.001386995498691313,-0.0010095977865316535,-0.003155866669603,0.009314946774655117,0.9885284233838264
2016-06-29,1,0.0008810557298743173,0.0009771703039881457,-0.003155866669603,0.007908293618826678,0.9906342561367207
2016-07-01,1,0.0012329165072121563,0.0013019623785027342,-0.003155866669603,0.007020811153640626,0.9914199617552178
2016-07-06,-1,-0.0006519731713690155,-0.00023368008198398557,-0.003155866669603,0.007908293618826678,0.9909234773793044
2016-07-08,1,0.001521957429492591,0.0015847465872307672,-0.004341038654669719,0.007908293618826678,0.9915331545916054
2016-07-12,1,0.001171826937116658,0.0012727981326880414,-0.0034397380867475322,0.007908293618826678,0.9918308521655078
2016-07-14,1,0.001000637327762862,0.0011332975022601685,-0.0034397380867475322,0.007020811153640626,0.9918917592241037
2016-07-18,1,0.0013327865599860227,0.0014377700370641565,-0.004945607150299995,0.0039383235531441135,0.9920842648715735
2016-07-20,1,0.0008954678741661512,0.0010152742061467475,-0.004945607150299995,0.004308689606081996,0.9927123245036872
2016-07-22,1,0.0013934060674852837,0.0014244726411905234,-0.004945607150299995,0.0033103296663874585,0.9926879353570153
2016-07-26,1,0.001939959830798359,0.0020460298312258126,-0.004945607150299995,0.004587004097702913,0.9924831632791395
2016-07-28,1,0.0027666787265882087,0.0029809031531297064,-0.007284485586200475,0.0033103296663874585,0.9914519065440829
2016-08-01,1,0.0014590850639371526,0.0014800331515161533,-0.006818999029753603,0.004587004097702913,0.9921165148601264
2016-08-03,1,0.0014143990751070777,0.0014231118099629196,-0.004945607150299995,0.007319371592251038,0.9926315136813892
2016-08-05,1,0.0015501742684211985,0.0015522930226647383,-0.006818999029753603,0.007319371592251038,0.9921535109481945
2016-08-09,1,0.0019875763053304714,0.0021285122605960278,-0.006818999029753603,0.007319371592251038,0.9923619796181681
2016-08-11,1,0.0015059264587756417,0.001571987569193006,-0.008682535635694004,0.007319371592251038,0.9905886447358021
2016-08-15,1,0.00032947082682068153,0.0004850116398990233,-0.015012079953928783,0.007678964774155052,0.9889340298493099
2016-08-17,0,-0.00010503899547387445,0.00011978168880344116,-0.015012079953928783,0.007678964774155052,0.9891121298449069
2016-08-19,-1,-0.000272674014698047,-3.714726155598484e-05,-0.015012079953928783,0.007678964774155052,0.9888058606565655
2016-08-23,0,-2.1728760668218456e-05,0.00019376521206512234,-0.015012079953928783,0.00913150466474733,0.9887286158199368
2016-08-25,-1,-0.002361138061486006,-0.001795783953255392,-0.0074012073494675885,0.00913150466474733,0.989359091524625
2016-08-29,-1,-0.0019370840428638123,-0.0014456496437959053,-0.012254766677060948,0.007518872292217852,0.9895079996860923
2016-08-31,-1,-0.0012498870888139487,-0.0008424425563002883,-0.012254766677060948,0.0036694348115145904,0.9904904151800702
2016-09-02,-1,-0.0007432361394552373,-0.00044352334285406244,-0.008701248078280576,0.004764804436410698,0.9902884034585132
2016-09-07,-1,-0.0006878958029020274,-0.00039568095420244734,-0.008701248078280576,0.008164072336350234,0.9898922169246874
2016-09-09,-1,-0.0019907870121281816,-0.0015842970611280919,-0.006346308291297101,0.008164072336350234,0.9913047265668193
2016-09-13,-1,-0.0020274970531768055,-0.0016198598935007113,-0.006346308291297101,0.008164072336350234,0.9917251894500991
2016-09-15,-1,-0.0013778276855112414,-0.001082199841175942,-0.006346308291297101,0.0057826347448465916,0.9920194791978973
2016-09-19,-1,-0.00121349385373214,-0.0009643248422744932,-0.006896204871250281,0.0057826347448465916,0.9921177818404628
2016-09-21,-1,-0.000700078803313585,-0.0005103678048771495,-0.006896204871250281,0.004407505965424573,0.9923530128992916
2016-09-23,-1,-0.0015689160545354142,-0.0012385340450459619,-0.004138527734498455,0.003918582602058078,0.9929848032230342
2016-09-27,-1,-0.002626924898255987,-0.0021277923193419495,-0.002955821397197727,0.004796439991080348,0.9931387155740407
2016-09-29,-1,-0.003275459493197112,-0.002682337505470711,-0.002955821397197727,0.007092176923391858,0.9921360809488016
2016-10-03,-1,-0.0020705272726668227,-0.0016204289326765652,-0.002955821397197727,0.004796439991080348,0.9935042723755858
2016-10-05,-1,-0.001960494024387947,-0.001523298182539205,-0.002955821397197727,0.007015049859491834,0.9898879338388776
2016-10-07,-1,-0.002698188672495098,-0.0021634982715420504,-0.002955821397197727,0.007015049859491834,0.9894742696158912
2016-10-11,-1,-0.0025537468572456126,-0.002072445079018895,-0.0014206328082366265,0.007015049859491834,0.9901800234627828
2016-10-13,-1,-0.0014829195851895588,-0.0012176269664514131,-0.0032854089809411535,0.007015049859491834,0.9882920309261911
2016-10-17,-1,-0.0010123782691676781,-0.0008700239396666237,-0.0018658303836211973,0.011141391416198682,0.9837098568036959
2016-10-19,-1,-0.0003060525024649726,-0.00027197581679776526,-0.004787913547835359,0.012435240522027583,0.9834183270914748
2016-10-21,-1,-0.0003941345005721064,-0.00033687938307657306,-0.005469019925641397,0.012435240522027583,0.9827799291091309
2016-10-25,-1,-5.046927371908032e-05,-4.236008289381441e-05,-0.005469019925641397,0.012435240522027583,0.9827291652695085
2016-10-27,1,0.00034258097536538274,0.0004042203148365047,-0.005984232701868851,0.011506141065145959,0.9832481029066455
2016-10-31,1,0.000693533416948541,0.0008123127133850512,-0.008440928012954332,0.01103063822237358,0.9829662855731723
2016-11-02,1,0.0022221070783800642,0.0024588655404154903,-0.008440928012954332,0.01091523251054693,0.9853586192410758
2016-11-04,1,0.0020029783959678834,0.0022221383916833357,-0.007218846786191885,0.01091523251054693,0.9853900579176321
2016-11-08,1,0.0025322133158142213,0.002824554239079358,-0.007218846786191885,0.011456122675043555,0.9847707557892538
2016-11-10,1,0.0007452901810845786,0.0007801977123997885,-0.005984232701868851,0.013182285211971763,0.9861436392655071
2016-11-14,-1,-0.00012121699097678227,-7.684355183369714e-05,-0.005984232701868851,0.01193736037296211,0.9900111722521748
2016-11-16,-1,-0.0018378113661074319,-0.0014512500075319979,-0.006256647911855577,0.011456122675043555,0.9899740374283106
2016-11-18,-1,-0.0004615400063970989,-0.000335663206206563,-0.007218846786191885,0.01193736037296211,0.9895276435177105
2016-11-22,-1,-6.75179894764026e-05,-2.3968778851613735e-05,-0.007218846786191885,0.01193736037296211,0.9896026054168573
2016-11-25,-1,-0.0002501678916576473,-0.00016981949246963707,-0.008280178957093435,0.01193736037296211,0.9892177604123488
2016-11-29,-1,-0.0002536133713155118,-0.0002241751295204337,-0.006842170606015441,0.01193736037296211,0.989174133261183
2016-12-01,1,0.0008418480843176562,0.0009414508196704143,-0.006842170606015441,0.01121522933138874,0.9906933357930043
2016-12-05,1,0.0004999687053310604,0.0005596014368667932,-0.003158116542243761,0.011686013018822706,0.9905137802422923
2016-12-07,1,0.0016544819886515376,0.0018971889712965859,-0.00789533163131303,0.010178328034951922,0.9903366264610745
2016-12-09,1,0.0022142954199352825,0.0024940563520062216,-0.00789533163131303,0.004066001047005777,0.9910058328754889
2016-12-13,1,0.002002669276544563,0.0022657190697812713,-0.00962559515926193,0.0032645182101116,0.9908433276750768
2016-12-15,1,0.001655036525988186,0.001873805933921363,-0.00789533163131303,0.004040290580283484,0.9907598933427099
2016-12-19,1,0.002239989568327808,0.002586793791006431,-0.008033041218179835,0.0038964371217945545,0.9911427730347836
2016-12-21,1,0.0018610574015487185,0.002122035895076612,-0.008033041218179835,0.005330872860155385,0.9912064561151424
2016-12-23,1,0.0011864925113646125,0.001349490132107322,-0.006936540780043444,0.0059617577820546405,0.9918982602076123
2016-12-28,1,0.0014228739066097385,0.0016336470952998004,-0.008033041218179835,0.005330872860155385,0.9918532673838852
2016-12-30,1,0.0015939874966917726,0.0018180752429095995,-0.009072855581194039,0.003501466900671321,0.9915241686787246
2017-01-04,1,0.0016822850449653933,0.0018983132817686817,-0.010038723919862347,0.0034659100258964876,0.9913708746948265
2017-01-06,1,0.0007512069817814803,0.0008368903609699938,-0.009072855581194039,0.0034659100258964876,0.9931295607767999
2017-01-10,1,0.0003487869409567443,0.00037687915524543786,-0.010038723919862347,0.0050618584146941105,0.9916358651979506
2017-01-12,-1,-0.000461995501497607,-0.00038409968643342366,-0.0030287492605388464,0.005330872860155385,0.9923295851650298
2017-01-17,1,0.0008549570280106765,0.0009643419751041072,-0.00424345850714646,0.0050618584146941105,0.9936192213333893
2017-01-19,-1,-0.00014274376719030144,-6.539222394978556e-05,-0.004133504355403244,0.0050618584146941105,0.9931967890439188
2017-01-23,1,0.00023322953926169424,0.0002522753911593457,-0.004133504355403244,0.005434866884322877,0.9926859668580724
2017-01-25,1,0.0008023348138324294,0.000893408497459677,-0.004133504355403244,0.005434866884322877,0.9928720455046603
2017-01-27,1,0.0003203599610891043,0.00034527302315319664,-0.002190841029503329,0.005434866884322877,0.9933433060713301
2017-01-31,1,0.0003613872848418281,0.00039731232141656256,-0.002190841029503329,0.007063841920848491,0.9917194065352686
2017-02-02,-1,-0.0008760430851591401,-0.0006872704934351328,-0.003592566390943573,0.007063841920848491,0.990849422237901
2017-02-06,-1,-0.0009667046236433525,-0.0007665377682306732,-0.007106866408653129,0.007063841920848491,0.9902351772780312
2017-02-08,-1,-0.0012475921776229297,-0.0010284608464042467,-0.007106866408653129,0.007063841920848491,0.9910987977303956
2017-02-10,-1,-0.0011214208271782542,-0.0009051958172994137,-0.00774170588132396,0.008648976372860117,0.9905717583993492
2017-02-14,-1,-0.000849633873438721,-0.0006933098215926858,-0.00774170588132396,0.008648976372860117,0.990280681524951
2017-02-16,-1,-0.0009257155651556302,-0.0007398721297738817,-0.00691400923240717,0.00777695174285163,0.9912946977506741
2017-02-21,-1,-0.0006204869320062461,-0.0004544959470985975,-0.00691400923240717,0.004730491514529278,0.99180759155029
2017-02-23,-1,-0.0006529908339958872,-0.000461521999031106,-0.00691400923240717,0.004730491514529278,0.9915523849324865
2017-02-27,1,0.00024545081604031424,0.0002725692070623369,-0.00691400923240717,0.004083030439030952,0.9914141198297685
2017-03-01,1,0.0008529816415208657,0.0009092584074297969,-0.006292993182879918,0.007748238509775332,0.9925883706986794
2017-03-03,-1,-0.0004024239452888349,-0.0002744205528753193,-0.003927608333965163,0.007748238509775332,0.9940160166166045
2017-03-07,-1,-0.0011554067048603158,-0.000928637218222217,-0.003927608333965163,0.007748238509775332,0.9941956304657895
2017-03-09,-1,-0.0011274098086902467,-0.0009034066779414282,-0.003366143676874857,0.004083030439030952,0.9950507671794998
2017-03-13,-1,-0.001343612518334882,-0.0010685275566483315,-0.003366143676874857,0.002399007946006361,0.9956191297841889
2017-03-15,-1,-0.0007940415658559272,-0.0006041637838100434,-0.003927608333965163,0.0022897050888305366,0.9954215327241853
2017-03-17,-1,-0.001173877587807801,-0.000940451276245406,-0.00508783339840223,0.0025790066760011747,0.9948002805329752
2017-03-21,-1,-0.0010115576326679494,-0.0007947994176327753,-0.005898624701146285,0.0038919843637409473,0.9934623324949187
2017-03-23,-1,-0.0003258471971953942,-0.00021044632494778687,-0.005898624701146285,0.003533909377693474,0.9936890720945691
2017-03-27,-1,-0.0003927879233081945,-0.00028283856894876087,-0.005898624701146285,0.0070846010403453185,0.9930720662438485
2017-03-29,1,0.0019684068926872954,0.00232234897035707,-0.007089897497147895,0.004987064935214083,0.9928176858301198
2017-03-31,1,0.0015218989626433832,0.0017948074305081476,-0.007089897497147895,0.004987064935214083,0.9930339892606839
2017-04-04,1,0.0012442652611601474,0.001509707893905258,-0.008038544785688849,0.004987064935214083,0.9889758571587743
2017-04-06,1,0.00032505173088333457,0.0003681996478268375,-0.008038544785688849,0.007303259134818178,0.9879846238492437
2017-04-10,-1,-0.0004917506066391653,-0.0003828695162911794,-0.008374859606098468,0.009591519209588234,0.9872241406536543
2017-04-12,-1,-0.0007319056103145353,-0.0005942506136847991,-0.007172627689432049,0.009591519209588234,0.9875083340260701
2017-04-17,-1,-0.0006073314867249444,-0.0004922784136446924,-0.006311371555288925,0.007861319968027233,0.9880526381296617
2017-04-19,-1,-0.0008288151802299435,-0.0006833682884924185,-0.006311371555288925,0.004987064935214083,0.9890808134018992
2017-04-21,-1,-0.0007088928251297911,-0.0005776699958751777,-0.006311371555288925,0.004455267725638387,0.9890263420735647
2017-04-25,-1,-0.0005614611333059625,-0.0004184266570871006,-0.006311371555288925,0.0043671896859676105,0.9880411094112244
2017-04-27,1,0.00042338973687292025,0.00046378753409746803,-0.006770865023215838,0.002306288975176622,0.9880126868857935
2017-05-01,1,3.6939339771907326e-07,3.836306594059612e-05,-0.008166877809937776,0.002306288975176622,0.9876036771527181
2017-05-03,-1,-0.0022363834358917613,-0.001981948992334169,-0.00661341351427178,0.0043671896859676105,0.9917115798396038
2017-05-05,-1,-0.000775226575517307,-0.0007387955039330346,-0.006976348508546471,0.0043671896859676105,0.9921653578101369
2017-05-09,-1,-0.0010120815374780438,-0.0009321278293143046,-0.006269054250122698,0.002306288975176622,0.9934740517851051
2017-05-11,-1,-0.0012727854297710178,-0.001152403279273985,-0.005929435385001278,0.00286197352779729,0.9935346745524647
2017-05-15,-1,-0.000990801205486801,-0.0009101934947273171,-0.005929435385001278,0.0029393560378064396,0.9932710849367502
2017-05-17,-1,-0.0014335516019053963,-0.0013038519373376807,-0.00545133333272846,0.004892491447354444,0.9931216809585679
2017-05-19,-1,-0.001641920691178947,-0.0014615831421880617,-0.004649518425699855,0.0049840784797226464,0.9932151684433728
2017-05-23,1,9.89723983847434e-06,3.184773002490498e-05,-0.00680355619689758,0.0029698850485958403,0.9937880521804489
2017-05-25,-1,-0.0005073852631869389,-0.0004847118097239493,-0.005816619745547572,0.0035566929269551994,0.99406315367452
2017-05-30,-1,-0.0006293748879535924,-0.0006077316913140533,-0.005816619745547572,0.003731372610842132,0.9940795730409997
2017-06-01,-1,-0.0008341592273463135,-0.0007548569926503396,-0.005816619745547572,0.0034046641109834633,0.9942354195586486
2017-06-05,-1,-0.001203638515912949,-0.0010619445788712626,-0.005386229672751552,0.0034046641109834633,0.9939279570439669
2017-06-07,-1,-0.0015434356889024912,-0.0013346605634856463,-0.005974598479257341,0.0037413277595766564,0.9927801036690239
2017-06-09,-1,-0.0008019830734727644,-0.0007325779123099262,-0.0072774923980268875,0.0037413277595766564,0.9922985679419145
2017-06-13,-1,-0.0008249303912636535,-0.0007346946387287288,-0.008095387066227705,0.0037413277595766564,0.9914988870623638
2017-06-15,-1,-0.0005649733122273448,-0.0005179634037642168,-0.008054622409856434,0.0037413277595766564,0.991449492842579
2017-06-19,-1,-0.00033447015592534876,-0.00032507459105363584,-0.010178776925983419,0.003408457908788447,0.9911833475724534
2017-06-21,-1,-0.001456948816951844,-0.0012978041933830382,-0.007971955684612127,0.003408457908788447,0.9919781436469848
2017-06-23,-1,-0.0013152999567488544,-0.0011785692441354792,-0.007971955684612127,0.003408457908788447,0.9920912419121787
2017-06-27,-1,-0.0016420382063194925,-0.0014539526696629055,-0.0069925691157489344,0.004611134247585384,0.9915687045195782
2017-06-29,-1,-0.00178281360654679,-0.0015760828586873722,-0.004386662355041248,0.004604972896655842,0.9920611276707157
2017-07-03,-1,-0.0014996512225285289,-0.0013120385936789768,-0.004386662355041248,0.008544008316755359,0.9913867041767661
2017-07-06,-1,-0.0015289683161427373,-0.001351322393055384,-0.004386662355041248,0.004948302002223631,0.9915252293104674
2017-07-10,-1,-0.0016789991932431702,-0.0014834641135801187,-0.003607208160187239,0.004937092545508467,0.9920192261342706
2017-07-12,-1,-0.0013528678421734805,-0.0012055868609104417,-0.003607208160187239,0.004023233729863323,0.9929668651470884
2017-07-14,-1,-0.0007334629434936395,-0.0006819672484980001,-0.005023861546878044,0.0031424735410558887,0.9925552752823642
2017-07-18,-1,-0.0007164289710818326,-0.0006800001418229636,-0.004075264397083193,0.004023233729863323,0.9921786985247044
2017-07-20,-1,-0.000295989140068177,-0.00026983380266524127,-0.005023861546878044,0.0037742490880608302,0.9918929537897534
2017-07-24,0,-5.297182568510787e-05,3.487129164622091e-05,-0.0066455404592211925,0.00619564981723467,0.9914669222677561
2017-07-26,-1,-0.00016707397731909035,-0.00013280290469264882,-0.005711346585347028,0.004367028966488951,0.9921444498488529
2017-07-28,-1,-0.00024375967518240762,-0.0002425696022109902,-0.008930791069969546,0.00619564981723467,0.9906028537003756
2017-08-01,1,0.0007308096483671098,0.0008641556796351439,-0.008930791069969546,0.003257071953264431,0.9923800328939684
2017-08-03,1,0.0003252961995756495,0.00041177982062009686,-0.008930791069969546,0.0031186487579827438,0.9926828902992864
2017-08-07,1,0.0003290902184435304,0.00043209841755008593,-0.008930791069969546,0.004367028966488951,0.9915849563483182
2017-08-09,1,0.00032390344165970095,0.00041285751787559634,-0.008930791069969546,0.0051175541830271645,0.9913745672820997
2017-08-11,-1,-0.00024089163096760612,-0.00021462627005677698,-0.005414467331389411,0.007748368899447358,0.9918937795867596
2017-08-15,1,0.0005079729882274607,0.0006533640136611797,-0.005414467331389411,0.007724022222971959,0.9925487292884037
2017-08-17,1,0.0001707156655939144,0.00026628750142973186,-0.0018300323033489177,0.00918569867134384,0.9924963913496689
2017-08-21,1,0.0004940299587716313,0.0006654081004089907,-0.0016726905118148703,0.00918569867134384,0.9929828657153387
2017-08-23,1,0.000566886004983316,0.0007399411814317251,-0.004693535083602203,0.00918569867134384,0.9924585388099688
2017-08-25,1,0.0004846059497268391,0.0006300792777702739,-0.0016726905118148703,0.006520871065374771,0.9937880077745666
2017-08-29,1,0.00045422745158552166,0.0005946263937465685,-0.004693535083602203,0.006520871065374771,0.9932011669938329
2017-08-31,1,0.00022347439284621604,0.0003295364388135975,-0.005277688931178387,0.006520871065374771,0.9932669770710435
2017-09-05,1,0.0005188797323071823,0.0006555099364587658,-0.004693535083602203,0.0047864633251204665,0.9944817349005508
2017-09-07,1,0.0009622196856870871,0.0011602426995887256,-0.004693535083602203,0.006091040281193762,0.994643589937099
2017-09-11,1,0.0010095831057488004,0.0012097364648288613,-0.005952711641653112,0.004710538785435992,0.994445463224455
2017-09-13,1,0.0013472199028918904,0.0015987686500770278,-0.005952711641653112,0.005904459666626268,0.9942987029240872
2017-09-15,1,0.0019450961617136606,0.0023028186115533872,-0.005952711641653112,0.005904459666626268,0.9942330430825672
2017-09-19,1,0.00204774042118669,0.0024302631099782515,-0.006855779238064322,0.0049124437273848146,0.9941577652362599
2017-09-21,1,0.0016180009268677346,0.0019378958369528033,-0.006855779238064322,0.0049124437273848146,0.9944116849421422
2017-09-25,1,0.0009124315270330811,0.0009946877089304597,-0.006855779238064322,0.0047446118429564236,0.9943109241182823
2017-09-27,1,0.0009586512591594968,0.0010990166698087423,-0.0066782591375515316,0.0047446118429564236,0.9945234272622565
2017-09-29,1,0.0005095725083901279,0.0005867620103023751,-0.0066782591375515316,0.0047446118429564236,0.9945600832706909
2017-10-03,1,0.0005232073745247584,0.000586354719335238,-0.007132069070870687,0.0047446118429564236,0.9921559844719989
2017-10-05,1,0.0007118388160768483,0.0008048662675419096,-0.008116230258784456,0.003516774908180472,0.9918850459443266
2017-10-09,1,1.5478259380346713e-08,2.3756351965880548e-05,-0.008548223876113674,0.003516774908180472,0.9917447016577665
2017-10-11,1,0.00044265481045074087,0.00047366116622219666,-0.008548223876113674,0.003516774908180472,0.9917808415163214
2017-10-13,1,0.001537930096386491,0.0017958485462603673,-0.008548223876113674,0.002297655256937369,0.9915965754599282
2017-10-17,1,0.0009137437370009307,0.0010439426811206687,-0.008548223876113674,0.002297655256937369,0.9919483670937106
2017-10-19,1,0.0006073879087230469,0.0006768185250044138,-0.009571313071081404,0.0037932087945614784,0.9911382226951521
2017-10-23,1,0.0007120099409628579,0.000807795732792888,-0.009571313071081404,0.004221394209093265,0.9907962284382585
2017-10-25,1,0.0006375626063079377,0.0007098601701161512,-0.009571313071081404,0.004145767853272491,0.9910072341683497
2017-10-27,1,0.00041989332340950985,0.00046291968236780495,-0.006953261778559827,0.004145767853272491,0.9913355994778738
2017-10-31,-1,-0.0005828112711144872,-0.00050587045335084,-0.0057148824738850685,0.00587749425065843,0.993185246977691
2017-11-02,-1,-0.0012938751827580239,-0.0011414812003271854,-0.004825005706111583,0.006071503617574104,0.9925994768377574
2017-11-06,-1,-0.0017585238563827934,-0.0015579644805563168,-0.0031009318103675503,0.0066505550277976555,0.9926351350376139
2017-11-08,-1,-0.0012696274188448051,-0.0011319818603132397,-0.0031009318103675503,0.0065109543349726184,0.9927906940832272
