JNU-Tangyin/eata/results/Batch4_SP500/Batch4_SP500-UAL.csv
Date,Action,Predicted_Q25,Predicted_Q75,Actual_Q25,Actual_Q75,RL_Reward
2010-12-14,0,0.0,0.0,-0.007266253314509009,0.01117020266773339,0.9862601262233556
2010-12-16,0,0.0,0.0,-0.006247878321697131,0.008539241106355816,0.9875941398845005
2010-12-20,0,0.0,0.0,-0.007266253314509009,0.008539241106355816,0.985312908179014
2010-12-22,-1,-0.002996998327089985,-0.002635136611756802,-0.010598375185085999,0.008539241106355816,0.9846571200269781
2010-12-27,-1,-0.0029823690377699776,-0.002607560356473283,-0.007985893395071123,0.011120178989722226,0.9856829310319913
2010-12-29,-1,-0.00342727474309992,-0.0029775688129572144,-0.007985893395071123,0.01581363097568013,0.9804234073165132
2010-12-31,-1,-0.004197217066143883,-0.0034525099713366494,-0.017501940879580458,0.01562900638257531,0.9794588120971289
2011-01-04,-1,-0.002389767331310978,-0.0017359820202512185,-0.018203892536066302,0.008539241106355816,0.9822563807785473
2011-01-06,-1,-0.0017597851356154273,-0.0012116250119448282,-0.018203892536066302,0.008539241106355816,0.9813764373121989
2011-01-10,0,0.0,0.0,-0.018203892536066302,0.013262646586997467,0.9797722840178312
2011-01-12,0,0.0,0.0,-0.017501940879580458,0.013262646586997467,0.9807584872714413
2011-01-14,0,0.0,0.0,-0.017501940879580458,0.01855548575078316,0.9790822877763725
2011-01-19,0,0.0,0.0,-0.009358855153736328,0.01855548575078316,0.9809486087095647
2011-01-21,0,0.0,0.0,-0.007340146369608443,0.01855548575078316,0.9812174988011725
2011-01-25,0,0.0,0.0,-0.017883079011320215,0.01623914963321648,0.9743709186785627
2011-01-27,0,0.0,0.0,-0.017883079011320215,0.011121870557216203,0.9767938268079001
2011-01-31,1,0.000804213923602458,0.0008286881560109654,-0.014445882411088075,0.011121870557216203,0.9773157882525908
2011-02-02,-1,-0.0059365680176869185,-0.004829273343532464,-0.014445882411088075,0.01514311695346305,0.97618183074319
2011-02-04,-1,-0.0037023402259218803,-0.0029366026231266162,-0.020019557083827594,0.01514311695346305,0.9746892191160417
2011-02-08,-1,-0.0017239993571798956,-0.001233574401211806,-0.020019557083827594,0.013774452962870679,0.9729588238620089
2011-02-10,-1,-0.0020746785706558645,-0.0015460797809329922,-0.020019557083827594,0.023696392488461032,0.9715555030542339
2011-02-14,-1,-0.0015751026776236905,-0.0011047069127956308,-0.02409678360999053,0.013774452962870679,0.971393401915054
2011-02-16,-1,-0.0008349352033576302,-0.0004583233879183748,-0.030701590408343703,0.008593592338667893,0.9693565346906485
2011-02-18,-1,-0.001675326295997872,-0.0012212714718975626,-0.030701590408343703,0.025530701765863584,0.9666614621869171
2011-02-23,-1,-0.00638563096672628,-0.005418035245310749,-0.023843324036212216,0.025530701765863584,0.9735921432174031
2011-02-25,-1,-0.0036813655230532125,-0.0030507777380215546,-0.023843324036212216,0.023696392488461032,0.9749249958879795
2011-03-01,-1,-0.0041740101031122,-0.003552187252708888,-0.022799361081074516,0.023696392488461032,0.9761101831516434
2011-03-03,-1,-0.0027570246973085723,-0.002410777995570555,-0.025777434376711837,0.025530701765863584,0.9742895449725971
2011-03-07,-1,-0.0016205674981565079,-0.0014528855338021471,-0.022453660887650533,0.018373304431602462,0.9774865613401543
2011-03-09,-1,-0.0009835591544698676,-0.0008060829674992308,-0.025777434376711837,0.004639437582994626,0.9780247974703542
2011-03-11,-1,-0.00033813620514161653,-0.00027881971166238384,-0.02916278281590325,-0.0014182576939295048,0.9761475390259388
2011-03-15,-1,-0.0009932309204618405,-0.0009627210200522261,-0.025777434376711837,0.01842102875490135,0.9739367044719069
2011-03-17,-1,-0.003384222506719088,-0.0030802178811151905,-0.02317408013530286,0.01842102875490135,0.9756605230921892
2011-03-21,1,0.000482081854332631,0.0007143586594949879,-0.02317408013530286,0.007407455723882834,0.9777176867251849
2011-03-23,-1,-0.0004799366274664052,-0.000336324580450309,-0.024114418123106357,0.011136873263100412,0.9776107605332731
2011-03-25,0,-0.00014416510308279807,1.5234028242757075e-05,-0.024114418123106357,0.011377309043726547,0.9752057983872313
2011-03-29,-1,-0.00047585274364093466,-0.0003166378776729486,-0.02317408013530286,0.018965347439142535,0.9749205840186035
2011-03-31,-1,-0.0008128812611788185,-0.0007748227358809815,-0.02317408013530286,0.018965347439142535,0.9756852060388802
2011-04-04,-1,-0.0009299848595433,-0.000886638632924283,-0.02317408013530286,0.02639316019613775,0.9738384353024431
2011-04-06,-1,-0.002616257830117927,-0.002494003147817634,-0.012040504786836324,0.03103419138824325,0.9727164844359484
2011-04-08,-1,-0.006117513608357943,-0.005539378647339907,-0.00970002227745436,0.03103419138824325,0.9743670205858642
2011-04-12,-1,-0.002029901131868894,-0.001934795879632748,-0.00970002227745436,0.022259075717420133,0.9788361982115701
2011-04-14,-1,-0.002480486389094927,-0.002430543684159744,-0.006330067410182642,0.022259075717420133,0.9794004035484634
2011-04-18,-1,-0.0020863957268716397,-0.0020348437467498123,-0.006330067410182642,0.02295374634347306,0.9788586001152556
2011-04-20,-1,-0.0015482998599539517,-0.0014507792571922698,-0.006330067410182642,0.025955446549917854,0.9789418290438803
2011-04-25,1,3.2226744954707513e-06,0.00022626176351068215,-0.007418469101931778,0.02295374634347306,0.9820140069303746
2011-04-27,1,0.0013283825486804467,0.0017753614507535081,-0.012539289817396722,0.02158835113017403,0.9817095897771653
2011-04-29,1,0.0010606217176474283,0.0013947111753854543,-0.015157657572722817,0.017765236136893212,0.9828825750367265
2011-05-03,1,0.0016647585128235724,0.0019584060252473535,-0.015737945015365712,0.010451799061081615,0.982827919436895
2011-05-05,1,0.005144147295936614,0.0059554618248145955,-0.015737945015365712,0.0037152215294945345,0.9834303226290727
2011-05-09,1,0.0029317056895375596,0.003299177856572944,-0.016900205745593297,0.0037152215294945345,0.9836399752499844
2011-05-11,1,0.003458439926842495,0.0038952638670652863,-0.016900205745593297,0.0001141578659363409,0.9836834297397349
2011-05-13,1,0.002735111542588172,0.0030557205799176474,-0.016900205745593297,0.0001141578659363409,0.9838477866918004
2011-05-17,0,0.0,0.0,-0.016900205745593297,0.0001141578659363409,0.9862249461999736
2011-05-19,0,0.0,0.0,-0.01595250343238621,0.0008938546839611529,0.9855108402544953
2011-05-23,1,0.003247805443258509,0.003541014940208559,-0.01595250343238621,0.005800926649760631,0.9843987731405445
2011-05-25,0,0.0,0.0,-0.013946701196903218,0.008706210430178853,0.9841041460378718
2011-05-27,0,0.0,0.0,-0.01205094229112582,0.009701507047063015,0.9809585337283848
2011-06-01,0,0.0,0.0,-0.01205094229112582,0.009701507047063015,0.9820868204812226
2011-06-03,0,0.0,0.0,-0.00612502413803667,0.010953055541596833,0.9818525226770779
2011-06-07,0,0.0,0.0,-0.012258184859489075,0.010953055541596833,0.982206785277005
2011-06-09,0,0.0,0.0,-0.012258184859489075,0.013235089372586033,0.9811565131196651
2011-06-13,0,0.0,0.0,-0.016153752068511724,0.010953055541596833,0.9798731443844296
2011-06-15,-1,-0.0035669589029464215,-0.003087599575413722,-0.018059569386162534,0.010953055541596833,0.9793294541907167
2011-06-17,-1,-0.002272404677328581,-0.0020214320630063233,-0.01974717773914786,0.009701507047063015,0.9809230937967305
2011-06-21,1,0.0021346148204136337,0.0026553407574497504,-0.01974717773914786,0.0075671903613525136,0.9796083671958927
2011-06-23,1,0.0007561710441857959,0.000940073342904965,-0.019176666767798882,0.004007822096248078,0.982382850749682
2011-06-27,-1,-0.005332924183263694,-0.0052114556097589805,-0.019176666767798882,0.0007396383618208256,0.9860630336495799
2011-06-29,1,0.0014212860882307397,0.0018089191980726423,-0.021836476008161427,0.0007396383618208256,0.9804007933051562
2011-07-01,1,0.00034411997459124727,0.0006066337693356892,-0.021836476008161427,0.0007396383618208256,0.9793057084142334
2011-07-06,-1,-0.0009197927545604719,-0.0008211979719834003,-0.024768812705045284,0.004007822096248078,0.9760543243582455
2011-07-08,0,0.0,0.0,-0.03179149022776673,-0.005380838662839197,0.9733519502958627
2011-07-12,0,0.0,0.0,-0.02660947364545354,0.0007396383618208256,0.9704662077814594
2011-07-14,0,0.0,0.0,-0.03993619735613098,0.004419384414458186,0.9655801891315603
2011-07-18,0,0.0,0.0,-0.03993619735613098,0.01568198913292261,0.9650280197351598
2011-07-20,-1,-0.0035565010979995105,-0.003079319350443247,-0.03993619735613098,0.03668862905402677,0.9652863287200263
2011-07-22,-1,-0.0047576281223803245,-0.004074231668311477,-0.04811591540244306,0.03668862905402677,0.9627714211219066
2011-07-26,-1,-0.006700076403369441,-0.005787000345280822,-0.04356507759178205,0.03834065798737653,0.9623617761859927
2011-07-28,-1,-0.009075785680739263,-0.007923988828542089,-0.03312052731697798,0.03834065798737653,0.9644300801633544
2011-08-01,-1,-0.005940866947082745,-0.005242666661807571,-0.03312052731697798,0.03834065798737653,0.9622542575158209
2011-08-03,0,0.0,0.0,-0.029359711778250277,0.03748818333279831,0.9660512444437809
2011-08-05,-1,-0.0030646055787098016,-0.002982977494223458,-0.021128574510740426,0.03748818333279831,0.9681876866511487
2011-08-09,0,0.0,0.0,-0.02512467395696717,0.03748818333279831,0.9699159799131722
2011-08-11,-1,-0.008028419352712934,-0.007233073230386388,-0.02512467395696717,0.03658884267666579,0.9749659915107282
2011-08-15,-1,-0.007460765456212908,-0.006659404081475205,-0.02512467395696717,0.03748818333279831,0.9724044277511515
2011-08-17,0,0.0,0.0,-0.02512467395696717,0.0380412988552936,0.9712643330969364
2011-08-19,0,0.0,0.0,-0.0133963634749965,0.0380412988552936,0.9745842346504872
2011-08-23,-1,-0.009712142758363428,-0.008686541399692816,-0.0133963634749965,0.020344209130112617,0.9743974188236424
2011-08-25,-1,-0.007283806915838657,-0.006493349917315379,-0.0133963634749965,0.0390630617706355,0.972049705446369
2011-08-29,-1,-0.0053987436101706095,-0.004713094874311337,-0.019800265381546115,0.02201887394531079,0.9726838036679666
2011-08-31,-1,-0.006862642655910274,-0.005884144586980722,-0.019800265381546115,0.023136298517223493,0.9722035829695874
2011-09-02,0,0.0,0.0,-0.030405300223284595,0.023136298517223493,0.966338660242294
2011-09-07,0,0.0,0.0,-0.030405300223284595,0.04491770252517285,0.9647846874458369
2011-09-09,0,0.0,0.0,-0.03051141832258741,0.04491770252517285,0.9640616775369294
2011-09-13,0,0.0,0.0,-0.03051141832258741,0.031142761795038214,0.965918127619219
2011-09-15,0,0.0,0.0,-0.03051141832258741,0.02915564519970314,0.9657378026902752
2011-09-19,0,0.0,0.0,-0.03051141832258741,0.02915564519970314,0.9652637337216428
2011-09-21,0,0.0,0.0,-0.025484424535321813,0.02915564519970314,0.9658446692786402
2011-09-23,0,0.0,0.0,-0.022097289729672908,0.02808911766229688,0.9680556370595796
2011-09-27,0,0.0,0.0,-0.022097289729672908,0.028074982185679883,0.9685947062736343
2011-09-29,1,0.0001976411700099559,0.0005631869759521429,-0.022097289729672908,0.028074982185679883,0.9688050956399352
2011-10-03,-1,-0.002311159092334905,-0.0022007642757945283,-0.015857698862742624,0.028074982185679883,0.9739093172642503
2011-10-05,0,0.0,0.0,-0.02151667418770467,0.023295252509692575,0.9779578310936262
2011-10-07,1,0.006695920122212664,0.008248110188113795,-0.015857698862742624,0.022135597371031684,0.97990521162853
2011-10-11,1,0.008426011571895011,0.010217089272752552,-0.02151667418770467,0.012998668410265849,0.9786737227923045
2011-10-13,1,0.009883056458323939,0.011840660135746663,-0.0223197502691007,0.0013329447143318092,0.976249469755515
2011-10-17,1,0.007931317989082993,0.009522121418945841,-0.02151667418770467,0.011282613468435202,0.9782192837342286
2011-10-19,1,0.006738314804842554,0.008103394882189727,-0.023508179951085915,0.00436961171745961,0.9759358774986577
2011-10-21,1,0.006432557913870929,0.0076562035581813,-0.023508179951085915,0.0021991763461261674,0.9766372899154214
2011-10-25,1,0.005236878516620554,0.006272656696324172,-0.022332072788134823,0.0013329447143318092,0.9789915694328022
2011-10-27,1,0.004513240520855779,0.005356363853739462,-0.025286994134092994,0.0013329447143318092,0.9782174443969046
2011-10-31,1,0.0029548133283297468,0.003546872069114886,-0.022332072788134823,0.0045874092306294224,0.9767870315080978
2011-11-02,1,0.002042945819407017,0.0025454982649124897,-0.021560283401217246,0.020420201068843024,0.9749824689415864
2011-11-04,1,0.0020631351660779806,0.0025343309325003534,-0.021560283401217246,0.025397191634009844,0.9738625863028324
2011-11-08,1,0.001789731706489262,0.0023772413635906172,-0.019600612591181413,0.028392989070000124,0.973607612576128
2011-11-10,1,0.00024377030639730025,0.000681814141297307,-0.018349846577117943,0.03283986951379064,0.971179885266616
2011-11-14,1,0.003340086091970708,0.004163297086251551,-0.021560283401217246,0.028392989070000124,0.9711605043528966
2011-11-16,-1,-0.0003181528484431773,-1.5527686796049274e-05,-0.013052755451799462,0.032797460151490446,0.9711229310993461
2011-11-18,-1,-0.0009957725860634658,-0.0008042392784540251,-0.013902956641774345,0.032797460151490446,0.9684403922417945
2011-11-22,0,0.0,0.0,0.0010165128188798847,0.032797460151490446,0.9686275661445855
2011-11-25,0,0.0,0.0,-0.005952890721837673,0.032797460151490446,0.9701406957186638
2011-11-29,0,0.0,0.0,-0.0184845124627228,0.02813188025169481,0.97298808504756
2011-12-01,0,0.0,0.0,-0.0184845124627228,0.020624793444107243,0.9765933754737957
2011-12-05,1,0.004493504480156792,0.005187049561859017,-0.02013856015065269,0.01551932478829204,0.9770586611062638
2011-12-07,1,0.00544572728360432,0.006202813220877793,-0.02013856015065269,0.009270513032046939,0.976967091350593
2011-12-09,1,0.0045431844784848425,0.005274128217657005,-0.02013856015065269,0.0031341571214192868,0.9793421055367796
2011-12-13,1,0.0035881552196630638,0.004119852899801333,-0.01845172841981349,0.01490943932409802,0.9805165901376726
2011-12-15,1,0.004267309569745042,0.004749550511147739,-0.01845172841981349,0.0015904185490760226,0.9811746675539286
2011-12-19,1,0.0016968937478567046,0.0017489365669237067,-0.016007170307268205,0.0015904185490760226,0.9838600465830004
2011-12-21,1,0.0024020446039658026,0.0025394828427847877,-0.016558519536578168,0.0015904185490760226,0.9837706510529561
2011-12-23,1,0.0016034805023821168,0.001647944415330117,-0.013609649781829717,0.013121413894009195,0.9819337575434515
2011-12-28,-1,-0.0021043489093970735,-0.0015696119601833164,-0.010053937147236762,0.029234756652987165,0.978305422213619
2011-12-30,0,0.0,0.0,-0.010053937147236762,0.029234756652987165,0.9781323647463944
2012-01-04,0,0.0,0.0,-0.007711608244116263,0.03221898952097259,0.977129719944229
2012-01-06,0,0.0,0.0,-0.0067604841370287015,0.03687591883694864,0.9747790921789495
2012-01-10,0,0.0,0.0,-0.00459734036090709,0.03687591883694864,0.9759002742087518
2012-01-12,0,0.0,0.0,-0.00665167251248929,0.03687591883694864,0.9779881348220502
2012-01-17,0,0.0,0.0,-0.005852338412299549,0.03687591883694864,0.9775243732252554
2012-01-19,0,0.0,0.0,-0.01172842193456414,0.02734779166342905,0.9780293888031354
2012-01-23,0,0.0,0.0,-0.013734317055360202,0.02734779166342905,0.9744716861572414
2012-01-25,0,0.0,0.0,-0.014660948322740786,0.012560477795256878,0.9767511951373958
2012-01-27,1,0.005552996174951482,0.00609650135018625,-0.015912392887594645,0.004844826930693656,0.979854125086278
2012-01-31,1,0.005810989237168755,0.006439283155731272,-0.015912392887594645,0.006084652957227469,0.9792534996142033
2012-02-02,1,0.006161065016582281,0.006723051274344389,-0.015912392887594645,0.006084652957227469,0.9788638575850213
2012-02-06,1,0.0074608273362313324,0.008369644310285045,-0.016665758911163002,0.003807299533184474,0.9781945975001792
2012-02-08,1,0.007629102636578002,0.008667204045985383,-0.016665758911163002,0.005916396748288639,0.9789877399259946
2012-02-10,1,0.007636376045425837,0.008712220795125394,-0.016665758911163002,0.004698535332952119,0.9784239060090303
2012-02-14,1,0.006178693101266416,0.006958876353061751,-0.016842628098552633,0.004698535332952119,0.9788408335565121
2012-02-16,1,0.006748646204643416,0.007683785364953842,-0.017662815303516283,0.004698535332952119,0.9770747883637206
2012-02-21,1,0.0025290608176445272,0.0029121544033588386,-0.014909653472078864,0.012877143296572035,0.981978465752854
2012-02-23,1,0.0017004548368339623,0.0019770152392693773,-0.02090158685233727,0.012877143296572035,0.9809603897266899
2012-02-27,-1,-0.0031608332015856536,-0.002499415171875775,-0.02090158685233727,0.021681238775836907,0.9803975244008644
2012-02-29,1,0.00019433213063856076,0.0002599204512812137,-0.02090158685233727,0.021820394693589533,0.9791641931004504
2012-03-02,1,0.0006398793658261328,0.0006656565872341617,-0.021655345786771862,0.020467812392231968,0.9781186160696241
2012-03-06,-1,-0.00020607007746613822,-0.0001572829632350756,-0.012737003880402302,0.021467356313541627,0.9794673296263214
2012-03-08,1,0.0009356418305081755,0.00114313570555304,-0.02090158685233727,0.021467356313541627,0.9787452543121762
2012-03-12,-1,-7.578496675013171e-05,-6.365553350416606e-05,-0.021655345786771862,0.021467356313541627,0.977722028633038
2012-03-14,-1,-0.00046959290222558733,-0.0004215464206188299,-0.021655345786771862,0.02315957975485068,0.9770749725299681
2012-03-16,1,0.0010470978250121884,0.001227248671454767,-0.016685934471576135,0.02315957975485068,0.9784654684642929
2012-03-20,1,0.0022335039869188413,0.0025248009903748397,-0.016685934471576135,0.022467300969587493,0.980100312847682
2012-03-22,1,0.0003358230069027665,0.0003849089222315318,-0.006526415629478664,0.02315957975485068,0.9803756320547888
2012-03-26,1,0.0014242060772881443,0.0015347417296855397,-0.006526415629478664,0.022467300969587493,0.982480772426602
2012-03-28,1,0.0024831299201923773,0.0026779246492772265,-0.015820772920823012,0.021005987190815596,0.982511851668097
2012-03-30,1,0.0018075658122477846,0.0018994975258886128,-0.012195689060257838,0.018031936373998927,0.9847608846321861
2012-04-03,1,0.0017582230376923568,0.0017762776976440813,-0.012296050511627434,0.00907786520657446,0.985190211855654
2012-04-05,-1,-0.0006472437206117157,-0.00027999290394222116,-0.01130995355278722,0.018031936373998927,0.985346431944742
2012-04-10,-1,-0.0011810374848799997,-0.0008417101338693317,-0.003826884302893051,0.022467300969587493,0.9835184903811902
2012-04-12,-1,-0.0011807953300996311,-0.0007083882550031476,-0.005935473729688631,0.014003845701859776,0.9844125115337551
2012-04-16,-1,-0.0005039562840364858,-6.634369357710391e-05,-0.006240960507335604,0.013538517999685319,0.9856348820096479
2012-04-18,-1,-0.0010613679888632614,-0.00048247128884355774,-0.01130995355278722,0.012552463776290292,0.9860049023684808
2012-04-20,-1,-0.0012780774151687174,-0.00066349785974548,-0.011786897356684102,0.008018933286784819,0.9826358437331091
2012-04-24,0,0.0,0.0,-0.011786897356684102,0.012552463776290292,0.9798205692757691
2012-04-26,0,0.0,0.0,-0.01130995355278722,0.01654500895591333,0.978234537469423
2012-04-30,0,0.0,0.0,-0.0062744143244588034,0.01654500895591333,0.9781716061606127
2012-05-02,0,0.0,0.0,-0.004256960653579158,0.02472008507037953,0.9761830243076629
2012-05-04,0,0.0,0.0,-0.014185394524497122,0.01654500895591333,0.9728286608934411
2012-05-08,0,0.0,0.0,-0.014185394524497122,0.01654500895591333,0.9741294023766437
2012-05-10,0,0.0,0.0,-0.016168577579193995,0.022708325806561857,0.9731602977067914
2012-05-14,1,0.007040821317323219,0.007758763691190171,-0.027488569490894402,0.022708325806561857,0.9709690039039259
2012-05-16,1,0.0047704160961360275,0.005239549198636463,-0.027488569490894402,0.027088769719736356,0.9706519692843254
2012-05-18,-1,-0.001318197804697975,-0.0009728660339955136,-0.008664144196022735,0.03195847864156277,0.9729565305162794
2012-05-22,-1,-0.0009152081936017703,-0.0004996073366769506,-0.0059248383993332834,0.03195847864156277,0.9724240438588878
2012-05-24,1,0.0016621120174029106,0.0017745823667695245,-0.016587222654928457,0.030320917036488766,0.975870361959853
2012-05-29,1,0.001907468115977817,0.002049716920873975,-0.02293984921454287,0.030320917036488766,0.9749156359410398
2012-05-31,0,0.0,0.0,-0.02293984921454287,0.026145291276429367,0.9762428703596757
2012-06-04,-1,-0.003935600822574449,-0.0029270077385672604,-0.0040075667191734185,0.026145291276429367,0.9790544617213178
2012-06-06,-1,-0.0005091224309342782,-2.482724365284383e-05,-0.020223442402785237,0.021322076007259893,0.9802264096023989
2012-06-08,-1,-0.001453299420518867,-0.0008081846999347837,-0.015882024224054186,0.02177569497098143,0.9805416391803276
2012-06-12,0,0.0,0.0,-0.014187294544381421,0.027506148167593978,0.9815427354276411
2012-06-14,-1,-0.0018947418818360785,-0.0013068992845561675,-0.015882024224054186,0.02177569497098143,0.9805461556149946
2012-06-18,-1,-0.0007221583033027798,-0.00046734181468599046,-0.015882024224054186,0.016388971780637376,0.9817395815861413
2012-06-20,0,0.0,0.0,-0.02505691064849021,0.008628579321241064,0.9816428442290084
2012-06-22,0,0.0,0.0,-0.02505691064849021,0.008628579321241064,0.9813966596823409
2012-06-26,0,0.0,0.0,-0.026954257642884838,0.007326515771546657,0.9802705445620651
2012-06-28,0,0.0,0.0,-0.030411842304976285,0.0034062890143537823,0.9779209430942648
2012-07-02,0,0.0,0.0,-0.030411842304976285,0.00036801628902004486,0.9786151528571105
2012-07-05,1,0.003068919433561539,0.003638684841321696,-0.03279966955234402,0.00036801628902004486,0.9775233308114448
2012-07-09,1,0.0032953101166907734,0.0038863246248153215,-0.03279966955234402,0.0020361134368968715,0.9788601316593073
2012-07-11,1,0.00482287946294639,0.0056325654693883615,-0.03279966955234402,0.00036801628902004486,0.9789330330585686
2012-07-13,1,0.0018903706372584471,0.0020517646338835856,-0.027551443210678254,-0.0004127777451780138,0.9818953710622869
2012-07-17,1,0.00015508581189064473,0.00025249844073894803,-0.02565457432927616,-0.0004127777451780138,0.9829071929382058
2012-07-19,-1,-0.0031208873361595014,-0.002578315873740262,-0.011441390163007282,0.0023403146474874265,0.9863453619351527
2012-07-23,-1,-0.0031732009208383337,-0.002678615063838428,-0.007441806609784865,0.005633507787447475,0.9840861337083775
2012-07-25,-1,-0.00468063380127301,-0.004010404065656425,-0.007441806609784865,0.006053010816184864,0.9859263756623405
2012-07-27,-1,-0.008486395627915285,-0.007270894997374793,-0.006450678829895093,0.006053010816184864,0.9869922503948764
2012-07-31,-1,-0.008686496129706237,-0.007457703033194627,-0.008582871117211972,0.006053010816184864,0.9862409358877191
2012-08-02,-1,-0.01053141215842135,-0.009045712019484332,-0.008337257688717861,0.006053010816184864,0.9868217656558483
2012-08-06,-1,-0.01008311266399375,-0.008634855550203033,-0.010504821277377917,0.006053010816184864,0.9876188754531258
2012-08-08,-1,-0.009642849391415789,-0.008276457424907834,-0.010504821277377917,0.0073996797665697635,0.9834416974466909
2012-08-10,-1,-0.009308948173011852,-0.008105891011317735,-0.008337257688717861,0.010801261928725886,0.9822065061440834
2012-08-14,-1,-0.009934188219687414,-0.0085626862440502,-0.010504821277377917,0.010801261928725886,0.9818381237675361
2012-08-16,-1,-0.008105036938298586,-0.007050255978996958,-0.010934467057607273,0.009890607500326781,0.9833063277056275
2012-08-20,-1,-0.0040082897101312055,-0.003506233651297917,-0.012964229724349631,0.006756188567594326,0.9860402364676618
2012-08-22,-1,-0.005524372858116673,-0.004863161687760305,-0.013842811434479841,0.009890607500326781,0.9822495811582863
2012-08-24,-1,-0.004761362490930341,-0.004232268052971689,-0.013842811434479841,0.011311779304228147,0.981482759344245
2012-08-28,-1,-0.006902901595234213,-0.0060775637810509195,-0.013833507476359953,0.017049597703667922,0.9812109089791072
2012-08-30,-1,-0.008023690356448164,-0.0070015375016553695,-0.01691720165227342,0.017049597703667922,0.9794236989586887
2012-09-04,-1,-0.0072510658079259094,-0.006406748024118026,-0.013833507476359953,0.017049597703667922,0.9789061905484769
2012-09-06,-1,-0.0031552268801204567,-0.0028571249574623273,-0.015820322001640602,0.01531424350682586,0.9798604601782581
2012-09-10,-1,-0.0018500619775352078,-0.0017305881811247254,-0.015820322001640602,0.013088463899292592,0.9802695489505409
2012-09-12,-1,-0.0009156450879371665,-0.0009055836922421161,-0.01691720165227342,0.009866769169666854,0.9804363981731905
2012-09-14,-1,-0.0012397597877242049,-0.0012098354813306783,-0.01691720165227342,0.009866769169666854,0.980121339098755
2012-09-18,-1,-0.003364150684154102,-0.0030332112235158222,-0.015249532724063573,0.013088463899292592,0.9809148072436872
2012-09-20,-1,-0.0017628273007112786,-0.0016054161836938372,-0.013817031042445624,0.012687462322221617,0.9847292215540221
2012-09-24,-1,-0.0018734227389559834,-0.0016865852340372048,-0.015249532724063573,0.013668837090702143,0.9838197114696795
2012-09-26,-1,-0.0011516385713477633,-0.001109703041920583,-0.013817031042445624,0.012687462322221617,0.9849281239045918
2012-09-28,-1,-0.0006374849278525577,-0.0004886896660565029,-0.013817031042445624,0.012687462322221617,0.984794512783501
2012-10-02,0,-2.4309991588335666e-05,0.00019412223757498954,-0.013817031042445624,0.012687462322221617,0.9851373089904071
2012-10-04,1,0.0016762122330243874,0.002142440464761215,-0.011397585151868485,0.012942215778104556,0.9867307252433695
2012-10-08,1,0.0015357260480296459,0.0019585948555474035,-0.011397585151868485,0.012942215778104556,0.9872472846407266
2012-10-10,-1,-0.0015762128182660422,-0.0013132909807511619,-0.003957852934651443,0.0134646776585393,0.9866668777323021
2012-10-12,-1,-0.0008348774897039514,-0.0007311915779955656,-0.003026424687972303,0.0134646776585393,0.987386722160906
2012-10-16,1,0.0012529585572853498,0.001640365151205068,-0.00904316483117237,0.012942215778104556,0.9850660343730571
2012-10-18,1,0.001634845263392677,0.002091788086083434,-0.00904316483117237,0.011356541683398499,0.985211114641601
2012-10-22,1,0.002958094068510249,0.003712485540795731,-0.005684297881581441,0.010408377941743784,0.9867455484200086
2012-10-24,1,0.00012360375618041816,0.00021806850588221549,-0.0027458854403450573,0.010408377941743784,0.9866683388400822
2012-10-26,1,4.8220469337585366e-05,0.0002478957186545373,-0.0008857789409774714,0.010408377941743784,0.989069979302247
2012-11-01,1,0.0009420269257591724,0.001262522518373545,-0.0008799785144492339,0.009341232243208061,0.9898845052485025
2012-11-05,1,0.0008920216789392772,0.0010740657904479464,-0.002674871828537975,0.004881880209224829,0.9905762315523947
2012-11-07,1,0.0020034863085705047,0.002412637399761627,-0.002674871828537975,0.004881880209224829,0.9897466829075869
2012-11-09,1,0.0029605516504748264,0.0035326429498432274,-0.0008799785144492339,0.004881880209224829,0.9907126940569099
2012-11-13,1,0.004111738968751602,0.004950357100040263,-0.0008799785144492339,0.007949465423345358,0.9883816651352643
2012-11-15,1,0.0016522783906447785,0.002147952127444919,-0.000499805952012611,0.009341232243208061,0.9885550689025198
2012-11-19,1,0.0020856135255005095,0.002609568496273384,-0.00012388786831771096,0.010760406673904377,0.9881701564238834
2012-11-21,1,0.003009325871604841,0.0037029334342773054,-0.00012388786831771096,0.015218750984081422,0.9877034806282651
2012-11-26,1,0.0041437572428664055,0.005024670888048099,-0.0008672150782239327,0.015218750984081422,0.9870390683578549
2012-11-28,1,0.003357987170557767,0.004014584567880114,-0.0036161188268956923,0.015218750984081422,0.9857094881582
2012-11-30,1,0.0035183681193551855,0.004280505809946165,-0.0068411675907393485,0.015218750984081422,0.9849834901206995
2012-12-04,1,0.003960077139870248,0.004818045740684578,-0.003243239941453221,0.02154341561756645,0.983559764624816
2012-12-06,1,0.00507703643137096,0.006060316545485219,-0.006592031833803489,0.02154341561756645,0.9830258106117621
2012-12-10,1,0.005581935405741427,0.006562944084552324,-0.006592031833803489,0.020057609567999034,0.9833304257353356
2012-12-12,1,0.005088402127863891,0.005852454742608568,-0.006592031833803489,0.018317665389524243,0.9841726827510385
2012-12-14,1,0.007230169604557486,0.008176122544146052,-0.006592031833803489,0.015218750984081422,0.9871506811606803
2012-12-18,1,0.006839170806946952,0.007674643429124658,-0.007212396976259182,0.01520425869243082,0.9863655946499603
2012-12-20,1,0.006103440800192039,0.006799071858380058,-0.008407450747226416,0.015202380827592649,0.984403538110793
2012-12-24,1,0.005226864014167315,0.00577693608151072,-0.007942354540467739,0.017804199320771895,0.984208266932752
2012-12-27,1,0.003169152824426172,0.0033572448487296236,-0.0072065804073928414,0.017804199320771895,0.9844472001812711
2012-12-31,1,0.0035736557836046224,0.0038333204425595162,-0.008390001040627391,0.017804199320771895,0.9835422732611645
2013-01-03,1,0.005421583989578311,0.005893042929896249,-0.008390001040627391,0.006067551166855993,0.9854196694312314
2013-01-07,1,0.005457206978604805,0.005850730593557526,-0.00957157831048416,0.006067551166855993,0.98643201899126
2013-01-09,1,0.005484843666104001,0.005878260771488287,-0.00957157831048416,0.013657150751025474,0.9847218523411041
2013-01-11,1,0.005916261646623432,0.006370651105416277,-0.008330397061553653,0.013657150751025474,0.9853612550477275
2013-01-15,1,0.0065281124030760924,0.007213284798968782,-0.0113324590047112,0.013657150751025474,0.9843699692336915
2013-01-17,1,0.005781096566263053,0.006339129520147969,-0.010188578765920294,0.015983060130739843,0.9841175853148775
2013-01-22,1,0.004679002747614035,0.005072662707631498,-0.010188578765920294,0.0147571552092928,0.9848526889963488
2013-01-24,1,0.004096157814766882,0.004304926211536752,-0.010188578765920294,0.0147571552092928,0.9850323584760619
2013-01-28,0,0.0,0.0,-0.010081882636114647,0.0147571552092928,0.985230049018833
2013-01-30,0,0.0,0.0,-0.009332741593507722,0.016190290376515138,0.9848363562675769
2013-02-01,0,0.0,0.0,-0.009332741593507722,0.02023039256553941,0.9812834618449352
2013-02-05,1,0.003397422972283685,0.003559456193644477,-0.008663427165683229,0.023475575474976595,0.9814865290438847
2013-02-07,0,0.0,0.0,-0.008663427165683229,0.023475575474976595,0.9802644369671539
2013-02-11,0,0.0,0.0,-0.011898303680032977,0.020766614683630384,0.979562269745753
2013-02-13,0,0.0,0.0,-0.009902649898211949,0.025145585518071018,0.9793012672149095
2013-02-15,0,0.0,0.0,-0.008663427165683229,0.025145585518071018,0.9800577379256525
2013-02-20,1,0.004183892770717267,0.0044963563814842955,-0.0076492157169148756,0.025145585518071018,0.9809581674624906
2013-02-22,0,0.0,0.0,-0.008663427165683229,0.025145585518071018,0.9801842262910306
2013-02-26,1,0.0026780099872364587,0.002689209178880894,-0.0076492157169148756,0.025145585518071018,0.9810219621199666
2013-02-28,0,0.0,0.0,-0.0076492157169148756,0.022780512809523146,0.9816355543545565
2013-03-04,0,0.0,0.0,-0.010751687762937754,0.01754755649646408,0.9813392170198981
2013-03-06,0,0.0,0.0,-0.01537487709946745,0.01754755649646408,0.9807113719551102
2013-03-08,0,0.0,0.0,-0.01537487709946745,0.01754755649646408,0.9827194671721408
2013-03-12,0,0.0,0.0,-0.010751687762937754,0.01863489892819343,0.9827889383472089
2013-03-14,0,0.0,0.0,-0.010751687762937754,0.017348949521148016,0.9840140291205276
2013-03-18,0,0.0,0.0,-0.016111094235814732,0.01863489892819343,0.9799465318180421
2013-03-20,0,0.0,0.0,-0.022626133284682395,0.015309327535355466,0.9807934639837764
2013-03-22,1,0.007523292689336292,0.00792426956519639,-0.022626133284682395,0.015309327535355466,0.9786722847818002
2013-03-26,1,0.006084590430074098,0.006186143530125409,-0.022626133284682395,0.017348949521148016,0.9783353694998663
2013-03-28,1,0.00585945556633602,0.005960084354776647,-0.022626133284682395,0.015671775012598584,0.9784935253829388
2013-04-02,1,0.0035711654201535086,0.003699666779364486,-0.015011590327677874,0.01940990731999508,0.9816738703892244
2013-04-04,1,0.0032540866264646412,0.003410176300030174,-0.010410244323028764,0.018432882349160393,0.9825954392353762
2013-04-08,1,0.004648948471273371,0.004683809241206231,-0.010410244323028764,0.016876967269723014,0.9830525124499957
2013-04-10,1,0.0035930379555938895,0.0037131143861447173,-0.006044846398831015,0.01515237896307124,0.9842718810387641
2013-04-12,1,0.0023098502815372133,0.0027226765746335207,-0.010410244323028764,0.01352218920715683,0.9834846176039842
2013-04-16,1,0.0030034053794304643,0.0033289347685137582,-0.006044846398831015,0.012323814607532922,0.9878815694471279
2013-04-18,1,0.0015894593784375665,0.002074110047142118,-0.003513658163800857,0.01352218920715683,0.9873947958091439
2013-04-22,1,0.0013204334695589702,0.0018374542366795148,-0.003513658163800857,0.01352218920715683,0.9876510152710534
2013-04-24,1,0.0020549464472141314,0.0024963351423184024,-0.006044846398831015,0.011573759922970321,0.9878874804374285
2013-04-26,1,0.0011741134092401392,0.001727307469455732,-0.003740443575321431,0.01352218920715683,0.9874062839960521
2013-04-30,1,0.0015688252474123643,0.0021487746846920635,-0.010043113478918167,0.011573759922970321,0.9869388227182999
2013-05-02,1,0.0019446797579955905,0.002427346027255965,-0.01149117798490256,0.010180863086183625,0.9871723384339696
2013-05-06,1,0.002812696345619577,0.003186351184018805,-0.01149117798490256,0.0035548067677716815,0.9872896295410304
2013-05-08,1,0.0024705333632158624,0.00285598592837748,-0.016344926510832407,0.0035548067677716815,0.9855119428575416
2013-05-10,1,0.002800653534049834,0.002941001154487773,-0.013855860878542837,0.008015233176111627,0.9830410696366227
2013-05-14,1,0.003386924948721064,0.0034252164443089725,-0.016344926510832407,0.0035548067677716815,0.9811321243544207
2013-05-16,1,0.004662886407126666,0.00482156254032927,-0.016344926510832407,0.002744451379137684,0.9811400171202772
2013-05-20,1,0.003874725056969609,0.0038774486155285903,-0.017876380326841555,0.003503736069884209,0.9811341059007122
2013-05-22,1,0.001917449957143672,0.0021945610711529015,-0.018311133866343872,0.003503736069884209,0.9817038229490543
2013-05-24,1,0.00278755146024467,0.002946321234359514,-0.019656473064799413,0.0005405525508346574,0.9799647331390133
2013-05-29,1,0.0018322332130157673,0.0019276025954089238,-0.018703971686698025,0.003503736069884209,0.980531783846979
2013-05-31,1,0.001346488434159928,0.0014614515628493317,-0.018703971686698025,0.010293087248351204,0.9806049328074407
2013-06-04,1,0.001486790477552044,0.0016701222663263347,-0.019656473064799413,0.012579046101191432,0.9776465299078142
2013-06-06,1,0.0003645266322208626,0.0006643774371389583,-0.018703971686698025,0.018526448077597946,0.9790937383540282
2013-06-10,1,0.0032002602146509736,0.0032157454679502726,-0.018703971686698025,0.01646767979764672,0.9809645412788803
2013-06-12,1,0.0014304832982640712,0.0016571856120882558,-0.018703971686698025,0.01646767979764672,0.9814844811328879
2013-06-14,1,0.0017894386580178169,0.0019971006128114946,-0.018703971686698025,0.018160193126503167,0.980701050495332
2013-06-18,1,0.0014605241188989418,0.0017138128722453093,-0.019656473064799413,0.01855256997649076,0.9769346656987076
2013-06-20,-1,-0.0009291439947495567,-0.0003226482885883145,-0.01189913928660723,0.019716742397413323,0.977908350673723
2013-06-24,-1,-0.003608093381122655,-0.002615888784193057,-0.00855093216607131,0.019716742397413323,0.9785084414034372
2013-06-26,-1,-0.002532149450097985,-0.0016633907341033357,-0.010218301207646704,0.01855256997649076,0.9796234890259876
2013-06-28,-1,-0.0022121678846947182,-0.0013546121320113318,-0.014218375860320001,0.01855256997649076,0.9762091521500482
2013-07-02,-1,-0.000977593330533654,-0.00038352278442004267,-0.010218301207646704,0.018160193126503167,0.9794164705528372
2013-07-05,0,-0.00012533300537452812,0.0003253398365998363,-0.010218301207646704,0.01643718698263469,0.9796714948384245
2013-07-09,-1,-0.000747067679643172,-0.00018172011325915966,-0.019699109598584064,0.015181549294746128,0.977999279907906
2013-07-11,-1,-0.002191887373338569,-0.0014582980452092298,-0.014218375860320001,0.018461091531454674,0.9778842286541147
2013-07-15,-1,-0.0013565951134278786,-0.0007034047711133567,-0.019699109598584064,0.014298228200499122,0.9778757594162127
2013-07-17,0,-0.00036233022724398113,7.926563322872772e-05,-0.02160222006646315,0.013449340482135638,0.978378978384566
2013-07-19,0,-0.00015722896027634708,0.00030004763996360783,-0.02160222006646315,0.013449340482135638,0.978247107523866
2013-07-23,1,0.0010053345634084463,0.0013603315088078498,-0.02356410171760349,0.012197443249465968,0.9781224241066722
2013-07-25,1,0.002382006719736941,0.002418146393994518,-0.02356410171760349,0.012886181051336827,0.9781553716062765
2013-07-29,1,0.0029537504245432692,0.0030056585140109445,-0.02160222006646315,0.01041718769969679,0.9817878459434282
2013-07-31,1,0.0030507195464395025,0.003379739986088989,-0.02356410171760349,0.01041718769969679,0.9783678590465167
2013-08-02,1,0.002809961144187867,0.0029981214405835023,-0.02356410171760349,0.009149996814351071,0.9781253174437096
2013-08-06,1,0.001261700054398378,0.0013295544639608408,-0.016737691768841066,0.013235407565014432,0.9800945059108179
2013-08-08,1,0.0024697117789518894,0.002694542987089984,-0.016737691768841066,0.00910833692237203,0.9810511482181038
2013-08-12,1,0.00149971062540689,0.001684067461478643,-0.011471668748204246,0.014688341610355222,0.978094088664005
2013-08-14,-1,-0.002794932507769638,-0.0024187314355736175,-0.011471668748204246,0.014688341610355222,0.9792933054042117
2013-08-16,-1,-0.0017274239919373366,-0.0014711066812463577,-0.011471668748204246,0.014737617088751622,0.9794788096363786
2013-08-20,-1,-0.0025690479717175706,-0.002230014813210777,-0.003797166064062302,0.014737617088751622,0.9793929101549211
2013-08-22,-1,-0.004589802307568498,-0.0038476693653866803,-0.0031982675959352567,0.015516790939588694,0.9786665150205099
2013-08-26,-1,-0.005111588944013284,-0.004299924026357857,-0.0031982675959352567,0.01717209688713224,0.9778239718479546
2013-08-28,-1,-0.007186178641579369,-0.006183548212760985,-0.0014921617618193987,0.01717209688713224,0.9798266011202825
2013-08-30,-1,-0.0063099667394197175,-0.005402639169253654,-0.006998428907180554,0.015516790939588694,0.9776435004749613
2013-09-04,-1,-0.004696963613724218,-0.004007527724564392,-0.008824893196550493,0.015516790939588694,0.9782925194191053
2013-09-06,-1,-0.003739171578685356,-0.0032005187502549886,-0.008824893196550493,0.017419660108485,0.9778628251530606
2013-09-10,1,0.0005719361026138287,0.0006497496101209839,-0.015560031394468477,0.014545410131652,0.9818166660879547
2013-09-12,-1,-0.0016533777564183242,-0.001307353590674221,-0.008824893196550493,0.014545410131652,0.9838511943092131
2013-09-16,1,0.0005067546516987443,0.0005221451526129604,-0.008824893196550493,0.009163321924999404,0.9849280326479485
2013-09-18,1,0.0009551684141309943,0.0009753110351338912,-0.009156117009836377,0.007840859152722248,0.9847807691366408
2013-09-20,1,0.0018309536641787653,0.00204535741145717,-0.009156117009836377,0.007840859152722248,0.9834828890949917
2013-09-24,1,0.002360674192645872,0.0026630997688739176,-0.00959794623362525,0.007840859152722248,0.9833415780601176
2013-09-26,1,0.0030404059856809166,0.00349406112832639,-0.00959794623362525,0.010415690083458301,0.9826598507216081
2013-09-30,-1,-0.0007346601582252594,-0.000679708167832159,-0.007793729614403902,0.013469940370771837,0.986486360166017
2013-10-02,-1,-0.0006990303844272361,-0.0006259011617516018,-0.0073782847450179975,0.013469940370771837,0.9854795633058205
2013-10-04,1,0.0005813250351697282,0.0006959251913284386,-0.0073782847450179975,0.013469940370771837,0.9844409538560439
2013-10-08,-1,-0.00038710076341994524,-0.00031656723907618335,-0.006824225704741351,0.013469940370771837,0.985862370828164
2013-10-10,-1,-0.0005375498290824073,-0.0004957295682644088,-0.007793729614403902,0.013469940370771837,0.9840783938515714
2013-10-14,-1,-0.001446065446985919,-0.0013197245138814487,-0.007793729614403902,0.022585164462039616,0.9823416412556515
2013-10-16,-1,-0.0004908207631876543,-0.00042633574595051817,-0.007838951247618953,0.03287517489630998,0.9802954003257859
2013-10-18,0,-1.862408270582342e-05,1.943718568282904e-05,-0.007833622989331766,0.022585164462039616,0.9816645176810089
2013-10-22,0,-3.839557977387505e-07,3.909459414797591e-06,-0.007833622989331766,0.03261658619499999,0.9808159954857825
2013-10-24,-1,-3.0237913196353607e-05,-1.4733143303016612e-05,-0.009285962972236848,0.03261658619499999,0.980837123092842
2013-10-28,-1,-0.00016767377606242626,-4.032806343122822e-05,-0.009285962972236848,0.038658667559216146,0.9790787701595646
2013-10-30,1,0.0035842065449040433,0.004120371822001294,-0.010651998463056771,0.03473732935119412,0.980689283113339
2013-11-01,1,0.0045553831276185725,0.005131134299148542,-0.01414008774127464,0.018362373034692524,0.9813715859244992
2013-11-05,1,0.004807289346115248,0.005455138349913737,-0.015267611911884816,0.018362373034692524,0.9799911915731522
2013-11-07,1,0.002906739185678405,0.0032816591276767252,-0.014910744719342625,0.018362373034692524,0.9810778308239178
2013-11-11,1,0.0034283333800765774,0.00377631597062255,-0.014910744719342625,0.015506124871156893,0.9820785672788298
2013-11-13,1,0.0028606488915523176,0.0029991967542649994,-0.014910744719342625,0.015506124871156893,0.9823397268351687
2013-11-15,1,0.004227661426334631,0.0046323463894474975,-0.014910744719342625,0.022582375416939374,0.9816004399878016
2013-11-19,1,0.005496680495230278,0.0061011339085538276,-0.018080510371674668,0.013582743206757623,0.98172085222497
2013-11-21,1,0.0046947369561396255,0.005203065363680633,-0.018080510371674668,0.013582743206757623,0.9829355908218159
2013-11-25,1,0.0073368485909592555,0.008205858559776404,-0.018080510371674668,0.009988708193080967,0.9836419645001867
2013-11-27,1,0.006821533899661985,0.007625389302860238,-0.018374990472553636,0.011196064449483938,0.9830007249195744
2013-12-02,1,0.00499832321091385,0.0054638757011545,-0.013414424508853256,0.014155894872490712,0.9843678653298509
2013-12-04,1,0.004527405351025209,0.005008772665361183,-0.004723972533654387,0.014848336508603475,0.9837548076126194
2013-12-06,1,0.004485228207431184,0.005078731434230295,-0.011916237199154352,0.014848336508603475,0.9833391786785928
2013-12-10,1,0.005996586219087411,0.0068416711721488565,-0.011916237199154352,0.018621657429853018,0.9785641847974383
2013-12-12,1,0.00560841993156191,0.006398665030578953,-0.010727232265717385,0.018621657429853018,0.9793778667854504
2013-12-16,1,0.0061138331838090365,0.00694839647724162,-0.010727232265717385,0.019880294020544732,0.9780176836731787
2013-12-18,1,0.005218061850913213,0.0059703572980225675,-0.006672648034530881,0.019880294020544732,0.9792022951711803
2013-12-20,1,0.005195134250433211,0.005939919826289849,-0.006672648034530881,0.027186985161019948,0.9779975755959235
2013-12-24,1,0.005700978124526265,0.006558385748257414,-0.01167797457038347,0.027186985161019948,0.9759163186600286
2013-12-27,1,0.003658345370729778,0.004111313074214089,-0.01167797457038347,0.027186985161019948,0.9760234535069797
2013-12-31,1,0.0052046067569083195,0.005936285256829687,-0.01346832431689718,0.027186985161019948,0.9754765887168519
2014-01-03,1,0.0060982637288157955,0.006840875868219265,-0.014888873478042772,0.02313592608803359,0.9750869290551101
2014-01-07,1,0.002772967938166656,0.00286444384809944,-0.01278921448372071,0.02313592608803359,0.976340905821249
2014-01-09,1,0.0072996968148005235,0.008031447702477488,-0.01278921448372071,0.018887295309478316,0.9802785883596334
2014-01-13,1,0.007012422794018294,0.0076343567148024006,-0.013588733681787344,0.017052533259323897,0.9798339321472694
2014-01-15,1,0.00803059701598364,0.00877071482327728,-0.013588733681787344,0.015648628807343936,0.9818955368960179
2014-01-17,1,0.007810651106716832,0.008482799063409378,-0.016098320762445814,0.014480185974819065,0.9804201462402329
2014-01-22,1,0.007647868396402307,0.008134428895573073,-0.016098320762445814,0.011922091353696606,0.978648682274694
2014-01-24,1,0.005273529518270475,0.00545826947911931,-0.013102142293159898,0.011922091353696606,0.9821519975399634
2014-01-28,1,0.005271384156359226,0.005497635370534614,-0.01278921448372071,0.011922091353696606,0.9822046554747518
2014-01-30,1,0.0053355167914240385,0.005578114053654536,-0.01285641239206857,0.011055142125371464,0.9814405300743345
2014-02-03,1,0.00504850981772503,0.005491176799002682,-0.010467231574759745,0.011922091353696606,0.9824774004732632
2014-02-05,1,0.0036303529947393992,0.0037656889558648834,-0.010467231574759745,0.0203034281476,0.980694777006559
2014-02-07,1,0.005318751774907504,0.00572846561210026,-0.014696903994483455,0.01495407407602189,0.9805451249578797
2014-02-11,1,0.004143923256409053,0.004423156487778985,-0.010719832728998182,0.01495407407602189,0.9816030439558845
2014-02-13,1,0.004802070510096077,0.005168857220116981,-0.014696903994483455,0.012894603257600373,0.9800881972784283
2014-02-18,1,0.0035272854007869833,0.003739703041102058,-0.01034292373945394,0.0203034281476,0.9806612337118662
2014-02-20,1,0.004947432045455495,0.005346661053370824,-0.011887781794857406,0.014073225626254116,0.9822214905134881
2014-02-24,1,0.0030431217091573468,0.0031337365472725405,-0.014096682046385974,0.014073225626254116,0.9821682044608291
2014-02-26,1,0.0032751421438860337,0.003338515753375103,-0.02020616305012011,0.01362052950412129,0.9817897668595097
2014-02-28,1,0.0017550027902393244,0.0019630582123578728,-0.02020616305012011,0.01362052950412129,0.9829684239197997
2014-03-04,1,0.00036693305876250165,0.0008567825433471231,-0.014096682046385974,0.017325586721165583,0.9815696762577933
2014-03-06,1,0.0021117980415326526,0.0024149779905262253,-0.017360737747383618,0.008411255892799833,0.9826822002048075
2014-03-10,1,0.00017349783182538363,0.000740703814511355,-0.017360737747383618,0.008411255892799833,0.9824591144822338
2014-03-12,-1,-0.001068846010065894,-0.00033862283923346463,-0.020221021447288746,0.01362052950412129,0.9810904908658548
2014-03-14,-1,-0.002221397680665191,-0.0014045473464117733,-0.020221021447288746,0.01362052950412129,0.9796533255589961
2014-03-18,-1,-0.0017769995080694637,-0.0010121585944386008,-0.020221021447288746,0.01362052950412129,0.9798980607648701
2014-03-20,-1,-0.002192058392841396,-0.0013711920624141132,-0.020221021447288746,0.017883271017675378,0.9785196651103414
2014-03-24,-1,-0.0027622026354507446,-0.0019127446906718392,-0.019311003103241183,0.022670333830609467,0.9770407112103237
2014-03-26,-1,-0.0021210802593563745,-0.001439796886757732,-0.019311003103241183,0.022670333830609467,0.9738945318937405
2014-03-28,-1,-0.002321174728583378,-0.0017154752093088495,-0.01987610862837407,0.022670333830609467,0.9724710635004833
2014-04-01,1,0.000993674273136525,0.001225942851232403,-0.01987610862837407,0.010505756676412941,0.9724941695225038
2014-04-03,-1,-0.0008784602603988598,-0.0003315979084858511,-0.01987610862837407,0.009321595742033856,0.9737952965324943
2014-04-07,-1,-0.0021463866830752293,-0.001520305268764855,-0.017123142800122632,0.009321595742033856,0.9754956406488635
2014-04-09,-1,-0.00174238853466529,-0.0011964705766038812,-0.012109678285625975,0.007037838463306902,0.9770493696918863
2014-04-11,-1,-0.004287142657146022,-0.0034749987642235347,-0.008886263863533866,0.01406314043742237,0.9786399786927318
2014-04-15,-1,-0.0033576938169439154,-0.00269988239306945,-0.006668385772680748,0.012201525908783402,0.9789809968763427
2014-04-17,-1,-0.002481805969058298,-0.0018837016033596639,-0.007983911993907827,0.007037838463306902,0.9801467749490353
2014-04-22,1,0.0011640275486407923,0.0012039888891604979,-0.012109678285625975,0.007037838463306902,0.9797280643743693
2014-04-24,-1,-0.0031173144232726634,-0.002551675463805993,-0.007983911993907827,0.014215197892990977,0.9839623474578576
2014-04-28,-1,-0.006091443064330191,-0.005131602560171194,-0.00622642069212124,0.016847778203368347,0.9842812463567446
2014-04-30,-1,-0.005032593636147838,-0.004142990813755949,-0.006064518418608467,0.016847778203368347,0.9864518519816734
2014-05-02,-1,-0.0059187677438381344,-0.004875823291969838,-0.006064518418608467,0.0193349482195923,0.9837898565387379
2014-05-06,-1,-0.006121548861516822,-0.0050985338512497345,-0.006064518418608467,0.0193349482195923,0.982469687124936
2014-05-08,-1,-0.005908657708256366,-0.004909879586498233,-0.006064518418608467,0.022575011047206772,0.9816808428333231
2014-05-12,-1,-0.004228261136165642,-0.00346737105370201,-0.006622158889025773,0.022575011047206772,0.9808178346309705
2014-05-14,-1,-0.004892260846363548,-0.003985434611920413,-0.015316515454543527,0.022575011047206772,0.976820645627862
2014-05-16,-1,-0.006269762155269755,-0.005207292541071362,-0.008212901429529868,0.022575011047206772,0.9772012551538007
2014-05-20,-1,-0.006391381477498333,-0.005322031541647644,-0.005997953479502529,0.0248976483420381,0.9770194666335554
2014-05-22,-1,-0.005455221321637145,-0.0044490690606921995,-0.005997953479502529,0.024193843097899504,0.9794005245696393
2014-05-27,-1,-0.0035778565686369773,-0.0028383253805992336,-0.012128559689074735,0.01859362821388211,0.9800364770145014
2014-05-29,-1,-0.0014493131780673235,-0.001057316155919363,-0.012128559689074735,0.007505194867194663,0.9811838179622587
2014-06-02,-1,-0.0005055159065237341,-0.00015525173231018203,-0.012128559689074735,0.0031365788863517248,0.9833709142412812
2014-06-04,1,0.0022470536246583287,0.002488915913852886,-0.016640344129400658,0.0031365788863517248,0.9791225816280619
2014-06-06,1,0.0033022095923785208,0.0037207403405554746,-0.03153718949299024,0.0015720190667040767,0.9773512957098757
2014-06-10,1,0.0040254095750861165,0.004631040221871499,-0.016640344129400658,0.006520048699719394,0.978740425197797
2014-06-12,1,0.0002588966848089333,0.00039406644458454647,-0.007912284395544823,0.01393646275743831,0.9801085307370639
2014-06-16,1,0.0011573800202618638,0.0015142977162600811,-0.010512510013558634,0.01393646275743831,0.9794123699640215
2014-06-18,1,0.0010622602557200963,0.0012701672698621192,-0.013027823264792165,0.012151161110494395,0.9790028896079017
2014-06-20,1,0.0009501683711717412,0.0011393318924544271,-0.013027823264792165,0.01393646275743831,0.9777520240028802
2014-06-24,-1,-0.00041022268378743717,-0.0003790915613767663,-0.010191091323858401,0.02145129208811851,0.9774746533705537
2014-06-26,-1,-0.0020509155636572974,-0.0017757222544674475,-0.012063567195691467,0.023596469149975888,0.9745845927511589
2014-06-30,-1,-0.002588765910271157,-0.0022421104316948095,-0.015706270547521977,0.023596469149975888,0.9742582616425534
2014-07-02,-1,-0.00312319911180468,-0.002804898550122961,-0.013074358904271714,0.023596469149975888,0.9771778937400472
2014-07-07,-1,-0.004481763269775986,-0.003941160749551481,-0.013074358904271714,0.023596469149975888,0.9778132781905424
2014-07-09,-1,-0.002229748918915998,-0.002004466412762081,-0.015706270547521977,0.02145129208811851,0.9782551495756928
2014-07-11,1,0.0014627774018701309,0.0016220576073310827,-0.015706270547521977,0.010687197266758944,0.9819938444573214
2014-07-15,1,0.0019556413814295426,0.0022841929904798717,-0.014578667975721174,0.010687197266758944,0.9825015156656111
2014-07-17,1,0.0006072449330606906,0.0007781951529874323,-0.012849782449996804,0.023803738423890542,0.9815335346737362
2014-07-21,1,0.00136435112252588,0.001673836720961731,-0.012849782449996804,0.025070122144406053,0.9811620168855688
2014-07-23,1,0.002435258225797037,0.0027964402349516288,-0.012849782449996804,0.026140114626291573,0.981519546733861
2014-07-25,1,0.003230413229338726,0.0037109564770732217,-0.012849782449996804,0.01319254339539314,0.9828759961220301
2014-07-29,1,0.003650211093275445,0.004322373889610941,-0.008652944061781813,0.01319254339539314,0.9835858933291245
2014-07-31,1,0.003559409069595048,0.004156524684277906,-0.007229723617020532,0.00784014274080819,0.9850861783920337
2014-08-04,1,0.002515552680036362,0.002938403163540464,-0.007229723617020532,0.014681674942413488,0.983841951612828
2014-08-06,1,0.0005064677851007804,0.0005864743484001525,-0.007229723617020532,0.028914360861433355,0.9834538078311202
2014-08-08,1,0.00011913755794833934,0.00019091470758218665,-0.0040028811232930145,0.028914360861433355,0.983801038631882
2014-08-12,1,3.184990363219126e-05,9.394238426646049e-05,-0.003926317485005017,0.028914360861433355,0.9831896888097738
2014-08-14,1,0.0022957413931088575,0.0026184581363500837,-0.007520990761552573,0.011455454210831528,0.9855326761850453
2014-08-18,1,0.00361193746035783,0.004090936829008488,-0.012542899918286178,0.008256949043262919,0.9859502949757235
2014-08-20,1,0.004048242350681114,0.0045204886598538725,-0.01266559922535719,0.008256949043262919,0.9860218713209314
2014-08-22,1,0.00511461962917363,0.0059232244993110824,-0.01266559922535719,0.0065825136888105415,0.9848619755937792
2014-08-26,1,0.004725538035384775,0.0054601998266770885,-0.01266559922535719,0.008320039496070285,0.9852387683680653
2014-08-28,1,0.003776724069705062,0.004280132536702708,-0.013965307964485734,0.008320039496070285,0.9842168866329977
2014-09-02,1,0.0049844184146263385,0.005652243832760671,-0.01266559922535719,0.0070765806414370015,0.9860996359364835
2014-09-04,1,0.003729535095620056,0.004074816464468605,-0.01266559922535719,0.0070765806414370015,0.9865975073591229
2014-09-08,1,0.0042149958777623255,0.004641011817579975,-0.01450731141692289,0.007511709246745764,0.9831115416454934
2014-09-10,1,0.005151098058479171,0.005774938630217861,-0.02545532714086894,0.002343510223799843,0.9801218046944741
2014-09-12,1,0.004741647878970201,0.005413283719913787,-0.02786886309363542,0.007511709246745764,0.9793743463513565
2014-09-16,1,0.0024684575949323506,0.002643235479338103,-0.028374165655841336,0.010847834267115579,0.9746371271748774
2014-09-18,1,0.0012582018306390678,0.0013350043720493,-0.028374165655841336,0.010847834267115579,0.9744339127064992
2014-09-22,1,0.00045622023798870277,0.0005617357313071375,-0.02786886309363542,0.02249452906788093,0.9730049671240968
2014-09-24,1,0.0004976596388504614,0.0006117461633624122,-0.02786886309363542,0.027873024950116503,0.970866194178461
2014-09-26,-1,-0.0006665148611513725,-0.0003815696262610416,-0.02786886309363542,0.027873024950116503,0.9718489602639472
2014-09-30,-1,-0.001128288797586442,-0.0007941874861050697,-0.02786886309363542,0.03213493204917489,0.9697763662012435
2014-10-02,-1,-0.0011275596614454396,-0.0008420566257832708,-0.01771004284146902,0.03213493204917489,0.9712995132009216
2014-10-06,-1,-0.0004225733748789382,-0.0002291976332957353,-0.011053088932606137,0.028044735413543992,0.972503451139985
2014-10-08,-1,-0.0037236146724130724,-0.003082642304383333,-0.00930430489774443,0.028044735413543992,0.9730682302305014
2014-10-10,-1,-0.003899156759756275,-0.0032316148531367052,-0.00930430489774443,0.02865204813180216,0.9730763442912338
2014-10-14,-1,-0.003396661682927849,-0.0028547654783141765,-0.0045976492751135115,0.028038024919457977,0.9789964017665646
2014-10-16,-1,-0.0021073191235684,-0.0017779011665837454,-0.0022075560328223354,0.028038024919457977,0.9794050462969421
2014-10-20,1,0.001143841873531661,0.0012495811933427574,-0.0045976492751135115,0.02246913543514449,0.9832533425481824
2014-10-22,1,0.0030091485310825127,0.003448625161493965,-0.004812942589384064,0.02246913543514449,0.9837190776392608
2014-10-24,1,0.0033579117355926145,0.0038483832552768174,-0.011937603668167486,0.02246913543514449,0.9817618544770922
2014-10-28,1,0.005375333215626622,0.006176250414163581,-0.011937603668167486,0.01802012088447925,0.983549586788585
2014-10-30,1,0.004850243061140462,0.005568522702694452,-0.011937603668167486,0.02246913543514449,0.9808938463640636
2014-11-03,1,0.004080406678922409,0.004486546333187649,-0.014349429598800817,0.013281153349468142,0.980700345909041
2014-11-05,1,0.0037404315345996985,0.00408941231482831,-0.011937603668167486,0.016159140641678338,0.980421132108108
2014-11-07,1,0.003975811797170926,0.004400973518374174,-0.005299102576770824,0.019699092814961985,0.9815672523908032
2014-11-11,1,0.0038263456792773116,0.004223973899498668,-0.011937603668167486,0.019699092814961985,0.9800841917146427
2014-11-13,1,0.0040310896793092224,0.004373367034066622,-0.014349429598800817,0.019699092814961985,0.9791777911394236
2014-11-17,1,0.003338308551745016,0.0035640701264592345,-0.019094742758150467,0.019699092814961985,0.9779230719677426
2014-11-19,1,0.003738882342883926,0.003983422002706705,-0.019094742758150467,0.020028815052986697,0.9788692688377568
2014-11-21,1,0.0016419366448437315,0.0017544351767112935,-0.0024344123178551566,0.020028815052986697,0.9802695971119785
2014-11-25,1,0.0014665697283136624,0.0016293952916308484,-0.008329628206835958,0.021115364720853555,0.9779088362873073
2014-11-28,1,0.004274018954228236,0.004522134645314778,-0.008329628206835958,0.020028815052986697,0.9814499205340588
2014-12-02,1,0.004658269241668229,0.005141490591405167,-0.0018297327656521761,0.020028815052986697,0.9826990338062028
2014-12-04,1,0.005353127495516586,0.005899736426444041,-0.004203591909159865,0.019465789442357648,0.9837773983754903
2014-12-08,1,0.005545570050757459,0.006034401931008848,-0.012100358570989322,0.015711287269308587,0.9832442619814606
2014-12-10,1,0.005158457271427992,0.005599290840809642,-0.011043837629942425,0.015267495817125679,0.9837449548704938
2014-12-12,1,0.0055043958252168675,0.0060688036308585176,-0.004203591909159865,0.013222236341700916,0.9863660413870893
2014-12-16,1,0.004250952617898578,0.0046735115226308,-0.004631751702145939,0.013222236341700916,0.9863152449013237
2014-12-18,1,0.004951244915403756,0.005418360419501887,-0.004631751702145939,0.013222236341700916,0.9852357804948465
2014-12-22,1,0.004902916147881398,0.005365836988656815,-0.004631751702145939,0.01704043562236756,0.9833767016530969
2014-12-24,1,0.004692888492571689,0.005088362241575,-0.0030066756515235134,0.015267495817125679,0.985958640124937
2014-12-29,1,0.0038383456472322716,0.0040591179483963685,-0.009753248493172991,0.015267495817125679,0.9836376699347632
2014-12-31,1,0.0038335360644602733,0.004005796595238542,-0.015636081684296418,0.01704043562236756,0.979853576330277
2015-01-05,1,0.0031990976702964634,0.003259736276054885,-0.01971158763002348,0.01704043562236756,0.9792953013876123
2015-01-07,1,0.0035258898327941456,0.0037389713407041778,-0.01971158763002348,0.020528937776309812,0.9772221374400748
2015-01-09,1,0.0038133111138409417,0.004113099947688592,-0.02579688872108285,0.020528937776309812,0.9751520733929312
2015-01-13,1,0.0043273291209997376,0.00473302055641308,-0.02579688872108285,0.031229099517722583,0.9729409934654764
2015-01-15,1,0.0028458136463182554,0.0030212571023970646,-0.021422486925051734,0.031229099517722583,0.9741679318273156
2015-01-20,1,0.0041453460711729975,0.004475587910468434,-0.021422486925051734,0.019901011301814167,0.9745649502025833
2015-01-22,1,0.005553756174066505,0.006056785221466812,-0.021422486925051734,0.014771521732754074,0.9749434684441389
2015-01-26,1,0.006314767122600598,0.0069551830122238315,-0.021422486925051734,0.02793896897332572,0.9736133352449612
2015-01-28,1,0.005146049081816922,0.0056310012952334575,-0.022497837654766935,0.02793896897332572,0.973401694588743
2015-01-30,1,0.004628736406432079,0.0050532488810064065,-0.022497837654766935,0.02564776267852309,0.9753027521622667
2015-02-03,1,0.003989896307224499,0.004338108964070869,-0.021977194375970194,0.02793896897332572,0.9750392831245481
2015-02-05,1,0.004003922823495036,0.004298696952498439,-0.018773846461779535,0.02564776267852309,0.9772257005762258
2015-02-09,1,0.0013456484101763476,0.0014308239791695938,-0.018425235043120134,0.02564776267852309,0.9797782798085963
2015-02-11,1,0.002338595677673712,0.002375920529170467,-0.018425235043120134,0.02546330312244649,0.9801344751084113
2015-02-13,1,0.0008384231578604126,0.0010524832620970488,-0.018425235043120134,0.02546330312244649,0.980939068627315
2015-02-18,1,0.0008972520168694048,0.001102022464319831,-0.015347830614142634,0.02203894400973958,0.9816823072285745
2015-02-20,1,0.0007988062588159387,0.0010506806206897015,-0.015347830614142634,0.02203894400973958,0.9817199773579721
2015-02-24,1,0.0014780134295156373,0.0016833122317777196,-0.018425235043120134,0.01818193703895274,0.9820811612762658
2015-02-26,-1,-0.00076193302956116,-0.000251377191815626,-0.015347830614142634,0.01818193703895274,0.9832412435651324
2015-03-02,-1,-0.0010425415027969993,-0.0005173962085713764,-0.011773626590303864,0.01818193703895274,0.9836665753105892
2015-03-04,-1,-0.0019234227288798004,-0.0011642557721746093,-0.015347830614142634,0.009177406213949937,0.9828164601931216
2015-03-06,-1,-0.0034725935957482983,-0.0025018090120388034,-0.024083784668587207,0.009177406213949937,0.9816043048425666
2015-03-10,-1,-0.005566642128346106,-0.0042802911573144135,-0.017370286543145656,0.016644950160588583,0.9817454823490767
2015-03-12,-1,-0.004022991847308401,-0.002932886997812838,-0.017370286543145656,0.007389457973100037,0.9835578332349945
2015-03-16,-1,-0.0027100408987378055,-0.0019022514880405496,-0.017370286543145656,0.007389457973100037,0.9831915244428769
2015-03-18,-1,-0.0021944404738087806,-0.0015064475962106127,-0.01696224306186279,0.010626293097606147,0.9828844846876332
2015-03-20,-1,-0.0016629576639474188,-0.0010484329264671066,-0.01696224306186279,0.010626293097606147,0.9833878236950093
2015-03-24,-1,-0.0017672839698920416,-0.001223134721261721,-0.012788972267066469,0.012911427013180066,0.9832691465216457
2015-03-26,-1,-0.0035686579088301746,-0.002789796134712581,-0.012788972267066469,0.012911427013180066,0.9833787851383795
2015-03-30,-1,-0.0012699723920696876,-0.000829817661809316,-0.01510291215858649,0.011549834915903796,0.9845451243867082
2015-04-01,-1,-0.003594364810185663,-0.0028708352388657848,-0.014106836651032809,0.011549834915903796,0.986336009358886
2015-04-06,-1,-0.005749972642536481,-0.004772597287344123,-0.009714962083722693,0.012911427013180066,0.9870111625223525
2015-04-08,-1,-0.005454351147051752,-0.004522242767480264,-0.011675318877732615,0.011549834915903796,0.9867651109479413
2015-04-10,-1,-0.004609908784195669,-0.0038306485921616408,-0.011675318877732615,0.012911427013180066,0.9847859374446633
2015-04-14,-1,-0.0054170567077964915,-0.004519006872436372,-0.01288991506345809,0.012911427013180066,0.9840362644520093
2015-04-16,-1,-0.0039062280574504423,-0.003225891367463391,-0.01288991506345809,0.009195861917052807,0.9852093086637411
2015-04-20,-1,-0.0047136503952196875,-0.0038719782011304308,-0.011967061159750127,0.009007425677333938,0.9856689978318822
2015-04-22,-1,-0.003746684046678508,-0.0030354217658445223,-0.02007550599775965,0.008249050775179448,0.9817439744356673
2015-04-24,-1,-0.002649941816640319,-0.002189320435071594,-0.018769625895483377,0.004701082750785832,0.9825496227642196
2015-04-28,-1,-0.004658680971297966,-0.003906110376664895,-0.018769625895483377,0.008249050775179448,0.9808304611571251
2015-04-30,-1,-0.004912350274409456,-0.004198645796204171,-0.011967061159750127,0.009007425677333938,0.9806773079091663
2015-05-04,-1,-0.003266467774178364,-0.0028175141165007137,-0.011967061159750127,0.009007425677333938,0.9804985542866547
2015-05-06,-1,-0.004483564523309638,-0.0038760397499423248,-0.011967061159750127,0.009007425677333938,0.9810042671555804
2015-05-08,-1,-0.002233958958429234,-0.0019050382654950014,-0.018769625895483377,0.008249050775179448,0.9811499462257071
2015-05-12,-1,-0.003550151992318405,-0.002993208673765118,-0.013421355214449695,0.009007425677333938,0.9818113837853374
2015-05-14,-1,-0.00265165803984259,-0.0022785123030345097,-0.012380152096268039,0.007923692297947734,0.9818327088281389
2015-05-18,-1,-0.0024063642166076097,-0.00205486924205173,-0.02042428191102478,0.0029065272106835426,0.9811031369074887
2015-05-20,-1,-0.006898180220507992,-0.006053078799813305,-0.009528739401451962,0.008646955022697243,0.9859645254452956
2015-05-22,-1,-0.00730888259174416,-0.006429788733475267,-0.009528739401451962,0.01746477720329042,0.9827127030576175
2015-05-27,-1,-0.0063671811285371145,-0.005653902905468388,-0.009528739401451962,0.014191646860021017,0.9851633681516148
2015-05-29,-1,-0.005723512093961727,-0.005070821578763168,-0.009528739401451962,0.009971606027523708,0.985828891988462
2015-06-02,-1,-0.004739892376105619,-0.004189363587315171,-0.012280569649291737,0.008088490765543124,0.9861282219447846
2015-06-04,-1,-0.005662718773102088,-0.005004861797771804,-0.012280569649291737,0.008088490765543124,0.9860417357232545
2015-06-08,-1,-0.007176953212486422,-0.0063801086002619484,-0.009211279700096872,0.009971606027523708,0.9843799311910394
2015-06-10,-1,-0.0073137895491459885,-0.006433236145938741,-0.012280569649291737,0.008610175807303201,0.9839924506314353
2015-06-12,-1,-0.005222555265154786,-0.004716859382437221,-0.012280569649291737,0.014047022782506116,0.9819781508600826
2015-06-16,-1,-0.005144725448617181,-0.004831663406739925,-0.009205615453416022,0.014047022782506116,0.9825333124394805
2015-06-18,-1,-0.003491751967066478,-0.0033958889140262407,-0.009953083286421183,0.010573604826941748,0.9832104284166412
2015-06-22,-1,-0.0017409013894628973,-0.0017259568697668083,-0.009953083286421183,0.008610175807303201,0.985392651180492
2015-06-24,-1,-0.0020140423307876028,-0.001979837528674553,-0.008621909784358294,0.009410723851418192,0.9851402463554636
2015-06-26,-1,-0.0023730772817489986,-0.0022619475356382814,-0.007599066780605172,0.009207099616385807,0.9855531790102913
2015-06-30,-1,-0.0025530541567424427,-0.002482924075893385,-0.007599066780605172,0.012364376254189569,0.9848039042578383
2015-07-02,-1,-0.005362480095138855,-0.004827596483793407,-0.007235965698446832,0.012364376254189569,0.9851753657600081
2015-07-07,-1,-0.0017795013013377572,-0.001751589340939017,-0.007235965698446832,0.012364376254189569,0.9859886369669566
2015-07-09,-1,-0.0026745554662845937,-0.0025244989881967545,-0.00828007437088844,0.012364376254189569,0.986767495483847
2015-07-13,1,7.703836103580865e-06,0.00021598397299088133,-0.009608354338974692,0.008293562730154653,0.9885290196011245
2015-07-15,0,-2.0886692215195228e-05,0.0002306481409728164,-0.008303970803549368,0.010902239449963467,0.9883354842891214
2015-07-17,1,0.0009566224503439688,0.0014390253707653286,-0.007924938766283742,0.01155071632681341,0.9883371835865592
2015-07-21,1,0.0005789537066235041,0.0009094858125029835,-0.008542947525160603,0.013542142159648655,0.9870570347573943
2015-07-23,1,0.0010262935894949558,0.0014033517934430224,-0.011091192840294395,0.011251460498110866,0.9866544836762345
2015-07-27,1,0.0019325827305767495,0.0025129186807649703,-0.015259173111884777,0.011251460498110866,0.983148242525037
2015-07-29,1,0.0015703302384725464,0.0020094466523589627,-0.01360402995523833,0.011251460498110866,0.983605287484585
2015-07-31,1,0.0006294348188839611,0.0008816766389603121,-0.01360402995523833,0.013542142159648655,0.9805586432912649
2015-08-04,1,0.0028838726166724765,0.0035174252633886596,-0.01360402995523833,0.008569049863631786,0.982015538019251
2015-08-06,1,0.002286750286487383,0.002851738049213969,-0.011549270392618959,0.008569049863631786,0.9834662190808241
2015-08-10,1,0.002282763630431923,0.0028575470765099613,-0.010070276175590424,0.013064941397798594,0.9832954791737184
2015-08-12,1,0.0029262545805008276,0.0036317204777585915,-0.01153998382732942,0.005929785456090632,0.9832614241476312
2015-08-14,1,0.003198700462174381,0.003893381449937125,-0.01153998382732942,0.004833797628084722,0.983183746646813
2015-08-18,1,0.002580162618593752,0.0031181921279355273,-0.010070276175590424,0.004833797628084722,0.9845217480380485
2015-08-20,1,0.0024839948782440537,0.0031045213107725074,-0.010070276175590424,0.011106524285730055,0.9824772307362347
2015-08-24,-1,-0.0006999709687269258,-0.0006070382667711365,-0.0057418571456946,0.011106524285730055,0.9843528743976167
2015-08-26,-1,-0.0006320177095128989,-0.0006232514578827628,-0.010070276175590424,0.004833797628084722,0.9847134060122125
2015-08-28,1,0.0013403321314471623,0.0016057802971701988,-0.014052545327913512,0.002802593804129488,0.9861707634539525
2015-09-01,1,0.001525909332892433,0.0018332659037793397,-0.017192498074262104,0.004827898471291388,0.9847301291544753
2015-09-03,1,0.001416278462411324,0.001686731067831136,-0.021078109015645656,0.004814019614249794,0.9835704896578628
2015-09-08,1,0.0021214108558547645,0.0025463185151060174,-0.023410941271692673,0.004814019614249794,0.9807992188965305
2015-09-10,1,0.0019162763388562711,0.002323473421386054,-0.023410941271692673,0.01135924098603397,0.9804675860219408
2015-09-14,1,0.0027233251623368787,0.003289454947621318,-0.023410941271692673,0.013826075540654431,0.976223119428411
2015-09-16,1,0.0037659422398566393,0.004477533878670252,-0.023410941271692673,0.013826075540654431,0.9761307345695235
2015-09-18,1,0.005295621258787029,0.006163866611100768,-0.02525994126876188,0.011730834400472746,0.9778350133984356
2015-09-22,1,0.0036851974137964002,0.004299842714900729,-0.023410941271692673,0.013371505696190032,0.9789065324237144
2015-09-24,1,0.001494242943996176,0.0018101027505970815,-0.02199257254267679,0.014390584893332324,0.9784068125642172
2015-09-28,-1,-0.0003069672162377842,-0.00027268806499320536,-0.01859702837137267,0.023714241391122947,0.9762803096097087
2015-09-30,1,0.0002722389598512799,0.00048338260245509566,-0.01859702837137267,0.023714241391122947,0.9769646617155805
2015-10-02,-1,-0.0005052326142150675,-0.0004063391874349296,-0.01089317570260657,0.023714241391122947,0.9772914184430096
2015-10-06,-1,-0.0009536149597048139,-0.000912376104428243,-0.0031459364536683323,0.01742899220801227,0.9803605484684343
2015-10-08,1,0.00023358979359224062,0.00045220059142922714,-0.008747912516789838,0.016065282674619076,0.9818401628250251
2015-10-12,1,0.0013403764386583914,0.0014747607739920914,-0.011185355816999148,0.012300134390777246,0.9848295005762543
2015-10-14,1,0.0008764804179752577,0.0009186652560840527,-0.011185355816999148,0.012300134390777246,0.9848713945433402
2015-10-16,0,-4.240778845375002e-05,2.822329245213547e-05,-0.007956235346902606,0.012300134390777246,0.98589922525956
2015-10-20,1,8.547594822907323e-05,0.00011708650713138373,-0.009793158061846408,0.00654504117735314,0.9862221954684346
2015-10-22,1,0.0006731383310958792,0.0007584021829447846,-0.007956235346902606,0.007252033800683207,0.9876464329445416
2015-10-26,1,0.002745983814538954,0.0030579449763414833,-0.007956235346902606,0.0049311231613844006,0.9908650198655801
2015-10-28,1,0.001031609819726388,0.001036570068956585,-0.009332877678263459,0.0049311231613844006,0.9904783841105708
2015-10-30,1,0.001432901189233682,0.0014986670020061357,-0.010671513203089537,0.0049311231613844006,0.9894442409479457
2015-11-03,1,0.0016938172309045182,0.0018003107463177117,-0.010671513203089537,0.00698140639574043,0.9879154078257573
2015-11-05,1,0.0007522820108492881,0.0008186101453931378,-0.01210047926600779,0.011426536267050839,0.9858160624174109
2015-11-09,1,0.0007737096989919722,0.0008200622622372201,-0.01210047926600779,0.011426536267050839,0.9850185139497839
2015-11-11,1,0.0012220944230431584,0.0013145484922834634,-0.012551078246874797,0.014302651162385084,0.9834348214112956
2015-11-13,1,0.0006557533628516947,0.0006617772678857929,-0.014898160464997664,0.014302651162385084,0.9819399951067908
2015-11-17,-1,-0.00013607412862872125,-4.739931703679075e-05,-0.014898160464997664,0.016295607109715345,0.9818213500290385
2015-11-19,-1,-0.00013266264065862063,-1.3806478233463894e-06,-0.01943847491419269,0.016295607109715345,0.981194466632659
2015-11-23,-1,-0.000739287223298825,-0.0004943170416818054,-0.01943847491419269,0.017527843872092847,0.9807149235018546
2015-11-25,-1,-0.0010633806786840365,-0.000855642432165235,-0.014898160464997664,0.02054159445272353,0.9809602926549751
2015-11-30,-1,-0.0017522050567797512,-0.0014330424052654395,-0.013027865231024473,0.02054159445272353,0.9814093728367581
2015-12-02,1,0.00037928085741836153,0.000391730093650942,-0.015153246459053145,0.017527843872092847,0.9818826147188922
2015-12-04,1,0.0005943838210900519,0.0006086084175667838,-0.01668461009747038,0.012041677506714078,0.9827707239211398
2015-12-08,1,0.00035864191471485023,0.0003794675056143976,-0.01668461009747038,0.007143653405867282,0.9832122547758404
2015-12-10,1,0.0008609449946053812,0.0009189327361823521,-0.017127636926851677,0.005194441816912993,0.984209747833023
2015-12-14,0,-6.407369332740546e-07,3.133955786241888e-05,-0.017624504397265883,0.005194441816912993,0.9832488951492286
2015-12-16,1,0.0007445481164720501,0.0008079798244992943,-0.027120357643415565,-1.031759260154935e-05,0.981791340922367
2015-12-18,-1,-7.173369109238534e-05,-4.32843714104459e-05,-0.018415674590653366,-1.031759260154935e-05,0.9832060886176305
2015-12-22,1,0.00019388082961251975,0.00021250370790322718,-0.018415674590653366,0.003070582093488423,0.9823915927274851
2015-12-24,1,0.0015619423633895682,0.0017907665699819935,-0.018415674590653366,-0.0003603713356917159,0.9821041349277464
2015-12-29,1,0.0009901776485718406,0.0011041690094295454,-0.029666779492123065,-0.0003603713356917159,0.9811155876642584
2015-12-31,0,-1.7595610343450608e-07,2.5818928495592873e-05,-0.018415674590653366,0.006031495357357676,0.9803704508976916
2016-01-05,-1,-0.0011181101547158762,-0.0009684167074184472,-0.01942618628567136,0.010625590342140607,0.9790009026516316
2016-01-07,-1,-0.0020874670205165077,-0.0018543053142982386,-0.01904674813559614,0.013262775042331068,0.9791334828882445
2016-01-11,-1,-0.0026340489391946417,-0.0023403178632668597,-0.026890588773152833,0.017136692603825544,0.9778547890026207
2016-01-13,-1,-0.005260682994969491,-0.00461478241961344,-0.01777092405401747,0.0175493863378592,0.9788726595607306
2016-01-15,-1,-0.008675844211591855,-0.007511299139143437,-0.011872014689105849,0.01927162467601681,0.9774956131714868
2016-01-20,-1,-0.008429741625874527,-0.007346115054968404,-0.008320096092271943,0.026325260246886615,0.9742407967063182
2016-01-22,-1,-0.006392508287329108,-0.005646909477249225,-0.008320096092271943,0.027137569636850052,0.97348713501711
2016-01-26,-1,-0.005749472932111834,-0.00508526196971009,-0.004365841865066571,0.027137569636850052,0.9736061800405955
2016-01-28,-1,-0.006394931084046792,-0.005664938707729907,-0.0017717388451716238,0.027137569636850052,0.9745287531262943
2016-02-01,-1,-0.00403257435993706,-0.0035920103690077476,-0.0017717388451716238,0.026325260246886615,0.9769133481499473
2016-02-03,-1,-0.004955115764929179,-0.004393927539162138,-0.0017717388451716238,0.026325260246886615,0.9793120773825359
2016-02-05,-1,-0.0051118994149028886,-0.0045546159631145704,-0.005150242599183946,0.026325260246886615,0.9814990323070367
2016-02-09,-1,-0.004926695605412351,-0.004412336318704062,-0.005150242599183946,0.026325260246886615,0.9816147232808157
2016-02-11,-1,-0.00338403764727589,-0.003130409465646317,-0.003581371126955019,0.021501770013217996,0.9829535154273867
2016-02-16,-1,-0.002440734833944667,-0.0022440100240112113,-0.005150242599183946,0.019620527812798338,0.9842029587317215
2016-02-18,-1,-0.000782095549369522,-0.0007259561301860687,-0.005150242599183946,0.015802100739053797,0.9869457382158056
2016-02-22,1,0.0006384970849376094,0.0006695063389497311,-0.005150242599183946,0.01333573967617165,0.9885606817061892
2016-02-24,1,0.0007887132149489865,0.0008131221159170944,-0.007097904393093435,0.012530278825066337,0.9880926502837996
2016-02-26,1,0.00038558120490666463,0.00045709021130885594,-0.009024358543066635,0.012530278825066337,0.9872296526988538
2016-03-01,1,0.0010296240625891657,0.001060018387526788,-0.009024358543066635,0.012921594825054826,0.9872306259161056
2016-03-03,1,0.0013671105157192585,0.0014295079607845457,-0.011679481906033875,0.012921594825054826,0.9853394475913057
2016-03-07,1,0.0026418435065967026,0.0030700519651747672,-0.013133695694943203,0.012921594825054826,0.9848661326214371
2016-03-09,1,0.0024796482193549987,0.0028766849599012314,-0.013133695694943203,0.012530278825066337,0.9845061544058069
2016-03-11,1,0.0024692610719357117,0.0028117543115415487,-0.013133695694943203,0.012002399251356651,0.9849351766704078
2016-03-15,1,0.0021699477207405447,0.002463395694928319,-0.011679481906033875,0.012530278825066337,0.9848309107495771
2016-03-17,1,0.0026028061212008454,0.002961554858835213,-0.011679481906033875,0.012921594825054826,0.9844431067331046
2016-03-21,1,0.0052839352667597966,0.006161920204391696,-0.011679481906033875,0.012139401534578742,0.9846424724584785
2016-03-23,1,0.004033132622225604,0.004696336340325359,-0.00977205855584685,0.012139401534578742,0.9812548094229593
2016-03-28,1,0.003264736496017739,0.003848384512158161,-0.01825402662337506,0.012139401534578742,0.9797039807904874
2016-03-30,1,0.0044243430145352175,0.005178614621040261,-0.01825402662337506,0.007395649906334856,0.9797319716903082
2016-04-01,1,0.0027245532988136177,0.0032385446259121965,-0.020235971241673364,0.007395649906334856,0.9797043406858952
2016-04-05,1,0.0021116627886625904,0.002541568958643833,-0.020235971241673364,0.010521876563560704,0.979929288274496
2016-04-07,1,0.000713272845171534,0.0009446254555199041,-0.020235971241673364,0.010521876563560704,0.9798238271021174
2016-04-11,1,0.0008760797773293716,0.0011064794242337571,-0.020235971241673364,0.011499986258233444,0.979718288386323
2016-04-13,1,0.0015677476669928516,0.001846401004329971,-0.02589906019569828,0.011499986258233444,0.9786276919726996
2016-04-15,1,0.002638869201667527,0.003096659282131048,-0.028631418701745293,0.009624156825525022,0.9770056927567228
2016-04-19,1,0.0032553850255229617,0.0037959254187566,-0.028631418701745293,0.010133718767937654,0.9766653687661564
2016-04-21,-1,-0.00017205948515924442,-0.00015982566479505475,-0.027208597776580332,0.010133718767937654,0.9809610531297889
2016-04-25,-1,-0.0025077372830431275,-0.0022340214631274996,-0.01986884217234643,0.010463817579361304,0.9833864002652786
2016-04-27,-1,-0.0018773738806061088,-0.0017444064956718068,-0.01986884217234643,0.012125332567535119,0.982370236339888
2016-04-29,-1,-0.003524780951305127,-0.0032342700518046175,-0.012710520467569222,0.015405995248616775,0.9835278532782297
2016-05-03,-1,-0.0024408418559640453,-0.0022794761931704778,-0.012710520467569222,0.012000243053205562,0.9850756125157615
2016-05-05,-1,-0.0035174243773161856,-0.0032647966170624185,-0.008378678140655505,0.012000243053205562,0.9858547606673587
2016-05-09,-1,-0.0035547079732383873,-0.0032439967679761526,-0.008378678140655505,0.012000243053205562,0.9850056112724319
2016-05-11,-1,-0.002687317214240437,-0.002532117549045084,-0.0035942662142207115,0.012000243053205562,0.9866501346544153
2016-05-13,-1,-0.004634874413337244,-0.0042024686697233445,-0.008207806335409339,0.012000243053205562,0.9857606051451965
2016-05-17,-1,-0.002996097277760214,-0.002795577183728566,-0.013447079979889049,0.012000243053205562,0.9847790222485061
2016-05-19,-1,-0.0028538574450730284,-0.0027268119425420717,-0.013447079979889049,0.01592901019376451,0.9842481314462161
2016-05-23,-1,-0.0026177157304738,-0.0025170975519062796,-0.013447079979889049,0.018447470468124196,0.9823785466946099
2016-05-25,-1,-0.0022667214307530653,-0.0021529190614269457,-0.013447079979889049,0.018447470468124196,0.9831683983090378
2016-05-27,-1,-0.002758224060893185,-0.002525519288860265,-0.020623993499038623,0.018447470468124196,0.9765161544368866
2016-06-01,-1,-0.0033917571354157906,-0.003018278168880084,-0.020623993499038623,0.01978153909243835,0.9730075150834858
2016-06-03,-1,-0.004376893339680861,-0.0038610135462331073,-0.01613573839770039,0.01978153909243835,0.972304078752612
2016-06-07,-1,-0.004493165056167535,-0.003854263805033096,-0.025062203436856723,0.01891614060625523,0.9723824894110564
2016-06-09,-1,-0.004938373288029229,-0.004162688493160773,-0.025062203436856723,0.019215715744703616,0.9707234046641221
2016-06-13,-1,-0.007285519443835925,-0.006212043906238907,-0.024421313464919443,0.024762363314036424,0.9666012161483314
2016-06-15,-1,-0.007303460977821531,-0.006290472139511932,-0.010955248106054976,0.032251207439771744,0.9671317778605981
2016-06-17,-1,-0.007113410992895714,-0.006144781457431292,-0.007068685576761897,0.032251207439771744,0.9685484604482276
2016-06-21,-1,-0.00566306192593006,-0.004830427096059521,-0.007068685576761897,0.024762363314036424,0.9709293929877046
2016-06-23,-1,-0.004074443528924438,-0.003525316863185033,-0.012663954009722379,0.024762363314036424,0.9695416687821041
2016-06-27,-1,-0.009932484842660388,-0.008664576003808645,-0.007068685576761897,0.024762363314036424,0.9735269860888072
2016-06-29,-1,-0.007518750553710511,-0.00651826469669445,-0.007068685576761897,0.01958764907235567,0.9784563658419592
2016-07-01,-1,-0.006859015202894744,-0.005928457961443543,-0.009272928208490308,0.01958764907235567,0.9793287150817662
2016-07-06,-1,-0.00844366268346535,-0.007343563615650867,-0.007068685576761897,0.01958764907235567,0.9769053122398897
2016-07-08,-1,-0.005771467689270949,-0.005049233493350397,-0.007068685576761897,0.020195015720696267,0.9767677041681898
2016-07-12,-1,-0.0008980570493522059,-0.0008440184425251867,-0.009272928208490308,0.01292451338613018,0.9824184050028121
2016-07-14,1,0.001335743499551571,0.001690385260766736,-0.011575532747061072,0.010332929211220334,0.9843646168109836
2016-07-18,1,0.0015609893560870833,0.001972604905841508,-0.011575532747061072,0.01292451338613018,0.9840100958612676
2016-07-20,1,0.0021103365626283627,0.0026089416570933863,-0.011575532747061072,0.01292451338613018,0.9842089746259736
2016-07-22,1,0.002327613540598495,0.0029164569369777493,-0.011079210806651738,0.010332929211220334,0.9854548177376402
2016-07-26,1,0.0025602513035410312,0.0031837169343259452,-0.010725572695046148,0.010332929211220334,0.9862850696413198
2016-07-28,1,0.0023014538682353336,0.0028731938952888886,-0.010725572695046148,0.010332929211220334,0.9866928501135118
2016-08-01,1,0.002392130277652824,0.0029788489834391427,-0.011045245109024552,0.005784662271027229,0.986823464499017
2016-08-03,1,0.0014154884510751108,0.001921103194295129,-0.010879391822914482,0.00584475124177425,0.9858814131231904
2016-08-05,1,0.0037766929863673367,0.004590938928399624,-0.010879391822914482,0.003937327526762441,0.9881769243286919
2016-08-09,1,0.0037548488409023476,0.004595770755710781,-0.005375865142310485,0.005349824852947171,0.9868744425405535
2016-08-11,1,0.004238550524532654,0.005222199579139903,-0.005375865142310485,0.010016837590756389,0.985387257753777
2016-08-15,1,0.004567981969595079,0.005564391893488222,-0.010879391822914482,0.010016837590756389,0.9841680406728918
2016-08-17,1,0.004349166832931901,0.005268259237808156,-0.011540668190256733,0.011793129023358159,0.9832880507354957
2016-08-19,1,0.004326448913475941,0.005306962623763428,-0.011629481613880806,0.011793129023358159,0.983712593556896
2016-08-23,1,0.003997494752552708,0.004852713745990151,-0.012483875646300088,0.010308349856876921,0.9833159253434471
2016-08-25,1,0.003794220288279395,0.004588361807018408,-0.012483875646300088,0.012981137035273425,0.9829082221866521
2016-08-29,1,0.0028232462827797213,0.003412450101449518,-0.012483875646300088,0.014254314701058222,0.9816013647198425
2016-08-31,1,0.005300647489037757,0.006237963673638918,-0.012483875646300088,0.012981137035273425,0.98582330544491
2016-09-02,1,0.006289747534769397,0.007422829139076988,-0.012483875646300088,0.014962362116496954,0.9846788216962747
2016-09-07,1,0.008281702256768629,0.009724590948188252,-0.012483875646300088,0.01415756648108068,0.9866145773645069
2016-09-09,1,0.007944962853048776,0.009381912599659705,-0.012483875646300088,0.01415756648108068,0.9872234732938546
2016-09-13,1,0.006093615957228415,0.007120909046288596,-0.012431644036112443,0.01415756648108068,0.9877575934907858
2016-09-15,1,0.005123269784270619,0.0058995350835673935,-0.012105133964428345,0.014978623916303722,0.9878008164593887
2016-09-19,1,0.004480075157635731,0.005152208919176627,-0.009834354144298167,0.014978623916303722,0.9879885580092633
2016-09-21,1,0.002858484727343515,0.0031865583078779305,-0.004678251271565294,0.015519702659090898,0.9870810478806813
2016-09-23,1,0.0037051694784540077,0.0041963817095219446,-0.009834354144298167,0.016341623038169724,0.9862983437407201
2016-09-27,1,0.0024653195065427983,0.0026977798159521405,-0.009362795102156353,0.014978623916303722,0.9872697724424271
2016-09-29,1,0.003043517010592383,0.003378588307785221,-0.010528487138537513,0.014978623916303722,0.9867736410043979
2016-10-03,1,0.00427018425391128,0.004765946964847389,-0.010528487138537513,0.013338819015173423,0.9871112027549303
2016-10-05,1,0.0035959162881145134,0.003912284375627406,-0.010528487138537513,0.013338819015173423,0.9870039843343369
2016-10-07,1,0.003273856151867497,0.0035917580109753127,-0.009362795102156353,0.016568983175811656,0.9870117909552226
2016-10-11,1,0.003143242142620454,0.0033889581305002314,-0.00786845055776626,0.016568983175811656,0.987439157042125
2016-10-13,1,0.0031252861273326172,0.00336788416583525,-0.004930032596839947,0.01544998492772584,0.9879394796752403
2016-10-17,1,0.0028878314125658864,0.003132217212767959,-0.0036944857022132866,0.020337831870565336,0.9866946099010471
2016-10-19,1,0.004178305047673603,0.004586001183952859,-0.004930032596839947,0.020337831870565336,0.9859892417583507
2016-10-21,1,0.0040837472942555865,0.004471132215424617,-0.0036944857022132866,0.020921064564204787,0.9861435338761977
2016-10-25,1,0.002899616851711999,0.003078969745393949,0.0010850265918587554,0.020921064564204787,0.9863552917761904
2016-10-27,1,0.003127205445851579,0.0033963432122519283,0.0028788513041928727,0.020921064564204787,0.9873564780184941
2016-10-31,1,0.004334469333906509,0.004792928544949424,0.0010850265918587554,0.016048078715653932,0.9882117150818173
2016-11-02,1,0.003025647507977216,0.003189021607330815,-0.003260529674979875,0.016048078715653932,0.9868473813523043
2016-11-04,1,0.002926374809966833,0.003011127157475087,-0.004110271875350627,0.013451321949001484,0.9867810997415994
2016-11-08,1,0.0036122116476165153,0.003764665414866298,-0.004110271875350627,0.015512257096839274,0.9858506258530173
2016-11-10,1,0.004561452233029397,0.004925735986176708,0.000513477854995891,0.023780709342572655,0.9856669153557799
2016-11-14,1,0.005843531659349889,0.006383073325848092,-0.008713081714919496,0.013905926446000593,0.9856371156962317
2016-11-16,1,0.0038976687400954844,0.003996595404896023,-0.0075763812258511885,0.013905926446000593,0.986938923928763
2016-11-18,1,0.0062095752310476985,0.006531175117787039,-0.0075763812258511885,0.010608738929176919,0.987992527977402
2016-11-22,1,0.006586703064939489,0.0069775912671186085,-0.0075763812258511885,0.013905926446000593,0.986882395050412
2016-11-25,1,0.005353483682180559,0.0054509433188463675,-0.009826817560160624,0.013905926446000593,0.9859014872026384
2016-11-29,1,0.0055183682290023475,0.00573324113499832,-0.009826817560160624,0.013905926446000593,0.9854558942145337
2016-12-01,1,0.006513758485718384,0.007063751450977471,-0.006449154851925047,0.013905926446000593,0.9857171776375394
2016-12-05,1,0.006805954206705444,0.00744932440165127,-0.005075050636309355,0.01120850671899189,0.9863164178728022
2016-12-07,1,0.008379087162835766,0.009207735297674274,-0.006449154851925047,0.005582529150188016,0.9856700167166553
2016-12-09,1,0.009511708903227074,0.010495674352350185,-0.006449154851925047,0.005582529150188016,0.984620214052024
2016-12-13,1,0.00783401754986861,0.008530710427319687,-0.005075050636309355,0.006674330683947196,0.9867468204181684
2016-12-15,1,0.008493359423393524,0.009265609148688911,-0.006044930920339534,0.004794073505360161,0.9862522370942997
2016-12-19,1,0.007687843329457214,0.008316139243725948,-0.006044930920339534,0.004794073505360161,0.987199049239712
2016-12-21,1,0.007702000322851531,0.008309864398709678,-0.009317908088155002,0.004794073505360161,0.9860152944506765
2016-12-23,1,0.005590665176328409,0.005787980108745295,-0.006044930920339534,0.005679591352660593,0.9885929818518792
2016-12-28,1,0.005874950559001191,0.00626184037990218,-0.006044930920339534,0.005983826191978425,0.9880636281786414
2016-12-30,1,0.004784164367447489,0.0049856517211898715,-0.013016418210409062,0.005983826191978425,0.9862389822437692
2017-01-04,1,0.004113984491587917,0.004187017132806016,-0.013016418210409062,0.010508064555337301,0.9859474125680454
2017-01-06,1,0.0031381145002694136,0.0031764694779919615,-0.009036951796711809,0.013147808798644208,0.9869811622006087
2017-01-10,1,0.003952951037114328,0.004003120652808039,-0.013016418210409062,0.01011321079868226,0.9870467008324709
2017-01-12,1,0.0030694545223926275,0.003191658218580983,-0.009036951796711809,0.01011321079868226,0.9874249137802535
2017-01-17,1,0.002528560240147273,0.002716231216382715,-0.007089094980971652,0.013147808798644208,0.9870508103251151
2017-01-19,1,0.0020848127944478097,0.0023346376311140817,-0.007089094980971652,0.014869789832030729,0.9857819482689816
2017-01-23,1,0.0005236244904163283,0.0009974898832664748,-0.0057153777009150255,0.013147808798644208,0.9874840345538352
2017-01-25,1,0.0021767534771673183,0.0023180963579818156,-0.008313921806605104,0.013147808798644208,0.9871867864223083
2017-01-27,1,0.0024640043807469493,0.0025652595981589914,-0.0057153777009150255,0.01011321079868226,0.9887493920523189
2017-01-31,1,0.0011084642034385151,0.0012902157282018967,-0.002317437361421305,0.013147808798644208,0.9897723132469972
2017-02-02,1,0.0010877836969900997,0.0013096364451912561,-0.0057153777009150255,0.013834681466861471,0.9879208330169676
2017-02-06,1,0.0010412847698987352,0.001303727374771185,-0.008313921806605104,0.00950069502866412,0.9867124850431346
2017-02-08,0,-0.00026111883426672045,0.00016263802884785607,-0.008313921806605104,0.012529908658109528,0.9874964318410396
2017-02-10,-1,-0.0005459172075381225,-4.773782619316115e-05,-0.011714162205303101,0.007984044334207834,0.9868730182778979
2017-02-14,-1,-0.0007836510327715134,-0.00019091542115617943,-0.013143112778449349,0.007984044334207834,0.9843576717609521
2017-02-16,1,8.543887998081453e-05,0.0005756892953963379,-0.013143112778449349,0.004617908475255701,0.9845544189855046
2017-02-21,-1,-0.0008508144000113455,-0.0002153963394856777,-0.01885271436961943,0.007850871101892157,0.9832551425231842
2017-02-23,-1,-0.0015244568887143703,-0.0008112925202482988,-0.01885271436961943,0.01061373826670621,0.9822514817826836
2017-02-27,-1,-0.0006069814718530026,-7.197658812263487e-05,-0.01885271436961943,0.01061373826670621,0.9819272664039805
2017-03-01,-1,-0.0007345847215535608,-0.00018804456641711032,-0.016432907772248734,0.01061373826670621,0.9812755418552663
2017-03-03,-1,-0.0015008938332444965,-0.0008123055245313126,-0.012336510579325784,0.01061373826670621,0.9835479130509261
2017-03-07,-1,-0.0031996351776749695,-0.002333758842877962,-0.012336510579325784,0.01061373826670621,0.9837693341749082
2017-03-09,-1,-0.003497596884341172,-0.0026051583972834854,-0.011693239245355598,0.010158353573935287,0.9842167208308356
2017-03-13,-1,-0.005653338964927747,-0.004475649461480338,-0.009560476968255124,0.010158353573935287,0.9838725827405049
2017-03-15,-1,-0.005702563470955636,-0.004604111300059074,-0.011104583277832335,0.009561968653642613,0.9867333375352387
2017-03-17,-1,-0.006733002738700263,-0.005508988263043389,-0.011104583277832335,0.010158353573935287,0.9850657632990787
2017-03-21,-1,-0.008218317527375264,-0.00678370605356767,-0.011104583277832335,0.010866774682881367,0.9835467916781498
2017-03-23,-1,-0.00734394122837257,-0.005990383171880487,-0.011104583277832335,0.009561968653642613,0.9852828547072228
2017-03-27,-1,-0.006319075255383756,-0.005140922181920402,-0.011104583277832335,0.010866774682881367,0.9852107772055356
2017-03-29,-1,-0.005759330651776082,-0.004636470030285114,-0.009381931098687629,0.009561968653642613,0.9870150296338311
2017-03-31,-1,-0.005063538930354355,-0.004057657228763013,-0.009381931098687629,0.009121746571866592,0.9878670944233763
2017-04-04,-1,-0.005026984760175723,-0.004079906233595628,-0.007406061526567079,0.009121746571866592,0.9862172745457137
2017-04-06,-1,-0.004688951891517683,-0.0037984736925302798,-0.007406061526567079,0.009407419418513875,0.9859218119604093
2017-04-10,-1,-0.002845558789061409,-0.002273245821606342,-0.007406061526567079,0.01224996172017009,0.9850143125895054
2017-04-12,-1,-0.0030651247793807316,-0.0025235418659928345,-0.004919913615504858,0.01224996172017009,0.9850183312891184
2017-04-17,-1,-0.0016912057151571417,-0.001385971756833233,-0.004919913615504858,0.011589671229761386,0.9855930875702094
2017-04-19,-1,-0.0020792189194587876,-0.001759530553160321,-0.004919913615504858,0.011156055251806244,0.9861035194335869
2017-04-21,-1,-0.0017683127196019316,-0.0014993554223018883,-0.004919913615504858,0.01675957854537436,0.9852814639369883
2017-04-25,-1,-0.0011571036288866186,-0.0009483414716693661,-0.004919913615504858,0.013122220042465998,0.9857545092896738
2017-04-27,-1,-0.001776973183806611,-0.001460472247911042,-0.0030314066300065074,0.01675957854537436,0.9846828743520399
2017-05-01,-1,-0.0021280739212187136,-0.0017636748028621596,-0.0030314066300065074,0.01675957854537436,0.9838565736794256
2017-05-03,1,0.0012109331004260262,0.001363614428445434,-0.0030314066300065074,0.01635519496465101,0.9860120494114404
2017-05-05,1,0.0024579314565423846,0.002855814231906336,-0.004284409279483179,0.01635519496465101,0.9857563660898101
2017-05-09,1,0.0033134353164417647,0.003745487997561939,-0.004607758125594381,0.013806071206533611,0.987705501138974
2017-05-11,1,0.0032877911819476505,0.0037809815250322634,-0.007018873467780648,0.013806071206533611,0.9867712102381379
2017-05-15,1,0.0033780142063832503,0.0038719953845822446,-0.007437335985590907,0.012282256255504128,0.9870435034415566
2017-05-17,1,0.00294210341546686,0.0034142982830442426,-0.004607758125594381,0.006988322545217204,0.9892850826477668
2017-05-19,1,0.003527263836381805,0.004047717826237659,-0.00575900227737472,0.006988322545217204,0.9890120582860742
2017-05-23,1,0.0036135535564419934,0.004104249856096959,-0.008919057591201355,0.005202369286554032,0.9884602014110269
2017-05-25,1,0.004450325750223472,0.00502707700901346,-0.009879696654953085,0.004301001368789409,0.9887436843928216
2017-05-30,1,0.003370738629705253,0.003803758442348648,-0.009734031500913953,0.004301001368789409,0.9900297734122026
2017-06-01,1,0.003610387448691758,0.0040181494318694425,-0.013517063253732527,0.0033468732320407813,0.989342776667856
2017-06-05,1,0.00426306827915986,0.004823642917861633,-0.013517063253732527,0.0015556820052542927,0.9890983167564449
2017-06-07,1,0.0042938222905055876,0.004864529939613119,-0.013517063253732527,0.0033468732320407813,0.9883746609252474
2017-06-09,1,0.002846547358492353,0.0032138908028022254,-0.0085447172057384,0.005311138266691398,0.9899693378169762
2017-06-13,1,0.0021843950209303933,0.002469680908758068,-0.0085447172057384,0.010729389819891506,0.9880831098628519
2017-06-15,1,0.0017111521661304194,0.0018952031619093518,-0.0085447172057384,0.010729389819891506,0.9878105319748277
2017-06-19,1,0.0024482931381424188,0.0027516758959175943,-0.00921818047892341,0.005311138266691398,0.9884006193853306
2017-06-21,1,0.002065579490134617,0.002340988824846395,-0.011615573893963423,0.00464665586350412,0.9850186578090613
2017-06-23,1,0.0006115018910160616,0.0006427593581796142,-0.014010661871226019,0.00464665586350412,0.9849106010281888
2017-06-27,1,0.0006329203597391865,0.0006470655573919029,-0.014098508413513502,0.009642444608277683,0.9845138035241232
2017-06-29,1,0.0006596838131086921,0.0007155193158017022,-0.014098508413513502,0.0020771000610871762,0.9840538207588303
2017-07-03,-1,-0.00010698770282326493,-1.9832307530103443e-05,-0.014098508413513502,0.004729264211360042,0.9843872883511462
2017-07-06,1,0.0013204918841371752,0.0014345281338695366,-0.014098508413513502,7.414814918359864e-06,0.9845457046966853
2017-07-10,1,0.0017794852340328087,0.0019833130290872816,-0.014098508413513502,7.414814918359864e-06,0.9846430043300921
2017-07-12,1,0.0032683213657899637,0.003721740258480338,-0.011644856074725917,-0.002428908314453565,0.9856397235065804
2017-07-14,1,0.002822575784680011,0.0032067221561043998,-0.014098508413513502,7.414814918359864e-06,0.9848909732413732
2017-07-18,1,0.0021144711001259216,0.0023782232741269135,-0.014098508413513502,0.005224854981223635,0.9855084865629257
2017-07-20,-1,-0.000845992566559657,-0.000750872830506553,-0.011448581186523504,0.005224854981223635,0.9889531362637899
2017-07-24,-1,-0.001689710783586801,-0.0015004629648591888,-0.009272042495565102,0.005224854981223635,0.9898598103577623
2017-07-26,-1,-0.0016906289193944126,-0.0015099327119418443,-0.009272042495565102,0.0029315752575877585,0.9896787117425799
2017-07-28,-1,-0.003905345789380752,-0.0033928924727268557,-0.009272042495565102,0.005224854981223635,0.9885851261339086
2017-08-01,-1,-0.0038816101724353943,-0.0033716088672030506,-0.009272042495565102,0.005224854981223635,0.9888974696052774
2017-08-03,-1,-0.0044417658882146,-0.0037985109322338046,-0.011534864730989362,0.0020951745177224517,0.9891242313291
2017-08-07,-1,-0.004575267011463147,-0.0038830861974030644,-0.01570121813774192,0.0020951745177224517,0.9885997964850374
2017-08-09,-1,-0.005832933345982319,-0.004955087911080461,-0.02134956386516796,0.0020951745177224517,0.9873869191891818
2017-08-11,-1,-0.006898719816838786,-0.005859459054386705,-0.01570121813774192,0.0020951745177224517,0.9868494297531232
2017-08-15,-1,-0.005492925997168156,-0.004679250331849942,-0.01570121813774192,0.0028728416054928296,0.9869632725123318
2017-08-17,-1,-0.006476099118237157,-0.0055695745743824165,-0.01570121813774192,0.0028728416054928296,0.9874527756113008
2017-08-21,-1,-0.005763941321223873,-0.004982848005245881,-0.02134956386516796,0.0009889691237847194,0.9868388732626504
2017-08-23,-1,-0.006562085250145431,-0.00571021421975563,-0.01570121813774192,0.007712926451265624,0.9867337246175231
2017-08-25,-1,-0.006426493802177325,-0.0055721481996187094,-0.01291009277424196,0.007712926451265624,0.9879327268441542
2017-08-29,-1,-0.006482314788816018,-0.0056356512322132644,-0.01291009277424196,0.008330571726700622,0.9863461849590295
2017-08-31,-1,-0.006510962882562223,-0.00569720321057913,-0.010507292381166732,0.008330571726700622,0.9863634714171705
2017-09-05,-1,-0.007418773429051994,-0.006463166244536437,-0.00799594621364282,0.00949898537369162,0.9841865563348134
2017-09-07,-1,-0.008937018467834817,-0.007827801633596174,-0.005095943042399289,0.00949898537369162,0.9836665575603903
2017-09-11,-1,-0.00795718519366336,-0.0069307146370785975,-0.006834924384562445,0.00949898537369162,0.9855236446239604
2017-09-13,-1,-0.006509491626601445,-0.005669030188507991,-0.006834924384562445,0.00949898537369162,0.9850797529257079
2017-09-15,-1,-0.007043423775773475,-0.006180279430535808,-0.0053919018854588245,0.01165215436199048,0.9844527848647704
2017-09-19,-1,-0.008410877071585577,-0.007387375886271891,-0.0046149355426980815,0.01165215436199048,0.9839184859435953
2017-09-21,-1,-0.007666852609872713,-0.006725894358354142,-0.0053919018854588245,0.01165215436199048,0.9808136605925712
2017-09-25,-1,-0.005971708314125069,-0.00533677220256859,-0.007650993197531419,0.009762293451043482,0.9820537359863044
2017-09-27,-1,-0.004457357322758414,-0.004034775688808223,-0.007650993197531419,0.009699798552733337,0.9829824671180206
2017-09-29,-1,-0.003230888425459765,-0.003040285397946771,-0.007650993197531419,0.009699798552733337,0.9829215538774548
2017-10-03,-1,-0.0012044167481064481,-0.0011760628666819205,-0.009253062265016185,0.00742362793208724,0.9853169286313112
2017-10-05,-1,-0.0008247503673109304,-0.0007278969308299775,-0.009253062265016185,0.00742362793208724,0.9853153625224172
2017-10-09,-1,-0.0008042642448519369,-0.0007409027494682152,-0.009253062265016185,0.00742362793208724,0.984964632626332
2017-10-11,1,0.0011839123579158264,0.0015646589839566293,-0.009932837430966308,0.0055306165783520645,0.9866860242791663
2017-10-13,1,0.0016703156758768826,0.0021490149690869056,-0.009253062265016185,0.0046458000608397745,0.9874187261771931
2017-10-17,1,0.002351397946293935,0.002989003921989672,-0.01094701058929062,0.0038142528216200647,0.9868356664756026
2017-10-19,-1,-0.0011092461183999452,-0.0009744265509758826,-0.009751792961400677,0.0046458000608397745,0.9906966635220522
2017-10-23,-1,-0.0008283066503305047,-0.0006037794506205978,-0.00911770000744361,0.005020604515885723,0.9906854178349971
2017-10-25,1,7.949983842933271e-05,0.0004526438300965698,-0.00911770000744361,0.005020604515885723,0.9908025207806093
