JNU-Tangyin/eata/results/Batch4_SP500/Batch4_SP500-AMAT.csv
Date,Action,Predicted_Q25,Predicted_Q75,Actual_Q25,Actual_Q75,RL_Reward
2010-12-14,0,0.0,0.0020136145748640873,-0.00196645227188723,0.010281790096980117,0.9933269467373843
2010-12-16,0,0.0,0.0,-0.0009016646219146629,0.010281790096980117,0.9888802119563532
2010-12-20,0,0.0,0.0,-0.002467344272879449,0.007214552936570016,0.9892772917603567
2010-12-22,0,0.0,0.0,-0.005846567577515034,0.005208251118772348,0.9900011589277832
2010-12-27,0,0.0,0.0022428642562169233,-0.005846567577515034,0.006141601697187882,0.9907408091407812
2010-12-29,1,0.002054725086390874,0.0023081842912057275,-0.005846567577515034,0.010281790096980117,0.9869691768504831
2010-12-31,1,0.0056229503788392254,0.006234719818342009,-0.006759084195832005,0.010281790096980117,0.9852828182738955
2011-01-04,0,0.0,0.0,-0.00576295678519617,0.015216251803253585,0.9843216527716906
2011-01-06,0,0.0,0.0,-0.00576295678519617,0.02189212617544296,0.9838350519187864
2011-01-10,0,0.0,0.0,-0.006506451164750398,0.02189212617544296,0.983765009438091
2011-01-12,0,0.0,0.0,-0.008665198802461808,0.01723610957697641,0.9838423512397227
2011-01-14,0,0.0,0.0,-0.008665198802461808,0.012838975280444127,0.9866843812925458
2011-01-19,1,0.38070076979194306,0.38221549001336225,-0.00790842479448735,0.01463923401957881,0.7258142714698061
2011-01-21,0,0.0,0.0,-0.006254193162092245,0.01463923401957881,0.9865751698341667
2011-01-25,1,0.0030758477234252325,0.0032277560469522967,-0.008328918400624117,0.012467702195243653,0.9853549594782227
2011-01-27,1,0.004643922648916948,0.005007474637793342,-0.008328918400624117,0.012678223108235465,0.9860564144702412
2011-01-31,1,0.003966328671254337,0.004196843473512463,-0.008328918400624117,0.01463923401957881,0.9861455443210193
2011-02-02,0,0.0,0.0,-0.008328918400624117,0.01463923401957881,0.9858300751542604
2011-02-04,0,0.0,0.0,-0.008840972172750488,0.013752143149965828,0.9849262278213398
2011-02-08,0,0.0,0.0,-0.011488414018927858,0.013752143149965828,0.9838802990469085
2011-02-10,0,0.0,0.0,-0.011488414018927858,0.012506283846764627,0.9843065369828962
2011-02-14,0,0.0,0.0,-0.011488414018927858,0.012506283846764627,0.9848240452575574
2011-02-16,1,0.004661351290897436,0.0049913926234374534,-0.016054623924371708,0.012506283846764627,0.9823908356366642
2011-02-18,1,0.00558819135180081,0.005947601639310643,-0.016054623924371708,0.01476507895751187,0.9810869672212582
2011-02-23,1,0.002868790772740632,0.0028933216153678833,-0.011488414018927858,0.01476507895751187,0.9840054502509665
2011-02-25,0,0.0,0.0,-0.011488414018927858,0.014802562807357963,0.9847773208811568
2011-03-01,0,0.0,0.0,-0.008004191981367599,0.013902016818541398,0.9855425763215205
2011-03-03,0,0.0,0.0,-0.008004191981367599,0.0028326155613773774,0.9870437607201512
2011-03-07,0,0.0,0.0,-0.007337464666597204,0.0028326155613773774,0.9889479085309986
2011-03-09,0,0.0,0.0,-0.005965051956468895,0.00987271143861688,0.9898816328315788
2011-03-11,-1,-0.0011011675647632708,-0.0005773318624368161,-0.006679231609836918,0.00987271143861688,0.9899718198356824
2011-03-15,-1,-0.00177009674653397,-0.001368944006372788,-0.007337464666597204,0.00987271143861688,0.9890481928344192
2011-03-17,0,0.0,0.0,-0.007337464666597204,0.004592201176542191,0.9909123771988673
2011-03-21,0,0.0,0.0,-0.008773180595335765,0.002771532412668858,0.9911698525762093
2011-03-23,0,0.0,0.0,-0.008773180595335765,0.008575651746340198,0.988966620580918
2011-03-25,0,0.0,0.0,-0.008773180595335765,0.004569417294318489,0.9896456231734009
2011-03-29,0,0.0,0.0,-0.008773180595335765,0.008575651746340198,0.9885371738794798
2011-03-31,0,0.0,0.0,-0.010549520398706852,0.008575651746340198,0.9882663924946958
2011-04-04,-1,-0.002510347808451526,-0.002121322919250756,-0.012805344898521543,0.008575651746340198,0.9871505562922788
2011-04-06,0,0.0,0.0,-0.012805344898521543,0.003944176844044631,0.9871895944500373
2011-04-08,0,0.0,0.0,-0.01060384862951225,0.006699930395518623,0.9870730337255784
2011-04-12,0,0.0,0.0,-0.009876874780756266,0.006699930395518623,0.9875726121309352
2011-04-14,0,0.0,0.0,-0.010500708693354021,0.009581958287752495,0.9868946760147314
2011-04-18,0,0.0,0.0,-0.012968329590937737,0.009581958287752495,0.986261140842348
2011-04-20,0,0.0,0.0,-0.012968329590937737,0.007303979943583379,0.9877143387682505
2011-04-25,0,0.0,0.0,-0.015034125332950276,0.007303979943583379,0.9861170855634386
2011-04-27,-1,-0.1709932061271983,-0.17026488317751243,-0.015034125332950276,0.002482514325571256,0.8592447996483684
2011-04-29,0,0.0,0.0,-0.016091741310011634,0.002482514325571256,0.9864359845984548
2011-05-03,0,0.0,0.0,-0.016091741310011634,0.0037325860510126147,0.9846632599106202
2011-05-05,0,0.0,0.0,-0.016091741310011634,0.006748966788330297,0.9845981670021973
2011-05-09,0,0.0,0.0,-0.016091741310011634,0.006729015247918512,0.9852899145000207
2011-05-11,0,0.0,0.0,-0.01729077395766214,0.006729015247918512,0.9844981116185103
2011-05-13,0,0.0,0.0,-0.016091741310011634,0.004283723336628416,0.98483811775585
2011-05-17,-1,-0.0038276422017612206,-0.00322587498321678,-0.01570531993492463,0.006729015247918512,0.9864139248820639
2011-05-19,-1,-0.003596357720094783,-0.0030291084041844567,-0.01570531993492463,0.004283723336628416,0.9872332610967078
2011-05-23,-1,-0.004962342781393614,-0.004235620669272682,-0.014685452492318833,0.006729015247918512,0.9877462831149623
2011-05-25,-1,-0.004625502753032246,-0.003930813564423596,-0.014685452492318833,0.006729015247918512,0.987402014923067
2011-05-27,-1,-0.005924233760964024,-0.005073627627920052,-0.011289331655614009,0.011722926370364017,0.9862454651594519
2011-06-01,-1,-0.006837500372314542,-0.0058703733637359735,-0.008525610525260597,0.006729015247918512,0.9892968315803538
2011-06-03,-1,-0.007293261369523518,-0.006258982283528568,-0.007950718014573865,0.015138394606871775,0.9871647502379531
2011-06-07,-1,-0.0063189267712544656,-0.005458641666970987,-0.008525610525260597,0.015138394606871775,0.9876580127202199
2011-06-09,-1,-0.004949211515474736,-0.00439261137458105,-0.008525610525260597,0.018454669317410802,0.9863271371547881
2011-06-13,-1,-0.0057658596032455125,-0.005091411993307184,-0.009429334264603434,0.018454669317410802,0.9856713771337492
2011-06-15,-1,-0.005680730642767856,-0.004996254480314951,-0.01401136725185355,0.015964836752938784,0.986144317308563
2011-06-17,-1,-0.005332687292019357,-0.004736500204525956,-0.01401136725185355,0.016235903876930448,0.9849842266907691
2011-06-21,-1,-0.0032951503487952463,-0.0030254821692232607,-0.01401136725185355,0.016244345197713055,0.9844584370664977
2011-06-23,-1,-0.0034446246221908343,-0.003107973056431073,-0.01401136725185355,0.019426380728273986,0.983508936180296
2011-06-27,-1,-0.00260861182582201,-0.0024390031863672232,-0.012452502933466232,0.017489127574721035,0.98563742004027
2011-06-29,-1,-0.00233048591716288,-0.0022220165986865837,-0.01401136725185355,0.017489127574721035,0.9838541617776938
2011-07-01,-1,-0.0009090351456708665,-0.0008846275759614524,-0.01401136725185355,0.005444703699688323,0.9854478787429508
2011-07-06,-1,-0.0013400996895261664,-0.0013260147811925472,-0.014204854775340576,0.011738667521820761,0.9848078586621464
2011-07-08,-1,-0.001101906877248378,-0.0010841441766502105,-0.014204854775340576,0.004467635123394136,0.9845382988855556
2011-07-12,-1,-0.002087409760041209,-0.0020136811968891758,-0.014204854775340576,0.011738667521820761,0.9832564992922732
2011-07-14,-1,-0.0030317973001718207,-0.0028700151557188077,-0.013767464682579306,0.015256065188646903,0.9817089641956626
2011-07-18,-1,-0.003556680220019279,-0.0032695859796050414,-0.013767464682579306,0.017489127574721035,0.98144508231765
2011-07-20,-1,-0.0014868306828004832,-0.0014674027605713947,-0.016157117246821232,0.01232485945976434,0.9820994066658291
2011-07-22,0,-5.0512959016117014e-05,0.00016859769052151154,-0.017525204235405073,0.00020292672746650216,0.9802354653010741
2011-07-26,1,0.0006466727869810722,0.0010428866154068368,-0.017525204235405073,0.005463040423619348,0.9775489538385819
2011-07-28,-1,-0.001119226718915453,-0.0010534828112566908,-0.017525204235405073,0.005463040423619348,0.9776036036690632
2011-08-01,-1,-0.001703510039751263,-0.0016276332479951056,-0.017525204235405073,0.023164004843678927,0.9757411080447513
2011-08-03,-1,-0.0020671364051853356,-0.001933497471617755,-0.016157117246821232,0.023164004843678927,0.9767689772631193
2011-08-05,-1,-0.003866072447258801,-0.003539054329013197,-0.01742914772663273,0.023164004843678927,0.9781627187509501
2011-08-09,-1,-0.003369064169521206,-0.003081979711440412,-0.016157117246821232,0.023164004843678927,0.9783922708744619
2011-08-11,-1,-0.0019424944558284604,-0.001867477681646369,-0.016977909435652902,0.008554324089079433,0.9794478411116143
2011-08-15,-1,-0.0014415712901033396,-0.001433528259828872,-0.016977909435652902,0.012769941076523742,0.9794645853372409
2011-08-17,-1,-0.0018058421428880883,-0.0017880903438606886,-0.016734878806282112,0.021435009128858266,0.9774203908431758
2011-08-19,-1,-0.002537387217046201,-0.002473122504759551,-0.016734878806282112,0.021435009128858266,0.9789618751137966
2011-08-23,0,-0.00021271506479208612,7.379055086123012e-06,-0.020328917516869993,0.01626755467221546,0.9801613142483996
2011-08-25,0,0.0,0.0,-0.020328917516869993,0.021203530928095,0.9794610430776153
2011-08-29,0,0.0,0.0,-0.020328917516869993,0.01626755467221546,0.9791558233581956
2011-08-31,0,0.0,0.0,-0.020328917516869993,0.01626755467221546,0.9788570636226879
2011-09-02,-1,-0.0024722869372215835,-0.0024706399986468334,-0.022351355651985774,0.01626755467221546,0.9778545275319853
2011-09-07,-1,-0.0025490161894643542,-0.0025445015455779047,-0.022351355651985774,0.021203530928095,0.9767315744493774
2011-09-09,-1,-0.0036580445151287036,-0.0034702065678326142,-0.020993056494705706,0.021203530928095,0.9772426278395875
2011-09-13,-1,-0.0015031037931831429,-0.0013682822495404536,-0.020993056494705706,0.02365342115100196,0.9771667902883691
2011-09-15,1,0.00030974472374247245,0.0006980738061539969,-0.020993056494705706,0.02558685830739207,0.977312157858412
2011-09-19,1,0.00016971635187244013,0.000616347257670816,-0.01853509613805657,0.02558685830739207,0.9782580470730138
2011-09-21,-1,-0.001316390612354082,-0.0010369555101792133,-0.017037468799642803,0.02558685830739207,0.9778169202556867
2011-09-23,-1,-0.002351305576011901,-0.0022466602333170702,-0.015748599730547753,0.02829440621159618,0.9787000240316037
2011-09-27,-1,-0.0016204225617754491,-0.0014500203686409715,-0.014546702148851814,0.02558685830739207,0.9799833898469844
2011-09-29,-1,-0.0015766605748364785,-0.0013814731620178239,-0.01336207615561902,0.02829440621159618,0.9775430025698398
2011-10-03,-1,-0.0039675211095724135,-0.003864330218576639,-0.006057237358635387,0.02829440621159618,0.978597644115488
2011-10-05,-1,-0.0010535720762463703,-0.0008027140463200815,-0.01336207615561902,0.023973404355331192,0.9812642515817483
2011-10-07,-1,-0.0009499272713721858,-0.0007410086850321545,-0.01336207615561902,0.025228564716396486,0.980566806942357
2011-10-11,1,7.864777694425334e-05,0.0004405373792849578,-0.01336207615561902,0.023973404355331192,0.9815048448340122
2011-10-13,1,0.0012817683884890883,0.0017300044973842953,-0.014546702148851814,0.019032718364955552,0.9820269614092962
2011-10-17,1,0.0010225224809743694,0.0014508300797262865,-0.014418682533209552,0.02132406296436961,0.9803154515022166
2011-10-19,1,0.0009754586454544575,0.0013482714709698092,-0.013649478688129359,0.019032718364955552,0.981126185949364
2011-10-21,0,0.0,0.0,-0.017136957065537965,0.012183698562087147,0.9780088621954506
2011-10-25,0,0.0,0.0,-0.02686052717341786,0.009312471343999727,0.9768203935160094
2011-10-27,1,0.0023032080855020336,0.002766296431909878,-0.029607605511789988,0.008246115822989968,0.977847650002865
2011-10-31,1,0.001219968223704388,0.001514683972596075,-0.029607605511789988,0.009312471343999727,0.9776122255588383
2011-11-02,1,0.0005075182993320242,0.000665888089545646,-0.02686052717341786,0.011429065477309633,0.9772131064079635
2011-11-04,1,0.0019377425341835655,0.0022976407474010196,-0.02686052717341786,0.010489135877139125,0.9775474636848817
2011-11-08,1,0.002225510645730266,0.002594037474574061,-0.02686052717341786,0.010431261511720628,0.9775315450034654
2011-11-10,1,0.0021358075608971694,0.0025493037575744252,-0.02686052717341786,0.014513989234382161,0.9771694043977369
2011-11-14,1,0.0027262208200558215,0.003228866768776529,-0.029594170407145345,0.010431261511720628,0.9764556337338782
2011-11-16,1,0.0023204574087163352,0.0027506901051641184,-0.029594170407145345,0.010431261511720628,0.9758562314478786
2011-11-18,-1,-0.0003981204380196354,-0.00032429802983269685,-0.02186700324490588,0.013911095048120853,0.979756316456483
2011-11-22,-1,-0.0006405977659817529,-0.00048293794694012637,-0.01698312906731008,0.014513989234382161,0.9802603128069709
2011-11-25,-1,-0.0018195069791421834,-0.0017900422956515817,-0.014864901443388517,0.024361797582190637,0.9788799800479875
2011-11-29,-1,-0.0014731145793200984,-0.0014624325672714033,-0.01698312906731008,0.017725600699850425,0.97978576852252
2011-12-01,-1,-0.0005024970676063396,-0.0004169316049914522,-0.01698312906731008,0.014513989234382161,0.9820522299834613
2011-12-05,-1,-0.00021645371062739506,-0.00015586428956887758,-0.01698312906731008,0.013911095048120853,0.9827778593919616
2011-12-07,1,0.0008503184870566172,0.0010612178550807125,-0.01698312906731008,0.01445937724446816,0.9829812093391289
2011-12-09,1,0.0013068998012702076,0.0016514713351338413,-0.014212215081717867,0.018197322550448113,0.983379083183464
2011-12-13,1,0.0006080220892357556,0.000942832264163609,-0.0040884942102157205,0.018197322550448113,0.9856186567367985
2011-12-15,-1,-0.00034688425486461096,-0.00014117268792228127,0.00045974465215478655,0.023282732818838237,0.9841632367077113
2011-12-19,-1,-0.0009552736847901727,-0.0008991832658595926,0.0023377816601626985,0.0251459416376431,0.9831262373215433
2011-12-21,-1,-0.0009517740332326256,-0.0009169796493898178,0.0023377816601626985,0.023282732818838237,0.9839233597717092
2011-12-23,1,0.0008682544208723634,0.0011224266786519234,0.0023377816601626985,0.015912590629408613,0.9874769959237121
2011-12-28,-1,-0.0004978559277853016,-0.0004859667545902926,0.0031294231389662024,0.015912590629408613,0.9866921513089755
2011-12-30,-1,-0.00021727996954223457,-0.00020241261379402238,0.002193750172798718,0.017025911470400015,0.985727236930235
2012-01-04,1,0.000577556626321984,0.0007634452282571358,0.003855317970852709,0.019413476229286658,0.985175456959078
2012-01-06,1,0.001974128591679074,0.002392441144794681,-0.0010002387797676906,0.019413476229286658,0.9858078254703634
2012-01-10,1,0.0028102461847606197,0.0032854531608107187,-0.0010002387797676906,0.016317975189021464,0.9873299871360528
2012-01-12,1,0.0019923707632583418,0.002184649144578183,-0.012580730586687534,0.016317975189021464,0.9863892394360032
2012-01-17,1,0.0030157281443787833,0.0034906494580527582,-0.006531405875921581,0.013667315556074823,0.9887908465876805
2012-01-19,1,0.0036910492892933333,0.0041624444100510855,-0.006531405875921581,0.012149681108887183,0.9896720115657841
2012-01-23,1,0.004281110289558136,0.004927809338028034,-0.012580730586687534,0.010698730306381134,0.9890712074934798
2012-01-25,1,0.004545300380308366,0.005205569359847362,-0.012729737983550996,0.012637500105888485,0.9878767685816792
2012-01-27,1,0.00337521242883671,0.0038046609335324376,-0.01225408191658698,0.012637500105888485,0.9875883357624242
2012-01-31,1,0.003815255992286922,0.004328542946282851,-0.01225408191658698,0.010698730306381134,0.9876594842602234
2012-02-02,1,0.0038419871834724883,0.004272611929718648,-0.01225408191658698,0.008923455965723972,0.9881076306594156
2012-02-06,1,0.0041670668033112895,0.004688399669446685,-0.01225408191658698,0.0039111094945597094,0.9879718870778872
2012-02-08,1,0.006134131636549458,0.007037112332970502,-0.01225408191658698,0.003655219003771689,0.9878362232239317
2012-02-10,1,0.005073380628085119,0.005755114017138735,-0.009576419423346328,0.003655219003771689,0.988650492953276
2012-02-14,1,0.004063942492237089,0.004551628066300061,-0.009576419423346328,0.0074519045082712156,0.9895457475544978
2012-02-16,1,0.004456539134383436,0.0049332348388934424,-0.009576419423346328,0.0074519045082712156,0.9895905690515132
2012-02-21,1,0.0030742633996461988,0.003369509869495175,-0.008096813910736016,0.0074519045082712156,0.9915439712834769
2012-02-23,1,0.0026956638936595457,0.00289182100507489,-0.006106818267220594,0.004259485233417584,0.9924682410055782
2012-02-27,0,-0.00016757294994640122,0.00017063308749116677,-0.0016410771335026752,0.0074519045082712156,0.992554299592552
2012-02-29,0,0.0,0.0,-0.0026226507838586818,0.0074519045082712156,0.9918131942377797
2012-03-02,0,0.0,0.0,-0.003178667514396525,0.0074519045082712156,0.9917365394684371
2012-03-06,-1,-0.00016945490734916407,-0.00012480905054994685,-0.003178667514396525,0.0074519045082712156,0.9913242335551768
2012-03-08,0,0.0,0.0,-0.006465664105255678,0.0034040176208376583,0.9912515449256845
2012-03-12,0,0.0,0.0,-0.0097154262919198,0.0031715385488741673,0.990866938799734
2012-03-14,0,0.0,0.0,-0.0097154262919198,0.003375559221469638,0.9901723528459433
2012-03-16,1,0.0020403502047367846,0.002264971457607147,-0.011634707940346937,0.003375559221469638,0.9894834021323056
2012-03-20,0,0.0,0.0,-0.014274966143889466,0.004283234834318756,0.9889808008080342
2012-03-22,0,0.0,0.0,-0.014274966143889466,0.004283234834318756,0.9887939108739147
2012-03-26,0,0.0,0.0,-0.01477000721990819,0.002269811266968607,0.9888195212959873
2012-03-28,0,0.0,0.0,-0.014274966143889466,0.006959490449655393,0.9888222386470714
2012-03-30,1,0.0022292050842229677,0.002551136911280577,-0.014274966143889466,0.008799241248605549,0.9883440556275273
2012-04-03,1,0.0021061256258907025,0.0024321012071887964,-0.011664620038281597,0.008799241248605549,0.9886163339847804
2012-04-05,1,0.0011206794848333148,0.0013118791895510113,-0.01433914371777134,0.008799241248605549,0.9874441987821292
2012-04-10,1,0.0008353770279511265,0.0010382562456560805,-0.01187241877954242,0.008799241248605549,0.9881263432362508
2012-04-12,0,0.0,0.0,-0.01187241877954242,0.002536966462663292,0.9890927264208473
2012-04-16,-1,-0.0008603548084457863,-0.0006699399798707617,-0.009029008378139166,-0.0009318266026438237,0.9903977113535765
2012-04-18,0,0.0,0.0,-0.011328116946826255,-0.002461958390310352,0.9900780583147817
2012-04-20,0,0.0,0.0,-0.013058022732345017,-0.002719397519832622,0.9891856710993948
2012-04-24,0,0.0,0.0,-0.011784111597375007,-0.002461958390310352,0.9883888573064936
2012-04-26,-1,-0.002751464235721246,-0.0022569437664959804,-0.013058022732345017,-0.002719397519832622,0.9901654833962512
2012-04-30,-1,-0.0014508392212989026,-0.0011432828132330378,-0.013058022732345017,-0.002461958390310352,0.9882067532323654
2012-05-02,0,0.0,0.0,-0.01462846540817013,-0.002461958390310352,0.9863377792701586
2012-05-04,0,0.0,0.0,-0.013058022732345017,0.0008939989521616612,0.98660162278676
2012-05-08,0,0.0,0.0,-0.013058022732345017,0.013104043389785132,0.9845066135469837
2012-05-10,0,0.0,0.0,-0.013058022732345017,0.014456806144828013,0.9840745132150042
2012-05-14,-1,-0.007390968481866703,-0.006197423206803089,-0.014356885637988672,0.015592942377762386,0.9836669265866795
2012-05-16,-1,-0.008488049063474492,-0.007180179108759354,-0.013271047695989899,0.015592942377762386,0.983695109445965
2012-05-18,-1,-0.008123909686086474,-0.006981561231661999,-0.011549846098312538,0.016799739399066094,0.9825229567570234
2012-05-22,-1,-0.007945825116318885,-0.006774670202390776,-0.007954701623118017,0.016975707813017077,0.9814006055843778
2012-05-24,-1,-0.008172074555691302,-0.007004020542615895,-0.007954701623118017,0.016975707813017077,0.9813063850771182
2012-05-29,-1,-0.00674250296872748,-0.005748872505196137,-0.013271047695989899,0.016975707813017077,0.9825483346123067
2012-05-31,-1,-0.007520122031861729,-0.0064821436136929984,-0.004432773599427233,0.016975707813017077,0.9821037176759267
2012-06-04,-1,-0.006720490133261521,-0.00587573612123277,-0.004432773599427233,0.018979010073987657,0.9820938038410097
2012-06-06,-1,-0.004092529419397777,-0.0035920638338717064,-0.008117035155796148,0.016483752924037694,0.9847301958967446
2012-06-08,-1,-0.00378082551389323,-0.003313364106526217,-0.013520024599671136,0.016483752924037694,0.9846270616572838
2012-06-12,-1,-0.002360993462591379,-0.0021432926345289825,-0.013520024599671136,0.013645079782758654,0.9848508753010715
2012-06-14,-1,-0.002684073667580808,-0.002414906407233068,-0.015865740956075878,0.013645079782758654,0.9838497123243077
2012-06-18,0,0.0,0.0,-0.015865740956075878,0.011140337782232251,0.9841911228552574
2012-06-20,0,0.0,0.0,-0.015865740956075878,0.007351941179388079,0.9851449092960343
2012-06-22,0,0.0,0.0,-0.015574618973405807,0.006079673318377157,0.9860924186608402
2012-06-26,0,0.0,0.0,-0.013520024599671136,0.009154773303591678,0.9866812597585051
2012-06-28,0,0.0,0.0,-0.013520024599671136,0.012014835058353646,0.9854978766814931
2012-07-02,0,0.0,0.0,-0.013073356402257234,0.009154773303591678,0.9871273273680151
2012-07-05,1,0.0011811795181841187,0.001425811180680835,-0.011132590467600043,0.007019804490342878,0.9884128848818545
2012-07-09,1,0.00020592812940140438,0.0004894534028643945,-0.009777984115441141,0.009154773303591678,0.9883687935641817
2012-07-11,0,0.0,0.0,-0.0032621055137646883,0.012014835058353646,0.987400323740501
2012-07-13,0,0.0,0.0,-0.0020564338404986714,0.010562119654985165,0.988472283107346
2012-07-17,0,0.0,0.0,-0.003722427778901619,0.010562119654985165,0.987999724846347
2012-07-19,0,0.0,0.0,-0.003722427778901619,0.010316446647867749,0.988333880344807
2012-07-23,0,0.0,0.0,-0.0025041723371083636,0.010316446647867749,0.9890910188582933
2012-07-25,-1,-0.0007255156639964451,-0.000668456659128695,-0.0025041723371083636,0.0095778592888237,0.9890035787997838
2012-07-27,-1,-0.0004982168389477028,-0.0004204874368724578,-0.0025231546319020534,0.005628049653140181,0.9909387959328384
2012-07-31,1,0.0009502216171550042,0.0012384094329930095,-0.0025231546319020534,0.005121545686885364,0.9912811466866136
2012-08-02,1,0.0004895446477642624,0.0007771382421642663,-0.0040236207849661575,0.005515381966524123,0.9901321432272862
2012-08-06,1,0.0018438257333901493,0.0023312578248021664,-0.0040236207849661575,0.005289381796508059,0.9906289506248638
2012-08-08,1,0.003505379158060634,0.004266680064075964,-0.0040236207849661575,0.005289381796508059,0.9919064933455359
2012-08-10,1,0.00349095502275102,0.004233436428490956,-0.00927943195159392,0.004712604900385988,0.9909590459219297
2012-08-14,1,0.002810863284006965,0.003459171760658183,-0.004221571697354655,0.004712604900385988,0.9918167836959705
2012-08-16,1,0.004176813086861305,0.005058984682501871,-0.004221571697354655,0.004712604900385988,0.9905002859853714
2012-08-20,0,0.0,0.0,-0.010032589209503735,0.004712604900385988,0.9904013094694283
2012-08-22,0,0.0,0.0,-0.010032589209503735,0.004712604900385988,0.9900445021758951
2012-08-24,0,0.0,0.0,-0.010032589209503735,0.004712604900385988,0.9898242911646461
2012-08-28,0,0.0,0.0,-0.010429986483035409,0.004712604900385988,0.9895413316162516
2012-08-30,0,0.0,0.0,-0.009503727161897669,0.0065741214178181755,0.9896188480714598
2012-09-04,1,0.0026566388015357685,0.0031290515762558637,-0.009503727161897669,0.001554081165504391,0.9892679798665005
2012-09-06,1,0.0027550458313245823,0.003209845978321209,-0.009503727161897669,-0.0004529202459389115,0.9894694749905689
2012-09-10,0,0.0,0.0,-0.009503727161897669,0.0013312790732999179,0.9912361310236967
2012-09-12,0,0.0,0.0,-0.010150445684744288,0.0013312790732999179,0.9911242574682267
2012-09-14,1,0.002627641423685859,0.0030068323461244746,-0.010150445684744288,0.00021853647833571156,0.991076318866826
2012-09-18,0,0.0,0.0,-0.008392949743662264,0.002925480645375606,0.9926130046114306
2012-09-20,0,0.0,0.0,-0.005997291095209667,0.002925480645375606,0.9934458337144444
2012-09-24,0,0.0,0.0,-0.006529965372747983,0.002925480645375606,0.9922438006880174
2012-09-26,0,0.0,0.0,-0.006641352801471015,0.002925480645375606,0.9924246291459246
2012-09-28,0,0.0,0.0,-0.005413425447812583,0.0026917807526321827,0.993427754163113
2012-10-02,1,0.00012068902702999106,0.00014318119335517653,-0.005413425447812583,0.0026917807526321827,0.9918947640447573
2012-10-04,-1,-0.0003702578094973969,-0.0002884089564420188,-0.006641352801471015,0.0031738023204914904,0.9904050915141712
2012-10-08,-1,-0.0012606672635011647,-0.0010281172369484436,-0.006641352801471015,0.0048165366782281635,0.9873943372847284
2012-10-10,0,0.0,0.0,-0.0066899200372369395,0.008176090248307736,0.9848846825927142
2012-10-12,0,0.0,0.0,-0.01083526429217797,0.008176090248307736,0.9844626000260255
2012-10-16,0,0.0,0.0,-0.011784111597375007,0.0020557665451127857,0.9849552115990405
2012-10-18,0,0.0,0.0,-0.013116764523626154,0.005431350371141165,0.9835508460094874
2012-10-22,0,0.0,0.0,-0.011784111597375007,0.006935009737910798,0.9848283306571941
2012-10-24,0,0.0,0.0,-0.011784111597375007,0.00909574473910393,0.9851243727591981
2012-10-26,-1,-0.0027159921881005447,-0.002266593147946092,-0.011784111597375007,0.01731527751950467,0.9841421637937787
2012-11-01,-1,-0.001375095936923987,-0.001104245669898358,-0.011784111597375007,0.013953237699767345,0.9850448172414894
2012-11-05,-1,-0.0008127735221013278,-0.0006173966679004896,-0.010742292495852679,0.013953237699767345,0.9855437378649438
2012-11-07,-1,-0.0014093857503286972,-0.0011291389249651093,-0.008141267125430642,0.009551882764544082,0.9886385420559486
2012-11-09,-1,-0.0013465718959950088,-0.001114682865382836,-0.0067310362577633065,0.007592973273842536,0.9905801960369262
2012-11-13,-1,-0.0011846246998366556,-0.0010411919254284575,-0.0059745250704534,0.007592973273842536,0.9910211517628321
2012-11-15,-1,-0.00222165675663686,-0.0019261643065305067,-0.002744280572112283,0.007592973273842536,0.9912207202239982
2012-11-19,-1,-0.0023487696029193617,-0.0020098737510670962,-0.0013734015394596456,0.0073060023020567275,0.9922586263113417
2012-11-21,-1,-0.0018273445780986304,-0.0015699617196334227,-0.0013734015394596456,0.007592973273842536,0.9919175995380807
2012-11-26,-1,-0.0014946547966622537,-0.0012896049725996755,-0.0013734015394596456,0.008886211811844071,0.9914460499057292
2012-11-28,-1,-0.0002381093639573884,-0.00018443516070452978,-0.0013734015394596456,0.007592973273842536,0.9932987638315893
2012-11-30,-1,-0.00045447335880270375,-0.00033046651380545875,-0.002903146818381085,0.007592973273842536,0.9927759043787676
2012-12-04,-1,-0.0009537423151375463,-0.0006898137143655669,-0.0025753824173782554,0.007592973273842536,0.9921585883585262
2012-12-06,-1,-0.0012333912366239584,-0.0009217727938837345,-0.0025753824173782554,0.0073060023020567275,0.9922672332635416
2012-12-10,-1,-0.001032403324622928,-0.0007225832985833892,-0.002903146818381085,0.007361717797154028,0.9917617416034081
2012-12-12,-1,-0.00035821127741820743,-0.00017489995235289246,-0.0034464528958630335,0.007361717797154028,0.9916271297792413
2012-12-14,-1,-0.0009717289358982546,-0.0006788129503439893,-0.0034464528958630335,0.007361717797154028,0.9914527971141696
2012-12-18,-1,-0.0008509610513277625,-0.0005607012787812151,-0.0034464528958630335,0.013773215966515604,0.9893296544321888
2012-12-20,1,0.00030036985020910704,0.0003988657051263985,-0.0034464528958630335,0.013887844883984646,0.9891722234573399
2012-12-24,-1,-0.00018364683409584446,-1.894411544930497e-05,-0.0034464528958630335,0.013887844883984646,0.9897622831771903
2012-12-27,-1,-0.0003377035746265167,-0.0001561525162327574,-0.0027564844432055717,0.015073761939736537,0.9885823944993289
2012-12-31,1,0.000511433896807089,0.0005452749988321362,-0.0027564844432055717,0.013887844883984646,0.9890262870414818
2013-01-03,1,0.002384558744992167,0.0027025784636682537,-0.0014462635949545914,0.013887844883984646,0.9903882239963757
2013-01-07,1,0.001882499333110278,0.0021347353820939515,-0.0014462635949545914,0.015640811659838987,0.9888075536359048
2013-01-09,1,0.0014121693753535087,0.0015564308793440864,-0.0019739238455448362,0.014758884787662812,0.989391737499598
2013-01-11,1,0.00321238195006566,0.00373064558980336,-0.0009626868172165671,0.01872530972015491,0.9894586261568755
2013-01-15,1,0.00333052200813921,0.003861924213648248,-0.0009626868172165671,0.01872530972015491,0.9891911823999997
2013-01-17,0,0.0,0.0,-0.002983421320298788,0.012162866039169974,0.9895244203878549
2013-01-22,0,0.0,0.0,-0.007565475761032791,0.010328651295128994,0.9891519442756874
2013-01-24,1,0.0041911158088867185,0.004802802752222699,-0.008296777307736845,0.012751287138750544,0.9882259483181937
2013-01-28,1,0.0048431423201670196,0.005508816189299123,-0.011185799548779914,0.013222665488031972,0.9863766182833432
2013-01-30,1,0.004882687305724928,0.005599322761211602,-0.008296777307736845,0.013222665488031972,0.9867838448660156
2013-02-01,1,0.005894939745155708,0.006768674348860785,-0.009264339393015873,0.009265209360652341,0.9864209174993296
2013-02-05,1,0.006133935913900167,0.00699541239702091,-0.007785164772867725,0.009265209360652341,0.9877137306061587
2013-02-07,1,0.005465411669948064,0.006218037455202821,-0.008759129724614935,0.009265209360652341,0.9877736572915394
2013-02-11,1,0.006841558777073501,0.007851034316192673,-0.008802704097496498,0.008231452796440605,0.9873169949499343
2013-02-13,1,0.006196275197658558,0.0070525051118089125,-0.008802704097496498,0.009265209360652341,0.987191283669653
2013-02-15,1,0.0058482231397254765,0.006611203996437315,-0.011540401414402832,0.008782073807793013,0.9853133057353425
2013-02-20,1,0.005099528687259453,0.0057400580170327035,-0.008802704097496498,0.009184715807072068,0.9859953135188974
2013-02-22,0,0.0,0.0,-0.008802704097496498,0.009184715807072068,0.9879282601310133
2013-02-26,0,0.0,0.0,-0.008759129724614935,0.006522102214915624,0.9901173341876903
2013-02-28,1,0.005101074014232261,0.005669680760417625,-0.008759129724614935,0.005416471894827137,0.9892965822619567
2013-03-04,0,0.0,0.0,-0.00888236830443466,0.005416471894827137,0.9899520718870632
2013-03-06,0,0.0,0.0,-0.00888236830443466,0.005245782637430717,0.9902217150432169
2013-03-08,0,0.0,0.0,-0.00888236830443466,0.005493932643646849,0.9899456272269567
2013-03-12,0,0.0,0.0,-0.007397939727912864,0.007913597050072455,0.9882838027524488
2013-03-14,0,0.0,0.0,-0.008922058621223238,0.005493932643646849,0.9886643578950177
2013-03-18,0,0.0,0.0,-0.007397939727912864,0.007321923561338429,0.9892430423403343
2013-03-20,0,0.0,0.0,-0.009226944306663092,0.005493932643646849,0.9884338914542143
2013-03-22,1,0.0017138581276966234,0.001796054405553676,-0.008922058621223238,0.005493932643646849,0.9896231892451284
2013-03-26,0,0.0,0.0,-0.008922058621223238,0.011352494322822627,0.9882554069407745
2013-03-28,0,0.0,0.0,-0.008922058621223238,0.012109770461511137,0.9866518403091137
2013-04-02,0,0.0,0.0,-0.006183699298775993,0.013950294770067413,0.9862556786106403
2013-04-04,0,0.0,0.0,-0.003562304496074653,0.01576588900050807,0.9856359437824591
2013-04-08,0,0.0,0.0,-0.003562304496074653,0.01576588900050807,0.9861752230084038
2013-04-10,0,0.0,0.0,-0.0035867839104025134,0.012423678278797062,0.9876077361124647
2013-04-12,0,0.0,0.0,-0.0017006173834257744,0.012423678278797062,0.9878505638017503
2013-04-16,0,0.0,0.0,-0.0017006173834257744,0.012423678278797062,0.9883014064034036
2013-04-18,-1,-0.0018533639732556098,-0.0013396474257505457,-0.0008671429919487202,0.012423678278797062,0.9892154992052826
2013-04-22,-1,-0.001619234634615229,-0.0011229923517322403,-0.0017006173834257744,0.01576588900050807,0.9889451319578397
2013-04-24,0,-0.0002836094298815314,4.33357027525464e-05,-0.004025940334761772,0.007937080945942745,0.9901957331680931
2013-04-26,1,0.0007744813771119254,0.0009757863000166844,-0.006270074115196926,0.007015266446094264,0.9915794801600679
2013-04-30,1,0.001563986568063502,0.0016487454448800177,-0.006270074115196926,0.005237182557252008,0.9911545776606918
2013-05-02,1,0.0019886768793261627,0.0020339702478325053,-0.006270074115196926,0.005237182557252008,0.9906619654905461
2013-05-06,1,0.0020372973330079315,0.0020637827231107355,-0.006270074115196926,0.007554592699750283,0.989956930604943
2013-05-08,1,0.0018606278671170927,0.0019120169100743018,-0.00901109321887234,0.0068877703640301095,0.9886403069109534
2013-05-10,1,0.0017821376737045445,0.001855501418931159,-0.00901109321887234,0.009129613302126437,0.9870161342711797
2013-05-14,1,0.0011139454410391953,0.0012459377111505494,-0.00901109321887234,0.009129613302126437,0.9873691656458268
2013-05-16,1,0.000932388188710074,0.001067390114809159,-0.009691102864144334,0.01646467392891772,0.986222362068029
2013-05-20,1,0.0012311498073507236,0.0013389590977654752,-0.009691102864144334,0.01708641999384387,0.9857111625639324
2013-05-22,1,0.00010881662324025202,0.0003621971421732984,-0.012434967805755294,0.01708641999384387,0.9842295442991476
2013-05-24,0,-0.0002318466779566746,5.966333903155636e-05,-0.012434967805755294,0.01708641999384387,0.9844273152235238
2013-05-29,1,0.0007271345413018985,0.0008675109390838384,-0.014127663016966878,0.01618851063110894,0.9839113458850628
2013-05-31,1,0.0012056293042332653,0.0013254269618933885,-0.014127663016966878,0.012813346727466462,0.985201892021756
2013-06-04,1,0.0015957034913801939,0.0016696541223660058,-0.014127663016966878,0.005972644041855223,0.9855418289153512
2013-06-06,1,6.833054676350753e-05,0.00033500480331577335,-0.008071709080556974,0.0127759984897366,0.986710292014975
2013-06-10,1,0.0010822041060351084,0.0012297131864602876,-0.008071709080556974,0.0127759984897366,0.9864758606395008
2013-06-12,1,0.001554082647933731,0.0015708359169170796,-0.0066491033990329585,0.015839815160340387,0.9849733188493064
2013-06-14,1,0.0020884825984363578,0.0021756153037978277,-0.0066491033990329585,0.0127759984897366,0.9856048564448302
2013-06-18,1,0.002830427496530361,0.0029868866299124757,-0.0066491033990329585,0.011778798728272349,0.9866700392796119
2013-06-20,1,0.0014350798297980477,0.0014531407468624331,-0.00560000877779534,0.011778798728272349,0.9891456508198948
2013-06-24,1,0.0008830632629698243,0.0009535114868633088,-0.005804056870603049,0.011778798728272349,0.9886263695312034
2013-06-26,1,0.001195401768253643,0.001196839635225036,-0.005804056870603049,0.010646081097130314,0.9898999433379985
2013-06-28,1,0.0013444196640619928,0.0013961434498834628,-0.006731706494119373,0.010646081097130314,0.9897379694039816
2013-07-02,1,0.0007557026094963944,0.0007979239668879015,-0.005833324962687062,0.011778798728272349,0.9893570108097713
2013-07-05,1,0.001898479291655624,0.002047415586291481,-0.007061922831454034,0.010336130224297994,0.98962261917399
2013-07-09,1,0.002660050558623502,0.002920536605066322,-0.008301891480581955,0.007586456250817186,0.9906973053547828
2013-07-11,1,0.003952984837823173,0.004373152034783141,-0.010583110836582022,0.004453640171193903,0.9906416156769046
2013-07-15,1,0.0035586335751841627,0.0039023407172267483,-0.009957387438738653,0.0032364890319714202,0.9915049304014502
2013-07-17,1,0.003780941416407453,0.0041475326135938,-0.009957387438738653,0.002165732072531094,0.9913634167690784
2013-07-19,1,0.0034401595710123155,0.0037532709877129552,-0.010902238476162684,0.0032364890319714202,0.9901179149848959
2013-07-23,1,0.002717739423951621,0.0029381791436926706,-0.009957387438738653,0.0032364890319714202,0.9911544531331625
2013-07-25,1,0.0021685579344568728,0.0022885405010781446,-0.0076919538578506174,0.00407296019517857,0.9915826014111001
2013-07-29,1,0.0018252437497935329,0.0019058489251143635,-0.010452834259861848,0.00407296019517857,0.9913458244404653
2013-07-31,1,0.0021308578583274333,0.0022214981450867774,-0.01153270334270492,0.0018901571183321487,0.9901756919519178
2013-08-02,1,0.0016919815546937245,0.0016930033559355941,-0.01153270334270492,0.0018901571183321487,0.9903834265833928
2013-08-06,1,0.0016073542291412655,0.0016378746542790026,-0.009160771762427992,0.005499408991903775,0.9894523954233465
2013-08-08,-1,-0.00067522246275088,-0.0003478478531549362,-0.007621068860131225,0.005499408991903775,0.9908957859775235
2013-08-12,-1,-0.0006852510536773898,-0.000364251044860571,-0.007621068860131225,0.006765123424678029,0.9894853695488118
2013-08-14,-1,-0.0005967477605048131,-0.00029113315875606066,-0.007621068860131225,0.006765123424678029,0.9896275669173983
2013-08-16,-1,-0.0008167503520707216,-0.0004966307534051025,-0.005185872775407256,0.0055340149472447465,0.9916869586247979
2013-08-20,-1,-0.0010176174831126965,-0.0006766802118789889,-0.004175918035257273,0.006765123424678029,0.9908187938635156
2013-08-22,-1,-0.0014318255689332432,-0.0009967455793984269,-0.007698712491085031,0.0055340149472447465,0.99053360488912
2013-08-26,-1,-0.0023191816873013808,-0.001771685033419895,-0.007325128649256316,0.008004666702614523,0.9861994333231814
2013-08-28,-1,-0.0026354778488189012,-0.002118916071484666,-0.003332043594602023,0.013898285003986844,0.9861486430683838
2013-08-30,-1,-0.0018809360990246337,-0.0015052438047865092,-0.003937126082621789,0.009870845776334463,0.9868013167841936
2013-09-04,-1,-0.0007785006889336371,-0.0005008326206970452,-0.003937126082621789,0.004170431466572264,0.9886593608472629
2013-09-06,-1,-0.0016347623355904108,-0.0012331593848164588,-0.003937126082621789,0.007330669190707521,0.9882421601772836
2013-09-10,-1,-0.0014806689311843786,-0.0010324843823350184,-0.004833634546203791,0.005670604282002593,0.9886092584573829
2013-09-12,-1,-0.0016260388735051764,-0.0011805879173265765,-0.007943751578118514,0.011999513152515176,0.986742044013843
2013-09-16,-1,-0.0010646099527724551,-0.0007426443186236704,-0.007943751578118514,0.011999513152515176,0.9861705678759698
2013-09-18,1,0.00017888864626572473,0.00030952503585276076,-0.009602202627466302,0.008738001027978155,0.9860388890375669
2013-09-20,-1,-0.0002883228060473735,-0.00013415787836081397,-0.005374613844112184,0.008738001027978155,0.9864136579804367
2013-09-24,1,0.0015683908378715176,0.0016759095430304608,-0.009602202627466302,0.008690199613838734,0.9900199906177826
2013-09-26,1,0.0016676719634587949,0.0017759212851106475,-0.009774609277611281,0.008690199613838734,0.9883108875777431
2013-09-30,1,0.0012452320031327638,0.0013050045717613824,-0.009774609277611281,0.008690199613838734,0.9886601442042858
2013-10-02,1,0.0011669585948390494,0.0012196412336703286,-0.009774609277611281,0.011239678649630363,0.9878038690647253
2013-10-04,1,0.0010144874022104404,0.001017272537438954,-0.009146103858308042,0.008690199613838734,0.988347924715332
2013-10-08,1,0.0005999433324607409,0.0006495990092009248,-0.007653342934487702,0.007392852161229466,0.9895117517317105
2013-10-10,1,0.001362354350658901,0.001425120232236636,-0.007653342934487702,0.007392852161229466,0.9896529328463252
2013-10-14,1,0.001123577484725588,0.001133990780855379,-0.007653342934487702,0.008002523139324636,0.9889615079010603
2013-10-16,1,0.00047788042218121124,0.0005746438606478748,-0.007653342934487702,0.007539068227266103,0.9895650459334187
2013-10-18,1,0.0008089563367201142,0.0008427525147167553,-0.007653342934487702,0.0042289044828918414,0.9895279003522052
2013-10-22,1,0.0012714332025052402,0.0013306516431088637,-0.007653342934487702,0.002818847702304129,0.9884650461403218
2013-10-24,1,0.0014664364100274389,0.0015902584487486578,-0.007117473767737704,0.002818847702304129,0.9901979843042532
2013-10-28,1,0.000480652306387855,0.0005440862007585654,-0.007117473767737704,0.002818847702304129,0.9906000728868609
2013-10-30,1,0.0012445472122794823,0.0013283718841211808,-0.007552545382786029,0.002818847702304129,0.9904533726796473
2013-11-01,1,0.0006956046861919915,0.0007120517063181394,-0.007560094902343954,0.002818847702304129,0.99032191837827
2013-11-05,1,0.0010019156028127545,0.0010371067337259627,-0.009167367005444124,0.0019797540488141465,0.9888629009461274
2013-11-07,1,0.000762310583209611,0.0008294989132491784,-0.007560094902343954,0.0019797540488141465,0.9895829625418884
2013-11-11,1,0.0007383575095541625,0.0007476653811270517,-0.007560094902343954,0.0007357696613844043,0.9906641580780464
2013-11-13,1,0.0004015148524829647,0.00045623778753151165,-0.0067378834401861185,0.0005869861540190474,0.9909687336860122
2013-11-15,1,6.090545652303345e-05,0.0001649026734650972,-0.0067378834401861185,0.0005869861540190474,0.9913555663828111
2013-11-19,-1,-0.0014043779617540714,-0.0011318119082610483,-0.0037954287098515326,0.002970416316598469,0.992230495831639
2013-11-21,-1,-0.0005622488116619295,-0.000368702597380447,-0.006557626270545241,0.002970416316598469,0.9923236355327694
2013-11-25,-1,-0.00039254381440804363,-0.00025735506517770445,-0.006680233435928835,0.00972513436357289,0.9911549134245004
2013-11-27,1,8.272500825538871e-05,0.0001316085588701433,-0.006557626270545241,0.004257292359353383,0.9920955918399327
2013-12-02,1,0.0002819140574251833,0.0003229061508716357,-0.0034304442219898054,0.00901833888011189,0.9920737373321327
2013-12-04,-1,-0.00039683637470091105,-0.000344889084323778,-0.0034304442219898054,0.00901833888011189,0.9930943942586472
2013-12-06,1,0.00025414796510269354,0.0003072345614625853,-0.0034304442219898054,0.005571041699762617,0.9935406428434952
2013-12-10,1,0.00017059632835678796,0.00020265558067875236,-0.0034304442219898054,0.005571041699762617,0.9933689395855873
2013-12-12,-1,-0.0005112356983371161,-0.00042996133961465126,-0.0035097668617574884,0.005571041699762617,0.9931135061037939
2013-12-16,-1,-0.0006792650701714028,-0.0005750161682635756,-0.003422678039888382,0.011570176646642694,0.9914496685527128
2013-12-18,0,-1.136516443719224e-05,3.2583330022741824e-05,-0.006978206290932884,0.0061860557941192185,0.9915924375284932
2013-12-20,1,0.000580829640403099,0.0006426381874435948,-0.005116605404929056,0.004173965125771456,0.9926909621641392
2013-12-24,1,0.00047822551964330515,0.0005227438135565412,-0.007355056333746681,0.003587475332273853,0.9925023998260641
2013-12-27,1,0.00043434033453664336,0.0004547807999378593,-0.007667447254675387,0.003587475332273853,0.9912820517637434
2013-12-31,1,0.00042395064587371007,0.0004499450973754717,-0.007667447254675387,0.0030962541862054444,0.9917394238909434
2014-01-03,-1,-0.00011668401254954689,-2.782873910088193e-05,-0.007667447254675387,0.0030962541862054444,0.99199617601667
2014-01-07,-1,-0.0001622609366267769,-7.897711425967652e-05,-0.005243591999493116,0.0030962541862054444,0.992445789171627
2014-01-09,-1,-0.00011279970294225921,-3.966727210072177e-05,-0.005243591999493116,0.004656064681403658,0.9917930149942703
2014-01-13,-1,-0.0006059915168585582,-0.0004515531047525847,-0.0038097916008166476,0.006822683274801282,0.9905984592564115
2014-01-15,1,0.0004426832784302821,0.0004735190149957983,-0.0038097916008166476,0.0067443938123206044,0.9895564105871048
2014-01-17,-1,-0.0006559987780344606,-0.00046645319402888977,-0.0017873304448541862,0.0067443938123206044,0.9897934735949919
2014-01-22,-1,-0.0010941212619447163,-0.0008106219219551884,-0.004001627659130974,0.007389828030881491,0.9892044572369678
2014-01-24,-1,-0.0018660728369851675,-0.0014974179815679567,-0.0012882220216725603,0.007389828030881491,0.9897608162748648
2014-01-28,-1,-0.0015607342457233545,-0.0012984047197753827,-0.0012882220216725603,0.007389828030881491,0.9909124657992254
2014-01-30,-1,-0.0018635922783797505,-0.0015429606942502544,-0.0026239731604273103,0.007389828030881491,0.9908657663874875
2014-02-03,-1,-0.001191149226851111,-0.001000285585824791,-0.0026239731604273103,0.007389828030881491,0.9903123664568765
2014-02-05,-1,-0.001106334269435967,-0.0009117558352789995,-0.0026239731604273103,0.00984343141482699,0.9893244855249059
2014-02-07,-1,-0.0007365122697273799,-0.0005786366771016976,-0.0031507035472345566,0.011415923538104824,0.9890113331972468
2014-02-11,1,0.000869031419947273,0.0009411415405931724,-0.004860302314090903,0.011415923538104824,0.9892868395964598
2014-02-13,1,0.0024498759409105012,0.002684703451823572,-0.006469856869105214,0.007949802317272154,0.9900164077848561
2014-02-18,1,0.00322887034177128,0.0036274143806585436,-0.006097437079645851,0.01295396711073424,0.98918481347912
2014-02-20,1,0.003983835190932247,0.004504868639362359,-0.0056526794761767125,0.013534154204254219,0.9884839323497578
2014-02-24,1,0.0038724962828941517,0.004333078164190101,-0.0056526794761767125,0.013534154204254219,0.9881837435475977
2014-02-26,1,0.0037564537573764965,0.004192550643604669,-0.009580900764288459,0.013534154204254219,0.9866762177961157
2014-02-28,1,0.003419649589216169,0.0038109761768516425,-0.009644916600789224,0.014795656062554202,0.9857335172649552
2014-03-04,1,0.0030561020132513043,0.003390733963667905,-0.008495907178070201,0.014795656062554202,0.9858993663264719
2014-03-06,1,0.00407450053804358,0.004579561344582552,-0.008495907178070201,0.013534154204254219,0.9868856240278181
2014-03-10,1,0.004224916831458217,0.004786577644887943,-0.00913598316653924,0.013173726299790661,0.9858870768254869
2014-03-12,1,0.004271445783624189,0.004812452775821185,-0.008666576047813113,0.012153547487308512,0.986689959615531
2014-03-14,1,0.0026068728319365107,0.0029875926673157945,-0.008666576047813113,0.012153547487308512,0.986477164967095
2014-03-18,1,0.003871935947729848,0.004419572872003412,-0.008666576047813113,0.008631908846279837,0.9867564371335927
2014-03-20,1,0.005438784755943001,0.006161364802549714,-0.008666576047813113,0.007350755944995759,0.9877340720371549
2014-03-24,1,0.004973811109514064,0.005616046972054615,-0.008666576047813113,0.008631908846279837,0.9882411476494614
2014-03-26,1,0.004553032164439119,0.005154291316044413,-0.008449122849909231,0.007985262185283098,0.9895578518574423
2014-03-28,1,0.004625853528226552,0.005207814536480403,-0.008555775883151378,0.007264367921807754,0.9889131368735551
2014-04-01,1,0.005302076883943988,0.005975863133996634,-0.008555775883151378,0.006438573833157803,0.9881563215912122
2014-04-03,1,0.005082917672547512,0.005666923810934914,-0.009100870802146745,0.004736415669790262,0.9876999579918838
2014-04-07,1,0.00394298254908073,0.004428020042661436,-0.0064519683057682,0.004736415669790262,0.9899006626848742
2014-04-09,1,0.0035469175853906133,0.003957102040974486,-0.005711027460283643,0.006398569946424708,0.9900347936014198
2014-04-11,1,0.001630403532109992,0.0017622130566184262,-0.005343071315871967,0.00714435626160847,0.9919431278996914
2014-04-15,0,-9.556299331016707e-06,0.00015270546087767727,-0.005711027460283643,0.00714435626160847,0.9911018137260573
2014-04-17,1,0.0007797194650722935,0.0007970963977187691,-0.006442063827602627,0.007995619265243375,0.9867569431476271
2014-04-22,1,0.0012263338171330993,0.0012751958606819936,-0.00864039810326185,0.006398569946424708,0.9866509382470884
2014-04-24,1,0.0012111123112655492,0.0012633288381014018,-0.00864039810326185,0.006630075505599676,0.9866490506692297
2014-04-28,-1,-0.0004829730769799357,-0.00030405109911681334,-0.006442063827602627,0.007727629951436105,0.9872416222720369
2014-04-30,-1,-0.0004872839442044708,-0.00025314832033074676,-0.00864039810326185,0.007055026490339381,0.9876630576934605
2014-05-02,-1,-0.0005606916847740556,-0.0003344713565022056,-0.006442063827602627,0.007727629951436105,0.9873203354914477
2014-05-06,-1,-0.0009329272447917039,-0.0006540934099730175,-0.00621816577544005,0.010300571156090857,0.9851334356882905
2014-05-08,-1,-0.0003200128165556287,-9.495840955281855e-05,-0.00621816577544005,0.00876542555709134,0.9857279670082201
2014-05-12,-1,-0.0002957507549575369,-6.142506251989772e-05,-0.00621816577544005,0.008207200933839223,0.9859157054291655
2014-05-14,-1,-0.0009957649789924497,-0.0007149550515039484,-0.004714873388285223,0.008207200933839223,0.9868505138563446
2014-05-16,1,0.0015824126119256812,0.001621737788436433,-0.00444169648351001,0.008207200933839223,0.9900182230810347
2014-05-20,1,0.0010646748964277402,0.001075559925878462,-0.0025671591069059913,0.008207200933839223,0.9903672111964413
2014-05-22,1,0.0009761675495379115,0.0009984298896994696,-0.001170531172544021,0.010881075019682855,0.990221479583465
2014-05-27,1,0.0022544361611511084,0.0024213107297533995,-0.0025671591069059913,0.007496076995205184,0.9913092445334527
2014-05-29,1,0.0014203587465207003,0.0014503733120886473,-0.004662322226981892,0.007496076995205184,0.9912224810343464
2014-06-02,1,0.0015065900109382147,0.001524232044988179,-0.002018548899701162,0.0066191452830222895,0.9918726126462553
2014-06-04,1,0.003016889713844055,0.0032285327639648125,-0.002018548899701162,0.006346313471776953,0.9939659773528107
2014-06-06,1,0.0031048470468275297,0.0033083537505155395,-0.002018548899701162,0.006341977655495211,0.9940936125156231
2014-06-10,1,0.003566903624313383,0.0038957351060047093,-0.00560063967217524,0.006580382376661453,0.9927843580893344
2014-06-12,1,0.0026686312268293603,0.0028311385668053665,-0.005650815329236506,0.006580382376661453,0.992123485231708
2014-06-16,1,0.003428897888638807,0.003694536887738704,-0.006693940273910477,0.006580382376661453,0.9928091879536546
2014-06-18,1,0.002721924261326538,0.002826815441633395,-0.006693940273910477,0.006580382376661453,0.9927647960197754
2014-06-20,1,0.0025109960781388983,0.0025308124075254846,-0.006693940273910477,0.006580382376661453,0.992641283817058
2014-06-24,1,0.0021847723573316003,0.0022142553601650207,-0.007410421516265738,0.005946783120367505,0.9909687758121828
2014-06-26,1,0.0012969083076929335,0.0014469697301443339,-0.007924520251745521,0.005946783120367505,0.9904531353405198
2014-06-30,1,0.0013162056923990463,0.0014592661711100524,-0.008364566634144865,0.005833636658302826,0.9901267858038904
2014-07-02,1,0.0017201859604217978,0.0017949127743979694,-0.010945806204214016,0.004716335340356504,0.9893865146928889
2014-07-07,1,0.002343320640738016,0.002399990740595529,-0.010945806204214016,0.004716335340356504,0.9892064455994204
2014-07-09,1,0.0034676316081545893,0.003788248391422863,-0.014052804077368438,0.004716335340356504,0.9890387868832075
2014-07-11,1,0.0027283577186018124,0.0029393370316737498,-0.014052804077368438,0.006143180860827952,0.9890756958351651
2014-07-15,1,0.0026837504216790774,0.0028964684676846693,-0.014052804077368438,0.006143180860827952,0.9888715052839585
2014-07-17,1,0.0023967592230972,0.002572699503527437,-0.014052804077368438,0.0063433870342802555,0.9891337644178455
2014-07-21,1,0.002205480548103206,0.002364895363107911,-0.015504220992991938,0.0063433870342802555,0.98593760732185
2014-07-23,1,0.0006157716729725787,0.0006780026253404222,-0.009832277746367711,0.0063433870342802555,0.987654357195925
2014-07-25,-1,-0.0006677705332303913,-0.00043854557382187124,-0.008102819894023705,0.007220819617496215,0.9884512997214764
2014-07-29,-1,-0.000296568382797199,-0.00015284848184869216,-0.007235744279830102,0.007220819617496215,0.9887748059452597
2014-07-31,-1,-0.0007375411676345639,-0.0005405202744183734,-0.0033975473932106315,0.009558281404206765,0.9883919816001664
2014-08-04,-1,-0.0004400353117815146,-0.0002869587206295672,-0.0070492402680424554,0.012760644093783339,0.9878133461069201
2014-08-06,-1,-0.001247472533411477,-0.0009394536375243936,-0.0070492402680424554,0.009558281404206765,0.9884941734003311
2014-08-08,-1,-0.0011840505275341417,-0.000931272973566638,-0.004666410353971298,0.0104407983255559,0.9891893799320833
2014-08-12,-1,-0.00035917028199906783,-0.0002642053172910562,-0.0047059603639074965,0.008877878128277629,0.989517217761875
2014-08-14,-1,-0.0001444703990918805,-6.694157725709078e-05,-0.0070492402680424554,0.010719434265995925,0.9874915048095849
2014-08-18,1,0.0008744991968111131,0.0009014242299747427,-0.0070492402680424554,0.010719434265995925,0.9899147437445706
2014-08-20,1,0.0007666177683961933,0.0008019430542733259,-0.004952496608352621,0.010719434265995925,0.9900352455956968
2014-08-22,1,0.0013050600165760236,0.0014424431033084654,-0.00815748358732085,0.008074215507824186,0.9892565750992808
2014-08-26,1,0.0014820781913455513,0.0016566911256264863,-0.009750231187709225,0.010719434265995925,0.9881733783213315
2014-08-28,1,0.001467403499650488,0.0015764143281678821,-0.011940448583316166,0.0099934662057343,0.987717299934907
2014-09-02,1,0.0014643445224745539,0.0015653218448432216,-0.011940448583316166,0.007451221705592511,0.988316328564592
2014-09-04,1,0.00018030833929237133,0.0003011736017784573,-0.015720067645240643,0.007451221705592511,0.9870430464802424
2014-09-08,0,-4.934916008149392e-05,0.00012178853175886058,-0.015720067645240643,0.007568345026101505,0.986948636112316
2014-09-10,-1,-0.0004657654126465446,-0.0002515214238595903,-0.015720067645240643,0.010344836167261284,0.9852556586590154
2014-09-12,-1,-0.0003719552557618338,-0.00019027238193003015,-0.015720067645240643,0.007568345026101505,0.9847437632244556
2014-09-16,-1,-0.00041846060800736294,-0.00022341067949594817,-0.020497611922771195,0.007568345026101505,0.9827081190252339
2014-09-18,-1,-0.0008946955187656682,-0.0005917699424246841,-0.020497611922771195,0.010344836167261284,0.9820199504814796
2014-09-22,-1,-0.0015976450606367606,-0.0012283724743970329,-0.015720067645240643,0.010344836167261284,0.9828430404780365
2014-09-24,-1,-0.0018505067071693056,-0.001434368640064776,-0.015589765697815401,0.010344836167261284,0.9819043966253466
2014-09-26,-1,-0.002403918049707278,-0.0019094725430527624,-0.013417977470224378,0.012674104657629217,0.98206482145088
2014-09-30,-1,-0.0022618000327397697,-0.0018172621784379032,-0.013417977470224378,0.012674104657629217,0.981584203309398
2014-10-02,-1,-0.003745283961726378,-0.0031358768405016844,-0.007853915323212144,0.013120069311340804,0.9826506486984616
2014-10-06,-1,-0.004154038653801571,-0.003458230651691545,-0.007679503478290495,0.020556999087644325,0.9810556958242024
2014-10-08,-1,-0.00244094203203521,-0.0020280657566022695,-0.006019301944006096,0.020556999087644325,0.9824856530963795
2014-10-10,-1,-0.00484704102169626,-0.0041262196163117685,-0.0021267338620839372,0.020556999087644325,0.9840287817470778
2014-10-14,-1,-0.005605965075354432,-0.00479795680639704,-0.0016576744953886368,0.013120069311340804,0.9862290810480707
2014-10-16,-1,-0.003997467094224602,-0.0034323251756453845,-0.0026579830382460643,0.010191585451379815,0.9881755630735354
2014-10-20,-1,-0.003914547700009921,-0.003337593535102498,-0.0044460036255040605,0.010191585451379815,0.9879427334325165
2014-10-22,-1,-0.002971856868912289,-0.002524229221797131,-0.003970431546741661,0.009182669939820936,0.9900136944249123
2014-10-24,-1,-0.0012182165156775196,-0.0010522642420253072,-0.003970431546741661,0.009182669939820936,0.9910316064714592
2014-10-28,-1,-0.0005973595000534499,-0.0005221032034345799,-0.003970431546741661,0.009228324831489925,0.9909405056863491
2014-10-30,-1,-0.00039836966105373593,-0.0003513029925813906,-0.0026558121342236977,0.009228324831489925,0.9900498741981033
2014-11-03,1,0.0006420543492844689,0.0007149733658839302,-0.003970431546741661,0.008901768047426185,0.9912939530877991
2014-11-05,1,0.001546079046884103,0.0017843699153343925,-0.003970431546741661,0.008901768047426185,0.9910809333613827
2014-11-07,1,0.0013245795121888124,0.0015345485949536612,-0.003970431546741661,0.009228324831489925,0.9887201164719284
2014-11-11,1,0.0017504241368074024,0.002046663674864336,-0.004907880444205053,0.00921351450755202,0.9878335367932249
2014-11-13,1,0.0018481418746845127,0.00215668548016011,-0.006030079133423836,0.00921351450755202,0.9878002792541049
2014-11-17,1,0.0014517530384259229,0.0016828863293797968,-0.006030079133423836,0.011778394403659992,0.9873817045954657
2014-11-19,1,0.0017336572646126946,0.002013527171757696,-0.006030079133423836,0.020371359942482622,0.9858954635720704
2014-11-21,1,0.0022276903592658784,0.002591107779045059,-0.006030079133423836,0.020989059428859112,0.9851692857229809
2014-11-25,1,0.002838804381470228,0.003296593314515167,-0.006360807623082273,0.020989059428859112,0.9855266065915149
2014-11-28,1,0.004119514476098859,0.004771257125728366,-0.006360807623082273,0.019872466901250708,0.9865491282793002
2014-12-02,1,0.003584490639892954,0.004130704724656131,-0.006360807623082273,0.019872466901250708,0.9863108684708127
2014-12-04,1,0.004244508233787043,0.004878778476582978,-0.007282043830664717,0.010485958193714937,0.9861162154596289
2014-12-08,1,0.00393540844217682,0.004516125040010037,-0.007282043830664717,0.007934900440164695,0.9867300033516255
2014-12-10,1,0.003383436206855694,0.003900236232557732,-0.005574768391563817,0.012013393811807818,0.9869927203684917
2014-12-12,1,0.002396461352145626,0.0026957586021303798,-0.011532586320786423,0.012013393811807818,0.9856142675563968
2014-12-16,1,0.002046134800536518,0.002237684411200757,-0.012243365851645269,0.010463383883157694,0.9858920417259642
2014-12-18,1,0.003306010323780423,0.0036558334595999504,-0.012243365851645269,0.006204925132974985,0.9872900897909437
2014-12-22,1,0.0034659339876194867,0.0038090534614924425,-0.012243365851645269,0.007478489386095634,0.9868129137649738
2014-12-24,1,0.0032312398512646117,0.003550941688226731,-0.013452589185060327,0.007478489386095634,0.9862012995847936
2014-12-29,1,0.0030781769306699102,0.0033744025609619803,-0.015639409440290852,0.007478489386095634,0.9845010997230053
2014-12-31,1,0.002160588802290091,0.00230214235401717,-0.021518003369263045,0.009663066062959035,0.983488662596591
2015-01-05,1,0.0011568024295023377,0.0011661099500698143,-0.015639409440290852,0.010782835439517318,0.983904665092031
2015-01-07,1,0.0003010727207805509,0.0003768874207696212,-0.013452589185060327,0.012618311984623784,0.9851037767728023
2015-01-09,1,0.002174975337734443,0.002410618483146632,-0.015639409440290852,0.011848522889582396,0.9849588303893203
2015-01-13,1,0.0006927627781334604,0.0007119237888341167,-0.00936773544791583,0.012618311984623784,0.984954183467581
2015-01-15,1,0.0008465253688385869,0.0009080020683552751,-0.0057251156410741905,0.011848522889582396,0.985959876916942
2015-01-20,1,0.0012292851279090552,0.0013438490403263573,-0.0057251156410741905,0.011848522889582396,0.98636012132656
2015-01-22,1,0.002951819352105127,0.0033403307535257924,-0.0057251156410741905,0.010620485227085107,0.9862730210457337
2015-01-26,1,0.0025006556990330737,0.002838354933582152,-0.0057251156410741905,0.012363256023092397,0.9862589604574777
2015-01-28,1,0.000982991269257425,0.0010842606216721112,-0.005602271866863868,0.012363256023092397,0.9871686559723429
2015-01-30,1,0.0003011644323321295,0.00032208933107954546,-0.002169023423439262,0.015312145761024078,0.9878709781126889
2015-02-03,1,0.0009082586839332257,0.0009808867048039067,-0.007865919130685234,0.012363256023092397,0.9864804141853836
2015-02-05,1,0.0015378444456953743,0.0016854424339837557,-0.008811644897008697,0.008938355839040043,0.9864631739715856
2015-02-09,1,0.0008859541266719241,0.0009503684059320861,-0.008811644897008697,0.007651786981233895,0.9871234386837688
2015-02-11,1,0.002033174618902292,0.0022667524820038443,-0.008811644897008697,0.007651786981233895,0.9877310924881884
2015-02-13,1,0.0012195285671327098,0.001283154489269214,-0.008811644897008697,0.013313994815239354,0.986815400580826
2015-02-18,1,0.0010970702416283487,0.0011416222987582288,-0.009300516566548412,0.013313994815239354,0.9859337438944376
2015-02-20,1,0.002182457458651769,0.0023440163141616507,-0.010480849004946348,0.008949692832459095,0.9871178849880365
2015-02-24,1,0.0022212105597304715,0.0023691916361700096,-0.010480849004946348,0.006838744959333323,0.9877393055586884
2015-02-26,1,0.00035722834249090447,0.0005502291423563035,-0.01134968243318779,0.006838744959333323,0.9859710915153853
2015-03-02,1,0.0012854380606750274,0.0013701003079495976,-0.01134968243318779,0.006838744959333323,0.9859544832775293
2015-03-04,-1,-0.00041749164528670436,-0.00017251461159766685,-0.010414177918918344,0.006838744959333323,0.9882919217388464
2015-03-06,-1,-0.002695361349195109,-0.0020590802434706313,-0.009457898559004791,0.006838744959333323,0.9893014798629961
2015-03-10,-1,-0.0043855731988152215,-0.0034814871133287163,-0.008059288922424324,0.008260194114481667,0.9898338291856764
2015-03-12,-1,-0.003445052924058939,-0.0027046128084871894,-0.008059288922424324,0.006008832336062482,0.9900298270547707
2015-03-16,-1,-0.0021165697677598375,-0.001543573925304373,-0.008059288922424324,8.209902478507615e-05,0.9910514963993553
2015-03-18,-1,-0.002139518847198271,-0.0016017447618193567,-0.008059288922424324,8.209902478507615e-05,0.9898643090287349
2015-03-20,-1,-0.0021549761024503627,-0.0016584439530731348,-0.008059288922424324,0.0011190085672921279,0.9890368755930198
2015-03-24,-1,-0.0023889315707372773,-0.0018845862315230953,-0.008059288922424324,0.0074976054934967895,0.987956416035137
2015-03-26,-1,-0.004860318047551222,-0.004072570246213941,-0.0075845401198222214,0.0074976054934967895,0.9903580619420645
2015-03-30,-1,-0.00306142335835893,-0.00256962122073674,-0.008059288922424324,0.004081205118166722,0.9868498156801957
2015-04-01,-1,-0.0033251211435488684,-0.0028320610862284266,-0.00850222980700908,0.004081205118166722,0.9869630047799303
2015-04-06,-1,-0.0038446060192085666,-0.003277838262081411,-0.00850222980700908,0.006756788985678832,0.9864938948809396
2015-04-08,-1,-0.0033655357532974047,-0.0028635872920464316,-0.012418165596622788,0.004938777490128279,0.9861980836199333
2015-04-10,-1,-0.0031449253990361832,-0.0026733138970443313,-0.012418165596622788,0.005903162954471328,0.9858453301403471
2015-04-14,-1,-0.0037321951745753843,-0.003182324927451324,-0.012418165596622788,0.007384888331077571,0.9853579503231032
2015-04-16,-1,-0.004117312325360011,-0.003531154816887906,-0.007455006353038206,0.005903162954471328,0.9872023017496737
2015-04-20,-1,-0.003949722020707948,-0.003405950700888936,-0.00532256458455784,0.005903162954471328,0.9875181488627485
2015-04-22,-1,-0.0027038214821258314,-0.0023333639045112426,-0.007182872159324219,0.004900441070917853,0.9888735412283172
2015-04-24,-1,-0.0027321586153172483,-0.002419193463518746,-0.004252753975351236,0.005903162954471328,0.9888797481905736
2015-04-28,-1,-0.005548541687096622,-0.004899053981446933,-0.004252753975351236,0.007384888331077571,0.9909217851936355
2015-04-30,-1,-0.0053157471227427,-0.004737157044752495,-0.004252753975351236,0.007384888331077571,0.9908779889769544
2015-05-04,-1,-0.004980181250740605,-0.00443718753330014,-0.003634707551998706,0.00722017699997048,0.9906708967592271
2015-05-06,-1,-0.005888393478533143,-0.005214878646628141,-0.003634707551998706,0.00722017699997048,0.9910545862845516
2015-05-08,-1,-0.005382751424596622,-0.004765741938095005,-0.004863459479835794,0.005600384410507333,0.9915523342551753
2015-05-12,-1,-0.004621384582371163,-0.004111556933685796,-0.004863459479835794,0.004997270057964059,0.9919390742836671
2015-05-14,-1,-0.0034371977931650618,-0.003148225538726718,-0.008543210961756705,0.004997270057964059,0.9918810667400791
2015-05-18,-1,-0.002342726163116784,-0.0022126424229604313,-0.008543210961756705,0.0048355384010531,0.9923196181062843
2015-05-20,-1,-0.0026959740527072638,-0.0025224671954321982,-0.008890910822762025,0.00581807494052947,0.9912489629990247
2015-05-22,-1,-0.0020326320439215564,-0.0019468702145313027,-0.008890910822762025,0.00581807494052947,0.99150995478129
2015-05-27,-1,-0.0017864762332558755,-0.0017117418097365674,-0.008890910822762025,0.00581807494052947,0.9920126156191293
2015-05-29,-1,-0.002531929519167744,-0.002326770581468908,-0.009310243759717606,0.00581807494052947,0.9918886334949494
2015-06-02,-1,-0.0025037252304684014,-0.0022604705040718395,-0.013204477373548622,0.005171615959176051,0.99132774072444
2015-06-04,-1,-0.002237073718989618,-0.0020822333600394177,-0.009310243759717606,0.00581807494052947,0.9907941585361163
2015-06-08,-1,-0.0030615099360499385,-0.002753952737135551,-0.009310243759717606,0.00581807494052947,0.990735579225265
2015-06-10,-1,-0.002708997485057456,-0.0024484602270395507,-0.01322006332908712,0.005239435743564526,0.9899459577534586
2015-06-12,-1,-0.0029717103908478873,-0.0027052435178860005,-0.008025838298279617,0.007035434392879915,0.9883198285963317
2015-06-16,-1,-0.0016298051499511379,-0.0015922775289446156,-0.014830353290397176,0.007035434392879915,0.9874587919712855
2015-06-18,-1,-0.0017096392199668648,-0.001646678968353056,-0.01703964829883093,0.005597720429233899,0.9869628580814199
2015-06-22,-1,-0.002243497889431164,-0.002067388675618043,-0.01703964829883093,0.005057776335373882,0.9873167549015126
2015-06-24,-1,-0.0021433510430153625,-0.0019465394143726297,-0.017770823412585107,0.0038137343308733973,0.9865558941602635
2015-06-26,-1,-0.002026033038311241,-0.0018916161982291627,-0.019239647036650917,0.0038137343308733973,0.9861173272999691
2015-06-30,-1,-0.002344605022155184,-0.002214265123245526,-0.017770823412585107,0.00713178349985898,0.9866774135151726
2015-07-02,-1,-0.0018374165715215104,-0.0017442274906310164,-0.017770823412585107,0.0016988322213852302,0.9871791886369405
2015-07-07,-1,-0.0017396416689853052,-0.0017184980929436195,-0.019109436361315173,0.0016988322213852302,0.986736062288874
2015-07-09,-1,-0.0027720888864290853,-0.002628485645814899,-0.017472371660138594,0.005503231971255133,0.9872957630885513
2015-07-13,-1,-0.0011267889753008322,-0.0010624705555398633,-0.017472371660138594,0.004461106188522286,0.9870035189440384
2015-07-15,-1,-0.0013242461752525736,-0.0012069950117868334,-0.01265728949072633,0.004461106188522286,0.9881009075692722
2015-07-17,-1,-0.0022264855309959987,-0.0021931048528049607,-0.014531335756282343,0.004461106188522286,0.9883845038405763
2015-07-21,-1,-0.0021065606716787534,-0.002078104761392495,-0.015846803342016918,0.008757209333090755,0.9861654945130479
2015-07-23,-1,-0.0015072705911225914,-0.0013294352691889384,-0.015887246206823993,0.002783491341997104,0.9861825526938894
2015-07-27,-1,-0.002908125527636782,-0.0028396712336575384,-0.020434801953729688,0.002783491341997104,0.9850551716179263
2015-07-29,-1,-0.002334286377351057,-0.00229958937925032,-0.020434801953729688,0.002783491341997104,0.9835988524539787
2015-07-31,-1,-0.0027017336560566565,-0.00260511694093319,-0.020434801953729688,0.008757209333090755,0.9817344423855242
2015-08-04,-1,-0.003152164930524156,-0.003027487379042662,-0.02417212224314115,0.008757209333090755,0.9809205230563963
2015-08-06,-1,-0.002044424187704684,-0.0019802247208778635,-0.02417212224314115,0.00885281584006157,0.9808092169462135
2015-08-10,-1,-0.0005827754485908713,-0.00033757817661551155,-0.02417212224314115,0.007756952656708624,0.9807266916667423
2015-08-12,-1,-0.0009410648627432749,-0.000750216007987939,-0.02417212224314115,0.007917750649300547,0.9803809549390717
2015-08-14,-1,-0.0018668693277116147,-0.0018025069802022015,-0.02374479985083561,0.007917750649300547,0.9815928929867201
2015-08-18,-1,-0.002673789474876536,-0.002537361642435661,-0.018783205766320647,0.013125388910050249,0.9821768607684708
2015-08-20,-1,-0.003037311357332968,-0.0028881052733708626,-0.017178106318310606,0.013125388910050249,0.9830434049378269
2015-08-24,-1,-0.004698735666523025,-0.0043461370359228965,-0.017178106318310606,0.013125388910050249,0.9830753636631935
2015-08-26,-1,-0.00434454345306118,-0.004034510183927192,-0.017424627521003225,0.007917750649300547,0.9834208964231309
2015-08-28,-1,-0.0023846537876084386,-0.002329063640386907,-0.017424627521003225,0.006455810626301152,0.9852810075957789
2015-09-01,-1,-0.0029361077480244313,-0.0028352782810852004,-0.016106249284651954,0.010282966466633138,0.9861148576328715
2015-09-03,-1,-0.0023049519326562747,-0.0022673324356759584,-0.016106249284651954,0.010347992631881433,0.9860982899247027
2015-09-08,-1,-0.0022837130917208255,-0.0022399347437713117,-0.010895675212774882,0.009893852940952068,0.9871264426014752
2015-09-10,-1,-0.002404982749036161,-0.0023489308217919226,-0.006914025344462102,0.01116369829737764,0.9866746558613558
2015-09-14,-1,-0.0016543583410710155,-0.0015588744680373383,-0.006914025344462102,0.01116369829737764,0.9872527363658736
2015-09-16,-1,-0.0006836581107757543,-0.0005022876053556506,-0.010895675212774882,0.010059307685931579,0.9867742183945882
2015-09-18,-1,-0.002496264743954297,-0.0023570018890757475,-0.00853328634434031,0.01116369829737764,0.9857400388736479
2015-09-22,-1,-0.0043637396736499285,-0.003994774293051749,-0.0018197873780598655,0.01392827802527903,0.9858328202469943
2015-09-24,-1,-0.005078623694396855,-0.0046494437241210735,-0.0018197873780598655,0.01392827802527903,0.9865131355855286
2015-09-28,-1,-0.006105259060548919,-0.005530617860624836,-0.0012976242117848638,0.015175336939754631,0.9854491560827191
2015-09-30,-1,-0.004693261991110941,-0.004315428236417349,-0.0018197873780598655,0.016979930785934814,0.9867405302285273
2015-10-02,-1,-0.003542995809552862,-0.0033296063557742093,-0.0017559749213192832,0.014790393871526602,0.9875710520391869
2015-10-06,-1,-0.0025274553943821793,-0.002440305574795882,-0.0017559749213192832,0.014790393871526602,0.9883309186449948
2015-10-08,-1,-0.0009712658386890113,-0.0008154555089098176,-0.003586064580223436,0.012616087073625128,0.9900795815824793
2015-10-12,-1,-0.001122917290869483,-0.0010085875392748902,-0.0044283985250146395,0.014210947637266665,0.9887664615052542
2015-10-14,-1,-0.0009669192555584799,-0.0008002302087512092,-0.003586064580223436,0.012616087073625128,0.9910101663197143
2015-10-16,1,0.0002790815128576508,0.0006307101296009205,-0.0044283985250146395,0.012616087073625128,0.989691910312259
2015-10-20,1,0.0010100452986623277,0.0014321025857895742,-0.0044283985250146395,0.012616087073625128,0.9895137772655943
2015-10-22,1,0.0014610001544814546,0.001975107351866612,-0.003586064580223436,0.014210947637266665,0.9895603015937229
2015-10-26,1,0.0016250740504791744,0.002139296409626945,-0.003119953670696568,0.012638172121425253,0.990264619748658
2015-10-28,1,0.0020583439174108424,0.0026207345145372422,-0.0028063471217387196,0.012516196461730654,0.9906471231766504
2015-10-30,1,0.002794063785037899,0.0034769790146376533,-0.0028063471217387196,0.010357896956778993,0.9907419870787743
2015-11-03,1,0.002990092999686568,0.003662842622129649,-0.0028063471217387196,0.013911275801583247,0.9899298453413521
2015-11-05,1,0.0029652432975849643,0.0036612985186284296,-0.0026427908282167637,0.014305989165317994,0.9891510595732705
2015-11-09,1,0.0031568468788766833,0.0038891964414187216,-0.0026427908282167637,0.0139400621862342,0.9900595675767336
2015-11-11,1,0.003292447877438705,0.004051497449272433,-0.0026427908282167637,0.0139400621862342,0.9895662477928878
2015-11-13,1,0.00449557184896845,0.0054412882321695,-0.0036392226397118843,0.010357896956778993,0.9900785612099384
2015-11-17,1,0.005359097024235317,0.00639083317927143,-0.0036392226397118843,0.010357896956778993,0.9900457106740517
2015-11-19,1,0.005764700237298182,0.00680588317044999,-0.008407818986507339,0.008345398776516631,0.9888834386358699
2015-11-23,1,0.0060536978928212234,0.007175584306670632,-0.008407818986507339,0.01316653798847017,0.9885725851866785
2015-11-25,1,0.006297868395326793,0.007410322834203985,-0.008407818986507339,0.01331730003281572,0.9882006115057475
2015-11-30,1,0.006352543660115461,0.007407727661653077,-0.008407818986507339,0.013861254009364008,0.9873630109934184
2015-12-02,1,0.007687756306179465,0.00900271668501882,-0.014877339143514,0.013140268596180105,0.9858842313597257
2015-12-04,1,0.006784133289134468,0.00789992884034051,-0.014719738355267766,0.006405961416904559,0.9865956203934151
2015-12-08,1,0.005975426524841828,0.006898793372107816,-0.015365576113179884,0.006405961416904559,0.9837464651123756
2015-12-10,1,0.005474644369406095,0.006332394200046702,-0.01741562481838861,0.004900905288467056,0.9829899721607799
2015-12-14,1,0.004081891906041882,0.004741526162132301,-0.017628240578985634,0.0063872058858694195,0.9840727206363961
2015-12-16,1,0.004166832029492356,0.0047910284714832016,-0.023938937223978135,0.0063872058858694195,0.9811046013446857
2015-12-18,1,0.0032448714517092107,0.003754137052242507,-0.017783365151200676,0.013140268596180105,0.9815401196456374
2015-12-22,1,0.0040982078189626394,0.004701363213686439,-0.017783365151200676,0.013832467624713055,0.9810420307648502
2015-12-24,1,0.003992934360452577,0.00452599208120027,-0.017783365151200676,0.013832467624713055,0.9802157209321265
2015-12-29,1,0.004073188268092173,0.004614525160873069,-0.024094049228050637,0.006716768930036843,0.9788082977088693
2015-12-31,1,0.003855105396207352,0.004438064516541357,-0.024094049228050637,0.016460402722765863,0.978035988859957
2016-01-05,1,0.0031779212521137095,0.003638877588771787,-0.025635445151171807,0.016460402722765863,0.9767085736383229
2016-01-07,1,0.0006866520933647333,0.0007543032276462682,-0.024094049228050637,0.0183319826856851,0.9775726361010926
2016-01-11,-1,-0.0002872198253097495,-0.00022358619415179993,-0.0262019153296194,0.0183319826856851,0.9770912223156316
2016-01-13,-1,-0.001766526242813147,-0.001481755515613988,-0.02241414087936973,0.0183319826856851,0.9777531624585518
2016-01-15,-1,-0.0029703260220907794,-0.0024645029545476635,-0.016711363968844838,0.023762536477556287,0.9783385501364171
2016-01-20,-1,-0.0024354840015314303,-0.001997968420929799,-0.016711363968844838,0.02534475168039268,0.9781378170665681
2016-01-22,-1,-0.00032564990321547703,-0.0002106276042878311,-0.016711363968844838,0.02534475168039268,0.9762182676825661
2016-01-26,-1,-0.0004297367460502139,-0.00025425438453056655,-0.016711363968844838,0.01885938775329723,0.9772049404604467
2016-01-28,-1,-0.0013835498742358608,-0.0011168300251384873,-0.005877331174059047,0.01885938775329723,0.9779867551136852
2016-02-01,1,0.0002020177573094925,0.0002917919457531571,-0.006834767186842577,0.01885938775329723,0.9795029526326767
2016-02-03,-1,-0.0006980922572209134,-0.0004866385720198621,-0.005877331174059047,0.01885938775329723,0.981314616194596
2016-02-05,-1,-0.0015730482549690503,-0.0012599030184427176,-0.004617287652184478,0.01484904341203078,0.9838557389846525
2016-02-09,-1,-0.002226241870292878,-0.001887677305445565,-0.0033895237374287936,0.021854960632555383,0.9829306665977137
2016-02-11,-1,-0.003374436256416088,-0.0028796968108719934,0.0007996779624840496,0.02429221643682788,0.9811151253491907
2016-02-16,-1,-0.002279155320065505,-0.0018392422143066692,-0.0023104385969515864,0.020791534021813433,0.9849709122845562
2016-02-18,-1,-0.0020610753186386856,-0.001609495096978486,-0.0023104385969515864,0.013795230798970125,0.9854652643113697
2016-02-22,-1,-0.0003134732697055181,-2.9279993004557273e-05,-0.0023104385969515864,0.011531800749859676,0.9889350940792078
2016-02-24,0,-2.5779672258089228e-05,0.00020112797949041277,-0.0023104385969515864,0.011531800749859676,0.988375990145411
2016-02-26,1,0.0004913750665683165,0.0006428047290907386,-0.003916254757978541,0.011531800749859676,0.9888026502772428
2016-03-01,1,0.0011625972292212785,0.0012154892218418846,-0.0023104385969515864,0.013611489717455752,0.9886080835887728
2016-03-03,1,0.0014933050485588766,0.0015139834156360338,-0.0011479296003551204,0.013611489717455752,0.9883556538483581
2016-03-07,1,0.001220711773934262,0.0012480634733763882,-0.006429501383940046,0.013611489717455752,0.9873337855410798
2016-03-09,1,0.0004620400716039782,0.0005966127698907546,-0.006429501383940046,0.011531800749859676,0.98898976039757
2016-03-11,1,0.0018587526016924701,0.0019238390566469453,-0.006429501383940046,0.01059909651549505,0.9909962165761755
2016-03-15,1,0.001742992119028431,0.0018248778481987672,-0.0019630936300658744,0.011366423949763518,0.9905849553737127
2016-03-17,1,0.0020487482743615426,0.002165349497495484,-0.0019630936300658744,0.01059909651549505,0.9910112265726666
2016-03-21,1,0.002453125100322038,0.002629611196794806,-0.007405739588604479,0.007405611197376927,0.9909186943519902
2016-03-23,1,0.0019001032793593779,0.0020162500926249457,-0.007054640730823609,0.007405611197376927,0.9913772155130979
2016-03-28,1,0.0018265079075459047,0.0019471425070370309,-0.0079341073495192,0.007405611197376927,0.9910920893774393
2016-03-30,1,0.0027966870903969186,0.0030592457764263776,-0.0079341073495192,0.007173661686105809,0.992067683432234
2016-04-01,1,0.0029420169503415784,0.0031986274688856203,-0.010711857616966025,0.0070790975847995555,0.9901383326033828
2016-04-05,1,0.0022594839580394053,0.002417994540959532,-0.009325649582665555,0.0070790975847995555,0.9904248010358513
2016-04-07,1,0.0018987479822215496,0.0020004281219274667,-0.009325649582665555,0.0070790975847995555,0.9905321296177962
2016-04-11,1,0.002379377777934822,0.002570601424560574,-0.009325649582665555,0.004906969204925995,0.9906461611057334
2016-04-13,1,0.0030819375311578532,0.0034134968347342316,-0.009325649582665555,0.004275150854167031,0.991169953301622
2016-04-15,1,0.0034295036804048236,0.0038334775425843647,-0.010864219663813719,0.0021741276542757795,0.9901080239086953
2016-04-19,1,0.0029274106273983807,0.0032532046587228558,-0.010399615699172917,0.002257375598976322,0.9902485235719162
2016-04-21,1,0.002715400241805507,0.003035855395697636,-0.010399615699172917,0.0051567130390276225,0.990504460982473
2016-04-25,1,0.002776533367560573,0.0031275098881006942,-0.010399615699172917,0.007936961160427615,0.986107786662357
2016-04-27,1,0.003546872247176143,0.0040248851397567415,-0.010399615699172917,0.008075679215524958,0.9854287298506805
2016-04-29,1,0.0022338692119701956,0.0025272950175199652,-0.0027181585165493276,0.011003165699716797,0.9868081645219994
2016-05-03,1,0.0016632692090290176,0.0018723848877177823,-0.0008684557131214557,0.011003165699716797,0.9875900809223128
2016-05-05,1,0.0011611996918673682,0.0012863346759109577,-0.0008684557131214557,0.011003165699716797,0.9877607186329012
2016-05-09,1,0.0006422385922172121,0.0006444437625608831,-0.001173590955293284,0.011003165699716797,0.987103747549744
2016-05-11,1,0.0010340561276716517,0.001117596513351265,-0.001173590955293284,0.011003165699716797,0.9869778289349642
2016-05-13,1,0.00012987558134465145,0.00019113717920462471,-0.002553988821701527,0.011003165699716797,0.986890804139647
2016-05-17,1,0.000626903798223406,0.0006736185054001231,-0.002589118131920736,0.008528990817718617,0.987490696258479
2016-05-19,1,0.001140866715439422,0.0012807372566414014,-0.005326598237366122,0.007388229365498861,0.9875836297751246
2016-05-23,1,0.0037070533043795807,0.004193415734318958,-0.005326598237366122,0.007388229365498861,0.9918148171830125
2016-05-25,1,0.003909981077222424,0.004373776560886089,-0.005326598237366122,0.00636657670530936,0.99195329046848
2016-05-27,1,0.004168832830630688,0.004649771698637511,-0.008520703490706612,0.0057755793951889366,0.9881927473349359
2016-06-01,1,0.0029743780780829925,0.003199896592630927,-0.008520703490706612,0.007997118168031293,0.986594842682516
2016-06-03,1,0.0023935495505178644,0.002492580784685442,-0.008520703490706612,0.00848189130657481,0.9861840157438998
2016-06-07,1,0.0015527974250647953,0.0016000706255595927,-0.006139222042952295,0.00848189130657481,0.986406173850069
2016-06-09,1,0.0016710953989889368,0.001759579420884209,-0.006139222042952295,0.013413121317211396,0.985061677479416
2016-06-13,1,0.0011193109331122237,0.0012644482382210304,-0.002404046053174738,0.013413121317211396,0.9853467266651581
2016-06-15,1,0.001216548894955859,0.001303182183014413,-0.000839686436205689,0.01797110125162769,0.9847470470813099
2016-06-17,1,0.0009187187031784798,0.001025679193923299,0.006502282702183955,0.01797110125162769,0.9844500488950908
2016-06-21,1,0.0004650012292346169,0.0006830761882142038,0.0038829679562917183,0.01797110125162769,0.9841752737796369
2016-06-23,1,0.001910379089990759,0.00193521115682877,-0.002404046053174738,0.013413121317211396,0.9849441156020982
2016-06-27,-1,-0.0012560673193664183,-0.0008662144580727383,0.005140733363307918,0.013413121317211396,0.9874112267077364
2016-06-29,-1,-0.0003317674314905144,-1.6845515666314586e-05,0.0019944980813250716,0.010773490764362676,0.990015066249143
2016-07-01,-1,-0.0009358092798622427,-0.0004910513752438418,-0.0010937956942523464,0.009987690896426883,0.9902473001077325
2016-07-06,-1,-0.0016245616666903267,-0.0010475048399649412,-0.0025442656910080997,0.009987690896426883,0.9894314548945342
2016-07-08,1,0.00017163738119026694,0.00044571387876226525,-0.0025442656910080997,0.009856901084032565,0.9907761110332824
2016-07-12,1,0.0007704119792047915,0.0009485219582936058,-0.003091817105018234,0.009359601458696824,0.9916978779115372
2016-07-14,1,0.0026173964192619677,0.002740535625266945,-0.008523299686899771,0.009359601458696824,0.9916342022634083
2016-07-18,1,0.0029145121799743,0.003075538557442307,-0.008523299686899771,0.010056562586440713,0.9914376152876601
2016-07-20,1,0.002916591143328707,0.003095350723193324,-0.009427847303735831,0.009309714941385888,0.9917046277094614
2016-07-22,1,0.002823907127799026,0.0030014715167449926,-0.0033933329772969202,0.012415724513529375,0.9888505149618446
2016-07-26,1,0.0028340268511132852,0.0030265292632352518,-0.009427847303735831,0.013639862831698452,0.987239982696018
2016-07-28,1,0.0024495561467457465,0.0025795160582948937,-0.008535643273413359,0.013639862831698452,0.9871392790607758
2016-08-01,1,0.0017222395893868882,0.0017259616275059927,-0.003349466428507351,0.013639862831698452,0.9873957007091098
2016-08-03,1,0.002042208411820459,0.002149353378849303,-0.002747904503699086,0.013639862831698452,0.9879640407120879
2016-08-05,1,0.002330172448502023,0.0024563688382968647,-0.005838052204606505,0.013639862831698452,0.9877298427869385
2016-08-09,1,0.0023479793824732337,0.002498010837126892,-0.005838052204606505,0.013639862831698452,0.9875995362174246
2016-08-11,1,0.002495396744988376,0.002690765182838608,-0.005838052204606505,0.011450137886073575,0.987094773993073
2016-08-15,1,0.002663355364953812,0.0028369321287849466,-0.007409580581074412,0.011667159015762752,0.9863631492514803
2016-08-17,1,0.002225716140936992,0.002326897908217711,-0.00552549733283824,0.01448830827682079,0.9859163543920239
2016-08-19,1,0.004706972726595049,0.005190359579715444,-0.00552549733283824,0.008937743310831716,0.9884291325028057
2016-08-23,1,0.004955124876913311,0.005490208061331443,-0.004259413948534367,0.006522125302403277,0.9903520888578387
2016-08-25,1,0.004148251555952547,0.00453335545269382,-0.00552549733283824,0.006522125302403277,0.9896562763388054
2016-08-29,1,0.004221187727447676,0.004590699890702331,-0.007551231229840295,0.006522125302403277,0.9890265073351902
2016-08-31,1,0.003875448642819521,0.004198416180045004,-0.007551231229840295,0.006522125302403277,0.9893950602090086
2016-09-02,1,0.003998299737107036,0.0043549982784845,-0.007229896521999318,0.006522125302403277,0.989212848882957
2016-09-07,1,0.003760229927508102,0.004087236382928624,-0.008011198387478666,0.008709779737173271,0.9888221116747543
2016-09-09,1,0.002452057866334928,0.0025767638277135524,-0.007229896521999318,0.008709779737173271,0.9904316504967053
2016-09-13,1,0.0025224021019310144,0.0026269225108563493,-0.009459686174985132,0.006522125302403277,0.98990487103024
2016-09-15,1,0.0029739478153920935,0.0031239662329266157,-0.010383650759727045,0.004011126864175594,0.9892999595762118
2016-09-19,1,0.0031675603598941716,0.0033682844168334706,-0.010383650759727045,0.004011126864175594,0.9889661529853334
2016-09-21,1,0.002446920534358313,0.0024732156509221642,-0.010383650759727045,0.007631669859551832,0.9886822277705908
2016-09-23,1,0.0009260675934957965,0.0011152523808019904,-0.009804356070280079,0.007631669859551832,0.9906664302167343
2016-09-27,1,0.0003469659355709477,0.0006313422673804525,-0.009701246929918684,0.007631669859551832,0.9900344874367637
2016-09-29,0,-3.224582391174891e-05,0.00030513641172788596,-0.009701246929918684,0.007631669859551832,0.9904913804024864
2016-10-03,1,5.155480187794717e-05,0.00038185077968053843,-0.009701246929918684,0.007631669859551832,0.9907406017119024
2016-10-05,-1,-0.0006325589591199797,-0.00018665333752611118,-0.009701246929918684,0.003473382778336116,0.9910826732660561
2016-10-07,-1,-0.001155576792204034,-0.0006395080816275647,-0.01014303741227069,0.003473382778336116,0.9907945178225193
2016-10-11,-1,-0.002357805809561995,-0.001709799791517364,-0.007602231547010917,0.007631669859551832,0.9900226794579752
2016-10-13,-1,-0.001548999803146749,-0.0011336843968585576,-0.009701246929918684,0.007631669859551832,0.9893296496944375
2016-10-17,-1,-0.0012116602260770523,-0.0008770590880470536,-0.007684651946858179,0.008611937572168743,0.9886501205375356
2016-10-19,-1,-0.00023372769205968905,-5.434283574867272e-05,-0.007684651946858179,0.014048644379469302,0.987921078108953
2016-10-21,-1,-0.0003129621627081835,-0.00011792593661589363,-0.007684651946858179,0.016337608723295625,0.9869423745217881
2016-10-25,0,-1.5262576106092997e-05,0.0001516602705599584,-0.0063748820749828655,0.015951898093391648,0.987214242263997
2016-10-27,-1,-0.00035735066782243514,-0.000132285175797452,-0.0063748820749828655,0.015951898093391648,0.9868630109287653
2016-10-31,0,-0.00011548787926268734,7.122955322470662e-05,-0.0028739827801102496,0.015345968902377619,0.9874110595308487
2016-11-02,-1,-0.0011598861727580695,-0.0008179907049649393,-0.0013831805019207859,0.015345968902377619,0.9846843274822468
2016-11-04,-1,-0.002111505682805631,-0.0016147174654074959,0.00024406676775469747,0.020229582292020577,0.9822451289091911
2016-11-08,-1,-0.0010629769777315162,-0.0006613784851995951,0.00024406676775469747,0.020229582292020577,0.9835845749859697
2016-11-10,-1,-0.002525453572341641,-0.001969266954227713,0.001014212765490699,0.020229582292020577,0.9838086594941645
2016-11-14,-1,-0.0012270544917230477,-0.0008532766226705662,0.00024406676775469747,0.015345968902377619,0.9856582448349497
2016-11-16,-1,-0.002372896290940764,-0.001669715116121526,0.00024406676775469747,0.012616462913864859,0.9852312839773738
2016-11-18,-1,-0.0005665246468172095,-0.00015617097500349023,-0.0014792991396375475,0.010089512883700006,0.986589104971514
2016-11-22,1,0.0005918161125205276,0.0008525685078200594,-0.0014792991396375475,0.006271695781856929,0.9879867266719741
2016-11-25,1,0.0005816274161524127,0.0008428897993191126,-0.0024479374288233343,0.007126543178825074,0.9875021205163597
2016-11-29,1,0.001456653887823531,0.001553122808442552,-0.005203949657132044,0.007881462144031293,0.9867821263882967
2016-12-01,-1,-0.0008880951096540404,-0.0005440459422826866,-0.008175942309524809,0.007881462144031293,0.9889290295584019
2016-12-05,1,0.0013311056401924574,0.0013728247318793418,-0.010374440023293012,0.006962144477666232,0.9901635359345798
2016-12-07,1,0.00258076452624942,0.002729985103120212,-0.010374440023293012,0.005468373207391722,0.9907798156378994
2016-12-09,1,0.0022280807969293206,0.0023245790503675975,-0.00802771607690008,0.009713813224637723,0.9902773273475148
2016-12-13,1,0.0014355513548263898,0.0014704299599530115,-0.005409017595338374,0.010366282720235879,0.9902982315525075
2016-12-15,1,0.0026655319321441575,0.0028148134169508903,-0.00802771607690008,0.010366282720235879,0.9901137990976587
2016-12-19,1,0.0016365763320023642,0.001644185387594425,-0.005409017595338374,0.010935907744369353,0.9908412082509686
2016-12-21,1,0.0012252947537410809,0.0013140401119621859,-0.005409017595338374,0.010935907744369353,0.9909240883937257
2016-12-23,1,0.0012444858289723808,0.0013443557609287564,-0.005409017595338374,0.01087309896306723,0.9908980242442911
2016-12-28,1,0.0014763333436796956,0.0015134963625505573,-0.005409017595338374,0.01087309896306723,0.9900024106782861
2016-12-30,1,0.00045427185983456923,0.0006177785385108167,-0.004451997100871217,0.01087309896306723,0.9898082354737504
2017-01-04,1,0.00020584107429957898,0.0004019352926996541,-0.003080316955414117,0.01152326730725731,0.9895218121592794
2017-01-06,1,0.0002902797906440679,0.0004390720172786205,-0.0029151108952271748,0.01152326730725731,0.9891425967740336
2017-01-10,1,0.0011948876356761122,0.0012576451260224403,-0.0029151108952271748,0.0108073605056599,0.9903391157266505
2017-01-12,1,0.0030542098839033585,0.003389871745382343,-0.0029151108952271748,0.0108073605056599,0.990554956802487
2017-01-17,1,0.003110631464924604,0.003471928336124238,-0.0029151108952271748,0.010322243472786052,0.991460628001938
2017-01-19,1,0.003248312318434943,0.0035992947730811038,-0.004095540090213778,0.00878047115595134,0.9911256069149593
2017-01-23,1,0.003389557671955197,0.0037831168216487026,-0.004095540090213778,0.0108073605056599,0.9898915723342218
2017-01-25,1,0.0038427615315455533,0.004273560338522808,-0.005624322446450514,0.010322243472786052,0.9894909137679775
2017-01-27,1,0.004509832638105997,0.005035947186615111,-0.004095540090213778,0.008093376960454432,0.9913607006602074
2017-01-31,1,0.003399737681676177,0.0037640842709035886,-0.004095540090213778,0.010322243472786052,0.9920458563772839
2017-02-02,1,0.0032065130569951944,0.0034589028026099505,-0.005443893889861005,0.010278262245103949,0.9922437612255413
2017-02-06,1,0.003604601929946221,0.003941881560281963,-0.005443893889861005,0.008093376960454432,0.9927267033138762
2017-02-08,1,0.004307873080598098,0.004789227571839286,-0.005443893889861005,0.006308059033826358,0.9928331650378869
2017-02-10,1,0.003931131250185495,0.0043659631398965185,-0.002876396042662311,0.008899335895893663,0.9927642820976531
2017-02-14,1,0.0038196175078228298,0.00425259460559904,-0.0025408896591351685,0.011292379077984862,0.9922441097162292
2017-02-16,1,0.0029591957263985064,0.00320543945277041,-0.0006818107359648076,0.011292379077984862,0.9926515859725753
2017-02-21,1,0.004146586957940548,0.004539423285771562,-0.0025408896591351685,0.007635820639702419,0.9928082664626149
2017-02-23,1,0.0035008582742550452,0.0037918577526405896,0.0005117801407713711,0.007635820639702419,0.9934605277254591
2017-02-27,1,0.0037560199618517608,0.0040984455234226586,-0.0009090581978991293,0.007635820639702419,0.9931564279673732
2017-03-01,1,0.003955182101259348,0.004316179679590305,-0.00046072318090897526,0.006511317008557279,0.9939117068068011
2017-03-03,1,0.0036158276699999,0.003907824074095914,0.0001250984082294746,0.006018221437166758,0.994572407296291
2017-03-07,1,0.002679788375861615,0.0027555898716862108,0.0001286117547399967,0.006018221437166758,0.9945558391673495
2017-03-09,1,0.0022377005794871558,0.002294098671785357,-0.00045018314137740907,0.0059726009034425775,0.9937809341296319
2017-03-13,1,0.0029078409537282956,0.0029168787415486657,-0.0012215425410561154,0.00538076865448107,0.9943158243587087
2017-03-15,1,0.003373245552070643,0.0034702771250562725,-0.0020542433967682535,0.00380792623542313,0.9935319906716538
2017-03-17,1,0.0034207793734158855,0.003517328256150634,-0.003771777196220212,0.003619422218929899,0.9926506800491146
2017-03-21,1,0.002729838658364474,0.0027536672730804155,-0.0020542433967682535,0.003619422218929899,0.9930215415292073
2017-03-23,1,0.0025559810663719727,0.0025578937458595043,-0.0025858167308463187,0.003619422218929899,0.9924073107617074
2017-03-27,1,0.002328232600699551,0.002351178613458924,-0.0019752824104984465,0.008759145111583388,0.9917733288088457
2017-03-29,1,0.0015351689442339525,0.0016938728297974529,-0.002097696332424859,0.010135570022227541,0.9912867817575846
2017-03-31,1,0.0008245867923951474,0.0010967653758950295,-0.0035348942374107918,0.013802104664768871,0.989296352329083
2017-04-04,1,0.0016292072479052876,0.0017372756184958686,-0.004531757660171382,0.013802104664768871,0.9890216104460713
2017-04-06,0,-0.00025133425259492564,0.00017766729376148156,-0.0028391435521633755,0.013802104664768871,0.9899394210715816
2017-04-10,1,0.0003184987470325096,0.0006323794136702503,-0.004531757660171382,0.013802104664768871,0.9895678646699119
2017-04-12,0,-0.0003115680783221824,1.666338456862411e-05,-0.002097696332424859,0.015498735064772125,0.9891415735484103
2017-04-17,1,0.0002398089566568066,0.0004722620578237524,-0.0011803156660102746,0.016313213914323856,0.989233902409846
2017-04-19,1,0.0019314109113154204,0.0019512607544912696,-0.002097696332424859,0.016313213914323856,0.9876338952033331
2017-04-21,1,0.0023149444926644407,0.0023873319284803676,-0.0011803156660102746,0.01648237433910652,0.9873458965336146
2017-04-25,1,0.003080897372547253,0.0032643425108024094,-0.0011803156660102746,0.015652901528343387,0.9878642407726983
2017-04-27,1,0.0019020366640011862,0.0020002062624096977,-0.0016489899443143559,0.01528999368102684,0.9876920364362141
2017-05-01,1,0.002776634252325666,0.002879302842205267,-5.0170143295029016e-05,0.014358275398976586,0.9895721054776071
2017-05-03,1,0.0028741184475829643,0.0030445683227149087,0.0015932102959753678,0.014358275398976586,0.9898771123763819
2017-05-05,1,0.00272932692943138,0.002863384600129329,0.0007590375588149603,0.01528999368102684,0.9890416984262498
2017-05-09,1,0.0024631760044647325,0.0025317872110151908,0.0007590375588149603,0.015342877711665552,0.9889554124853835
2017-05-11,1,0.003733708060527027,0.004026146105802333,-0.0011173280385190457,0.014763491988914294,0.9877980931855427
2017-05-15,1,0.0040418212500712,0.004307314878165736,-0.0020846817674439076,0.012312959901612616,0.9878047766274943
2017-05-17,1,0.002715786907621463,0.0027934202926318953,-0.003966652872290066,0.010871936285655392,0.9887349651594781
2017-05-19,1,0.003636356771975999,0.003846015504985966,-0.003966652872290066,0.010871936285655392,0.9886281358773569
2017-05-23,1,0.0038827376014516956,0.004118087684978215,-0.006911143119970132,0.009219356544785718,0.9878200056234134
2017-05-25,1,0.00327834139028948,0.0033802617338898507,-0.0070494292795242,0.010871936285655392,0.9874338250993779
2017-05-30,1,0.003393765259968944,0.003484529675459029,-0.018746609516093204,0.008143271539742434,0.9850800462230733
2017-06-01,1,0.003207723784957998,0.0032469355839020333,-0.019138449496528438,0.01233058791182552,0.9829670212530343
2017-06-05,1,0.003933645755008372,0.004130271498655155,-0.019138449496528438,0.0073727013454787955,0.9828651786573587
2017-06-07,1,0.004021841943149204,0.004230698293127276,-0.019138449496528438,0.0073727013454787955,0.982386105741157
2017-06-09,1,0.0017951101582158332,0.0018853985472753747,-0.018746609516093204,0.015867337321529597,0.9837625974497052
2017-06-13,1,0.001881621423304907,0.001953646820892368,-0.018746609516093204,0.017753177134043268,0.9832977087854631
2017-06-15,1,3.917177392362913e-05,0.0003372272347370276,-0.006629843933202586,0.018350558799665698,0.9847297833489431
2017-06-19,1,0.0012227089851297585,0.0013558874490683115,-0.006629843933202586,0.017504157156333352,0.9854843926166893
2017-06-21,1,0.0007584906709721655,0.0009254600466129014,-0.003957511094772045,0.017504157156333352,0.9862836820378362
2017-06-23,1,0.0003435946546864828,0.0006111200386602068,-0.004168309036384631,0.01606646454340374,0.986942113035148
2017-06-27,-1,-0.0015085250368121412,-0.0010533998065702455,-0.0027666740266728417,0.018350558799665698,0.9875063360645472
2017-06-29,-1,-0.002029110520865184,-0.0015157463688855871,-0.004168309036384631,0.01606646454340374,0.9876043666087898
2017-07-03,-1,-0.002381123771730693,-0.0018435434322311185,-0.005585319091879509,0.01606646454340374,0.986779846292221
2017-07-06,-1,-0.001725582245983552,-0.0012379770744117785,-0.008420338343277127,0.01285605792089535,0.9869254573211712
2017-07-10,0,-1.4468164493786875e-05,0.0002877760129790341,-0.008420338343277127,0.010641104539002008,0.987969187786466
2017-07-12,1,0.0006294840316553046,0.0008703670670566017,-0.008420338343277127,0.004653740906409718,0.9890908152380486
2017-07-14,1,0.0020205632762801875,0.002027063106701236,-0.011273858117100376,0.004653740906409718,0.98621682394434
2017-07-18,1,0.0018767220353974644,0.0019354336276121544,-0.011273858117100376,0.005110719974856642,0.986034956718506
2017-07-20,1,0.0022486150297138107,0.0022580538331375354,-0.018062621372233117,0.005412164884254457,0.984317800343539
2017-07-24,1,0.0016466622333985322,0.0016956483414361865,-0.0211669832254594,0.013975557996117495,0.9827449159941977
2017-07-26,1,0.0018851445495081953,0.001911451200025402,-0.0211669832254594,0.013975557996117495,0.9824368763065007
2017-07-28,0,-0.0001297198143756403,0.00013487650219983415,-0.012448710685284333,0.013975557996117495,0.9844036211709876
2017-08-01,-1,-0.001079961951980147,-0.0007187608925606505,-0.009451840882499932,0.013975557996117495,0.984883120589351
2017-08-03,-1,-0.001847002770561943,-0.0014393906122383091,-0.008117538602901757,0.018432133113438748,0.9843032681330612
2017-08-07,-1,-0.0005831863542094993,-0.0003415395882420181,-0.009451840882499932,0.013975557996117495,0.9851952834539327
2017-08-09,-1,-0.0006593338029333682,-0.0004219973760849814,-0.009451840882499932,0.013975557996117495,0.9844451764776151
2017-08-11,-1,-0.0017425752749737732,-0.0013466955129566366,-0.009451840882499932,0.013975557996117495,0.9852320220337573
2017-08-15,-1,-0.0010486739755766643,-0.0007418308418903472,-0.009451840882499932,0.011520446014186387,0.985639845039472
2017-08-17,-1,-0.0018485794541359744,-0.0014430501931012511,-0.008117538602901757,0.013257189317413338,0.9864064357522822
2017-08-21,-1,-0.0018031920340995408,-0.001399826763998651,-0.007035658242648592,0.013042039985601776,0.9875160886964591
2017-08-23,-1,-0.0013380100982544386,-0.0009841875528452994,-0.007035658242648592,0.010460416956495714,0.9884242183621106
2017-08-25,-1,-0.0020491834608647314,-0.0016120933290424922,-0.003986497480495729,0.011503365598820701,0.9867513363669487
2017-08-29,-1,-0.001818764765846506,-0.0013867396947101756,-0.007985483819140922,0.014688174107252367,0.9842839401575079
2017-08-31,-1,-0.000916164529982011,-0.0005958864514688458,-0.0042745482795777355,0.019519346599407156,0.9831910470788591
2017-09-05,-1,-0.002298301037282524,-0.0017578917222459518,-0.003214220974850711,0.019519346599407156,0.9832228226263338
2017-09-07,-1,-0.001757788706370452,-0.0012846326092891254,-0.004613660746567724,0.019519346599407156,0.9841320912148026
2017-09-11,-1,-0.0009454651176733259,-0.0006141063013396512,-0.0036229854408286037,0.018971507438821755,0.9852169228952472
2017-09-13,-1,-0.0003679529320401579,-0.00012283415684041332,-0.0036229854408286037,0.018971507438821755,0.9852540041877477
2017-09-15,1,0.0008651958427453458,0.0009271875451205821,-0.0036229854408286037,0.014577277497661087,0.9857063850407255
2017-09-19,1,0.001812282202916223,0.0018873594114305885,-0.0036229854408286037,0.014577277497661087,0.9858311060743884
2017-09-21,1,0.001006396880257045,0.0010235104624569432,-0.002247032885048614,0.014577277497661087,0.9868010122487824
2017-09-25,1,7.228834755888987e-05,0.00021060100455455854,-0.0006184235101851046,0.015016955025882333,0.9878980709219494
2017-09-27,1,0.0021058762957405935,0.00222665831046239,-0.0006184235101851046,0.01256113587161518,0.9907773828822745
2017-09-29,1,0.0042455745126763755,0.004651587903845266,-0.0006184235101851046,0.011905614392483154,0.9928522669056771
2017-10-03,1,0.004476142495677138,0.004976009915861963,-0.0006099691994006178,0.011905614392483154,0.9924242159319818
2017-10-05,1,0.004383569284632352,0.004904120519084863,8.791022193047197e-05,0.011905614392483154,0.9921654052107962
2017-10-09,1,0.004508591878325808,0.004960932551269924,-0.0006099691994006178,0.011498723002877315,0.9924312147175073
2017-10-11,1,0.005149913630717906,0.005746773929951845,8.791022193047197e-05,0.010252511708687208,0.9928427778053522
2017-10-13,1,0.005713240225432271,0.006416828335441955,-0.0011080822655070285,0.010252511708687208,0.9912566133143337
2017-10-17,1,0.006300359335776388,0.007077459962848173,-0.005591771464000153,0.010252511708687208,0.9909826099355163
2017-10-19,1,0.006385755787986887,0.007190803914351672,-0.01090227611675118,0.011516276180504752,0.9890933147018316
2017-10-23,1,0.007555793790321206,0.00852443483494136,-0.011830320904453913,0.011516276180504752,0.9873429347246666
2017-10-25,1,0.006963404090017249,0.007880496463248447,-0.011830320904453913,0.012312969338081476,0.9871255844821063
2017-10-27,1,0.007902039758107054,0.008960856648742018,-0.01305324104923582,0.010376363353803812,0.986057600382656
2017-10-31,1,0.006095371026336757,0.006789471272525127,-0.013756931821493628,0.010376363353803812,0.9834017547566016
2017-11-02,1,0.0057259279543833315,0.006367031286791135,-0.01641040012161403,0.00894854187469599,0.9830298808447332
2017-11-06,1,0.004784231321827096,0.005205432769919452,-0.01732451325845557,0.00894854187469599,0.9813752201332862
2017-11-08,1,0.00545727441810673,0.006009273809238225,-0.01732451325845557,0.016538747536184485,0.980011104234993
