JNU-Tangyin/eata/results/Batch4_SP500/Batch4_SP500-FTI.csv
Date,Action,Predicted_Q25,Predicted_Q75,Actual_Q25,Actual_Q75,RL_Reward
2010-12-14,0,0.0,0.0,-0.010034741639010348,0.009215583173854642,0.9878674676562429
2010-12-16,0,0.0,0.0,-0.005448545933374772,0.005658714907713424,0.9894957167048343
2010-12-20,0,0.0,0.0,-0.005448545933374772,0.005575909860946177,0.9896616185550963
2010-12-22,0,0.0,0.0,-0.010034741639010348,0.00546266286758141,0.9891018408733686
2010-12-27,1,0.003791236896719015,0.004051769584878513,-0.005515334554261504,0.008875842193760343,0.9884416401870714
2010-12-29,1,0.004155738096903745,0.00437959291229466,-0.005515334554261504,0.008875842193760343,0.9863150491477682
2010-12-31,1,0.003910550621671978,0.004070265763942783,-0.005515334554261504,0.012244627563928537,0.9853260135015588
2011-01-04,1,0.0023422523200681694,0.0024572216019574885,-0.0022256522416935097,0.012244627563928537,0.9870863222568744
2011-01-06,1,0.0017030297968410155,0.0018516055797544399,-0.0017884038853430905,0.012244627563928537,0.9885265981744138
2011-01-10,1,0.0027124449765923,0.0027488444878186816,-0.00186475308057065,0.009746404964827234,0.9882191022300328
2011-01-12,1,0.0023979003067162406,0.0024994030592727368,-0.0022256522416935097,0.006296588219642352,0.9882392804958818
2011-01-14,1,0.002154079584140439,0.0022884188642010184,-0.0036695057636588393,0.008242450986356786,0.9870006926987677
2011-01-19,1,0.0007982560866399477,0.001105150439858172,-0.0036695057636588393,0.010344453941717865,0.9851074253457642
2011-01-21,1,0.0004860166232365862,0.0008378213959591693,-0.0022256522416935097,0.01239519428898423,0.9853629254491456
2011-01-25,1,0.0012377166083716758,0.0014511008312507773,-0.0036695057636588393,0.009796593873179132,0.9842721153843262
2011-01-27,0,0.0,0.0,-0.009465347407805875,0.009796593873179132,0.9844997687280032
2011-01-31,0,0.0,0.0,-0.01932235318173797,0.009796593873179132,0.9838739402879082
2011-02-02,0,0.0,0.0,-0.01932235318173797,0.01719854370998017,0.9816597509006042
2011-02-04,-1,-0.00019189428804150256,-0.00016991891030989194,-0.01932235318173797,0.01719854370998017,0.981029969740142
2011-02-08,1,0.0021895019333562915,0.0024175217358350567,-0.01603168086077385,0.01719854370998017,0.9815095458163984
2011-02-10,1,0.0004295546309483738,0.0008157625499943027,-0.01603168086077385,0.023664257677984368,0.9799161671650041
2011-02-14,0,-0.00015630127727454183,0.00039447708483482825,-0.01603168086077385,0.01772905711911691,0.9810569392789575
2011-02-16,1,5.629227724817851e-05,0.0005115421960871539,-0.01603168086077385,0.01772905711911691,0.9808891206026099
2011-02-18,1,0.00024219809721268745,0.0007051491843332966,-0.01669656361364255,0.025614162442464245,0.979032321761837
2011-02-23,-1,-0.0007924398161736671,-0.00025722079695564954,-0.015527307675162241,0.025614162442464245,0.9803904288814137
2011-02-25,-1,-0.0007849473009064114,-0.0002154783216456969,-0.01354026600849722,0.01837831651891858,0.9821283244315108
2011-03-01,-1,-0.0006586348557691074,-0.00015773477741053924,-0.012578310276885734,0.021543169810183043,0.9823621719373794
2011-03-03,1,0.0018760980978316522,0.0020550200149232695,-0.01308126978411425,0.006378205483608304,0.9833012080275311
2011-03-07,1,0.0005998644753876424,0.0009090501802531836,-0.012707785413294582,0.01714077382051473,0.9827522313786359
2011-03-09,0,0.0,0.0,-0.012707785413294582,0.01714077382051473,0.9821327118274117
2011-03-11,1,0.000254793135297938,0.00025951947873459173,-0.009417331471499434,0.014910962087398425,0.984243142016106
2011-03-15,0,0.0,0.0,-0.014150319002013332,0.014910962087398425,0.9817990603267008
2011-03-17,0,0.0,0.0,-0.012707785413294582,0.014910962087398425,0.9843284634816747
2011-03-21,0,0.0,0.0,-0.010264053419636963,0.012001762225981398,0.9866156126636558
2011-03-23,0,0.0,0.0,-0.010264053419636963,0.014910962087398425,0.985812334208311
2011-03-25,0,0.0,0.0,-0.011339585478079629,0.012001762225981398,0.9856110343536638
2011-03-29,0,0.0,0.0,-0.011593555404761702,0.012001762225981398,0.9843748592642222
2011-03-31,0,0.0,0.0,-0.011023012592169314,0.012115411005562592,0.984089592818567
2011-04-04,0,0.0,0.0,-0.01297302426414979,0.010138892634633613,0.9846833588764724
2011-04-06,0,0.0,0.0,-0.018350133081948508,0.010138892634633613,0.9840874588869475
2011-04-08,0,0.0,0.0,-0.018350133081948508,0.010176775561160676,0.98315474415836
2011-04-12,0,0.0,0.0,-0.015329831230954043,0.012613473345807267,0.9833571680344104
2011-04-14,1,0.000517146958431668,0.0006631516754036083,-0.015329831230954043,0.011781350949633477,0.9832930706209498
2011-04-18,-1,-0.0007444127966106154,-0.00040538806853582536,-0.015329831230954043,0.011781350949633477,0.9832578287907486
2011-04-20,1,0.0007844241665807532,0.0008850513920516266,-0.015329831230954043,0.010402461198992807,0.9838235844017232
2011-04-25,1,0.000753196328594121,0.0008435271674128366,-0.01948272005218118,0.010402461198992807,0.9834640989785577
2011-04-27,1,0.001322753264755267,0.00136723371765997,-0.015329831230954043,0.011781350949633477,0.9838726249031855
2011-04-29,1,0.0012342170768439061,0.0012763937745741516,-0.015329831230954043,0.01401522404784638,0.9838144440838925
2011-05-03,-1,-0.0010288316661431008,-0.0007528483093852733,-0.015329831230954043,0.01401522404784638,0.9836816293010731
2011-05-05,-1,-0.002975732680974441,-0.002479940148395341,-0.009255870064650298,0.01401522404784638,0.9852969052440128
2011-05-09,-1,-0.0027182947041495247,-0.0022395869825070623,-0.009255870064650298,0.012826009485597561,0.9855557386934675
2011-05-11,-1,-0.003502412158090897,-0.0029644598531726523,-0.006195813664341842,0.012826009485597561,0.9872069220339572
2011-05-13,0,0.0,0.0,-0.013573316433281007,0.010750680710980834,0.9854699196174618
2011-05-17,0,0.0,0.0,-0.019246731155416856,0.013309024748956247,0.9831752750920513
2011-05-19,0,0.0,0.0,-0.019246731155416856,0.013309024748956247,0.9831453056229381
2011-05-23,-1,-0.0023449896544254123,-0.002068524106724294,-0.011025100761643186,0.016171739340850283,0.9834301773227536
2011-05-25,-1,-0.0017221619879666695,-0.001536001955883922,-0.011697000164378586,0.010111553218274812,0.9853457652721723
2011-05-27,0,0.0,0.0,-0.0160370274957912,0.010111553218274812,0.9846193161929171
2011-06-01,-1,-0.003704800212317719,-0.0030781280258924673,-0.011010241068847203,0.015093845096491636,0.9830079159597668
2011-06-03,-1,-0.002730107030496374,-0.0022776915975203644,-0.011010241068847203,0.015420774679489564,0.9823382484130375
2011-06-07,-1,-0.0034925889260805716,-0.0030126311088841742,-0.008891665888974264,0.015420774679489564,0.9830725902832417
2011-06-09,-1,-0.0030611045414089223,-0.002649194533060872,-0.011010241068847203,0.017540378390869263,0.9821696888177802
2011-06-13,-1,-0.005411850430289565,-0.004677760858442476,-0.009844331895847082,0.017540378390869263,0.9830170431809196
2011-06-15,-1,-0.0055016086847885035,-0.004747609549248443,-0.009844331895847082,0.015399457070873866,0.9847216800764682
2011-06-17,-1,-0.005315612303691028,-0.004611686709642206,-0.010843673674478693,0.017540378390869263,0.9834238663867345
2011-06-21,-1,-0.003002815027137575,-0.0026898915855211826,-0.011588258509975698,0.017540378390869263,0.9826419043346698
2011-06-23,-1,-0.002998773314434585,-0.002732328778891868,-0.011588258509975698,0.020032001752286727,0.9811294812873895
2011-06-27,-1,-0.0027028615325213243,-0.0024836501204189205,-0.011588258509975698,0.020032001752286727,0.9811080591458029
2011-06-29,1,0.0009329561640186227,0.0011492469833486092,-0.011588258509975698,0.017168151723108743,0.9839586494954565
2011-07-01,1,0.0007670014210493908,0.0008847068849848996,-0.011588258509975698,0.016694225496125314,0.9840859340713635
2011-07-06,1,0.0007939356523012029,0.0008732430483062877,-0.013666622213426276,0.016694225496125314,0.9833009277290895
2011-07-08,1,0.0013865138919799016,0.0015515010410599387,-0.014263192997217978,0.010304305010672905,0.9806290123618692
2011-07-12,1,0.0005700671530640897,0.0006039018786432027,-0.014263192997217978,0.016694225496125314,0.976125326149246
2011-07-14,1,0.00028864509289849166,0.0003421965691329788,-0.016660987405301548,0.021603695745118206,0.9726829938943171
2011-07-18,1,0.000703897713121062,0.0007606859665795535,-0.016660987405301548,0.022254364044641393,0.9722384981335108
2011-07-20,1,0.0013055026175788876,0.0014822454525999942,-0.029685869131379536,0.016694225496125314,0.9725740078962428
2011-07-22,1,0.0018298988124917023,0.002086549608893637,-0.030676071622481038,0.004710715563120804,0.9708947582047724
2011-07-26,0,0.0,0.0,-0.030676071622481038,0.01606762898288016,0.9686795393840052
2011-07-28,0,0.0,0.0,-0.030676071622481038,0.008967788885328008,0.9686835989409028
2011-08-01,0,0.0,0.0,-0.030676071622481038,0.025050335455548644,0.9665622041916793
2011-08-03,-1,-0.00015683291966202457,-0.000152704110585723,-0.02831689096241296,0.025050335455548644,0.9670280875872497
2011-08-05,0,0.0,0.0,-0.02786035595407619,0.025050335455548644,0.9692183861132011
2011-08-09,0,0.0,0.0,-0.02123687535450028,0.022144797220507332,0.973819783267223
2011-08-11,0,0.0,0.0,-0.02123687535450028,0.01689195418435814,0.9767210615788448
2011-08-15,0,0.0,0.0,-0.02123687535450028,0.014183043160177187,0.9780965169026549
2011-08-17,0,0.0,0.0,-0.005807912408871401,0.016577475845573342,0.9787978828998737
2011-08-19,-1,-0.00209690929766138,-0.001995547446352672,-0.005641603460806246,0.016577475845573342,0.9802261147535555
2011-08-23,1,0.0002466121948887863,0.0004300339430729017,-0.018580059096345265,0.014183043160177187,0.9826511269463256
2011-08-25,1,0.00020812181347037106,0.0005001937152712287,-0.019383669132650508,0.014183043160177187,0.9815306155431435
2011-08-29,-1,-0.001182842469522224,-0.0010422265539825261,-0.019383669132650508,0.013609526942194613,0.982283328924745
2011-08-31,-1,-0.0007603823019980418,-0.0005571321676164003,-0.022300737288526874,0.010012065295264239,0.9814678081254976
2011-09-02,-1,-0.0023228509631609733,-0.0022742074051217555,-0.030283508669423347,0.010012065295264239,0.9801682297424938
2011-09-07,1,0.0005673349074620418,0.0008275811075373644,-0.030283508669423347,0.013609526942194613,0.9779420406964747
2011-09-09,0,-3.6062624320982886e-05,0.00010040040375040957,-0.02242901321356405,0.014856927191625622,0.9776969136563456
2011-09-13,1,0.0008856252607593967,0.0012002888149696242,-0.02242901321356405,0.020683157074341204,0.9757217364654586
2011-09-15,1,0.001645183638532594,0.0020644221136226232,-0.02242901321356405,0.01820702424376227,0.9761944962265977
2011-09-19,1,0.0009567149988555785,0.0012857735931638748,-0.030283508669423347,0.03117044085284483,0.9735816390746264
2011-09-21,-1,-0.00045440784191863495,-0.00030843495430278123,-0.026454044023516646,0.03361591971026652,0.9728717218506995
2011-09-23,-1,-0.002799333188037825,-0.002599145916561179,-0.013673834094217602,0.03637386791566078,0.9734269694763592
2011-09-27,-1,-0.001955596397473126,-0.00176553881691211,-0.019978398537087723,0.03722526565630201,0.9731481257091278
2011-09-29,-1,-0.0028039593648981993,-0.002519722946178584,-0.01387008414654925,0.03831269987807883,0.9714633828651514
2011-10-03,-1,-0.006244302979116441,-0.005576907999532281,-0.008239229684876632,0.03831269987807883,0.9716319463641074
2011-10-05,-1,-0.0029492896510509735,-0.002661233182629506,-0.01387008414654925,0.0379362364294214,0.9735593666773628
2011-10-07,-1,-0.0025451060364043102,-0.0022827258855974523,-0.016380112952237916,0.0379362364294214,0.973149653168161
2011-10-11,-1,-0.0009244828966587198,-0.000870072861112927,-0.016380112952237916,0.03722526565630201,0.9749081384441965
2011-10-13,-1,-0.0010543699352088035,-0.0009496558988010956,-0.01838871012257812,0.03722526565630201,0.9722013541648237
2011-10-17,-1,-0.0006065073861827994,-0.0005715754156538219,-0.016380112952237916,0.03657971088827437,0.9742330687115359
2011-10-19,0,-0.00010917765416233261,2.9711292445892563e-06,-0.013289347146772264,0.03137806287764732,0.97523135490266
2011-10-21,1,0.0009215530986562977,0.0011403737659116877,-0.016380112952237916,0.029604834511662254,0.9757703959759095
2011-10-25,1,0.0013062454033491975,0.0015931366423512134,-0.015995734733446166,0.022399404418814547,0.9768598496852687
2011-10-27,1,0.0018800943898377512,0.0021786404264720225,-0.017235575466202878,0.019908211918447796,0.9779984552634607
2011-10-31,1,0.0018667837017595796,0.0021843058755290565,-0.015995734733446166,0.022399404418814547,0.9776150902751116
2011-11-02,-1,-0.00012323878950957402,-0.00011568436395642474,-0.015348988770049997,0.022399404418814547,0.9767120649720519
2011-11-04,1,0.000535281185531954,0.0006204649584147905,-0.010083749858896186,0.019908211918447796,0.9787149763005771
2011-11-08,1,0.0010034391069111963,0.0011415752540357093,-0.015545347551035236,0.018584644797502683,0.9780826348242335
2011-11-10,1,0.0004467504018105956,0.0005541469239521416,-0.015545347551035236,0.02096648945872534,0.978203500893818
2011-11-14,0,0.0,0.0,-0.01844386524537612,0.01668062836909225,0.9774238690794732
2011-11-16,0,0.0,0.0,-0.025629755708680448,0.012208225004923483,0.978095951184218
2011-11-18,0,0.0,0.0,-0.020052593201757743,0.01618905449946737,0.9777604924707726
2011-11-22,0,0.0,0.0,-0.015602387430319756,0.021436280873823696,0.9769128435770464
2011-11-25,0,0.0,0.0,-0.010530492993813574,0.021436280873823696,0.9780895589518821
2011-11-29,0,0.0,0.0,-0.012799756939528338,0.013632221096075646,0.9797851973032776
2011-12-01,1,0.0031970692090884387,0.003729979936497395,-0.012799756939528338,0.013159698784458343,0.9822797404533983
2011-12-05,1,0.003542945821899894,0.004112436727371406,-0.012799756939528338,0.013159698784458343,0.9823838867528809
2011-12-07,1,0.0027030572675755763,0.0031830699802173007,-0.010530492993813574,0.013159698784458343,0.9837659136802775
2011-12-09,1,0.003108983568144673,0.003686392557321243,-0.008663990892146234,0.013159698784458343,0.9860599204595119
2011-12-13,1,0.002408161021510354,0.0029566808697136923,-0.005353254641014272,0.013229799574802789,0.9874910463716365
2011-12-15,1,0.0012309953128056654,0.0015868565941411185,-0.005371803621183422,0.013229799574802789,0.9873744392646422
2011-12-19,1,0.0026007001708280558,0.003176907731180569,-0.005371803621183422,0.013738837933265772,0.9873031704732539
2011-12-21,1,0.003514683392822594,0.004156504526776551,-0.009743732270422818,0.013229799574802789,0.987583416106524
2011-12-23,1,0.0032880575168934153,0.0038652882599533086,-0.008415149582942389,0.013229799574802789,0.9873187171059434
2011-12-28,1,0.0005682804595718172,0.0006692320712518927,-0.008415149582942389,0.013229799574802789,0.9877832094086916
2011-12-30,1,0.00036029396209801934,0.00043490970088133467,-0.012879270621286744,0.008702132586109749,0.9868548180297003
2012-01-04,1,0.0014072663885064344,0.0017361774672761628,-0.012879270621286744,0.01434013011519707,0.9856343416921413
2012-01-06,1,0.0019692448586504686,0.0024451903151923565,-0.012879270621286744,0.017155254184237852,0.9850814119711759
2012-01-10,1,0.002151422162446251,0.002594677613915267,-0.012879270621286744,0.017155254184237852,0.9853732636145063
2012-01-12,1,0.0018381955946437818,0.002140694149721108,-0.014638779204929914,0.016394987153491976,0.9852078331855809
2012-01-17,1,0.0018794006261001728,0.0023300317044535335,-0.01175672935771265,0.016394987153491976,0.9862411798380583
2012-01-19,1,0.0031715471153090846,0.0037594992735400156,-0.014638779204929914,0.008180279774835271,0.9854361462590541
2012-01-23,1,0.002770786484888381,0.0033667779754772316,-0.01175672935771265,0.008180279774835271,0.9867217426995092
2012-01-25,1,0.00467571486617844,0.005570320839847122,-0.01175672935771265,0.008054497725442459,0.9874775356817734
2012-01-27,1,0.002608836497860617,0.0030671272514074107,-0.011929552214767398,0.008054497725442459,0.9879649341622421
2012-01-31,1,0.0017515895499222267,0.0021116539548492633,-0.006216764752472923,0.008054497725442459,0.9885299390922155
2012-02-02,1,0.0014439483714559363,0.0016541701581045164,-0.01092400845194654,0.008054497725442459,0.9885442617808963
2012-02-06,1,0.0025411417735438447,0.0029311538019741474,-0.011048256212258982,0.006471062995937522,0.9889965230503224
2012-02-08,1,0.0027427618702651115,0.003193740108709672,-0.011048256212258982,0.007609315576976514,0.9885785870333709
2012-02-10,1,0.0021824373586863655,0.0025106503301694253,-0.011048256212258982,0.0065510643194464785,0.988843693535464
2012-02-14,1,0.0004897167288117262,0.0005616721214516297,-0.01182756778105805,0.007609315576976514,0.9879212415210304
2012-02-16,-1,-0.0009828129462168566,-0.0006783230920898397,-0.011048256212258982,0.012040792865557665,0.9894192948547974
2012-02-21,-1,-0.0005849696789939585,-0.00035927367050051266,-0.01182756778105805,0.012040792865557665,0.9885191765553623
2012-02-23,-1,-0.0005107522444986598,-0.00026210248637517685,-0.016483919273701738,0.01070524642015983,0.9868510067023214
2012-02-27,-1,-0.00285063788739283,-0.0021657320133680923,-0.01471645545777715,0.01241787881876703,0.9866121680879543
2012-02-29,-1,-0.002468565067993982,-0.001907792655591028,-0.012650608487403858,0.01241787881876703,0.9864015422361636
2012-03-02,-1,-0.0020541296048234435,-0.0015916051133968055,-0.012650608487403858,0.012665765218497793,0.9854864337996246
2012-03-06,-1,-0.0014877220225193956,-0.0011450959552870455,-0.012650608487403858,0.012665765218497793,0.9859534813352617
2012-03-08,-1,-0.001119669348954324,-0.0008099243546087989,-0.015492446905131654,0.01241787881876703,0.9856664366216027
2012-03-12,-1,-0.0019311747992455245,-0.0014397551127835312,-0.015643839967870173,0.01241787881876703,0.9853356644328862
2012-03-14,-1,-0.0015881616996444312,-0.0011604118462349503,-0.015643839967870173,0.012653730086054587,0.9853547065714814
2012-03-16,-1,-0.0003095612322453028,-8.698834020349599e-05,-0.021401920351357767,0.006205737322946292,0.9845945139490112
2012-03-20,-1,-0.0008011353213503077,-0.0005674453413111613,-0.017633345459453848,0.01302397585926321,0.9842788803617822
2012-03-22,-1,-0.002444158162956976,-0.0019447601574688327,-0.01266151487828181,0.01302397585926321,0.9863129792801018
2012-03-26,-1,-0.002750297687663121,-0.0021369138610146427,-0.01266151487828181,0.012457417837555813,0.9873483466866586
2012-03-28,-1,-0.0031492380551272087,-0.002565976762728214,-0.012004737786860854,0.012457417837555813,0.9877415968279117
2012-03-30,-1,-0.0010371226756557194,-0.0007064945043201165,-0.012004737786860854,0.0035519006196557744,0.9894979238738211
2012-04-03,-1,-0.0009281259709060203,-0.0006265023104149242,-0.012004737786860854,0.007170741062957234,0.9892476503861801
2012-04-05,-1,-0.003164943990428113,-0.0026315957947016357,-0.014387648337235532,0.007170741062957234,0.9881235829119029
2012-04-10,-1,-0.003993951599654314,-0.0033703676342855173,-0.010464294217900858,0.00862744837987092,0.9889303752296168
2012-04-12,0,0.0,0.0,-0.010464294217900858,0.007170741062957234,0.9896184794327457
2012-04-16,0,0.0,0.0,-0.006933754983280048,0.007170741062957234,0.9894809711811174
2012-04-18,0,0.0,0.0,-0.010464294217900858,0.002053470596255516,0.9899268383490069
2012-04-20,-1,-0.003920059448604358,-0.003308966333376433,-0.011255756278828601,0.002053470596255516,0.9907169489173818
2012-04-24,-1,-0.002553141917229369,-0.0021470450757344276,-0.012085930894378523,0.002053470596255516,0.9891278442950066
2012-04-26,-1,-0.0015727409152603978,-0.0013561639635718296,-0.012709410036552167,0.00354650044802045,0.9879804830542426
2012-04-30,-1,-0.0010725133179800563,-0.0009460903596511947,-0.012709410036552167,0.007023901700770408,0.9873379249868834
2012-05-02,-1,-0.0013893213222744088,-0.0011662340264266525,-0.018178560270652833,0.003761917412166805,0.9858950275805537
2012-05-04,-1,-0.003099618710583087,-0.0026798938001645935,-0.014377860340913486,0.003761917412166805,0.9876083019896759
2012-05-08,0,0.0,0.0,-0.014377860340913486,0.008008421763068837,0.9844650264956568
2012-05-10,0,0.0,0.0,-0.014377860340913486,0.003761917412166805,0.9850187946450731
2012-05-14,0,0.0,0.0,-0.012709410036552167,0.009876453342633033,0.9853346633980373
2012-05-16,0,0.0,0.0,-0.012709410036552167,0.01852263733077861,0.9838355950569926
2012-05-18,-1,-0.004387687385570851,-0.0038760034160708816,-0.0153751163370778,0.01852263733077861,0.9831403430143377
2012-05-22,-1,-0.003902102972693898,-0.003439326979544376,-0.014641147343908156,0.015876495538323165,0.9843592637624777
2012-05-24,-1,-0.0038129756578484425,-0.003426984330633631,-0.02140630547255908,0.011101076498109767,0.9827129160306425
2012-05-29,-1,-0.003590881072674031,-0.0032341503884868957,-0.022222983800167746,0.011101076498109767,0.9818662300795449
2012-05-31,-1,-0.004805427428745141,-0.004297680798047461,-0.014542048614751089,0.013272711291954484,0.9824037294779496
2012-06-04,-1,-0.005062256428018058,-0.004584062014785532,-0.010897974636237985,0.02393090225004385,0.980663691598377
2012-06-06,-1,-0.003112349733772546,-0.00287938749846707,-0.012684440406242035,0.017679250511411577,0.9814503362803986
2012-06-08,-1,-0.0038189436613856346,-0.0034549419367272648,-0.012684440406242035,0.017679250511411577,0.9811814210714221
2012-06-12,-1,-0.0021674897125810036,-0.0020906218097644664,-0.016976399236746792,0.013272711291954484,0.9812064209614715
2012-06-14,-1,-0.0022264755838094816,-0.002095401840932138,-0.016042073274538715,0.013272711291954484,0.9820546109281777
2012-06-18,-1,-0.0016680351685764367,-0.0016404726047076412,-0.012684440406242035,0.013305777151615624,0.9827577091734108
2012-06-20,-1,-0.0025113968089168024,-0.0023773491321025884,-0.011053654569973495,0.016140455511342643,0.9815636586062468
2012-06-22,-1,-0.0039582469854662645,-0.0036269851166934354,-0.011053654569973495,0.016140455511342643,0.9827334887972292
2012-06-26,-1,-0.003918134288772563,-0.003640100290328188,-0.010400496124625012,0.018792397746100295,0.9807539931536858
2012-06-28,-1,-0.0030177916555148986,-0.0029297725422979667,-0.009486995635898159,0.029649400139863363,0.9770058521683304
2012-07-02,-1,-0.0012294155290395762,-0.0011271174260976057,-0.01315931569219229,0.02020091154378546,0.9789457083521664
2012-07-05,-1,-0.0005294006916041483,-0.0003079449585113945,-0.01225139413467458,0.018074115311311142,0.9801495744197936
2012-07-09,0,0.0,0.0,-0.01225139413467458,0.022960041976575057,0.9786534963800477
2012-07-11,0,0.0,0.0,-0.010206190470361389,0.022960041976575057,0.9798594243454154
2012-07-13,0,0.0,0.0,-0.008748647056200601,0.022960041976575057,0.9809726114544867
2012-07-17,0,0.0,0.0,-0.009247475317979693,0.022960041976575057,0.9814271662819765
2012-07-19,0,0.0,0.0,-0.009247475317979693,0.013460552986478375,0.9820938606895585
2012-07-23,0,0.0,0.0,-0.009247475317979693,0.013460552986478375,0.9828575621096647
2012-07-25,0,0.0,0.0,-0.009043227047434587,0.012027236128553033,0.9851932670983672
2012-07-27,0,0.0,0.0,-0.009043227047434587,0.00852111018805483,0.9893748081752158
2012-07-31,0,0.0,0.0,-0.006155521991192446,0.00852111018805483,0.9908680318763196
2012-08-02,1,0.0023178481391297806,0.0029381595061658155,-0.006155521991192446,0.005516825703981026,0.991320752247371
2012-08-06,1,0.00338576910455432,0.004158391226618504,-0.006155521991192446,0.0066866630785041735,0.9925783690758122
2012-08-08,1,0.004247133028053081,0.0051848966557622184,-0.006155521991192446,0.0066866630785041735,0.9922629529662252
2012-08-10,1,0.0043435013245916865,0.005243882083842604,-0.0072608510099982995,0.006826204731723355,0.9907710666150873
2012-08-14,1,0.0031710699868527127,0.0038135840301218643,-0.006155521991192446,0.010407013758941427,0.9912096523319023
2012-08-16,1,0.003725004679294061,0.004491320332544978,-0.004179261169736049,0.010407013758941427,0.9911512995883098
2012-08-20,1,0.002856753333155181,0.0034819782860261517,-0.004179261169736049,0.010407013758941427,0.9904793067792051
2012-08-22,1,0.0039058330686342667,0.00474361424393212,-0.003064503749482865,0.009117015295912122,0.9913624969568838
2012-08-24,1,0.004081025406114871,0.004955276565881942,-0.003064503749482865,0.009117015295912122,0.9912440654573991
2012-08-28,1,0.003581331337019645,0.004323806834790047,-0.005304560119588962,0.009117015295912122,0.9897513747117475
2012-08-30,1,0.0022748276735338503,0.0027613429007846317,-0.006217099004177975,0.009117015295912122,0.9902626086037237
2012-09-04,1,0.003378823411289025,0.004065784920206322,-0.006217099004177975,0.009117015295912122,0.9898559381301656
2012-09-06,1,0.0028897536864306815,0.0034471826681056862,-0.006828426802303954,0.005822310214166782,0.9878779174704911
2012-09-10,1,0.004023516258040505,0.004792308604634147,-0.006962648012586685,0.003244118221023316,0.987929966450451
2012-09-12,1,0.004585190114139794,0.005411377639890351,-0.010003865754820925,-0.0009109134497814178,0.9868040550152429
2012-09-14,1,0.005198773798648065,0.0061115095661365415,-0.010003865754820925,-0.0009109134497814178,0.9861177753686592
2012-09-18,1,0.004092092512211133,0.00484162091228103,-0.006962648012586685,0.003244118221023316,0.9885448888353334
2012-09-20,1,0.004198552272083619,0.0049682155816764065,-0.006962648012586685,0.0037498372430660835,0.9875761914653681
2012-09-24,1,0.004167459047428174,0.004943254479243707,-0.010003865754820925,0.001931973397271613,0.9858980740441652
2012-09-26,1,0.0019543295740202396,0.0023060408229894384,-0.013689172641645153,0.001931973397271613,0.9835433804009507
2012-09-28,1,0.001733304257758252,0.0020288045455753466,-0.013689172641645153,0.007422976211923629,0.9838552357703584
2012-10-02,1,0.0020979940454414845,0.002442178221325757,-0.013689172641645153,0.007422976211923629,0.9841672448234327
2012-10-04,-1,-0.00014977807443212172,-0.00012285391152760066,-0.012564864789435602,0.01080078326266,0.9852770688355128
2012-10-08,0,0.0,0.0,-0.012564864789435602,0.01080078326266,0.9848018442516588
2012-10-10,0,0.0,0.0,-0.013019621131066132,0.011914586299285577,0.9837629232435786
2012-10-12,0,0.0,0.0,-0.013019621131066132,0.01080078326266,0.9843767559774567
2012-10-16,0,0.0,0.0,-0.013019621131066132,0.006699275428811105,0.9845318870136589
2012-10-18,0,0.0,0.0,-0.013019621131066132,0.006699275428811105,0.9844389141771427
2012-10-22,0,0.0,0.0,-0.01193126071154282,0.006699275428811105,0.9855788446433854
2012-10-24,-1,-0.0063721069102890635,-0.005449455939334288,-0.011236758317318568,0.011914586299285577,0.9879285365762095
2012-10-26,0,0.0,0.0,-0.011236758317318568,0.010552956983092556,0.9888970607475047
2012-11-01,0,0.0,0.0,-0.011236758317318568,0.006425319545641934,0.9890865163405476
2012-11-05,0,0.0,0.0,-0.010038505554983446,0.005568725664307711,0.9902066398852574
2012-11-07,0,0.0,0.0,-0.008612955858326544,0.007145801067870544,0.9909744930366632
2012-11-09,0,0.0,0.0,-0.007542859931561591,0.007145801067870544,0.9917165421974451
2012-11-13,0,0.0,0.0,-0.005443879478678806,0.007145801067870544,0.9918842963959923
2012-11-15,0,0.0,0.0,-0.008612955858326544,0.007145801067870544,0.9905227130947629
2012-11-19,-1,-0.004761542457222272,-0.003966341317973168,-0.008612955858326544,0.007145801067870544,0.9892401621928102
2012-11-21,-1,-0.005250979668113567,-0.0043877380436225,-0.007562131175101063,0.008222947250480386,0.9890244348099073
2012-11-26,-1,-0.004080179153180998,-0.0034519171674993435,-0.007562131175101063,0.007145801067870544,0.9901421041706407
2012-11-28,-1,-0.003506664976527918,-0.0029606383187590806,-0.007427663337339426,0.005630491702455463,0.9907832838409811
2012-11-30,-1,-0.004199655596315327,-0.0035731354288072803,-0.007427663337339426,0.007145801067870544,0.9881415620528882
2012-12-04,-1,-0.0043953884515397276,-0.0037204713824558503,-0.008027261610757914,0.008222947250480386,0.9876482140533697
2012-12-06,-1,-0.004121310635076491,-0.003474891916292187,-0.008027261610757914,0.009685380460855883,0.987395062452241
2012-12-10,-1,-0.003345898513755686,-0.002830052444115374,-0.008970335639663762,0.009685380460855883,0.9868097913621084
2012-12-12,-1,-0.002500325835861155,-0.002133756730784913,-0.008970335639663762,0.013131375153321592,0.9865208768120003
2012-12-14,-1,-0.004935805708609994,-0.004200631925296214,-0.007427663337339426,0.015908602566941397,0.9857703342292155
2012-12-18,-1,-0.0013024706073509736,-0.0011117504492810003,-0.008027261610757914,0.013131375153321592,0.9875116046577571
2012-12-20,-1,-0.00022714015631374772,-0.00015304802406942625,-0.008027261610757914,0.015908602566941397,0.9869439545779675
2012-12-24,-1,-0.0018462546135422577,-0.0016445469241884972,-0.005938478161244024,0.015908602566941397,0.9874067117959104
2012-12-27,-1,-0.0015747760440957006,-0.0014306525222082221,-0.0043840561460430465,0.015908602566941397,0.9873297282474393
2012-12-31,1,0.0007150783633264507,0.0009094670848504979,-0.0043840561460430465,0.013131375153321592,0.9897767158080492
2013-01-03,1,0.0005877938283999045,0.0007935460463661862,-0.003210260341678593,0.013396785408466196,0.9894626716964443
2013-01-07,1,0.0013885596295117445,0.0017306089003263168,-0.0043840561460430465,0.01396778240277956,0.9892558306424486
2013-01-09,1,0.0012952104193633715,0.001595329041655201,-0.003210260341678593,0.01102518239043969,0.9906212454886053
2013-01-11,0,0.0,0.0,-0.0043840561460430465,0.010937744739358924,0.9903467098435176
2013-01-15,0,0.0,0.0,-0.005406470529370163,0.010937744739358924,0.9899129120521521
2013-01-17,0,0.0,0.0,-0.003206573449526557,0.012793119139672042,0.9892981928965334
2013-01-22,0,0.0,0.0,-0.005406470529370163,0.012793119139672042,0.9879244967724974
2013-01-24,1,0.0030145641788063464,0.0035368053761610637,-0.005681037090623051,0.01425585125030833,0.9875899565764084
2013-01-28,1,0.0029462587726122964,0.003417464727742011,-0.006302505212611131,0.01425585125030833,0.9860952896118707
2013-01-30,1,0.0029467489287543524,0.0034637242010228083,-0.005681037090623051,0.01854696478929883,0.9861070829569217
2013-02-01,1,0.0040325078261113975,0.004690533126301681,-0.007461650094809237,0.01425585125030833,0.985950029737552
2013-02-05,1,0.004434139358306492,0.005173336866508366,-0.00723567908995793,0.013993538297066028,0.9860998501328126
2013-02-07,1,0.004601806950959644,0.005403991455883106,-0.00723567908995793,0.01493832772870939,0.9859105445080687
2013-02-11,1,0.005100486694213447,0.006006299008174194,-0.00723567908995793,0.01493832772870939,0.9863864234743418
2013-02-13,1,0.006243249380032715,0.00724316458091075,-0.00723567908995793,0.011300783934179763,0.9886079828037166
2013-02-15,1,0.006887132930025547,0.007977166600409074,-0.008304693415362913,0.010280327997246479,0.9878658140106525
2013-02-20,1,0.0063734558262539326,0.007382610235290121,-0.008304693415362913,0.010280327997246479,0.9885533570778356
2013-02-22,1,0.006215906894151241,0.00714929586179789,-0.008542792307263423,0.008945163338791837,0.9889875322696369
2013-02-26,1,0.0053581631903731365,0.006142454308924556,-0.00723567908995793,0.010280327997246479,0.9901197748724844
2013-02-28,0,0.0,0.0,-0.00723567908995793,0.009416659848634316,0.9903569324488788
2013-03-04,0,0.0,0.0,-0.0035198112103460404,0.009416659848634316,0.9908964711711244
2013-03-06,0,0.0,0.0,-0.004515714362772547,0.008638131432363028,0.9898965631118417
2013-03-08,1,0.004114411233087159,0.004584931363954755,-0.004515714362772547,0.008638131432363028,0.9899145608068128
2013-03-12,1,0.004363084318426035,0.004896639786805058,-0.004515714362772547,0.011030365903086165,0.9884175181771121
2013-03-14,1,0.004848732697621038,0.005472054287705859,-0.009237916830055502,0.010078530862430182,0.9860130327183708
2013-03-18,1,0.004692807645984544,0.005332101165507158,-0.009237916830055502,0.01156267648720022,0.9835835350106112
2013-03-20,1,0.004454588973519803,0.0049885002756820075,-0.009237916830055502,0.01156267648720022,0.9831985493585349
2013-03-22,1,0.002320172076021695,0.002400253950546297,-0.006147248017191579,0.014513482351822432,0.9824411230391112
2013-03-26,1,0.003028423102194855,0.0032311042796886623,-0.006147248017191579,0.02047578351425138,0.9810166545458258
2013-03-28,1,0.003323148747909068,0.0035730606269753253,-0.009052856778308662,0.02047578351425138,0.9807095100369093
2013-04-02,1,0.002849257621166874,0.0030456369850179006,-0.006374939647092905,0.02151705287527127,0.9805780625005963
2013-04-04,1,0.0012935102893514828,0.0013439135269758026,-0.006374939647092905,0.02151705287527127,0.9815421361368557
2013-04-08,1,0.0019487123968940756,0.0019907070872787636,-0.006374939647092905,0.022297236640248765,0.9816437088405959
2013-04-10,1,0.0030832095202494676,0.0032481142009496275,-0.007599118695249235,0.02070804456137796,0.9827308533494661
2013-04-12,1,0.0009186378411856805,0.0010544533518643702,-0.00566266865617177,0.02070804456137796,0.9843805244152338
2013-04-16,-1,-0.00033347404282872597,-8.134212852372626e-05,-0.005044972752633305,0.02070804456137796,0.9872273136178306
2013-04-18,-1,-0.000978804668211747,-0.000631897421986586,-0.0037636641317179273,0.01834984833254936,0.9892573790038477
2013-04-22,-1,-0.0003161850538589666,-4.516264889962193e-05,-0.003235308567893972,0.021064430184876713,0.9887707612966875
2013-04-24,1,0.001464205169302029,0.001528710373033614,-0.004819502387232666,0.010686018652825967,0.9905157412202517
2013-04-26,1,0.0002772846631663512,0.0005187674209321029,-0.004819502387232666,0.010686018652825967,0.9904056363762817
2013-04-30,1,0.0011739964828643874,0.0013053478954985999,-0.005453032435352082,0.009813231355656923,0.9904170564602089
2013-05-02,1,0.0008576463856818943,0.0010202594112835564,-0.005453032435352082,0.009813231355656923,0.9900953679011419
2013-05-06,1,0.001667207577692791,0.0017277923635645584,-0.007123009996756,0.009813231355656923,0.989470748712727
2013-05-08,1,0.0018365059988055057,0.0018741371304068829,-0.008307989233466546,0.009813231355656923,0.9891537646046068
2013-05-10,1,0.0005553310487376576,0.0008198338331204267,-0.008307989233466546,0.010530386011385385,0.9891183659435313
2013-05-14,1,0.0014915790018421415,0.0015644382987208135,-0.010807139570190031,0.010530386011385385,0.987941384456541
2013-05-16,1,0.0007814819010848419,0.0009557899091678274,-0.010807139570190031,0.013914129792054261,0.9870571995762026
2013-05-20,0,0.0,0.0,-0.010807139570190031,0.010530386011385385,0.9872657910197538
2013-05-22,0,0.0,0.0,-0.014316261822931444,0.010530386011385385,0.9855000607198465
2013-05-24,0,-1.1207641797717567e-05,0.0002047856763758854,-0.014316261822931444,0.010530386011385385,0.9858304725404223
2013-05-29,0,-0.00018318840921015126,7.873178717494726e-05,-0.014316261822931444,0.010132255530475769,0.9863286411831504
2013-05-31,-1,-0.0009500295453697064,-0.0006177947959473773,-0.011631590675555142,0.010132255530475769,0.9865940251801963
2013-06-04,-1,-0.0010698765139414532,-0.0007230019643985679,-0.008844471420491449,0.00978013010629268,0.9874490608302928
2013-06-06,-1,-0.001017577497543767,-0.0006909175390012189,-0.008617102165374107,0.008959338831455386,0.9879477773615506
2013-06-10,-1,-0.00040688943073349695,-0.0002112830949269805,-0.008617102165374107,0.009222522005625094,0.9871651192451566
2013-06-12,-1,-0.0015995875971726418,-0.0012367622478238593,-0.0068016643926099435,0.009222522005625094,0.9875218277527578
2013-06-14,-1,-0.0006518914386937696,-0.0004342061328963953,-0.008816907111517187,0.009222522005625094,0.9880871327330527
2013-06-18,1,0.0002625812693348696,0.00039118649860727474,-0.00993045563288111,0.008449997301777994,0.9893242971172587
2013-06-20,-1,-0.0017465617317189634,-0.0013931236309509625,-0.004046073292500601,0.009392003223532903,0.9905869800288696
2013-06-24,-1,-0.0015875808040922794,-0.0012315453697271733,-0.007948749850630718,0.009392003223532903,0.9907314151140648
2013-06-26,-1,-0.0008833620871161892,-0.0006493042833518206,-0.008816907111517187,0.008829963203868795,0.9903488936555046
2013-06-28,-1,-0.0010398098086338695,-0.0007911059125913432,-0.00993045563288111,0.008829963203868795,0.989378005734894
2013-07-02,-1,-0.0007343307428054036,-0.0005127421569434463,-0.00993045563288111,0.008449997301777994,0.989814019065737
2013-07-05,-1,-0.0008421862014433079,-0.0006176233886689297,-0.00882010531263376,0.008506491041080597,0.9890266380617052
2013-07-09,1,0.0011489231934924957,0.0011988908650723714,-0.011789535364611975,0.0018480153510619097,0.9887386265870068
2013-07-11,1,0.0010140292587312038,0.0010926721007416672,-0.011789535364611975,0.004274721274638164,0.9890598567660002
2013-07-15,1,0.0008752558982781872,0.0009178357539360782,-0.010730769589558044,0.002811885376281341,0.9901551925670273
2013-07-17,1,0.0004451281453644115,0.00045297494833074664,-0.008971702762810662,0.003935538832095681,0.990479457855838
2013-07-19,1,0.0006492696505122049,0.0006651752374566813,-0.010421468919718372,0.0016321194101957068,0.9908020802698748
2013-07-23,1,0.0004497598420960834,0.00045935769029620385,-0.012170049697226584,0.002811885376281341,0.9901720168721277
2013-07-25,-1,-0.0008866071208701798,-0.0006830162553614962,-0.010421468919718372,0.003935538832095681,0.9893991144357764
2013-07-29,-1,-0.0023558903621260395,-0.0019775677336409695,-0.007167431352691404,0.005702618174285358,0.9904810897646977
2013-07-31,-1,-0.002195484075733104,-0.0018558708623383732,-0.00816059214669691,0.006821908939447922,0.9899274129213224
2013-08-02,-1,-0.0010013597783282103,-0.000802451785452173,-0.008971702762810662,0.005702618174285358,0.9909090142358146
2013-08-06,-1,-0.0017632743200932366,-0.0015024045335603558,-0.007044841222870731,0.007325085318385088,0.990798661821372
2013-08-08,-1,-0.001856921930328317,-0.0015545112567606437,-0.007047653393719724,0.007325085318385088,0.9907703448272468
2013-08-12,-1,-0.001413957951289971,-0.0011859893650926973,-0.007047653393719724,0.007874485427981614,0.9905405092496375
2013-08-14,-1,-0.0017816158421778802,-0.00150422112333782,-0.006714725015151893,0.007874485427981614,0.9905998840353464
2013-08-16,-1,-0.0016056252806926556,-0.001382621741689722,-0.006714725015151893,0.008755150676497162,0.9894224372043368
2013-08-20,-1,-0.0013757087246521922,-0.0012165350607996075,-0.006675702929071636,0.011534899654213084,0.9889440249109466
2013-08-22,-1,-0.0002907688285210983,-0.00023221350492962626,-0.006714725015151893,0.008794241704838328,0.9903592285771737
2013-08-26,-1,-0.0014270794698081767,-0.0011642126545787887,-0.007047653393719724,0.008794241704838328,0.9901482448326077
2013-08-28,-1,-0.0009556880554893454,-0.000785040963476069,-0.006676640319354634,0.008749803615439382,0.9905813621335622
2013-08-30,-1,-0.0007064596803545855,-0.0006388104486384702,-0.006393800947118245,0.008749803615439382,0.9912685409059563
2013-09-04,-1,-0.0008950688258024098,-0.0007124501445792026,-0.006393800947118245,0.008864507002440838,0.9910834835778389
2013-09-06,-1,-0.002074433864037284,-0.0016412059165861294,-0.006393800947118245,0.01232602031390833,0.990252079805613
2013-09-10,-1,-0.0022884246858940454,-0.0018292401061437804,-0.008376579881453891,0.01232602031390833,0.9901083540797945
2013-09-12,-1,-0.0018738397236159206,-0.0014980348026918324,-0.008376579881453891,0.013719419100606907,0.9894156006106721
2013-09-16,-1,-0.0006120510639600839,-0.0005133384131201125,-0.006673919452237134,0.013224977359439075,0.9900814029969945
2013-09-18,1,0.00013185494689061552,0.00017535832530552584,-0.006673919452237134,0.013224977359439075,0.990587624321141
2013-09-20,-1,-0.00011313899180054166,-9.008170019406475e-05,-0.006673919452237134,0.013719419100606907,0.9899607725650712
2013-09-24,-1,-0.0009251293086511758,-0.0008003343707908806,-0.005556149500702499,0.013719419100606907,0.9896846941640357
2013-09-26,1,9.143539190489e-05,0.0001355168902513998,-0.010468283486485876,0.013719419100606907,0.984994659968593
2013-09-30,1,0.00041208897270069187,0.00042131703945294443,-0.011857537302985145,0.013719419100606907,0.9836964336590311
2013-10-02,1,0.001195272924002646,0.0013018510000964013,-0.012185168781661178,0.01313306298234178,0.9839270515623834
2013-10-04,1,0.001384452408340773,0.0015293493840279608,-0.012185168781661178,0.006553124014444678,0.9844851550573747
2013-10-08,1,0.00048487154415004056,0.0004956015124326266,-0.012185168781661178,0.006553124014444678,0.9850870837546973
2013-10-10,1,0.0019510069589312056,0.0022504775765314453,-0.013571792904814695,0.003940585075173655,0.9851228692315697
2013-10-14,1,0.002096656628855654,0.002365389722088292,-0.013571792904814695,0.003329179905519101,0.9853776111378582
2013-10-16,1,0.0023428118355685213,0.0026258484972556443,-0.015055942268379106,0.003329179905519101,0.9854855920730362
2013-10-18,1,0.0025655716946057813,0.0028752821841847294,-0.015055942268379106,0.003329179905519101,0.9865023759184087
2013-10-22,1,0.0013250223577738686,0.0014241421965821856,-0.015055942268379106,0.003329179905519101,0.987245458383509
2013-10-24,-1,-0.0005770468672513396,-0.0004461913213735722,-0.010376067218241927,0.004712502732089717,0.992020023301704
2013-10-28,-1,-0.0006343857106221548,-0.0005019242826067982,-0.010376067218241927,0.003918973377854192,0.9922045722723061
2013-10-30,-1,-0.0012558852953953232,-0.001050060209699449,-0.00869026539112474,0.003918973377854192,0.9927124501933892
2013-11-01,-1,-0.002027571176051268,-0.0016916401474582304,-0.00869026539112474,0.004712502732089717,0.9924391133779135
2013-11-05,-1,-0.0018708602527564688,-0.0015853708433880161,-0.005510354957295776,0.006079090043051825,0.9918075366662167
2013-11-07,-1,-0.0013481675323466754,-0.001194535122276665,-0.0042578387718674405,0.00721061791899588,0.9913212997811237
2013-11-11,-1,-0.0021590358762527215,-0.0018337582574501489,-0.005510354957295776,0.00721061791899588,0.9905657689234032
2013-11-13,-1,-0.0019957168606718114,-0.0017217614910068528,-0.0042578387718674405,0.00878791246420731,0.990561636447536
2013-11-15,-1,-0.0015694637878080715,-0.001354844161038474,-0.0042578387718674405,0.010313527582745237,0.9890989947657091
2013-11-19,-1,-0.0023738274816993716,-0.0020633281293828986,-0.0042578387718674405,0.010313527582745237,0.9893288054986394
2013-11-21,-1,-0.0012209389817124093,-0.0010746830813399605,-0.00531865440563858,0.009214531977910572,0.9895710523586371
2013-11-25,-1,-0.002220841843190848,-0.0019525933293604173,-0.0042578387718674405,0.010313527582745237,0.9892248494237823
2013-11-27,-1,-0.001624996275651111,-0.0014959669296290522,-0.0009222713747327872,0.010313527582745237,0.9892366178035696
2013-12-02,-1,-0.0014110679385236702,-0.0012838375338778678,-0.0069719686719805374,0.010846120592475679,0.9889421415152462
2013-12-04,-1,-0.00027134356768389794,-0.0002549649974732536,-0.007190113240282045,0.010846120592475679,0.988916045146223
2013-12-06,1,0.00041634029411734107,0.0005014451040183691,-0.008533497067211404,0.009370749608924318,0.9899188996317569
2013-12-10,1,0.00038127382761765486,0.0005034987115539579,-0.007190113240282045,0.009370749608924318,0.9908557009304033
2013-12-12,1,0.0008227938068791666,0.000972834737136617,-0.008533497067211404,0.010846120592475679,0.9897387147432597
2013-12-16,1,0.0018992615326202463,0.0021547895922021526,-0.01182534362287433,0.008248692564414142,0.9899532948228548
2013-12-18,1,0.000989004158300173,0.0010400999226317896,-0.01182534362287433,0.008248692564414142,0.9902294932534297
2013-12-20,1,0.00044244002551145677,0.0004666087559583596,-0.00819916011199701,0.007171228209624375,0.9908896388997461
2013-12-24,1,0.0011900310746469208,0.0013331530054103936,-0.012089862628382544,0.005710361289898079,0.9898707315772639
2013-12-27,1,0.0002455695501549475,0.0002835708471650403,-0.012089862628382544,0.005710361289898079,0.9896047068604952
2013-12-31,1,0.0007766142951715485,0.0008161079080039739,-0.012089862628382544,0.005710361289898079,0.989229681567793
2014-01-03,1,0.0006203245594966362,0.0006475837342007756,-0.010475125915990889,0.005398515263149463,0.9897417777492044
2014-01-07,-1,-0.00011297042860905623,-3.61424253131496e-05,-0.00966392032491056,0.005710361289898079,0.9893695095511003
2014-01-09,-1,-0.00021299342520364576,-0.0001241233951097837,-0.011004350862017138,0.007195164897754288,0.9874821134606763
2014-01-13,-1,-0.0005588973482014358,-0.0004213968334710215,-0.00966392032491056,0.01217497081779009,0.987586055429871
2014-01-15,1,0.00026733178702150373,0.0002951228880950678,-0.009441293054546794,0.011804684666660393,0.9879191144157152
2014-01-17,-1,-6.772257283407091e-05,-2.9508957467708175e-05,-0.009441293054546794,0.011804684666660393,0.9877250996318131
2014-01-22,1,0.00039975487613972186,0.00042270709643454414,-0.009441293054546794,0.011804684666660393,0.9875384062865752
2014-01-24,-1,-0.001200423239563719,-0.0010016645596709443,-0.008683952662276291,0.013050543730623183,0.988368837117011
2014-01-28,-1,-0.000727435109649025,-0.0006243452830657551,-0.008683952662276291,0.013050543730623183,0.9884064879624175
2014-01-30,-1,-0.00034132953301566993,-0.00027594434656571203,-0.008683952662276291,0.011548974049717194,0.9892360570887122
2014-02-03,-1,-0.0009363908094848357,-0.0008131415608353569,-0.00693698984894089,0.011548974049717194,0.9891663021530075
2014-02-05,-1,-0.0004648871937447052,-0.00039945627468443445,-0.006354644712238688,0.011548974049717194,0.987891846628946
2014-02-07,-1,-0.0006808356981105881,-0.0006027899019789283,-0.005981191102514883,0.012925036004771967,0.9889564091415854
2014-02-11,1,0.0011818190547225019,0.00141126807097558,-0.009016783009617245,0.009482642631203145,0.9896033169554033
2014-02-13,1,0.0014424994137051425,0.0016619407009148602,-0.010824756131979345,0.009482642631203145,0.9891762734121682
2014-02-18,1,0.0008312432077601807,0.00093940645541596,-0.010824756131979345,0.009482642631203145,0.9894725445176304
2014-02-20,1,0.0007890824039926762,0.000893136768327456,-0.010824756131979345,0.011274502945938727,0.9889320481546586
2014-02-24,1,0.00081293475125143,0.0009283354593787024,-0.009539016528620034,0.009482642631203145,0.9897659835569256
2014-02-26,1,0.0009581461360545599,0.0011470751052633295,-0.007493315967032902,0.009482642631203145,0.9899082583166954
2014-02-28,1,0.0011755494677350197,0.0014006536715674722,-0.007493315967032902,0.011404705837030708,0.9894687162836671
2014-03-04,1,0.0006593703008932836,0.0007716885411331257,-0.006468707409933149,0.011791325279075369,0.9897156209242177
2014-03-06,1,0.0029394423714672055,0.0033874132205410573,-0.006468707409933149,0.011791325279075369,0.9906233846969049
2014-03-10,1,0.003219350103067068,0.003743315189958588,-0.007016238859324549,0.011750673690308158,0.9897218710151072
2014-03-12,1,0.002658919669753435,0.0031371042856746683,-0.003352351812964158,0.011750673690308158,0.9913414607514632
2014-03-14,1,0.0029597828611841875,0.003488038968881774,-0.005204070756031642,0.006278322046539731,0.9911510671081399
2014-03-18,1,0.0021754196287075414,0.0025455972970656066,-0.005204070756031642,0.011750673690308158,0.9904462004628731
2014-03-20,1,0.0025666128547136326,0.0028679132407857877,-0.005204070756031642,0.011750673690308158,0.9908691185337705
2014-03-24,1,0.0019074395619714422,0.00211203784249498,-0.003352351812964158,0.011750673690308158,0.9909650624675357
2014-03-26,1,0.0004207886166104383,0.0005030678035447072,-0.003352351812964158,0.01324905375871273,0.9886014128851938
2014-03-28,1,0.0008591536042690642,0.000994198742476055,-0.005413176206781742,0.011750673690308158,0.9889615896069248
2014-04-01,1,0.0008626228181395886,0.00098685447907631,-0.005413176206781742,0.010404994123402792,0.9889597656063884
2014-04-03,1,0.0009069561542483623,0.0010023282167384538,-0.005413176206781742,0.00877566985656041,0.9897261287866905
2014-04-07,1,0.0005822852062258854,0.0006445413061016564,-0.005037230259536557,0.008366836937622503,0.9909500315539985
2014-04-09,1,0.0007042666240420138,0.0007689088322885583,-0.0059735486280692515,0.008366836937622503,0.9901214522835698
2014-04-11,1,0.00011718448176699984,0.00012277051945990068,-0.005037230259536557,0.008366836937622503,0.9910869438829413
2014-04-15,1,0.0007124656412492152,0.0007439306509564097,-0.005579283510994488,0.008366836937622503,0.9913954666042206
2014-04-17,1,0.0011559053309589864,0.0012799680195159989,-0.005579283510994488,0.005365203608136468,0.9918896036554438
2014-04-22,1,0.0010166411122752067,0.0010680258512163153,-0.005579283510994488,0.0042090761943662505,0.9920295906009832
2014-04-24,1,0.0011793238654903664,0.0012344700078550665,-0.005037230259536557,0.0042090761943662505,0.9940623457376352
2014-04-28,1,0.0011110817443571023,0.0011743157265140922,-0.004252011988394317,0.008366836937622503,0.9935643890484495
2014-04-30,1,0.0015373663680877054,0.0017044856174936091,-0.004252011988394317,0.008734603773967325,0.9934489292757692
2014-05-02,1,0.001265825913700099,0.0014250605389291566,-0.003147321920935247,0.008734603773967325,0.9934923164179622
2014-05-06,1,0.0012660951833079422,0.0013989559619348127,-0.003147321920935247,0.010028323915832442,0.9931731913464343
2014-05-08,1,0.0010061180260803,0.001143887299806925,-0.0021577930530601143,0.010028323915832442,0.9941588206538376
2014-05-12,1,0.0015883731324941456,0.0018580835218624293,-0.0021577930530601143,0.010028323915832442,0.9941448020271301
2014-05-14,1,0.0013043131239931973,0.0015265591629843598,-0.0021577930530601143,0.007572501400196215,0.9949517141099304
2014-05-16,1,0.000981402138659472,0.0011319427126588028,-0.0018101735404999553,0.007572501400196215,0.9949375236492626
2014-05-20,1,0.0009347483393825047,0.0010789115493624064,-0.0018206187885335806,0.010182583357875936,0.9944262706801801
2014-05-22,1,0.0009447347870524736,0.0010697868442946295,-0.0018206187885335806,0.010616768450346146,0.9934948384202171
2014-05-27,1,0.0020232456140789326,0.002305241570521799,-0.0022845085706023334,0.006439695997290515,0.993930452603359
2014-05-29,1,0.001973679939553297,0.0022429050544923077,-0.0022845085706023334,0.006439695997290515,0.9932698117918416
2014-06-02,1,0.0015820599865814088,0.0017696700992327903,-0.0018206187885335806,0.007098723430037867,0.9927696493944
2014-06-04,1,0.0022947718706605403,0.002582597867704674,-0.0022845085706023334,0.005356139120958685,0.9926877337301143
2014-06-06,1,0.0015310929490783697,0.0016945489209597635,-0.003426867448206079,0.006803882090787081,0.9914257225017137
2014-06-10,1,0.0017057101878793597,0.0019024901499479384,-0.003426867448206079,0.008521629189417419,0.9911550264686915
2014-06-12,1,0.0016379597026995561,0.0018194812629970308,-0.007993597257004381,0.008521629189417419,0.9901733777908027
2014-06-16,1,0.0017579395010181508,0.001980375533566277,-0.007216902953856145,0.009582634483505085,0.9898930865260646
2014-06-18,1,0.0015097660580802362,0.0016227664716439384,-0.013844015141879818,0.009582634483505085,0.9889990831048867
2014-06-20,1,0.002193492549874971,0.0023972174968421864,-0.013844015141879818,0.008521629189417419,0.9900843785732745
2014-06-24,1,0.001705959405522407,0.0018507183160796467,-0.0073269131086163035,0.009582634483505085,0.9893152296732369
2014-06-26,1,0.0008076494712893304,0.0008183338166513431,-0.006156057090985447,0.009979324412499923,0.9894984887939514
2014-06-30,1,0.001504564641112924,0.0016077626704819408,-0.010661477553267724,0.009582634483505085,0.9893924054322542
2014-07-02,1,0.0003526858397366132,0.0003926136524754143,-0.010661477553267724,0.009582634483505085,0.9886405143915906
2014-07-07,1,7.084591232155164e-05,8.924235328100381e-05,-0.010613021972695792,0.009769435840245626,0.9877300775118633
2014-07-09,1,0.0009295328553219193,0.001065102895594893,-0.014028678864444501,0.007840683425232005,0.9872280208313271
2014-07-11,-1,-0.00018302613303639828,-0.00015051431280029785,-0.014028678864444501,0.012045393580576035,0.9862399421659778
2014-07-15,1,0.0003261271722041383,0.0003523038224788594,-0.014645026402603583,0.007840683425232005,0.9861515390447205
2014-07-17,1,0.0001772051852183302,0.00018450456113214053,-0.014499659660887789,0.006794510692595081,0.9868300946379905
2014-07-21,1,9.418610704192465e-05,0.0001361750115435518,-0.014499659660887789,0.007119115171955366,0.9866849354926702
2014-07-23,1,0.0011946608868266993,0.001294742405821251,-0.014499659660887789,0.007119115171955366,0.9876710577881346
2014-07-25,1,0.0010506614813577198,0.00111394483800701,-0.014499659660887789,0.005532525327628415,0.9879528961738199
2014-07-29,1,0.001174209355560648,0.001354124750044753,-0.013818405879392454,0.008511717672558393,0.9881152210841886
2014-07-31,-1,-0.00016391611519025974,-0.00015384950106551526,-0.01269576076272216,0.008511717672558393,0.9891207289938977
2014-08-04,1,4.507439959826196e-05,9.55070811416605e-05,-0.01269576076272216,0.007119115171955366,0.9901898351729654
2014-08-06,-1,-0.0006454434938743893,-0.0005174077253156102,-0.01269576076272216,0.0059059601559243915,0.988728250707186
2014-08-08,-1,-0.0005187275660872514,-0.0003749386349521105,-0.01269576076272216,0.0059059601559243915,0.9892105183240105
2014-08-12,-1,-0.001067408545046993,-0.0009097698123419092,-0.011779792403504557,0.008370606962753189,0.988954040782978
2014-08-14,-1,-0.001902453605824075,-0.0016164224848763393,-0.011779792403504557,0.008370606962753189,0.9888220038509551
2014-08-18,-1,-0.001744679819585288,-0.0014706716015212775,-0.011779792403504557,0.007851884150947256,0.9890225530222504
2014-08-20,-1,-0.0007490855958025077,-0.0006244287999669633,-0.011779792403504557,0.005562799244274264,0.9893925729923932
2014-08-22,-1,-0.0011409245513444263,-0.000979393896127128,-0.012219216350850728,0.005562799244274264,0.9893328052610225
2014-08-26,-1,-0.000262349599487489,-0.0002264810197325806,-0.012219216350850728,0.004269615265241062,0.989669565143007
2014-08-28,-1,-0.0005074488710327621,-0.00041149578118502715,-0.014351572099318857,0.004148886677446343,0.989078233707094
2014-09-02,-1,-0.001318003552979675,-0.0011372402251159184,-0.012219216350850728,0.0031951733068700796,0.9901471210288337
2014-09-04,-1,-0.004649880402410012,-0.004037277452129415,-0.01408770592891216,0.0031951733068700796,0.9915308319506866
2014-09-08,-1,-0.004758019061858892,-0.00418814099655377,-0.011170077314212974,0.002080398161251748,0.9926556030834666
2014-09-10,-1,-0.003825926963501802,-0.0033848522712556913,-0.011170077314212974,0.0008736105773336414,0.9926823235008629
2014-09-12,-1,-0.003998727805904876,-0.0035552061339446566,-0.011170077314212974,0.0004236868761751765,0.9916225443622066
2014-09-16,-1,-0.0036430920131172695,-0.0032073489686918655,-0.01408770592891216,0.0004236868761751765,0.9902311430770511
2014-09-18,-1,-0.00458957975900047,-0.004019485121809881,-0.01408770592891216,0.0024880809125682074,0.9884638677224836
2014-09-22,-1,-0.0045861813715972035,-0.003991716457469772,-0.013032002825685784,0.005760153011017199,0.9880548943823605
2014-09-24,-1,-0.0040471925205829385,-0.0035203231780580437,-0.01441512062396588,0.005760153011017199,0.9864838895216437
2014-09-26,-1,-0.004264326140162097,-0.0037462999355412476,-0.013032002825685784,0.010373681455355846,0.9845438833710434
2014-09-30,-1,-0.0046893534287121615,-0.004084655768176015,-0.014597202113278699,0.015025474237920488,0.9816193269790057
2014-10-02,-1,-0.00575674904759924,-0.005030038794427961,-0.011288831248945752,0.015025474237920488,0.9820564382419777
2014-10-06,-1,-0.006021372385899524,-0.005256541443218529,-0.013544670775356819,0.017060076732541632,0.9809095509144428
2014-10-08,-1,-0.004556579288906233,-0.003958798017643835,-0.0166517352946689,0.016331099030286966,0.9806001099642272
2014-10-10,-1,-0.006326953081708791,-0.0055236695057163535,-0.013544670775356819,0.019681442847185898,0.9800853068366434
2014-10-14,-1,-0.007852069107598898,-0.006876624015906215,-0.012152342977924079,0.019681442847185898,0.9800485640164466
2014-10-16,-1,-0.005203555742271923,-0.004593850122947984,-0.0166517352946689,0.01682266833858516,0.981394553049488
2014-10-20,-1,-0.005158651716119093,-0.004567968439815898,-0.0166517352946689,0.01682266833858516,0.9814718214206224
2014-10-22,-1,-0.0045995731710486085,-0.004075782807263618,-0.012479010599036052,0.015135087063930934,0.983700950957185
2014-10-24,-1,-0.0020713756791238985,-0.0018874189617248053,-0.012479010599036052,0.01682266833858516,0.9841894289571465
2014-10-28,-1,-0.0009886281824819636,-0.0009258723662280987,-0.018608006669583448,0.015135087063930934,0.9845900882532443
2014-10-30,-1,-0.0017600563569115195,-0.0016391555176229733,-0.020613516247198687,0.015135087063930934,0.9800864631377261
2014-11-03,-1,-0.0014248355004667875,-0.0013089556362811637,-0.020613516247198687,0.008582873819974024,0.9813810136434772
2014-11-05,-1,-0.0011479570880681407,-0.0010622139854352033,-0.020353687360550782,0.005395089171805903,0.9831191946317218
2014-11-07,1,0.000379520531143243,0.0005171551700107347,-0.023114592546708126,0.002776409339751092,0.9817554339301114
2014-11-11,1,0.00043660232938440323,0.0006382474074922694,-0.02811076570466786,0.0034938148076626725,0.9794723336456259
2014-11-13,-1,-0.0008721672589508444,-0.0008697175061956027,-0.02421549593708184,0.0034938148076626725,0.9801378018905345
2014-11-17,-1,-0.0005917351524913053,-0.0005735119335881307,-0.02421549593708184,0.002776409339751092,0.9799187957770448
2014-11-19,-1,-0.00038172723760845895,-0.00030798393862619235,-0.02421549593708184,0.012983846896225244,0.9781260326365355
2014-11-21,1,0.0007405847421321132,0.0009533849480075991,-0.02421549593708184,0.004953428474250241,0.9765575988176002
2014-11-25,-1,-0.0017489011749345247,-0.0016276106606254214,-0.017877992702571344,0.004953428474250241,0.9798221332599624
2014-11-28,-1,-0.005428534006583452,-0.0049123773299932574,-0.007091528636142009,0.012653639737289864,0.9827577482176774
2014-12-02,-1,-0.005649682672738806,-0.005075357137675942,-0.01361748353898967,0.012653639737289864,0.982123300712879
2014-12-04,-1,-0.004910210998104405,-0.004463245018369979,-0.0177583965945406,0.012653639737289864,0.9809147385272082
2014-12-08,-1,-0.0069070465829024,-0.006238820951556545,-0.020967136173714006,0.012653639737289864,0.9813008547270973
2014-12-10,-1,-0.007146398415572805,-0.006476041126049065,-0.020967136173714006,0.012653639737289864,0.9819230882782978
2014-12-12,-1,-0.006744352868499928,-0.006203012536893161,-0.020967136173714006,0.012653639737289864,0.9817287801695984
2014-12-16,-1,-0.005905131321328742,-0.005475749697303379,-0.023342196918990046,0.009639535515386946,0.9812008810547763
2014-12-18,-1,-0.00415709781124382,-0.003918112542468171,-0.029228918226530162,0.00016186110535740825,0.9803532900397426
2014-12-22,-1,-0.0025287628957263433,-0.002438641100099758,-0.029228918226530162,0.00016186110535740825,0.981628351692171
2014-12-24,-1,-0.0019090187556621853,-0.0018593008572768085,-0.029228918226530162,0.004106058739170028,0.9801054294538794
2014-12-29,-1,-0.0011628356496518467,-0.0010408804177197925,-0.029886874652540085,-0.0055162759801507975,0.9786388525160805
2014-12-31,-1,-0.0018338048450624116,-0.0017923112715612728,-0.029886874652540085,0.004504883996296989,0.9785664789855497
2015-01-05,-1,-0.0031879253056648895,-0.0030216892193022714,-0.029228918226530162,0.01670666125471887,0.97807949456724
2015-01-07,-1,-0.005290259311926467,-0.004870103956436362,-0.026808307451325175,0.01670666125471887,0.9789849979636945
2015-01-09,-1,-0.004903897489398561,-0.004551992556601868,-0.021715977940963315,0.012840701274700578,0.9805764495943273
2015-01-13,-1,-0.005646819513303269,-0.005253825734399751,-0.017509250983394224,0.01670666125471887,0.9789902888192414
2015-01-15,-1,-0.0071525127215579,-0.00657984960886838,-0.017509250983394224,0.023425545450953385,0.9771063946921986
2015-01-20,-1,-0.006186806208339858,-0.005782007361108369,-0.014875752695696489,0.023425545450953385,0.9775294607274386
2015-01-22,-1,-0.005188421300292576,-0.004916073541649175,-0.017487853450251747,0.018035591034978503,0.978053976964001
2015-01-26,-1,-0.00595673628249096,-0.005571733701109334,-0.014868620184648997,0.018035591034978503,0.9784797920442821
2015-01-28,-1,-0.008326616847741185,-0.007576987784607709,-0.014868620184648997,0.018035591034978503,0.9794681322842037
2015-01-30,-1,-0.006417280109302771,-0.005873859884976738,-0.014868620184648997,0.012840701274700578,0.9820162551559658
2015-02-03,-1,-0.003994098281537421,-0.003783995941939683,-0.014868620184648997,0.008844206430325843,0.9847302376567219
2015-02-05,-1,-0.004260005144138414,-0.004003141408235762,-0.014842920727471197,0.0023938596334136556,0.9855405917262338
2015-02-09,-1,-0.003996320195395144,-0.0037815751599051643,-0.016485568845158647,0.0025740351105816898,0.9847662749171597
2015-02-11,-1,-0.0017621437299888496,-0.0017435989977259002,-0.017567677624295293,-0.0002529438568375171,0.9855977799393897
2015-02-13,-1,-0.001968981983170834,-0.0019517242969689867,-0.016561802331282485,-5.273982414023587e-05,0.9878885379167488
2015-02-18,0,-0.00013474611954170893,0.00012968470705037975,-0.017567677624295293,-5.273982414023587e-05,0.9877659721969665
2015-02-20,-1,-0.0016462698119042714,-0.0016003558146122007,-0.01756681273888573,0.002597869350863428,0.988217431579109
2015-02-24,-1,-0.0012199365150145898,-0.0011187192846302111,-0.01756681273888573,0.002597869350863428,0.9883130970599675
2015-02-26,-1,-0.00277521444404047,-0.0026369351734183526,-0.016485280550022127,0.008815828745725693,0.9885359305921022
2015-03-02,-1,-0.002856632609997677,-0.0027075278166397067,-0.016485280550022127,0.008815828745725693,0.9882754545258086
2015-03-04,-1,-0.0019890860971459234,-0.0019695790853238677,-0.016485280550022127,0.008815828745725693,0.9878805746228856
2015-03-06,-1,-0.003440833196429378,-0.003212113454267287,-0.014729059674073102,0.009574544338912399,0.986500509813417
2015-03-10,-1,-0.004955138691962446,-0.00447718509733773,-0.010277408787638005,0.009574544338912399,0.9877690002294062
2015-03-12,-1,-0.004855095351867884,-0.004494662965998432,-0.005583478222751865,0.011325607542914371,0.9869908101622232
2015-03-16,-1,-0.0041348203005909965,-0.00385638261922792,-0.00948321810707506,0.012363567816126814,0.9865317918561407
2015-03-18,-1,-0.0032417758635044135,-0.0031031437345627297,-0.00948321810707506,0.012363567816126814,0.985234504366536
2015-03-20,-1,-0.0023322194582667925,-0.0022556555163146894,-0.00948321810707506,0.011325607542914371,0.9863626746424639
2015-03-24,-1,-0.0011241954626032655,-0.0007864257268499146,-0.01173566951169331,0.012266820254027887,0.9816664991929621
2015-03-26,-1,-0.0004802179511073565,-8.657035801988414e-05,-0.014285419960266874,0.01669119487368703,0.9799046559998676
2015-03-30,-1,-0.00044435369393416185,-4.7893479161585433e-05,-0.014285419960266874,0.021046854376127112,0.9792087474020121
2015-04-01,-1,-0.0005307385676789117,-0.00012071807247280631,-0.011902847918578036,0.029947106358814937,0.9763561637085315
2015-04-06,1,0.0017296606201778007,0.0025230409706436512,-0.015398600872297934,0.023844084011250252,0.9769828578450068
2015-04-08,1,0.0015065905143513496,0.0022467335171117556,-0.015398600872297934,0.023844084011250252,0.9765522069421422
2015-04-10,1,0.0018761183185023937,0.002599937019754522,-0.017298710226482807,0.021046854376127112,0.9766885771381881
2015-04-14,1,0.0024098047528385803,0.003239017720833675,-0.018858595144522962,0.021046854376127112,0.9766856143736099
2015-04-16,1,0.0033726407657989304,0.004319713782923761,-0.015398600872297934,0.016639246827264725,0.979921983238906
2015-04-20,1,0.004334102730054022,0.005517561982163549,-0.012960916188779202,0.016639246827264725,0.9804834436877331
2015-04-22,1,0.004772590726365903,0.0058748090935212376,-0.011173469933803418,0.016639246827264725,0.9845966810120593
2015-04-24,1,0.002515160443058343,0.003041499971353343,-0.009576380628075393,0.016565436061488466,0.9863240385133751
2015-04-28,1,0.0034255345390774403,0.004077774812729251,-0.011173469933803418,0.013250660103990185,0.9850179467949525
2015-04-30,1,0.0060431590166450866,0.007046324930928756,-0.011173469933803418,0.0078830900139812,0.9865668429713754
2015-05-04,1,0.0037163899549029233,0.0043492524982605115,-0.004864442599214798,0.012183078759599009,0.9873487117549445
2015-05-06,1,0.0036591662689037224,0.0042624813122132035,-0.009576380628075393,0.0078830900139812,0.986665005924276
2015-05-08,1,0.0030552278568875373,0.003541575027008864,-0.009576380628075393,0.0078830900139812,0.9876027910884847
2015-05-12,1,0.0024960753164292074,0.0029230458168033042,-0.007387509722196266,0.012229339904864581,0.9885690687998392
2015-05-14,1,0.0028068493818899903,0.0033885808987907324,-0.007255154861075386,0.012229339904864581,0.9883283534959525
2015-05-18,1,0.004343333304513421,0.005171016196596975,-0.009179316044712752,0.012229339904864581,0.9875135516387169
2015-05-20,1,0.004693997867465918,0.005556652446942305,-0.009173775680477168,0.007806875763480216,0.9881303141123875
2015-05-22,1,0.005816890826694652,0.006880510656831639,-0.010232639955673452,0.004794017243740959,0.9874814383082623
2015-05-27,1,0.0046105618952505915,0.005443076786557936,-0.008907912729239735,0.004794017243740959,0.9897589207630327
2015-05-29,1,0.0036392373380502952,0.004266132358683563,-0.008907912729239735,0.004794017243740959,0.9901079425365975
2015-06-02,1,0.004150188958789498,0.004718518337760852,-0.010232639955673452,0.004794017243740959,0.9895442357277628
2015-06-04,1,0.003159454684949475,0.0035982976602651033,-0.010232639955673452,0.004794017243740959,0.9889460003446404
2015-06-08,1,0.002360963366513946,0.002616753759388146,-0.010232639955673452,0.004246791149297223,0.9886469984769726
2015-06-10,1,0.0024549313829975074,0.0026404456660779896,-0.011369906228187072,0.00370877204993427,0.9871888601016275
2015-06-12,1,0.0019750242441772597,0.0020943780401607532,-0.011369906228187072,0.00370877204993427,0.9875787190358579
2015-06-16,1,0.0017080685181452388,0.0017996179042021885,-0.015063614663315131,0.00370877204993427,0.9866818985526343
2015-06-18,1,0.0009961041198280583,0.0010393470793927245,-0.017351435793543445,0.004668141259083422,0.9863994542753086
2015-06-22,-1,-0.00041655745269599887,-0.0001183685470608621,-0.017351435793543445,0.004668141259083422,0.9869676791929262
2015-06-24,1,0.0004266409328792121,0.0004874127065274715,-0.02751568195203058,0.002536102854328854,0.9817975303526321
2015-06-26,1,0.0007746544899665718,0.0008269530132634142,-0.02751568195203058,0.004668141259083422,0.9808079271702862
2015-06-30,1,0.00029086865719700196,0.00031945790019907624,-0.02006931736141404,0.008156882716232411,0.9816075680473662
2015-07-02,-1,-0.0011052229064170821,-0.000910739704180068,-0.017572281160552015,0.008156882716232411,0.9827998925130377
2015-07-07,-1,-0.000600937978950844,-0.000558662061176404,-0.014942544867991826,0.008156882716232411,0.9839110827884316
2015-07-09,-1,-0.0018555000399855786,-0.0016572857149478666,-0.010550732946847698,0.008711211991328884,0.9852673833399453
2015-07-13,-1,-0.001201522914845585,-0.001138259770306883,-0.014942544867991826,0.0099974757005785,0.9821766474222412
2015-07-15,-1,-0.0024638062731409663,-0.002196439767395829,-0.014942544867991826,0.011217228904331392,0.9825471826258008
2015-07-17,-1,-0.0023112416364119144,-0.0020752218424556893,-0.017572281160552015,0.009296017301042177,0.9821288406372598
2015-07-21,-1,-0.0028590750996424835,-0.0025144250089746342,-0.017572281160552015,0.009296017301042177,0.982023663803359
2015-07-23,-1,-0.006597698322461671,-0.005809275765289196,-0.018152031403514256,0.009296017301042177,0.9850904301675893
2015-07-27,-1,-0.00663916594962732,-0.005844512807978541,-0.0220474936443361,0.0050796114317181555,0.9838989102273225
2015-07-29,-1,-0.004188154995324543,-0.0036412465624515032,-0.0220474936443361,0.0037041825640389174,0.9818680125005897
2015-07-31,-1,-0.005421013619828363,-0.004731347176973027,-0.0220474936443361,0.013692329394912365,0.9769776097772828
2015-08-04,-1,-0.005948029222994693,-0.005155821512013901,-0.025800409268436734,0.015617200456835706,0.9744809270945896
2015-08-06,-1,-0.004398390978440899,-0.00380788332524871,-0.025800409268436734,0.014925440288924036,0.9745002842378423
2015-08-10,-1,-0.0034611723464000495,-0.0029938089686311785,-0.02324544945106431,0.014925440288924036,0.9758164051897233
2015-08-12,-1,-0.004123879343636387,-0.003553437484030067,-0.029062048378536327,0.014925440288924036,0.9753636487179649
2015-08-14,-1,-0.004671387358168582,-0.004052937780377151,-0.02479488952596471,0.01504947560490782,0.9751599072443985
2015-08-18,-1,-0.004567829512772787,-0.003976762943353359,-0.02479488952596471,0.02058924650357985,0.9721716734277295
2015-08-20,-1,-0.005886115662809565,-0.005133947755540482,-0.02479488952596471,0.02058924650357985,0.9720970981742778
2015-08-24,-1,-0.005095698433447622,-0.004397551883375227,-0.016477373225249874,0.02058924650357985,0.9746162076914723
2015-08-26,-1,-0.002920062337416102,-0.0025399957799103487,-0.016477373225249874,0.01685303606374375,0.9781683858524375
2015-08-28,-1,-0.0002803782777814035,-0.00018242776745260888,-0.021339042898131676,0.014627062846970924,0.98103886018631
2015-09-01,-1,-0.0011346941089627313,-0.0009543459146055139,-0.018236751923227712,0.013955563095638286,0.9830339061021565
2015-09-03,-1,-0.00125054710413297,-0.0010781066581063534,-0.021339042898131676,0.013955563095638286,0.9808313453937706
2015-09-08,-1,-0.0007887695781720971,-0.0006748723858273715,-0.01892687679000058,0.016478218156036326,0.9783416098077996
2015-09-10,-1,-0.000642433127843675,-0.0005248282978297203,-0.01567331785587284,0.02109117698009188,0.9785025945406877
2015-09-14,1,0.000666841887718015,0.0008207951076901147,-0.01567331785587284,0.02109117698009188,0.978737428857262
2015-09-16,1,0.0010751083860937752,0.0012110447399225376,-0.01567331785587284,0.01160049634883207,0.9810876762377604
2015-09-18,1,0.0012094953426484158,0.0014046900682773535,-0.01126070496874593,0.017948488934450245,0.9816593023250421
2015-09-22,1,0.0010575259323367362,0.0013738471142484999,-0.01126070496874593,0.017948488934450245,0.9816012061127221
2015-09-24,1,0.0003579004308187844,0.0004964390874431088,-0.01803427480035,0.017948488934450245,0.9802888681437822
2015-09-28,-1,-0.0005203511662100007,-0.0004901032142118108,-0.01803427480035,0.017948488934450245,0.9803282264677174
2015-09-30,-1,-0.00028760651549451896,-0.0002063324105157563,-0.014966019898008043,0.02109117698009188,0.9781390670827314
2015-10-02,1,0.00035457997261380703,0.0004959735167970423,-0.014859913514987224,0.02109117698009188,0.9790330656354508
2015-10-06,1,0.0017439701773623991,0.0020440034101796237,-0.014859913514987224,0.021590879625811313,0.9810427007970176
2015-10-08,1,0.0027435653075224445,0.003185480042361738,-0.014859913514987224,0.018521543198300634,0.9817335717665455
2015-10-12,1,0.001782833075944621,0.0021287773322726054,-0.013495308012032489,0.018521543198300634,0.9828284599890342
2015-10-14,1,0.002472933649230365,0.002929590948679903,-0.015320767498900484,0.018521543198300634,0.9816798398926162
2015-10-16,1,0.002339302516979838,0.0027577301412633976,-0.015320767498900484,0.008855195626975027,0.981578412455085
2015-10-20,1,0.0021979899789069945,0.002571105341266597,-0.015320767498900484,0.018521543198300634,0.9800791560570692
2015-10-22,1,0.0019418400030289194,0.0023638341990503357,-0.015320767498900484,0.023877399814852086,0.9792947046798228
2015-10-26,1,0.0012807594668500762,0.0015636492126823234,-0.013495308012032489,0.023877399814852086,0.9810131024913412
2015-10-28,1,0.0030065208159561364,0.0035118561343451676,-0.013004131476748684,0.023877399814852086,0.9821208476056308
2015-10-30,1,0.003320439566982398,0.0039043048360629324,-0.013004131476748684,0.020294468159410602,0.9827822542540048
2015-11-03,1,0.003765492157583474,0.004389658694823299,-0.013004131476748684,0.003135563784136904,0.9836589749935865
2015-11-05,1,0.003131281861305609,0.0036664985504090827,-0.014599382153124778,0.003135563784136904,0.9830896870001201
2015-11-09,1,0.0030777221181929578,0.0036263876094351074,-0.01586506115427121,0.0012080702047234807,0.9807983781063729
2015-11-11,1,0.002370833036144761,0.0028093525201393368,-0.01586506115427121,0.008417500940794066,0.9807297865165846
2015-11-13,1,0.0016397372381672685,0.002026029126635633,-0.01586506115427121,0.011536044915220195,0.9797319565337683
2015-11-17,1,0.002217698359941998,0.0026860930764494306,-0.01586506115427121,0.011536044915220195,0.9790023612929599
2015-11-19,1,0.0023452338341004427,0.002832858128415912,-0.01704192006303772,0.005871795477035965,0.9784463942997046
2015-11-23,1,0.0019352569595700718,0.0023015629648206,-0.01704192006303772,0.009829189412091984,0.9785609688881596
2015-11-25,1,0.0024060714053049373,0.002836607139690945,-0.01704192006303772,0.009829189412091984,0.9783654436160317
2015-11-30,1,0.0015988678708443978,0.0018445389961814313,-0.01704192006303772,0.00872428153239142,0.9793014148927769
2015-12-02,1,0.0012904398770456618,0.0014970596967979885,-0.01704192006303772,0.00872428153239142,0.9795588807990684
2015-12-04,1,0.0005814185428783447,0.0006684439284322878,-0.015137052645013397,0.00872428153239142,0.9802463851314785
2015-12-08,-1,-0.0006061103912986473,-0.000575940841067683,-0.015137052645013397,0.00872428153239142,0.9799793997453505
2015-12-10,-1,-0.0005243467345878434,-0.0005001391069938379,-0.022093910608499766,0.007588061179113988,0.9795023984743625
2015-12-14,-1,-0.0024506930534584645,-0.002001767138040722,-0.020236121065793533,0.006513476675833742,0.9824553949612552
2015-12-16,-1,-0.0011302442414220864,-0.0008348731244593826,-0.022093910608499766,0.006513476675833742,0.9810023414436507
2015-12-18,-1,-0.0021606281654825378,-0.0017841151909507044,-0.018822279351681147,0.006513476675833742,0.983133958603252
2015-12-22,-1,-0.002310606229143347,-0.0018499369465066313,-0.018822279351681147,0.007549601980932984,0.9826172020982691
2015-12-24,-1,-0.002133016873309164,-0.0016945761069280083,-0.020236121065793533,0.007549601980932984,0.9814176721193405
2015-12-29,-1,-0.0015843393867286033,-0.001248248780676726,-0.020236121065793533,0.007549601980932984,0.9812194103822313
2015-12-31,-1,-0.001373271991164738,-0.001104813015370935,-0.020236121065793533,0.01054191857270442,0.9789920415752921
2016-01-05,-1,-0.001706287024826792,-0.0013458757312271121,-0.023887700831988493,0.017196900766446626,0.9769986958095764
2016-01-07,-1,-0.0032475107838736503,-0.0026565658822336833,-0.020236121065793533,0.017196900766446626,0.9790825486849676
2016-01-11,-1,-0.004635281992425629,-0.003874725874670837,-0.01946856676245098,0.017196900766446626,0.980127186367094
2016-01-13,-1,-0.005961783949809913,-0.004987088287534629,-0.01871112880746438,0.017196900766446626,0.9799553681687158
2016-01-15,-1,-0.006768861544790127,-0.005728320860436585,-0.017253529351962574,0.0158587763070847,0.9816332830447554
2016-01-20,-1,-0.005588234334435971,-0.004947258503903543,-0.015243647427909466,0.017196900766446626,0.9785157904580521
2016-01-22,-1,-0.0035175831100891005,-0.0032553760352022247,-0.015243647427909466,0.0158587763070847,0.9792255311164488
2016-01-26,-1,-0.0052303047819656475,-0.004768500633143234,-0.015243647427909466,0.015421109381143109,0.9792994437422384
2016-01-28,-1,-0.004610115096423657,-0.004226165788484102,-0.01746895848888585,0.015421109381143109,0.9780252594683804
2016-02-01,-1,-0.003723375461931834,-0.003454644889078861,-0.01746895848888585,0.015421109381143109,0.9783394800886476
2016-02-03,-1,-0.0034973593963482856,-0.003250346154082926,-0.013458038379202338,0.015421109381143109,0.979193911262543
2016-02-05,-1,-0.0048032535000471395,-0.004397392420313027,-0.013458038379202338,0.018275000923431806,0.9770771117227016
2016-02-09,-1,-0.004201337266192635,-0.003963583606798899,-0.013458038379202338,0.02681059509685397,0.9725012588539176
2016-02-11,-1,-0.006788734654764827,-0.006303515078414962,-0.0030827234114755245,0.029927066016988378,0.967986250375023
2016-02-16,-1,-0.00618846437700704,-0.005761481844012522,-0.013664772802734093,0.029927066016988378,0.9695358843628705
2016-02-18,-1,-0.005667290828099955,-0.005299984506641181,-0.013664772802734093,0.02681059509685397,0.9715969747822005
2016-02-22,-1,-0.005729445965628392,-0.005305414080903614,-0.013664772802734093,0.02681059509685397,0.9721585379028465
2016-02-24,-1,-0.0064780891369286735,-0.00596294569161965,-0.013664772802734093,0.02681059509685397,0.9735486978580338
2016-02-26,-1,-0.006084800731012421,-0.005614196323110271,-0.013333635785038675,0.021280942623770987,0.975650528297397
2016-03-01,-1,-0.004386831516673,-0.0042180993474869016,-0.013333635785038675,0.01581988505060819,0.9772816462257164
2016-03-03,-1,-0.0027957077880125395,-0.0027229451961452373,-0.013333635785038675,0.010332548952272919,0.9792194151548324
2016-03-07,-1,-0.002681701624320424,-0.002641987344013323,-0.007454899379888088,0.0100168685006864,0.9822163888260872
2016-03-09,-1,-0.003910163374322657,-0.0038345817646915394,-0.007454899379888088,0.0100168685006864,0.9858061562506545
2016-03-11,-1,-0.0028290792800819207,-0.002756116654358258,-0.01230533977720991,0.0100168685006864,0.9885795630956009
2016-03-15,-1,-0.0031829932439624356,-0.003137168403349335,-0.005268464311082237,0.013016466525992521,0.9866868840947486
2016-03-17,-1,-0.002839930502273843,-0.0027978497610049897,-0.01230533977720991,0.0100168685006864,0.9870537958192691
2016-03-21,-1,-0.0024298623184205222,-0.0023383164098538982,-0.01230533977720991,0.021454023850771872,0.9843244716352669
2016-03-23,-1,-0.0025217140286736984,-0.0023648779605911245,-0.008836960610986586,0.021454023850771872,0.9849870870428394
2016-03-28,-1,-0.0017718492672461556,-0.0014781696262553354,-0.012394508580491206,0.022223655869325343,0.9833184158969066
2016-03-30,-1,-0.0012556462448047683,-0.0008488582325699566,-0.012512963238889268,0.02334414166705821,0.9802109043273671
2016-04-01,-1,-0.0008649013761333221,-0.00040434996398407467,-0.012512963238889268,0.02334414166705821,0.9802522213960642
2016-04-05,-1,-0.0007063196283593619,-0.00021642749085273383,-0.01687833316983822,0.02334414166705821,0.9790423701544916
2016-04-07,-1,-0.000798836336542316,-0.0003659513946404976,-0.01687833316983822,0.02334414166705821,0.979794697874637
2016-04-11,-1,-0.0009504847431722979,-0.0005830452181952838,-0.017363063322972,0.022223655869325343,0.9797885273620633
2016-04-13,1,0.0008684937051735018,0.001511200594419745,-0.017363063322972,0.01005477612367802,0.9813803108935262
2016-04-15,1,0.000446835792351773,0.001053312882612687,-0.01612064149486459,0.01005477612367802,0.9821694793074724
2016-04-19,1,0.001794964058426214,0.002585490931501366,-0.01612064149486459,0.01005477612367802,0.9821471427564096
2016-04-21,1,0.0017708269637817724,0.002590144360486293,-0.018666533796982597,0.01005477612367802,0.9798442068755965
2016-04-25,1,0.002210085439255768,0.0031395917447437824,-0.017363063322972,0.006795330406463661,0.9812319945445357
2016-04-27,1,0.003898607984451611,0.005056074327853384,-0.017363063322972,0.006795330406463661,0.9836000729655724
2016-04-29,1,0.003576229359118719,0.004650636096040762,-0.01807552128781035,0.0069925492966463505,0.9828999952049502
2016-05-03,1,0.0020277149982736373,0.0027953019974155465,-0.016820002923312788,0.008819740410389671,0.9843700139374187
2016-05-05,1,0.0017481992250490347,0.0025167734068336023,-0.012845825827297184,0.008819740410389671,0.9852789277844042
2016-05-09,1,0.00017322558214969926,0.0006284486614029853,-0.011786729703016962,0.012534133701842769,0.9842879336636675
2016-05-11,1,0.0013779408132180222,0.002045726298599975,-0.012845825827297184,0.01316637544517883,0.9825098314903788
2016-05-13,0,-2.3013403599769387e-05,0.00035233421618183366,-0.01978181684755867,0.01316637544517883,0.9812997279643704
2016-05-17,1,0.001527151415549667,0.0021443737776234515,-0.01978181684755867,0.008819740410389671,0.9832276477735853
2016-05-19,0,-0.00019127623369993613,0.00021640932057684728,-0.013833097135379144,0.010352613981617735,0.9844891607274596
2016-05-23,1,8.468034479962088e-05,0.000538935433347609,-0.013833097135379144,0.012692246504986258,0.9839841566171295
2016-05-25,1,0.0004254130892482682,0.0009306146111599815,-0.013833097135379144,0.015155606428136388,0.9838510435325544
2016-05-27,1,0.0005594653789964407,0.0009948122563210758,-0.019900880944917404,0.015155606428136388,0.9786275731356238
2016-06-01,-1,-0.00024942781582568894,-8.248986320214045e-05,-0.019900880944917404,0.020878228489244366,0.9767881929757877
2016-06-03,-1,-0.001052141183684293,-0.0010381688624946997,-0.019900880944917404,0.024381409119912892,0.9745689470543291
2016-06-07,-1,-0.0002154884215599599,-0.0001387926462286932,-0.022268962993907387,0.022350569888545786,0.9755666043320753
2016-06-09,-1,-0.0006661838030258332,-0.0006631827524896886,-0.019900880944917404,0.021418963900451754,0.9768006673510188
2016-06-13,-1,-0.0021087794709886737,-0.0019130944540922939,-0.007674073434769021,0.022350569888545786,0.977082868940394
2016-06-15,-1,-0.001907971035284282,-0.0017572643803275502,-0.006371890078143342,0.022350569888545786,0.9767625035046424
2016-06-17,-1,-0.0017790655496256144,-0.0016188321170770906,-0.004605438363689822,0.021418963900451754,0.9787032395658016
2016-06-21,-1,-0.0012217388037511958,-0.0011399715212747923,-0.006371890078143342,0.021418963900451754,0.9787704779073039
2016-06-23,-1,-0.0005219958035651295,-0.00048542228567289983,-0.013259683747452877,0.021418963900451754,0.9768833038342739
2016-06-27,-1,-0.005981038555676395,-0.005384935847964194,-0.009019810052677832,0.021418963900451754,0.9809110719907538
2016-06-29,-1,-0.004994284034577376,-0.00447350110269134,-0.009019810052677832,0.012783843701409963,0.9839135590238443
2016-07-01,-1,-0.004319346584479653,-0.003838864265661765,-0.013259683747452877,0.007137419811966772,0.984747468471331
2016-07-06,-1,-0.00585653420430721,-0.005188224993810506,-0.00697537743483634,0.012783843701409963,0.9843932159290713
2016-07-08,-1,-0.005008233589759867,-0.004489466656213254,-0.00697537743483634,0.012783843701409963,0.9839396950232309
2016-07-12,-1,-0.0026876542961010736,-0.002309784901461326,-0.006550661032448718,0.011142873388692168,0.9852205572271892
2016-07-14,-1,-0.0020588149628534332,-0.0017692832733021409,-0.010698459885437496,0.012783843701409963,0.9844755123177146
2016-07-18,-1,-0.0019115440838122914,-0.0015797864582367779,-0.010698459885437496,0.01150707020240298,0.9842380970903654
2016-07-20,-1,-0.0019437592331117517,-0.0015939036692448688,-0.006506723620008942,0.011808145292731201,0.9843253573086852
2016-07-22,-1,-0.003303245056272818,-0.002828134716053494,0.00020189893687547997,0.013866809935544636,0.9840106923266257
2016-07-26,-1,-0.0033426351663728556,-0.0029380854328894977,0.00020189893687547997,0.013866809935544636,0.9844663697829051
2016-07-28,-1,-0.0030957274827445843,-0.0027384973601026937,0.00020189893687547997,0.013866809935544636,0.9840905441343603
2016-08-01,-1,-0.005278622223556872,-0.004588788693257245,3.3099278565169334e-05,0.013866809935544636,0.9845137446014488
2016-08-03,-1,-0.0019355174403694877,-0.001720595388927559,-0.0012442550811321955,0.011330411569086946,0.987408705211365
2016-08-05,-1,-0.0015783881054526128,-0.0013508990707546524,-0.0036983048968121527,0.010665729124099337,0.9882088880122905
2016-08-09,-1,-0.0007689703212189683,-0.0006846205081185843,-0.00843633065860982,0.011330411569086946,0.988030782412625
2016-08-11,-1,-0.00016420403158501449,-0.00016158510806863353,-0.00843633065860982,0.011330411569086946,0.9867542887299142
2016-08-15,-1,-0.00042859397278357435,-0.00034078921836017074,-0.01108661068352281,0.01217982212067695,0.9860920964090434
2016-08-17,1,0.00028311529815798264,0.00028539371604787014,-0.01108661068352281,0.010281061215441487,0.9861219187453576
2016-08-19,1,0.0014626454405436717,0.0016243037587876864,-0.012597596252523671,0.00787849422195209,0.9875848010092968
2016-08-23,1,0.0011739969605511114,0.0013072218092161844,-0.009987354112383766,0.00890155113404105,0.9882335046560837
2016-08-25,1,0.0010713602589308496,0.0011717183478688786,-0.012597596252523671,0.00787849422195209,0.988215950695521
2016-08-29,1,0.00044127547893098296,0.00044446713235464616,-0.009604676618455255,0.00787849422195209,0.9888133349783179
2016-08-31,1,0.0008860894652690576,0.0009414741933481041,-0.009604676618455255,0.014839609174086733,0.9857691068707022
2016-09-02,1,0.0016457099638651877,0.0018708981802712233,-0.008308771493966983,0.014839609174086733,0.98654391345817
2016-09-07,1,0.0014143166463315955,0.0015403581844178416,-0.004967697893638611,0.014839609174086733,0.9867006587656278
2016-09-09,1,0.002077759122880946,0.0023963229987542644,-0.0009081113314229706,0.012414330610167352,0.989089492799744
2016-09-13,1,0.0016900841639747883,0.0019193777546044149,-0.0009081113314229706,0.012414330610167352,0.9879899488672383
2016-09-15,1,0.0016693110607421617,0.0018954222681764963,0.0010905258528148855,0.013470542540057365,0.9881197180009996
2016-09-19,1,0.0024393230382989068,0.0028697695169753812,0.00018241452139191477,0.013470542540057365,0.9884265195638664
2016-09-21,1,0.0028369376174899267,0.003297622474576897,-0.0036662606693458576,0.012306816296734024,0.9881333343044484
2016-09-23,1,0.0016255710099680534,0.0018789456293911372,0.0008488738417652612,0.016366191134033134,0.9861619550469817
2016-09-27,1,0.00120068062284466,0.0013496563199545718,-0.0007104544579915196,0.016366191134033134,0.9848651063714179
2016-09-29,1,0.002900880665725871,0.0032298116658216938,-0.005062061393421932,0.012009270903193795,0.98791744784974
2016-10-03,1,0.0034667610102968828,0.00391973761813859,-0.007314710813092965,0.012009270903193795,0.987654185402659
2016-10-05,1,0.003627397346501399,0.004041758507027974,-0.008993755657765383,0.011625460214676739,0.9878699246121847
2016-10-07,1,0.0051443932130742845,0.005858830227408487,-0.009160722122349254,0.011679985464433183,0.9869493633827617
2016-10-11,1,0.0038266531669895916,0.004204564214182033,-0.008993755657765383,0.011679985464433183,0.9885144202342929
2016-10-13,1,0.004189380826904997,0.004597522853587225,-0.008993755657765383,0.013018857229444599,0.9870761489610439
2016-10-17,1,0.0033820419905019818,0.003696305546735555,-0.009014831567346244,0.014330586699119028,0.9863919451586792
2016-10-19,1,0.003197852030683925,0.0034782095783372543,-0.009478069291795814,0.01614686137916796,0.9848829789196549
2016-10-21,1,0.0043995146088322366,0.004828338500140247,-0.011371399319410242,0.014330586699119028,0.9859931751903686
2016-10-25,1,0.0031435113230289823,0.0033757071256812874,-0.010454948075192986,0.01614686137916796,0.9859751328709342
2016-10-27,1,0.0038288053771042005,0.004283256582227811,-0.011371399319410242,0.01614686137916796,0.9854976248986955
2016-10-31,1,0.0035901795578363984,0.003965177243928716,-0.013357852422812472,0.01614686137916796,0.9844481651967139
2016-11-02,1,0.0028831935905205557,0.0030813902552020793,-0.013357852422812472,0.019020719258066355,0.9832027934720813
2016-11-04,1,0.002435200654507166,0.0025463666679530986,-0.011852404037554958,0.02309791983228294,0.9825258603417063
2016-11-08,1,0.003139849884054672,0.0034116686129852265,-0.011852404037554958,0.021306400243054368,0.9829313001423124
2016-11-10,1,0.004494716734723385,0.004951470291584653,-0.015447995283359089,0.015427326544050022,0.9834760406082711
2016-11-14,1,0.0043172876403046985,0.004757145130839306,-0.011451667146360228,0.02004837349540958,0.9837246811084894
2016-11-16,1,0.0025668115595553743,0.002709540734646417,-0.011451667146360228,0.014618191494778426,0.9853575746488291
2016-11-18,1,0.0026370809504494084,0.0028817489898463463,-0.010249465921893358,0.014618191494778426,0.9854599778322891
2016-11-22,1,0.0036925601565941353,0.00413910803247713,-0.00980510486019881,0.009266124873941914,0.986627054841498
2016-11-25,1,0.0022482071573294614,0.002390614063060727,-0.009393643166634772,0.00943210475614911,0.9875680964249997
2016-11-29,1,0.0014744606214676598,0.0015269005199385743,-0.008216095197581307,0.01427243683029027,0.9876846674850204
2016-12-01,1,0.0028503036964369556,0.0031066972042904117,-0.008216095197581307,0.008778901066798898,0.9893147096509823
2016-12-05,1,0.003970066143979807,0.0043861202056793246,-0.008216095197581307,0.008557161403808241,0.9897625569526908
2016-12-07,1,0.003753170865311862,0.00416836684243916,-0.007268394561107416,0.008557161403808241,0.9899176062411459
2016-12-09,1,0.0031424752617467125,0.003469937151574778,-0.007268394561107416,0.008557161403808241,0.9899164377571775
2016-12-13,1,0.0025046965418724504,0.0025610583809519,-0.007268394561107416,0.008557161403808241,0.9893342939887271
2016-12-15,1,0.001984867650561102,0.0020359702381109717,-0.007268394561107416,0.008557161403808241,0.9895599802270741
2016-12-19,1,0.000848766538095105,0.0010520109014307227,-0.012487162579830895,0.008557161403808241,0.9890218826110223
2016-12-21,1,0.0006778106295244979,0.0009887791966891708,-0.013579233551947534,0.008557161403808241,0.9883361394897011
2016-12-23,1,0.0010006882329195868,0.001231363697699117,-0.013579233551947534,0.012312825762239632,0.9864426065056613
2016-12-28,1,0.0011132441394031568,0.0012789219199947567,-0.0126097610358076,0.009564938799960742,0.9878521130741349
2016-12-30,1,0.0006630247110834464,0.0008412515856955186,-0.013963009046369327,0.009409792485012494,0.9852878984299167
2017-01-04,1,0.0017788842987824416,0.0018070598213549157,-0.015075982086591479,0.0017330763843016025,0.9850632713514035
2017-01-06,1,0.0013553992237206652,0.0014245087189795334,-0.018609581723663098,0.004410093931720569,0.9831266907565113
2017-01-10,1,0.0008632765571179868,0.0009576558950361387,-0.018609581723663098,0.004410093931720569,0.9828604173222918
2017-01-12,1,0.0012647769619650272,0.0012819285061805089,-0.018018959000716483,0.004410093931720569,0.9840492160716131
2017-01-17,1,0.0005335793461299146,0.0006328816021953468,-0.018018959000716483,0.010928328117822465,0.9843789881326656
2017-01-19,-1,-0.0006231761340798222,-0.0003904523384933202,-0.010328901679797638,0.011840522680819017,0.9851646615274948
2017-01-23,-1,-0.0015622204121645959,-0.0011864359666800483,-0.008882898569834968,0.014931092498773607,0.9844737713673127
2017-01-25,0,-1.8108754196182473e-05,0.0001699462051927335,-0.008882898569834968,0.009913637383471906,0.9870144817076976
2017-01-27,-1,-0.000690625605011057,-0.0004048266826441098,-0.013145573775016049,0.011840522680819017,0.9851434940693952
2017-01-31,-1,-0.0015775741975634161,-0.0011994310647976344,-0.013145573775016049,0.014931092498773607,0.9858942620157156
2017-02-02,-1,-0.0025961348992358923,-0.002072650611681152,-0.013145573775016049,0.014931092498773607,0.9862148907957374
2017-02-06,-1,-0.003545413625428295,-0.0029205271305928005,-0.011717673044799957,0.01188702029572193,0.9882192084542196
2017-02-08,-1,-0.004111373332169458,-0.003417586236255416,-0.010213322675879306,0.01188702029572193,0.9887304956136918
2017-02-10,-1,-0.004168096602045809,-0.0034361394719029247,-0.010213322675879306,0.0074683598420858645,0.9891377161827188
2017-02-14,-1,-0.0032826364721677504,-0.002683848358793428,-0.011717673044799957,0.0074683598420858645,0.9887181654784121
2017-02-16,-1,-0.003961425138167924,-0.00324255162987165,-0.011717673044799957,0.0059464260221252655,0.9893680525016605
2017-02-21,-1,-0.0038962904734668137,-0.0031808283928807025,-0.010231425055625883,0.0059464260221252655,0.9896729232203821
2017-02-23,-1,-0.002919982086450019,-0.002511063353357079,-0.012131910484820797,0.0062954561270598015,0.9887146741635041
2017-02-27,-1,-0.0024178630697393724,-0.0020707206204808575,-0.010231425055625883,0.004205200081929904,0.9902182349000614
2017-03-01,-1,-0.0021181842009206507,-0.0018336956229708721,-0.009529473612143641,0.0062954561270598015,0.9898959699610588
2017-03-03,-1,-0.0026368855881131557,-0.0023035947364559127,-0.009529473612143641,0.007247908484023154,0.9891370385614763
2017-03-07,-1,-0.0030412525428866986,-0.0026478244548375825,-0.007516541009982983,0.007247908484023154,0.9893830333834749
2017-03-09,-1,-0.002725487845245419,-0.0023940363144947033,-0.00478071284299203,0.011328233585820906,0.9879972573690872
2017-03-13,-1,-0.003104677991616684,-0.0027060642328118577,-0.00478071284299203,0.011328233585820906,0.988277185001464
2017-03-15,-1,-0.002514513436674566,-0.0021961642844047853,-0.004555307758020057,0.009986359538519982,0.9898195962807188
2017-03-17,-1,-0.0020732947774561457,-0.0018626884483107318,-0.004390452540306163,0.009986359538519982,0.9888780490919447
2017-03-21,-1,-0.002255822011076266,-0.0019818620537153265,-0.004390452540306163,0.007194162137124623,0.9894888293040205
2017-03-23,-1,-0.0027990128483776607,-0.002460354618831384,-0.004390452540306163,0.006413906444798995,0.9899034872762901
2017-03-27,-1,-0.0026397445049199456,-0.0023110795621255715,-0.004390452540306163,0.007895231623423832,0.9893784167028996
2017-03-29,-1,-0.0009977424288381493,-0.00086986490087485,-0.007708410423773686,0.005347007619690369,0.9887264826866227
2017-03-31,-1,-0.001296391112020593,-0.0010256657183560871,-0.004390452540306163,0.004578271281522286,0.9903596444952097
2017-04-04,-1,-0.0008250670465351022,-0.0006252316186333802,-0.004390452540306163,0.006060398408627144,0.9887347763844386
2017-04-06,1,0.000529843676920289,0.0005482894835938674,-0.005100442235770067,0.004688079146219867,0.9884075544952375
2017-04-10,1,0.00040105996204063937,0.0004014870069849727,-0.007135745807723168,0.004688079146219867,0.9882383029255315
2017-04-12,1,0.00030260804341130114,0.0003035950287504628,-0.011221007416370467,0.006060398408627144,0.9873949406604062
2017-04-17,-1,-0.00033253770904439204,-0.00024306255145334718,-0.011221007416370467,0.008492693149876576,0.9869215275548091
2017-04-19,-1,-0.0004930595851344258,-0.00040283495259562773,-0.006271307899968994,0.008492693149876576,0.9874532714622345
2017-04-21,-1,-0.0009457053840494478,-0.0007775103158676049,-0.004069289975043342,0.012582632181068917,0.9870334184585408
2017-04-25,-1,-0.0010253573314919645,-0.0008100889477980061,-0.00602354198776415,0.012582632181068917,0.987269455646674
2017-04-27,-1,-0.0010782061740811253,-0.0009229101115710248,-0.00990504506370542,0.012582632181068917,0.9869193075612908
2017-05-01,-1,-0.0012666326302771906,-0.0012109436582248658,-0.011340205242349868,0.012582632181068917,0.985951718321503
2017-05-03,-1,-0.00033522585034449477,-0.0002893936922617901,-0.011340205242349868,0.010144089367220447,0.9863730865444533
2017-05-05,1,0.0002416305762401739,0.0003413192566129961,-0.013714580721943247,0.008587570408056454,0.9871416963114973
2017-05-09,1,0.0002849940215155875,0.00039784070616732665,-0.014707023248844816,0.008587570408056454,0.9862145132335608
2017-05-11,1,9.184140083070023e-05,0.0001654667863988496,-0.013714580721943247,0.008587570408056454,0.9865278435757275
2017-05-15,0,-2.77975986668133e-05,4.804898529905906e-07,-0.011267525999814914,0.007043160120114642,0.9877143699684964
2017-05-17,0,-4.380671139299572e-05,1.449956858907476e-06,-0.01481162851124891,0.007043160120114642,0.9858924379883482
2017-05-19,1,0.0007336336456768278,0.0008806571908266084,-0.01481162851124891,0.0037291071199297993,0.9861564035845011
2017-05-23,1,0.0005084396068444088,0.0006323363482632585,-0.01597355995295521,0.0037291071199297993,0.9853517319025127
2017-05-25,-1,-0.0011288028175573809,-0.0010630031813530082,-0.013714580721943247,0.0058597264891497875,0.9891160572042433
2017-05-30,-1,-0.0009058797456707918,-0.0008875362060107936,-0.013438870443015304,0.006650539925155383,0.9896307623148183
2017-06-01,1,3.3117277186067164e-05,0.0001639488695653393,-0.013438870443015304,0.0058597264891497875,0.9902342563133266
2017-06-05,-1,-0.000690947186254878,-0.0006864561770890317,-0.006982855421139836,0.006650539925155383,0.9893567942060979
2017-06-07,-1,-0.0013987508308247144,-0.0013487467757558134,-0.014159318390541993,0.006650539925155383,0.9886563368343908
2017-06-09,-1,-0.0010141928442530534,-0.0009938297321903343,-0.014159318390541993,0.006650539925155383,0.9885242876871613
2017-06-13,-1,-0.0011968893999884178,-0.001105707597146214,-0.014159318390541993,0.007321178506433485,0.9883643722060861
2017-06-15,-1,-0.002507373314537547,-0.0022526922747407863,-0.00570271640075536,0.009766784073759504,0.989075718035244
2017-06-19,-1,-0.001974482878337254,-0.0018773484582129006,-0.00570271640075536,0.009766784073759504,0.9891874932215629
2017-06-21,-1,-0.002499458630152669,-0.0023334448278919,-0.004213236286786645,0.012687788835388828,0.9881951845397515
2017-06-23,-1,-0.0026002043657608544,-0.002377913974370004,-0.008386667805802354,0.012687788835388828,0.9876568876454764
2017-06-27,-1,-0.0023029478590931305,-0.0020653637616732897,-0.009203098567636184,0.012687788835388828,0.9872205310068115
2017-06-29,-1,-0.001994357574006548,-0.0017521391800967173,-0.009203098567636184,0.015337775030243058,0.9858198678391292
2017-07-03,-1,-0.0008898020361039582,-0.0007569277911880917,-0.010649652998847929,0.008737668518829667,0.9868022990547032
2017-07-06,-1,-0.001996392763678993,-0.0017559554153798388,-0.010649652998847929,0.008737668518829667,0.9877733576985832
2017-07-10,-1,-0.0011102078379078462,-0.0009965885582952526,-0.010649652998847929,0.006553443448595934,0.9884837730148973
2017-07-12,-1,-0.0009960125543328536,-0.0008937893378660965,-0.010649652998847929,0.005666482014300377,0.9890740150224113
2017-07-14,-1,-0.00029399131642674956,-0.00028553882519406824,-0.012136098635284817,0.0016207370480772975,0.9887679307106666
2017-07-18,-1,-0.00036150420573860444,-0.0003471752823843657,-0.012136098635284817,0.0016207370480772975,0.9887126469740605
2017-07-20,1,0.00033178642920790477,0.00043484749584970627,-0.012239606227549077,9.205854810352161e-05,0.9894038354257456
2017-07-24,1,0.00017284501325572034,0.0002551687649329791,-0.012239606227549077,9.205854810352161e-05,0.9897093186903744
2017-07-26,-1,-0.00030834523877200907,-0.00028931660465054336,-0.012136098635284817,9.205854810352161e-05,0.9902545584708291
2017-07-28,1,0.0005918388356649155,0.000669496887291882,-0.012239606227549077,-0.0031225997727996496,0.9897826692610742
2017-08-01,1,1.4827736982075768e-05,1.4957524273141521e-05,-0.012239606227549077,9.205854810352161e-05,0.9905374528952358
2017-08-03,-1,-0.0006779196506790595,-0.0005961270122555387,-0.010239319956530222,0.0013546202432561415,0.9908739254273742
2017-08-07,-1,-0.0005909134858204678,-0.0005438561265564124,-0.010239319956530222,0.007654238797538043,0.9897963286888004
2017-08-09,-1,-0.0008037809569768148,-0.000714901713805461,-0.011098065846129367,0.007654238797538043,0.9893656092335776
2017-08-11,-1,-0.0014279219046651522,-0.0012745032816321958,-0.010659976696125784,0.009770940714917156,0.9886652081666686
2017-08-15,-1,-0.00181205913280208,-0.0015952698251606636,-0.010659976696125784,0.010904465093459551,0.9877669875370423
2017-08-17,-1,-0.0023808451062008427,-0.0020933247440127973,-0.008087548158316157,0.012260579487349838,0.987123542497437
2017-08-21,-1,-0.0013785137122174704,-0.0012993588306494733,-0.005393912049709356,0.01327908711140138,0.9871182268094753
2017-08-23,-1,-0.0014425197687224604,-0.0013228805390475377,-0.008087548158316157,0.01327908711140138,0.9872552356606729
2017-08-25,-1,-0.0009764906931715867,-0.0009291876054529891,-0.008087548158316157,0.011538313938975735,0.9883467847724831
2017-08-29,-1,-0.0005915767569363221,-0.000550625882439727,-0.007692281016498012,0.01327908711140138,0.987614859718346
2017-08-31,-1,-0.0002462866394507357,-0.00014775395478049016,-0.002399769066408023,0.01327908711140138,0.9880297904723481
2017-09-05,1,0.0002781192145744334,0.0004353141734480608,-0.008712251959029756,0.011538313938975735,0.9888779218553798
2017-09-07,-1,-9.84535680089647e-05,-9.122583648171214e-06,-0.008712251959029756,0.011538313938975735,0.988874329593521
2017-09-11,-1,-0.0005233329666395209,-0.0005111760784249509,-0.004305940403935141,0.011538313938975735,0.9903814085041416
2017-09-13,1,0.00014790867977397575,0.00024705969021854556,-0.008712251959029756,0.008056465330899872,0.9911697107006725
2017-09-15,1,0.0009036685671836678,0.0011188954011088154,-0.009499513162065789,0.006678689400920977,0.9910863154917797
2017-09-19,1,0.000279006655388596,0.0005275063825440108,-0.010534888786953755,0.003691639999771512,0.9909212232173077
2017-09-21,0,-0.00013499885074910788,6.003849546933418e-05,-0.012458744273961143,0.003691639999771512,0.9899502370809107
2017-09-25,1,0.00042001491726074644,0.0007446542472417952,-0.010534888786953755,0.0018453625006704842,0.9905282955771222
2017-09-27,1,0.001473959780085037,0.001974901123421818,-0.010534888786953755,0.0018453625006704842,0.9906368852062012
2017-09-29,1,0.001926427387877713,0.002457640504586546,-0.010534888786953755,0.0012771153195784816,0.9882661728873772
2017-10-03,1,0.0017308385257131468,0.0022279140732598688,-0.010534888786953755,0.0027680970408566954,0.9878601284710025
2017-10-05,1,0.0016299720757054644,0.0021066623540483445,-0.008903943672697097,0.013084979706044813,0.9874226824355418
