JNU-Tangyin/eata/results/Batch4_SP500/Batch4_SP500-D.csv
Date,Action,Predicted_Q25,Predicted_Q75,Actual_Q25,Actual_Q75,RL_Reward
2010-12-14,0,0.0,0.0,-0.001877780246463945,0.0016285740159961916,0.9961704200054826
2010-12-16,0,0.0,0.0,-0.0016355008260288111,0.004325019324762224,0.9959370465906231
2010-12-20,0,0.0,0.0,-0.0016355008260288111,0.0009276181080283722,0.9966501869299593
2010-12-22,0,0.0,0.0,-0.0016355008260288111,0.0016285740159961916,0.9962460719525568
2010-12-27,0,0.0,0.0,-0.0011120377514988796,0.004115181777292899,0.9961949159755755
2010-12-29,0,0.0,0.0,-0.0011120377514988796,0.005357033383111835,0.9958602161153481
2010-12-31,-1,-0.0001794159879746688,-0.00013766678495399822,-0.0007593082076952769,0.005357033383111835,0.9954960677809894
2011-01-04,0,0.0,0.0,-0.001877780246463945,0.005357033383111835,0.9953983481725032
2011-01-06,0,0.0,0.0,-0.0016980765866281267,0.005357033383111835,0.9954132185925004
2011-01-10,1,0.00011533839259042391,0.00021023294818395353,-0.0016980765866281267,0.005357033383111835,0.9960449495059526
2011-01-12,0,0.0,0.0,-0.0004595711712910524,0.00551124011465175,0.9958125520561186
2011-01-14,0,0.0,0.0,-0.0008036284396490343,0.005084930018339623,0.9959108037626213
2011-01-19,0,0.0,0.0,-0.0008036284396490343,0.005357033383111835,0.9954575999150376
2011-01-21,1,0.0001173943243679979,0.00011915654593636185,-0.0008020407855711739,0.005084930018339623,0.995651811417364
2011-01-25,1,0.00034792158789667275,0.00043723766325449884,-0.0018099908669916426,0.005136234104346467,0.9955433631795522
2011-01-27,0,0.0,0.0,-0.0018099908669916426,0.005136528577865847,0.9953177193049043
2011-01-31,0,0.0,0.0,-0.0014369596917630178,0.005586921841053711,0.9951828405160708
2011-02-02,0,0.0,0.0,-0.0014369596917630178,0.0063340941781407705,0.994096646673078
2011-02-04,1,0.0007141615170714341,0.000827663859172659,-0.0014369596917630178,0.0063340941781407705,0.9944813754721162
2011-02-08,0,0.0,0.0,-0.0003287386143244178,0.00792726827691035,0.9936051046251031
2011-02-10,0,0.0,0.0,-0.002011008139306926,0.0063340941781407705,0.9931269590614223
2011-02-14,0,0.0,0.0,-0.002797625915366698,0.0063340941781407705,0.9930170878604374
2011-02-16,0,0.0,0.0,-0.004386534460141969,0.004703816926725517,0.9922426085017148
2011-02-18,0,0.0,0.0,-0.004386534460141969,0.0063340941781407705,0.9915650237810103
2011-02-23,0,0.0,0.0,-0.007737319603822233,0.004703816926725517,0.9915885831952501
2011-02-25,0,0.0,0.0,-0.007737319603822233,0.0051225735052820255,0.9914724691018801
2011-03-01,0,0.0,0.0,-0.007737319603822233,0.005059713139159788,0.9915275216375035
2011-03-03,0,0.0,0.0,-0.007737319603822233,0.005059713139159788,0.9919856733015483
2011-03-07,1,0.0016175771832726297,0.00190525611810351,-0.007737319603822233,0.005499956983472252,0.9918581700279987
2011-03-09,1,0.001869631191041373,0.002193746330926271,-0.007737319603822233,0.005143087282054981,0.9921885119016094
2011-03-11,1,0.001643541667754389,0.0019397456098623562,-0.007142696009824159,0.005143087282054981,0.9928765593065755
2011-03-15,1,0.0013483520643774451,0.0016094314017365556,-0.007189431411724091,0.005143087282054981,0.9924196722949502
2011-03-17,1,0.0008983090036447651,0.0010958052934707586,-0.004244430900041285,0.006164292504070455,0.993221465779316
2011-03-21,1,0.001017376982776757,0.0012022037281391317,-0.007189431411724091,0.006164292504070455,0.9931803654681656
2011-03-23,1,0.0010729481515265801,0.0012649797645810038,-0.004244430900041285,0.006164292504070455,0.9934379073713668
2011-03-25,1,0.0006867144488398918,0.0007732256607574737,-0.004244430900041285,0.006361341081189739,0.9932225576217538
2011-03-29,1,0.0006980225924111599,0.0007880794536788571,-0.0030038992858284885,0.006981431919310663,0.992941267296624
2011-03-31,1,0.0010953112275139186,0.0012579177278191933,-0.0020554435463627212,0.006246612254469913,0.9939500430022717
2011-04-04,1,0.000631294399543205,0.0007052248284687056,-0.0020554435463627212,0.006246612254469913,0.9937832136444767
2011-04-06,1,0.000884796367279134,0.001005622719675316,-0.0020554435463627212,0.006348408918098355,0.9935286377318315
2011-04-08,1,0.0009506217424624399,0.001082488058582082,0.0011519285379511942,0.006981431919310663,0.9934774842338159
2011-04-12,-1,-0.00018332418402304166,-0.00014851302244332158,0.0019364204812412785,0.007739566620202747,0.9934986061417518
2011-04-14,0,0.0,0.0,0.0019364204812412785,0.007739566620202747,0.9935227116991137
2011-04-18,0,0.0,0.0,0.0019364204812412785,0.007739566620202747,0.993828976996171
2011-04-20,1,5.045417878169033e-06,6.058114973678381e-06,0.0014911095421476358,0.007739566620202747,0.9936526316063498
2011-04-25,1,6.266071671747359e-05,0.00017840612160438068,-0.0004676801583683768,0.007123229766599652,0.9939988971381372
2011-04-27,0,0.0,0.0,-0.0027061700258465002,0.005947917530481645,0.9941684534523253
2011-04-29,0,0.0,0.0,-0.0027061700258465002,0.00514746103081059,0.9942717263141865
2011-05-03,1,0.0009358043418185092,0.0009663603026299216,-0.004252773597184544,0.006695652383255042,0.9935042443231289
2011-05-05,1,0.0007144327314327394,0.0007237600051882775,-0.002734675492743357,0.005637230290415481,0.9940211777197135
2011-05-09,0,0.0,0.0,-0.0038177660731996584,0.005998345114290622,0.9937051835239271
2011-05-11,1,0.0008534213763613531,0.0009021999323286347,-0.0038177660731996584,0.006090239604414824,0.9938002740465998
2011-05-13,1,0.0011810209846387276,0.0012992035740994547,-0.005737234287705862,0.006090239604414824,0.9937437794889324
2011-05-17,1,0.0011049454057268176,0.0012145563351933027,-0.007143893124325352,0.005116229943116111,0.9934668583902903
2011-05-19,0,0.0,0.0,-0.005737234287705862,0.006090239604414824,0.9935438397210771
2011-05-23,0,0.0,0.0,-0.0035208817847943957,0.006166528434489817,0.9933838274875464
2011-05-25,0,0.0,0.0,-0.006321401040031128,0.006166528434489817,0.9930452741484628
2011-05-27,1,0.0005352459483637382,0.0005862053743221607,-0.006321401040031128,0.006849863022885572,0.9928784199290226
2011-06-01,1,0.00010334901561192933,0.00011016763387865894,-0.0035208817847943957,0.006285067935242144,0.9934960996353767
2011-06-03,1,0.0005511992501031544,0.000629263245714246,-0.0035208817847943957,0.006849863022885572,0.9931003453401951
2011-06-07,1,0.0005205118573703761,0.0006171695439935768,-0.004134501737545821,0.006285067935242144,0.9932105172666661
2011-06-09,1,0.0013830291347236303,0.0014262534347759229,-0.006994293410351686,0.006285067935242144,0.993572475609678
2011-06-13,1,0.0011022177182519774,0.0011023767161214859,-0.006994293410351686,0.006043435747110089,0.9934691985248937
2011-06-15,1,0.0004575259047622672,0.0005168459194234735,-0.0033938305512540862,0.006043435747110089,0.9938761007982676
2011-06-17,1,0.0010309382507140243,0.0010483482764409512,-0.006994293410351686,0.005979493017394628,0.9937374014629451
2011-06-21,1,0.0015305153242044067,0.0016219740262100463,-0.006994293410351686,0.006084306577565974,0.993149573473556
2011-06-23,1,0.00019977515030327717,0.0002919647627283724,-0.0028087977325463366,0.007088057492703331,0.9931053371635636
2011-06-27,1,0.0006290549363839355,0.0006766193757551319,-0.004661731339727317,0.006084306577565974,0.993185968570584
2011-06-29,0,0.0,0.0,-0.005164958524142943,0.005979493017394628,0.993199631004872
2011-07-01,1,0.00042648914546986126,0.00042967203953141306,-0.005770178009764986,0.005388785947139403,0.993340617450167
2011-07-06,1,0.00044826939113979086,0.0004558720144452034,-0.005770178009764986,0.0054024095572913645,0.9929433442267815
2011-07-08,0,0.0,0.0,-0.006458225618511305,0.007425883026511468,0.9916752183541573
2011-07-12,0,0.0,0.0,-0.006458225618511305,0.011658507927010129,0.9888942736600387
2011-07-14,0,0.0,0.0,-0.008947811409084088,0.01237377536286073,0.9869006223417945
2011-07-18,0,0.0,0.0,-0.007188447272881095,0.014536819811518482,0.9853233172413399
2011-07-20,0,-5.619183084889305e-06,2.5138719300118873e-05,-0.007188447272881095,0.01248742169106146,0.9861749053302759
2011-07-22,1,0.0005112502709926066,0.0006204019265238744,-0.010318979509220148,0.009400854410996605,0.9849226833246382
2011-07-26,0,0.0,0.0,-0.010318979509220148,0.013023225057449775,0.984368985111468
2011-07-28,0,0.0,0.0,-0.011494130739714944,0.013023225057449775,0.9835755274796045
2011-08-01,0,0.0,0.0,-0.010790434253300308,0.013023225057449775,0.9832650898581993
2011-08-03,1,0.00071126595560461,0.0008050659386061266,-0.010583062990620368,0.01218453556416421,0.9840823781753233
2011-08-05,1,0.0007673265433305312,0.0008313457525663916,-0.010494448243494695,0.009963074041123496,0.9849456343470305
2011-08-09,-1,-0.0012392954504734733,-0.0010176940287669918,-0.009026704627324932,0.008934253292015833,0.9883111243932424
2011-08-11,-1,-0.000864794377657196,-0.0007143871195510352,-0.010494448243494695,0.0070183120825679105,0.9895153486776875
2011-08-15,0,0.0,0.0,-0.010494448243494695,0.006487494495684694,0.9910811664971796
2011-08-17,1,0.0008308354421832331,0.0008512305764855053,-0.010494448243494695,0.007341800531366183,0.9897336807361842
2011-08-19,-1,-0.00043090500351769816,-0.0003009014787919825,-0.003431331996133439,0.008206257431709973,0.9914888554487398
2011-08-23,1,0.0001844997844207074,0.00023999483233939336,-0.005821408203657551,0.008206257431709973,0.9910385051643442
2011-08-25,0,0.0,0.0,-0.005821408203657551,0.008393295386262222,0.9908968423575554
2011-08-29,0,0.0,0.0,-0.003431331996133439,0.009209826417761694,0.9909741739105832
2011-08-31,-1,-0.00023806384818851037,-0.00012904503029017233,-0.004811635737843562,0.01429350954971444,0.9899436784254524
2011-09-02,-1,-0.0011403287062772668,-0.0008927720098269567,-0.009527830104781013,0.01429350954971444,0.9893408122093912
2011-09-07,-1,-0.0009422210287315646,-0.0007277793616913404,-0.010416723842000177,0.01429350954971444,0.9887759408846336
2011-09-09,-1,-0.0015928844857871086,-0.0012974701784072775,-0.009527830104781013,0.01429350954971444,0.9887403564284353
2011-09-13,-1,-0.0011775839078808485,-0.0009392212714668027,-0.010416723842000177,0.01582889708872106,0.9880502007341884
2011-09-15,0,-7.569395728514454e-05,1.794216694199442e-05,-0.010416723842000177,0.01087034656574277,0.9893685699917955
2011-09-19,1,0.00034713207373619954,0.0003644222950983214,-0.010416723842000177,0.01087034656574277,0.9889079481500609
2011-09-21,1,0.0004280797529804572,0.00042880483984048196,-0.009527830104781013,0.009755777662904775,0.9895586453633262
2011-09-23,1,0.0005755131089914976,0.0006013799481065349,-0.009323059593384784,0.009755777662904775,0.9898239136610808
2011-09-27,1,0.0008681961030801164,0.0009245074874843218,-0.010537678169060139,0.009174486282964939,0.9893464503689307
2011-09-29,1,0.0011086954344948854,0.001208336610514668,-0.010051722034404598,0.009174486282964939,0.9895201801290817
2011-10-03,1,0.0005236018533975935,0.0005648912663448029,-0.010008936901226884,0.009174486282964939,0.9900263947418022
2011-10-05,1,0.0004862422218349919,0.0005331976615878811,-0.010008936901226884,0.009755777662904775,0.9890636879373914
2011-10-07,1,0.0007983321543231107,0.0008955915593650446,-0.010008936901226884,0.009307925702988573,0.9892402378426217
2011-10-11,1,0.0008608944160911692,0.0009601924943282991,-0.008406731606802727,0.009307925702988573,0.9898112696946461
2011-10-13,1,0.0005435054962350727,0.0005917200427099649,-0.010057927051921527,0.009307925702988573,0.988965419708274
2011-10-17,1,0.00024994247087173555,0.0002601941184236956,-0.00783048474394563,0.010738205606722458,0.9887648176070687
2011-10-19,1,0.0006329708861152585,0.0006704400596672987,-0.010931268047826515,0.010337436007192771,0.9890098236208016
2011-10-21,1,0.0010145817395719363,0.0010973380524934946,-0.010931268047826515,0.00895039987876153,0.9896688151107809
2011-10-25,1,0.0003703304745776813,0.00037064326867354384,-0.008202184530362651,0.00895039987876153,0.989959527612229
2011-10-27,1,0.0009499533516930044,0.0010295010879321524,-0.01091454725285346,0.004112602587466206,0.9902482756530145
2011-10-31,1,0.0008564090993610823,0.0009359642467446259,-0.008202184530362651,0.009910454508945458,0.9898409887952999
2011-11-02,1,0.0006466303008432376,0.0006951321477843093,-0.006615446568594797,0.009910454508945458,0.9907645462779935
2011-11-04,1,0.0005739024455699441,0.0005878227983630046,-0.008202184530362651,0.006071635444488125,0.9904595423132609
2011-11-08,1,0.0010909458603959351,0.0011853719276642672,-0.008202184530362651,0.003964421580586707,0.9910463095781771
2011-11-10,1,0.0006193138120054769,0.0006647147464687483,-0.007207834182919046,0.006071635444488125,0.9914883138974531
2011-11-14,1,0.0004512150159057655,0.0004574205878347187,-0.007848984061040124,0.003964421580586707,0.9918856668674485
2011-11-16,1,0.00019764764200625118,0.00022215266202858634,-0.007207834182919046,0.006031163933229182,0.9917602328832817
2011-11-18,1,0.0002830139626336502,0.00028912882688610797,-0.007207834182919046,0.006031163933229182,0.9916745846797564
2011-11-22,1,4.386153887268398e-05,5.697501049358359e-05,-0.005779922303566483,0.012230317885705718,0.9903536877564114
2011-11-25,-1,-0.0002341011676497907,-0.00018448482184961018,-0.005354301214648256,0.012230317885705718,0.9910083045523788
2011-11-29,0,0.0,0.0,-0.005779922303566483,0.009788091393984302,0.9915363775611905
2011-12-01,0,0.0,0.0,-0.006094849079866079,0.008624570471888627,0.9917079152771039
2011-12-05,1,0.000371084291465359,0.00038279817973253675,-0.006695130033889855,0.008624570471888627,0.9915516673954345
2011-12-07,1,0.00016773515331685522,0.00020812102699382495,-0.007394164218929565,0.008624570471888627,0.9912726336272425
2011-12-09,1,0.0003995218001650981,0.00040048899145333404,-0.006960569295362738,0.00539142435161589,0.9920063302689645
2011-12-13,1,0.0005229711512837414,0.0005538920556679494,-0.006094849079866079,0.00539142435161589,0.9921916806492385
2011-12-15,0,0.0,0.0,-0.006497287764442204,0.004055103757572376,0.9927581480709688
2011-12-19,-1,-3.73103672340889e-05,-3.8403181826339444e-06,-0.006733809707131945,0.004055103757572376,0.9927031981395146
2011-12-21,1,0.0009200168596829278,0.0009949444747946803,-0.006733809707131945,-6.356090624676496e-06,0.9942434921214497
2011-12-23,1,0.0009468585239979134,0.0010244116579552548,-0.006733809707131945,-3.26544294736511e-05,0.9935598482042634
2011-12-28,1,0.000964206190147094,0.0010366189820066854,-0.0075102032386558356,-0.0013624586335212732,0.9927158979239621
2011-12-30,1,0.00036730368337164945,0.0004324393241968,-0.006680499078873236,-0.0013624586335212732,0.9929828019152388
2012-01-04,0,0.0,0.0,-0.004789432170847112,0.002326902872637759,0.9936783399754558
2012-01-06,1,0.0005280191202550646,0.0005475552254871827,-0.004501867854784372,0.002326902872637759,0.9938475105296088
2012-01-10,1,0.0005654076475704455,0.0006112817885743945,-0.004501867854784372,0.0032260271811057877,0.9936705287873127
2012-01-12,-1,-0.001046260075938154,-0.0007962333857630097,-0.004601093413211002,0.0032260271811057877,0.994093130244668
2012-01-17,-1,-0.0005881735028661962,-0.0004428579792175373,-0.004382244508647888,0.0035798316950146213,0.9941107591759523
2012-01-19,0,0.0,0.0,-0.0036165497387642977,0.005527950931878307,0.9939892502207544
2012-01-23,0,0.0,0.0,-0.004382244508647888,0.0037399802042491887,0.9937753617101577
2012-01-25,1,9.227287739761378e-06,6.68831521350795e-05,-0.004382244508647888,0.006151699394306483,0.9939754854357513
2012-01-27,-1,-0.0016174809203872442,-0.0013501752309424938,-0.0026768245233817333,0.006633472150554604,0.9946785843661443
2012-01-31,-1,-0.0010972480072218172,-0.0008935166055953446,-0.0030177212410673966,0.006151699394306483,0.9949118543749432
2012-02-02,-1,-0.0013539599150391324,-0.0010996067640711205,-0.0030177212410673966,0.0037399802042491887,0.9953065428759031
2012-02-06,-1,-0.0012691806835026355,-0.0010439907109148132,-0.0034249981583299224,0.005955769458456106,0.994834734369215
2012-02-08,-1,-0.0007564094632246817,-0.0006337634581483045,-0.0030177212410673966,0.005955769458456106,0.9950907049618547
2012-02-10,-1,-0.0007994263044588835,-0.0006779039380007156,-0.0016381935818501614,0.006151699394306483,0.9946722794830473
2012-02-14,-1,-0.0006458128124529466,-0.0005377606878996189,-0.0030177212410673966,0.006099072393180579,0.994295113068616
2012-02-16,-1,-0.00044738774838731484,-0.00037552252978367633,-0.0031265662896315036,0.003856096093000488,0.994615285065346
2012-02-21,-1,-0.0004564461686163896,-0.0003992239567401297,-0.0018166291592299289,0.006099072393180579,0.9947409197814239
2012-02-23,1,0.00018604418807344656,0.0002194530773644913,-0.0031265662896315036,0.002427102233344649,0.9953225370449702
2012-02-27,-1,-8.35288390026317e-05,-4.0390554256027004e-05,-0.0031265662896315036,0.002427102233344649,0.9952544733983139
2012-02-29,-1,-0.00056247538589946,-0.00047019339697917896,-0.002874890216750092,0.003850533802430789,0.9956237343885042
2012-03-02,-1,-0.00036536882836178393,-0.0003034442612167898,-0.002874890216750092,0.0059215402530383736,0.9952167408505466
2012-03-06,-1,-0.0003154932634123771,-0.0002666502904462104,-0.001732737134936125,0.0057262253153381945,0.9954483992498819
2012-03-08,-1,-0.0003605980158560673,-0.0003001077700537203,-0.002874890216750092,0.0057262253153381945,0.9953381499068581
2012-03-12,-1,-6.952346532689426e-05,-3.274981139655747e-05,-0.003683515966942309,0.002747369496376829,0.9949327553041208
2012-03-14,-1,-0.00026687221495860054,-0.00023292176639062666,-0.003265803945048177,0.003359152112225055,0.9956031012437764
2012-03-16,-1,-4.848456924091045e-05,-2.6259175661616255e-05,-0.002971125048029985,0.0057262253153381945,0.9953250529552433
2012-03-20,-1,-0.0002399194454991783,-0.0001981332326348985,-0.003683515966942309,0.005111052906575896,0.9951653598709
2012-03-22,1,5.689573358467928e-06,3.124978653174495e-05,-0.0031001325760844373,0.0057262253153381945,0.9948254329977091
2012-03-26,0,0.0,0.0,-0.003516683767293567,0.005111052906575896,0.9951673276567751
2012-03-28,0,0.0,0.0,-0.0020182892633898424,0.006362957520025825,0.9947238938787684
2012-03-30,1,0.0001290409847487273,0.00014825033078675584,-0.0020182892633898424,0.005111052906575896,0.9949687221527854
2012-04-03,0,0.0,0.0,-0.003516683767293567,0.004824412129279958,0.9947153146639979
2012-04-05,0,0.0,0.0,-0.0034105941265465036,0.004824412129279958,0.9947175987528069
2012-04-10,0,-0.00010201024173777752,0.0,-0.00176232012052431,0.004824412129279958,0.9957030468041118
2012-04-12,-1,-0.00029861265732127127,-0.0002666381795351411,-0.0025641580774262702,0.005811035993640353,0.9951091491491519
2012-04-16,1,3.211627880391631e-05,4.069918673876392e-05,-0.0025641580774262702,0.004824412129279958,0.9954530033283376
2012-04-18,0,0.0,0.0,-0.00176232012052431,0.004209006644677193,0.9958178919620304
2012-04-20,0,0.0,0.0,-0.0025641580774262702,0.004209006644677193,0.9953996833852805
2012-04-24,-1,-2.401609916637644e-05,-2.1148943616557635e-05,-0.0014376521137387582,0.004643866819269657,0.9953115458988847
2012-04-26,1,0.0009016181081897463,0.0010361332443107052,-0.002642686697949906,0.004160232311914587,0.9961630626855797
2012-04-30,1,0.0006775484233171487,0.0007482936991570032,-0.002642686697949906,0.004160232311914587,0.9962026533982239
2012-05-02,0,0.0,0.0,-0.002642686697949906,0.0038962333521399186,0.9957922148946383
2012-05-04,0,0.0,0.0,-0.0029699549760376477,0.0038962333521399186,0.9955343593716863
2012-05-08,1,0.0004068052503607859,0.0004374827731151407,-0.0026914903051798045,0.004160232311914587,0.9949840407200188
2012-05-10,1,0.0005784710357796597,0.0006424606868007942,-0.0013574678659227203,0.004834946642282361,0.9948503922149092
2012-05-14,1,0.0005207048693993163,0.0005577063114100798,-0.0026914903051798045,0.004834946642282361,0.9944996948620503
2012-05-16,1,0.0015347999898929748,0.0018052971055346387,-0.0026914903051798045,0.006093042800523276,0.9939456193099357
2012-05-18,1,0.0014457060993271524,0.001705782201217236,-0.0013574678659227203,0.006488586838724979,0.9945006331497205
2012-05-22,1,0.0016045023645478297,0.0018911597678263506,-0.002418118805739014,0.006488586838724979,0.9944949566845689
2012-05-24,1,0.0016935420802833738,0.001993322907296157,-0.002418118805739014,0.005445893512777813,0.9943004421748453
2012-05-29,1,0.0012526457996464568,0.0014539173345174926,-0.0041554209001016034,0.005445893512777813,0.9941531265323135
2012-05-31,1,0.0007994630488937513,0.0009161410523051039,-0.003051834342562976,0.009312620658153404,0.994331335119753
2012-06-04,1,0.00032784231759707425,0.0003746786868352915,-0.001673477803338118,0.009312620658153404,0.9943249367016556
2012-06-06,1,0.0007681737282768462,0.0008598175055282256,-0.003171727616928226,0.007739363196080396,0.9945904572344542
2012-06-08,1,0.0012704822330249946,0.001424910692950376,-0.003171727616928226,0.004192555905730213,0.9952410950557895
2012-06-12,1,0.000812830480479149,0.0008853687960581995,-0.002821821180637313,0.004790970670282018,0.9953973936272187
2012-06-14,1,0.0013582735086997422,0.0015087713624460327,-0.003171727616928226,0.004790970670282018,0.9952759189471072
2012-06-18,1,0.0019340313248113006,0.002195079156950737,-0.003171727616928226,0.0023126923820208038,0.9953251940831379
2012-06-20,1,0.0010924611968712685,0.0011672689070501808,-0.003033949574523714,0.0030055566512256398,0.9956482057964173
2012-06-22,1,0.0009121899946770751,0.000986134833030474,-0.0035440704951881555,0.0030055566512256398,0.995599556108919
2012-06-26,1,0.0007989920980468826,0.0008673457033800806,-0.0035440704951881555,0.004528620038726273,0.9952265507349952
2012-06-28,1,0.0009358889141309102,0.0010111473480455845,-0.0035440704951881555,0.005544421992806869,0.9943939687616138
2012-07-02,1,0.0011863417423197107,0.001290301399117491,-0.004756147521701812,0.0032567070920672568,0.9940790923042108
2012-07-05,1,0.0006379653659169999,0.0006558687736122893,-0.004564213048021714,0.0032567070920672568,0.9943389362160152
2012-07-09,1,0.0006827032143699145,0.0007205569190995682,-0.004564213048021714,0.005544421992806869,0.993815520435257
2012-07-11,1,0.0008261916574004765,0.0008846219308225983,-0.005880079549253863,0.0032567070920672568,0.9934710407378108
2012-07-13,1,0.0007544166399841328,0.0007872350410309319,-0.005578648790266924,0.0019040224306126768,0.994134892780745
2012-07-17,1,0.0009531112979262267,0.001044554397397813,-0.005578648790266924,0.0019040224306126768,0.9938318485320855
2012-07-19,1,0.001031522318113543,0.0011469713183797309,-0.005578648790266924,0.0032718194488729584,0.9937947419230733
2012-07-23,1,0.0002726464993444841,0.0002938415012954926,-0.005150527260214059,0.004102427656678116,0.9943736764173806
2012-07-25,1,0.00017845569724175454,0.00020845025019989566,-0.005150527260214059,0.002878604880681956,0.9946145781967204
2012-07-27,1,0.0011640967524511095,0.0012557730242854612,-0.005578648790266924,0.001909059882881244,0.9950797601930217
2012-07-31,1,0.0005798210790684332,0.0005943732545767519,-0.005150527260214059,0.002878604880681956,0.9953023038481751
2012-08-02,1,0.0005895213396644583,0.0006343507565108073,-0.005785365133273818,0.002878604880681956,0.9944497643063196
2012-08-06,1,0.0004535887796128121,0.00045978268671404505,-0.005785365133273818,0.001909059882881244,0.9950196117205853
2012-08-08,-1,-0.0001222783736220191,-3.976447415819125e-05,-0.0039051971440314526,0.002878604880681956,0.9945540160309979
2012-08-10,1,5.0370718469425224e-05,0.00010159071443565368,-0.0052477473179141105,0.002878604880681956,0.993969845559217
2012-08-14,-1,-0.00029196822733976196,-0.00019032155623497992,-0.00602993175667853,0.002878604880681956,0.9938572591387516
2012-08-16,1,7.323054859904944e-05,0.00012619578358203794,-0.006909885530574275,0.0026202904649718327,0.992687304304066
2012-08-20,1,0.0001197062097271448,0.00017016547670373796,-0.007255960041213573,0.00099304637885857,0.9923338769262783
2012-08-22,-1,-9.200385001044089e-05,-3.273334097018309e-05,-0.007255960041213573,0.003339591882530099,0.992433606712539
2012-08-24,0,-2.7902940812116206e-05,1.560774305988912e-05,-0.006496742561686085,0.003411859452948875,0.9927690901537055
2012-08-28,1,5.411527564904106e-05,9.648378666988076e-05,-0.007255960041213573,0.002832578155879589,0.9927081038432867
2012-08-30,-1,-0.0013673497753261279,-0.001118867722120043,-0.004577158181633279,0.0029857931506473787,0.9938308672892247
2012-09-04,-1,-0.0012905227304581758,-0.001055683270978242,-0.004577158181633279,0.005137645149187424,0.993434165714047
2012-09-06,-1,-0.00022341482281190657,-0.00012518311468991388,-0.004577158181633279,0.0029857931506473787,0.9944892105300414
2012-09-10,0,0.0,0.0,-0.004061419432078313,0.0029857931506473787,0.9947860715653201
2012-09-12,0,0.0,0.0,-0.003963941452901075,0.005137645149187424,0.9946994170489837
2012-09-14,0,0.0,0.0,-0.003963941452901075,0.0029857931506473787,0.995686352793657
2012-09-18,0,0.0,0.0,-0.002734201786907195,0.0029857931506473787,0.9960535336754742
2012-09-20,0,0.0,0.0,-0.002734201786907195,0.004373002821211271,0.9956353634188321
2012-09-24,-1,-0.0004561888370216112,-0.00036476576660020884,-0.003667600533106533,0.0029240061403450895,0.9955534882258436
2012-09-26,-1,-0.0007505116749294821,-0.0006186648332948749,-0.004049611439959345,0.0020244128888671185,0.9958441484679743
2012-09-28,-1,-0.0007215931378609091,-0.0005915764721656721,-0.004377547941811794,0.0019864853556306474,0.9954476662744335
2012-10-02,-1,-0.0004941482271251648,-0.00039339316671956867,-0.004690726701337231,0.0019864853556306474,0.9945184000432934
2012-10-04,-1,-0.00037965223178536024,-0.0002970658167238261,-0.006263607982598867,0.0017163971124557033,0.9936495226903181
2012-10-08,-1,-0.0005357015236331069,-0.0004422817474891271,-0.007333228901044851,0.0017163971124557033,0.992879761718649
2012-10-10,-1,-0.0005152317769828553,-0.00041586177644117655,-0.008851337302934685,0.0009686985696961117,0.9929615877065606
2012-10-12,-1,-0.0008770435322768585,-0.0007409077158465308,-0.008851337302934685,0.0017163971124557033,0.9923777912329432
2012-10-16,-1,-0.0008772795829482636,-0.0007423227907525636,-0.008851337302934685,0.0011665304601701798,0.9920994262291857
2012-10-18,-1,-0.0001902446016736789,-0.00013399915353775016,-0.008851337302934685,0.0011665304601701798,0.9920740312271369
2012-10-22,-1,-0.0008877989915776738,-0.0007341443595470535,-0.006935958253630756,0.0014724817691754463,0.99263334381791
2012-10-24,-1,-0.001589777337612945,-0.0013318321915833011,-0.006935958253630756,0.002380461708858783,0.9925913651537638
2012-10-26,-1,-0.0014422598707363138,-0.0012323508132814514,-0.006206912324972453,0.0015430506941563216,0.9930524356677035
2012-11-01,-1,-0.0011062388347665626,-0.000969753480003519,-0.004694800124868439,0.0031338837608145243,0.9935763604328263
2012-11-05,-1,-0.002026452224692354,-0.0017696728087068588,-0.004750238170557977,0.0031338837608145243,0.9940740891953661
2012-11-07,-1,-0.0023302338468680927,-0.0020718308599007524,-0.003806978434311448,0.005740194126525873,0.9937075538378093
2012-11-09,-1,-0.002456759818494441,-0.002205583187650754,-0.003599991182011848,0.005740194126525873,0.9937192683393664
2012-11-13,-1,-0.0015808853831150759,-0.0014283901530249355,-0.003599991182011848,0.0033724947163156103,0.9947943389241635
2012-11-15,-1,-0.0022601941887442235,-0.002011638687165992,-0.00308521899260127,0.0033724947163156103,0.9949175668734639
2012-11-19,-1,-0.001809384347965664,-0.0016079850229246458,-0.00308521899260127,0.0048683506317322,0.9945623181850997
2012-11-21,-1,-0.0016468075527629011,-0.0014824083959215993,-0.0031095187834694147,0.005827744636741383,0.994004587380327
2012-11-26,-1,-0.000904538251239181,-0.0008502157855647932,-0.0038213921927437934,0.0048683506317322,0.9943398523335042
2012-11-28,-1,-0.001280737757553269,-0.0011615994613713002,-0.00430721724850752,0.0048683506317322,0.9942835928965433
2012-11-30,-1,-0.0007011802951192197,-0.0006531444872776655,-0.004566354195246762,0.0034818157561939404,0.9937537845514114
2012-12-04,-1,-0.0010955248021811384,-0.0010124296336756467,-0.0038213921927437934,0.005827744636741383,0.9931763535057696
2012-12-06,-1,-0.00012172565810257686,-7.857363587538088e-05,-0.00430721724850752,0.005827744636741383,0.9933342680754969
2012-12-10,-1,-6.693585286455308e-05,-1.5929961944148742e-05,-0.004566354195246762,0.005827744636741383,0.9931493887425331
2012-12-12,0,-3.8205246825489414e-05,1.7321220035877802e-05,-0.004566354195246762,0.005827744636741383,0.9929785065686323
2012-12-14,-1,-0.0004652204256314571,-0.00044248630356733866,-0.004566354195246762,0.005827744636741383,0.9931016814001844
2012-12-18,0,0.0,0.0,-0.004566354195246762,0.0030095480841678766,0.994002134759853
2012-12-20,0,0.0,0.0,-0.0035416182067705584,0.004764006997708565,0.9939642046761824
2012-12-24,1,0.0004522565556267403,0.0005822635624320617,-0.0026675676635766568,0.007258422377162781,0.9938716042965977
2012-12-27,0,0.0,0.0,-0.002428272691974972,0.007258422377162781,0.993850183747329
2012-12-31,0,0.0,0.0,-0.0011754018096854744,0.007258422377162781,0.994357364709189
2013-01-03,0,0.0,0.0,-0.002428272691974972,0.004764006997708565,0.995056228690674
2013-01-07,0,0.0,0.0,-0.0019877063264754774,0.004125752984741932,0.9960831508013906
2013-01-09,1,0.0004727420336864461,0.0005799187558745481,-0.0007426727916051593,0.004125752984741932,0.9966597957456473
2013-01-11,1,0.0008102676832582044,0.000982504830221572,-0.0007426727916051593,0.0033171838021886823,0.9968636746122075
2013-01-15,1,0.0009848648752614844,0.0011885546437071912,-0.000183979309811369,0.004709490471672954,0.9968288057129903
2013-01-17,1,0.0006807884490074194,0.0008227421783307796,-0.000183979309811369,0.005889282120369916,0.996337246224732
2013-01-22,1,0.0012970780626933875,0.0015189710858706266,-0.000183979309811369,0.005427929482761862,0.9964001144115523
2013-01-24,1,0.0016993893355742775,0.0019889803546389384,-0.0010134409638684937,0.005427929482761862,0.9959305781567995
2013-01-28,1,0.0012197645969391263,0.0013917989218764028,-0.0022343866698798323,0.005427929482761862,0.9950437893689023
2013-01-30,1,0.0017034726372756924,0.0019404487952370247,-0.0022343866698798323,0.005427929482761862,0.9950384299392631
2013-02-01,1,0.0019277583523490203,0.0022522956057115535,-0.0010134409638684937,0.006016339519600051,0.9951785137993889
2013-02-05,1,0.0017262655508469061,0.00199257024046748,-0.000773134348411413,0.006016339519600051,0.9953381935669132
2013-02-07,1,0.0015487384275112246,0.0017699110073822308,-0.00151346682350859,0.006016339519600051,0.9948300742159242
2013-02-11,1,0.0015570682716958848,0.0017821052588825835,-0.003555289179571341,0.007549086419296562,0.9943525107046052
2013-02-13,1,0.0015441238357614198,0.0017422943808558472,-0.003555289179571341,0.007549086419296562,0.9942835986988563
2013-02-15,1,0.0018787584610023352,0.0021433144727939805,-0.003792966550046307,0.007549086419296562,0.9942010944747796
2013-02-20,1,0.0025745935033186437,0.0029440892054519085,-0.003792966550046307,0.007549086419296562,0.9943786748083419
2013-02-22,1,0.002719717291215123,0.0030927684130231956,-0.004914696484836887,0.0061591719248458255,0.9944721411244855
2013-02-26,1,0.001962668760380309,0.0022381160719289785,-0.0013223986209819204,0.007549086419296562,0.995208180727858
2013-02-28,1,0.00245206613278031,0.0028018388343257956,-0.0014402129037100766,0.007549086419296562,0.9949610632412688
2013-03-04,1,0.0026492378543560265,0.003024029970765706,-0.0014402129037100766,0.007466304386118856,0.9949548039409567
2013-03-06,1,0.002489652594053474,0.0028302648957778584,-0.0014402129037100766,0.00772442889324869,0.9946837731589374
2013-03-08,1,0.0021605745304738456,0.0024622632519858707,-0.00013157920594553194,0.00772442889324869,0.9951913383019169
2013-03-12,1,0.0019595424325492554,0.002209049842052261,-0.00013157920594553194,0.007494289509965897,0.9953060929053088
2013-03-14,1,0.0020843653547038318,0.002348308802598247,-0.0014402129037100766,0.007494289509965897,0.9953573614854017
2013-03-18,1,0.002390732046888746,0.002730854059818744,-0.0014402129037100766,0.007568978211415133,0.9949172360969829
2013-03-20,1,0.002523831201128487,0.002853621812181132,-0.0027242945370397073,0.007522630792077491,0.9945037756919018
2013-03-22,1,0.002001785069900326,0.0022383362292591183,-0.001231708971546646,0.008261200828513709,0.9939753486660347
2013-03-26,1,0.0023369705064026805,0.0026047589036525243,-0.001231708971546646,0.007522630792077491,0.994435189889101
2013-03-28,1,0.002513494193144722,0.0027935430922256936,-0.0020987827405494156,0.007381507560030892,0.9945044264892783
2013-04-02,1,0.002173621727085858,0.002367086972058969,-0.0020987827405494156,0.007453735736835813,0.9945724276887328
2013-04-04,0,0.0,0.0,-0.0031592028881101374,0.005854724589114997,0.9940541590974356
2013-04-08,0,0.0,0.0,-0.004260222548210702,0.004546529601609078,0.9940163931812557
2013-04-10,0,0.0,0.0,-0.006304556618127202,0.005111621470424736,0.9937370835804512
2013-04-12,0,0.0,0.0,-0.007098900426236977,0.005686448994829117,0.9928864200215771
2013-04-16,1,0.002586138427678632,0.002712409806255767,-0.006304556618127202,0.005686448994829117,0.9931545877040827
2013-04-18,1,0.0022628388313718864,0.00233626079165967,-0.0049753156960132255,0.004471416936664886,0.9936013088401633
2013-04-22,1,0.0029328811450578,0.0031068165621645875,-0.006256755941239543,0.004471416936664886,0.9936617007758268
2013-04-24,1,0.0020711460156411393,0.002179735181818596,-0.006913881787194713,0.004471416936664886,0.9924656701820548
2013-04-26,1,0.0021920888244517335,0.0023357408001710806,-0.007098900426236977,0.003742549776795646,0.991370478691695
2013-04-30,1,0.0020651704676726114,0.002152415882002578,-0.007606532341804338,0.002258798707371677,0.9910384725772854
2013-05-02,1,0.0018010690144614296,0.0019011182275211684,-0.007782504027137059,0.002258798707371677,0.9911757055353841
2013-05-06,1,0.0013005837777136115,0.001328641727856403,-0.009952206064343284,0.0023121529963286433,0.991035143116214
2013-05-08,1,0.0011424117003975046,0.0011444954435608024,-0.012913235968140705,0.0023121529963286433,0.9901577142937708
2013-05-10,1,0.00035163580849195306,0.00046117527419364324,-0.009952206064343284,0.002848943482250607,0.9911331773678871
2013-05-14,1,0.0010932254079395614,0.0011076344211848276,-0.009952206064343284,0.0021591391963995885,0.9911102095919209
2013-05-16,1,0.0007855155979176703,0.0008186091287165789,-0.009952206064343284,0.0021591391963995885,0.9903243669479249
2013-05-20,1,0.000783540080550938,0.0008331667304761804,-0.009952206064343284,0.0032117959306216057,0.9905520143258777
2013-05-22,-1,-0.0005396026685494065,-0.00031719260505945956,-0.012995262695052209,0.0032117959306216057,0.9895849080775765
2013-05-24,-1,-0.0016405773090524722,-0.0012695936831108596,-0.009952206064343284,0.005106617242078304,0.9898655503317451
2013-05-29,-1,-0.0016226371381741053,-0.001291399562790572,-0.00854858285488072,0.008672527110887052,0.989385112216279
2013-05-31,-1,-0.0022478807366807627,-0.0018276050716481197,-0.0068485392015050755,0.008672527110887052,0.9890620598848341
2013-06-04,-1,-0.0032135562495705823,-0.0026592622800877116,-0.0068485392015050755,0.008672527110887052,0.9891091346912714
2013-06-06,-1,-0.0034262161214298355,-0.0028539163522598716,-0.0027938324382408564,0.006490585424908218,0.9904483518415361
2013-06-10,-1,-0.003104091954567671,-0.002570372000502565,-0.0027938324382408564,0.008865393405335608,0.9900698732359943
2013-06-12,-1,-0.0035667074238321227,-0.0029729962816670364,-0.0009314774500020659,0.011434426196631667,0.9888815777034722
2013-06-14,-1,-0.0026534902668503752,-0.002199440317717962,0.00047661182355624105,0.011434426196631667,0.9893642381515972
2013-06-18,-1,-0.0018293279503560507,-0.001486777074499839,-0.0009314774500020659,0.008865393405335608,0.9906214189277412
2013-06-20,-1,-0.0038650688790523155,-0.003282052421970923,0.0003273502789299165,0.011258119110438305,0.9906358300748338
2013-06-24,-1,-0.002838981643049257,-0.00240244213697053,0.0003273502789299165,0.008865393405335608,0.991971770829878
2013-06-26,-1,-0.0022653347381615943,-0.0018809678270542802,-0.0009314774500020659,0.008231922852948425,0.9922756420034095
2013-06-28,-1,-0.0018906173674454515,-0.0015526631543593922,-0.0018701274597769336,0.008231922852948425,0.9928545198924552
2013-07-02,-1,-0.0022540543674255935,-0.0018723683608171493,-0.0015357272321549118,0.008231922852948425,0.9931453751338802
2013-07-05,-1,-0.002387715624229227,-0.0019897680263477185,-0.0005049449938187135,0.008231922852948425,0.9928629995611256
2013-07-09,-1,-0.0014997467365076944,-0.0012167956209310753,-0.0018084078984611392,0.003169939021993338,0.9940432994478616
2013-07-11,-1,-0.0006197335768433435,-0.00044419161100855406,-0.0018084078984611392,0.004827551274407817,0.9945688934982168
2013-07-15,1,0.0005301985876600206,0.0005395967344466051,-0.0030935435051738557,0.002736680727593159,0.9955279822881479
2013-07-17,1,0.0004849270864166467,0.00048561449694627644,-0.0030935435051738557,0.002894485295456286,0.9944888339078732
2013-07-19,1,5.973510332649991e-05,0.00014966151649535727,-0.004406740787422016,0.002736680727593159,0.9942096935989209
2013-07-23,1,0.00039705624313418804,0.0004254970045180876,-0.004406740787422016,0.002894485295456286,0.9938346392538131
2013-07-25,1,0.00016701739819805275,0.0002097109793219226,-0.004406740787422016,0.002894485295456286,0.9941948665724708
2013-07-29,1,0.00011764581878183659,0.0001669282652838639,-0.00555249047065839,0.004001190094796662,0.9930877839783194
2013-07-31,-1,-0.0002492396377105515,-0.00013375536662161409,-0.00555249047065839,0.0047020653095428844,0.9928690265341222
2013-08-02,-1,-0.00018024574371088145,-7.592892058069502e-05,-0.00555249047065839,0.0047020653095428844,0.9926753668488608
2013-08-06,-1,-0.00019456270230732234,-9.651077324336719e-05,-0.008295679996670151,0.0047020653095428844,0.9924406741570782
2013-08-08,1,0.0004381603439358402,0.00046220773413416125,-0.008295679996670151,0.0029345682667168377,0.9929798285586993
2013-08-12,1,0.0005275353206173101,0.0005394513503879442,-0.008295679996670151,0.004628709467681597,0.992496485889051
2013-08-14,-1,-0.0005704862917673115,-0.0004343035973615502,-0.00471036020571241,0.007092314520106864,0.9927640991591902
2013-08-16,-1,-0.00119484725520471,-0.0010168236122018648,-0.002849429022009811,0.008282203379410472,0.9924892538136839
2013-08-20,-1,-0.0006495530501226358,-0.0005546500598381323,-0.002849429022009811,0.009006220409571329,0.9911029187077166
2013-08-22,-1,-0.000543890076443297,-0.0004761273600008797,-0.002898514894911813,0.009006220409571329,0.991192425288565
2013-08-26,1,0.00018062661839276354,0.00023273349352202552,-0.002887973012624658,0.007170688287106286,0.9921844312071358
2013-08-28,1,0.0006305736219475797,0.0007639685419340947,-0.002887973012624658,0.007170688287106286,0.9921771074879908
2013-08-30,1,0.0004416997232984952,0.0005543525171849702,-0.002790483568790961,0.007170688287106286,0.992225830026127
2013-09-04,1,1.1836006634272897e-05,6.731827766838863e-05,-0.002733182140630739,0.007170688287106286,0.9926284466135739
2013-09-06,-1,-0.00010451441269209994,-7.350620986004751e-05,-0.002790483568790961,0.007170688287106286,0.9921952596397761
2013-09-10,1,0.0004621928224086435,0.0005683083457339417,-0.002887973012624658,0.00601839889167073,0.9925156817583142
2013-09-12,1,0.0017009200906029356,0.0020143101410579336,-0.002887973012624658,0.00601839889167073,0.9923968898506172
2013-09-16,1,0.0025383762427466207,0.002967688829264249,-0.0036251663820996275,0.005799257665861609,0.993010397892829
2013-09-18,1,0.003773431852755366,0.004360384546436631,-0.0055633379922799524,0.004585149457368694,0.9923545649976904
2013-09-20,1,0.003277623079202952,0.0038200473390212555,-0.0036251663820996275,0.005799257665861609,0.9931345743435024
2013-09-24,1,0.0031733095572986326,0.003680908681348234,-0.003389930325876318,0.005875807687052122,0.9929844400673465
2013-09-26,1,0.0031273448056598316,0.0036046953365930505,-0.003389930325876318,0.004585149457368694,0.9928250725032326
2013-09-30,1,0.002929072725175285,0.00338015502523379,-0.0032769209386406383,0.006262049701129333,0.9928550198895456
2013-10-02,1,0.0025417906762363225,0.002912943146045562,-0.005062086190432237,0.006262049701129333,0.9925464037149636
2013-10-04,1,0.002659950631667797,0.0030702804614065934,-0.004516967599615231,0.006262049701129333,0.9925676148045374
2013-10-08,1,0.0022706192048853806,0.0026257097129077527,-0.0030900789978187478,0.008110734008639861,0.9928289475771077
2013-10-10,1,0.00292164749787367,0.003375172099775175,-0.004516967599615231,0.008110734008639861,0.9921269125022686
2013-10-14,1,0.0023724645929773533,0.002698998427229619,-0.0030900789978187478,0.008110734008639861,0.9923701426564684
2013-10-16,1,0.0021039834531185486,0.0023347151986428736,-0.002869629050094612,0.008110734008639861,0.9933998730042113
2013-10-18,1,0.002133193131815659,0.002342361468563632,-0.0022713273744085724,0.008110734008639861,0.993389908173311
2013-10-22,1,0.002204010330694669,0.0023981870587600597,-0.0022713273744085724,0.007337264706125809,0.9937320499135825
2013-10-24,1,0.0016520462190939178,0.0017344280898186756,-0.0037115813552490487,0.007337264706125809,0.9931070049487261
2013-10-28,1,0.001469772429808647,0.001507430279352956,-0.003631573793294963,0.006940973350919884,0.9932608180146506
2013-10-30,1,0.001317746312238347,0.0013464194667733669,-0.004132908512559198,0.006940973350919884,0.9929407065674527
2013-11-01,1,0.0010193932610169354,0.0010526006336250174,-0.004735218134170703,0.006940973350919884,0.9927833238870122
2013-11-05,1,0.001395113205426073,0.0014316327539220777,-0.007397542645195538,0.006940973350919884,0.9923674558415226
2013-11-07,1,0.0019435454311466406,0.002084546566455767,-0.007397542645195538,0.006940973350919884,0.9926148284558838
2013-11-11,1,0.0010682962749097534,0.001141601645444417,-0.009479449543242091,0.004825139759075741,0.9922847307553896
2013-11-13,1,0.0015361462189278246,0.0015394911676924802,-0.009479449543242091,0.004001180515698506,0.9924172870079508
2013-11-15,1,0.002321026752894086,0.002462292115940115,-0.009479449543242091,0.0022263302133134198,0.9926348177069857
2013-11-19,1,0.0024018017570483644,0.002565857991852772,-0.009479449543242091,0.0022263302133134198,0.9921822440566704
2013-11-21,1,0.0015425356637622074,0.0015721746983322596,-0.007397542645195538,0.0019330458088840654,0.9931233275416592
2013-11-25,1,0.0010820615602905401,0.0011202383576050662,-0.007397542645195538,0.004065397195310586,0.9930001656061214
2013-11-27,1,0.0005757949705938563,0.0006429705845578202,-0.004907103987358515,0.004065397195310586,0.9939328168026181
2013-12-02,1,0.0004806004261422312,0.000525895785761522,-0.004033331640974623,0.004467699952594834,0.9943108501338586
2013-12-04,1,0.0006966591731731187,0.0007122918552384687,-0.004033331640974623,0.004065397195310586,0.9941756927054437
2013-12-06,1,0.0007078329698930106,0.0007128776870919312,-0.0038082440317314353,0.004065397195310586,0.9945464034018826
2013-12-10,1,0.00014126921089006772,0.00019826482096965207,-0.0016765121629621475,0.004467699952594834,0.9941631454494155
2013-12-12,1,0.00013273775657426067,0.00018702909054424724,-0.0016765121629621475,0.005560800078142428,0.9930187124154127
2013-12-16,1,7.064783911289895e-05,0.00014996679229032029,-0.0036327940128482363,0.005560800078142428,0.9928838746292185
2013-12-18,1,0.0005329501675160491,0.0005617538008299936,-0.0036327940128482363,0.0019763482684638173,0.9931681046068016
2013-12-20,1,0.0002656196268040217,0.0003302496621768171,-0.002994268665551492,0.005560800078142428,0.9929254290044137
2013-12-24,1,0.00027016136347583525,0.0003336490787721741,-0.004321801145994041,0.003856238270385939,0.9927508164127965
2013-12-27,0,-2.0880536233496927e-05,8.299441579763393e-05,-0.003913112108364966,0.005352390133508774,0.9925429599541673
2013-12-31,1,0.00042020428379315627,0.00044479598444644347,-0.003913112108364966,0.007799127222036834,0.9921228365412086
2014-01-03,-1,-0.00044472389761072013,-0.0003095426970118604,-0.003913112108364966,0.009579534810393286,0.9918777002335929
2014-01-07,-1,-0.0002685319211099662,-0.00011406391976194659,-0.0070968701695572674,0.007799127222036834,0.9918145154568461
2014-01-09,1,4.683641504113186e-06,0.00017656869378805917,-0.0070968701695572674,0.007799127222036834,0.9921156289450899
2014-01-13,1,0.0004949041966653435,0.0006041298472229076,-0.003913112108364966,0.009047788223270797,0.9919802402412268
2014-01-15,0,-6.567768295288998e-05,0.00011911603203547502,-0.002521149732195047,0.010022205722072325,0.9913420125245733
2014-01-17,-1,-0.00019585581962052606,-1.0747500761444108e-05,-0.002685559961190385,0.010022205722072325,0.9910880916032492
2014-01-22,1,0.0002843061448208335,0.0004054058922520474,-0.003207468015463808,0.011756687657958651,0.99101990970586
2014-01-24,-1,-0.0007411233032015876,-0.000481666827775344,-0.0023106589931691955,0.011756687657958651,0.991633486867524
2014-01-28,-1,-0.0009921701726188358,-0.0006782650507064467,-0.00248462834459367,0.011756687657958651,0.9910864141365519
2014-01-30,-1,-0.0007494570088566032,-0.000455139722327912,-0.0027163986231802427,0.010161447896591182,0.9915787107195363
2014-02-03,-1,-0.0005358808903787899,-0.0002924460583658739,-0.0027163986231802427,0.009669253503460797,0.9916774185913299
2014-02-05,-1,-0.0010095491713418736,-0.0007426313418564357,-0.003207468015463808,0.009669253503460797,0.9917927801747334
2014-02-07,1,0.00015098148561167214,0.0002422885994860836,-0.003207468015463808,0.007558739679965573,0.9921334075159973
2014-02-11,1,0.0019470308471141202,0.0021567056816394195,-0.0037340365509578944,0.006184764541916291,0.9923452771602036
2014-02-13,1,0.0022666463410768176,0.0024772926190510733,-0.0037340365509578944,0.006184764541916291,0.9927046505906594
2014-02-18,1,0.0022646707208936233,0.0024756815968514276,-0.0034258246640985514,0.007070716871295546,0.9926009968481684
2014-02-20,1,0.0025569316009592417,0.002812780821005177,-0.005298526637491429,0.005937334805740231,0.9924975316299091
2014-02-24,1,0.0021860558230098635,0.0023773282802742016,-0.005298526637491429,0.005937334805740231,0.9925961448507944
2014-02-26,1,0.001276753364471471,0.001337939188752004,-0.004201768405900279,0.005937334805740231,0.9937261658786749
2014-02-28,1,0.0009482096480450098,0.0009565803205833177,-0.004201768405900279,0.007070716871295546,0.9936658200229177
2014-03-04,1,0.0005387270038780382,0.0006022138069722018,-0.004201768405900279,0.005937334805740231,0.9942010571686355
2014-03-06,1,2.650315553802949e-05,0.00012429501512101183,-0.002313268917556583,0.005937334805740231,0.9947222045375033
2014-03-10,1,0.00014288405002716305,0.00023021532546112228,-0.004201768405900279,0.004627790217026273,0.9946930794821109
2014-03-12,1,0.0006203717559886016,0.0006417262171920515,-0.0029502707535406384,0.004627790217026273,0.9944596691000773
2014-03-14,1,0.0011512949094396627,0.001212187465588104,-0.004648589340618311,0.004143180527068099,0.9942194552881335
2014-03-18,1,0.0015422493253967912,0.0016734091961854794,-0.004648589340618311,0.004192367258971756,0.9940448772409535
2014-03-20,1,0.001018865289924436,0.001071124489098899,-0.004648589340618311,0.004435210605477949,0.9934670071844482
2014-03-24,1,0.0009741760845833436,0.001023485814904159,-0.003459537718579286,0.004435210605477949,0.9938237882712673
2014-03-26,1,0.0010866556675608449,0.00113677893955029,-0.003459537718579286,0.005249235196546304,0.9937777168984532
2014-03-28,1,0.0013538419556368615,0.0014364835917391604,-0.003459537718579286,0.005869654267616363,0.9934389200238989
2014-04-01,1,0.0010418241698763086,0.0010950192005300798,-0.002877767584445996,0.005869654267616363,0.9937969703229378
2014-04-03,1,0.0008682598270382796,0.0009220471478464995,-0.002877767584445996,0.005869654267616363,0.9930957235546363
2014-04-07,1,0.0006734325116055397,0.00071571476524398,-0.002877767584445996,0.005869654267616363,0.9929836082482102
2014-04-09,1,0.001248699942611388,0.0013798814397526695,-0.004713866217978471,0.005869654267616363,0.9922646208293807
2014-04-11,1,0.001110397396623149,0.0012583127744046788,-0.007377297889516199,0.005869654267616363,0.9916726054721545
2014-04-15,1,0.0016860947905396324,0.0019146046274038592,-0.007377297889516199,0.006549839948500973,0.9916503350230568
2014-04-17,1,0.0014100980000538508,0.0015694647630567164,-0.00703445655823506,0.005869654267616363,0.9923582685475983
2014-04-22,1,0.0013320524610775362,0.0014662463041350306,-0.007377297889516199,0.005869654267616363,0.9912748501328762
2014-04-24,1,0.0011889339284234161,0.0012606159264823003,-0.007377297889516199,0.00594610411934234,0.9910041514568757
2014-04-28,1,0.001437017889594324,0.0015134512583285555,-0.007377297889516199,0.003733949449969351,0.9912165229899603
2014-04-30,1,0.001180565658834583,0.0012113617194670335,-0.009543293560414272,0.003733949449969351,0.9906574414168224
2014-05-02,1,0.00027851359443092477,0.00035434257767911267,-0.007377297889516199,0.006510936418858231,0.9912569897031628
2014-05-06,-1,-0.00030700012902949063,-0.00013260656112238267,-0.007267599963668455,0.006510936418858231,0.9914803678735999
2014-05-08,-1,-0.0002062050054413312,-3.881740485378414e-05,-0.006997890582952479,0.004514908542837143,0.9929675673919784
2014-05-12,-1,-0.0011776695186918695,-0.0009021298096118561,-0.005865746732350131,0.004514908542837143,0.9931964413012554
2014-05-14,-1,-0.0002555947041130781,-0.00011105614805635591,-0.006997890582952479,0.003645356582676694,0.993304676652586
2014-05-16,-1,-0.0005860730178133442,-0.000392353591318646,-0.005920207162426062,0.004091037129288712,0.9934264678829261
2014-05-20,-1,-0.0014478988616717038,-0.0011533931344926364,-0.005434776513185993,0.005051226512811796,0.9929877062210697
2014-05-22,-1,-0.0011293652410850384,-0.0008599008095552346,-0.005920207162426062,0.005051226512811796,0.9926783244603918
2014-05-27,-1,-0.0013602413850149968,-0.001069029906491299,-0.005434776513185993,0.005051226512811796,0.9925984173611866
2014-05-29,-1,-0.0023906987719909635,-0.001942972446201893,-0.005434776513185993,0.006125484812535252,0.9918994978421595
2014-06-02,-1,-0.0014267186727921612,-0.0011241162331749458,-0.005434776513185993,0.005051226512811796,0.9922995200312563
2014-06-04,-1,-0.0006744136653368773,-0.0005042731201979958,-0.006191284672722048,0.005051226512811796,0.9915073307829799
2014-06-06,-1,-0.0005502387392755819,-0.0004162351887671208,-0.00836729469838595,0.005051226512811796,0.991046226921381
2014-06-10,-1,-0.0015031991401117906,-0.0012411839328229334,-0.005836489835281694,0.005051226512811796,0.9914562661104993
2014-06-12,-1,-0.0020213718531975917,-0.0016876021499948044,-0.00548988191709319,0.006991147744019027,0.9913971047179833
2014-06-16,-1,-0.0014806137973970334,-0.001232887954130689,-0.007205758159798705,0.009219900777814288,0.9910623094977361
2014-06-18,-1,-0.0011013509347575258,-0.0008606399354526203,-0.008342454328295083,0.005462020356917213,0.9916133439144535
2014-06-20,-1,-0.0007939319297995791,-0.0005981753170926734,-0.007205758159798705,0.005462020356917213,0.9919340869524076
2014-06-24,-1,-0.0006225380734790401,-0.0004654700708643386,-0.007205758159798705,0.005408211963496168,0.9921163432527927
2014-06-26,-1,-0.00017119285471533244,-7.009507248525207e-05,-0.006832740565759396,0.003948166954495704,0.9930335505236308
2014-06-30,-1,-0.0005481984911818788,-0.0003601308368113439,-0.007302630573729571,0.003948166954495704,0.9924005895323236
2014-07-02,-1,-0.0012582668177016872,-0.001020292427117158,-0.008732211172656188,0.003948166954495704,0.9920997413742465
2014-07-07,-1,-0.0009522860022385051,-0.0008121198210987637,-0.00837217811150892,0.003948166954495704,0.9925147006811434
2014-07-09,-1,-0.0002181572061686292,-0.0002068573181918547,-0.010122945485603996,0.003662166643807174,0.9911120851783052
2014-07-11,1,1.2372475752335865e-05,3.574619754996492e-05,-0.010122945485603996,0.005144922151264098,0.9897392748625204
2014-07-15,1,0.00021775117372941204,0.0002884774617871069,-0.010122945485603996,0.003662166643807174,0.9902950415557876
2014-07-17,0,-5.054332431338163e-06,3.0845359482917074e-05,-0.00956463321931971,0.005029827388038953,0.9903909761862321
2014-07-21,1,4.6833224916125347e-05,4.950470078150415e-05,-0.00956463321931971,0.005029827388038953,0.9905943457868465
2014-07-23,1,2.0010092050763103e-05,3.6086342348126986e-05,-0.00956463321931971,0.00798793195913137,0.9901611984920925
2014-07-25,-1,-0.00024757345167742957,-0.00019602813739603024,-0.00956463321931971,0.00798793195913137,0.9904744250494071
2014-07-29,-1,-0.0006989916982161701,-0.0005563164197847758,-0.008568012327699945,0.007840816179015374,0.9910636150241113
2014-07-31,-1,-0.0019465843481372782,-0.0016683294018407407,-0.0035001509427573635,0.007840816179015374,0.9920123527558645
2014-08-04,-1,-0.0020759751981637474,-0.0018013227926693901,-0.0035001509427573635,0.007840816179015374,0.9915572473840161
2014-08-06,-1,-0.0030053279834382114,-0.002649912298019771,-0.0013119485943091514,0.008447209008607353,0.9917056855424535
2014-08-08,-1,-0.0008756848727644374,-0.000788318982772744,-0.00273541621019115,0.007840816179015374,0.9939051528867108
2014-08-12,-1,-0.001314175349210406,-0.001156333143705046,-0.003611347430599463,0.007840816179015374,0.9931582655857654
2014-08-14,-1,-0.0007938324544476634,-0.0006977217637023408,-0.005192679427667902,0.006292820559870647,0.992711432534239
2014-08-18,-1,-0.00032503284366927463,-0.0003008765030596273,-0.005192679427667902,0.006292820559870647,0.9927814450960927
2014-08-20,1,0.0004389883458786324,0.0005368484483222677,-0.006547928313348173,0.005396172425096468,0.9930720972707547
2014-08-22,1,0.0001872581457426355,0.0002305477649909763,-0.0080057340772372,0.005666244234416961,0.9924411810578522
2014-08-26,-1,-3.5718906441497287e-05,-3.000638587822567e-05,-0.006547928313348173,0.005396172425096468,0.9931362193958202
2014-08-28,1,4.3976699299160245e-06,2.2282666698691596e-05,-0.0072045268488079,0.005666244234416961,0.9928034116845925
2014-09-02,1,0.0001394662170275706,0.00017336505747528135,-0.006390873974188751,0.006089617379865698,0.9928355722204466
2014-09-04,1,0.0003091665802315045,0.00033680599511091156,-0.006390873974188751,0.005856940072125749,0.9932348985787693
2014-09-08,1,0.0009271720726786109,0.0010731105158227404,-0.005411545606154478,0.005856940072125749,0.9938119174613101
2014-09-10,1,0.0002814580176464309,0.00034653338564183975,-0.003131958707525497,0.006089617379865698,0.9933127290431082
2014-09-12,-1,-0.00015693264579368123,-0.00014247972520339028,-0.003131958707525497,0.006089617379865698,0.9930693602405413
2014-09-16,1,0.000478516435366112,0.0005992857333767234,-0.0072045268488079,0.005856940072125749,0.9920588669501583
2014-09-18,1,0.0004417945140242896,0.000603413481798486,-0.007515867970136715,0.006089617379865698,0.9901584394137969
2014-09-22,1,0.0003305066222237617,0.00047664780463198264,-0.0038482784449446012,0.009277363125898636,0.9898286147794776
2014-09-24,-1,-0.00022942178363323393,-0.00021271168007992665,-0.0015476489895434832,0.009277363125898636,0.9892813789640943
2014-09-26,-1,-0.0002947798174984817,-0.0002922181001254654,0.00039263830645344666,0.009277363125898636,0.989364178676339
2014-09-30,1,0.0005426696016396194,0.000675066107010497,-0.0010584074321878028,0.00923006803091737,0.990114124602915
2014-10-02,1,0.00013716223561488773,0.00015330715938862658,-0.005727089590381025,0.010481657075952574,0.9886727594463416
2014-10-06,1,0.0009331484990937452,0.00109755235415677,-0.005727089590381025,0.010833216710069208,0.9883903933081586
2014-10-08,1,0.001999124373953792,0.0022955293956933684,-0.007957893228535476,0.010833216710069208,0.9876849529617187
2014-10-10,1,0.0007191724303894901,0.0007966829812678873,-0.007957893228535476,0.011045419628525751,0.9875592668477031
2014-10-14,-1,-0.00042590989712844464,-0.000387950902103844,-0.005330779604428948,0.011045419628525751,0.9884083187365456
2014-10-16,-1,-0.0006289592355150937,-0.0005563408103899925,-0.006085931679437947,0.010833216710069208,0.9898771915228618
2014-10-20,0,-1.831507873187817e-05,1.0660679210835005e-05,-0.006550905870188879,0.008393936544268,0.9901681892170321
2014-10-22,1,0.0006337463001500461,0.0007237807213539073,-0.006550905870188879,0.008393936544268,0.9904459894109372
2014-10-24,1,0.001143661116432555,0.0013160281514389902,-0.006550905870188879,0.00804691624154447,0.9904377161035778
2014-10-28,1,0.0010586099499794023,0.0012122448543147452,-0.006550905870188879,0.00804691624154447,0.9903936135546503
2014-10-30,1,0.0011360781888685352,0.001256917988542997,-0.006085931679437947,0.006765945048147945,0.9915590361423716
2014-11-03,1,0.0014164439941660631,0.0015510426282658476,-0.006085931679437947,0.006707520980424575,0.9920067974710455
2014-11-05,1,0.002358426338602853,0.0026306443983482577,-0.005825074235055948,0.0042910591242254015,0.9936780403111956
2014-11-07,1,0.0025203579511453283,0.0028605523693042605,-0.005825074235055948,0.0030738880224234983,0.9943903375749192
2014-11-11,1,0.002611289945767839,0.0029756345969532043,-0.005859406337455376,0.002803504838360376,0.9943498122342381
2014-11-13,1,0.0016692320635635079,0.0019055707904195316,-0.004228613994520913,0.0030738880224234983,0.9944793382971007
2014-11-17,1,0.0018435720788822713,0.0021285231718349462,-0.004228613994520913,0.002803504838360376,0.9945299867003103
2014-11-19,1,0.0020790245278021484,0.0024067029167802088,-0.004228613994520913,0.00411050717643971,0.9924509673236076
2014-11-21,1,0.001891646054555668,0.0021315097158369355,-0.004228613994520913,0.004015873909280062,0.9921039534378969
2014-11-25,1,0.0012692071636807279,0.001398308707685726,-0.0036074515841026567,0.009491084093916143,0.9916670416877766
2014-11-28,1,0.0012713564293167251,0.0014093633612461839,-0.0036074515841026567,0.012667550953356808,0.9908334549809398
2014-12-02,1,0.0014574825436683505,0.0016281940654511553,-0.008255403802549913,0.012667550953356808,0.989247625713802
2014-12-04,1,0.0013337315182534114,0.0014866592169183138,-0.008731199692758517,0.012667550953356808,0.9885396383014307
2014-12-08,1,0.0009740228915884831,0.0010649256023946836,-0.008731199692758517,0.012667550953356808,0.9885538146989372
2014-12-10,1,0.0009495701263972892,0.001064452007628568,-0.009188417432950288,0.012667550953356808,0.9879732345902383
2014-12-12,1,0.0013999996610190206,0.001578544534078226,-0.0063650228866741435,0.011822731685192574,0.9893158262369849
2014-12-16,1,0.0007745475074671525,0.0008575396173977228,-0.0018618866497506397,0.011822731685192574,0.9895063947766052
2014-12-18,1,0.002576286735106824,0.002897515074697262,-0.0018618866497506397,0.009934087644772957,0.99146061107602
2014-12-22,1,0.002364680785498913,0.0025779245707133005,-0.005555589534042931,0.009934087644772957,0.9911517316746933
2014-12-24,1,0.0029246225719212478,0.0031850261863665182,-0.005555589534042931,0.008237977517711407,0.9918003431367308
2014-12-29,1,0.0029477557333217044,0.0031294341156653735,-0.008014866877305743,0.007652195732132546,0.9916396335396643
2014-12-31,1,0.0020769485394890163,0.002238021712357944,-0.005555589534042931,0.007715354897278105,0.9918666864793871
2015-01-05,1,0.0016265412141319617,0.0017111801895259438,-0.002790896559067321,0.009762118813323537,0.9919390061083729
2015-01-07,1,0.001659810703403805,0.0017713374561638918,-0.0032517849291567123,0.010862341826771359,0.9911379292334264
2015-01-09,1,0.0016414788329468348,0.0017589836078980253,-0.006489507525924931,0.009762118813323537,0.9899337529223042
2015-01-13,1,0.00176256886798334,0.0019230155274624272,-0.008226103033054887,0.010862341826771359,0.9876121484109246
2015-01-15,1,0.0019465483215103604,0.0021226927055999372,-0.011263027335849333,0.010862341826771359,0.9870750310475944
2015-01-20,1,0.0023498856980524907,0.002572079659458719,-0.011263027335849333,0.011170004874281337,0.9866393847467997
2015-01-22,1,0.0024821602251924274,0.002729259371861207,-0.011861275800295903,0.010862341826771359,0.9868290868040062
2015-01-26,1,0.0023275494380391062,0.002537125642449856,-0.011861275800295903,0.010862341826771359,0.986960409156357
2015-01-28,1,0.0019106679266850575,0.0020851287292282523,-0.011861275800295903,0.010862341826771359,0.9862837215930088
2015-01-30,1,0.0015359929009425208,0.0016744419638564407,-0.011861275800295903,0.00547602851833792,0.987204450399752
2015-02-03,1,0.001836022342915968,0.001968547633712717,-0.011861275800295903,0.0029585521017106205,0.987352690261088
2015-02-05,1,0.0014901207185433027,0.0015427942307406782,-0.013395974601892553,0.0029585521017106205,0.9871543405388516
2015-02-09,0,-0.00010360363665957116,1.6752162507040354e-05,-0.01118690320285256,0.0029585521017106205,0.9894268637066672
2015-02-11,-1,-0.0010513902368625692,-0.0007952135342846802,-0.010586255744267846,0.0029585521017106205,0.9910265443336714
2015-02-13,-1,-0.0018476176785276474,-0.0014906806650794588,-0.01078567189908337,0.004795488765449132,0.9904166862818704
2015-02-18,-1,-0.001077597512588385,-0.0008027300297747944,-0.01078567189908337,0.004050891374565214,0.9902413769629066
2015-02-20,-1,-0.0015939709424099748,-0.0012510760037381834,-0.00813581916323304,0.008114449700086585,0.9903430459354602
2015-02-24,-1,-0.0012954150164512903,-0.0010140597678795736,-0.010300086737658008,0.008114449700086585,0.9899898134747191
2015-02-26,-1,-0.0024149094728283223,-0.002006568742199997,-0.008085010750337449,0.008114449700086585,0.9907044785612399
2015-03-02,-1,-0.003089249556996665,-0.002621120683514941,-0.005645327845724134,0.008491079339913126,0.9912095583760325
2015-03-04,-1,-0.0022379319087599365,-0.0019238565937281845,-0.005447647614018745,0.008437861906680555,0.9912799759285595
2015-03-06,-1,-0.003271468652545621,-0.00279843451632225,-0.0045441816213422255,0.009436688528004094,0.9916394786917802
2015-03-10,-1,-0.0041481860839360524,-0.003512252672207767,-0.005447647614018745,0.009436688528004094,0.9913789504953686
2015-03-12,-1,-0.0036890856994439124,-0.0031111263983100187,-0.004930782799510918,0.008437861906680555,0.9919564154484282
2015-03-16,-1,-0.0031673770531602174,-0.002686444275725181,-0.004930782799510918,0.007757083512373641,0.9924072429828924
2015-03-18,-1,-0.0020401845138155387,-0.0017037951210094162,-0.006112372660666688,0.007757083512373641,0.9930457263923488
2015-03-20,-1,-0.001736950208936315,-0.0014514444498305854,-0.006112372660666688,0.007954666370746596,0.9925355786720576
2015-03-24,-1,-0.0021397498636124145,-0.001805644084334826,-0.006112372660666688,0.007954666370746596,0.9923318134578054
2015-03-26,-1,-0.002516521782591632,-0.002157181134798393,-0.004771126430890041,0.009117139937510748,0.99194741269685
2015-03-30,-1,-0.001834275294264615,-0.001578191946758096,-0.006112372660666688,0.007954666370746596,0.9919730450720614
2015-04-01,-1,-0.0011124723357947021,-0.0009813899411255322,-0.008564682301713408,0.007468558586170362,0.9919890469193856
2015-04-06,-1,-0.0005587492556035404,-0.0004862546206244354,-0.008564682301713408,0.006330096101406091,0.992729244197542
2015-04-08,-1,-0.001007944614144482,-0.0008843400538447335,-0.008564682301713408,0.006330096101406091,0.9926857693613603
2015-04-10,-1,-0.0014337023190123938,-0.0012206158360456947,-0.008564682301713408,0.006372582683925633,0.9924764802552704
2015-04-14,-1,-0.0015945353882407711,-0.001360506482198399,-0.008564682301713408,0.004974840051190626,0.9928108918110159
2015-04-16,-1,-0.0014175840392097055,-0.001211404688659874,-0.0066805072144845296,0.004974840051190626,0.9931599544300224
2015-04-20,-1,-0.00067375213452181,-0.0005739879508299629,-0.0066805072144845296,0.004974840051190626,0.9937663890561383
2015-04-22,-1,-0.0009751196920838995,-0.0008251453366896998,-0.004629024349319771,0.00349470351757039,0.9943178826863085
2015-04-24,-1,-0.0004958312532893545,-0.00039934740009802647,-0.004629024349319771,0.0019418451997250106,0.994949653056705
2015-04-28,-1,-0.0008287430725139324,-0.0006999466968133283,-0.006134537519452023,0.001296960166939381,0.9950169954105892
2015-04-30,-1,-0.0014022014102579054,-0.0012040808656027862,-0.004701999709955482,0.0018503487892094588,0.9951991077590899
2015-05-04,-1,-0.0014889403389770689,-0.0012708946185086075,-0.006353463601359156,0.0018503487892094588,0.9947642308349626
2015-05-06,-1,-0.002167738120058631,-0.001859291898219679,-0.006803018168005791,0.0018503487892094588,0.9942509612396833
2015-05-08,-1,-0.0013348111844229127,-0.0011448724539297067,-0.008405382175466613,0.0010088743955459377,0.9945712685308532
2015-05-12,-1,-0.0019784775091534245,-0.0016905802886291925,-0.006803018168005791,0.00046682719993226254,0.9951531349052994
2015-05-14,-1,-0.0005747313873020374,-0.0005394166466292196,-0.007249369874127432,0.00046682719993226254,0.9948369488922453
2015-05-18,1,8.413000650721756e-05,0.00016438630400275427,-0.007249369874127432,0.0006764824364157642,0.994647101556894
2015-05-20,1,0.00040415385572109677,0.000577403617976407,-0.007249369874127432,0.0024883933940711995,0.9938005134237566
2015-05-22,1,0.0009399911179509872,0.001234071025339025,-0.008405382175466613,0.0033204416498881706,0.993078926667249
2015-05-27,-1,-0.0002248049868514998,-0.00016530217444005727,-0.00859183490172655,0.0033204416498881706,0.993494810488493
2015-05-29,-1,-0.0003691476992995036,-0.00033364754571196657,-0.009326499671453662,0.003579020052465089,0.9932875874408833
2015-06-02,-1,-0.0007532268110692951,-0.0007404430375032168,-0.008282343309987597,0.003579020052465089,0.9935760695408363
2015-06-04,-1,-0.0015302818010346155,-0.0014316938965305442,-0.006427878726227965,0.004140668886848805,0.9937860157397328
2015-06-08,-1,-0.0019095675755359245,-0.001769049323284133,-0.002680959970922955,0.004938885740054717,0.9929773627926903
2015-06-10,-1,-0.0015766974171587391,-0.0014952348044112362,-0.006427878726227965,0.004938885740054717,0.9925754709775888
2015-06-12,-1,-0.0011157121002144722,-0.0011102845805268768,-0.0021127198059096262,0.004497117792832265,0.9929376135249949
2015-06-16,-1,-0.0006003987277107664,-0.0005137057398116245,-0.0021127198059096262,0.004542785920462337,0.9933431358195546
2015-06-18,1,0.00028299626956628085,0.0004977005007808482,-0.006569207945806149,0.0037019487287430443,0.9939760931525904
2015-06-22,0,-9.177560782810886e-05,5.143863173014682e-05,-0.006557398020869022,0.0037019487287430443,0.9939302846719128
2015-06-24,-1,-0.00044566398747848,-0.0003665924760241494,-0.006499920831522097,0.0037019487287430443,0.9940476605512448
2015-06-26,0,-0.00011309746207218774,5.903322949561392e-05,-0.005436935312860929,0.004787247013393657,0.9940858237548449
2015-06-30,0,-0.00013728514771617817,4.5726275511483584e-05,-0.0018444937890248346,0.007565823355425506,0.9933280749529606
2015-07-02,-1,-0.0002880849395246989,-0.0002100016240971728,-0.0018444937890248346,0.007565823355425506,0.9932457500500173
2015-07-07,1,0.0002546474008121254,0.0003799517420138906,-0.005695242780867723,0.0061000161816695,0.9935227303735412
2015-07-09,-1,-0.0002980341561301437,-0.0002762984684608332,-0.0017283408555307713,0.007565823355425506,0.9931347274267666
2015-07-13,1,0.0003981121804380754,0.0005629302231569957,-0.0017283408555307713,0.008301130070905879,0.9930671837523706
2015-07-15,1,0.0005069888942388449,0.000670568685919591,-0.0017283408555307713,0.009234731518047802,0.9919428337846978
2015-07-17,1,0.0006465926425756436,0.0008335112045592546,-4.168861032872106e-05,0.008301130070905879,0.9923114273460281
2015-07-21,-1,-0.00024092843013395993,-0.00022761428788602893,0.00024381613201304738,0.009680719522693889,0.9918145716657327
2015-07-23,-1,-0.000971157498733022,-0.0008582320078119227,0.0005626174404374474,0.009680719522693889,0.9914313327694909
2015-07-27,-1,-0.00035927113508501065,-0.0003263145055265792,-0.0003227140462338765,0.009680719522693889,0.9903406011692382
2015-07-29,1,0.0001477920419536073,0.00014839769067485467,-0.002335762850561682,0.006717249728121523,0.9899035140578543
2015-07-31,1,0.0005278444215182276,0.0005682682653672243,-0.002952327401388073,0.006518779955650896,0.9901538889566368
2015-08-04,-1,-4.8733994872397784e-05,-3.008303385804916e-05,-0.004548601645932939,0.006518779955650896,0.9888065332836524
2015-08-06,1,0.0004892561222162769,0.0005437747153697277,-0.004548601645932939,0.0058808514411479535,0.9893879023232237
2015-08-10,1,0.0013574349301144054,0.0015791637905415673,-0.007294657783180312,0.0058808514411479535,0.9883778772377673
2015-08-12,1,0.002355145325400017,0.002715815749056324,-0.012080942359799146,0.0056329250573934845,0.9882373109925033
2015-08-14,1,0.0025387439357120976,0.002902613287907819,-0.012080942359799146,0.005262243291984891,0.9881518194484684
2015-08-18,1,0.00249715113509125,0.002822344195872239,-0.012080942359799146,0.005262243291984891,0.988283493609977
2015-08-20,1,0.002451613395277863,0.0027893694483613345,-0.012080942359799146,0.0059859203599294305,0.9879751387202116
2015-08-24,1,0.00106294137763252,0.0012252390770555446,-0.009959320142247574,0.0059859203599294305,0.9900741193385714
2015-08-26,1,0.0005965124025641791,0.000729648578018194,-0.0072951640432164745,0.005694990207420474,0.9916485263933459
2015-08-28,1,0.0005647698178675173,0.0006685620998443137,-0.009072476519217866,0.005694990207420474,0.9912731152619175
2015-09-01,-1,-0.0008914326814585071,-0.0008176260802568878,-0.00425225596699811,0.0077679299860058705,0.9924338835691482
2015-09-03,-1,-0.0007661392729086753,-0.0007021772275465676,-0.00721494095493941,0.0077679299860058705,0.9917609241598812
2015-09-08,-1,-0.00031298756589778125,-0.00030786270636265614,-0.0068866760822399314,0.0077679299860058705,0.9924483709545736
2015-09-10,-1,-0.0007258475875776584,-0.000696441141907693,-0.002377851328701047,0.009374761454463917,0.9926406011871575
2015-09-14,-1,-0.0003074309446963902,-0.00028822439917860864,-0.002377851328701047,0.00996281680906095,0.9925032467444598
2015-09-16,1,0.00028627334798250504,0.0004131097562652081,-0.002377851328701047,0.009496242321614053,0.9930223455207349
2015-09-18,1,0.00026210959256864797,0.0003659719423188919,-0.0015457534259658119,0.009376650904743301,0.993151996502946
2015-09-22,1,9.14472201843995e-05,0.00014648106333922886,-0.0003472169240315755,0.009376650904743301,0.9931102208979938
2015-09-24,1,0.0002928198051387179,0.0003778876118065449,-0.0003472169240315755,0.009376650904743301,0.9929169717375299
2015-09-28,1,6.653855198849343e-05,9.413244743922686e-05,-0.0015457534259658119,0.008245499703447281,0.9925873032647257
2015-09-30,1,0.0007718462262048858,0.0009227802496580089,-0.0041105423772751625,0.0054304681340361285,0.9927704461497401
2015-10-02,1,0.00016564776479798449,0.00021832458515685794,-0.0041105423772751625,0.007723185526544217,0.9927585777441391
2015-10-06,1,0.0004936415421501691,0.0006037440230119947,-0.0041105423772751625,0.0054304681340361285,0.9933763305165098
2015-10-08,1,0.0010916277242001373,0.0012995144927885277,-0.0051546073674147725,0.004455622005350867,0.9937028194945641
2015-10-12,1,0.0016087808373413128,0.0018763023007187835,-0.007179430067712241,0.0034488878370317593,0.992516008714544
2015-10-14,1,0.0016623261263849216,0.001938877205326892,-0.007179430067712241,0.004438658277568675,0.9923880538644151
2015-10-16,1,0.00182399511415376,0.002089871913183606,-0.007179430067712241,0.003426089691763284,0.9923686702128608
2015-10-20,1,0.001958361492996588,0.0022319744648645534,-0.009161343620061654,0.003408408623026827,0.9910387897824517
2015-10-22,1,0.002037894769374059,0.0022938736562905996,-0.009161343620061654,0.0030441418843315084,0.9911620743853599
2015-10-26,1,0.0008068119735316099,0.0008499287549283544,-0.009161343620061654,0.0030441418843315084,0.9916110629909153
2015-10-28,-1,-0.00018340132871477,-7.922018251200162e-05,-0.0066288111032784015,0.0030441418843315084,0.9924633986437695
2015-10-30,-1,-0.0003290446867956586,-0.00020342517258845066,-0.004971067712603493,0.0026205014600209717,0.9931898732770457
2015-11-03,-1,-0.0007808463160554977,-0.0005985066570442027,-0.004971067712603493,0.0026205014600209717,0.9927327099590794
2015-11-05,-1,-0.0009063204322317183,-0.0007218308798013208,-0.007856876835604574,0.0030441418843315084,0.9911791450880464
2015-11-09,-1,-0.0017228230257529198,-0.0014810247295957086,-0.006118399996072893,0.0030441418843315084,0.992364945178173
2015-11-11,-1,-0.001615489203293284,-0.0013710440091193941,-0.008645370158026262,0.00303862682860773,0.9920142597001481
2015-11-13,-1,-0.0018879921492872091,-0.0015955112961213722,-0.008645370158026262,0.00303862682860773,0.9918920203917445
2015-11-17,-1,-0.001994870673980898,-0.0016785977944402345,-0.005292646333115146,0.004427373769524032,0.9915356899546575
2015-11-19,-1,-0.0018722067551011964,-0.00155910755212669,-0.007549134235883933,0.003023692020208965,0.9916610993172017
2015-11-23,-1,-0.0022244598768054753,-0.0018962565398324906,-0.005538426911801061,0.005151020745908367,0.9920972760429614
2015-11-25,-1,-0.0019776127847873992,-0.0017148238029593612,-0.005538426911801061,0.008073108126377475,0.991289157979883
2015-11-30,-1,-0.002076274140733886,-0.0017856592391869205,-0.005538426911801061,0.009402450013039663,0.9907749888971341
2015-12-02,-1,-0.0025826282855541003,-0.0022448899002300822,-0.005538426911801061,0.009402450013039663,0.9909337334458639
2015-12-04,-1,-0.00215546792987623,-0.0018797504464340305,-0.004836490864217307,0.00862582268725655,0.9921944281621644
2015-12-08,-1,-0.0024397772485395246,-0.0021360462107630042,-0.004603797945022115,0.00862582268725655,0.99189780812774
2015-12-10,-1,-0.0030818723959887126,-0.002682042864207238,-0.0030233446642075217,0.009402450013039663,0.9917122219204736
2015-12-14,-1,-0.003090606954077621,-0.0026772780410500028,-0.0030233446642075217,0.009402450013039663,0.991889848904915
2015-12-16,-1,-0.001520265577494347,-0.0013151340441271838,-0.0046857248045840865,0.00862582268725655,0.993168771094963
2015-12-18,-1,-0.0013388750323783246,-0.0011942879250831716,-0.0046857248045840865,0.008889873276196735,0.9920592423372261
2015-12-22,-1,-0.0008138948815377891,-0.0007574960654494572,-0.0037573891556091843,0.00993674571539901,0.9917047536347802
2015-12-24,-1,-0.0008449020486553021,-0.0007519503763613258,-0.003023279676014229,0.00880172582629841,0.9923791584094547
2015-12-29,-1,-6.0413088766731086e-05,-3.156408314153543e-05,-0.003023279676014229,0.00880172582629841,0.9922559407295511
2015-12-31,-1,-0.00022250999244726518,-0.00018844458678397461,-0.003023279676014229,0.01074876020399043,0.990801587118302
2016-01-05,1,0.0004839247748103909,0.0006646260413071828,-0.00365206461575803,0.01074876020399043,0.9912743739401467
2016-01-07,1,0.000934647709998276,0.0011979755942418293,-0.00365206461575803,0.01074876020399043,0.9908591924886022
2016-01-11,1,0.0015107050219881947,0.001867023627894612,-0.004936102029543544,0.010444977458556222,0.9899607831116618
2016-01-13,1,0.001357690239027876,0.0016886763865778963,-0.00593397927769225,0.010444977458556222,0.9893921418097632
2016-01-15,1,0.0007427149974921237,0.0009239489447634915,-0.003958902532440466,0.010090550029876792,0.9900596443376105
2016-01-20,1,0.0002804701878498549,0.0003532462549760675,-0.003594283982436044,0.008950245865739469,0.9911240024627286
2016-01-22,1,0.0008196973422141571,0.0009747029792342673,-0.003958902532440466,0.008950245865739469,0.9911067573468357
2016-01-26,1,7.464204762150942e-05,9.564240800291686e-05,-0.003958902532440466,0.008950245865739469,0.9909994448687282
2016-01-28,1,0.0006305906960259434,0.0006864744893963314,-0.004138613129062323,0.008660016885985925,0.9902814936272711
2016-02-01,1,0.00044790546237660577,0.0004939663060251154,-0.003958902532440466,0.0075037599020639,0.992377915311488
2016-02-03,-1,-7.359400855448144e-05,-2.0208809542380987e-05,-0.0039652712290963645,0.008660016885985925,0.9908643359370689
2016-02-05,1,0.0005838513846847114,0.0006305191628005096,-0.0039652712290963645,0.008665249963308988,0.9908390210725317
2016-02-09,1,0.00046048265274998776,0.0005058383119150433,-0.002466115939515688,0.00851337065031944,0.9920308419660712
2016-02-11,0,-2.1871594903341047e-06,6.658373431933342e-06,-0.00204638671851645,0.008623808789593247,0.9919954189180169
2016-02-16,-1,-1.1556873865596264e-05,-3.28730021599712e-06,-0.000571991456164121,0.008841621576561435,0.9918092679274193
2016-02-18,1,0.00031587564748400957,0.0003580599596322002,-3.525216140590296e-05,0.008846477432298456,0.9913999168232539
2016-02-22,1,0.000733208837112188,0.0008306719796764882,-3.525216140590296e-05,0.008623808789593247,0.9918878087215811
2016-02-24,1,0.001120974817877954,0.00129328415367394,-0.002839490942155112,0.008623808789593247,0.9914902028306942
2016-02-26,1,0.00037856292318544095,0.0004256688360343014,-0.00199046285569534,0.008572161188070256,0.9925714698989815
2016-03-01,1,0.0004477077766194346,0.0005150573618599885,-0.0018376394782651803,0.008846477432298456,0.9916657677544236
2016-03-03,1,0.0006777011455781901,0.0007991310276912528,0.0007992173194612887,0.008572161188070256,0.9931411769647042
2016-03-07,1,0.0014960808585766858,0.0017591187648862976,-0.0045264545342938115,0.007606135584344982,0.9926488330877179
2016-03-09,1,0.001859109079460413,0.002171620664392526,-0.004848498037481929,0.007606135584344982,0.9927785285932965
2016-03-11,1,0.0021434499516377195,0.002519758654506649,-0.0037847742822300786,0.005597006918468554,0.9932873908211332
2016-03-15,1,0.002575958987748019,0.003022970974445906,-0.004514141480088033,0.004839757014795978,0.9930717484284219
2016-03-17,1,0.0033801863095784873,0.003953297390780859,-0.004514141480088033,0.0038964164983285787,0.9932125000149502
2016-03-21,1,0.0026454822637083843,0.00308078124386261,-0.0037847742822300786,0.0038964164983285787,0.993955567763986
2016-03-23,1,0.0023308454974213712,0.0026921178026720494,-0.004514141480088033,0.0031666049172442315,0.9923166659682846
2016-03-28,1,0.002180304760242418,0.0025193059893749608,-0.004514141480088033,0.0038964164983285787,0.9925645506121729
2016-03-30,1,0.0026325486043953135,0.0030106908349968016,-0.0046391075791096725,0.0038964164983285787,0.9925648325528003
2016-04-01,1,0.0026829324581799426,0.0030526101528019654,-0.0046391075791096725,0.004168948151183832,0.9924679935417942
2016-04-05,1,0.0010799099480081906,0.0011695229167691566,-0.0028747567836855245,0.004805887015280515,0.9938774685383508
2016-04-07,1,0.0011572109748756872,0.001268221014710599,-0.0029164121500260716,0.005159442179676123,0.9931197619330732
2016-04-11,1,0.0010234265668282014,0.001110684046847518,-0.0046391075791096725,0.005159442179676123,0.9926567791386708
2016-04-13,1,0.0009454423331092847,0.0010237889612860459,-0.0029164121500260716,0.005159442179676123,0.9930613577680095
2016-04-15,1,0.001112209083186404,0.0012242905876733248,-0.0030398849020882106,0.0065979772667528495,0.9928694068839589
2016-04-19,1,0.0006646178565351789,0.0006811707633835704,-0.00570543102187621,0.0065979772667528495,0.9921749253533321
2016-04-21,-1,-0.0011141401752640852,-0.0009086379498127355,-0.0030398849020882106,0.007834197570869452,0.9921906643445829
2016-04-25,-1,-0.0007843175691864959,-0.0006177476498453715,-0.00570543102187621,0.0065979772667528495,0.9921731607067815
2016-04-27,-1,-0.0009403344264032628,-0.0007230086134594565,-0.004471876673184038,0.0065979772667528495,0.99233369878259
2016-04-29,-1,-0.0005254049887256539,-0.0003640621789552957,-0.004471876673184038,0.008059793649055303,0.9924567032734236
2016-05-03,-1,-0.0006038662799699044,-0.0004135462446124283,-0.008417303433177276,0.008076257769914155,0.9921662766797975
2016-05-05,-1,-0.0008972040872211497,-0.000654021660709591,-0.003960345051655425,0.008076257769914155,0.9920719299132897
2016-05-09,-1,-0.0011763610921191679,-0.0009046220033195297,-0.0029832548761122325,0.008076257769914155,0.9924364726065292
2016-05-11,-1,-0.00046672195959981917,-0.00033061198874765945,-0.0029832548761122325,0.00889485161636854,0.991822085181245
2016-05-13,-1,-0.0005789542180018567,-0.0004094231591658698,-0.004104916820968131,0.00889485161636854,0.9920463365594988
2016-05-17,-1,-0.0010835492749498555,-0.0008586737845886435,-0.0029832548761122325,0.00889485161636854,0.9925499127784693
2016-05-19,-1,-0.0010199694025932863,-0.0008169834529172643,-0.00267325654162132,0.00687531716097153,0.9940833117082805
2016-05-23,-1,-0.001170822606854352,-0.000970264418128011,-0.0007635581459632185,0.00687531716097153,0.9944081779359848
2016-05-25,-1,-0.0010925038549245848,-0.0008771455248466019,-0.00267325654162132,0.004413126425898488,0.9946471759861629
2016-05-27,-1,-0.0007109605504651576,-0.0005478970722393476,-0.00267325654162132,0.004413126425898488,0.9945645257625463
2016-06-01,-1,-0.0006174078657793966,-0.0004723573425890549,-0.0009570124450041864,0.004413126425898488,0.99439782757197
2016-06-03,1,0.00025516083635170994,0.0002774268428303987,-0.00051889604529202,0.004413126425898488,0.9947625201366483
2016-06-07,-1,-0.00015862620288561405,-7.666881377959569e-05,6.819969096684856e-05,0.006549554963026718,0.994304079130367
2016-06-09,1,0.0003512942580268821,0.00038083253636505133,-0.00019899439717499615,0.006387733803525285,0.9939438872740906
2016-06-13,1,6.409516521768162e-05,0.0001343671942802451,-0.00042223303795157005,0.006387733803525285,0.9936659291737152
2016-06-15,1,0.0004560573689078537,0.00045609689485561405,-0.0006082490704988378,0.006387733803525285,0.9932590975832121
2016-06-17,1,0.0005741805944862146,0.0005863979572042114,-0.0006082490704988378,0.006387733803525285,0.9931499268575036
2016-06-21,1,0.0008950858818747819,0.000982922345332518,-0.0023761029778057463,0.006387733803525285,0.993003971181735
2016-06-23,1,0.0005555781000100122,0.0005722526560082967,-0.0006082490704988378,0.00800672631688775,0.9926946036401697
2016-06-27,1,0.0008945501287730439,0.0009452678310063888,-0.0023761029778057463,0.006387733803525285,0.9926169132613865
2016-06-29,1,0.0018232101971631081,0.0020269612614831176,-0.007132467003733806,0.005614401071490655,0.9928179610747689
2016-07-01,1,0.0022767600465798056,0.002515637018948791,-0.007132467003733806,0.005614401071490655,0.9928911180012413
2016-07-06,1,0.0023131353734295403,0.002512197377598859,-0.008035301616528469,0.004751787020235192,0.9925311639995918
2016-07-08,1,0.00183448373125953,0.001961813494308527,-0.008035301616528469,0.004073310619890037,0.9928808721620193
2016-07-12,1,0.001528246113829625,0.0016277451785562797,-0.0071106425045939755,0.004073310619890037,0.993034975762116
2016-07-14,1,0.0015829278625797709,0.001716431468250259,-0.005932059414918975,0.004174626590822845,0.9933837103076848
2016-07-18,1,0.0019389225038192411,0.0021312217024327187,-0.0071106425045939755,0.004210517476087096,0.9925757853637044
2016-07-20,1,0.0012455756381772186,0.001302821486758201,-0.006233004285850529,0.005271683136688934,0.9916842541488958
2016-07-22,1,0.0016932058517949889,0.0018020147736181034,-0.009169662524861157,0.004109928660263906,0.9913967659498767
2016-07-26,1,0.001117635653682743,0.0011432932451547384,-0.006427828070414167,0.005271683136688934,0.9916629074805385
2016-07-28,1,0.0010805161715985712,0.0011392037908971504,-0.005704454603525705,0.004168091549731336,0.9924389105506338
2016-08-01,1,0.0015566850372126404,0.001704195912739038,-0.006427828070414167,0.004168091549731336,0.9918001307134872
2016-08-03,1,0.0010948665362309428,0.0011812599624866226,-0.009967662593445656,0.004168091549731336,0.9913530491789448
2016-08-05,1,0.0005373693525727604,0.0005735297562120802,-0.006868657064600297,0.005482573157065724,0.9918019226379603
2016-08-09,1,0.000619563188117999,0.0007159650232753022,-0.006868657064600297,0.006606053697799014,0.9917516600201072
2016-08-11,1,0.000684893210755262,0.0007598556578724003,-0.009967662593445656,0.006606053697799014,0.9900795107345884
2016-08-15,1,0.00040286866801555625,0.00043557731759629186,-0.007812257559644537,0.007078498769171748,0.9896426900882769
2016-08-17,1,0.001105303525656885,0.0012180983419180422,-0.007812257559644537,0.006985359784579124,0.9906811347449933
2016-08-19,1,0.0010927934550439417,0.0012530122239033095,-0.006213811886437423,0.009037386504936039,0.9906790877068031
2016-08-23,1,0.0012713793385893603,0.0014744671347259079,-0.004457379449449704,0.00949596379804881,0.9904386241532602
2016-08-25,1,0.0008118133465473975,0.0008796121960770127,-0.004457379449449704,0.00949596379804881,0.9902467277804531
2016-08-29,1,0.00047576145208600947,0.0004949958349365422,-0.0057823765735162775,0.009037386504936039,0.9909415217574532
2016-08-31,-1,-0.00046518450784153374,-0.0003681585089920684,-0.003999034180127909,0.009037386504936039,0.9911891920352434
2016-09-02,-1,-0.00017128986679676233,-0.00010590786921543146,-0.006605440288684065,0.008381132081790862,0.9907723058844705
2016-09-07,1,0.00023674274931339434,0.00024907373128947455,-0.008044298552294951,0.004882241901921315,0.9903446143218512
2016-09-09,-1,-0.0015493768336741248,-0.0013207833182391146,-0.006605440288684065,0.004882241901921315,0.9922548017656335
2016-09-13,-1,-0.0021426527706756133,-0.0017491829673537715,-0.0066507547727187215,0.004882241901921315,0.9928884659360893
2016-09-15,-1,-0.0014297194430614806,-0.001137312762475663,-0.0066507547727187215,0.006965373103310363,0.9923495213423423
2016-09-19,-1,-0.0004981803042287205,-0.00032672973778769183,-0.007256835056016309,0.0015384284641639266,0.9928911158689737
2016-09-21,1,0.0001503260724379035,0.00022704108643251355,-0.007256835056016309,0.0015384284641639266,0.993157813079862
2016-09-23,1,0.00036405353723731066,0.00040539814395703646,-0.007256835056016309,0.0007132162580736211,0.9930185612411915
2016-09-27,-1,-0.0003772321757343334,-0.0002510172026954549,-0.006623476352184062,0.0038330110964251746,0.9936210015978096
2016-09-29,-1,-0.0011949296773167745,-0.0009571903680468273,-0.00661074643126705,0.004347676099439606,0.9938586563367544
2016-10-03,-1,-0.001985390884636826,-0.0016606536268829993,-0.004232102670728397,0.006032741453438595,0.9932654866428118
2016-10-05,-1,-0.002625434087457237,-0.002237240442279061,-0.005051519680960028,0.006032741453438595,0.9933636541128884
2016-10-07,-1,-0.0031647675430349414,-0.002686838642968451,-0.005420773407755691,0.006032741453438595,0.9930236362624086
2016-10-11,-1,-0.0030544320920968615,-0.0025869731054286027,-0.003978547462360924,0.006770651210651714,0.992477185766248
2016-10-13,-1,-0.0023257943648314267,-0.001929042164807822,-0.007191366872730613,0.004347676099439606,0.9913792195933989
2016-10-17,-1,-0.002381077535673269,-0.001996162876753391,-0.007266955420943367,0.004347676099439606,0.9911810893827666
2016-10-19,-1,-0.001991106724385284,-0.0016684399122613538,-0.007266955420943367,0.004347676099439606,0.9906150173578506
2016-10-21,-1,-0.002227321984053292,-0.0018763951723954116,-0.007266955420943367,0.004347676099439606,0.9904715750193449
2016-10-25,-1,-0.001571204900753409,-0.0013283255929418803,-0.007266955420943367,0.010980051182481349,0.9894563129268178
2016-10-27,-1,-0.0017710043438853677,-0.0014930270992474187,-0.00578423383819163,0.012705106926802212,0.9891551196900442
2016-10-31,-1,-0.00040989050714684323,-0.0003215371383572915,-0.00578423383819163,0.012705106926802212,0.9890286411773942
2016-11-02,-1,-0.0010676614255356433,-0.0008947529197586673,-0.0074089796389470225,0.012705106926802212,0.9875589521927495
2016-11-04,-1,-0.0011272524290719963,-0.0009547663391718021,-0.005743256775063082,0.013297325515933045,0.987196166271206
2016-11-08,-1,-0.0001795412303188121,-0.00012760652000121458,-0.008145776827356833,0.013297325515933045,0.9873066880054422
2016-11-10,-1,-0.0022167336093999327,-0.0019328392595211108,-0.0045795519678154175,0.01404970633096586,0.9892118332627351
2016-11-14,-1,-0.0028947640917724414,-0.002523544036174356,-0.003016746335299735,0.01404970633096586,0.9884157133751948
2016-11-16,-1,-0.002029238247756958,-0.001783779755552889,-0.004142604875845159,0.013261208018938273,0.9882255329155443
2016-11-18,-1,-0.0014790195357854185,-0.001334172984346808,-0.004142604875845159,0.01404970633096586,0.9871840633405384
2016-11-22,0,-1.3448379618912366e-05,5.583367978786012e-05,-0.004142604875845159,0.012882163315020925,0.988925602489256
2016-11-25,1,0.0006191913420375261,0.0008013233604956513,-0.0036632748077232865,0.012484906117614623,0.9897295993280231
2016-11-29,1,0.0014240619309962572,0.0016956760169492737,-0.004158195992142303,0.009042878342487463,0.990792931997875
2016-12-01,-1,-0.0001276391977745432,-7.820856002738565e-05,-0.0036632748077232865,0.009201233504032699,0.9921490345408739
2016-12-05,1,0.00018787090398174596,0.00027460121356972535,-0.0037553901909369025,0.008488258448862486,0.9928348163509326
2016-12-07,1,0.000407005088551207,0.0005424277034775662,-0.0016640284025276435,0.008204857695606122,0.9934932843534424
2016-12-09,1,0.0008001984808557994,0.0009765781343152114,-0.003981069280019466,0.00690210514608665,0.9932137880089388
2016-12-13,1,0.0017247718074687303,0.002055661301554601,-0.004435700163418465,0.00535436144248125,0.9935799763413236
2016-12-15,1,0.0009487081852522731,0.001153330184475563,-0.003981069280019466,0.005868559282530493,0.9944948519695266
2016-12-19,1,0.0016615216338201277,0.0019449981167904602,-0.004435700163418465,0.001837357788859446,0.9948998644595366
2016-12-21,1,0.0016922032351561127,0.001996377972863052,-0.004435700163418465,0.0023488997831062927,0.9950107369376329
2016-12-23,1,0.0017224668377336225,0.0020093694078678706,-0.004435700163418465,0.0023488997831062927,0.9948752774422933
2016-12-28,1,0.0012093703329951735,0.0013920479061739753,-0.0039822273016547815,0.0023488997831062927,0.9951350673849265
2016-12-30,1,0.0011468387122007687,0.0013033686917160812,-0.0035395209338555103,0.0023488997831062927,0.9949944797000221
2017-01-04,1,0.001032061474623628,0.001188681960722626,-0.0035395209338555103,0.0023488997831062927,0.9923091525259432
2017-01-06,1,0.00121485490134382,0.001385365484094189,-0.0035395209338555103,0.0023488997831062927,0.992253786136748
2017-01-10,1,0.0009691594256610008,0.0011467391350840864,-0.0024672116903551662,0.003114831541096676,0.9927467176283611
2017-01-12,1,0.00074695774752901,0.0008755862123488295,-0.0024672116903551662,0.005157039777917965,0.9914984335278926
2017-01-17,1,0.0011257242795390922,0.0013053332346757793,-0.002938782490063024,0.004605451007262312,0.9914891452442894
2017-01-19,1,0.0009770147954821214,0.0011466568018935518,-0.002938782490063024,0.005458234496089174,0.9908874309360323
2017-01-23,1,0.0008390250909976518,0.0009772243131456017,-0.0026351922021108773,0.008443349528503393,0.9902360332109983
2017-01-25,1,0.0005927991516442371,0.0006604413336648822,-0.0026351922021108773,0.011171026305254909,0.9896393309965876
2017-01-27,1,0.0005793082366921012,0.0006589756145379021,-0.0026351922021108773,0.011380621284920829,0.9892690053790205
2017-01-31,1,0.0010028901566737644,0.0011537584786069808,-0.0038428706918388986,0.010819768170280126,0.988859702712369
2017-02-02,-1,-0.001586851914022493,-0.0013579566051075648,-0.0033345665098719448,0.011380621284920829,0.9899865823878902
2017-02-06,-1,-0.0010503993709335099,-0.0009069536467774984,-0.005203152844695202,0.011380621284920829,0.9904243052647677
2017-02-08,-1,-0.0002790893372071985,-0.0002458092846440706,-0.008341842447246553,0.010819768170280126,0.9905405870738028
2017-02-10,1,9.526158446695944e-05,0.0001417212167335103,-0.005203152844695202,0.0103977223968667,0.9914084595539798
2017-02-14,1,0.00019239494451207012,0.00027176137542105246,-0.0033409087810643075,0.010819768170280126,0.990972324344686
2017-02-16,1,0.0003568513803042339,0.00046648146428554196,-0.0033409087810643075,0.0103977223968667,0.991263330891015
2017-02-21,1,0.0007108807453805504,0.000840038739846955,-0.0038652200023546104,0.0103977223968667,0.9911909728292714
2017-02-23,1,0.0010469547238666093,0.0011966135971309135,-0.0043744608059839984,0.010082732931525553,0.9915219594547996
2017-02-27,1,0.0009611072603029841,0.0010630113315672762,-0.004498074926083805,0.0067236496543402625,0.991808894440798
2017-03-01,1,0.00036313226302364535,0.00037476933794416576,-0.004498074926083805,0.005569271744599317,0.9928661380952947
2017-03-03,1,0.00031842941460253417,0.0003455408683094067,-0.004220929171546124,0.0045125949500001055,0.9936597992661542
2017-03-07,1,0.00011545190371604826,0.00016391205125218958,-0.0039064247090545455,0.0045125949500001055,0.9938034855886779
2017-03-09,0,-2.3518014149059353e-05,7.806899231062672e-06,-0.0034506651729906777,0.004672798317161679,0.9942097187767652
2017-03-13,1,0.0003180473717929029,0.00032110584936276206,-0.0039064247090545455,0.0041349186862767034,0.994417192517101
2017-03-15,1,0.0010125194768392048,0.0011080003251589718,-0.004498074926083805,0.0041349186862767034,0.9950145615902571
2017-03-17,1,0.000618025655800062,0.0006501379576752975,-0.004498074926083805,0.004188319808663894,0.9953396970091928
2017-03-21,1,0.001088393391182361,0.0011938910391998318,-0.004968039656976547,0.0034361639076781877,0.9959596777885107
2017-03-23,1,0.00102868477671217,0.0011212524717897508,-0.004507444753662923,0.002546784031016644,0.9963821263719518
2017-03-27,1,0.0012445896566337339,0.0014090192500079515,-0.004803566054254459,0.0034361639076781877,0.9961680366555028
2017-03-29,1,0.0008763922782284349,0.0009646052402313731,-0.003695411800718318,0.0034361639076781877,0.9962031099098156
2017-03-31,1,0.0007278919508807845,0.0007874626632218502,-0.004837736533705846,0.0034361639076781877,0.9959013187800277
2017-04-04,1,0.0010768191997606994,0.0012212104673601791,-0.005229421409440108,0.003760471897729237,0.9954938290661898
2017-04-06,1,0.00025892568174728213,0.0003220656375156395,-0.005229421409440108,0.004415333760477758,0.9948103651645946
2017-04-10,-1,-0.0002922125669843711,-0.00013562433919003764,-0.005229421409440108,0.0041981711715847305,0.9945565047256201
2017-04-12,0,-8.745049766833513e-05,2.3403102511925563e-05,-0.004837736533705846,0.0036880843680982276,0.994875299244769
2017-04-17,-1,-0.00015548034305457834,-3.6102141023317685e-05,-0.003694839010699489,0.0036880843680982276,0.9951483895009021
2017-04-19,1,6.05281062776703e-05,0.00011308480548257954,-0.003694839010699489,0.0036880843680982276,0.9949398047376845
2017-04-21,1,0.0002870602736641135,0.0002986239769648218,-0.003694839010699489,0.003906884475014842,0.9943811452062375
2017-04-25,1,0.000806707513883873,0.0009130353838620719,-0.0028636836320342788,0.003906884475014842,0.9943881778801853
2017-04-27,0,-5.6481775238512264e-05,2.7067823152362276e-05,-0.001994545924084313,0.007574625564933461,0.9936991477196176
2017-05-01,-1,-0.00025700849465625755,-0.00016391296843247738,6.326363006449857e-05,0.007574625564933461,0.9940220424019054
2017-05-03,-1,-0.0004885817665967577,-0.00036684465155547723,6.326363006449857e-05,0.008060191592015051,0.9939545194545849
2017-05-05,1,0.0005120419863144012,0.0005316777852639896,-0.0018027850708905561,0.004911482008777444,0.9949025080421136
2017-05-09,1,0.00048381924076795177,0.0005354612672712931,-0.0018027850708905561,0.004911482008777444,0.9954367339302977
2017-05-11,1,0.00016249754982274476,0.00018574161509259292,-0.0034917263011457335,0.004911482008777444,0.9948468470737184
2017-05-15,1,0.0007099962304944751,0.0008037258550602628,-0.0034917263011457335,0.004441858777687957,0.9949254358018835
2017-05-17,1,0.00044221978336055057,0.0004934712373999503,-0.0027061280255359366,0.007410163414899836,0.9951027727249637
2017-05-19,1,0.000954357627108336,0.0010845444787398084,-0.0033673854258815345,0.006776683953349548,0.9952412309952353
2017-05-23,1,0.0012564731053711358,0.0014150298178006648,-0.004336908608473787,0.003434023613726545,0.995036096489232
2017-05-25,1,0.0017534508316044929,0.001982102858387267,-0.004756244706017942,0.002061968351168719,0.9948786432733716
2017-05-30,1,0.0016233892629406758,0.0018225717832556,-0.005272363787412458,0.0022966602163206435,0.9944344428656162
2017-06-01,1,0.0018758789557251315,0.0021235350631047477,-0.006513304015351055,0.002061968351168719,0.9941675501084947
2017-06-05,1,0.0012055012573767288,0.0013268750236788986,-0.00686022143205868,0.002061968351168719,0.9942410772758762
2017-06-07,1,0.0010335852981156553,0.001125963738836366,-0.00686022143205868,0.0006648953633909362,0.9942753166331375
2017-06-09,1,0.0007390150850373603,0.0008125800852249734,-0.005895432888658769,0.0012609503120182427,0.9950566568237085
2017-06-13,1,0.0006136638408168011,0.0006542198148123432,-0.005895432888658769,0.0026106898383436395,0.9946915250388034
2017-06-15,1,0.0008493650454062598,0.0009185440416485855,-0.006313420532714113,0.0015225350802927809,0.9944552837187941
2017-06-19,1,0.0009048115684762614,0.0009846142775801693,-0.006313420532714113,0.0014764192226779632,0.9948557954365318
2017-06-21,1,0.00032887561988192553,0.00033386743045601595,-0.005719400831594055,0.0019540653372277996,0.9956975850491623
2017-06-23,1,0.0001553512831718424,0.00016694468477164087,-0.005719400831594055,0.0031784292897001146,0.9953234723566884
2017-06-27,-1,-0.0015861994245385549,-0.0012506948398269793,-0.004351608854080858,0.003195706402135981,0.9956575310270045
2017-06-29,-1,-0.0019438829061099805,-0.0015772765866197528,-0.002865749729908483,0.003195706402135981,0.9959685206763061
2017-07-03,-1,-0.0021552935908316865,-0.001791121922867851,-0.0012130117890944516,0.003195706402135981,0.9958738784895448
2017-07-06,-1,-0.0023520622967741407,-0.001966597231262726,9.798185991320639e-05,0.0057111607106362875,0.994970730933305
2017-07-10,-1,-0.0024962567603306245,-0.002088149823255434,-0.0007137831112785253,0.0057111607106362875,0.9949539183108385
2017-07-12,-1,-0.002037243415631625,-0.0016831634148337556,-0.0015759015854085077,0.003195706402135981,0.9959302442237705
2017-07-14,-1,-0.0016102250822446502,-0.0013433379764649068,-0.0015759015854085077,0.0026339919183365006,0.9964592491191884
2017-07-18,-1,-0.0010282895366904524,-0.0008641120766146292,-0.0015759015854085077,0.002970581972756826,0.9965055038967637
2017-07-20,-1,-0.0007849668197517002,-0.0006658513732981099,-0.0015759015854085077,0.003476230490917452,0.9964151368692411
2017-07-24,-1,-0.0011962227172387491,-0.0010088517991383565,-0.0015350815104285785,0.003476230490917452,0.9967372508071382
2017-07-26,-1,-0.0009119579885292628,-0.000767234260289959,-0.0015350815104285785,0.0033111358317826087,0.9967017891138944
2017-07-28,-1,-0.0011077842277574267,-0.0009279285869709426,-0.0005760906362388403,0.003901580236506369,0.9961279197003889
2017-08-01,-1,-0.0014138184136152055,-0.0011621030093113673,-0.0005760906362388403,0.003901580236506369,0.996122560505125
2017-08-03,-1,-0.00041210366185829634,-0.0003107629509831603,-0.0015350815104285785,0.0029822261908286868,0.9963976533834374
2017-08-07,-1,-0.00011949537557642279,-9.852488484379599e-05,-0.0015350815104285785,0.0029822261908286868,0.9963588203171034
2017-08-09,-1,-0.00040894157616056377,-0.00033506068642359584,-0.001597085539888065,0.0032077663803197027,0.9961292812248721
2017-08-11,-1,-0.0002959120639564099,-0.0002632873902065956,-0.0008592166033295929,0.003901580236506369,0.9953168457575925
2017-08-15,-1,-8.857529215986805e-06,-5.958534694108689e-06,-0.001597085539888065,0.0035914718821176512,0.9945916519511521
2017-08-17,1,3.7864596002480037e-06,8.396110168530445e-06,-0.001502088516253018,0.004950317281787066,0.9939846992133423
2017-08-21,1,0.00022647936144890216,0.0002430316663029967,-0.002618642555926783,0.0035424083587401135,0.9936756821115703
2017-08-23,1,0.0004069270989666328,0.00044332838999401424,-0.004488437874714107,0.0035424083587401135,0.9932703772160401
2017-08-25,1,0.0007907777677042139,0.000878272791534587,-0.004488437874714107,0.0035424083587401135,0.9929029600514229
2017-08-29,1,0.0009704642601721789,0.0010975934047722554,-0.006455413894083351,0.0035424083587401135,0.9918670096348486
2017-08-31,1,0.000202327390563522,0.00021863618918227005,-0.004488437874714107,0.0035424083587401135,0.9927574754406505
2017-09-05,-1,-9.352519412994759e-05,-7.357045082345826e-05,-0.005358034442874688,0.0035424083587401135,0.992551621212618
2017-09-07,-1,-6.637137400346811e-05,-4.960842128323405e-05,-0.005358034442874688,0.005271583720378254,0.9922002074347236
2017-09-11,1,0.000556673128535511,0.0006018502191262806,-0.005358034442874688,0.002640492381925319,0.9929087396523095
2017-09-13,-1,-0.00031648482098393195,-0.0002591944837248338,-0.003553320876735051,0.003646945118292404,0.9934394264750032
2017-09-15,1,0.0004350544853854191,0.00047296443760809205,-0.003553320876735051,0.003310334879070467,0.9937676765623913
2017-09-19,-1,-0.00017059316669089375,-0.0001326116530106741,-0.0026932436494436105,0.003908604770827736,0.9943439996289294
