JNU-Tangyin/eata/results/Batch4_SP500/Batch4_SP500-ODFL.csv
Date,Action,Predicted_Q25,Predicted_Q75,Actual_Q25,Actual_Q75,RL_Reward
2010-12-14,0,0.0,0.0020087787767524164,-0.0015653273844898259,0.007324187260190893,0.9946780666404882
2010-12-16,1,0.005498416618314233,0.006070291680911415,-0.0015653273844898259,0.007324187260190893,0.9934100426797228
2010-12-20,0,0.0,0.0,-0.0016431446392068225,0.007324187260190893,0.9923692002758959
2010-12-22,0,0.0,0.0,-0.0032445153279967685,0.0062400594579352375,0.9932200297077843
2010-12-27,1,0.00527345452469716,0.005866281678969514,-0.0032445153279967685,0.007842052600657227,0.9925273112840407
2010-12-29,1,0.004191418304835435,0.004564637514858948,-0.0020799915111290135,0.009128157961796876,0.9922885193429758
2010-12-31,1,0.003997570872371717,0.00429616058523195,-0.0032445153279967685,0.008987259687725561,0.9907700580287354
2011-01-04,1,0.0037976740911747704,0.004032185074790973,-0.005300658208069454,0.008987259687725561,0.9878593645563092
2011-01-06,1,0.003452082695730257,0.0036194851906291288,-0.008681327474216198,0.009128157961796876,0.9865277207908367
2011-01-10,1,0.004248549681900613,0.004629466202645372,-0.010321551584434738,0.009128157961796876,0.9861683416498457
2011-01-12,1,0.0035551633409289553,0.0037821007966190026,-0.010321551584434738,0.009351578978382636,0.9856161511631227
2011-01-14,1,0.002961278442269105,0.00301003592352056,-0.010321551584434738,0.01282869087293484,0.9850743825429591
2011-01-19,1,0.001871959028971009,0.0019424024979279348,-0.007662987188842111,0.01282869087293484,0.9865614750331971
2011-01-21,1,0.0010808027378626595,0.0012507140169062364,-0.0022003883108507186,0.01294048975612151,0.9864287996943325
2011-01-25,0,0.0,0.0,-0.01298376203822928,0.01294048975612151,0.9838730249684744
2011-01-27,1,0.0029719676338212614,0.003086308594110502,-0.01298376203822928,0.01294048975612151,0.9844425777465895
2011-01-31,1,0.00179549031096642,0.0018091250821661966,-0.011360619695147331,0.01294048975612151,0.9851567849309847
2011-02-02,-1,-0.0006389829632310292,-0.0002887758876474641,-0.007662987188842111,0.01294048975612151,0.9858278597516995
2011-02-04,-1,-0.0008887553485267445,-0.0005255771696168468,-0.006154393134928913,0.012744906323182108,0.9869643363501904
2011-02-08,-1,-0.0008910338972914816,-0.0005617982626914476,-0.005415494761405998,0.01294048975612151,0.9860688147813366
2011-02-10,-1,-0.00047362855793090994,-0.00019613417658978039,-0.005415494761405998,0.01294048975612151,0.9860110508549834
2011-02-14,1,4.1929626065815846e-05,0.00027939150164537545,-0.005575427364451232,0.00842413220055472,0.9869212077594859
2011-02-16,1,0.00012243467599607394,0.0003556797909065753,-0.005575427364451232,0.013970196373613047,0.9859514619355656
2011-02-18,1,0.0006908169355403357,0.0008574496985098526,-0.005575427364451232,0.013821313168256747,0.985898516226912
2011-02-23,-1,-0.0021974398400808827,-0.0016526315397190413,-0.005309524217286442,0.013821313168256747,0.9877817532380164
2011-02-25,-1,-0.002575869761624201,-0.0019248118556296663,-0.004330919880992755,0.009622396665271479,0.9884143235818212
2011-03-01,-1,-0.0032155757272008686,-0.0025100882931078164,-0.0036109913176186363,0.009622396665271479,0.9886076939111681
2011-03-03,-1,-0.0010412103057381324,-0.0005944650650417916,-0.0036109913176186363,0.009622396665271479,0.9910181197535998
2011-03-07,-1,-0.0011988388515623608,-0.0007388175018617942,-0.0006556898376404881,0.012754198773178458,0.9905210218558329
2011-03-09,0,-0.0003000400944685698,3.898218424286382e-05,0.0018381358339445426,0.009642655163933471,0.9917062295988484
2011-03-11,0,-0.0003018538085814743,3.539668326737924e-05,-0.0006556898376404881,0.008617216964618066,0.9918640166049095
2011-03-15,-1,-0.000526415412298181,-0.00016256383694986175,-0.004198627893456652,0.008617216964618066,0.9915116296752045
2011-03-17,1,0.0003200089799699677,0.0005830503065376501,-0.00685652486025161,0.008617216964618066,0.9919490261621053
2011-03-21,1,0.0005542733366746961,0.0008260104257495412,-0.00869632138830897,0.005534935749905561,0.9919655484249483
2011-03-23,1,0.0015632641245292604,0.0015723343371072957,-0.00685652486025161,0.007222437857053015,0.992026391955617
2011-03-25,1,0.0011672329666546286,0.001262400955983347,-0.00869632138830897,0.008679454633024985,0.990797260562618
2011-03-29,1,0.0016067505508553454,0.001610167716473907,-0.00869632138830897,0.009819585117128486,0.9858822526511413
2011-03-31,1,0.0021287028166163437,0.0022210806794919977,-0.00974990831345084,0.009289867458248925,0.985684525928779
2011-04-04,1,0.0019974349351103006,0.0020094347600102926,-0.00974990831345084,0.00885891018166582,0.9856424953300069
2011-04-06,1,0.00226047335766878,0.0023080606224690115,-0.00974990831345084,0.00907313366946676,0.9852824275711204
2011-04-08,1,0.0008038837427301159,0.0009598661401012672,-0.008155849347954467,0.00907313366946676,0.986685244608965
2011-04-12,1,0.00020003980021266875,0.0004174269170654898,-0.008331932908952535,0.00939820005166266,0.9861859698180349
2011-04-14,1,0.0005598595417265089,0.0007038291043942612,-0.00954787710938796,0.00907313366946676,0.9862015074725311
2011-04-18,0,-6.913452973094541e-05,0.0001317900331833763,-0.011559958390610857,0.00907313366946676,0.986076192103294
2011-04-20,1,0.0003493710187771168,0.0004815020260030792,-0.011559958390610857,0.00939820005166266,0.9854452793799087
2011-04-25,-1,-0.0007355891351753823,-0.0004407742727220521,-0.008705080281909954,0.00939820005166266,0.9868382349499636
2011-04-27,1,0.003656416529213953,0.003975329293376501,-0.011559958390610857,0.008575361063786879,0.9900958519766069
2011-04-29,1,0.0037104218827303257,0.004076537788623685,-0.008705080281909954,0.008575361063786879,0.9897535603631645
2011-05-03,0,0.0,0.0,-0.011559958390610857,0.00939820005166266,0.9872113652780593
2011-05-05,0,0.0,0.0,-0.014107939845014978,0.010005186203057157,0.9861163291183178
2011-05-09,1,0.0017253422761899198,0.0018331914911698258,-0.014107939845014978,0.010005186203057157,0.9856775087191744
2011-05-11,0,0.0,0.0,-0.012210206957659658,0.010760514464177941,0.9859366995995579
2011-05-13,0,0.0,0.0,-0.010933911085482452,0.010760514464177941,0.9863546768962417
2011-05-17,0,0.0,0.0,-0.008728407537931169,0.012045314286906783,0.9847890961400373
2011-05-19,0,0.0,0.0,-0.008728407537931169,0.010760514464177941,0.985420197477989
2011-05-23,0,0.0,0.0,-0.008728407537931169,0.012045314286906783,0.9840518748438105
2011-05-25,1,0.001424849116704308,0.0014812210899508513,-0.006973241166746832,0.012045314286906783,0.9849042976712328
2011-05-27,0,0.0,0.0,-0.006973241166746832,0.009239341816324464,0.9859307712061852
2011-06-01,0,0.0,0.0,-0.0066255022021006384,0.009239341816324464,0.9887710148403829
2011-06-03,0,0.0,0.0,-0.005974296839217283,0.015399314963669926,0.9887695414521084
2011-06-07,0,0.0,0.0,-0.0037249627239180783,0.01723603987812276,0.9876617214956536
2011-06-09,0,0.0,0.0,-0.0037249627239180783,0.015399314963669926,0.98815518894073
2011-06-13,1,0.0008436102741438366,0.0009399017050050653,-0.0037249627239180783,0.015399314963669926,0.9877494522574466
2011-06-15,1,0.0008566950627375348,0.0009444299907248269,-0.0037249627239180783,0.010218403925469653,0.9895160810846547
2011-06-17,1,0.0004971560219943727,0.000507457409239821,-0.005974296839217283,0.010218403925469653,0.9888329133284657
2011-06-21,0,0.0,0.0,-0.005974296839217283,0.006431371603550182,0.9902732289537733
2011-06-23,0,0.0,0.0,-0.006605629807560062,0.006559192256981533,0.9901599282950624
2011-06-27,0,0.0,0.0,-0.007272509370293065,0.006559192256981533,0.9887895722153526
2011-06-29,1,0.00033669540070952554,0.0004726233513031944,-0.009767725323131537,0.006559192256981533,0.9865314655967079
2011-07-01,0,0.0,0.0,-0.011289505012373097,0.005742009138221981,0.9871856528536364
2011-07-06,0,0.0,0.0,-0.015979813169060768,0.00482477553597612,0.986292205749656
2011-07-08,0,0.0,0.0,-0.019190547630942047,0.0023278917627984927,0.9833698043577289
2011-07-12,1,1.0,1.0,-0.020563455277144146,0.00482477553597612,0.4972665315733576
2011-07-14,0,0.0,0.0,-0.027879999515692408,0.004867382420453237,0.9739925566402258
2011-07-18,-1,-0.0006455921911612724,-0.00035317841688308415,-0.027879999515692408,0.00761451187186832,0.9727043795948371
2011-07-20,-1,-0.0004226914350158867,-0.00017152005191597335,-0.027879999515692408,0.00761451187186832,0.971251605034671
2011-07-22,-1,-0.0010302031168673697,-0.0006638496600707316,-0.03075890366257772,0.004295296371805281,0.967607301614297
2011-07-26,-1,-0.0012482880457425302,-0.00094535058808698,-0.02895973093490388,0.025386988143359632,0.9660262207603993
2011-07-28,-1,-0.0011293527966451276,-0.0008333430261451576,-0.03088014091574872,0.015077025425409183,0.9673110739093268
2011-08-01,-1,-0.0008202462413287115,-0.0005811378483765047,-0.03088014091574872,0.042414812337919904,0.9640116214430879
2011-08-03,-1,-0.002589566646539256,-0.002144214043283847,-0.026367750825679742,0.042414812337919904,0.9658337221268293
2011-08-05,-1,-0.005108194530512993,-0.004363533006126302,-0.02536769416796132,0.042414812337919904,0.9676456486134805
2011-08-09,-1,-0.005836307827864285,-0.005048264264714117,-0.021507011371562478,0.042404446884313524,0.972474938157346
2011-08-11,-1,-0.004847408897018285,-0.004210334376327069,-0.021507011371562478,0.026831056709127585,0.9749365773891929
2011-08-15,-1,-0.0038284837355387477,-0.0032964668987554126,-0.021507011371562478,0.0247589151597089,0.9751452028381291
2011-08-17,-1,-0.004902553685464715,-0.004256666841870113,-0.019449743174015058,0.034106872538770226,0.9739631709175015
2011-08-19,-1,-0.007889701060136464,-0.006898293307515121,-0.013293040726322933,0.034106872538770226,0.9765330558950489
2011-08-23,0,0.0,0.0,-0.020841726576242652,0.019228434381989984,0.9759695137922461
2011-08-25,0,0.0,0.0,-0.020841726576242652,0.02606251006386696,0.9751004819821445
2011-08-29,-1,-0.0017458635408010939,-0.001574809269660709,-0.020841726576242652,0.01666647822109732,0.9771031419527899
2011-08-31,-1,-0.002855061272010873,-0.002500382071696623,-0.02592368391233612,0.014601367502282667,0.9758648599250904
2011-09-02,-1,-0.004354952167469024,-0.0038115670132703528,-0.027197738461768487,0.014601367502282667,0.9753411262473632
2011-09-07,-1,-0.002742857636048216,-0.002397306114988502,-0.027197738461768487,0.014601367502282667,0.9730716751000847
2011-09-09,-1,-0.004805367843241547,-0.00418481019863867,-0.030296095714436155,0.02606251006386696,0.971193973353478
2011-09-13,0,0.0,0.0,-0.030296095714436155,0.026155596613611894,0.9707963864278
2011-09-15,0,0.0,0.0,-0.030296095714436155,0.02500806841052409,0.9715831564929877
2011-09-19,0,0.0,0.0,-0.030786836790321265,0.02970083266376492,0.9697628199829599
2011-09-21,0,0.0,0.0,-0.023685251322801776,0.030241292245119736,0.9720469842446139
2011-09-23,0,0.0,0.0,-0.01884693589097054,0.030241292245119736,0.9728500545081016
2011-09-27,-1,-0.0074328992634267385,-0.0069003473168923555,-0.019896716578755948,0.030241292245119736,0.9709905808148501
2011-09-29,-1,-0.008294527038067065,-0.0076894151902837295,-0.018315963545924588,0.031161139056465392,0.9685038229031394
2011-10-03,-1,-0.010056932127938425,-0.009240953756812371,-0.017786983338816745,0.031161139056465392,0.9689925118964657
2011-10-05,-1,-0.0019023025286166108,-0.0017993543164111986,-0.018887862968194336,0.03086031818952778,0.9733554463991752
2011-10-07,-1,-0.0023798584364775176,-0.0021895397415395584,-0.017786983338816745,0.030241292245119736,0.9750167171486033
2011-10-11,-1,-0.0001273663064776061,-2.294166376810348e-07,-0.017786983338816745,0.02970083266376492,0.9775836394702514
2011-10-13,1,0.0007622341369585728,0.0010176580079424803,-0.017786983338816745,0.029664831641352467,0.9783438497496352
2011-10-17,1,0.00042771857463159437,0.0006354949639850013,-0.017093641368246988,0.029694629030932902,0.9790873845320546
2011-10-19,1,0.0010519453421264247,0.0013812792689739458,-0.017093641368246988,0.025408379909672006,0.9800163318920159
2011-10-21,0,0.0,0.0,-0.0175839858482088,0.01830448964057224,0.9805869384031863
2011-10-25,1,0.003536090119744541,0.004045244915719898,-0.0175839858482088,0.014186034007360133,0.9805512763784134
2011-10-27,1,0.006884949792089962,0.00781414878358282,-0.017998294256989456,0.004009594144443621,0.9807183409556789
2011-10-31,1,0.005436944264594993,0.006200681499756224,-0.017204505835707613,0.012542336745756838,0.9813187414819426
2011-11-02,1,0.003545258924856305,0.004023634254685049,-0.017204505835707613,0.012542336745756838,0.9817967880089786
2011-11-04,1,0.004239384415629523,0.004831768307286437,-0.017204505835707613,0.0135461994905261,0.9818237815357185
2011-11-08,1,0.004615167641599972,0.005269032848814392,-0.017204505835707613,0.0135461994905261,0.9811798891959788
2011-11-10,1,0.004579779924900698,0.0052899832318890885,-0.017998294256989456,0.01747593260296404,0.9790461310327041
2011-11-14,0,0.0,0.0,-0.017998294256989456,0.0135461994905261,0.9802935851926583
2011-11-16,1,0.005219825936605612,0.0059861730339392984,-0.01825617058771809,0.014190723903836147,0.9789400114565947
2011-11-18,1,0.004875305365409935,0.005618330344001792,-0.017295579654562715,0.014190723903836147,0.9790832283127493
2011-11-22,1,0.004210972301341161,0.004931089601131514,-0.013680744613398202,0.01940950584289418,0.979222491345143
2011-11-25,1,0.003840522971073934,0.00457837051110279,-0.011926363465656467,0.01940950584289418,0.9807342910638905
2011-11-29,1,0.005506179682810795,0.006468558797344273,-0.013273683588104416,0.014190723903836147,0.9821475299713902
2011-12-01,1,0.006002424625480222,0.006990713221111817,-0.013273683588104416,0.013643332618262227,0.9838218838038242
2011-12-05,1,0.006712792243737394,0.007775066121952151,-0.014621753128984628,0.010933601217657794,0.9837197573697734
2011-12-07,1,0.0064020741447378005,0.007386997041222282,-0.01602081267793359,0.009278964441965756,0.9825340442064882
2011-12-09,1,0.0068180038345003165,0.00786554822813126,-0.014621753128984628,0.009278964441965756,0.984680910117152
2011-12-13,0,0.0,0.0,-0.014621753128984628,0.012144289155531693,0.9849138953919161
2011-12-15,0,0.0,0.0,-0.013438135442079103,0.009278964441965756,0.9865201523681739
2011-12-19,1,0.0055776462603417355,0.006421805854525382,-0.011230827571631671,0.010823451731478757,0.987497053791896
2011-12-21,1,0.007201131108864526,0.008263247177008782,-0.011230827571631671,0.007981827917155331,0.9881402410882925
2011-12-23,1,0.006341740002181313,0.007185301741014769,-0.011230827571631671,0.007290455865881282,0.9887221890271612
2011-12-28,1,0.004619557440888191,0.005093512164322774,-0.008459092402690336,0.00996659434801931,0.9895569114782574
2011-12-30,1,0.004234366776232745,0.004496739165292992,-0.008459092402690336,0.010021954332702889,0.9891816802587604
2012-01-04,1,0.003964943706466811,0.004214311541640028,-0.005213011342938503,0.017305463572384206,0.9895745443325553
2012-01-06,1,0.0034358247912134013,0.00367605799287759,-0.0032889425841733278,0.018274276253454843,0.9900585562334219
2012-01-10,1,0.0031028325058527345,0.00323162520293051,-0.004461305764853821,0.017305463572384206,0.990422458189768
2012-01-12,1,0.0011769785023828419,0.0014958218955972917,-0.004461305764853821,0.010021954332702889,0.9912197934147698
2012-01-17,1,0.0017635772112107916,0.0019183373884728789,-0.004461305764853821,0.017025317440949102,0.9901312034484946
2012-01-19,1,0.0015557688536553434,0.0017792360831872505,-0.005833505917231484,0.017383843006816484,0.9891067544126428
2012-01-23,1,0.0025588483032108946,0.0025932850938024206,-0.006492509810702699,0.017383843006816484,0.9884455315779712
2012-01-25,1,0.0025406144036842384,0.00256838595072891,-0.0068952250213619466,0.017487204339492104,0.9874522738108498
2012-01-27,1,0.0019490984572653838,0.0020602185469005743,-0.0068952250213619466,0.017138150652939922,0.9881978058390806
2012-01-31,1,0.002593662483570281,0.002593826805605745,-0.0068952250213619466,0.00744344811832154,0.9889140003758192
2012-02-02,1,0.002175053873900277,0.00228378193001165,-0.0068952250213619466,0.004784361908387968,0.9877757237018172
2012-02-06,1,0.0028172367741681474,0.0028198307399382606,-0.008778730913797071,0.0032306533420084424,0.9873359846375166
2012-02-08,1,0.002858137808744289,0.002926588118345367,-0.008778730913797071,0.012442571176242805,0.986663235850094
2012-02-10,1,0.0023158265894025675,0.0023506882098134107,-0.008778730913797071,0.017138150652939922,0.986112304935197
2012-02-14,0,-0.0002484650962585285,0.00022516574252426608,-0.008068867769948782,0.016371328864599785,0.9869811786070859
2012-02-16,0,-0.000261149526139595,0.00024201830581427764,-0.008068867769948782,0.016371328864599785,0.9860590479370306
2012-02-21,0,-0.0004054610372111957,6.016697191705287e-05,-0.008068867769948782,0.016371328864599785,0.9855873666680525
2012-02-23,-1,-0.0013041785259484777,-0.0006624643066776,-0.009299637387988401,0.015024311114325627,0.9855378714667611
2012-02-27,-1,-0.0027299288263193822,-0.0018393666803868838,-0.009299637387988401,0.015024311114325627,0.9844941210329479
2012-02-29,-1,-0.0009470262220617417,-0.0005157651141224117,-0.007513886199837484,0.015024311114325627,0.984798641057008
2012-03-02,0,-0.00034043118598123365,2.0096107508250612e-05,-0.007513886199837484,0.011834645010150902,0.9869836997929886
2012-03-06,0,-9.829943963186644e-05,0.00018021358979116104,-0.005093052881230115,0.013422528943564185,0.9877774982156293
2012-03-08,1,0.0009815805075515716,0.0011089430866234365,-0.007513886199837484,0.01127033654701946,0.9885746190373204
2012-03-12,0,0.0,0.0,-0.012852815358762922,0.010513179645762162,0.987984005548723
2012-03-14,1,0.0012762448767154242,0.0013751324299584274,-0.012852815358762922,0.01127033654701946,0.9874198945242282
2012-03-16,1,0.0015331132822986682,0.0015584583567319556,-0.010439640488147453,0.01127033654701946,0.9890839784598794
2012-03-20,1,0.0015094052242045765,0.001532324719803598,-0.007890604429336718,0.010513179645762162,0.9900818093449268
2012-03-22,1,0.0021471454745575656,0.0023115388237397424,-0.007890604429336718,0.00962708790689781,0.9897811259465918
2012-03-26,1,0.001822278889128511,0.0019011513601482877,-0.007890604429336718,0.008032887265312207,0.9901304338111756
2012-03-28,1,0.0014689412328434664,0.0014915061765023543,-0.010439640488147453,0.010265185683034287,0.9869704198042746
2012-03-30,0,0.0,0.0,-0.012569108771210187,0.010265185683034287,0.985942647621195
2012-04-03,0,0.0,0.0,-0.012569108771210187,0.014145414159410397,0.9843865672774574
2012-04-05,0,0.0,0.0,-0.015947574914207528,0.014145414159410397,0.9833773293091519
2012-04-10,0,0.0,0.0,-0.010760459280290728,0.014145414159410397,0.9849092729186149
2012-04-12,0,0.0,0.0,-0.014424985625651837,0.008032887265312207,0.9851986234041015
2012-04-16,0,0.0,0.0,-0.014424985625651837,0.006610436808901308,0.985949961675009
2012-04-18,0,0.0,0.0,-0.014424985625651837,0.008384972577916067,0.9847040682073924
2012-04-20,-1,-0.0011611081183696382,-0.0005139832133853135,-0.01442565035196368,0.007402082093555487,0.98382344483185
2012-04-24,1,0.0002978341733144078,0.0006573144496873685,-0.01442565035196368,0.011503850896002352,0.9816166595833105
2012-04-26,-1,-0.0017372668558646334,-0.001199454221949805,-0.01353178672307729,0.013660585403988738,0.9844716925575372
2012-04-30,0,0.0,0.0,-0.011467542658799602,0.01501010804696115,0.9838808269108491
2012-05-02,0,0.0,0.0,-0.01442565035196368,0.011138807670647326,0.9845404024451526
2012-05-04,0,0.0,0.0,-0.014277129162631089,0.011138807670647326,0.9836508687662943
2012-05-08,0,0.0,0.0,-0.014277129162631089,0.012725346267944297,0.9820904971961655
2012-05-10,-1,-0.002409121379679963,-0.001937806093904513,-0.011467542658799602,0.013150099418218198,0.9828064637119602
2012-05-14,0,0.0,0.0,-0.014277129162631089,0.013150099418218198,0.9815237947156938
2012-05-16,0,0.0,0.0,-0.014277129162631089,0.013150099418218198,0.9821803622717405
2012-05-18,-1,-0.003081527773637796,-0.0025891134478489225,-0.010083106892967774,0.014835574951782242,0.9837018662430876
2012-05-22,-1,-0.002702204166637524,-0.00222734727551902,-0.012212220372041558,0.013896299797496667,0.9842013046794276
2012-05-24,-1,-0.0017780513500683063,-0.0014068710136779879,-0.01720939744206683,0.013352318677027006,0.9838258977364512
2012-05-29,-1,-0.0019888851989064565,-0.001575087172947582,-0.01720939744206683,0.01292909035285719,0.9843141899642003
2012-05-31,-1,-0.003624603315452175,-0.002962292800777349,-0.016077144638333783,0.01292909035285719,0.9855561915876508
2012-06-04,-1,-0.0053922304466368755,-0.00454646245109984,-0.00579842294337376,0.0146570058383622,0.9844993933912655
2012-06-06,-1,-0.003835244490816415,-0.003215631275005123,-0.00579842294337376,0.013352318677027006,0.9862428504643856
2012-06-08,-1,-0.003875903298663535,-0.00323320159313973,-0.007881786173441771,0.013352318677027006,0.9864312890957542
2012-06-12,0,0.0,0.0,-0.013749562768804886,0.013352318677027006,0.9860972702737965
2012-06-14,0,0.0,0.0,-0.013749562768804886,0.013352318677027006,0.9859278213997547
2012-06-18,-1,-0.002204738632192711,-0.0017967987786343433,-0.014384778768848378,0.006120590422799088,0.9863666611294243
2012-06-20,-1,-0.002310931394511701,-0.0019194345180807604,-0.013233664997201213,0.006120590422799088,0.987010718569621
2012-06-22,-1,-0.0026883075222423835,-0.0022795365299347887,-0.013233664997201213,0.003950324808963317,0.9878940085993929
2012-06-26,-1,-0.0028300417734227774,-0.0024426043563987826,-0.013233664997201213,0.00588146971934212,0.9873329861207786
2012-06-28,-1,-0.00230681080881369,-0.001998874725765898,-0.013233664997201213,0.009106128289126852,0.9848850032924931
2012-07-02,-1,-0.0004767891520146995,-0.0003695285721506114,-0.013233664997201213,0.004124619240733063,0.9874321170584149
2012-07-05,-1,-0.0008119833391235258,-0.0006611249951823954,-0.014824261128983841,0.006404353014651356,0.9792038612071586
2012-07-09,-1,-0.0013093506971060772,-0.0010932985231914445,-0.014824261128983841,0.006404353014651356,0.9797186245414207
2012-07-11,-1,-0.0028444407058429025,-0.0024968899551638616,-0.012853292674403266,0.009106128289126852,0.9809265905492515
2012-07-13,-1,-0.002461756385194242,-0.002115183654456351,-0.012853292674403266,0.006404353014651356,0.9820234745305938
2012-07-17,-1,-0.0032043713435462124,-0.0027946528559253487,-0.007148696445296455,0.006404353014651356,0.9823999210605912
2012-07-19,-1,-0.0027053892264478,-0.00235247621418027,-0.007148696445296455,0.0092563232480026,0.9814966945191261
2012-07-23,-1,-0.004071636253193827,-0.0035253093054253286,-0.003042636436277545,0.0092563232480026,0.9808202965065163
2012-07-25,-1,-0.0035176983412096114,-0.003101566385981396,-0.001529982092841409,0.011656334671242328,0.9811446110712171
2012-07-27,-1,-0.001437908627336432,-0.0012480570491728252,-0.004086906940566245,0.00875661826152772,0.9845017835931535
2012-07-31,-1,-0.0008653203305077391,-0.0008235343373390869,-0.006393541139471766,0.00875661826152772,0.984105683090222
2012-08-02,1,0.001069713033892638,0.001310440970808468,-0.006393541139471766,0.005698475620772624,0.9921027855053124
2012-08-06,1,0.0005003927251670507,0.0006832464543741865,-0.006393541139471766,0.00875661826152772,0.9912707377299089
2012-08-08,1,0.0005881234961744218,0.0007894287371709261,-0.006393541139471766,0.00759356256976048,0.9918754053796245
2012-08-10,1,0.0005256226854417217,0.0007240496500777419,-0.005387464376073181,0.008526482117033773,0.9915990641745207
2012-08-14,1,0.0006673815685395691,0.0008819418376443805,-0.005387464376073181,0.010822044572762115,0.9905040117635838
2012-08-16,1,0.0024367248372290837,0.0029238002471174015,-0.006897193155732119,0.007939389465187232,0.99089619283085
2012-08-20,1,0.0018172964211454008,0.0022043348885650363,-0.008624103839061186,0.00769494535499207,0.9901867329771491
2012-08-22,1,0.002363932928024112,0.0028150629101430544,-0.009466535500137731,0.00769494535499207,0.9882813326914806
2012-08-24,1,0.002130516461922838,0.002574583892403698,-0.009223850367514056,0.008830630472728543,0.9881263178742398
2012-08-28,1,0.001738568649279824,0.002123757422995976,-0.011546665691982191,0.01244156927767313,0.986648516166111
2012-08-30,1,0.0007840653825494232,0.0009741360116940902,-0.012045274254531842,0.014938499131042865,0.9858160732311977
2012-09-04,1,0.002507275676015488,0.0030027541411544838,-0.015706136076387822,0.011424218379391414,0.9850534927109875
2012-09-06,1,0.0025005284415744863,0.0030128554723803996,-0.015706136076387822,0.014736402098162132,0.9849738588151806
2012-09-10,1,0.003182701446183758,0.0038052400199876137,-0.015706136076387822,0.014736402098162132,0.9847252403086217
2012-09-12,1,0.003958362346183093,0.0046490686779708315,-0.015706136076387822,0.010652411197660461,0.9848199204551465
2012-09-14,1,0.0029838307732334467,0.0035587167624415664,-0.012045274254531842,0.010652411197660461,0.9863278085090605
2012-09-18,1,0.0012324882403297421,0.0014852346228307013,-0.005931918089061723,0.014736402098162132,0.9873920811802906
2012-09-20,1,0.0003933631951999523,0.0004747426184692655,-0.003727432653752112,0.01133882549707232,0.9891248867981812
2012-09-24,1,0.0020572559626786963,0.0024736517076938656,-0.006783361165446988,0.009791636952430852,0.9889216564403716
2012-09-26,1,0.0015319066487371824,0.0017898327239922285,-0.005931918089061723,0.009791636952430852,0.9897161201403148
2012-09-28,0,0.0,0.0,-0.003866342866993412,0.010848766654313365,0.9891217354768633
2012-10-02,0,0.0,0.0,-0.002837510117124427,0.014346140473171749,0.987963971929862
2012-10-04,1,0.00015882289222185882,0.0001914698143655325,-0.003866342866993412,0.012320884496154157,0.9881233007635074
2012-10-08,1,0.000728868678816306,0.0009225266226426424,-0.003866342866993412,0.015145834909110081,0.9866819210021133
2012-10-10,-1,-0.0005183159625683464,-0.0004142467686936252,-0.0071479042086478655,0.015145834909110081,0.9863798116304134
2012-10-12,1,0.0002704644193031588,0.00030827129625849185,-0.007485478679755171,0.01668518452174298,0.9858326150909748
2012-10-16,1,0.0018174202725546248,0.002125952507870736,-0.008048724031389471,0.013913915936984936,0.9853909783630197
2012-10-18,1,0.002210379741791445,0.00257799447167158,-0.008048724031389471,0.014859029222508528,0.9852413558747107
2012-10-22,1,0.0008728610074923407,0.001005918312650547,-0.007631581111788283,0.014859029222508528,0.985309885776849
2012-10-24,1,0.0004760787221485209,0.0005274530881282507,-0.007631581111788283,0.013715837161281833,0.9865455806108984
2012-10-26,1,0.002553096401010543,0.0028325052103033545,-0.007631581111788283,0.010838830204994055,0.9885764946885253
2012-11-01,1,0.004653564032040487,0.005220454641090054,-0.007631581111788283,0.005910259490048904,0.9898938668825937
2012-11-05,1,0.0042781020716620745,0.004764538560068783,-0.008703789620796473,0.0037509611131753265,0.9892600660324409
2012-11-07,1,0.00449841456328719,0.00503246205372939,-0.00743305428054804,0.005443036129701178,0.9909860714665808
2012-11-09,1,0.0043221272605719705,0.004897853609443205,-0.004047226278508372,0.005443036129701178,0.9921840937562526
2012-11-13,1,0.004311055494576476,0.004864349735269224,-0.004047226278508372,0.004669888019459623,0.9920718061944804
2012-11-15,1,0.0024213894637639226,0.002664347256391079,-0.0023903116092267524,0.005443036129701178,0.9938054890746995
2012-11-19,1,0.0026745748382730593,0.002904428472477008,-0.0023903116092267524,0.00648321262162263,0.9936832541348545
2012-11-21,0,0.0,0.0,-0.0020908248768659625,0.00648321262162263,0.9937655929565731
2012-11-26,0,0.0,0.0,-0.0020908248768659625,0.00648321262162263,0.9937120481360507
2012-11-28,1,0.003708912289781217,0.004174047239836134,-0.0023903116092267524,0.00648321262162263,0.9938104084710531
2012-11-30,1,0.003070679841794875,0.003420045913746399,-0.0030321734146029518,0.006693253139895103,0.9938589267567914
2012-12-04,0,0.0,0.0,-0.0030321734146029518,0.007040519602453542,0.9918259899664349
2012-12-06,0,0.0,0.0,-0.0030321734146029518,0.007575630716136278,0.9916662148043593
2012-12-10,0,0.0,0.0,-0.005978170434378692,0.01013378443400247,0.9905943416555675
2012-12-12,0,0.0,0.0,-0.0012497041516491888,0.01013378443400247,0.9911696451846894
2012-12-14,0,0.0,0.0,-0.005980202756338423,0.007575630716136278,0.9911666267901993
2012-12-18,0,0.0,0.0,-0.005980202756338423,0.00998824443784701,0.9903853936293143
2012-12-20,0,0.0,0.0,-0.005980202756338423,0.010181351153812359,0.9905349381705005
2012-12-24,0,0.0,0.0,-0.005980202756338423,0.010859917161149505,0.9893351158912781
2012-12-27,0,0.0,0.0,-0.005233620514945811,0.010859917161149505,0.9892082071286069
2012-12-31,0,0.0,0.0,-0.006921347612059763,0.010859917161149505,0.9888373837974219
2013-01-03,0,0.0,0.0,-0.0054915554425076655,0.010181351153812359,0.9905017990426023
2013-01-07,0,0.0,0.0,-0.006921347612059763,0.008327145514034122,0.9904589785206442
2013-01-09,0,0.0,0.0,-0.007112807739537548,0.00733470291395357,0.9888922218582981
2013-01-11,0,0.0,0.003052415764091697,-0.007112807739537548,0.008327145514034122,0.9897562102740673
2013-01-15,0,0.0,0.0,-0.0054915554425076655,0.010043471580280442,0.9884465520863838
2013-01-17,0,0.0,0.0,-0.006676439548510116,0.00733470291395357,0.9897733536264907
2013-01-22,0,0.0,0.0,-0.00696196587758796,0.006244055422640131,0.9898225822958526
2013-01-24,0,0.0,0.0,-0.00840716127967553,0.006244055422640131,0.989265865369894
2013-01-28,0,0.0,0.0,-0.012070990197671258,0.006392161235098514,0.9884826848590716
2013-01-30,0,0.0,0.0,-0.00840716127967553,0.009892690251111499,0.9881092210252104
2013-02-01,0,0.0,0.0,-0.012070990197671258,0.009892690251111499,0.9877033423896336
2013-02-05,0,0.0,0.0,-0.0112184474962214,0.010140534609338012,0.9869581086839069
2013-02-07,0,0.0,0.0,-0.007704433840203466,0.011579370362730587,0.988831494974608
2013-02-11,1,0.001221479103929644,0.0012436514114159535,-0.009133132389796298,0.011460581657397821,0.9889605490996984
2013-02-13,0,0.0,0.0,-0.009133132389796298,0.013126736703143934,0.987474031933552
2013-02-15,0,0.0,0.0,-0.009133132389796298,0.013126736703143934,0.9874407743546438
2013-02-20,0,0.0,0.0,-0.008526978865949024,0.013126736703143934,0.987315569660256
2013-02-22,0,0.0,0.0,-0.008526978865949024,0.013289882959329598,0.9854088504807361
2013-02-26,0,0.0,0.0,-0.007289185870417665,0.013289882959329598,0.9863735838193635
2013-02-28,0,0.0,0.0,-0.007289185870417665,0.007827450395976838,0.9873692147799927
2013-03-04,0,0.0,0.0,-0.008526978865949024,0.007827450395976838,0.9869520495795889
2013-03-06,0,0.0,0.0,-0.008526978865949024,0.006033340238625518,0.9878594941414814
2013-03-08,0,0.0,0.0,-0.008526978865949024,0.006033340238625518,0.9877993303166482
2013-03-12,0,0.0,0.0,-0.007299669602699391,0.007827450395976838,0.9863956282659659
2013-03-14,0,0.0,0.0,-0.007299669602699391,0.002287603047696091,0.9884377587220894
2013-03-18,0,0.0,0.0,-0.009154336966972272,0.006033340238625518,0.9841138472455936
2013-03-20,0,-0.00022971506663668415,0.0001003657706194522,-0.011688061082101811,0.0023861922068970786,0.9838645246845443
2013-03-22,1,0.0012235394941736489,0.0013432167459467177,-0.009700234037354287,0.004413196957335658,0.9868699681654217
2013-03-26,1,0.001575750116235325,0.0015920665431224358,-0.009700234037354287,0.004413196957335658,0.9870252965394564
2013-03-28,1,0.0024547518262178765,0.0026713966866210347,-0.009700234037354287,0.0046641659069330925,0.9858332075743178
2013-04-02,0,0.0,0.0,-0.005446969453226553,0.007858225903258177,0.9872767886336068
2013-04-04,0,0.0,0.0,-0.005446969453226553,0.010786667053883012,0.9854577946295567
2013-04-08,1,0.0008166759047226969,0.000839241396451654,-0.005446969453226553,0.0163967503465873,0.983976199581296
2013-04-10,1,0.0015858077030164815,0.001715981009051098,-0.0036735186280217455,0.010877428338861014,0.9853051590273221
2013-04-12,1,0.000812865264532113,0.0008382237225513962,-0.004563165111788902,0.010877428338861014,0.984409958029053
2013-04-16,0,0.0,0.0,-0.002997068394528866,0.010877428338861014,0.987664476361928
2013-04-18,0,0.0,0.0,-0.00276010661216786,0.010877428338861014,0.9878049671445666
2013-04-22,0,0.0,0.0,-0.00276010661216786,0.017302441689677296,0.9866283141278874
2013-04-24,0,0.0,0.0,-0.0011365771730424824,0.018970244940540868,0.9856849701016247
2013-04-26,0,0.0,0.0,-0.002146776096942327,0.017302441689677296,0.986878462519151
2013-04-30,0,0.0,0.0,-0.002997068394528866,0.018065202493140402,0.9860738823444785
2013-05-02,0,0.0,0.0,-0.002997068394528866,0.018065202493140402,0.9882155572763356
2013-05-06,1,0.0016231175812064483,0.0016785134399882387,-0.006245163012591782,0.011410695388981526,0.989875068332602
2013-05-08,1,0.0013690525927840223,0.0013761885498243874,-0.007871293808837315,0.012188663787770173,0.9892417753843585
2013-05-10,1,0.0010489842299600519,0.0010993223129056665,-0.006245163012591782,0.01723213080963432,0.988683213404844
2013-05-14,1,0.0017993923220386433,0.001869947290829476,-0.007871293808837315,0.013821904778645385,0.988954215249597
2013-05-16,1,0.0017472641580791922,0.0018275550703379534,-0.0066230461613569856,0.013821904778645385,0.9892853081364573
2013-05-20,1,0.0024969726092949123,0.002675739303541147,-0.007871293808837315,0.011136672977825317,0.9895696194579108
2013-05-22,1,0.0028736253700983056,0.0030888060371185803,-0.00875648810754525,0.009665601995747935,0.9890641344342334
2013-05-24,1,0.002582608850959115,0.002746794423352094,-0.01043420218517917,0.009665601995747935,0.988230750225358
2013-05-29,1,0.00308436992678218,0.0033491988430360007,-0.01043420218517917,0.009382322090863485,0.9887670985810709
2013-05-31,1,0.003047456672612277,0.003324167403960243,-0.01326798662608997,0.009742419599546895,0.9875877369457764
2013-06-04,1,0.0022677080676223394,0.0024185316392039613,-0.010596588343971099,0.011136672977825317,0.987506209588106
2013-06-06,1,0.002093980115967746,0.0022215405463525337,-0.007093054923947252,0.013102696493598607,0.9877622978139615
2013-06-10,1,0.0027694568280441294,0.0029535505700459086,-0.007093054923947252,0.009382322090863485,0.9890050395064531
2013-06-12,1,0.002783645950995688,0.0030086473428497474,-0.006383625180559661,0.00971633946902486,0.9891910653272418
2013-06-14,1,0.0027914041250230756,0.003024730780701652,-0.006383625180559661,0.00971633946902486,0.9895648112451291
2013-06-18,1,0.003062524903689643,0.0033759112727472455,-0.007994144363500766,0.00866871954519579,0.9891474672382675
2013-06-20,1,0.0023736193939091848,0.002593040293442618,-0.00455302610658881,0.00971633946902486,0.9894673987483489
2013-06-24,1,0.001533809243726473,0.00160591667141307,-0.00455302610658881,0.00971633946902486,0.9895111431426186
2013-06-26,0,0.0,0.0,-0.00768180443377125,0.011976834900047107,0.9887974166614832
2013-06-28,1,0.0011475144569032456,0.0012508004317976565,-0.00768180443377125,0.011976834900047107,0.9884858700834881
2013-07-02,0,0.0,0.0,-0.00768180443377125,0.008925919319558207,0.9895280594960949
2013-07-05,0,0.0,0.0,-0.010782543969592127,0.008925919319558207,0.9884839680289085
2013-07-09,0,0.0,0.0,-0.010782543969592127,0.005138209852530213,0.9888679829869592
2013-07-11,1,0.0012398994131312218,0.0013234179251072151,-0.009880879363628943,0.005055148883029018,0.9887886894055056
2013-07-15,0,0.0,0.0,-0.009880879363628943,0.008571089526723377,0.9888379027728871
2013-07-17,0,0.0,0.0,-0.006017204171840249,0.010833977797584084,0.9892710363349676
2013-07-19,0,0.0,0.0,-0.009880879363628943,0.008571089526723377,0.9895499108287407
2013-07-23,0,0.0,0.0,-0.006017204171840249,0.008571089526723377,0.9900044622243969
2013-07-25,1,0.0001519075944004315,0.00030053653113365286,-0.0045657271387025515,0.008819882062505837,0.990515786527892
2013-07-29,1,0.0004391797261620307,0.000543703181398269,-0.0045657271387025515,0.008158402735974804,0.9920360489464196
2013-07-31,1,0.00042527198537081865,0.0005246963211925945,-0.005262773273149225,0.008158402735974804,0.9908808836533312
2013-08-02,0,0.0,0.0,-0.005262773273149225,0.0062308272541767625,0.9925521432859109
2013-08-06,0,0.0,0.0,-0.005262773273149225,0.008158402735974804,0.9913496315983027
2013-08-08,0,0.0,0.0,-0.0045657271387025515,0.007019917136598278,0.9921788198861857
2013-08-12,1,0.0009647105569378221,0.000994973557447632,-0.0045657271387025515,0.00767305938463749,0.9910467593056268
2013-08-14,1,0.0014574286006576597,0.0015184861231302984,-0.004653183525352294,0.00767305938463749,0.9911575802099744
2013-08-16,1,0.0007096195671532094,0.0007582613290529629,-0.004653183525352294,0.00767305938463749,0.991613876240882
2013-08-20,1,0.0007188884140037005,0.0007560275236136043,-0.0055251424330984514,0.00767305938463749,0.9913739431806168
2013-08-22,1,0.0005514657418243813,0.0006578930083392122,-0.0055251424330984514,0.006858136019485841,0.9912565518738264
2013-08-26,0,-0.0001533332810972804,6.12726732873984e-05,-0.0046013304784294435,0.006858136019485841,0.9917528521213735
2013-08-28,-1,-0.0007579270510996725,-0.0004892651573216664,-0.0046013304784294435,0.007938644487373905,0.9917470686939256
2013-08-30,-1,-0.0006556515441310644,-0.00043614290948816657,-0.0046013304784294435,0.010054754590531767,0.9912353119110097
2013-09-04,0,-6.774341374071204e-05,9.515750893843644e-05,-0.0046013304784294435,0.010054754590531767,0.9915731567259664
2013-09-06,-1,-0.0005215316277855959,-0.0002767467042328077,-0.0055771173289261055,0.010054754590531767,0.9909337812587159
2013-09-10,0,-0.00019099003345294618,5.428623611830011e-05,-0.007926396207084636,0.009293175035579547,0.9914539465593273
2013-09-12,0,-7.842975259159633e-05,0.00014322064401022872,-0.007926396207084636,0.00978064146405262,0.9909949418025278
2013-09-16,-1,-0.0006380178343374371,-0.0003408072422425362,-0.007071608737321484,0.011584715988475661,0.9907810960575852
2013-09-18,-1,-0.0007881855552432455,-0.0004979413885322192,-0.007071608737321484,0.012592479272698699,0.9900890040294509
2013-09-20,0,-9.057577997651997e-05,0.0001107228031905869,-0.007071608737321484,0.011584715988475661,0.990693278978192
2013-09-24,-1,-0.0008130875429985582,-0.0004931602929207476,-0.007411121887468891,0.011584715988475661,0.9900094018695781
2013-09-26,0,-0.00013414708250770286,2.4903481620774785e-05,-0.006914439775383341,0.009849210647208917,0.99106335956863
2013-09-30,1,7.583750602810932e-05,0.00020478415889591152,-0.0065725747997829615,0.009202139683630373,0.9917334222357667
2013-10-02,1,0.0004826689948988101,0.0005808668938433857,-0.0065725747997829615,0.008449289749007598,0.9923482498386368
2013-10-04,1,0.0008057740627636458,0.000834977996535679,-0.00635990402664906,0.004278932959844424,0.9928799662632194
2013-10-08,0,-4.7194751803818766e-05,9.041015035958776e-05,-0.004936401034537634,0.00844962543921814,0.9931684742856639
2013-10-10,1,0.0007836453390728066,0.0007949197581003504,-0.0055476848376345205,0.004278932959844424,0.9928025430633561
2013-10-14,1,0.0014309423356312916,0.0015611468988890628,-0.0055476848376345205,0.00844962543921814,0.9916005300347639
2013-10-16,1,0.0014689847813171698,0.0015963828002935239,-0.004936401034537634,0.004278932959844424,0.992670486843445
2013-10-18,1,0.0017037596881512742,0.001873140576127323,-0.004936401034537634,0.009443862708284666,0.992033236097325
2013-10-22,1,0.0016410429734729955,0.0017919066075806395,-0.004936401034537634,0.004770822685548379,0.9923677339708891
2013-10-24,1,0.0009682480376203485,0.000990334919883932,-0.003070547077560752,0.010566932996531612,0.9919808197704989
2013-10-28,1,0.000488776174025712,0.000534949784722846,-0.0019597321800303436,0.011986858260773406,0.9915346388774252
2013-10-30,1,0.0009830109522892209,0.001058983859940831,-0.0014136311714626711,0.011986858260773406,0.9918162451178472
2013-11-01,1,0.0005314550243346407,0.0005520629385388588,-0.0014199418348373781,0.011986858260773406,0.9916827318745036
2013-11-05,1,0.001016473248043547,0.0010618216553658162,-0.0014199418348373781,0.01188086482626666,0.9915665444014036
2013-11-07,1,0.00020373143285337518,0.00025360270902067357,-0.0004379525967428249,0.01188086482626666,0.9926077676537004
2013-11-11,1,0.0007812943404380331,0.0008084864928799087,-0.0014199418348373781,0.008061677834860642,0.9928307555795602
2013-11-13,1,0.0002775831279734516,0.0004026080885480665,-0.0033062153297254674,0.010678097547729857,0.9917924386665695
2013-11-15,1,0.0011560114073702874,0.0011805055936363832,-0.0033062153297254674,0.01232035191436814,0.9913228720038164
2013-11-19,1,0.0008161050155377722,0.0008765353270387216,-0.0014917157215598574,0.01232035191436814,0.9913712783121046
2013-11-21,1,0.001817449810471865,0.00192526091069061,-0.0031352275379890686,0.01232035191436814,0.9910727774168506
2013-11-25,1,0.0026726103981367716,0.002932912272079203,-0.006890135291452713,0.008703626541917944,0.9909448648082758
2013-11-27,1,0.002899934677879615,0.003210132337244,-0.006890135291452713,0.008703626541917944,0.99106267007004
2013-12-02,1,0.0027723596023506796,0.0030537513201777276,-0.006890135291452713,0.008703626541917944,0.9912685891466604
2013-12-04,1,0.0026110890981598375,0.0028638882848456538,-0.006890135291452713,0.006724786201231001,0.9914877360889635
2013-12-06,1,0.001970482604783107,0.002079423162090912,-0.007788730084881138,0.008818838265968547,0.9906695236269062
2013-12-10,1,0.0011617311635062234,0.0011923141273295574,-0.0026863557088022726,0.013211242877932341,0.9913589444629436
2013-12-12,1,0.000745253751750473,0.0008018592120928289,-0.0022278482178510316,0.013431839910443017,0.990837180603082
2013-12-16,1,0.0020286873984284018,0.0021212657115912987,-0.0022278482178510316,0.007545703538757539,0.9922358707454622
2013-12-18,1,0.002249628083215601,0.002385796641214434,-0.004177755030424935,0.007213813918282989,0.9921361857015034
2013-12-20,1,0.0024068288740582396,0.002557127302279894,-0.003818800014051913,0.00885580119443078,0.9921875571664348
2013-12-24,1,0.0025707367897495536,0.002784118182945051,-0.004177755030424935,0.00885580119443078,0.9911968589073397
2013-12-27,1,0.00274743889997026,0.0029755339554770844,-0.0059002442368182185,0.009981815511927682,0.988817319079162
2013-12-31,1,0.0026943630031463182,0.002906181694808486,-0.0059002442368182185,0.012937255304722674,0.9883210221267803
2014-01-03,1,0.0022823532326402,0.0024507043385787117,-0.0059002442368182185,0.012937255304722674,0.9870163972573883
2014-01-07,1,0.002377573039172684,0.00257110109526316,-0.004177755030424935,0.013378928271480474,0.9873962844847546
2014-01-09,1,0.002495375968547107,0.0026594125055975307,-0.004177755030424935,0.010129039834180283,0.987688938338826
2014-01-13,1,0.003147471290539986,0.0033908738571410977,-0.0038383257150459214,0.009151701186622976,0.9886258368680001
2014-01-15,1,0.003761290463326364,0.004116330453653968,-0.0038383257150459214,0.009151701186622976,0.988705545725086
2014-01-17,1,0.0030980878973949875,0.0033371695116735482,-0.005632654988200921,0.009590472829599423,0.9885016690514293
2014-01-22,1,0.0033546252522043962,0.003550252091208017,-0.011146478332791209,0.009151701186622976,0.987955085980169
2014-01-24,1,0.0017358173571254405,0.0017780749622414009,-0.003229711908853862,0.009151701186622976,0.9896173886043891
2014-01-28,1,0.0008624996907831489,0.000954391625897979,-0.003025447923158521,0.009590472829599423,0.9914016418229299
2014-01-30,1,0.001293367661052114,0.0013489301326784892,-0.003229711908853862,0.008588640283252149,0.9909354487963666
2014-02-03,1,9.619514209795936e-05,0.00023842919909272155,-0.003229711908853862,0.009590472829599423,0.9918420946686146
2014-02-05,1,0.0005202444021821708,0.0006097223412729225,-0.003229711908853862,0.010782478294862965,0.9905865979764799
2014-02-07,1,5.2932441519904405e-05,0.0002203420047984004,-0.003216803434828073,0.010782478294862965,0.9901076677908763
2014-02-11,-1,-0.0002366064818969789,-2.9826992774392366e-06,-0.004003269355092735,0.010782478294862965,0.9900316090147389
2014-02-13,1,0.0004903249386572881,0.0006038159401016276,-0.007559436234741649,0.012262512414762575,0.9896125843274972
2014-02-18,1,0.0001934420595197435,0.00035550680586982926,-0.004003269355092735,0.012262512414762575,0.9902548330204196
2014-02-20,-1,-0.0004953342600443329,-0.0002290626220781966,-0.004003269355092735,0.009334736755905806,0.9912936449148946
2014-02-24,-1,-0.0006297944938962322,-0.0003582073209165592,-0.007186257179138825,0.009334736755905806,0.9908130236091126
2014-02-26,1,0.0004713401812469869,0.0005751404903267749,-0.008269281397394624,0.007515167443247671,0.9904537675071318
2014-02-28,0,-1.2525147286541571e-05,0.00015067844345850148,-0.007186257179138825,0.008516633179765604,0.9906618996226593
2014-03-04,-1,-0.00027600368921611065,-3.2825688239456526e-05,-0.006649008291927691,0.008516633179765604,0.9906762074229806
2014-03-06,1,0.0015128489458966473,0.0015353898692086667,-0.006649008291927691,0.006435801646734287,0.9923847700414802
2014-03-10,1,0.002108652722440621,0.0021841011114702934,-0.009419215750982226,0.002923206704074066,0.9911659123319086
2014-03-12,1,0.0018040742345422107,0.0018407602086614587,-0.008863035756077157,0.003800328012387723,0.990666386763731
2014-03-14,1,0.0018270070416211784,0.001870151903138508,-0.008897182432414275,0.001059791861151304,0.990465995107492
2014-03-18,1,0.0019128453597844022,0.0019654098988406287,-0.008897182432414275,0.00040749534681187887,0.9903888701379946
2014-03-20,1,0.0011506724416949301,0.0012179195955629757,-0.008897182432414275,0.003170689139741865,0.9905358544891734
2014-03-24,1,0.00037513006110717183,0.0005584679787052531,-0.006846926411488535,0.010964162884401746,0.9900272236175789
2014-03-26,-1,-0.0010634701812260513,-0.0007016234342476931,-0.005612258302053384,0.015166635969193053,0.9889174014310194
2014-03-28,-1,-0.0007455378886564112,-0.00040953283858309163,-0.005612258302053384,0.011568939295259924,0.9892755531082685
2014-04-01,1,0.0004919869027603193,0.0006581250265095273,-0.008222357908991933,0.011568939295259924,0.9888402319215042
2014-04-03,-1,-0.0004267676118660695,-8.901633774222278e-05,-0.008222357908991933,0.011568939295259924,0.9883159502048288
2014-04-07,-1,-0.0009391817966794629,-0.0006099239385688432,-0.005975166774174592,0.011568939295259924,0.9888857006913463
2014-04-09,-1,-0.0007421265680284956,-0.00043286729059127075,-0.004759768610215771,0.009966423306600733,0.9898917804699814
2014-04-11,-1,-0.0011739896985780254,-0.0008663513453259745,-0.004759768610215771,0.011568939295259924,0.9894871754337823
2014-04-15,-1,-0.0016562917523069702,-0.0012756303594834365,-0.005289475612511429,0.011568939295259924,0.9888503467571008
2014-04-17,-1,-0.00041015805221778553,-0.00021651040104579081,-0.005289475612511429,0.009966423306600733,0.9896480808744623
2014-04-22,1,0.0012234814254454115,0.0012614196073545705,-0.005616452285977901,0.009770417392564276,0.9901171152310153
2014-04-24,1,0.002310998737829162,0.0024986556558135296,-0.005289475612511429,0.00759886385855447,0.9922339376600454
2014-04-28,1,0.0026502841328117028,0.0028712933194892792,-0.005289475612511429,0.00759886385855447,0.9922181528164497
2014-04-30,1,0.003180934196417501,0.0034623661549133536,-0.002789835625296123,0.007283875826041787,0.9934516676657139
2014-05-02,1,0.003027106055115286,0.0032776473839866175,-0.0020957718939509148,0.00727343067227956,0.9936538625693525
2014-05-06,1,0.001671201614708478,0.001679625056548208,-0.0020957718939509148,0.00727343067227956,0.9937935624835305
2014-05-08,1,0.00166194709842904,0.0016713237785226714,-0.0020957718939509148,0.009291017291978676,0.9928559237158475
2014-05-12,1,0.0027859099262885537,0.002999333897175766,-0.0016771936410898574,0.008487701633743332,0.9940156193091946
2014-05-14,1,0.002826456336443184,0.0030515533019344777,-0.0016771936410898574,0.00727343067227956,0.9940241301184196
2014-05-16,1,0.003034514846774225,0.0033060730686623827,-0.003256493740748408,0.00727343067227956,0.9935311374821372
2014-05-20,1,0.0030055351281618333,0.0032555727800421923,-0.0018124567188741835,0.005982760484682073,0.9944666492789626
2014-05-22,1,0.003222654640071554,0.0035125575191290895,-0.0018124567188741835,0.006219961049026663,0.9944633840695547
2014-05-27,1,0.00362201814020752,0.003961449083055832,-0.005864305838921957,0.004033659988491879,0.9931561838224062
2014-05-29,1,0.0034616952029755703,0.0037495628055885357,-0.005864305838921957,0.005000752850703908,0.9935136230667886
2014-06-02,1,0.0034182083729324877,0.0036992379597064937,-0.005864305838921957,0.005270245878784285,0.9929817844547408
2014-06-04,1,0.0030844928224685124,0.003359149480953806,-0.004829954279344922,0.007028440133267795,0.9933033719960059
2014-06-06,1,0.004424763837809827,0.004922412261802426,-0.005864305838921957,0.004909033479293404,0.9924947014320777
2014-06-10,1,0.004371267867475574,0.004890766963362849,-0.0072778653816684006,0.004909033479293404,0.9921821829641669
2014-06-12,1,0.0036366297043486677,0.0040339961308264605,-0.008381004531242074,0.004909033479293404,0.9919865504686596
2014-06-16,1,0.00359959714547762,0.004053812388863717,-0.008381004531242074,0.005654661685843157,0.9927468953777888
2014-06-18,1,0.0029353086025959057,0.0032193148554549166,-0.008381004531242074,0.005654661685843157,0.9920332567848767
2014-06-20,1,0.0023642916225617644,0.0024893588415106733,-0.008381004531242074,0.005654661685843157,0.9922353672038613
2014-06-24,1,0.001699047133159063,0.0017678398674260238,-0.006636963401876417,0.006845848882588107,0.9925269636232732
2014-06-26,1,0.0009723126050116657,0.0010946122303987361,-0.006636963401876417,0.007235835315015355,0.992306837545774
2014-06-30,1,0.0014991345318064178,0.001545150663534269,-0.00840585560797543,0.005762211684115462,0.9918218872377301
2014-07-02,1,0.0015402218745253393,0.0015914157713582656,-0.00840585560797543,0.007235835315015355,0.9912137513527698
2014-07-07,1,0.0008328249445876527,0.0009653495171325209,-0.008271373150481346,0.007235835315015355,0.9922552373580558
2014-07-09,1,0.000470536762610168,0.0006309180453111722,-0.006636963401876417,0.007235835315015355,0.9923863482800014
2014-07-11,-1,-0.0006449315714337015,-0.00034850262403810785,-0.0050591299713117115,0.007235835315015355,0.9926843788833287
2014-07-15,-1,-0.000643655989048194,-0.0003216148416025459,-0.0050591299713117115,0.007235835315015355,0.9927410694656131
2014-07-17,-1,-0.0015914272288001727,-0.0011462722573520852,-0.0016174092484644298,0.007647075000264769,0.9924646289936718
2014-07-21,-1,-0.000932378802059743,-0.0005948793692665442,-0.003932918907793025,0.0084851233422335,0.991763365479515
2014-07-23,-1,-0.0005140098057631277,-0.00020075046052087022,-0.004332270583635845,0.0084851233422335,0.9921851493471058
2014-07-25,-1,-0.0004241011353861503,-0.00013217634364739983,-0.004332270583635845,0.0084851233422335,0.992291663962606
2014-07-29,-1,-0.0006507755210721649,-0.00041736542134127616,-0.0037568393662549423,0.009689578896377664,0.9922328689273353
2014-07-31,1,0.0008222928532261154,0.0008606273506503213,-0.0037568393662549423,0.007375281616601613,0.9937389704959381
2014-08-04,1,0.000698098014166649,0.0007682486170637855,-0.0037568393662549423,0.0084851233422335,0.9927525665682788
2014-08-06,1,0.0002116079482766092,0.00033673359318028563,-0.0016488088560732512,0.011108707735763666,0.9919609360102091
2014-08-08,1,0.0007943352692687154,0.0008399176804295397,-0.0016488088560732512,0.011108707735763666,0.9925205107872759
2014-08-12,1,0.0008001434854790917,0.0008676101424368286,-0.0029516970275127075,0.011108707735763666,0.9926127196938477
2014-08-14,1,0.0008779635554291449,0.000957052104221988,-0.0029516970275127075,0.011108707735763666,0.9925528909193496
2014-08-18,1,0.0008301019261283395,0.0009764143637737927,-0.0029516970275127075,0.008563552378218492,0.9932563372716227
2014-08-20,1,0.0011981658142389067,0.0012797212762035806,-0.0016488088560732512,0.009676115432998948,0.9929453501022085
2014-08-22,1,0.0013261597019626845,0.001350926215396184,-0.003127796729720936,0.009676115432998948,0.9922105367868944
2014-08-26,1,0.0011594784458737984,0.0012113603585484091,-0.003127796729720936,0.008119468588477487,0.9929520111401543
2014-08-28,1,2.7048808852174803e-05,0.00027239367873349715,-0.004922409294752767,0.009676115432998948,0.9912056302096134
2014-09-02,1,0.0010453392973782038,0.0011652746595508946,-0.005901657916705332,0.00926214078927334,0.9915669651098292
2014-09-04,1,0.001212392266481551,0.0013685412609681967,-0.008360556888613209,0.00751891206743693,0.9907710707813545
2014-09-08,1,0.0008522761238876018,0.0010715001881413245,-0.008360556888613209,0.008119468588477487,0.9899888717176464
2014-09-10,1,0.000852289656983295,0.0010423490318272081,-0.008784278597836877,0.008119468588477487,0.989046632139622
2014-09-12,1,0.0018632094091531107,0.0018817251574451395,-0.015040489310249245,0.007889766419030416,0.986672908153308
2014-09-16,1,0.002194820182324633,0.0022766944592282805,-0.016494498645792863,0.00926214078927334,0.9844210765006274
2014-09-18,1,0.0031595529207210917,0.003400089221048071,-0.016494498645792863,0.010205066003808404,0.9837833638642202
2014-09-22,1,0.0024088270368647895,0.0025884877782906255,-0.016494498645792863,0.013906714898727981,0.9841796500369505
2014-09-24,1,0.0020515440742757845,0.0021805869219548276,-0.018088303330523574,0.01753313725567121,0.9818338990504024
2014-09-26,1,0.0018194703096062596,0.0018815099724257855,-0.018088303330523574,0.015180578429661567,0.983064393092609
2014-09-30,1,0.001753523640696578,0.0018070440866017575,-0.018088303330523574,0.015180578429661567,0.9832140248597752
2014-10-02,1,0.000998754115991839,0.0010137892962011163,-0.01009354832676514,0.01739832460334816,0.983715972789362
2014-10-06,1,0.001134493226325253,0.0011345363639826793,-0.008700680631142472,0.01739832460334816,0.9840284502579185
2014-10-08,1,0.0006654649860637919,0.0007164635997796918,-0.005773066403524089,0.01739832460334816,0.9840969617777524
2014-10-10,-1,-0.001529193624108971,-0.001231115416570931,0.0007441669618862463,0.01739832460334816,0.9849788759428674
2014-10-14,-1,-0.002064182251807161,-0.0017170529787968011,0.0018577949263715431,0.01739832460334816,0.9863876427910916
2014-10-16,-1,-0.0002264231796198225,-0.00012223294667340856,0.0007441669618862463,0.014481505774616729,0.9882810768169418
2014-10-20,1,0.0009681853888347053,0.0010205375439244202,-0.004534819000802225,0.014126097057851283,0.9892335608960315
2014-10-22,1,0.0015049990847126981,0.0016310735874190962,-0.00289075120091911,0.011841321395417789,0.9917247210265476
2014-10-24,1,0.0018042011235796013,0.0019381892869738176,-0.00289075120091911,0.011699781788646448,0.9915013989204622
2014-10-28,1,0.002827770398048653,0.0031459227235212175,-0.004534819000802225,0.0135897292430922,0.9914314654492636
2014-10-30,1,0.003125126583768157,0.0034735800067394844,-0.00289075120091911,0.0135897292430922,0.9912342158597957
2014-11-03,1,0.0034450361882204456,0.00380485048831424,-0.004534819000802225,0.0135897292430922,0.9899385119406664
2014-11-05,1,0.0033245072925301706,0.003630931179470387,-0.00289075120091911,0.011699781788646448,0.9906488401548871
2014-11-07,1,0.0036647000477169015,0.0040140524425056195,-0.004977870403367628,0.009542972948677524,0.9901477685374636
2014-11-11,1,0.004540093473609187,0.005017392706633671,-0.005739129986480341,0.008856862750001717,0.9899495959928042
2014-11-13,1,0.0039751595469651076,0.004314627837338856,-0.006760765827584897,0.008856862750001717,0.98963569782337
2014-11-17,1,0.003355216628691636,0.0036303501563606155,-0.006760765827584897,0.008856862750001717,0.9893995142279293
2014-11-19,1,0.0035592258276390073,0.0038758258796600616,-0.006760765827584897,0.011422025318650973,0.9891097568899984
2014-11-21,1,0.0043490025541608,0.004781613541290621,-0.010004811499079844,0.008787483624691578,0.9889579996359428
2014-11-25,1,0.004290968818802988,0.004670149448623043,-0.010004811499079844,0.009462180642674976,0.9893606101669131
2014-11-28,1,0.004854574613018054,0.0052759867718384715,-0.010004811499079844,0.008354972624273378,0.989760885481357
2014-12-02,1,0.0033436315864085854,0.0035043332233373947,-0.007238335120970028,0.007209517128847509,0.9907015372204601
2014-12-04,1,0.0037320883701541735,0.003955531601475628,-0.010004811499079844,0.007209517128847509,0.9891589680710696
2014-12-08,1,0.002306954783947101,0.0023166447930015295,-0.010004811499079844,0.007209517128847509,0.98943587965046
2014-12-10,1,0.0014926815147724925,0.001584788332189244,-0.010004811499079844,0.009462180642674976,0.9884113409945777
2014-12-12,1,0.001853118993872755,0.0018689735435498188,-0.010846764624100108,0.007209517128847509,0.9886990553533692
2014-12-16,1,0.000678146821614559,0.000833337017031631,-0.009345947283313514,0.007209517128847509,0.9893964016438438
2014-12-18,1,0.000806135288725426,0.001009686438098103,-0.009345947283313514,0.004225365144411249,0.9901313001705422
2014-12-22,1,0.0010412815160660035,0.001167467763574348,-0.009345947283313514,0.004225365144411249,0.988900894808324
2014-12-24,1,0.001755745929527926,0.0017988615438362116,-0.009345947283313514,0.0010055444324412867,0.988360738719711
2014-12-29,1,0.0007599415675070061,0.0009458512640639864,-0.010955829418983893,0.0010055444324412867,0.9883018181711497
2014-12-31,1,0.00030163449200629525,0.0005258152074216827,-0.01338257596302672,0.0010055444324412867,0.9873782589266753
2015-01-05,-1,-0.0009404156517657529,-0.0005782509539238854,-0.011679044085824588,0.006257405117169125,0.9878353258075299
2015-01-07,-1,-0.0019240768989264312,-0.001468419114619784,-0.010955829418983893,0.011278397720461875,0.9870670189709897
2015-01-09,-1,-0.001284287545084594,-0.0009466802918650588,-0.010565851468708327,0.007925053363048412,0.9884159463423225
2015-01-13,-1,-0.0016905153531080147,-0.0013169337219114496,-0.009699063539210347,0.00977504666211559,0.9881586976121367
2015-01-15,-1,-0.0026924545480943576,-0.0021852125367403685,-0.009699063539210347,0.01111451209032311,0.9874433267977336
2015-01-20,-1,-0.002393531236062666,-0.0019208939397518708,-0.009699063539210347,0.01111451209032311,0.9874982720150737
2015-01-22,-1,-0.0019506869756599975,-0.0015182416357036085,-0.009128719841249692,0.010334990776066443,0.9888056268088624
2015-01-26,-1,-0.0012520365631045081,-0.000947690430093746,-0.009128719841249692,0.010114211041559712,0.9894655174021579
2015-01-28,-1,-0.001682552645780167,-0.0013725246681733523,-0.00041181921840973795,0.010114211041559712,0.9900174885060739
2015-01-30,-1,-0.0031494461583827134,-0.0026712033853308493,0.0008364976582765603,0.010334990776066443,0.9897707471999365
2015-02-03,-1,-0.00214891293203766,-0.0017787331120335177,-0.0025798321846495415,0.009659265077821926,0.9910707761825284
2015-02-05,-1,-0.0009102566931403098,-0.0007075716771281189,-0.001956946092543443,0.008454517094667017,0.9934017985011535
2015-02-09,-1,-0.0011303119290458413,-0.0008966555908986695,-0.001956946092543443,0.008454517094667017,0.9933990679170499
2015-02-11,1,1.3743500032645017e-05,6.632392552284185e-05,-0.001956946092543443,0.008588666057544103,0.9934134627822405
2015-02-13,1,0.00031099282597341977,0.00037728117491755357,-0.0025155811744684772,0.007031496741671079,0.9937762043077769
2015-02-18,1,0.0003960616815112658,0.0004674082431839493,-0.0025155811744684772,0.007664891636349398,0.9935247971928612
2015-02-20,1,0.0008941493619144941,0.0008979531450493792,-0.0028508993379041804,0.006887243702262741,0.9937632986042246
2015-02-24,1,0.0010953590780776825,0.0011167233497224496,-0.003514571955390441,0.006399134813803542,0.9928211677022921
2015-02-26,1,0.00032336658220180874,0.00044657359956388446,-0.0063043875297480855,0.006399134813803542,0.99219811729051
2015-03-02,1,0.0008013905924540051,0.0008632538462979979,-0.0063043875297480855,0.005566542905621376,0.9927754273316739
2015-03-04,-1,-0.000522321799312003,-0.00028032618608979376,-0.00489162876891888,0.005566542905621376,0.9927647838291915
2015-03-06,-1,-0.002057690591889287,-0.001527993103256115,-0.01253619401581827,0.005566542905621376,0.9909666495710449
2015-03-10,-1,-0.0030990247058840454,-0.00240698681035959,-0.011424527502907188,0.005566542905621376,0.9912370160339707
2015-03-12,-1,-0.0015117169200415937,-0.001084677019991802,-0.011424527502907188,0.0032835507627856997,0.9918370153480566
2015-03-16,-1,-0.0006733170138479722,-0.0003783990441013084,-0.011424527502907188,0.002648037730767027,0.9922851250376917
2015-03-18,1,8.222189307790877e-05,0.00026691272311124873,-0.011424527502907188,0.002648037730767027,0.992264043697993
2015-03-20,1,0.00015520531153425326,0.00030641439983688254,-0.011424527502907188,0.0033990947719497143,0.9912795742735199
2015-03-24,-1,-0.0005849966228204631,-0.0003784936591869894,-0.005079957676553369,0.005277326563362607,0.9919805038498283
2015-03-26,-1,-0.001029366962399319,-0.0007929338165551331,-0.005079957676553369,0.005436533608246636,0.9918626992493531
2015-03-30,-1,-0.00043753774287896906,-0.0003003166438890559,-0.005079957676553369,0.005474075365900208,0.9917671352265209
2015-04-01,-1,-0.001294510709727325,-0.0010736992200169547,-0.009669933868380588,0.005474075365900208,0.990532462517268
2015-04-06,-1,-0.0027558125903899564,-0.002388219681556044,-0.003229664061075741,0.00594443503494255,0.9915850363766286
2015-04-08,-1,-0.0024087475323281604,-0.002130535383765004,-0.003229664061075741,0.00594443503494255,0.9910156182119039
2015-04-10,-1,-0.00208211866194329,-0.0018553509935061805,-0.003229664061075741,0.007786297958594255,0.9902197229445694
2015-04-14,-1,-0.0023477733795467344,-0.0020609109663643115,-0.0035594749330126077,0.007786297958594255,0.9903399602292923
2015-04-16,-1,-0.0016626401099227237,-0.001470301203313834,-0.006709093819012882,0.007786297958594255,0.9904874083170676
2015-04-20,-1,-0.00032732190367062536,-0.00031598737181153956,-0.006709093819012882,0.007786297958594255,0.9903706588045578
2015-04-22,1,2.4476048770744903e-05,0.00010358125600682197,-0.011278337888306938,0.006257345487312652,0.9899106455243742
2015-04-24,1,0.0005211708081716923,0.0007257428182788165,-0.010934821618202606,0.006257345487312652,0.9896275876150465
2015-04-28,1,0.0004425802162235447,0.000591408602151284,-0.012012782870541128,0.00978283499013249,0.9882635473012332
2015-04-30,-1,-0.0010414024570134903,-0.001025333968993252,-0.010934821618202606,0.00978283499013249,0.9885427262079214
2015-05-04,-1,-0.0009450304946932424,-0.0009058711397991137,-0.011794426398340344,0.006751376337990101,0.9882810335731643
2015-05-06,-1,-0.0017938140851477778,-0.0016300104034956164,-0.010934821618202606,0.008949143723807233,0.988671264118953
2015-05-08,-1,-0.0007281593256834942,-0.0006996334689302259,-0.011794426398340344,0.007434740474527037,0.9875443725493688
2015-05-12,-1,-0.0013628994991947822,-0.0012226538979905788,-0.011794426398340344,0.00877912878278868,0.9873502752750314
2015-05-14,-1,-0.0013315980376824082,-0.0012445909026913356,-0.011794426398340344,0.010117315171555922,0.9871342318036574
2015-05-18,-1,-0.0005194436941911619,-0.0005173273172905965,-0.011794426398340344,0.00877912878278868,0.9878686978742653
2015-05-20,-1,-0.0007949331015759649,-0.0007812931042205318,-0.0070807937621266024,0.011211876018626304,0.9876565879755118
2015-05-22,-1,-0.0006582358600177612,-0.0006447063986921115,-0.004506192984139078,0.00942820603827493,0.9887611554780802
2015-05-27,-1,-0.0005913578617640938,-0.0005891350807980861,-0.006403011687904954,0.00877912878278868,0.9890015512163102
2015-05-29,-1,-0.0031146057755688395,-0.0027732749025772396,-0.004991642349943339,0.00877912878278868,0.9910910687982041
2015-06-02,-1,-0.003889096837681836,-0.0034143035385417577,-0.004991642349943339,0.00877912878278868,0.990916229982313
2015-06-04,-1,-0.002972026802893603,-0.0026192106649151744,-0.004991642349943339,0.008345217682253932,0.9916496378012845
2015-06-08,-1,-0.002828876402357295,-0.002474163797535818,-0.004991642349943339,0.00642984486218131,0.9931654825629577
2015-06-10,-1,-0.0028430514108881842,-0.002457208059110084,-0.006403011687904954,0.00642984486218131,0.992543185455092
2015-06-12,-1,-0.0022482260602665017,-0.0019491520463846806,-0.006403011687904954,0.005557741013363567,0.992656415926941
2015-06-16,-1,-0.002087912850955583,-0.001837913958219893,-0.010388979317880388,0.005557741013363567,0.9919989536576216
2015-06-18,-1,-0.0009779232265756535,-0.0008689530263575351,-0.010388979317880388,0.004482435116347004,0.9920264104486718
2015-06-22,-1,-0.0014359015516697952,-0.0012343586672629058,-0.010388979317880388,0.00642984486218131,0.9912121211971673
2015-06-24,-1,-0.0032873375171786953,-0.0028085183493921305,-0.010388979317880388,0.00642984486218131,0.9915165794064779
2015-06-26,-1,-0.002948951709313564,-0.0025578050167957053,-0.010388979317880388,0.00642984486218131,0.9912083476595974
2015-06-30,-1,-0.0027165264428666673,-0.0023955231614050756,-0.009148115027337547,0.009728720609914532,0.989121292777632
2015-07-02,-1,-0.0027234498713827257,-0.0023993159263269864,-0.009148115027337547,0.010817249348509726,0.9875942929424943
2015-07-07,-1,-0.0028387665678032276,-0.0025326412418489827,-0.007079109061549449,0.012503481531609958,0.9873902046623394
2015-07-09,-1,-0.002348716932707574,-0.0021497887767909316,-0.007079109061549449,0.012503481531609958,0.9879166776872247
2015-07-13,-1,-0.0015847047534978923,-0.0014964423531720413,-0.009148115027337547,0.012503481531609958,0.987424190373937
2015-07-15,-1,-0.002025915591342315,-0.0019138383255122152,-0.00613768070264675,0.012503481531609958,0.987972260053622
2015-07-17,-1,-0.0008760883602596903,-0.000826507601605983,-0.00613768070264675,0.010886903221062321,0.9886862139693866
2015-07-21,1,6.697867968649289e-05,0.0002451923441034263,-0.00613768070264675,0.009212968808517224,0.9894750027599483
2015-07-23,-1,-0.0004706349198376819,-0.00032660879630153923,-0.006733508302445573,0.009212968808517224,0.9891837849743637
2015-07-27,-1,-0.0013708052251192033,-0.001368580898052531,-0.011132723990350257,0.009212968808517224,0.9864592664859171
2015-07-29,1,0.0009093901970502846,0.0011856323387311432,-0.014437089141331119,0.006537963120972712,0.9870311553788573
2015-07-31,1,0.002053691399210569,0.002462174411644912,-0.014437089141331119,0.006174104767461049,0.9876004842020591
2015-08-04,1,0.002789234897643122,0.003342493688886068,-0.015526789852999908,0.0032707272579205193,0.9856775577881084
2015-08-06,1,0.002794610095356359,0.003368015895639964,-0.015526789852999908,0.009212968808517224,0.9853214335703258
2015-08-10,1,0.0029570827184302647,0.0035804133538733605,-0.015526789852999908,0.00998408040735629,0.9851836434323292
2015-08-12,1,0.002755639527228933,0.00334748971986087,-0.015526789852999908,0.014089890264094296,0.9842863463253008
2015-08-14,1,0.002637358098637553,0.0031671754444499837,-0.015526789852999908,0.014089890264094296,0.9839025464593892
2015-08-18,1,0.0022740464846950593,0.002724476949420536,-0.015526789852999908,0.016226807861209853,0.983493669765485
2015-08-20,1,0.0014295440049102216,0.0017850554317914399,-0.014574027465236988,0.016226807861209853,0.9831809523281384
2015-08-24,-1,-0.0011276713667307198,-0.001099814041177731,-0.012512091703309164,0.016226807861209853,0.9849934232463124
2015-08-26,-1,-0.0016664857925561983,-0.001506517641313656,-0.012512091703309164,0.014089890264094296,0.9848870210384677
2015-08-28,-1,-0.0010979913739485138,-0.000994096020368524,-0.012512091703309164,0.011132259910512062,0.9846878079787267
2015-09-01,-1,-0.0025022238344103455,-0.0022426365883500745,-0.008465757129074651,0.011132259910512062,0.986526727204201
2015-09-03,-1,-0.0013668658504771268,-0.0012439692239736815,-0.008465757129074651,0.009470381439853771,0.9867829146225054
2015-09-08,-1,-0.000392727228664494,-0.0003791452084854469,-0.008465757129074651,0.009470381439853771,0.9867398979553256
2015-09-10,1,0.0002107747759409545,0.00033876630842235954,-0.007853429046504438,0.007843646572306129,0.9875344678439081
2015-09-14,0,-3.4999578370739236e-05,6.999228677739849e-05,-0.007494961692839078,0.009470381439853771,0.9868960621773922
2015-09-16,1,0.0004737185435251128,0.0006458799041363194,-0.008577977212052623,0.007843646572306129,0.9862500415684468
2015-09-18,-1,-0.0006305276069181367,-0.0005864046436803832,-0.007494961692839078,0.007843646572306129,0.9879603402187774
2015-09-22,-1,-0.002197791327483606,-0.0019717228544551277,-0.006652241231380094,0.008139680767254938,0.9884621109876351
2015-09-24,-1,-0.0036123958973636487,-0.0032424577540798964,-0.0060553363912180455,0.008197092393939658,0.9895202594173571
2015-09-28,-1,-0.003797204897781171,-0.0033852755946519033,-0.0046870158128440535,0.00753498908132752,0.9896362221856342
2015-09-30,-1,-0.0028561607192884326,-0.0025917667819801028,-0.006236973998381876,0.00753498908132752,0.9872562448071889
2015-10-02,-1,-0.002063436424762936,-0.0018842146571679788,-0.0068091370435945375,0.00753498908132752,0.985880070931294
2015-10-06,-1,-0.0019422350017413163,-0.00175709055722648,-0.0068091370435945375,0.007840997768668579,0.9853853367346703
2015-10-08,-1,-0.0018983001584285419,-0.0017518585533877742,-0.0006583625439925279,0.008370721701825633,0.9849711011267646
2015-10-12,-1,-0.0017035501983117239,-0.0015522350637837195,-0.0034778337223438406,0.008370721701825633,0.9845223246120494
2015-10-14,-1,-0.002024993676585728,-0.0018504687044924306,0.0020917270636451935,0.009714064428002968,0.9847217699204147
2015-10-16,-1,-0.0015858079051752846,-0.0014753630822045896,-0.0072961957913187615,0.009714064428002968,0.9839150072929398
2015-10-20,-1,-0.0015577428007212952,-0.0013784208280052867,-0.0072961957913187615,0.009714064428002968,0.9846842195901615
2015-10-22,-1,-0.00122400438398309,-0.0010739682973715855,-0.0072961957913187615,0.01256740088439511,0.9846829501598907
2015-10-26,-1,-0.0005721404062813257,-0.0005231310855500397,-0.013153676281581692,0.01256740088439511,0.9847581445248976
2015-10-28,-1,-0.00258128558022906,-0.002313140238223736,-0.0022877165392750443,0.01256740088439511,0.9868406496354241
2015-10-30,-1,-0.0017139323993305227,-0.0015606740432886795,-0.0022877165392750443,0.01256740088439511,0.9879598500477007
2015-11-03,-1,-0.0005313588737079075,-0.0005279788188675828,-0.005794447618741683,0.010064659679023867,0.9892901898696295
2015-11-05,-1,-0.00013808648670224897,-9.225457098405531e-05,-0.005794447618741683,0.010064659679023867,0.9895691380723233
2015-11-09,0,-9.37202227309887e-05,1.2441010827557355e-06,-0.0075345273925087,0.007411956565225408,0.9897881560510239
2015-11-11,1,0.00055906334335317,0.0007447421975167186,-0.0075345273925087,0.0035686689070877245,0.9906035863740085
2015-11-13,-1,-0.0008813691454441405,-0.000834487232366248,-0.011921453251467106,0.0035686689070877245,0.990009042475842
2015-11-17,-1,-0.0005835443541783062,-0.0005623948520568031,-0.011921453251467106,0.0071030498952236835,0.9883473708426272
2015-11-19,-1,-0.00013459875876045026,-0.00010227927418813326,-0.016190329700990533,0.0035686689070877245,0.98608645967855
2015-11-23,-1,-0.00038479370972115167,-0.00038127772188054,-0.016190329700990533,0.0071030498952236835,0.9854264639135749
2015-11-25,-1,-0.0002250320265091695,-0.00022304029090267736,-0.016190329700990533,0.004348012008814754,0.9859024203188946
2015-11-30,-1,-0.0007136879412128142,-0.0006512037193888132,-0.013243600144134381,0.004348012008814754,0.9874377544048988
2015-12-02,-1,-0.0008600868170446561,-0.0007974208051684297,-0.013243600144134381,0.006324419697441835,0.9872459951912204
2015-12-04,-1,-0.0011837609586024065,-0.0010508426601963515,-0.013243600144134381,0.006686605771877668,0.986866471866421
2015-12-08,-1,-0.001904963676398298,-0.0017217861628899302,-0.013243600144134381,0.006686605771877668,0.9854104130635118
2015-12-10,-1,-0.00115213297525473,-0.0010926699352591077,-0.013243600144134381,0.006686605771877668,0.9851977029287041
2015-12-14,-1,-0.0029739855559569412,-0.0026668684527513704,-0.012223147303779484,0.008059828129836043,0.9844722435383535
2015-12-16,-1,-0.0016482118009200385,-0.001478071440291288,-0.016117447347257,0.004326908719666942,0.9862021022153162
2015-12-18,-1,-0.0024875970106325307,-0.0023111340273751623,-0.012459763092024472,0.004326908719666942,0.9880017654073763
2015-12-22,-1,-0.0008211986346037688,-0.0007331520972377388,-0.012459763092024472,0.006686605771877668,0.9871349083010362
2015-12-24,-1,-0.0005188918275022646,-0.0003711140446766615,-0.017764700147344287,0.008059828129836043,0.9842266814634063
2015-12-29,-1,-0.00019418421048024654,-4.8443465641354044e-06,-0.017764700147344287,0.006909960039085111,0.9836547666012173
2015-12-31,0,-0.00012645067125458096,7.670008625139575e-05,-0.017764700147344287,0.015837645469383124,0.9803167467494982
2016-01-05,0,-0.00011089173007035975,9.12607453983443e-05,-0.021388204414305313,0.015837645469383124,0.9800547701786184
2016-01-07,-1,-0.0017698015715993153,-0.0017396514679866738,-0.012799968787110231,0.017844893164233367,0.9788495499379329
2016-01-11,-1,-0.0020275786466079746,-0.0020268224114495044,-0.012799968787110231,0.019864685398992665,0.978028985616852
2016-01-13,-1,-0.003451482085618669,-0.003244332841680012,-0.016230860858684176,0.019864685398992665,0.9794862782636665
2016-01-15,-1,-0.005498076951342358,-0.004942841037790408,-0.012601157502674301,0.02709346889484977,0.977032209970931
2016-01-20,-1,-0.006068294054263307,-0.005464370210358512,-0.009233015784212721,0.02709346889484977,0.9768973613354781
2016-01-22,-1,-0.003926786412898011,-0.0036135335054056274,-0.009233015784212721,0.02709346889484977,0.9784589351370081
2016-01-26,-1,-0.004212199621924789,-0.003793399534287991,-0.007538055789380759,0.020262751422786388,0.9811602444227713
2016-01-28,-1,-0.004035324668456526,-0.0036986614017456352,-0.0021186851683008827,0.020262751422786388,0.9802384019587607
2016-02-01,-1,-0.0003494843589016226,-0.00019461700278930672,-0.0043028782327383655,0.01774514161887589,0.9837174905159126
2016-02-03,-1,-0.0007860146171551851,-0.0006644714242554958,-0.0043028782327383655,0.01774514161887589,0.9840907753112291
2016-02-05,1,0.0016941698614413058,0.002122789828611649,-0.0016732655791931459,0.014115216475948045,0.9885052016451754
2016-02-09,1,0.0028965026809546724,0.0035190506891165613,-0.0043028782327383655,0.012956961353486814,0.9885193503185018
2016-02-11,1,0.0010597914195554922,0.0013562111794407255,-0.0007931673644622402,0.013296059769642134,0.9889948371988391
2016-02-16,1,0.002793243619603798,0.003279133423514999,-0.004039534683873374,0.009841655253326559,0.9908556471698874
2016-02-18,1,0.0020672980745983353,0.002349717712882679,-0.004039534683873374,0.012956961353486814,0.9895388858363285
2016-02-22,1,0.0025767892628671346,0.0029241747751269313,-0.0048491063534666,0.009841655253326559,0.9896074883710018
2016-02-24,1,0.0023391550119820706,0.0026593542875579207,-0.0061769147801217315,0.009841655253326559,0.9892540205817826
2016-02-26,1,0.0033867088206791162,0.0038829514880053895,-0.006887954848618705,0.00844396284236935,0.9893335344903208
2016-03-01,1,0.004840217719927793,0.005547993473756544,-0.006887954848618705,0.00844396284236935,0.9899960988235775
2016-03-03,1,0.004499476118574038,0.00512728745109532,-0.006219616657683004,0.00844396284236935,0.9901190840314312
2016-03-07,1,0.005443347927995088,0.006223878384419098,-0.007530728177059836,0.005415271280032831,0.9887148951394034
2016-03-09,1,0.00422619909844997,0.004801783406940875,-0.007530728177059836,0.005415271280032831,0.9896492680450601
2016-03-11,1,0.005040825264603999,0.00573724607283449,-0.007530728177059836,0.0016613429505795518,0.9893290488358395
2016-03-15,1,0.004628757159021021,0.00532220845764246,-0.007028453709107611,0.005415271280032831,0.9907534045928156
2016-03-17,1,0.005926249600546697,0.006817108284742959,-0.007028453709107611,0.004882070142147635,0.9904719992723819
2016-03-21,1,0.006010239868088983,0.0069316565706401545,-0.006232009885488091,0.005277269440171371,0.9910013595726667
2016-03-23,1,0.004305795770680627,0.004841426879470936,-0.00462629140368636,0.0069270151389281215,0.9908749496147791
2016-03-28,1,0.004286604309157073,0.004860630854982931,-0.00462629140368636,0.008416780139548857,0.9904284822888813
2016-03-30,1,0.005765482472108484,0.006596996835539682,-0.00462629140368636,0.008856400543097453,0.9890983120408449
2016-04-01,1,0.004448141767377584,0.0051118395387345795,-0.009745068876774874,0.008856400543097453,0.9852637076092167
2016-04-05,1,0.003562675867502702,0.004083557632598017,-0.00935906940349247,0.008856400543097453,0.9856708434966713
2016-04-07,1,0.003445403306821051,0.003983583421822043,-0.012920921219862349,0.008856400543097453,0.984621629174812
2016-04-11,1,0.0030574461299579694,0.0034792755500499747,-0.012920921219862349,0.012428482510879843,0.9840331979601146
2016-04-13,1,0.003667734079117453,0.004186188859542778,-0.013028026469010153,0.00977771892390606,0.9835859370851411
2016-04-15,1,0.003980442375283045,0.004563906502209307,-0.014975562997640291,0.009265883123529007,0.9820548009730252
2016-04-19,1,0.004007020506055671,0.004571593763123288,-0.014975562997640291,0.009265883123529007,0.9817194315602256
2016-04-21,1,0.0033684953157751794,0.0038652933072782585,-0.013028026469010153,0.012146026249722271,0.9827675481997321
2016-04-25,1,0.0030072988421282,0.0034325594822922764,-0.012459910650861175,0.01278040371752645,0.9835493746678428
2016-04-27,1,0.004504916739438237,0.0051032759961001355,-0.012459910650861175,0.006115286234928831,0.9859331885341102
2016-04-29,1,0.0020082352228599602,0.0022750871177711833,-0.011021644990766185,0.006426228133667077,0.9901861345219036
2016-05-03,1,0.0010204956483796435,0.001094129125166826,-0.01105734674048212,0.006426228133667077,0.9901307970971266
2016-05-05,0,-1.1807289446432389e-05,3.895932937693746e-05,-0.00999145654543721,0.006426228133667077,0.9909929679119188
2016-05-09,0,-8.317368621064882e-05,4.987934520423354e-05,-0.00999145654543721,0.005475716355787193,0.9918348977450336
2016-05-11,1,0.0005458557067058417,0.0005561637765494859,-0.00999145654543721,0.0053877403607691145,0.9912192653309706
2016-05-13,-1,-0.0018425647154335085,-0.00147391030442517,-0.009892470630908696,0.0053877403607691145,0.9916952305064161
2016-05-17,-1,-0.0014277266555192533,-0.001144075704297213,-0.010843187835353506,0.0053877403607691145,0.9909985564330356
2016-05-19,-1,-0.0014183990884994396,-0.0011334364022319776,-0.010843187835353506,0.0053877403607691145,0.9912538600442259
2016-05-23,-1,-0.0007011524097589279,-0.000513686667360228,-0.013058421421840785,0.004305434421276268,0.9893168941912636
2016-05-25,-1,-0.0005767358180427138,-0.0004016222654834904,-0.013058421421840785,0.005522730269471203,0.9887331368816801
2016-05-27,-1,-0.0006103751620402599,-0.00042855638671109985,-0.01938063076941716,0.0038645690558532426,0.9860557900653821
2016-06-01,-1,-0.0021503099217790606,-0.0016986832514167504,-0.01938063076941716,0.007380155829750719,0.984894962205366
2016-06-03,-1,-0.00298632903676306,-0.002413705676071855,-0.01938063076941716,0.013918887176041865,0.9836646385767036
2016-06-07,-1,-0.0035212408287418487,-0.002848076207237869,-0.01938063076941716,0.013918887176041865,0.9836227283597583
2016-06-09,-1,-0.004693145796924633,-0.003847214918677583,-0.015911679040682438,0.015399401012759455,0.9830490985154638
2016-06-13,-1,-0.0061060488475049805,-0.0050561704534375414,-0.006443463294285263,0.015399401012759455,0.981955503628617
2016-06-15,-1,-0.005975138082597952,-0.004994420183987994,-0.002157248818386996,0.01621669795604608,0.9813398584863533
2016-06-17,-1,-0.005409161880220894,-0.004511433452146781,-0.0032103142864440574,0.01621669795604608,0.9823536155678427
2016-06-21,-1,-0.005549062364440301,-0.004606213890913043,-0.0027271191652105857,0.015399401012759455,0.9848844486003604
2016-06-23,-1,-0.003581281861272328,-0.0029834603087404484,-0.0027271191652105857,0.015465562862849178,0.9850449009556722
2016-06-27,-1,-0.005879193490615089,-0.004976620543762639,-0.0019000507608441118,0.015465562862849178,0.9850942234928008
2016-06-29,-1,-0.0027024589990165817,-0.002298429802838586,-0.0027271191652105857,0.015465562862849178,0.9880954080154387
2016-07-01,-1,-0.0016894640230537498,-0.001430051881193908,-0.0030792084495203566,0.012920833854956628,0.9899142180114394
2016-07-06,-1,-0.002422634145995461,-0.002046648093165636,-0.0027271191652105857,0.012920833854956628,0.98967475240844
2016-07-08,-1,-0.0010418873200948547,-0.0008840085075975405,-0.0027271191652105857,0.012920833854956628,0.9905711903314216
2016-07-12,-1,-0.0006032733415213796,-0.000500846683047049,-0.0030792084495203566,0.007647243143549745,0.9912445503766609
2016-07-14,1,5.129240359911131e-07,1.9087068085960476e-05,-0.0033078610564477146,0.005075327425473968,0.9919211756729283
2016-07-18,-1,-0.00010730136707561568,-6.983480922773188e-05,-0.003935797860353881,0.005635987133927858,0.9914037428374548
2016-07-20,1,4.063047634175894e-05,4.222363292690418e-05,-0.003935797860353881,0.005635987133927858,0.9914109564795212
2016-07-22,1,0.0009310459909722458,0.0010812857297588106,-0.003935797860353881,0.005635987133927858,0.9929581571093217
2016-07-26,1,0.0010762671618474585,0.0012456891258742458,-0.00486580099616427,0.005061413382950691,0.993188349504952
2016-07-28,1,0.0015797358875231137,0.0018347372442579935,-0.007124551592153666,0.005061413382950691,0.9939060441841917
2016-08-01,1,0.0013524396469392188,0.001558097471573722,-0.007124551592153666,0.005635987133927858,0.9935644983441146
2016-08-03,1,0.0014723724548415702,0.0017145493715394029,-0.005126094847909933,0.0057924948121624515,0.9935735084643089
2016-08-05,1,0.0015853593210195006,0.0018206172834970493,-0.005126094847909933,0.00522066021144503,0.9942038413541014
2016-08-09,1,0.0016947229485966635,0.0019718462190641984,-0.005126094847909933,0.0057924948121624515,0.993867999345368
2016-08-11,1,0.0016373723879624256,0.0019047031841513014,-0.006143827147251105,0.0057924948121624515,0.992027698623186
2016-08-15,1,0.0016558373012451662,0.001918918403352175,-0.006143827147251105,0.0064399028537529684,0.9908386282742019
2016-08-17,1,0.0014867722444978464,0.0017168331672521879,-0.006143827147251105,0.006935600257496943,0.9901929808585889
2016-08-19,1,0.0017679423792745304,0.002060350490128739,-0.006143827147251105,0.0064399028537529684,0.990171635730312
2016-08-23,1,0.0016974136443691874,0.001977596993386742,-0.007097952414501216,0.007131817479817429,0.9893500446737759
2016-08-25,1,0.0014426398572947793,0.0016684165559572956,-0.007900825093273518,0.007131817479817429,0.9891559697536512
2016-08-29,1,0.0014102944508985573,0.0016187539375520073,-0.007900825093273518,0.005641606855509783,0.9895527505632165
2016-08-31,1,0.0017538823224524651,0.0020141375112387753,-0.007900825093273518,0.004984149196538971,0.9901011767193051
2016-09-02,1,0.0018434861811613438,0.0021331053039445893,-0.007900825093273518,0.0065218413252030516,0.9893966062051293
2016-09-07,1,0.0018065006317902659,0.002096466305958369,-0.006117120811208877,0.006805327313316794,0.9896044876242808
2016-09-09,1,0.0011400918954742008,0.001351494953286239,-0.0030277975392983404,0.006805327313316794,0.9916765950971953
2016-09-13,1,0.0009026508979614427,0.0010564396021287392,-0.0030277975392983404,0.006805327313316794,0.9924863840505536
2016-09-15,1,0.0012048883429978316,0.001393223379931938,-0.004478713323064988,0.0057710799826142765,0.9925479786059153
2016-09-19,1,0.0021582749585830146,0.002552504541455326,-0.0038812760082983224,0.0057710799826142765,0.9927032805047801
2016-09-21,1,0.0014756916504414372,0.0016838966102031305,-0.002535866290366444,0.0047485003597084454,0.9939174279424198
2016-09-23,1,0.0007721254773999979,0.0008642582309878624,-0.002404352215368874,0.00526131919122424,0.994147417872321
2016-09-27,1,0.00016615297872821417,0.00020798205540503289,-0.00027942180500095345,0.0057710799826142765,0.9934116307589675
2016-09-29,1,0.0007268862307983267,0.0007971871021932534,-0.00027942180500095345,0.013385590451633657,0.9902373111349033
2016-10-03,1,0.0012733467000743842,0.001407838492469057,-0.003623441804846859,0.007449329543115462,0.9901964250059586
2016-10-05,1,0.001099830958072178,0.0011525407319297033,-0.007234737280912901,0.00526131919122424,0.9899140791086557
2016-10-07,1,0.001161805948755889,0.0012188718592136827,-0.007234737280912901,0.0038617400431438615,0.9897576528275471
2016-10-11,1,0.0011937425038894658,0.001258679554279097,-0.006793337131075451,0.0055442970730249785,0.9894743384803869
2016-10-13,1,0.0009397548756643946,0.0009953295205147412,-0.006030208090652613,0.0157324827518956,0.9869312770979979
2016-10-17,1,0.0010086923218420056,0.0010817767340632642,-0.006030208090652613,0.024607448779969412,0.9851275087802068
2016-10-19,1,0.0011574371973810539,0.001251498597757021,-0.006030208090652613,0.024607448779969412,0.984881517373813
2016-10-21,1,0.0008427214867332816,0.0008715517675889077,-0.006030208090652613,0.024607448779969412,0.9844307176242313
2016-10-25,1,0.000945117121282978,0.0009565739474134434,-0.006030208090652613,0.024607448779969412,0.9849083285904868
2016-10-27,1,0.0028676946290696432,0.0031277435258730483,-0.006030208090652613,0.015120620684690214,0.9877147019653396
2016-10-31,1,0.0016303137516478043,0.00168892928800674,-0.005333524049449117,0.015120620684690214,0.9872361335845631
2016-11-02,1,0.00046946369902977464,0.0006005725212133968,0.0005392658269810229,0.019563681884663106,0.9863554046911737
2016-11-04,0,-0.00023997297461274378,8.196574504198582e-06,-0.0004239632739242879,0.019563681884663106,0.9856668161433869
2016-11-08,1,0.0006875570302241184,0.0008102367065839691,-0.0004239632739242879,0.019574902827080846,0.9857469594814603
2016-11-10,1,0.003179270767919082,0.0033409726461461416,-0.002824592109959041,0.012703296776293383,0.9885979012908293
2016-11-14,1,0.004834332192280912,0.005227151302210502,-0.005606772671658309,0.009953686256783629,0.9897011835228903
2016-11-16,1,0.0039458090527095735,0.004057416186035505,-0.005826274784145026,0.009953686256783629,0.989258017163464
2016-11-18,1,0.004489346701834018,0.0047322572184019095,-0.005244973422347704,0.008848533388224757,0.9897132799657781
2016-11-22,1,0.004836415378390349,0.005177948196460759,-0.006522243116441829,0.009905697870331564,0.988850822330299
2016-11-25,1,0.005044114677846968,0.005358316936353401,-0.007990190003981379,0.005828862982949795,0.9887151438810112
2016-11-29,1,0.004235958958380835,0.004500166557016608,-0.007990190003981379,0.005828862982949795,0.9897842783023068
2016-12-01,1,0.005426556633242472,0.0058773352968671646,-0.007990190003981379,0.004524707320681585,0.9897005217196794
2016-12-05,1,0.004998216245945769,0.005429081819329164,-0.005953791164014269,0.0052964409173473954,0.9908947615459989
2016-12-07,1,0.00584766018581773,0.006375674175024101,-0.007990190003981379,0.004209393171116077,0.9903525341834313
2016-12-09,1,0.004680630768294332,0.005031464174954111,-0.005953791164014269,0.004341878905428132,0.991845128740536
2016-12-13,1,0.0045574470467590325,0.0049632059612395255,-0.0054602226777639646,0.004604660571768889,0.9928110734573787
2016-12-15,1,0.0044126464136349354,0.004811167026061236,-0.005949538306943814,0.004978936965498535,0.9917552657893259
2016-12-19,1,0.004621308826664708,0.005083289759327529,-0.008360702872099007,0.00740970659168788,0.9908006354666887
2016-12-21,1,0.004274429715260991,0.004671599543337933,-0.005949538306943814,0.006800174399742722,0.9914275896976313
2016-12-23,1,0.0036481551764576486,0.003942851613074888,-0.005191696805762846,0.011749555677822526,0.9904490894784109
2016-12-28,1,0.0033332876668621487,0.003625670974208631,-0.005191696805762846,0.011749555677822526,0.9906161521665605
2016-12-30,1,0.003043563081836693,0.0032773985137811287,-0.011652844829754884,0.011749555677822526,0.9895799464585928
2017-01-04,1,0.0033271985794614198,0.0035832476105591496,-0.011991133694638289,0.00905186817804251,0.9887202538824763
2017-01-06,1,0.002522192090823817,0.0026570316289561244,-0.011823889258114546,0.012818589544771102,0.9882958892527671
2017-01-10,1,0.0024758731755031536,0.002586632086192406,-0.012608246032457993,0.01172001260337812,0.9878083889482728
2017-01-12,1,0.002489163420765962,0.002604731072955814,-0.012608246032457993,0.017115942114188532,0.9864876337398192
2017-01-17,1,0.0020335527434954363,0.0020718785001741197,-0.011823889258114546,0.017115942114188532,0.9874850668036721
2017-01-19,1,0.0018353870661786246,0.0018421045113267017,-0.008893424817410771,0.012820265165546175,0.9883083275107643
2017-01-23,1,0.0018241693392222233,0.0018322400491960138,-0.008893424817410771,0.012820265165546175,0.9885734659631228
2017-01-25,1,0.00352603780258425,0.0037723712917061983,-0.010834493719937582,0.0054765128922252704,0.9893620703908272
2017-01-27,1,0.0029196215150982282,0.0030663877496435324,-0.008639223829307643,0.00942419180264619,0.9897022266354097
2017-01-31,1,0.0016430378330013554,0.001679619657310242,-0.006538479704599422,0.010996688941853312,0.9893096915182141
2017-02-02,-1,-0.00048785949439512466,-0.00011360454766970451,-0.00759565959472806,0.010996688941853312,0.9887483392726014
2017-02-06,1,0.00047382585365810437,0.0007456840174503499,-0.008219261391821142,0.00942419180264619,0.9895212820368847
2017-02-08,1,0.0004533617811184028,0.0006936680965424105,-0.008219261391821142,0.00811873016134049,0.9900041963183889
2017-02-10,1,0.0015975992112799747,0.0017116512052454626,-0.008219261391821142,0.004318717116133608,0.990754316113753
2017-02-14,1,0.0007384401984187114,0.0009885622649939488,-0.00890403949992568,0.005887648438032592,0.9906332392166738
2017-02-16,1,0.00018472632913879529,0.0005418692687595458,-0.00890403949992568,0.0007404770905835283,0.9908319897891356
2017-02-21,0,-0.00030971280252566806,0.0001175105645210609,-0.010029165397576317,0.00013465347883861675,0.9898006288281709
2017-02-23,-1,-0.0012367000141797568,-0.0006947752646709379,-0.009147485862067265,0.003956148532173734,0.9907128365112071
2017-02-27,0,-0.0002797454357336257,0.00011622221381079462,-0.009147485862067265,-0.0009087649741790185,0.9908777674291666
2017-03-01,1,0.000635435420308254,0.0009082656100068811,-0.009147485862067265,-0.0009087649741790185,0.9910850651523136
2017-03-03,-1,-0.0009466580287500216,-0.000490668755496319,-0.00737345919076638,0.0016776782873945976,0.9930887896537519
2017-03-07,-1,-0.0016815651618538536,-0.0011383829899931398,-0.007606115998796271,0.0017703345429686045,0.9932763580645764
2017-03-09,-1,-0.0031347480669246483,-0.0023705559484575047,-0.007606115998796271,0.003302790451919998,0.9934872888765904
2017-03-13,-1,-0.00308894947416982,-0.0023253239097713097,-0.008715838467462553,0.003302790451919998,0.9930115080267311
2017-03-15,-1,-0.0036656506176718324,-0.002838704954323121,-0.008715838467462553,0.0016945127019296535,0.9930341517121603
2017-03-17,-1,-0.0044591088162819325,-0.0035279978100410487,-0.01007385299953788,0.003302790451919998,0.9915311674740267
2017-03-21,-1,-0.005409476511960585,-0.0043951292958711915,-0.0072295767258981425,0.003302790451919998,0.9920975392658776
2017-03-23,-1,-0.0037214435022727087,-0.0030363281367291233,-0.0072295767258981425,0.006520992426033494,0.9907697382833207
2017-03-27,-1,-0.004894384058506349,-0.0040147214238538485,-0.0072295767258981425,0.010877177087248724,0.9895413354242719
2017-03-29,-1,-0.005170653788387736,-0.004213436264165116,-0.006828794743040305,0.01301902316410401,0.9878939617161998
2017-03-31,-1,-0.0052006742277261354,-0.004239272424473415,-0.008944235180843498,0.01301902316410401,0.9877001882776472
2017-04-04,-1,-0.005223357910298284,-0.004305317434333178,-0.007263668204368619,0.01301902316410401,0.9879516653713282
2017-04-06,-1,-0.0038461976666185364,-0.0032294350645373443,-0.007263668204368619,0.01301902316410401,0.9883543479039528
2017-04-10,-1,-0.0025089905319078307,-0.002135227756903942,-0.007500030290803527,0.010291336603417129,0.9888479942828022
2017-04-12,-1,-0.0033226584458375423,-0.00287871649974679,-0.007500030290803527,0.010291336603417129,0.9897250159305562
2017-04-17,-1,-0.003049869586682578,-0.0026497208970817556,-0.006470251079641703,0.007037778145227557,0.9909695906135347
2017-04-19,-1,-0.003039352986272695,-0.002652095239946071,-0.007500030290803527,0.009405376625780795,0.9897713690345756
2017-04-21,-1,-0.0011440006223441966,-0.0010321170438904804,-0.007500030290803527,0.009388352289430666,0.9894381147882998
2017-04-25,-1,-0.000992606429060396,-0.0008448690483206245,-0.007500030290803527,0.009388352289430666,0.9895881509889295
2017-04-27,1,0.001436729011494349,0.001659244398590294,-0.007500030290803527,0.009314558621866142,0.990699784221727
2017-05-01,1,0.0003485643643387148,0.00039296215384760876,-0.007100845192280979,0.009314558621866142,0.9912599225852142
2017-05-03,1,0.0008073607458624974,0.0009873519752348011,-0.006111005009826937,0.009314558621866142,0.9912577044573827
2017-05-05,-1,-6.917934315403763e-05,-4.93797901359689e-05,-0.002988287141972102,0.009388352289430666,0.9911419198393495
2017-05-09,-1,-0.0009248195494142722,-0.0008167220545672997,-0.0005921095811713461,0.010070095724171682,0.9903275036539564
2017-05-11,-1,-0.0014422738308963018,-0.0012737455873934075,0.001816094043876497,0.010070095724171682,0.9903210467501739
2017-05-15,-1,-0.0011997894274781357,-0.0010580409074971075,0.0028142740339126083,0.01108596391399632,0.9899522808649387
2017-05-17,-1,-0.001722213300347393,-0.0015192184710536606,0.001816094043876497,0.01108596391399632,0.9905259888815445
2017-05-19,-1,-0.0006478863748222883,-0.0005556891930715185,0.001816094043876497,0.009693494110574637,0.9923789228710019
2017-05-23,-1,-0.00014310021563577438,-8.368895634770226e-05,-0.0001842889139624461,0.00792991690216708,0.9923350246203058
2017-05-25,1,0.0006642348925681714,0.0007046180910591931,-0.002911232588196628,0.006335325054198823,0.992956991151145
2017-05-30,1,0.0008259848998512179,0.000919505811637918,-0.0001842889139624461,0.006335325054198823,0.9933586842090104
2017-06-01,1,0.0007554167722656222,0.0008117499375008172,-0.0010843023285618588,0.006345875056450012,0.991877935939521
2017-06-05,1,0.001356173436142489,0.0015045051814421473,-0.0010843023285618588,0.006345875056450012,0.9920000651333651
2017-06-07,1,0.002190133624410222,0.0024534978887801695,-0.006103746753753227,0.006260026942497805,0.9924528457637781
2017-06-09,1,0.0021624081690126682,0.0024071608972622274,-0.006103746753753227,0.007833421872177662,0.992070891549064
2017-06-13,1,0.00271656165259024,0.003039915761520297,-0.006250926225711151,0.007833421872177662,0.9917131058842917
2017-06-15,1,0.0022544954908430928,0.002523031621100945,-0.005660332655980841,0.007833421872177662,0.9922873968148753
2017-06-19,1,0.0033168988097718047,0.0038227610122938474,-0.006545806135291993,0.007833421872177662,0.9914469511730601
2017-06-21,1,0.0020846863443680416,0.0024077176346904887,-0.006545806135291993,0.007833421872177662,0.9922302379369144
2017-06-23,1,0.0015890782827861533,0.0017903484246410137,-0.005905805431132379,0.008779195227170045,0.9922191431765551
2017-06-27,1,0.0014459659056968626,0.0015814959337978848,-0.005905805431132379,0.010562928127260302,0.9916451759575358
2017-06-29,1,0.0031202757154824828,0.003549622159355652,-0.005905805431132379,0.010562928127260302,0.991208299113434
2017-07-03,1,0.0035825668216160262,0.004054935983245229,-0.008208025774732931,0.008779195227170045,0.9896633060894315
2017-07-06,1,0.004301186714331166,0.0049548359131442125,-0.007172663390996615,0.00817143516566612,0.9899772004613341
2017-07-10,1,0.004640724322790715,0.005324637060934392,-0.007172663390996615,0.008720930927896879,0.9894342420970257
2017-07-12,1,0.005024534249884931,0.005770818730013387,-0.007172663390996615,0.005492237823145809,0.9900772950700129
2017-07-14,1,0.005223721980377632,0.005986766667188085,-0.010233242888164122,0.006226729291998471,0.9888318713981921
2017-07-18,1,0.004101068341622795,0.004672358419372877,-0.0038953879982063736,0.010924405334454866,0.9898029904664448
2017-07-20,1,0.003945016948849748,0.004537059873180563,-0.009274496632308334,0.010924405334454866,0.989345109759506
2017-07-24,1,0.004992834635569393,0.005775912411580391,-0.01141662886378756,0.006226729291998471,0.9880646218166045
2017-07-26,1,0.004807838581806738,0.005480014980999865,-0.013998417888971552,0.005346837838318953,0.9872261891870929
2017-07-28,1,0.0035455204189317087,0.004014646929252108,-0.01109375628320485,0.005346837838318953,0.9895524910378944
2017-08-01,1,0.0016979052483957627,0.0018813499795219822,-0.00687410601818572,0.013703645844018536,0.9902402594905518
2017-08-03,1,0.001875991312847854,0.0020986679975622926,-0.00687410601818572,0.013703645844018536,0.9899067415592734
2017-08-07,1,0.002299815211699251,0.0025487535960596634,-0.00687410601818572,0.011175755562477394,0.9905457666254324
2017-08-09,1,0.002198876402381469,0.0024027601118915163,-0.00687410601818572,0.011175755562477394,0.9903923945975674
2017-08-11,1,0.0011602465658204725,0.001164804527368606,-0.0034741446433409606,0.013703645844018536,0.9911140378101483
2017-08-15,1,0.0016190846065994688,0.0016786347046103384,-0.00687410601818572,0.010792899361523889,0.9910463291813058
2017-08-17,1,0.0002869752689542362,0.0004135263863528828,-0.003387664171824932,0.010792899361523889,0.9920316356365815
2017-08-21,-1,-0.00033247110337724934,-0.00015099347578179892,-0.0015566232116376371,0.011900875291366669,0.9917457081880398
2017-08-23,-1,-0.0004512611097073373,-0.0002554551859886569,-0.0013404797696403344,0.012159363718014307,0.9920722942349444
2017-08-25,0,-0.0001313854064098289,5.606350156141422e-05,-2.9851525181798016e-05,0.011973440349330199,0.9921067881702181
2017-08-29,1,0.0011443636719813614,0.0012044986895230017,-2.9851525181798016e-05,0.010354252349965213,0.9934663494490007
2017-08-31,1,0.0013918492984769735,0.0014183377134253555,8.76654508593169e-05,0.011595278765489393,0.9934481702857721
2017-09-05,1,0.0005345268461523554,0.0007265865153231862,-0.0013404797696403344,0.011595278765489393,0.9928950465370755
2017-09-07,1,0.000293732268302562,0.0005264652910026265,-0.0021023394518417528,0.011595278765489393,0.99249892826152
2017-09-11,1,0.000633009418967317,0.0008479114285867678,-0.0021023394518417528,0.010034466130474191,0.9929942437070448
2017-09-13,1,0.0005484757002803039,0.0007134300556228227,-0.0016082033703045708,0.010034466130474191,0.9934348970011533
2017-09-15,1,0.0007422466611996437,0.0008509199399220333,-0.0016082033703045708,0.010034466130474191,0.992583998279784
2017-09-19,1,0.002646944768840807,0.0028794974855320963,-0.003066542476219216,0.009257566481955701,0.9931166819259368
2017-09-21,1,0.0027213503226700686,0.0028997494823135763,-0.003066542476219216,0.009257566481955701,0.992801889326403
2017-09-25,1,0.0033372510380665138,0.003571089563183619,-0.003963163038204496,0.009009247480765653,0.9924762179720746
2017-09-27,1,0.003503865519758979,0.003711691388317292,-0.004547116337694286,0.00772098893027744,0.9922444376807436
2017-09-29,1,0.0033207024092813528,0.0034552996642449587,-0.004547116337694286,0.009009247480765653,0.9877392416374626
2017-10-03,1,0.002101685487068287,0.002152779048135974,-0.004519713787220201,0.009009247480765653,0.9870428525958527
2017-10-05,1,0.0014926132160001937,0.001615010283699415,-0.004519713787220201,0.009960643353737057,0.9866181861552845
2017-10-09,1,0.0011245320111470678,0.001335298147078395,-0.004519713787220201,0.009960643353737057,0.9865427830438241
2017-10-11,1,0.0014214523117893334,0.0015356501646945461,-0.004026078794529471,0.009960643353737057,0.9864686582057102
2017-10-13,1,0.001275724590980075,0.0013721201531511225,-0.004026078794529471,0.009745578815408463,0.9867974880831114
2017-10-17,1,0.001773344743445798,0.0017739262648858879,-0.005718742485192066,0.009745578815408463,0.9866365791357375
2017-10-19,1,0.0024251099969505264,0.0024968705526636423,-0.007060785561412487,0.00805338546603851,0.9862012595361249
2017-10-23,1,0.0026925502339291193,0.0028018380123308456,-0.006557299042698303,0.00805338546603851,0.9866714592409804
2017-10-25,1,0.0024586801722535257,0.002565584881853935,-0.0038582499549580764,0.012195234513591398,0.9863581719083151
2017-10-27,1,0.00711168155447469,0.0078781078372034,-0.0038582499549580764,0.005276082292557007,0.9894624183596744
2017-10-31,1,0.00597179542438442,0.006583580594794577,-0.003240283162264817,0.012195234513591398,0.9910075302561135
2017-11-02,1,0.006137135057227413,0.006798555842437319,-0.003240283162264817,0.012305192899734186,0.9904982341033308
2017-11-06,1,0.0053078839336839845,0.00581534214879564,-0.002531648183902134,0.012305192899734186,0.9909735535773763
2017-11-08,1,0.0052302598940705,0.005733707022007697,-0.0021834301966405815,0.012305192899734186,0.9910712608151774
2017-11-10,1,0.0036365972888656286,0.003845788465690214,-0.0020780501490809174,0.012305192899734186,0.9912530652512681
