JNU-Tangyin/eata/results/Batch4_SP500/Batch4_SP500-AOS.csv
Date,Action,Predicted_Q25,Predicted_Q75,Actual_Q25,Actual_Q75,RL_Reward
2010-12-14,0,0.0,0.0024765095016521244,-0.009857291550617472,0.007187254058483276,0.9906170973855587
2010-12-16,1,0.001556345097334016,0.0016884768123203448,-0.003631197378427442,0.007187254058483276,0.9917104373787813
2010-12-20,1,0.0009094110258530746,0.0009485539670124643,-0.004908657851156614,0.00506624195133145,0.9927032707410033
2010-12-22,0,0.0,0.0,-0.007045628417937805,0.00506624195133145,0.9922797039332416
2010-12-27,0,0.0,0.0,-0.004343520900687839,0.009321206320007665,0.9897663528246801
2010-12-29,0,0.0,0.0,-0.003232979794626319,0.012174944692072205,0.9886179667453688
2010-12-31,0,0.0,0.0,-0.003232979794626319,0.012640646843239343,0.9873938634806488
2011-01-04,0,0.0,0.0,-0.0041779947188006015,0.012640646843239343,0.9867399165288362
2011-01-06,0,0.0,0.0,-0.006358616809610218,0.011948995696014205,0.987506052462221
2011-01-10,-1,-0.0005906157399627207,-0.000437638729584971,-0.006358616809610218,0.011555155286181461,0.9880354037597217
2011-01-12,-1,-0.0003437352255949087,-0.00018520164546989516,-0.006775981427627068,0.009573980326331716,0.9879238522364566
2011-01-14,0,0.0,0.0,-0.006775981427627068,0.010284036803730667,0.9874088149759703
2011-01-19,0,0.0,0.0,-0.005585783791428907,0.010284036803730667,0.9879992913406112
2011-01-21,0,0.0,0.0,-0.005048402661090471,0.009030970985792936,0.9885454673380704
2011-01-25,-1,-0.0010834008038911878,-0.0008539354038333104,-0.006358616809610218,0.00715839857493408,0.9885222189768508
2011-01-27,0,0.0,0.0,-0.006358616809610218,0.0073950840674003974,0.9891027585277492
2011-01-31,1,0.0004095540594180261,0.00042031818829888504,-0.006358616809610218,0.005594066747398946,0.9901379241328029
2011-02-02,0,0.0,0.0,-0.0057117030094937125,0.005594066747398946,0.9894275313462296
2011-02-04,0,0.0,0.0,-0.005048402661090471,0.007152279193334429,0.9891965340055558
2011-02-08,0,0.0,0.0,-0.004250220985010272,0.009012612840993982,0.9877041526686804
2011-02-10,0,0.0,0.0,-0.004250220985010272,0.009798302604673027,0.9863423665419746
2011-02-14,0,0.0,0.0,-0.0038205543431443657,0.009069887982475123,0.9869527260972867
2011-02-16,-1,-1.0762992163639136e-07,-9.809908634578346e-08,-0.004843226929960881,0.009069887982475123,0.9866565701188357
2011-02-18,1,0.0005557898934490511,0.0005851288151802359,-0.004744412738634716,0.012437031111170534,0.9856869287154424
2011-02-23,-1,-0.0007783004948200745,-0.0006059728789457304,-0.003126693153017097,0.012437031111170534,0.9882138480110735
2011-02-25,0,0.0,0.0,-0.003126693153017097,0.009741149944750028,0.9889088161198941
2011-03-01,0,0.0,0.0,-0.0012385091197807314,0.010108198554925889,0.9892308188906448
2011-03-03,0,0.0,0.0,-0.0012385091197807314,0.009968821172242785,0.9900364481969686
2011-03-07,0,0.0,0.0,-0.0012385091197807314,0.009968821172242785,0.9902561992420529
2011-03-09,0,0.0,0.0,-0.0047028577039286866,0.00847103324448063,0.9910638386279143
2011-03-11,0,0.0,0.0,-0.007509600159973123,0.007463318650101363,0.9922187740586923
2011-03-15,0,0.0,0.0,-0.007509600159973123,0.007463318650101363,0.9919395424707629
2011-03-17,1,0.0,0.0009326306779225737,-0.005030169007833144,0.005664512557242924,0.9928319714142005
2011-03-21,0,0.0,0.0,-0.007897954399642727,0.004260523518646513,0.9928052694077326
2011-03-23,1,0.00012929231030992487,0.00018305833014229002,-0.007897954399642727,0.005664512557242924,0.9918202011618363
2011-03-25,1,0.0008289741252952803,0.0009373357112246409,-0.007897954399642727,0.005802296334088894,0.9916124678521133
2011-03-29,1,0.0018358115677269693,0.001897927161055704,-0.007897954399642727,0.0079256316647897,0.9914252215063865
2011-03-31,0,0.0,0.0,-0.007897954399642727,0.007863179433653831,0.9916717066517036
2011-04-04,0,0.0,0.0,-0.010164689389816992,0.007863179433653831,0.9908358555189958
2011-04-06,0,0.0,0.0,-0.010164689389816992,0.007863179433653831,0.9904249498949311
2011-04-08,0,0.0,0.0,-0.005135989332463542,0.008572087368674057,0.99040783215092
2011-04-12,0,0.0,0.0,-0.008716087786982199,0.00879077233840204,0.9892120925761849
2011-04-14,0,0.0,0.0,-0.014498973643788682,0.00879077233840204,0.98782261368906
2011-04-18,0,0.0,0.0,-0.0132603500592293,0.00860341564499443,0.9882344546270682
2011-04-20,0,0.0,0.0,-0.0132603500592293,0.008428389498553382,0.9896717293318714
2011-04-25,-1,-0.0002816343880520201,-0.00019532734797272295,-0.016234970713119967,0.007836097553992229,0.988787916540107
2011-04-27,1,0.000884790721933652,0.0009758592224480845,-0.016234970713119967,0.0030987934430943137,0.9890160054990853
2011-04-29,1,0.0015933771731227397,0.0018995811583103041,-0.016234970713119967,0.0025262778577423246,0.9879455801194549
2011-05-03,1,0.0006958830161973228,0.000881072794807353,-0.016234970713119967,0.005239211471060316,0.9861662455998745
2011-05-05,1,9.806862324238824e-05,0.00027937736333662005,-0.016234970713119967,0.00622328826504283,0.9863551451874458
2011-05-09,1,0.0004361425867576035,0.0005208262287203999,-0.016234970713119967,0.004513205019777334,0.986966436485776
2011-05-11,-1,-0.0011366813598523043,-0.0009268779888975034,-0.015328275816337663,0.00434079894202192,0.9882934358740186
2011-05-13,-1,-0.0029487908615936733,-0.002482766926976053,-0.01327567975115152,0.00434079894202192,0.9892782956303514
2011-05-17,-1,-0.0034174871066617375,-0.002917585468596984,-0.015374264892104323,0.004980063580493607,0.9874263746670285
2011-05-19,-1,-0.003564070578867353,-0.003006988805412512,-0.015374264892104323,0.006661017805056981,0.9864534213571908
2011-05-23,-1,-0.005103216662285095,-0.0043847860577810515,-0.005552409178196736,0.012011423289271217,0.9855952498022108
2011-05-25,-1,-0.0059095059281230045,-0.005085624865075754,-0.005105739590945876,0.012011423289271217,0.9850132831513964
2011-05-27,-1,-0.004757303198279385,-0.004082278150990456,-0.0068146970778567685,0.010486291424337605,0.9865840785136053
2011-06-01,-1,-0.005261642244451471,-0.004560916856846058,-0.005103665133334801,0.010225295908781584,0.9884803153979894
2011-06-03,-1,-0.004403092993244127,-0.003837066917222118,-0.0030178965521002977,0.012011423289271217,0.9874187526366307
2011-06-07,-1,-0.00483706433323825,-0.004221837364466277,-0.004663991055204288,0.012011423289271217,0.9876374521088075
2011-06-09,-1,-0.004523046896393511,-0.003931715609452161,-0.005493600385854154,0.012011423289271217,0.9867907726716175
2011-06-13,-1,-0.004494166338882543,-0.003929669407117449,-0.005493600385854154,0.012011423289271217,0.9862339030227435
2011-06-15,-1,-0.004309617883372349,-0.003762492078045532,-0.005493600385854154,0.010705501813837205,0.9882601596667524
2011-06-17,-1,-0.0013933698313980006,-0.0013674364571857555,-0.0068146970778567685,0.00951405227012936,0.9894383404288364
2011-06-21,1,0.001453118290628501,0.0016973346884075896,-0.0068146970778567685,0.008371578849443388,0.9873258930407085
2011-06-23,1,0.0009827126487859533,0.0011034710296256658,-0.006422389502837404,0.01089391536220182,0.9866055660605346
2011-06-27,1,0.0010710192341394503,0.0012250489803484446,-0.008641019605651846,0.01089391536220182,0.985461826664368
2011-06-29,1,0.0014356566410389376,0.0016364979858176352,-0.012990976779962686,0.009963461334049996,0.9839079413247233
2011-07-01,1,0.003129509247928046,0.0035567717317062696,-0.012990976779962686,0.0035824384357560574,0.9854218942156948
2011-07-06,1,0.002783777138709434,0.0031389704892992682,-0.017676507102660926,0.004562483526842494,0.984245494001755
2011-07-08,1,0.002197949454310326,0.002566046696707417,-0.022111168202045308,0.0035168653201944847,0.9824555256703892
2011-07-12,-1,-0.00016438926040055217,-4.0534385149287194e-05,-0.022111168202045308,0.004562483526842494,0.9785472381276716
2011-07-14,1,0.000994013713388408,0.0011133159903845332,-0.024862206594744588,0.007883655590952181,0.9733833967630472
2011-07-18,1,1.98646906887103e-06,0.00015524231076960248,-0.024862206594744588,0.013330421970048698,0.9732610193098057
2011-07-20,1,0.0014703915131143645,0.0015224870599194738,-0.024862206594744588,0.01199883053072263,0.9750949900215988
2011-07-22,1,0.0017190558407731524,0.0017649002089163413,-0.02947511576377964,0.004139646345674208,0.9729624284393563
2011-07-26,1,0.00132697125129631,0.001373233374842794,-0.02947511576377964,0.007802551583205149,0.9727571895934494
2011-07-28,1,0.0007338091904904067,0.0007701564755793025,-0.026505832141333882,0.011934395034198395,0.9731998884311102
2011-08-01,0,-2.470706352085598e-05,5.152740093628154e-05,-0.026505832141333882,0.022899424975183734,0.9686308966283328
2011-08-03,-1,-0.0007695359366703841,-0.0007299633723816271,-0.02265904338424174,0.022899424975183734,0.9699363429984927
2011-08-05,-1,-0.0037675770598289884,-0.0033726334582436703,-0.02187488251495604,0.022899424975183734,0.9699812416657939
2011-08-09,-1,-0.0024852953437243547,-0.0021234521998631465,-0.020405319646644743,0.019670315877318108,0.9741113275558578
2011-08-11,-1,-0.001535284644581576,-0.0014847711552189043,-0.020849001109840372,0.013137115480475994,0.977809097344036
2011-08-15,-1,-0.0011317655517950483,-0.0011131668382827367,-0.021838944637285355,0.01387220920754496,0.9768856684178111
2011-08-17,1,6.910375531725367e-05,8.465280201225617e-05,-0.021838944637285355,0.019997467067333054,0.976646084199945
2011-08-19,-1,-0.0023091270514600686,-0.0020406608549578507,-0.0207172278471115,0.019997467067333054,0.9782692904073341
2011-08-23,-1,-0.0012018704874339533,-0.0011639487596647254,-0.021838944637285355,0.014467947042292062,0.9785694142130751
2011-08-25,-1,-0.0013120159024468626,-0.0011906373860335374,-0.021838944637285355,0.014467947042292062,0.979076932205369
2011-08-29,1,0.0014631238471172195,0.001666772227549873,-0.021838944637285355,0.008429544954441297,0.9821175593683968
2011-08-31,1,0.0003906558459709604,0.0004478922260980356,-0.023795810137756238,0.011840837457600891,0.9800365867666753
2011-09-02,-1,-0.0014014892179951169,-0.0011882475994239121,-0.029634177327772654,0.011840837457600891,0.9779512728215661
2011-09-07,-1,-8.994795225197668e-05,-1.6661603011427963e-06,-0.029634177327772654,0.014467947042292062,0.9763243233582384
2011-09-09,-1,-0.0032608074722804766,-0.0029568451289794188,-0.029634177327772654,0.019542865732634175,0.9763199773613458
2011-09-13,-1,-0.0036487446819091322,-0.003311024247251281,-0.028690718779704544,0.01962544046614859,0.9764804073441621
2011-09-15,-1,-0.002055860119909824,-0.0019687166634074463,-0.028690718779704544,0.01962544046614859,0.9768666833031655
2011-09-19,-1,-0.0008899731391220168,-0.0008355095654455226,-0.03106660869257791,0.02003468142627667,0.9743001584109656
2011-09-21,-1,-0.0031907770403509046,-0.0029584256846141624,-0.028690718779704544,0.021327368918269553,0.9735313745155025
2011-09-23,-1,-0.004521069415004812,-0.004105715196419143,-0.021295493365743108,0.025306406207232634,0.9693979432949984
2011-09-27,-1,-0.004688816008152281,-0.0041987661670494295,-0.021295493365743108,0.026626165347201056,0.9688847240470981
2011-09-29,-1,-0.005185583018686338,-0.00476748764386498,-0.01599934775469029,0.03724939106134467,0.9681803968543328
2011-10-03,-1,-0.009435851230454591,-0.008507639307118849,-0.012547653535831673,0.03724939106134467,0.9707786654282538
2011-10-05,-1,-0.007345438169208768,-0.006633825822878386,-0.01599934775469029,0.031465959087077,0.9710274481819431
2011-10-07,-1,-0.006828179264214262,-0.006138244318494881,-0.012547653535831673,0.03724939106134467,0.9693499674281546
2011-10-11,-1,-0.005944259025330282,-0.005391536532348473,-0.012547653535831673,0.031465959087077,0.971588833855269
2011-10-13,-1,-0.005051051963399649,-0.004520992410607056,-0.01599934775469029,0.031465959087077,0.9710923856662812
2011-10-17,-1,-0.006618556409941136,-0.005915344413588533,-0.01438203622802272,0.031465959087077,0.9732923314687667
2011-10-19,-1,-0.005378514806057147,-0.004864256042531396,-0.012329134283518445,0.017561886875292403,0.9747171253848921
2011-10-21,-1,-0.0004988927120577391,-0.00043587486545233284,-0.01392358118653399,0.012894065944286241,0.9788287462278048
2011-10-25,-1,-0.0005446812954633785,-0.0004890603129540684,-0.01508810160092264,0.011301771984935927,0.9797836593772222
2011-10-27,1,0.0014427670868171851,0.0017606526126094026,-0.01508810160092264,0.007135498590011773,0.9818771249113178
2011-10-31,0,-3.9258537234967256e-05,9.163178885507881e-05,-0.01392358118653399,0.011301771984935927,0.982070367604445
2011-11-02,-1,-0.0013299420082367663,-0.0012973911498017734,-0.01392358118653399,0.011301771984935927,0.9815450075982919
2011-11-04,1,0.000876147209475905,0.0011222579401678398,-0.01392358118653399,0.011518015305038418,0.9829973270946182
2011-11-08,1,0.0006274709398793984,0.0008955782789970936,-0.01392358118653399,0.011518015305038418,0.9833215231196408
2011-11-10,0,-5.167834285455246e-05,0.00017039575453803963,-0.01392358118653399,0.013580023743417664,0.9814663591828644
2011-11-14,1,1.308797341618474e-05,0.00024431767521371336,-0.015727874256767735,0.011555243143862366,0.9811166083295135
2011-11-16,1,0.0004398194615726907,0.0007405600087945615,-0.018385162086441538,0.005658633951267743,0.980545202787658
2011-11-18,1,0.00032439680439708097,0.0006094604850577319,-0.01625118086664719,0.017039893442105294,0.9802361882873132
2011-11-22,1,0.0003576366160410356,0.0007348862788108135,-0.013061263316995987,0.022281601866610774,0.9800232961553328
2011-11-25,1,0.0006205701185080701,0.0010256764723659466,-0.013061263316995987,0.022281601866610774,0.9789920895335982
2011-11-29,1,0.001623839146037706,0.0021554306380492843,-0.01625118086664719,0.016355706411477162,0.9799321452341754
2011-12-01,1,0.0017651767090063031,0.002295131491086027,-0.015910172840985122,0.016355706411477162,0.9818944681256895
2011-12-05,1,0.002750805952658187,0.0033978814619921704,-0.015910172840985122,0.01716434468820612,0.9819090341630425
2011-12-07,1,0.002771290671724918,0.003385349510758365,-0.015910172840985122,0.01716434468820612,0.9818432809872654
2011-12-09,1,0.004060302684951387,0.004951144352227626,-0.013061263316995987,0.015183604032246927,0.9857818449951926
2011-12-13,1,0.003652732444691923,0.004525804688491506,-0.0014075706387869972,0.015183604032246927,0.9875006932538902
2011-12-15,1,0.0025010159335721077,0.003205121257167817,-0.00017581951828005756,0.015183604032246927,0.98750799927528
2011-12-19,1,0.0025038005498752465,0.0030862188456076065,-0.00017581951828005756,0.014749687526693069,0.9881022911928872
2011-12-21,1,0.0034403102121711476,0.0041655673262904775,-0.009118368467774774,0.012515978564378086,0.9881093163742781
2011-12-23,1,0.0030938614656031774,0.0038372649501545084,-0.009118368467774774,0.011171116042060083,0.9883860881341681
2011-12-28,1,0.0013334734195111476,0.00158841448411725,-0.006694450712008989,0.011794759904944453,0.9882616457986436
2011-12-30,1,0.0009419229277892595,0.001235189549157713,-0.0062517795266371756,0.011171116042060083,0.9901602257265792
2012-01-04,1,0.0020741598246761597,0.002607325369672003,-0.0062517795266371756,0.010425297929418013,0.9912082250916286
2012-01-06,1,0.0024260741032281407,0.0030985303863949563,-0.0015483463814216123,0.011171116042060083,0.9899394601881649
2012-01-10,1,0.002225600646302798,0.002844917122997433,-0.0015483463814216123,0.011794759904944453,0.9896141964414285
2012-01-12,1,0.0016803115148465628,0.0020672947339868053,-0.0065192687091568105,0.011794759904944453,0.9880192537793644
2012-01-17,1,0.001577397078103098,0.002063774504623475,-0.0015483463814216123,0.011819997418579056,0.9883976934506525
2012-01-19,1,0.0010504628266274105,0.0014586804978209095,-0.0015483463814216123,0.01218321779715455,0.9881964952929725
2012-01-23,1,0.0021937587273262024,0.0028660339819218486,0.0003532817627459496,0.01218321779715455,0.9898932564860285
2012-01-25,1,0.002785535018962608,0.0035464342879994192,-0.000590111583991658,0.01218321779715455,0.9905885838668187
2012-01-27,1,0.0022522993144608273,0.0027834292212657614,-0.002227346125911982,0.011114618396451031,0.9902346863886023
2012-01-31,1,0.0028896353542183662,0.0035529922785151975,-0.003945780816760686,0.011114618396451031,0.989664747863751
2012-02-02,1,0.002804146678034338,0.0032950159629489724,-0.0054232663206438755,0.010024708203304346,0.9899873829395899
2012-02-06,1,0.0031102647618427293,0.003688030413690759,-0.007907874812843576,0.006522624444420338,0.9895285035204783
2012-02-08,1,0.0037615825380085087,0.004390130845009867,-0.007907874812843576,0.0067896862108119595,0.9891132635897684
2012-02-10,1,0.002538102699274138,0.0030399291040862086,-0.0054232663206438755,0.006651154026629616,0.9909845696811452
2012-02-14,1,0.002212358133632985,0.0024584922164002905,-0.007907874812843576,0.006651154026629616,0.9891458177132111
2012-02-16,1,0.002158456706848664,0.0023699947763587063,-0.0054232663206438755,0.006651154026629616,0.9891221790039074
2012-02-21,1,0.0021713536524166884,0.0024593089238572827,-0.007907874812843576,0.006651154026629616,0.9885687043691279
2012-02-23,1,0.0014210949588859473,0.001564328556543056,-0.009451537336677102,0.006651154026629616,0.98802559351845
2012-02-27,-1,-0.001315571878842184,-0.0008037168649815882,-0.009353058953845821,0.009786574123299977,0.987681178139624
2012-02-29,-1,-0.0013283297953435018,-0.0008287238758454055,-0.009353058953845821,0.009786574123299977,0.9877930611578254
2012-03-02,-1,-0.0018218419750844412,-0.001307015621319282,-0.008203235827340878,0.006694623008307424,0.9886200927073988
2012-03-06,-1,-0.0034900764856762505,-0.002800723565310778,-0.008203235827340878,0.008558967372270559,0.9892305763469036
2012-03-08,-1,-0.002229357240327824,-0.00166467722055833,-0.009353058953845821,0.004409804924755959,0.9904254040025983
2012-03-12,-1,-0.004175181543703757,-0.0032895752196249015,-0.011211991961316956,0.0036279525170416016,0.9896211765947847
2012-03-14,-1,-0.0038566006563666767,-0.0030062574719630273,-0.009842047321662703,0.005031253046077003,0.9887006994333432
2012-03-16,-1,-0.0003396213565895023,-6.0947389369268596e-05,-0.011211991961316956,0.004536335804941098,0.9880411590385699
2012-03-20,1,0.0005276746607677245,0.000703395948682875,-0.009842047321662703,0.006621544416841894,0.9877926922271754
2012-03-22,-1,-0.0006065804679257911,-0.00037148895440387375,-0.009842047321662703,0.009237149774131061,0.9858292726506023
2012-03-26,-1,-0.0008234709828993793,-0.0003751866913351003,-0.011211991961316956,0.008603896264189856,0.9863425627068775
2012-03-28,0,-4.5067789944194456e-05,0.00016139361911589269,-0.011211991961316956,0.010549986151184451,0.9857443217147742
2012-03-30,1,0.0006995317994806803,0.0007362910690669943,-0.012348310816250666,0.012089818691473365,0.983663597552471
2012-04-03,1,0.0003537215764003506,0.0004440461444434458,-0.011546934449161146,0.012089818691473365,0.9845508430094737
2012-04-05,-1,-0.0009804083814859616,-0.0007214924612393588,-0.014174184442348371,0.012089818691473365,0.9839007289246874
2012-04-10,-1,-0.002066643026746408,-0.0016638925187314856,-0.00935165758972305,0.012089818691473365,0.9850605365788664
2012-04-12,0,0.0,0.0,-0.00935165758972305,0.007119144540782141,0.9881538308374538
2012-04-16,0,0.0,0.0,-0.00935165758972305,0.00673490046795007,0.9882729053186932
2012-04-18,0,0.0,0.0,-0.013470350293146898,0.00673490046795007,0.9869894005090315
2012-04-20,0,0.0,0.0,-0.014454408922091284,0.003508515024588627,0.9881002646356568
2012-04-24,1,0.000504118925968951,0.0006863316946102442,-0.014454408922091284,0.005667789287965133,0.9879347580422907
2012-04-26,1,0.0016700142119179385,0.0016957971715029203,-0.014454408922091284,0.006061490919647504,0.9870607751338338
2012-04-30,1,0.001792026949759237,0.0018445863867995911,-0.014454408922091284,0.006061490919647504,0.9870797394242786
2012-05-02,0,0.0,0.0,-0.016379866290565006,0.008641558276127382,0.9853775615325757
2012-05-04,0,0.0,0.0,-0.017846388171482253,0.008641558276127382,0.984700966234579
2012-05-08,0,0.0,0.0,-0.017846388171482253,0.01684448183960492,0.9823197894275012
2012-05-10,0,0.0,0.0,-0.017846388171482253,0.0211118273810331,0.9812118178634726
2012-05-14,0,0.0,0.0,-0.017846388171482253,0.0211118273810331,0.980462809197409
2012-05-16,0,0.0,0.0,-0.016159243786145028,0.0211118273810331,0.9808854818871906
2012-05-18,0,0.0,0.0,-0.012082501719134144,0.0211118273810331,0.982361093922236
2012-05-22,0,0.0,0.0,-0.016159243786145028,0.018032368407073236,0.9818963973979608
2012-05-24,-1,-0.00035318020907198783,-0.00011717041995951225,-0.017675108161332186,0.01618417607678533,0.9816910276136147
2012-05-29,1,0.00018668605916299198,0.0002748791902745031,-0.01736991685117155,0.01618417607678533,0.9818510972731631
2012-05-31,-1,-0.00034728443760757675,-0.00018578624830439827,-0.015562834340519699,0.018032368407073236,0.9821814317012882
2012-06-04,-1,-0.0015317646569624238,-0.0012552051831371596,-0.009037045950975969,0.021180915591048965,0.982263743818075
2012-06-06,1,0.00035943983311954105,0.00039572265592195227,-0.009037045950975969,0.018032368407073236,0.98471399992075
2012-06-08,1,0.0009487961662039568,0.0009569955507535495,-0.015479901584274886,0.01618417607678533,0.9854255645725146
2012-06-12,1,0.00040286809969176127,0.0004656302895727521,-0.015479901584274886,0.010062008675766934,0.9861516655718239
2012-06-14,0,-0.00011640222661553486,6.0536480080697396e-05,-0.009065278290501256,0.016249001202854073,0.985841050456176
2012-06-18,0,0.0,0.0,-0.011690263986624917,0.016249001202854073,0.9855305343032612
2012-06-20,0,0.0,0.0,-0.011344327990391872,0.01825480913406008,0.9837603569893922
2012-06-22,0,0.0,0.0,-0.009066447283184387,0.01825480913406008,0.9848243765827456
2012-06-26,0,0.0,0.0,-0.010799369775459288,0.009782713694732825,0.9851308773913512
2012-06-28,0,0.0,0.0,-0.010799369775459288,0.015170451500210807,0.9848602099965238
2012-07-02,1,0.0031271157007496274,0.003523004040059434,-0.012379322707821397,0.009516295454196438,0.9845369326411368
2012-07-05,1,0.0011490404078583546,0.001254174039982911,-0.014304658677091657,0.010506403701603672,0.9842693140435664
2012-07-09,1,0.0026029822631171593,0.0028636979259868737,-0.012379322707821397,0.015170451500210807,0.983783013902245
2012-07-11,1,0.0018509180542223926,0.0020203461089743483,-0.010799369775459288,0.016202478231025916,0.9842359849422228
2012-07-13,1,0.003350336326756487,0.00368622525928349,-0.010799369775459288,0.010506403701603672,0.9853099041577913
2012-07-17,1,0.0028961389892128114,0.0032220622234711747,-0.009597076001106496,0.010506403701603672,0.9856801111649472
2012-07-19,1,0.003933942306164661,0.004304491072809972,-0.008665682691733456,0.01488276579089259,0.9874159990482972
2012-07-23,1,0.003208116522467195,0.0034182248901672035,-0.006446006224196528,0.01488276579089259,0.9880329390200568
2012-07-25,1,0.0025021440711725986,0.002619421774950118,-0.005326379081275044,0.01488276579089259,0.9893027910178599
2012-07-27,1,0.0027897327152067095,0.002842848138437642,-0.005326379081275044,0.009522443441914497,0.9903829353783267
2012-07-31,1,0.002606440392408313,0.002696503304014066,-0.002653374346182561,0.009522443441914497,0.9916924689616374
2012-08-02,1,0.003129991608710322,0.003245620637448229,-0.002653374346182561,0.009324856114351998,0.9919906361400784
2012-08-06,1,0.0030205261062689003,0.0031931687167796995,-0.0017214764288587074,0.009324856114351998,0.9918476831013241
2012-08-08,1,0.003412068855601107,0.0035683126336884807,-0.0034083247783045453,0.009324856114351998,0.9917216770708549
2012-08-10,1,0.0035218056522509323,0.0036530852212932553,-0.0035142774985766107,0.008893007247142086,0.991663109704166
2012-08-14,1,0.0032595556176372885,0.003324685418040412,-0.0012679250849917858,0.011013407810176339,0.9917353384725882
2012-08-16,1,0.004657521843964547,0.004930771338508952,-0.0012679250849917858,0.008168894298045279,0.9931326806797776
2012-08-20,1,0.004039908185377429,0.004293616835175153,-0.0022773360694110264,0.008893007247142086,0.9923177192893512
2012-08-22,1,0.0037591971994431475,0.003889046901675882,-0.0017033514442158317,0.011013407810176339,0.9917722434474252
2012-08-24,1,0.003577146811181601,0.003707952316057842,-0.0017033514442158317,0.010879885770237102,0.9916067284373568
2012-08-28,1,0.0032792998179488,0.003354365396448687,-0.007083868024942265,0.010879885770237102,0.9901540279651053
2012-08-30,1,0.0024058155122994663,0.0024467503703466758,-0.005858423025669277,0.011904395935828932,0.9894642722793563
2012-09-04,1,0.0039050502999680974,0.004112005468166285,-0.005858423025669277,0.010879885770237102,0.9897641254259415
2012-09-06,1,0.0030910432575556542,0.003099220564844764,-0.005278066006789593,0.010879885770237102,0.9906257523477257
2012-09-10,1,0.002544586080701804,0.002646062367328417,-0.005078464207988198,0.010879885770237102,0.9911225432590443
2012-09-12,1,0.0033779350870367045,0.0035837302162197706,-0.005574032765060388,0.006565594921923983,0.9903338438579641
2012-09-14,1,0.0034624449082464974,0.003647540611762686,-0.007042067378275554,0.004669810722267506,0.9894899179693234
2012-09-18,1,0.004011320777619304,0.004286217959195707,-0.005965074882630792,0.0028214050068498813,0.9902091208851456
2012-09-20,1,0.0031101747488883496,0.0032986290004867404,-0.005965074882630792,0.005244945688079188,0.9897365006747421
2012-09-24,1,0.004162409950241207,0.0044902278284804035,-0.005965074882630792,0.00445677691145523,0.9893060123590987
2012-09-26,1,0.0032812458725921655,0.003370661227073656,-0.005162637455457787,0.0048085258256942865,0.991410957151151
2012-09-28,1,0.003597902963134863,0.0037241555831946838,-0.005206084471319815,0.0048085258256942865,0.9919199732857134
2012-10-02,1,0.0028274858070782786,0.0028653416446477553,-0.00323679185323207,0.011411263326039995,0.9916561822480945
2012-10-04,1,0.0020987934632548536,0.0021591019389740184,-0.005965074882630792,0.010082333196012061,0.9902838557159817
2012-10-08,1,0.003029815710037261,0.0030346061765536172,-0.007042067378275554,0.012071139836277906,0.9881401584566237
2012-10-10,1,0.0005063286788634887,0.0008140562672270458,-0.004695794836509825,0.012071139836277906,0.9887169551117179
2012-10-12,1,0.00017352823872216752,0.0005123954184761419,-0.002492341521877932,0.012071139836277906,0.9892748478861056
2012-10-16,1,0.0005107374139846489,0.0007366456192062022,-0.004287551446337433,0.012071139836277906,0.9884664891765098
2012-10-18,1,0.003027755149691157,0.0030951657178020153,-0.004287551446337433,0.01200768592550207,0.989456299820378
2012-10-22,1,0.002884012770949784,0.0028950632324691427,-0.005886540170747259,0.01416451412382243,0.9883888905556132
2012-10-24,1,0.0015865596320379992,0.0018254671994602186,-0.005886540170747259,0.014715470193253014,0.9876223498650148
2012-10-26,0,0.0,0.0,-0.005978274590661914,0.014715470193253014,0.98795450988898
2012-11-01,0,0.0,0.0,-0.005978274590661914,0.014592845148579751,0.9881250183955456
2012-11-05,0,0.0,0.0,-0.004287551446337433,0.014592845148579751,0.9896431325214501
2012-11-07,0,0.0,0.0,-0.0038443324195717907,0.007687949003059362,0.9917672871737143
2012-11-09,0,0.0,0.0,-0.004119883448090706,0.010396042339198486,0.9909697242578323
2012-11-13,0,0.0,0.0,-0.006130719287361587,0.010396042339198486,0.9903118059434914
2012-11-15,0,0.0,0.0,-0.006130719287361587,0.010396042339198486,0.9904332819599555
2012-11-19,0,0.0,0.0,-0.006130719287361587,0.006452943045109993,0.9905417816646142
2012-11-21,0,0.0,0.0,-0.004170698346990598,0.006452943045109993,0.9913979929812721
2012-11-26,1,0.0013019226666858945,0.001320088765627413,-0.006130719287361587,0.004377991902220969,0.991318009223199
2012-11-28,1,0.001127450901279901,0.0011317931961217814,-0.00539574961983305,0.004377991902220969,0.9914814886503004
2012-11-30,1,0.00149112182936786,0.0015141057004555971,-0.00539574961983305,0.004181983120526516,0.9915859293003517
2012-12-04,1,0.0007557009777430519,0.0008675774863180408,-0.007129466483740166,0.005084680899239557,0.9901397099157535
2012-12-06,1,0.001142731758591327,0.0011580021429258899,-0.011189282260633586,0.009372767200471258,0.9892380881748025
2012-12-10,1,0.0007967488452755751,0.0008532606086365063,-0.007622763583473096,0.010218243556341716,0.9892428358092646
2012-12-12,1,0.0006645973492503867,0.0006944639057412097,-0.00584356795051463,0.010218243556341716,0.9895131148120958
2012-12-14,1,0.00012964111691343667,0.00023999136857521652,-0.005105644828919584,0.012894603168419918,0.9892419838046728
2012-12-18,1,0.0004143536162971292,0.0005678029729125738,-0.00584356795051463,0.012894603168419918,0.9885187606348346
2012-12-20,1,0.0010414890770434721,0.0010560079923936506,-0.00584356795051463,0.012894603168419918,0.9883972902756957
2012-12-24,-1,-0.0003929522227098897,-0.00014908563634383686,-0.00584356795051463,0.01924585303020518,0.9877188242683058
2012-12-27,-1,-0.0004510060201226442,-0.00021405341498346477,-0.005318606682583248,0.01924585303020518,0.9873131983101694
2012-12-31,1,0.00010083063646822122,0.00027695294013881675,-0.006992632951572025,0.012894603168419918,0.9875114560148697
2013-01-03,1,0.0005823493360030842,0.0006537489686636583,-0.005318606682583248,0.01050786991056785,0.988977751530905
2013-01-07,1,9.833899532817004e-05,0.0002351427974315015,-0.005318606682583248,0.010580220367515976,0.9888744446321774
2013-01-09,1,6.916442481530634e-05,0.00023333978983336635,-0.005198201126411626,0.00985168785770989,0.9897768605996582
2013-01-11,1,0.0008460715576182375,0.0008471355445588103,-0.0038848411013878625,0.00985168785770989,0.9901818006034426
2013-01-15,1,0.0010970192047885104,0.0011116069774586433,-0.0022572340981762253,0.009069074831119251,0.9908229047359167
2013-01-17,1,0.001454457217377658,0.0015029231203881027,-0.0006811478949908976,0.008098621995456159,0.9927650154708626
2013-01-22,1,0.0015663768582920255,0.0016392154779896048,-0.0022572340981762253,0.008098621995456159,0.9917217320985491
2013-01-24,1,0.0018507871642231867,0.0019543602723698992,-0.0022572340981762253,0.008098621995456159,0.9920629027530428
2013-01-28,1,0.0019709934611749236,0.0020561951093439634,-0.007431287262823154,0.008098621995456159,0.9897876236794376
2013-01-30,1,0.0017237106719635215,0.0018057422972569796,-0.0022572340981762253,0.009069074831119251,0.989813297113993
2013-02-01,1,0.0020837985537543943,0.0022317172177102585,-0.0019290136245385336,0.009267513677619686,0.9900294119030715
2013-02-05,1,0.0018624922394806722,0.0019496392854813935,0.0008226906543421194,0.009240420082745893,0.9906295937538029
2013-02-07,1,0.0018172809348762004,0.0019300460843707,-0.000599721348961337,0.009240420082745893,0.9907360900235178
2013-02-11,1,0.0018160187554153411,0.0019219145775882316,-0.0017089265696056137,0.009240420082745893,0.9906519875206187
2013-02-13,1,0.0021496271191563197,0.0022935201229162252,-0.0017089265696056137,0.010383349034847146,0.9906294924447658
2013-02-15,0,0.0,0.0,-0.0027952717578181283,0.010383349034847146,0.9901891665893499
2013-02-20,0,0.0,0.0,-0.0020152788921290405,0.011518888580122219,0.9908214222699382
2013-02-22,1,0.0018563316950663553,0.0018823199360491689,-0.0020152788921290405,0.010383349034847146,0.9912442917845702
2013-02-26,0,0.0,0.0,-0.0020152788921290405,0.007203470668826412,0.9932963513003694
2013-02-28,0,0.0,0.0,-0.0020152788921290405,0.004820408060591005,0.9940852182787976
2013-03-04,0,0.0,0.0,-0.004842592034051325,0.004165296937310928,0.9927803770717694
2013-03-06,0,0.0,0.0,-0.006861134852948574,0.004165296937310928,0.9900050966554744
2013-03-08,0,0.0,0.0,-0.006861134852948574,0.004165296937310928,0.9901038360673419
2013-03-12,0,0.0,0.0,-0.00746837318469451,0.004820408060591005,0.9893853692003463
2013-03-14,1,0.0008962992633915796,0.0009238544931825763,-0.00746837318469451,0.004820408060591005,0.9894517354713195
2013-03-18,1,0.0008666912899737987,0.0008673335689562199,-0.008944999238843109,0.006826798393233514,0.986677663269452
2013-03-20,1,0.002401309304757241,0.002522115567168039,-0.010197304901765222,0.006498998783900506,0.986577924600102
2013-03-22,1,0.0018487210965370364,0.0018997118350753412,-0.008944999238843109,0.007866167509602735,0.9872474278953111
2013-03-26,1,0.0015188853676976087,0.0015288799743530094,-0.008944999238843109,0.009737696347124037,0.9845436104883677
2013-03-28,1,0.0019053842698460988,0.0020177980815158625,-0.008944999238843109,0.009827691099075875,0.9842615086210361
2013-04-02,0,0.0,0.0,-0.002742412394900371,0.009827691099075875,0.9850690675268077
2013-04-04,0,0.0,0.0,-0.002742412394900371,0.009827691099075875,0.9856578805276885
2013-04-08,0,0.0,0.0,0.0006870307867714569,0.012467692811570888,0.9845867350885386
2013-04-10,0,0.0,0.0,0.001360472585913184,0.012467692811570888,0.9853026408304812
2013-04-12,0,0.0,0.0,0.001360472585913184,0.012467692811570888,0.9855280317784076
2013-04-16,0,0.0,0.0,0.002004608876360751,0.012467692811570888,0.9878190535429282
2013-04-18,0,0.0,0.0,0.002004608876360751,0.012467692811570888,0.9882363280357319
2013-04-22,0,0.0,0.0,0.0019602685519289923,0.010302940761877336,0.9887912071140714
2013-04-24,0,0.0,0.0,-0.0025425040794234965,0.007184436142529836,0.9907829044694477
2013-04-26,1,0.0017500262216309727,0.0018381222860354698,-0.0025425040794234965,0.004187141416718667,0.991832061651768
2013-04-30,1,0.001545205811201373,0.0016107344869122375,-0.0025425040794234965,0.0040851058091059935,0.9918233016670526
2013-05-02,0,0.0,0.0,-0.0011581872348203188,0.0040851058091059935,0.9935253559164093
2013-05-06,0,0.0,0.0,-0.004441058548777778,0.003758441844465594,0.9934306501927677
2013-05-08,1,0.0011906610029750863,0.0012316424687705046,-0.004441058548777778,0.0037973364092537066,0.9932306753478817
2013-05-10,1,0.0010345222548506683,0.0011146754567991895,-0.004441058548777778,0.0037973364092537066,0.9933127881155986
2013-05-14,1,0.0022070868976100913,0.002330853289088093,-0.006204603884584993,0.0034572634342831263,0.9933913372840982
2013-05-16,1,0.0016344290643592703,0.0016721930029772614,-0.004441058548777778,0.0037973364092537066,0.9932649049058276
2013-05-20,1,0.0012613504174805758,0.0013112427731936445,-0.004441058548777778,0.005393395944576129,0.9926886989166993
2013-05-22,1,0.00022016054678298278,0.0003997713944060968,-0.005174450399866281,0.005393395944576129,0.9909699485244303
2013-05-24,1,0.0005734383282883237,0.0006945690885295092,-0.00945912690626545,0.005393395944576129,0.9895793077522518
2013-05-29,1,0.00032278821898370136,0.00048552203083238065,-0.007804384782997302,0.006602191931573142,0.9895275947291101
2013-05-31,1,0.0004976962659463634,0.0006497136230138138,-0.012641008149850298,0.006769524514524015,0.9875396619531339
2013-06-04,-1,-0.00032784066345365706,-9.123514078265425e-05,-0.011347962967154679,0.010790053347887036,0.9868385643456001
2013-06-06,0,-0.0001278735542422514,8.690451562913472e-05,-0.011347962967154679,0.011007570476751037,0.9863355402747447
2013-06-10,1,0.00031712193164524095,0.0004530779271154625,-0.012532081129849416,0.011611843965797036,0.9852792475422014
2013-06-12,0,-1.327257003946457e-05,0.00013198461063733923,-0.011347962967154679,0.013248396411774633,0.9853230067736601
2013-06-14,1,0.0004135554760158773,0.000488930464537451,-0.011347962967154679,0.013248396411774633,0.9854938611955009
2013-06-18,1,0.0012915129522086386,0.0013545440539845111,-0.011347962967154679,0.011915873668852136,0.9858683761383783
2013-06-20,-1,-0.0007474755150838275,-0.0005784603449913004,-0.005441642304342616,0.014920591375141647,0.9868389083537442
2013-06-24,-1,-0.002103816783868013,-0.0017511178659053812,-0.0012933313743457894,0.014920591375141647,0.9873244047718943
2013-06-26,-1,-0.0015056886346141369,-0.0012379852418991045,-0.0023852549352532965,0.015096979769600184,0.9871441824326743
2013-06-28,-1,-0.0014870301840162353,-0.0012199601283621887,-0.005120844583024406,0.014920591375141647,0.9890876935417627
2013-07-02,-1,-0.0010338728766405745,-0.0008092862525088731,-0.002367761297133713,0.014920591375141647,0.9901407982094654
2013-07-05,-1,-0.00016947941415366324,-5.041454081181789e-05,-0.002367761297133713,0.015096979769600184,0.9905520542661208
2013-07-09,1,0.00011292447948912216,0.00017489985681579698,-0.002367761297133713,0.011744828647889085,0.991416503054129
2013-07-11,1,0.0007503302124481001,0.0007855546039336535,-0.005120844583024406,0.010770108757366838,0.9912693577105385
2013-07-15,1,0.00019726353771786027,0.00026877091492888953,-0.002367761297133713,0.010770108757366838,0.9915027256274604
2013-07-17,1,0.0006522525674707836,0.0006638580771252986,-0.005253271617375785,0.012365868297402905,0.9905622089898837
2013-07-19,1,0.001555974346771131,0.0016502808481302068,-0.005754816623899417,0.005517772584223512,0.9918547324423374
2013-07-23,1,0.0014653231550085014,0.0015734610051967419,-0.006712425430019194,0.008023628190480487,0.9911408946921259
2013-07-25,1,0.002241145357377246,0.002472350146284159,-0.006712425430019194,0.008525420269159657,0.991330019101633
2013-07-29,1,0.0018198987022156644,0.0020066283840241895,-0.0028735049368281015,0.011210982517534432,0.9915945474482958
2013-07-31,1,0.0022303879983104325,0.002462418876136836,-0.006712425430019194,0.008525420269159657,0.9908556632563721
2013-08-02,1,0.0026948336422008053,0.0029775894994527657,-0.00923930921318617,0.007233809024857427,0.99068769285116
2013-08-06,1,0.00238167273293695,0.0026467692817293957,-0.006712425430019194,0.008525420269159657,0.9909438382026583
2013-08-08,1,0.0021979063799784444,0.0024123733264777513,-0.0028735049368281015,0.007233809024857427,0.9917268312546458
2013-08-12,1,0.0024907605684215115,0.002776945917858333,-0.0028735049368281015,0.008595713170006021,0.9905921720665053
2013-08-14,1,0.002448090267507811,0.0026949330181343005,-0.0028735049368281015,0.007339592161237701,0.9915039014311098
2013-08-16,1,0.002202691034767358,0.0024046742306810323,-0.0016514886697120805,0.007339592161237701,0.9914465099570533
2013-08-20,1,0.0018841007981592792,0.002045889225791877,-0.0002270030286365835,0.008595713170006021,0.991627155300824
2013-08-22,1,0.001952640928165955,0.00205277588014585,-0.0027723123654904433,0.007129118471942154,0.9919659665037538
2013-08-26,1,0.0016339359959427438,0.0016639726300812492,-0.0033839789014299443,0.006999316462125092,0.9920862254360313
2013-08-28,1,0.0005036769172309866,0.0006263924589073862,-0.002896913362200886,0.006999316462125092,0.9930500496379708
2013-08-30,1,0.00011041685688933673,0.0002837469437090482,-0.002895728677089993,0.007008381557423199,0.9934438746823253
2013-09-04,1,0.0007173469937414095,0.0008059418815866413,-0.0033578743490134,0.007008381557423199,0.9937093376767964
2013-09-06,1,0.0005727957819655566,0.0007195643996120141,-0.0035535790936320998,0.007008381557423199,0.9932164018189417
2013-09-10,1,0.0012855497590367692,0.0013658348743914462,-0.005812187427077068,0.006226429755279308,0.9930332069284068
2013-09-12,1,0.0011394549557959214,0.001206943774383834,-0.004044198688193836,0.006833652349509737,0.9919608042197423
2013-09-16,1,0.002409960549931442,0.002595154171191531,-0.004044198688193836,0.007008381557423199,0.9912119563902111
2013-09-18,1,0.0032145287375846335,0.003529270475359776,-0.004044198688193836,0.005191144645008338,0.9916187801578086
2013-09-20,1,0.002475339262731426,0.002674901053585804,-0.00347433180693903,0.007283420591449508,0.9915712322278436
2013-09-24,1,0.0022049196286711504,0.0023775111552826233,-0.00347433180693903,0.012335467795559467,0.9874264605914609
2013-09-26,1,0.002437183140435067,0.0026739239290859483,-0.00347433180693903,0.012335467795559467,0.9864914000334553
2013-09-30,1,0.002405953938400384,0.0026345994118386574,-0.0033318534818193414,0.012569927738807055,0.9863294946727842
2013-10-02,1,0.0025125858168886872,0.0027644444700455433,-0.00475456866055151,0.012569927738807055,0.9862944205640833
2013-10-04,1,0.0022437701988602928,0.0024976629339018295,-0.0028435661220296486,0.01981030464666118,0.9850188180469757
2013-10-08,1,0.0012690978637707835,0.0013801200247900306,-0.002433879358855258,0.01981030464666118,0.9857161615116266
2013-10-10,1,0.0018656888989334198,0.002062533792267727,-0.002433879358855258,0.016580288427024886,0.986542820022955
2013-10-14,1,0.0017092942595382367,0.0018433307737996255,-0.0017851849231954166,0.015797283319077794,0.9867043898873495
2013-10-16,1,0.0017495962439680144,0.0018906182494062497,-0.0017851849231954166,0.017461289322819894,0.9858509863409043
2013-10-18,1,0.0023128115900956517,0.0025113315540601215,-0.002369499641341546,0.017461289322819894,0.9867922424090454
2013-10-22,1,0.004848815493031573,0.005391521787230612,-0.005798298183623262,0.008207332807575353,0.989924147367461
2013-10-24,1,0.003565250470761257,0.0038906989171781535,-0.0029983368105124305,0.010975710139390998,0.9912444886215229
2013-10-28,1,0.0037386378776487084,0.004093826201993547,-0.0029983368105124305,0.008012326000520865,0.991610332852386
2013-10-30,1,0.003436986423457143,0.003753600064601794,-0.0029983368105124305,0.008012326000520865,0.9916111053729373
2013-11-01,1,0.004312497786737151,0.004707167689305191,-0.005944706260806563,0.006374555497641143,0.9926295641178573
2013-11-05,1,0.004081122463649894,0.004448830574787403,-0.00663868376262183,0.005290897066846476,0.9921857698644311
2013-11-07,1,0.003713907978843593,0.00405315053758527,-0.006608171312185364,0.006374555497641143,0.9924667973351311
2013-11-11,1,0.0030314851079133297,0.0031786319873162083,-0.006608171312185364,0.005175828494137257,0.9926481920925793
2013-11-13,1,0.002988572243882375,0.003085962823158371,-0.006650495071809474,0.005175828494137257,0.9925000712930365
2013-11-15,1,0.002634373928875375,0.0026897090307410987,-0.006650495071809474,0.006374555497641143,0.9923083512567329
2013-11-19,1,0.001940546887799768,0.001976924692340879,-0.006608171312185364,0.006590345170615368,0.99286975787069
2013-11-21,1,0.0023772400771899034,0.0024121947701311102,-0.006650495071809474,0.006590345170615368,0.9911900790659297
2013-11-25,1,0.002472170228700221,0.0025484345377011367,-0.006650495071809474,0.006590345170615368,0.9912635991632396
2013-11-27,1,0.002222086264218266,0.002251773707842601,-0.006608171312185364,0.005665321589246213,0.9915124194887288
2013-12-02,1,0.0018614726288551577,0.0018738345146175257,-0.003596608075906938,0.005665321589246213,0.9921839370521409
2013-12-04,1,0.001100842427708672,0.001213463229530035,-0.002585895841298279,0.005665321589246213,0.9928233293495603
2013-12-06,1,0.0011420877310572342,0.0012410220705516774,-0.002585895841298279,0.0021544338780498653,0.9930060696472408
2013-12-10,1,0.0013715674504901057,0.001396477887191131,-0.004382012520503488,0.005470837450987023,0.9923243651417217
2013-12-12,1,0.0007727978924043768,0.0008741095350947868,-0.004382012520503488,0.0021544338780498653,0.992616664654945
2013-12-16,1,0.0014130134210922198,0.0014276989966502053,-0.004382012520503488,0.0021293345098859226,0.9919946310701194
2013-12-18,1,0.0013252851439790538,0.0013805492489044314,-0.008293081489372465,0.0009922283181044047,0.9922181504514866
2013-12-20,1,0.0015121357871117696,0.0015238629946082043,-0.008057872596098579,0.0009922283181044047,0.9933694501429856
2013-12-24,1,0.0016256668852092624,0.001655363623598042,-0.009055973719937549,0.0006667092184220349,0.9914709489691698
2013-12-27,1,0.0011481527443438595,0.0012263852931689622,-0.011404342333314998,0.0006667092184220349,0.9898854620498718
2013-12-31,1,0.0009963815411758625,0.0011083890583036362,-0.011404342333314998,0.0005855098950504362,0.9898451792078996
2014-01-03,1,0.0003809516925690744,0.0005680390208292593,-0.014157343119014695,0.0005855098950504362,0.9884898526385236
2014-01-07,1,4.420331266100856e-05,0.00026214998984263433,-0.014157343119014695,0.002130989281291071,0.98855748659608
2014-01-09,-1,-0.0004083308775403756,-0.00012410574291249607,-0.014157343119014695,0.002130989281291071,0.9882469375231523
2014-01-13,-1,-0.001442781536151361,-0.001015785109274435,-0.0097007029634446,0.005949620447732122,0.9885610547779679
2014-01-15,-1,-0.00046071924407321396,-0.00018827485480366968,-0.0097007029634446,0.005949620447732122,0.9885420101040685
2014-01-17,-1,-0.0007317144503585953,-0.0004351177144990175,-0.0097007029634446,0.005949620447732122,0.9888656356753802
2014-01-22,-1,-0.0013786347674397345,-0.0009627120843483466,-0.007635550547178461,0.007172140068728018,0.988823660642104
2014-01-24,-1,-0.002981466890609014,-0.0023614868523839615,-0.00526527139806853,0.007172140068728018,0.990274735824471
2014-01-28,-1,-0.004313567687080943,-0.003555328368816196,-0.004001225270731426,0.008524791553224682,0.989467473158902
2014-01-30,-1,-0.004485133911362333,-0.0037122587877844084,-0.0020399953567247007,0.008524791553224682,0.9887270742954859
2014-02-03,-1,-0.00527503180002395,-0.00446928693748151,-0.001442838724279346,0.01000303181787857,0.9886285024499649
2014-02-05,-1,-0.005020559813821034,-0.004233892271435068,-0.004268544228589297,0.01000303181787857,0.9896094259005443
2014-02-07,-1,-0.004568501634057752,-0.003839984404281259,-0.00397322468606704,0.009296376504160202,0.9903396285291294
2014-02-11,-1,-0.0038490713212680243,-0.00323345934259444,-0.006729455147787175,0.008524791553224682,0.99065464258506
2014-02-13,-1,-0.003621427641067468,-0.003006432156658942,-0.010819503474083978,0.007711486521922652,0.990505328956949
2014-02-18,-1,-0.003614110017417592,-0.003003142068287502,-0.010819503474083978,0.008524791553224682,0.9892898947695321
2014-02-20,-1,-0.0031045590150758735,-0.002552114691579627,-0.014048856870571889,0.007569470747518495,0.9892443137190324
2014-02-24,-1,-0.003301973699453685,-0.002729310045220964,-0.014048856870571889,0.007569470747518495,0.9890788464377586
2014-02-26,-1,-0.003084176293103656,-0.002540230380033517,-0.014048856870571889,0.007569470747518495,0.9884348909932265
2014-02-28,-1,-0.0031835308495914484,-0.0026000086778090806,-0.014048856870571889,0.00905076652572368,0.987850250998687
2014-03-04,-1,-0.004156505551074266,-0.0034007470345940208,-0.013440298573087197,0.008016874237200038,0.9886663653685478
2014-03-06,-1,-0.004364545219868761,-0.0036207551915177624,-0.013440298573087197,0.00905076652572368,0.9882619649020181
2014-03-10,-1,-0.004019907632402141,-0.0033381725957230875,-0.014622730584033277,0.008016874237200038,0.9872277943877542
2014-03-12,-1,-0.005002517460127641,-0.004210278819128794,-0.01374844750134455,0.009059670416120321,0.9871182664187699
2014-03-14,-1,-0.00540726231443189,-0.004623229769628295,-0.013288474040439627,0.009851683421129367,0.9869226715612922
2014-03-18,-1,-0.003047405555923826,-0.0026985860455872794,-0.013288474040439627,0.009851683421129367,0.9872813704141631
2014-03-20,-1,-0.004701763858751146,-0.004117064787789145,-0.006485350227186488,0.01136051359752275,0.9867008678432472
2014-03-24,-1,-0.004499711488135877,-0.003959929345958331,-0.004641880605863865,0.01136051359752275,0.986455129702541
2014-03-26,-1,-0.0051325281731772875,-0.0045093969976096465,-0.0009612727511703171,0.011093861894674506,0.9874629774758134
2014-03-28,-1,-0.0030412095092606185,-0.0027649127467541694,-0.009353989652158431,0.009851683421129367,0.9892263417230562
2014-04-01,-1,-0.002486439158223938,-0.0022722684313140743,-0.009353989652158431,0.009851683421129367,0.9898946690965456
2014-04-03,-1,-0.0023001796161126985,-0.0020840282608125013,-0.009353989652158431,0.011093861894674506,0.9893396847872044
2014-04-07,-1,-0.0034014014026788847,-0.003104686533640907,-0.008348252268655074,0.011093861894674506,0.9898460649455121
2014-04-09,-1,-0.002028368660017226,-0.0019473357452003761,-0.008348252268655074,0.010106661308055456,0.9904063653754279
2014-04-11,-1,-0.0017249647357717945,-0.0016895417511562365,-0.0034822936597088965,0.010106661308055456,0.9899321039889524
2014-04-15,-1,-0.0015538413748570346,-0.001510948000623769,-0.008348252268655074,0.008752390261130952,0.9904862694635448
2014-04-17,-1,-0.00034328484042844224,-0.0001863386702264675,-0.008348252268655074,0.008752390261130952,0.9911870585293244
2014-04-22,1,3.489156675906839e-05,0.00025375168474335845,-0.00919244682332897,0.010106661308055456,0.9898984259753503
2014-04-24,1,0.000910325795425853,0.0012487325177257759,-0.00919244682332897,0.008930378387978222,0.9904285051871603
2014-04-28,1,0.00010309888091398155,0.00031536312406807323,-0.0025215131723308627,0.010125942579881253,0.9902363453221428
2014-04-30,0,-9.990402581122626e-05,5.0078089837500615e-05,-0.0032452045527192725,0.010125942579881253,0.9900910920304753
2014-05-02,1,0.0008871312189910463,0.0011808086933802302,-0.006719572762136326,0.008250123162574263,0.990582199098184
2014-05-06,1,2.3425052107891556e-05,0.00019958949416739658,-0.002764262645104955,0.008250123162574263,0.9905741978211088
2014-05-08,1,0.0002637276194259068,0.00045738981194139606,-0.002764262645104955,0.009254506661947761,0.9902601275937628
2014-05-12,1,0.0019309196553445012,0.0023809574685396567,-0.003909371562781924,0.009254506661947761,0.991034164871112
2014-05-14,1,0.001271443105458501,0.001667022696500567,-0.0025510477942136105,0.009254506661947761,0.9915435746718642
2014-05-16,1,0.0018679998724746684,0.002351339180568233,-0.0042951933084055625,0.008250123162574263,0.9915303086794971
2014-05-20,1,0.002361646418130779,0.0029266523397870584,-0.0032974324782320047,0.006624492579470087,0.9931176238995405
2014-05-22,1,0.0027728878530646705,0.0033860829604935787,-0.0039478014820288135,0.005037796778317467,0.9929328538796427
2014-05-27,1,0.0036538745847125124,0.004383665251895834,-0.0039478014820288135,0.003434562512940712,0.9926780840211651
2014-05-29,1,0.003418825356561641,0.004095062268588214,-0.004765974205525012,0.004669331242233446,0.9925194189144223
2014-06-02,1,0.0033507613419582775,0.003997444752434165,-0.0039478014820288135,0.004669331242233446,0.9929887557675358
2014-06-04,1,0.002923111528437621,0.0035054894956999287,-0.0039478014820288135,0.004204715026172895,0.9934058411279647
2014-06-06,1,0.0032114864289821197,0.0037940308932919494,-0.004765974205525012,0.0037353784677862083,0.9920029590444632
2014-06-10,1,0.004304573526817025,0.00507751024792937,-0.004765974205525012,0.0031739468801153694,0.9920673596440088
2014-06-12,1,0.003571036992483992,0.004229263537218312,-0.004765974205525012,0.0031739468801153694,0.9926550625319782
2014-06-16,1,0.003276450548127626,0.0038998681332667214,-0.005292284683636386,0.0037353784677862083,0.9928532476454276
2014-06-18,1,0.0025772014109902257,0.003021528895045342,-0.008763333461921641,0.0037353784677862083,0.9919368554710487
2014-06-20,1,0.0015716376542252836,0.0017865436581855892,-0.008763333461921641,0.004204715026172895,0.9922503268406591
2014-06-24,1,0.0011623755194903748,0.001312322648808383,-0.011455158768135222,0.005218214329298671,0.9884445313258223
2014-06-26,0,-4.150059092812396e-05,5.306649416096068e-05,-0.009433219716732616,0.004754783625830538,0.9886452691684562
2014-06-30,1,0.0006306599280028227,0.0006339936153329634,-0.013669866930862008,0.0029279296540229895,0.98706191895087
2014-07-02,1,0.0004601172334937143,0.00046511546639271345,-0.014510117752971787,0.0017926005956995562,0.987127584414906
2014-07-07,1,5.3097266976784115e-05,7.536728745416138e-05,-0.012482289947251684,0.0037374283739135578,0.9880864503319507
2014-07-09,1,0.0004257912529828068,0.00048787127513125477,-0.012482289947251684,0.005823205985067441,0.9875840637236669
2014-07-11,-1,-7.399564251918568e-05,-7.170445261222514e-05,-0.010102592400217159,0.007078513192939357,0.9862850601337788
2014-07-15,1,0.0003170382492148527,0.00040312829592441545,-0.011696676773737596,0.005823205985067441,0.9863176712992525
2014-07-17,-1,-0.0005263156579191138,-0.0004955725362915338,-0.010041098690333691,0.007078513192939357,0.9866127314750949
2014-07-21,-1,-5.5150986432239845e-05,-1.2367770012833144e-05,-0.010041098690333691,0.00806591373680514,0.9861171607573815
2014-07-23,1,0.0022448497821786644,0.0026121794696563954,-0.009131365803030946,0.007873430246391165,0.9896394684103607
2014-07-25,1,0.0019433754353931063,0.0022619965350058335,-0.009131365803030946,0.007873430246391165,0.9896038740924461
2014-07-29,1,0.00014981846520171823,0.00019716403132526497,-0.005807266374479167,0.007873430246391165,0.991774955411111
2014-07-31,-1,-0.0002623387480416846,-0.0002586856305179186,-0.0037213788568451556,0.007873430246391165,0.9923535872614696
2014-08-04,-1,-0.000211755790485875,-0.00017076036479092343,-0.0037213788568451556,0.005736091187747981,0.992848091582957
2014-08-06,-1,-0.0012083409431156958,-0.0009833059151179591,-0.002748883791691997,0.006612013595167545,0.9931561174283075
2014-08-08,1,0.0002192878042685262,0.0002321761394900034,-0.002748883791691997,0.005098582132706691,0.9949711416010825
2014-08-12,-1,-0.0011472387823653145,-0.0009204890492063568,-0.0023428253939678373,0.005098582132706691,0.9953845281768292
2014-08-14,-1,-0.0006453787590418696,-0.00047097549487226686,-0.0023428253939678373,0.003012545801486799,0.9960846870470776
2014-08-18,-1,-0.0005197363134255719,-0.00033526886740926,-0.001937274372071372,0.003012545801486799,0.995983667549778
2014-08-20,1,8.112744565132597e-05,0.00015871950211363738,-0.0016799975230105996,0.0012747596413841475,0.9964116247724719
2014-08-22,-1,-9.87798948857057e-05,-1.553523628620762e-05,-0.0016799975230105996,0.0012747596413841475,0.9954995766909961
2014-08-26,1,0.00020430367114716402,0.00023859335769212152,-0.0024822342008534145,0.0012747596413841475,0.9951716228528364
2014-08-28,-1,-0.000849289033860421,-0.000615128449940002,-0.0037306732793732818,0.0019021859191041897,0.9952576196115548
2014-09-02,-1,-0.0004550100096861905,-0.0002833153825680464,-0.005422817326349596,0.0007191913828695066,0.9943663057528818
2014-09-04,-1,-0.00034747742926026384,-0.0001816103685265056,-0.008392489034067292,0.0006805394486692096,0.9940744821408928
2014-09-08,-1,-0.0004911870387993419,-0.000322930005946053,-0.008392489034067292,0.0015362919066110755,0.9937949246137502
2014-09-10,-1,-0.00046015834543410635,-0.00032610204397731,-0.009811092953362601,0.0019021859191041897,0.9927787319187963
2014-09-12,-1,-0.00039923166925588265,-0.00027726648983265786,-0.011921975791555905,0.0015362919066110755,0.9911832796715533
2014-09-16,1,0.0006388124414961776,0.000674577806394168,-0.013571356802913898,0.0015362919066110755,0.9907998645512475
2014-09-18,1,0.00011438392639267952,0.00018154682956423663,-0.013571356802913898,0.005440435034947877,0.9900810267830418
2014-09-22,-1,-0.000986512478108156,-0.0007897058972596011,-0.011412269499364608,0.009204348503779703,0.9900065191451387
2014-09-24,-1,-0.0005255314358284834,-0.0004191872907039291,-0.011412269499364608,0.01032027762732679,0.9880948521036848
2014-09-26,-1,-0.001201289914450685,-0.0009693065171518,-0.011412269499364608,0.012871890126063363,0.9868835358606147
2014-09-30,-1,-0.0020450137542267956,-0.0017276618419052783,-0.006756978791602081,0.014612381326125374,0.9861444637104833
2014-10-02,-1,-0.0016315440062796415,-0.0014272084681739474,-0.0048648375024161776,0.014612381326125374,0.9863348091411372
2014-10-06,-1,-0.001812721878808195,-0.0015365552860608892,-0.0048648375024161776,0.014612381326125374,0.9863033587864336
2014-10-08,-1,-0.0013139169940425259,-0.0011178316085516918,-0.0048648375024161776,0.012903359712863396,0.9870199560552307
2014-10-10,-1,-0.0025463365716700223,-0.0022214326826924713,0.0006729278381885982,0.012903359712863396,0.9871190684429461
2014-10-14,-1,-0.0024393234662530745,-0.0021488317889588812,0.0018751379974016166,0.012903359712863396,0.9878516453633756
2014-10-16,-1,-0.0010674363084325982,-0.0009806842373568706,-0.0019163807581481036,0.012494623877122687,0.9891654939486966
2014-10-20,0,-7.990324151777804e-06,3.073316857228889e-05,-0.0019163807581481036,0.011985278028216811,0.9900490972322669
2014-10-22,1,0.0013279646632564299,0.0015471033496701843,-0.00315824753384023,0.008126702052366113,0.9923946060345707
2014-10-24,1,0.00203178708882968,0.0023192257849442444,-0.00315824753384023,0.007534023675772188,0.9925904420567226
2014-10-28,1,0.0032396482878078044,0.0037162307388875506,-0.00315824753384023,0.005197173025872237,0.9934923584612232
2014-10-30,1,0.0035529930891429473,0.004106565397865015,-0.003981131547262534,0.004766278129032676,0.9926969680970867
2014-11-03,1,0.0036060129961559984,0.004132816817953214,-0.004252197857021559,0.002866406216256075,0.9926070242302787
2014-11-05,1,0.0029303923363989846,0.003346098759326771,-0.0038196256017208347,0.004766278129032676,0.9922491660065519
2014-11-07,1,0.00345362458201563,0.003939182742642511,-0.004252197857021559,0.002205013443928142,0.9913008392672326
2014-11-11,1,0.003525389098001711,0.004010741224622843,-0.005645563574604509,0.002824248715317888,0.9897623294389535
2014-11-13,1,0.0027840582824231056,0.003154954871171411,-0.005645563574604509,0.006314713275683128,0.9898471452811337
2014-11-17,1,0.003128244908852217,0.0035276857741268126,-0.007564398806717418,0.001954901918593222,0.9895358707185967
2014-11-19,1,0.0029161880290968596,0.0033101296370700957,-0.005376327437684293,0.011588979212978396,0.989074083427925
2014-11-21,1,0.0034940191836567184,0.003940897717271354,-0.008060867311580348,0.011588979212978396,0.9886811497158736
2014-11-25,1,0.003183467401308558,0.003551071609166758,-0.008060867311580348,0.012352709369197355,0.9885401131089373
2014-11-28,1,0.002488730013279525,0.0027611315964459022,-0.004891809601059196,0.012352709369197355,0.9894684881655876
2014-12-02,1,0.0018930408294081228,0.002049654119173364,-0.006842293863291072,0.012352709369197355,0.9895724204208515
2014-12-04,1,0.002719292729752506,0.0029815072913947998,-0.008060867311580348,0.01134109373019623,0.9897615532045654
2014-12-08,1,0.0015966807161658624,0.0016604135813212731,-0.007515697634840421,0.01134109373019623,0.9900558412295068
2014-12-10,1,0.0011823985120234947,0.001202171004058442,-0.007515697634840421,0.012352709369197355,0.9896574842069793
2014-12-12,1,0.0024393919910162937,0.0027485783739827265,-0.007142016961026172,0.008765665604346095,0.9905744265980048
2014-12-16,1,0.0019111552061439703,0.0021311993977055337,-0.007362551926069391,0.008765665604346095,0.9898644561197678
2014-12-18,1,0.002310301272623052,0.0024802350203500098,-0.007362551926069391,0.007409640446565651,0.9908443123754479
2014-12-22,1,0.002066328646188602,0.002162083646247353,-0.006791245293700728,0.007409640446565651,0.9912480548500842
2014-12-24,1,0.002721957337526025,0.002935961288899755,-0.006791245293700728,0.00601759955250476,0.9911673964360352
2014-12-29,1,0.00283813394210895,0.003047247167912634,-0.006791245293700728,0.00601759955250476,0.9877684235697208
2014-12-31,1,0.0028737868692531093,0.003133828219599022,-0.006418635301279271,0.00601759955250476,0.988038626389137
2015-01-05,1,0.001455759672939743,0.0014820613975687104,-0.0039012030635924766,0.007478786280485926,0.9886036279094703
2015-01-07,1,0.0015629811497874452,0.0016361071189061943,-0.002999729843396997,0.006905704919057415,0.9892212813144003
2015-01-09,1,0.002019914094128681,0.0021771351374077173,-0.0025783423436722052,0.0058265724320285895,0.9911795394060848
2015-01-13,1,0.0019805976561473792,0.0021394744514919117,-0.0014851080930967388,0.006905704919057415,0.9911011615603789
2015-01-15,1,0.0008281093782120648,0.000844187911096039,0.0006317288984135463,0.007043330828481629,0.9916616759625202
2015-01-20,1,0.0009981125103164668,0.0010076922840456404,0.0006317288984135463,0.00706167200317063,0.9916377600290811
2015-01-22,1,0.0016869822900390204,0.0017800523216830488,-0.00015878420061167598,0.006610416468772128,0.9925971047206856
2015-01-26,1,0.001750579344638741,0.0018624004200878917,-0.00015878420061167598,0.006610416468772128,0.9927316880626675
2015-01-28,1,0.003972684078069025,0.004383525875529105,-0.00015878420061167598,0.006610416468772128,0.9957406029592236
2015-01-30,1,0.0036711101645609395,0.0040200479556973985,-0.0007611357342806325,0.00706167200317063,0.9946838196051878
2015-02-03,1,0.0041584370549527395,0.004546445894304047,-0.00168059696362123,0.005976817770507716,0.9941257546664874
2015-02-05,1,0.004156733029476714,0.0045368582311545655,-0.003594097968074179,0.005976817770507716,0.9935360164815087
2015-02-09,1,0.004254574777710456,0.004679384520411293,-0.004922349382065444,0.00706167200317063,0.9928564056211194
2015-02-11,1,0.004461581823754288,0.004902539183505296,-0.004922349382065444,0.005976817770507716,0.9929080024549816
2015-02-13,1,0.00391590099987678,0.004216798195936937,-0.006307887176364834,0.006290447395482005,0.9919593518868731
2015-02-18,1,0.003753909984212471,0.004024617822714249,-0.006307887176364834,0.006514506725360021,0.9912591373926565
2015-02-20,1,0.003623386261846556,0.0038599969255420814,-0.006548429594976004,0.00628650457328114,0.9908034518925979
2015-02-24,1,0.002843623329641591,0.0029111050966835576,-0.007487915815969209,0.00628650457328114,0.9905995421214757
2015-02-26,1,0.0023913135918280223,0.0024147801717438085,-0.008773333114923473,0.005794901834367373,0.9905118947914134
2015-03-02,1,0.0028512938652556466,0.0028928187358740593,-0.008773333114923473,0.0076183918015951205,0.9908148111096031
2015-03-04,1,0.001975451097220914,0.0020413793466478375,-0.006851462437900867,0.0076183918015951205,0.9912878884551345
2015-03-06,1,0.0004845889661608581,0.0008081638819965892,-0.006851462437900867,0.0076183918015951205,0.9915340297771035
2015-03-10,0,-0.00014272506283992273,0.00028005175707996135,-0.006851462437900867,0.005794901834367373,0.9917805669668663
2015-03-12,0,-3.3158136836474155e-06,0.0003737138248537425,-0.006851462437900867,0.005794901834367373,0.991674405910212
2015-03-16,1,0.0001403630439321188,0.0004577546607472968,-0.006721176050244899,0.005794901834367373,0.9917632010386656
2015-03-18,1,0.0021349788764019164,0.0021532026454871393,-0.006831601051353917,0.0037920973708310134,0.9929979772757215
2015-03-20,1,0.0021357441812460813,0.002162373837529881,-0.006831601051353917,0.004513512717386851,0.9926228134508883
2015-03-24,1,0.0022467730858360805,0.0023448938797296405,-0.006433484771633481,0.006433536357855295,0.9927955460834583
2015-03-26,1,0.0019154862604041762,0.0019657420392278162,-0.004369315471037705,0.0072245213802711265,0.992786765084837
2015-03-30,1,0.0029254476687024657,0.003122866940438749,-0.006831601051353917,0.00427972160030714,0.9924517679553259
2015-04-01,1,0.0021703290773979513,0.0022238460563913575,-0.0077232387516036356,0.00427972160030714,0.9921410940044012
2015-04-06,1,0.0024280115351873258,0.0025442260950308783,-0.0077232387516036356,0.006492695641806453,0.9908224435014864
2015-04-08,1,0.0019587461620843936,0.0020131685037085402,-0.006831601051353917,0.006492695641806453,0.9911053934358256
2015-04-10,1,0.0014575466024234372,0.0015037845168225706,-0.006831601051353917,0.011151814387376639,0.9900817375554734
2015-04-14,1,0.0019965905585634944,0.002050019865535263,-0.005953642798479555,0.007900850116219797,0.9912129502223201
2015-04-16,1,0.0012841902675473716,0.0013508901120133513,-0.004960320880108263,0.010357360284078566,0.9909291346293609
2015-04-20,1,0.0015307116666176937,0.001535819502435136,-0.0032244398643221568,0.008330140321939248,0.9919650484914987
2015-04-22,1,0.0018245946177197114,0.0018665799720326028,-0.0032244398643221568,0.008330140321939248,0.9921413038980061
2015-04-24,1,0.0016524267236020431,0.0016762625113343082,-0.004174115341746328,0.007660948557062716,0.9923577740629888
2015-04-28,1,0.00024244081387888217,0.00045202546426008697,-0.0006057794125031036,0.009132883846843218,0.9927782765461328
2015-04-30,0,-8.946927939852039e-06,0.00018148107949111545,0.00018446399966379193,0.009132883846843218,0.9931799812786863
2015-05-04,1,0.0006866885881907866,0.0008298686860657864,-0.0006057794125031036,0.007660948557062716,0.9942635337697591
2015-05-06,1,0.00014749916433295647,0.00038257601799309663,-0.0006057794125031036,0.009132883846843218,0.993269305243679
2015-05-08,1,0.0012030160321876357,0.001333168056963595,-0.0023001851739078327,0.0064715114133662415,0.9941617257398309
2015-05-12,1,0.000714197659995306,0.000928358823210913,-0.0023001851739078327,0.007638723169086973,0.9937722263782122
2015-05-14,1,0.002036166523531506,0.002037995597722854,-0.0023001851739078327,0.006716867200358489,0.9931349487479892
2015-05-18,1,0.0020482006299896898,0.0020559579427100487,-0.0034090551269109854,0.006731007867310078,0.992685039083433
2015-05-20,1,0.002166542336321693,0.002211838419110613,-0.0034090551269109854,0.006731007867310078,0.9928796732544652
2015-05-22,1,0.002251475684546649,0.0023169038924505275,-0.0016536935077884319,0.006168939646107277,0.9932971999808875
2015-05-27,1,0.002460271825492115,0.002533230994207148,-0.003809393585641619,0.004710333608368539,0.9932524383075777
2015-05-29,1,0.0016178074159923896,0.0017106335226596346,-0.0022511983212863216,0.004710333608368539,0.9935999822354468
2015-06-02,1,0.0010850632094321657,0.0012418674714623306,-0.0022511983212863216,0.004566320658144173,0.992815310377448
2015-06-04,1,0.00115621131040906,0.0012952417581427271,-0.0022511983212863216,0.004566320658144173,0.9927854226163214
2015-06-08,1,0.00031181226159023956,0.00055919298321676,-0.004080542928023832,0.004566320658144173,0.9917543838518781
2015-06-10,0,-0.00025069496147384746,0.00011187083095447691,-0.006313706641002526,0.004566320658144173,0.9879228937472763
2015-06-12,1,0.0006829083371984399,0.0009357289188499961,-0.006313706641002526,0.005736900795434178,0.9878567930296563
2015-06-16,1,0.0008727039865210023,0.001072672899949478,-0.004792341542891069,0.0058943547127916,0.9880741550959931
2015-06-18,1,0.0007972186715925006,0.0010133012356688068,-0.004792341542891069,0.0058943547127916,0.9881952253627091
2015-06-22,1,0.001967302134077311,0.0020106906646189457,-0.009277614983968993,0.007231567806547094,0.9867070053133241
2015-06-24,1,0.0013609890941398575,0.0014033599630068902,-0.004792341542891069,0.010229505974012763,0.9847245061516786
2015-06-26,1,0.001397504029740772,0.0014375691916690668,-0.009940690063016702,0.010229505974012763,0.9830884461903372
2015-06-30,1,0.0007963213157691708,0.0008240465481692028,-0.004792341542891069,0.010229505974012763,0.9839677323853663
2015-07-02,1,0.0009868023104886844,0.000996258027416817,-0.0012043739083746957,0.008867473027775527,0.9848307313595334
2015-07-07,1,0.00010139253231102106,0.00019856297046960068,-0.00032437312604113584,0.008867473027775527,0.9861492122111292
2015-07-09,-1,-0.001860130115472617,-0.0015440521089737994,-0.00032437312604113584,0.007861225235129297,0.9884974444347879
2015-07-13,-1,-0.00090291532863399,-0.0007013175509641281,-0.0005573229355448358,0.006896151875665018,0.9898208427210483
2015-07-15,-1,-0.000690589452822732,-0.0005199684740180968,-0.005588015686424255,0.006894991161940669,0.9881105178856705
2015-07-17,-1,-0.00068475648874567,-0.0005136647163249099,-0.005588015686424255,0.010009357459283379,0.9872410822091572
2015-07-21,-1,-0.0006175495316273906,-0.0004547943421935495,-0.0014002971655373403,0.010009357459283379,0.9882409226957942
2015-07-23,1,0.0011668068678112372,0.0012379992154429675,-0.01488657060477211,0.007861225235129297,0.9889117869345699
2015-07-27,-1,-0.00015046120375815993,-1.3203500469877063e-05,-0.016323847546956708,0.007861225235129297,0.9854791456790164
2015-07-29,1,5.289864015819957e-05,0.00012069118414589292,-0.016323847546956708,0.010009357459283379,0.9835750683654747
2015-07-31,1,0.0001991518488022203,0.0002574402450756227,-0.016323847546956708,0.010302118007789476,0.9830898072711207
2015-08-04,1,0.00010295527650686236,0.00017322983952061525,-0.019764823894045255,0.010302118007789476,0.9819172617868335
2015-08-06,-1,-0.00022225930094907457,-0.00011041873508823408,-0.019764823894045255,0.011004424561471111,0.980649769159607
2015-08-10,1,0.000399408583475749,0.0004043235169459746,-0.019764823894045255,0.011004424561471111,0.9793662329204879
2015-08-12,-1,-0.0006114616668118112,-0.0004780332544411218,-0.01297572006929909,0.01194711428938073,0.9806954089062727
2015-08-14,-1,-0.0003505733946625544,-0.0002399957095546718,-0.01297572006929909,0.01194711428938073,0.9812431393501504
2015-08-18,-1,-0.00024119929434286247,-0.00013866310806195524,-0.01297572006929909,0.013311332201307272,0.9808694660150419
2015-08-20,-1,-0.0008729456659516178,-0.0007217915093456506,-0.008265168906984043,0.013311332201307272,0.9822679146668631
2015-08-24,-1,-0.0028305120701340772,-0.002445177767404474,-0.0033139632752828387,0.013311332201307272,0.9854276360060417
2015-08-26,-1,-0.001983002348546551,-0.0017035983517480118,-0.004356567508368403,0.01194711428938073,0.9872730025603073
2015-08-28,-1,-0.0016553411362910829,-0.0014070896073191113,-0.011735767234017452,0.010283508594473972,0.9871526229066975
2015-09-01,-1,-0.0023149274572329473,-0.0019854003849079714,-0.011735767234017452,0.013311332201307272,0.9852406905552609
2015-09-03,-1,-0.0013047792029949284,-0.0011027598492665215,-0.011735767234017452,0.009113372399842681,0.9873440415085438
2015-09-08,-1,-0.0010156474247683517,-0.0008403173875670194,-0.012340081072176556,0.009113372399842681,0.9872561680220178
2015-09-10,-1,-0.0007474541563819821,-0.0005996627373149154,-0.012340081072176556,0.010548066553704221,0.9850310581420497
2015-09-14,-1,-0.0005780931520415118,-0.0004549459019498292,-0.012340081072176556,0.010548066553704221,0.98480907665812
2015-09-16,-1,-7.377383712962987e-05,-1.9310308608137908e-05,-0.013891460900832747,0.009113372399842681,0.9843801479887062
2015-09-18,-1,-0.0007986555457762062,-0.0006346936213808465,-0.012340081072176556,0.010711724911662536,0.9842527102889217
2015-09-22,-1,-0.001472301815222963,-0.0012100997419526626,-0.011849757179779746,0.014829408293776793,0.9845785890311252
2015-09-24,-1,-0.0011927160531485907,-0.0009946974785520954,-0.011849757179779746,0.015333506976354716,0.9813234974088589
2015-09-28,-1,-0.0015647255890029205,-0.001317856673980718,-0.007183569271189913,0.015333506976354716,0.9818824006719175
2015-09-30,-1,-0.001550211978874378,-0.0013414399320952888,-0.004808960022375742,0.015333506976354716,0.9829009347973268
2015-10-02,-1,-0.0013527042605624693,-0.001167665912782675,-0.004808960022375742,0.015333506976354716,0.9831458389591198
2015-10-06,-1,-0.0005622798818541422,-0.0004906113709383111,-0.004808960022375742,0.014892108944651143,0.98460012618585
2015-10-08,1,0.0009088155703568545,0.0010284850273203252,-0.004808960022375742,0.011109873486627954,0.9873030673093496
2015-10-12,1,0.0005721719839241711,0.0006491401145544045,-0.0022633770267201174,0.011109873486627954,0.9871456944993989
2015-10-14,1,2.0496475276365107e-05,3.0151383253707145e-05,-0.0008916143239985661,0.012359861309807207,0.9877018714493467
2015-10-16,1,0.0006148329727411728,0.0007224636703994454,-0.0048765904143017996,0.01030994741961993,0.9873211956584981
2015-10-20,1,0.0009194347661972244,0.0010677786669522206,-0.0048765904143017996,0.01030994741961993,0.9871189404984873
2015-10-22,1,0.0015401442970112847,0.001767190521360948,-0.0036901058176010363,0.01030994741961993,0.9898963918145194
2015-10-26,1,0.0018610224374476134,0.002134694941725356,-0.005786567513604861,0.00880368259611802,0.9900325527533449
2015-10-28,1,0.002456550911453194,0.0027899666003438064,-0.005786567513604861,0.00880368259611802,0.9909999426979802
2015-10-30,1,0.0025939403167304495,0.0029524761848893476,-0.008445330776478868,0.009873105003444748,0.9901548908622856
2015-11-03,1,0.0028677705128725274,0.003300100066825909,-0.008484459833167767,0.010289767611171168,0.9897541282618367
2015-11-05,1,0.003106505499263237,0.0035698992128764483,-0.010659958706318019,0.011773003830714581,0.9876783502530729
2015-11-09,1,0.0030265440732155802,0.0034856818254648293,-0.008484459833167767,0.011773003830714581,0.9881189875578206
2015-11-11,1,0.0032048109974964233,0.0036905441187958282,-0.010865597248346529,0.010670957461710184,0.9875356852278853
2015-11-13,1,0.0023583396990748333,0.0027147374635983564,-0.009397174287437408,0.012579268510163272,0.9876837822699047
2015-11-17,1,0.0028013094548335806,0.0032209047868272476,-0.009397174287437408,0.010670957461710184,0.9885320219757044
2015-11-19,1,0.0030762672082016176,0.003503248887892883,-0.014103740864652867,0.009922418821503035,0.9886253460166591
2015-11-23,1,0.0030525403899696697,0.0034886256730503,-0.014103740864652867,0.009922418821503035,0.9888997496748066
2015-11-25,1,0.002883493524053489,0.0032485254557510545,-0.014103740864652867,0.009833981780795508,0.9892966479439864
2015-11-30,1,0.0017521698917564235,0.0018753087820044412,-0.008077644963712851,0.009890022201670049,0.9897167140788317
2015-12-02,1,0.0019079990237490041,0.002088208082566371,-0.008217681455094997,0.0064108149755229505,0.9898365423178314
2015-12-04,1,0.0017708019040270976,0.0019361226591198587,-0.008230897748031828,0.00497056830482996,0.9908356180363749
2015-12-08,1,0.001632709792691166,0.001776866506482782,-0.018315072891252303,0.00497056830482996,0.9877240553328257
2015-12-10,1,0.0015093702033755394,0.0016360910218858515,-0.020066566950519487,0.004122539249662011,0.9858703997086318
2015-12-14,1,0.0021882236411160964,0.002479202566928238,-0.02012518554395454,0.004122539249662011,0.9843962236992483
2015-12-16,1,0.001974918996963425,0.002183140826683504,-0.02012518554395454,0.0030656823313317608,0.9834712748070796
2015-12-18,1,0.0014518149140809464,0.001609362154551717,-0.018948662514828934,0.0030656823313317608,0.983762520247044
2015-12-22,1,0.0016539494167870177,0.001854513289554451,-0.018948662514828934,0.010763671984383097,0.9815343722156954
2015-12-24,1,0.0018709548420275544,0.0020949967825099067,-0.020335330525764368,0.01366318239711719,0.9775871380929352
2015-12-29,1,0.0020837703327292686,0.002316492933774936,-0.02293463594781211,0.014059930349270786,0.9751005809232506
2015-12-31,1,0.001645959705863086,0.0018434311164704591,-0.02293463594781211,0.016442150183719716,0.9750092597493248
2016-01-05,1,0.00014368733572123088,0.00021497187698225434,-0.02314275927592371,0.016442150183719716,0.9753481530420364
2016-01-07,-1,-0.0016752197993968986,-0.0014197680915729513,-0.02314275927592371,0.016442150183719716,0.9775035201926279
2016-01-11,-1,-0.0034893858062122153,-0.0030381463747792244,-0.022020515380302978,0.016442150183719716,0.9780888679494957
2016-01-13,-1,-0.005392758041212003,-0.004647791137052067,-0.016706455207818226,0.016442150183719716,0.979914236994149
2016-01-15,-1,-0.008819767174342814,-0.0074560500943139756,-0.016706455207818226,0.02028956122249329,0.9781201292370071
2016-01-20,-1,-0.008890597885786139,-0.00758862742827123,-0.007915340222836144,0.023600441185370222,0.9761305676161047
2016-01-22,-1,-0.0062070017322918,-0.005258405687968471,-0.007915340222836144,0.018367224999745434,0.9792049144859541
2016-01-26,-1,-0.005242434668286944,-0.0043456243630900756,-0.006144471827268862,0.01646515720384272,0.9824693791827652
2016-01-28,-1,-0.0046204178655659435,-0.0038803966400391006,-0.003119236516378961,0.016412383702127185,0.9838982005023109
2016-02-01,-1,-0.0030899970330126366,-0.002565532428484729,-0.006144471827268862,0.016412383702127185,0.9833557790952315
2016-02-03,-1,-0.0037055905054462737,-0.0031440378006262213,-0.002144956237644178,0.016412383702127185,0.983645737261307
2016-02-05,-1,-0.004982802659363057,-0.004285223247141954,-0.0017502021050547862,0.016412383702127185,0.9828578253416294
2016-02-09,-1,-0.005548041699990353,-0.004824433989795669,-0.0017502021050547862,0.016412383702127185,0.984314472158443
2016-02-11,-1,-0.005438957220824395,-0.004694532629655513,-0.001982716272655375,0.016412383702127185,0.9845825603210482
2016-02-16,-1,-0.004375664704401411,-0.003717648642133386,-0.0029951310361288437,0.015385599952381984,0.9869955179777938
2016-02-18,-1,-0.003308257928716165,-0.0027647835610558344,-0.0029951310361288437,0.015385599952381984,0.9876372552362662
2016-02-22,-1,-0.0030503822114806194,-0.002512950274396187,-0.0029951310361288437,0.01257511690993281,0.988038899117513
2016-02-24,-1,-0.003620671125940903,-0.002974212857205077,-0.0031334947988237998,0.01128010469982988,0.9887378109714857
2016-02-26,-1,-0.0023047841407236036,-0.00182564646348762,-0.0031334947988237998,0.006063189544817121,0.9900561744690065
2016-03-01,-1,-0.0012984064438214561,-0.0009754134176592061,-0.0031334947988237998,0.006063189544817121,0.9920042896139163
2016-03-03,1,0.00023092692139258886,0.0002472810540606569,-0.0031334947988237998,0.0074982947920344736,0.991306603777173
2016-03-07,-1,-0.00029970138484908693,-0.00018599411205300124,-0.0031334947988237998,0.006063189544817121,0.9922734632433579
2016-03-09,-1,-0.0012985151691264382,-0.0010069037646966896,-0.0031334947988237998,0.0074982947920344736,0.9914571368386619
2016-03-11,-1,-0.0005235275120213283,-0.00036087325695755744,-0.004270248295091197,0.006063189544817121,0.9915953758143632
2016-03-15,-1,-0.00027040223081768066,-0.00016308256924839267,-0.003186559323279451,0.008775499537899936,0.9903026090132461
2016-03-17,1,0.001314688003077896,0.00146759387644944,-0.005462726336575914,0.008301337141036603,0.9907847718278129
2016-03-21,1,0.001861101369360122,0.0021160729135152154,-0.008825483530840087,0.008301337141036603,0.9902368995632812
2016-03-23,1,0.001887573115357804,0.0022255789707458394,-0.005462726336575914,0.01048557251504224,0.9906939547168568
2016-03-28,1,0.0024355551564043602,0.002858149719540508,-0.008825483530840087,0.01048557251504224,0.9902662668759493
2016-03-30,1,0.0029879834443227206,0.0034839750857405104,-0.009910904546745534,0.008731210379327867,0.990569361399531
2016-04-01,1,0.00388101712721525,0.0045202973105330155,-0.010849735712600428,0.007378527428944033,0.9901078922929056
2016-04-05,1,0.003346532709739518,0.0039016909189594604,-0.011448779871307541,0.008731210379327867,0.9892484187460582
2016-04-07,1,0.003422491595553058,0.004006150047346358,-0.009959606774082015,0.007378527428944033,0.9897330786480136
2016-04-11,1,0.0026542380110639646,0.0030686428296186194,-0.009959606774082015,0.008731210379327867,0.9889677418950368
2016-04-13,1,0.00425754950068556,0.004924799714393637,-0.009959606774082015,0.008731210379327867,0.98934137587432
2016-04-15,1,0.004782648649692214,0.005571458481650086,-0.007706212853951218,0.00732557124045383,0.9898093611107216
2016-04-19,1,0.00441729329129917,0.005150694746453393,-0.006544785227106617,0.008731210379327867,0.9901047469668249
2016-04-21,1,0.005376475355588533,0.006277674508484439,-0.0068275717595136145,0.008792495918793676,0.9889326523361932
2016-04-25,1,0.004987570182822546,0.005827267332788051,-0.006544785227106617,0.010557202420237525,0.9894702830696368
2016-04-27,1,0.004849374455420724,0.005664424704659799,-0.006009025589850714,0.012207597938652842,0.9891317108354167
2016-04-29,1,0.003788109110918871,0.004447317488091209,-0.004704064929009369,0.012207597938652842,0.9905738958993316
2016-05-03,1,0.003691317988233524,0.00432770663322623,-0.004704064929009369,0.010557202420237525,0.991388852318117
2016-05-05,1,0.0031038304615914917,0.003649710027933623,-0.004232866283121453,0.010557202420237525,0.9918994249722917
2016-05-09,1,0.0036848733278835996,0.004288715838494273,-0.004232866283121453,0.010557202420237525,0.9923642236654979
2016-05-11,1,0.004144793573701014,0.004828980639307976,-0.003422354864427785,0.010557202420237525,0.9925497152946855
2016-05-13,1,0.0035516702334810564,0.004098535084485601,-0.004734724691572425,0.010557202420237525,0.9914667314543699
2016-05-17,1,0.003780450320226873,0.00435916972131163,-0.004734724691572425,0.01047907088445289,0.9916960190965649
2016-05-19,1,0.004353935479875112,0.005034109404338553,-0.0018622601458956384,0.007897297694230311,0.992614826372412
2016-05-23,1,0.00501443918878576,0.005810038548787253,-0.004734724691572425,0.007897297694230311,0.9921293051183051
2016-05-25,1,0.0056765193691173405,0.006505393311391558,-0.004734724691572425,0.007897297694230311,0.992271082906974
2016-05-27,1,0.004825250125471785,0.005481133930082628,-0.006858655678243874,0.007897297694230311,0.9896676522773946
2016-06-01,1,0.0029902892697866584,0.003253801199855655,-0.006361228141903945,0.011069946876681287,0.9889828251483528
2016-06-03,1,0.0013788728536803646,0.001458675214801357,-0.006361228141903945,0.012898051021896806,0.9874459973564653
2016-06-07,1,0.0011315405440512946,0.0013064809834021686,-0.006782318917003337,0.012018717488165466,0.987663953241384
2016-06-09,1,0.0015508942979084854,0.0016906587660358617,-0.006782318917003337,0.013112331961830736,0.9874102273069502
2016-06-13,0,-0.0003426165096325378,7.004714517528819e-05,-0.0024228217927438752,0.013770188214614933,0.9874683519815198
2016-06-15,1,0.0008355690225097782,0.0010088806580492737,-0.005733691428677488,0.013770188214614933,0.9878009578214941
2016-06-17,1,0.0018617874183549953,0.001888498271132842,-0.005733691428677488,0.013770188214614933,0.9881095646385383
2016-06-21,1,0.0016378133300758995,0.0016724595573591493,-0.006072009968457094,0.013770188214614933,0.9882685433788766
2016-06-23,1,0.002665877714847482,0.002816752312350023,-0.008387423087983811,0.008894100355869228,0.9887000357061598
2016-06-27,0,-0.00019775958393163714,5.809633047368292e-05,-0.006072009968457094,0.013770188214614933,0.9879047977735306
2016-06-29,1,0.00041727926371917736,0.0006469328178095159,-0.006072009968457094,0.007642629664153274,0.9901118246449606
2016-07-01,1,0.00015363150845097272,0.00045130433245501786,-0.00593951378652925,0.0050987256503251775,0.9916325173673928
2016-07-06,1,7.804740120513013e-05,0.0003776267793732061,-0.004202943472852828,0.0050987256503251775,0.9917980652701357
2016-07-08,1,0.001277875432283322,0.00138803640947023,-0.004202943472852828,0.0050987256503251775,0.9922569172865479
2016-07-12,1,0.002120889861607695,0.002156075244915336,-0.005606521667308311,0.0036366875347346814,0.9922929383931307
2016-07-14,1,0.0020060114063512238,0.0020401166003866213,-0.004312543360999065,0.0045937000717175755,0.9924220960488609
2016-07-18,1,0.0019167831084991127,0.0019392981566484799,-0.006268313450967963,0.005626707517773839,0.9918896958786315
2016-07-20,1,0.001873150311278471,0.0019346741666629492,-0.006268313450967963,0.005626707517773839,0.9917497373112032
2016-07-22,1,0.001607162134811822,0.001644955710676106,-0.004312543360999065,0.005626707517773839,0.9923950358845088
2016-07-26,1,0.0027580605857747344,0.0029403042919870135,-0.0019035410978504087,0.005626707517773839,0.99488415572516
2016-07-28,1,0.0024907532981132494,0.002626011808768971,-0.004185859566038399,0.005626707517773839,0.994818761501239
2016-08-01,1,0.0019666310142894866,0.0020171858591219254,-0.002356519304800902,0.006204960154969841,0.9946207488220347
2016-08-03,1,0.002007596804572576,0.0020713188666309956,-0.0023429649067916868,0.005626707517773839,0.9949555644918252
2016-08-05,1,0.0021173197653405057,0.0021859488802126953,-0.0023429649067916868,0.005626707517773839,0.9950236558055011
2016-08-09,1,0.0023215012989885155,0.0024513393427954755,-0.0023429649067916868,0.0048808381982912135,0.994890997327917
2016-08-11,1,0.002374052393361224,0.0025195592223212875,-0.004145196372010754,0.005111390716533527,0.9917877957328011
2016-08-15,1,0.0020168175592413552,0.002061581919755741,-0.004145196372010754,0.005111390716533527,0.9907159315610337
2016-08-17,1,0.001608169900534007,0.0016135495712871182,-0.0023429649067916868,0.007092251726278731,0.9906463109321311
2016-08-19,1,0.001806711117001216,0.001861433468703017,-0.004145196372010754,0.009567269029162898,0.9897179580759368
2016-08-23,1,0.0023532417788938824,0.002506005092711188,-0.004145196372010754,0.009567269029162898,0.9895536812809771
2016-08-25,1,0.0019039178840819916,0.001970821601413572,-0.0023429649067916868,0.011738406681680885,0.9889123662031986
2016-08-29,1,0.0020250087431074805,0.002095786294920378,-0.004516988180287715,0.012537185427785992,0.9881497947076613
2016-08-31,1,0.0017113525474127377,0.0017215039600789496,-0.008163888203030826,0.012537185427785992,0.9875657538352942
2016-09-02,1,0.002179651639756753,0.0023067647266131093,-0.008163888203030826,0.012537185427785992,0.9873355591458979
2016-09-07,1,0.0017375664960050897,0.0018017202866847384,-0.0018837701740080477,0.014775862922895178,0.9871309611698154
2016-09-09,-1,-0.00023268763758452563,-4.3527090055891474e-05,-0.0018837701740080477,0.014775862922895178,0.9879864937507993
2016-09-13,1,0.00013209021077786529,0.0002612728379251248,-0.0018837701740080477,0.011816382975371666,0.9892159157681654
2016-09-15,1,0.0004412529456908843,0.0005492777134842701,-0.00793187011654463,0.010803489609733303,0.9893000433256816
2016-09-19,1,0.00017208288492032977,0.0003163804195464044,-0.007012746280718996,0.009419513302481648,0.9895957464128852
2016-09-21,1,9.300034228868664e-05,0.00029035865100283703,-0.007510321773014299,0.008838007471355025,0.9899115320632961
2016-09-23,1,0.0005496225934494397,0.000702224767990218,-0.007758883890226178,0.008498276599065312,0.9902191167121515
2016-09-27,1,0.0005948998464891528,0.0007666948813438321,-0.00884263921918979,0.007370422614391763,0.98979291641631
2016-09-29,1,0.0005360544176725055,0.0006957185440145343,-0.010841516914508027,0.007370422614391763,0.9886449274919425
2016-10-03,1,0.0010229133464490332,0.0011210767026969748,-0.010841516914508027,0.006137639182183557,0.9891256165643304
2016-10-05,1,0.0014377057292031177,0.0014990414251567518,-0.011093166074946273,0.0028012673056695206,0.9885567666910984
2016-10-07,1,0.0007165379710693806,0.0008587616799705483,-0.010841516914508027,0.0028012673056695206,0.9892827178772925
2016-10-11,1,0.00039481909390921735,0.0005716194504501899,-0.01017054354477957,0.006137639182183557,0.9888696569555748
2016-10-13,1,0.0002514679589383631,0.0004445030856416036,-0.008588158452250551,0.008895211436435357,0.9873776406783927
2016-10-17,1,0.000792591583415859,0.0008679798764895957,-0.010072638380482668,0.006826942433866128,0.9872137964010207
2016-10-19,1,0.00019935730279928174,0.00035003438100309414,-0.010501566956072697,0.006826942433866128,0.9872879273247719
2016-10-21,-1,-0.0007238301022237168,-0.0004439721247813668,-0.010501566956072697,0.006826942433866128,0.9879917490613812
2016-10-25,-1,-0.0020179424578500196,-0.0015712828246710754,-0.010072638380482668,0.012178351709344542,0.9885397068689755
2016-10-27,-1,-0.003089441248880881,-0.0025514694106290614,-0.004871631461820695,0.012531163571229418,0.9887604085170686
2016-10-31,-1,-0.0026040976065414604,-0.002148628781991554,-0.006371029798101535,0.012531163571229418,0.9887431164795794
2016-11-02,-1,-0.00410410398299918,-0.0034299492549269553,-0.004871631461820695,0.012531163571229418,0.9886455813516151
2016-11-04,-1,-0.003392270112614136,-0.0028079690994754084,-0.0017714155537444545,0.012531163571229418,0.9890374905221534
2016-11-08,-1,-0.002381120639589757,-0.0019294296150809593,-0.0017714155537444545,0.012531163571229418,0.9898431704179723
2016-11-10,-1,-0.0006647701684743286,-0.0004151270623280371,-0.0017714155537444545,0.008579541996945312,0.9928951506265516
2016-11-14,-1,-0.000942255528979721,-0.0006872131145139092,-0.0019596842707557895,0.008579541996945312,0.9925951531284808
2016-11-16,-1,-0.003007513297804069,-0.002389646518689446,-0.006700051192189664,0.008579541996945312,0.9913837265695061
2016-11-18,-1,-0.0020034839119547473,-0.001583948437027402,-0.006700051192189664,0.008579541996945312,0.9917276647088614
2016-11-22,-1,-0.000699622745122758,-0.00046565681898514256,-0.006700051192189664,0.0054365757609590665,0.9931665254509742
2016-11-25,0,-5.756499088407907e-05,0.00010550329254024589,-0.009022843381723454,0.003783218078854618,0.9933934531466132
2016-11-29,1,0.0001110682590331101,0.00021462770253343567,-0.009022843381723454,0.003930144125209345,0.9929760576599647
2016-12-01,1,0.0005059645760998352,0.0005310891975699697,-0.009022843381723454,0.00311983114719264,0.9931647540328221
2016-12-05,1,0.0010156883527624285,0.0010428491796961852,-0.009022843381723454,0.003010008777333396,0.9933948507559327
2016-12-07,1,0.00163637462997008,0.0017575378515085466,-0.009022843381723454,0.0018246853828077438,0.9935717979082286
2016-12-09,1,0.0014317421280237747,0.0015020436990349872,-0.009022843381723454,0.0018246853828077438,0.9931350089007548
2016-12-13,1,0.0003303267360520911,0.00042250233275625116,-0.007283394010465526,0.002956534519635419,0.9934713355237104
2016-12-15,1,0.0002907945348430617,0.000307137939706164,-0.006554770577311738,0.0042746654316827715,0.9935117804699494
2016-12-19,1,0.00022303670871092076,0.00025228508418986964,-0.007377979792236903,0.0042746654316827715,0.9932679269679243
2016-12-21,-1,-9.789832380497206e-05,-1.2015965401335655e-05,-0.007377979792236903,0.007786460617148035,0.9928531614642317
2016-12-23,-1,-0.0007287572926863737,-0.0005769711330747563,-0.006554770577311738,0.008794841543826969,0.9920048363903756
2016-12-28,-1,-0.0006960836980637454,-0.0005712947421810874,-0.006554770577311738,0.008794841543826969,0.9923084995181781
2016-12-30,-1,-0.0009461007025815791,-0.000791281089737093,-0.005210549021979556,0.008794841543826969,0.9922332184663984
2017-01-04,-1,-0.0003019459015614383,-0.00023256018935943615,-0.007377979792236903,0.007890926601660977,0.9913720418258192
2017-01-06,-1,-0.0005128271184429594,-0.0004178631312596892,-0.007377979792236903,0.008902547307919437,0.9891215928342366
2017-01-10,-1,-0.0008104110306360111,-0.0006551478965331773,-0.006964019791238962,0.008902547307919437,0.9896187398316629
2017-01-12,-1,-0.0006229753772892865,-0.0005015178244050136,-0.005072562354980242,0.008902547307919437,0.9900841752064468
2017-01-17,-1,-0.0001966328614422239,-0.00015764694368864768,-0.004935519091978487,0.006838725920016733,0.9909300603194308
2017-01-19,-1,-0.0006533879522860864,-0.0005546763317219805,-0.004935519091978487,0.00736299776924936,0.9907462348429074
2017-01-23,1,8.017510570326828e-05,9.198257963624929e-05,-0.004935519091978487,0.00736299776924936,0.9905080795442206
2017-01-25,1,0.0011398223347120697,0.0012872417108447357,-0.004935519091978487,0.00473881249224315,0.9916638421237671
2017-01-27,1,0.0005887503494335419,0.0006741954045260496,-0.0030661189001488206,0.00636669190302544,0.9920929292736704
2017-01-31,1,0.00047874321411836866,0.000525270905247061,-0.004578725525429706,0.007852576403857637,0.9910530162582272
2017-02-02,-1,-0.001993233914041094,-0.0016493180557976257,-0.00241780166821546,0.007852576403857637,0.9906258199147803
2017-02-06,1,7.442903914028524e-05,0.00016727280050045883,-0.004578725525429706,0.006384883206922887,0.9930534232872954
2017-02-08,1,0.00023715645498176359,0.00027948191988390965,-0.002912269651285246,0.006384883206922887,0.9930709539958332
2017-02-10,1,0.0004905102593135025,0.000508509590907975,-0.002912269651285246,0.007164636892155178,0.9926890405977898
2017-02-14,1,0.0006583547611185107,0.0006968158136799629,-0.0018623163768339735,0.008807674192657183,0.991881872524608
2017-02-16,1,0.0010442725528397629,0.0011776832548795514,-0.0016640695253674499,0.008807674192657183,0.9922750695033389
2017-02-21,1,0.0017681646660364092,0.002032990793216493,-0.0017147886390163384,0.006916291454180116,0.9917154603989952
2017-02-23,1,0.0018086598160992505,0.002064338758952342,-0.0017147886390163384,0.006916291454180116,0.9916289371165554
2017-02-27,1,0.0025564139065795926,0.002948014842579583,-0.0017147886390163384,0.0063021013942645325,0.991859543916794
2017-03-01,1,0.0029451379468579206,0.0034349197030781433,-0.0017147886390163384,0.0055246423900656115,0.9923502301261444
2017-03-03,1,0.0019146270363725774,0.0022279769585181308,-0.0014253184944862914,0.005610554092518984,0.9937860989626279
2017-03-07,1,0.0013865564233237126,0.0016119940110359454,-0.0017147886390163384,0.005610554092518984,0.9934466969692746
2017-03-09,1,0.0011663077856729192,0.0013518074563147115,-0.0026565436760401634,0.005610554092518984,0.9931358303242247
2017-03-13,1,0.001907147764419409,0.002192497013582191,-0.0026565436760401634,0.00464547491340517,0.9933673945591187
2017-03-15,1,0.002582710066340966,0.002930385905514715,-0.0071988956712918575,0.00464547491340517,0.9930248429645266
2017-03-17,1,0.0024924371833929563,0.0027923290628849738,-0.0071988956712918575,0.00464547491340517,0.9922082394855379
2017-03-21,1,0.0009967971920756685,0.0010340589200911595,-0.00599799436769377,0.00464547491340517,0.9935852773843246
2017-03-23,1,0.0001690672057464376,0.0003135817521168097,-0.00599799436769377,0.006784050346346453,0.9930509876041133
2017-03-27,1,0.0002316991476989184,0.0003628058295330805,-0.00599799436769377,0.009252609239621852,0.9919410156353803
2017-03-29,-1,-0.001029523489085314,-0.0006969087002534782,-0.0035368465326245224,0.010069733260768168,0.990713422717383
2017-03-31,-1,-0.00043707499034742134,-0.00022125288111172418,-0.00599799436769377,0.010069733260768168,0.9906161315718282
2017-04-04,-1,-0.0007948865396465913,-0.0005727962729656031,-0.004377551475814718,0.012374482240582725,0.990305352949911
2017-04-06,1,7.316611971158781e-05,0.0001024654589838282,-0.0030568988988074262,0.013183311032773566,0.9898875199335644
2017-04-10,1,7.637214821508626e-06,7.202140685043664e-05,-0.004377551475814718,0.013183311032773566,0.9899253118862489
2017-04-12,-1,-0.0006705123088626222,-0.0005023772994047069,-0.004766186733794094,0.013183311032773566,0.9905740511178217
2017-04-17,-1,-0.00027874265012575776,-0.00015846694677467717,-0.005454558002373088,0.012374482240582725,0.9908209909385585
2017-04-19,1,0.00013279240364888814,0.00016590647292248883,-0.008642155893814828,0.012374482240582725,0.9896431993392284
2017-04-21,1,0.0010983458708410544,0.0012248794639812123,-0.008642155893814828,0.01285182934205053,0.9895392927869776
2017-04-25,1,0.0018225231550678775,0.002030489706515419,-0.008642155893814828,0.009316276431010809,0.9905085505639684
2017-04-27,1,0.0027755002460086668,0.003108573063173176,-0.008642155893814828,0.00875858223085977,0.9916737797073604
2017-05-01,1,0.002542258802532966,0.0028776359690620796,-0.00806015525522276,0.00875858223085977,0.9919796223071901
2017-05-03,1,0.002996173638936242,0.0034225938784153854,-0.0077276700007502435,0.008696423972431238,0.9927137428039036
2017-05-05,1,0.0037310559369623866,0.0042559364977731145,-0.0077276700007502435,0.007205368532493546,0.9925651110626719
2017-05-09,1,0.0030146754864058558,0.0034035385383441954,-0.0077276700007502435,0.008696423972431238,0.9920682908734983
2017-05-11,1,0.002031713748841173,0.0022343171823154223,-0.006309004185404079,0.00907278448397366,0.9919806118424919
2017-05-15,1,0.001878178411093836,0.0020577126872110513,-0.002530226749570398,0.009407715852844077,0.9923167815350866
2017-05-17,1,0.0014133811612467182,0.00152536085519629,-0.0011469993158980166,0.009221241077558479,0.9934311562302132
2017-05-19,1,0.0012524626447601177,0.0013078607222973522,-0.0010555093872848284,0.009221241077558479,0.9937515198352037
2017-05-23,1,0.0012076316770598195,0.0012447289351915159,-0.002530226749570398,0.009221241077558479,0.992891331610617
2017-05-25,1,0.0012034782352763765,0.0012248445620231302,-0.0038550365910248545,0.009221241077558479,0.9928628318237146
2017-05-30,1,0.0012100130036809755,0.0012497552696644875,-0.0038550365910248545,0.009221241077558479,0.9927945679730178
2017-06-01,1,0.0015010969451169382,0.001565359201741983,-0.00588735003833675,0.007653114188184932,0.9927484178472664
2017-06-05,1,0.0019032968639158935,0.0020147358572889327,-0.00588735003833675,0.006823795621861018,0.9932898395478652
2017-06-07,1,0.0015748394363560585,0.0016408467115359828,-0.00588735003833675,0.006823795621861018,0.9935161268167416
2017-06-09,1,0.0015620291963772434,0.0016220956010646705,-0.00388824395399668,0.006823795621861018,0.9936639809806729
2017-06-13,1,0.00169731057972859,0.001751751389363129,-0.00388824395399668,0.0060294399962571715,0.9938610561797572
2017-06-15,1,0.0016823455700737666,0.0017495223929334587,-0.00388824395399668,0.0060294399962571715,0.9938780720065229
2017-06-19,1,0.0023913060785371075,0.00260602734762733,-0.005402305007366681,0.004375616271566975,0.9941248926695646
2017-06-21,1,0.0013541305444330308,0.0013958412915523169,-0.0036933549140348316,0.004977250885574602,0.994284420284697
2017-06-23,1,0.0012225985748119932,0.0012471321986801433,-0.008645094819879498,0.004977250885574602,0.9931800871113244
2017-06-27,1,0.00037882006289583376,0.000527896310416114,-0.010010660333548346,0.0041095929430292845,0.993038962602161
2017-06-29,1,0.0010622586374451355,0.0010812642205638575,-0.006615347480864623,0.004977250885574602,0.9929226009571476
2017-07-03,1,0.0012100310596266273,0.0012337498586377494,-0.011034244463460078,0.0038389055463076806,0.992454988840287
2017-07-06,1,0.0012578124233842706,0.0013015746412284657,-0.006810449923080705,0.0038389055463076806,0.9927611968329701
2017-07-10,1,0.0014194798199056505,0.0014725945086226933,-0.008093324129996419,0.0038389055463076806,0.9923937418488317
2017-07-12,1,0.0014343914907231179,0.001483284017745076,-0.008093324129996419,0.0031067663602698473,0.9921083220794836
2017-07-14,1,0.0014776737840302126,0.0015516793946392603,-0.00970663523847781,0.0031067663602698473,0.9916998820956848
2017-07-18,1,0.0013431987157992153,0.0014035570512007387,-0.00970663523847781,0.004087456071720923,0.9916703834755757
2017-07-20,1,0.0010620633020099204,0.0011045669201889174,-0.00970663523847781,0.004671850393697072,0.9915754320210631
2017-07-24,1,6.473165956262018e-05,0.0001524189460641022,-0.00683061939206322,0.004671850393697072,0.9927494586444001
2017-07-26,-1,-0.0012137478229514848,-0.000941471300349147,-0.005575617161817505,0.007382359783022249,0.9931530834897501
2017-07-28,-1,-0.0014936040219871987,-0.0011656274473861973,-0.00683061939206322,0.008268630012131725,0.9927209859931159
2017-08-01,-1,-0.0020602253514709805,-0.0016570604546386634,-0.004594524261469872,0.008268630012131725,0.993063802718822
2017-08-03,-1,-0.0013555214566328207,-0.0010662459842107675,-0.004594524261469872,0.008495584333522883,0.9924655864511602
2017-08-07,-1,-0.0006222094956093364,-0.00046586271613319874,-0.0040144164718213535,0.008268630012131725,0.9931031627613348
2017-08-09,-1,-0.0008963476593895446,-0.0007189668084635975,-0.003467963857024351,0.008268630012131725,0.9930903589162606
2017-08-11,-1,-0.0017084097073311495,-0.001393028452337517,-0.002083955708691914,0.00943954242393142,0.9918995658201502
2017-08-15,-1,-0.00116474755719208,-0.0009227354492975416,-0.0034487426140842425,0.011158059957912112,0.992051939155352
2017-08-17,-1,-0.0014046029221508743,-0.0011368318999215332,-0.002083955708691914,0.011158059957912112,0.9927865840152893
2017-08-21,-1,-0.0019229822719872042,-0.00157158511942694,0.0007278765791792817,0.011158059957912112,0.9922811884270681
2017-08-23,-1,-0.001520881890573822,-0.0012265010285648413,0.0007278765791792817,0.010347846546206163,0.992693366044756
2017-08-25,-1,-0.0022519437807633647,-0.0018342299924863404,0.0007278765791792817,0.010347846546206163,0.9924288611044828
2017-08-29,-1,-0.0021683878313660384,-0.0017482179063729513,-0.0004313240416411393,0.010347846546206163,0.992871854407821
2017-08-31,-1,-0.0011469650082320682,-0.0008587373625660673,-0.0012273039311912705,0.009079216178538185,0.9942931167952394
2017-09-05,-1,-0.0015608362385343237,-0.0012059972066483509,-0.0004313240416411393,0.00934723409323834,0.993467112962743
2017-09-07,-1,-0.00123165109612627,-0.0009294073124957019,-0.001035676208257091,0.00934723409323834,0.9936226083957432
2017-09-11,-1,-0.00029250330129435107,-9.30272961075111e-05,-0.0012273039311912705,0.00808664464724149,0.9950780927748694
2017-09-13,1,0.0002641764347729927,0.0003657106078986864,-0.001218090522184099,0.0069464961623251255,0.9958027995237587
2017-09-15,1,0.0009094320042507901,0.0009260149901386575,-0.0013264868646373675,0.00808664464724149,0.9951322754469188
2017-09-19,1,0.0016327134044585578,0.0018038615307899289,-0.0014393176667148978,0.00808664464724149,0.9947944064866708
2017-09-21,1,0.0016112661443187,0.0017434873232893692,-0.0014393176667148978,0.0069464961623251255,0.9951452576968705
2017-09-25,1,0.0015817269804178436,0.0017219530602307863,-0.0013266966623211706,0.0069464961623251255,0.9954060744300679
2017-09-27,1,0.0019453845684428142,0.0021835281733430722,-0.0014118872373771864,0.0069464961623251255,0.9930170986142782
2017-09-29,1,0.0018522797298951615,0.0020576584647057075,-0.0013173433881914637,0.0069464961623251255,0.9930133399820376
2017-10-03,1,0.0020363196099785806,0.0022346854831028218,-0.0019717783257457815,0.004010579664049711,0.9930250951312847
2017-10-05,1,0.0020743059450207164,0.002269571788124578,-0.0019717783257457815,0.004010579664049711,0.9929331295926963
2017-10-09,1,0.001705233475037426,0.0018281140068861423,-0.0021679895921192433,0.003546181084326676,0.9927824126404764
2017-10-11,1,0.0016189662428279412,0.0017406675102281798,-0.003316553890268556,0.003546181084326676,0.9928057724664936
