JNU-Tangyin/eata/results/Batch4_SP500/Batch4_SP500-SLB.csv
Date,Action,Predicted_Q25,Predicted_Q75,Actual_Q25,Actual_Q75,RL_Reward
2010-12-14,1,0.0,0.004120438581690506,-0.003296850779891034,0.010685396558832397,0.9924155848829345
2010-12-16,1,0.004793108811327331,0.005212356360860269,-0.0027180522776749493,0.012017840927713323,0.989778532377398
2010-12-20,0,0.0,0.0,-0.003296850779891034,0.012017840927713323,0.9898001930279332
2010-12-22,0,0.0,0.0,-0.007019660568447711,0.012017840927713323,0.9885860638377754
2010-12-27,1,0.00313462844529892,0.0034856402653419237,-0.010932437109887786,0.012017840927713323,0.9874939811733002
2010-12-29,1,0.0006356767583765137,0.0007729528588041881,-0.011488139244020864,0.012017840927713323,0.9855475406264671
2010-12-31,1,0.004820684811210615,0.005297215365289732,-0.011488139244020864,0.01448857778290197,0.9841248394341584
2011-01-04,1,0.003202621647488761,0.0033672483512806944,-0.010932437109887786,0.01448857778290197,0.9848849896684798
2011-01-06,1,0.002552227903761379,0.002623789701473285,-0.007382780253463618,0.01448857778290197,0.9863750235706503
2011-01-10,1,0.0021305139424892664,0.002136364486115801,-0.006828336409867267,0.011813684824139473,0.9867993624068346
2011-01-12,1,0.0024211030541450088,0.0024490565161084344,-0.006943080807094937,0.008324727498516614,0.9873343641162035
2011-01-14,1,0.002451669767633716,0.0025411688524620366,-0.006943080807094937,0.008324727498516614,0.9874555551564902
2011-01-19,0,0.0,0.0,-0.006943080807094937,0.011439144268501882,0.9870841751204853
2011-01-21,0,0.0,0.0,-0.0037133560040461568,0.011439144268501882,0.9881345946147027
2011-01-25,0,0.0,0.0,-0.0037133560040461568,0.010540146178818066,0.988064977617646
2011-01-27,0,0.0,0.0,-0.0037133560040461568,0.010540146178818066,0.9878981491813562
2011-01-31,0,0.0,0.0,-0.006285432005755145,0.007150822912962243,0.9882936620742627
2011-02-02,0,0.0,0.0,-0.005780389479684088,0.009846120789273294,0.987685331624885
2011-02-04,0,0.0,0.0,-0.009574363858884707,0.009846120789273294,0.9865573851074593
2011-02-08,0,0.0,0.0,-0.013053682034715752,0.009846120789273294,0.9863271746395543
2011-02-10,0,0.0,0.0,-0.01475551932540853,0.009846120789273294,0.9847160712711577
2011-02-14,0,0.0,0.0,-0.01475551932540853,0.006379121504336036,0.985045719027079
2011-02-16,1,0.004638791589031663,0.004686301146597958,-0.016724220728045094,0.006379121504336036,0.9812936721593554
2011-02-18,0,0.0,0.0,-0.016724220728045094,0.00942040536088979,0.9804788530409994
2011-02-23,0,0.0,0.0,-0.01475551932540853,0.00942040536088979,0.980901008294059
2011-02-25,0,0.0,0.0,-0.013917913937902896,-0.0007464151526350993,0.9834295416426186
2011-03-01,1,0.00017202189599008905,0.0005047369677981767,-0.013083245622261937,0.019559075776527504,0.9806677346459077
2011-03-03,0,0.0,0.0,-0.013083245622261937,0.0025350596299940804,0.9813458206617109
2011-03-07,-1,-0.0012129042300872107,-0.00067604550113585,-0.011240678025996383,0.008354660155586339,0.9825925237539459
2011-03-09,-1,-0.0016197337676483751,-0.0010616684547266558,-0.010327746872536708,0.008354660155586339,0.9830221500375513
2011-03-11,-1,-0.0025802929426437674,-0.0019029601500081333,-0.01006151329809957,0.001987984623855991,0.9860467142812125
2011-03-15,-1,-0.003472833707108203,-0.0026737736713937474,-0.011240678025996383,0.001987984623855991,0.9847407532448162
2011-03-17,-1,-0.0017373192146435533,-0.0012191134665921475,-0.01018521013334301,0.0014787292104228335,0.9869000595523972
2011-03-21,-1,-0.0004928479792724906,-0.00014683421487369217,-0.01018521013334301,0.0014787292104228335,0.9877197684611839
2011-03-23,-1,-0.0010892220822984096,-0.0006810810660703877,-0.009947473065476631,0.005398505751000896,0.9866998538231729
2011-03-25,-1,-0.0019096190421473813,-0.0014091233872073783,-0.009947473065476631,0.009650947425991768,0.985647091595152
2011-03-29,1,0.0012387077019922136,0.0013311646503706169,-0.009947473065476631,0.005398505751000896,0.9882705317544285
2011-03-31,1,0.0011880186217896854,0.0012315664625759933,-0.009947473065476631,0.007246648679085278,0.9884615469151404
2011-04-04,1,0.00011429856477951589,0.0003430433851917008,-0.019911565745581873,0.007246648679085278,0.9872098900730335
2011-04-06,1,0.00015184042350837343,0.00034551233022232287,-0.0218888719984504,0.007246648679085278,0.9859792183083457
2011-04-08,-1,-0.0007183779624211671,-0.0003989138950642727,-0.0218888719984504,0.008392863624382206,0.9861523407304738
2011-04-12,-1,-0.002624615962159081,-0.0020806449468774094,-0.019911565745581873,0.010887847204973235,0.9869296265634145
2011-04-14,-1,-0.002054855215494781,-0.0016176924112465063,-0.019911565745581873,0.01229828583704171,0.9860563353189907
2011-04-18,-1,-0.003041584513838811,-0.0024615875947194997,-0.01407763605718943,0.01229828583704171,0.9872761445271723
2011-04-20,-1,-0.0018708114784285396,-0.001421904915115003,-0.01407763605718943,0.010887847204973235,0.9881133797061304
2011-04-25,-1,-0.0017181605757939388,-0.0013218264238705328,-0.013511808158330403,0.008078309872615621,0.9892711415362829
2011-04-27,-1,-0.00030161046219716987,-0.00014055290865927012,-0.013511808158330403,0.009986360924231339,0.9883737938870311
2011-04-29,1,0.00034069805813580017,0.0003855209002922818,-0.013511808158330403,0.010887847204973235,0.9877328153866851
2011-05-03,-1,-0.0020335813719668107,-0.0016647905290916739,-0.010360457476870706,0.011418877886247753,0.9883775383448425
2011-05-05,-1,-0.003145969471323592,-0.0026611171280725987,-0.005797624148189493,0.01221261656287447,0.9883192472648553
2011-05-09,-1,-0.0027065916831578397,-0.0022606825686131635,-0.007139801588473216,0.01221261656287447,0.9881372442774435
2011-05-11,-1,-0.003490247317201602,-0.0029540934433554605,-0.005797624148189493,0.013116652836397156,0.9877183867623381
2011-05-13,-1,-0.0029725219265484344,-0.0025173282917964773,-0.00758401425316105,0.01221261656287447,0.9875815890986444
2011-05-17,-1,-0.0028985704641412424,-0.002465678952351112,-0.012857814783208556,0.013116652836397156,0.9856993019018913
2011-05-19,-1,-0.002444084280028895,-0.002057389728950241,-0.012857814783208556,0.01221261656287447,0.9866468674985981
2011-05-23,-1,-0.0026902376144253993,-0.002296089508041441,-0.007094651956878119,0.013116652836397156,0.9861454414465425
2011-05-25,-1,-0.001958866432865074,-0.0016486013510559122,-0.007445247185935945,0.01221261656287447,0.9872264399195447
2011-05-27,-1,-0.0024905086042145124,-0.002069096983331074,-0.014050099407025594,0.010672663332931894,0.9869769032948943
2011-06-01,-1,-0.003515364135646205,-0.0029543834014461173,-0.007445247185935945,0.010997580213354757,0.986012273346806
2011-06-03,-1,-0.0024442564142378837,-0.0020186845701233008,-0.007445247185935945,0.013908021444020018,0.9857625684266499
2011-06-07,-1,-0.0024539011915942965,-0.0021022320597381345,-0.005720011449149359,0.013908021444020018,0.9856858927432196
2011-06-09,-1,-0.0005626918583717579,-0.0004777567240342799,-0.005720011449149359,0.013908021444020018,0.986732188794291
2011-06-13,-1,-0.002139509154281633,-0.0018498830414163444,-0.005720011449149359,0.013908021444020018,0.9867847544810027
2011-06-15,-1,-0.0030829723325059505,-0.0026181072952131098,-0.005720011449149359,0.01111892903220283,0.9882181752942838
2011-06-17,-1,-0.0031457386678844772,-0.0026831513878235987,-0.006792630279010699,0.013908021444020018,0.9868270271699412
2011-06-21,0,0.0,0.0,-0.006792630279010699,0.013908021444020018,0.987190716212031
2011-06-23,0,0.0,0.0,-0.005866620184170463,0.015128668014039951,0.9846093246769618
2011-06-27,1,1.7891549728488556e-05,0.00023452562862398584,-0.005683188827255112,0.015128668014039951,0.9853154108465628
2011-06-29,1,0.001614880982741155,0.0020471057347254233,-0.008314335980779892,0.01409326933350378,0.9869943509079901
2011-07-01,0,0.0,0.0,-0.009465755804786494,0.010734566396667245,0.9873182907843832
2011-07-06,0,0.0,0.0,-0.011555303335939578,0.010734566396667245,0.9865169522154488
2011-07-08,1,0.0011716827715704402,0.0013826946071026002,-0.012801910973604735,0.0037536971742618288,0.9835431876169607
2011-07-12,1,0.0011244170753169273,0.001356575253276177,-0.011555303335939578,0.011386734503944887,0.9785007283644378
2011-07-14,1,0.0011154858042259001,0.001398887344755551,-0.014440351854983696,0.018836923185035215,0.9744502386751228
2011-07-18,1,0.0012665371081771316,0.0015358220356575837,-0.014440351854983696,0.019481406781165427,0.9745593748878436
2011-07-20,1,0.0016434949883685252,0.0019624164828852026,-0.019476722803041486,0.015156648291722865,0.974082156970938
2011-07-22,1,0.0030047807299243777,0.0034778897735015094,-0.025143192579649754,0.006821695385228172,0.9722269293331062
2011-07-26,1,0.0031973282640806082,0.0037180386787897335,-0.025143192579649754,0.0072795884993899825,0.9702214510110999
2011-07-28,1,0.0020878211337642728,0.0024161458426585954,-0.031765259837259974,0.0072795884993899825,0.9700020494755321
2011-08-01,1,0.0014909333804601936,0.0017092157251143857,-0.031765259837259974,0.02441471375306427,0.9685032959701997
2011-08-03,1,0.00014958242686113977,0.00015171204713549432,-0.0237204213538129,0.02441471375306427,0.9695517129378375
2011-08-05,-1,-0.0023751324141568345,-0.002053902645744279,-0.02235041281851316,0.02441471375306427,0.9707227285870782
2011-08-09,-1,-0.0029343334352383314,-0.0025908582752714633,-0.018672561151070327,0.02441471375306427,0.9756717710025217
2011-08-11,-1,-0.0021675383288926094,-0.0019635279220034906,-0.018672561151070327,0.01440484950372993,0.977548955105462
2011-08-15,-1,-0.001327488780656467,-0.0012046759182488926,-0.018672561151070327,0.010491683807100397,0.9787066524796572
2011-08-17,-1,-0.001798635631618745,-0.0015957612041035405,-0.01818663363170224,0.01274039786316453,0.9786165714925736
2011-08-19,-1,-0.0025910349057561323,-0.002424536664908053,-0.019129417810765024,0.01274039786316453,0.9801727761129342
2011-08-23,-1,-0.0012850429310453401,-0.0012581823528304845,-0.02237824070372306,0.010434758954145033,0.9792955781042367
2011-08-25,0,0.0,0.0,-0.02237824070372306,0.010434758954145033,0.9782786476548053
2011-08-29,0,0.0,0.0,-0.02237824070372306,0.008612427292031592,0.9792208266259887
2011-08-31,0,0.0,0.0,-0.027531089923522035,0.00883121706447036,0.9766364703121645
2011-09-02,0,0.0,0.0,-0.02982959622740278,0.00883121706447036,0.9760734274435029
2011-09-07,0,0.0,0.0,-0.02982959622740278,0.0124622214300561,0.9745851754050896
2011-09-09,0,0.0,0.0,-0.0267052232910114,0.01685367733894883,0.9750004831516774
2011-09-13,0,0.0,0.0,-0.0267052232910114,0.01928659572823675,0.9724210840125065
2011-09-15,0,0.0,0.0,-0.0267052232910114,0.018452066428911458,0.9733587010267336
2011-09-19,0,0.0,0.0,-0.02797915908137261,0.026517203249487753,0.9706794022723844
2011-09-21,0,0.0,0.0,-0.02675412834674934,0.03421689928922174,0.9714514587465998
2011-09-23,-1,-0.011251289401800162,-0.009895208454886804,-0.021195760716858882,0.03421689928922174,0.9714027947512196
2011-09-27,-1,-0.010438005399746982,-0.009158121927454022,-0.026184791820967973,0.0358235187182782,0.971340721559212
2011-09-29,-1,-0.011837676279448033,-0.010416790930977977,-0.021195760716858882,0.03720528420535657,0.9677619554678547
2011-10-03,-1,-0.012608221543531336,-0.01107010776030312,-0.011620156999206677,0.03720528420535657,0.9675118368641007
2011-10-05,0,0.0,0.0,-0.021292141628825513,0.0358235187182782,0.9720458323294286
2011-10-07,0,0.0,0.0,-0.01610089257456124,0.0358235187182782,0.9720731845139
2011-10-11,0,0.0,0.0,-0.01610089257456124,0.02880366159748582,0.9740250103799688
2011-10-13,0,0.0,0.0,-0.027043271082649235,0.02880366159748582,0.971524620029832
2011-10-17,0,0.0,0.0,-0.01610089257456124,0.028360879859061123,0.9742799392948185
2011-10-19,0,0.0,0.0,-0.013431351143962064,0.023627435038831822,0.9763595638952897
2011-10-21,0,0.0,0.0,-0.01846531026507034,0.023627435038831822,0.9746435059723693
2011-10-25,0,0.0,0.0,-0.016369817866320625,0.02059294429877794,0.976073642408009
2011-10-27,0,0.0,0.0,-0.02110725342141534,0.006885092683088971,0.9796127512649008
2011-10-31,0,0.0,0.0,-0.016369817866320625,0.01808845882862995,0.978408274976541
2011-11-02,0,0.0,0.0,-0.01584289853599939,0.01808845882862995,0.9773948602244726
2011-11-04,1,0.0004756566646016828,0.0005852223179093586,-0.01584289853599939,0.01808845882862995,0.9786982876714282
2011-11-08,1,0.0005487759319604698,0.0006627225965783877,-0.016369817866320625,0.014221059036519415,0.9784807247154134
2011-11-10,0,0.0,0.0,-0.016369817866320625,0.020242742685348387,0.9780353305344169
2011-11-14,0,0.0,0.0,-0.020513107018034833,0.007841409485992039,0.9777759840164216
2011-11-16,0,0.0,0.0,-0.023265160731888283,0.00577254557252716,0.9759625561732916
2011-11-18,0,0.0,0.0,-0.022621527113517895,0.010928259879193873,0.9764447687922891
2011-11-22,0,0.0,0.0,-0.022621527113517895,0.020242742685348387,0.975450476659327
2011-11-25,0,0.0,0.0,-0.020513107018034833,0.020491710441081834,0.976232582158455
2011-11-29,0,0.0,0.0,-0.021431728500174628,0.011011249131105022,0.9776580492198613
2011-12-01,0,0.0,0.0,-0.021431728500174628,0.009895899915792237,0.9803805512838977
2011-12-05,1,0.0017663441091467548,0.0023357808618946745,-0.021431728500174628,0.009895899915792237,0.9801081482326868
2011-12-07,0,0.0,0.0,-0.02175036735048504,0.009895899915792237,0.9802812080790688
2011-12-09,0,0.0,0.0,-0.02110168771762016,0.013849225934653544,0.9816768302099135
2011-12-13,0,0.0,0.0,-0.008754371307889693,0.013849225934653544,0.9834229548377798
2011-12-15,0,0.0,0.0,-0.007942482765762935,0.013849225934653544,0.9848151175302193
2011-12-19,0,0.0,0.0,-0.007623830368073797,0.019873745652631843,0.9829017306749704
2011-12-21,0,0.0,0.0,-0.007623830368073797,0.0159609398633205,0.9846733205377929
2011-12-23,0,0.0,0.0,-0.007623830368073797,0.01687049962236451,0.9843734599460869
2011-12-28,-1,-0.0009694519204959747,-0.0008819661382971429,-0.005499979622930264,0.01687049962236451,0.9851505250405735
2011-12-30,-1,-0.0017292246968163036,-0.0017206034136965408,-0.006807825665667197,0.01687049962236451,0.9852606808649342
2012-01-04,-1,-0.0012831399840220396,-0.001217400659511626,-0.005499979622930264,0.015416115253625302,0.9854277688903654
2012-01-06,-1,-0.0008692112775569403,-0.0006701856857048341,-0.005102566060016256,0.016090417702469568,0.9851784384475135
2012-01-10,1,0.00014294208064056927,0.0004675123622878771,-0.005499979622930264,0.013584401683873095,0.9868615690758211
2012-01-12,-1,-0.0016277333662596833,-0.0015710349890676162,-0.005102566060016256,0.013584401683873095,0.9860564381757001
2012-01-17,-1,-0.0015516974167077934,-0.0015119061194061717,-0.0028040737301069907,0.013584401683873095,0.9866695996358019
2012-01-19,1,0.0001769328282371015,0.0003654684547868505,-0.003482519721348873,0.012503491455711193,0.9902295601601495
2012-01-23,0,0.0,0.0,-0.004346427751794497,0.011472833414542413,0.9902239138592898
2012-01-25,0,0.0,0.0,-0.005096879110528235,0.011472833414542413,0.9904226646115671
2012-01-27,1,0.004298824565915335,0.00537348943384288,-0.005257673870022358,0.011472833414542413,0.990574097080104
2012-01-31,1,0.003991286418168196,0.005033379580600258,-0.005257673870022358,0.011472833414542413,0.9906453976990695
2012-02-02,1,0.0032342462585951063,0.00366676128745712,-0.0065585060519083565,0.010045759864003736,0.9903697356260828
2012-02-06,1,0.004058721545200053,0.004603839081241739,-0.013995849853724332,0.0047122178852047475,0.9885554183219589
2012-02-08,0,0.0,0.0,-0.010663377850003817,0.010045759864003736,0.9892767666875169
2012-02-10,0,0.0,0.0,-0.010663377850003817,0.010045759864003736,0.9891478151371486
2012-02-14,1,0.0014031201459004338,0.001422218777930379,-0.011235936622064183,0.00987753424299711,0.9886099022656284
2012-02-16,1,0.0003045794684885092,0.0005353778907967283,-0.011235936622064183,0.011143698981153052,0.9878778493302234
2012-02-21,1,0.0008274845982955125,0.0009507746253146852,-0.01490279292655804,0.010639022118133171,0.9874090620963574
2012-02-23,1,0.0004038060977039937,0.0006349537644115217,-0.018379537201287856,0.00987753424299711,0.9861463654351214
2012-02-27,-1,-0.0010552573404195536,-0.0005731427038385239,-0.018379537201287856,0.010639022118133171,0.9857123911256974
2012-02-29,-1,-0.0007572787640731358,-0.0004010684173408448,-0.020187941562884323,0.010639022118133171,0.9847885677662992
2012-03-02,-1,-0.0007481174426379696,-0.0004409375379937954,-0.020187941562884323,0.011609303283664595,0.9849714758612956
2012-03-06,0,0.0,0.0,-0.012501106587146461,0.011609303283664595,0.9867833331340402
2012-03-08,0,0.0,0.0,-0.01569314416656068,0.005855106133983317,0.9871963788995133
2012-03-12,-1,-0.0009369943788641454,-0.0007647460654758766,-0.012826908031854708,0.005855106133983317,0.9879560622573116
2012-03-14,-1,-0.000796661488110867,-0.0006502389979488707,-0.012826908031854708,0.011609303283664595,0.9866012408193037
2012-03-16,1,2.9683166092198907e-05,9.139576536627508e-05,-0.01569314416656068,0.00014204210869053942,0.986078117990422
2012-03-20,-1,-0.00024644719755764755,-0.00016775995763005752,-0.014038646506028768,0.00912907691445282,0.9855068937910569
2012-03-22,-1,-0.00011743211120559476,-0.00011017834722774284,-0.011026720621172392,0.011766131863221601,0.9864402971254819
2012-03-26,-1,-0.0003980506725752377,-0.0003162085046506162,-0.00991150111997976,0.011766131863221601,0.9864909064806524
2012-03-28,-1,-0.001581669885963412,-0.0014568310778063503,-0.007627589261692432,0.014927474972630137,0.9871420380398618
2012-03-30,-1,-0.0009680411511734083,-0.0009452354370686335,-0.005439943746020558,0.014927474972630137,0.987684687407158
2012-04-03,-1,-0.0005973795039344882,-0.0005384373033689337,-0.008367416537528764,0.015352631642577837,0.9864387698650781
2012-04-05,-1,-0.0016633246409409968,-0.0015911793336790166,-0.012292697211841251,0.015352631642577837,0.9846696446712514
2012-04-10,-1,-0.0017028292850853111,-0.0016547644187420477,-0.008529130801881259,0.015352631642577837,0.9847370502641055
2012-04-12,-1,-0.0004585580207476506,-0.00035838825826189436,-0.011185652001188266,0.01019932876726981,0.9863877843978518
2012-04-16,-1,-0.0024696779345799074,-0.0022569713981634917,-0.009576166227718248,0.01019932876726981,0.9872584109146344
2012-04-18,-1,-0.0019286976855086165,-0.0017329704287815258,-0.011321739314979708,0.004214021531663793,0.9875430795745395
2012-04-20,-1,-0.0020034001131688482,-0.0017384262025524778,-0.011321739314979708,-5.197489117132021e-05,0.9885330515401707
2012-04-24,-1,-0.000636562818550564,-0.0006090756336226575,-0.011321739314979708,-5.197489117132021e-05,0.9869820921605134
2012-04-26,1,0.0007543764798172457,0.0009532099147181718,-0.014532776494493284,-5.197489117132021e-05,0.9861027739999354
2012-04-30,1,0.0012747655183633837,0.0015843394559927238,-0.014532776494493284,0.001592709936675794,0.9845041887953508
2012-05-02,1,0.0008601900861346683,0.001082443567889091,-0.020106372016295594,-0.002385338028544193,0.9829473682917528
2012-05-04,0,0.0,0.0,-0.01553190795244743,-0.00013043203177522415,0.9852122887631001
2012-05-08,0,0.0,0.0,-0.01553190795244743,0.0009255865004967111,0.9839464176701068
2012-05-10,0,0.0,0.0,-0.01553190795244743,0.0018443435474239038,0.9843988681370761
2012-05-14,0,0.0,0.0,-0.011749904355643586,0.0046283734304951585,0.9849340959114388
2012-05-16,0,0.0,0.0,-0.011614931313003425,0.012165934068884374,0.9848907828094394
2012-05-18,0,0.0,0.0,-0.009084368310047353,0.014196831734898906,0.9845930581245509
2012-05-22,0,0.0,0.0,-0.01464116766236004,0.012165934068884374,0.9852913882274112
2012-05-24,-1,-0.0038467714855503826,-0.003381198201345848,-0.015316041205225402,0.010231277451260627,0.9839665503197726
2012-05-29,-1,-0.003510704298429709,-0.003083370138527384,-0.016652523612208748,0.003983487891287243,0.9844835200387845
2012-05-31,-1,-0.0065486476972561785,-0.005720918280724946,-0.015316041205225402,0.014196831734898906,0.9839422749142108
2012-06-04,-1,-0.005867913987303055,-0.00519674508728542,-0.009235035804853148,0.017472911949814218,0.9827307911362468
2012-06-06,-1,-0.0038532304501398594,-0.003423235408367882,-0.015316041205225402,0.017472911949814218,0.9827030429988184
2012-06-08,-1,-0.004397317749405398,-0.0038527792842240833,-0.015316041205225402,0.017472911949814218,0.9818741506099679
2012-06-12,-1,-0.0024013672620595014,-0.002196358824658475,-0.015316041205225402,0.017472911949814218,0.9817432924488891
2012-06-14,-1,-0.0018905716623508174,-0.001769423686819893,-0.014548360947384563,0.017472911949814218,0.9823733824855917
2012-06-18,-1,-0.0003641127844700459,-0.00021066595341309003,-0.014548360947384563,0.020336224226420056,0.9820341289572382
2012-06-20,-1,-0.0012816153374126092,-0.0012339782900377167,-0.013202887700619741,0.020336224226420056,0.9828050732436009
2012-06-22,-1,-0.0034638328916234877,-0.0031359582314754836,-0.006344592276664748,0.020336224226420056,0.9844768860544745
2012-06-26,-1,-0.0036943993682354735,-0.003390121015709279,-0.0046578521961941855,0.020336224226420056,0.9841939361165382
2012-06-28,-1,-0.001280163987294155,-0.001244661699923111,-0.0046578521961941855,0.020873040126404986,0.9840704630204903
2012-07-02,0,0.0,0.0,-0.007949698546707013,0.015816567109548152,0.9850015694667535
2012-07-05,0,0.0,0.0,-0.007685761749983162,0.011542470980695062,0.9868299055892533
2012-07-09,0,0.0,0.0,-0.005891149559618379,0.015816567109548152,0.9869214950040739
2012-07-11,0,0.0,0.0,-0.004523256559486924,0.01761940304969558,0.9872207208612369
2012-07-13,-1,-0.001528329667848572,-0.001298907162170186,-0.0027480689219777257,0.014909858244536393,0.9868482191134643
2012-07-17,-1,-0.0005283948865719074,-0.00013214417270537805,-0.00293218621380528,0.013869135449992296,0.9882215697479768
2012-07-19,0,-0.00012910693425332458,0.00031671181078659336,-0.006331644206403803,0.014048508574589452,0.9880258075031564
2012-07-23,1,0.00017068895443214812,0.0006374470111235357,-0.006427197959748853,0.014048508574589452,0.9882714121587955
2012-07-25,0,-9.401897982703761e-05,0.0003407476805857186,-0.005788405174026133,0.014048508574589452,0.9892956882434343
2012-07-27,1,0.0006068141619797055,0.001071310119945592,-0.006427197959748853,0.0070150569697537205,0.991872299570662
2012-07-31,1,0.0004198939348546353,0.0009115847822359518,-0.005982779583920128,0.0070150569697537205,0.9926644976624652
2012-08-02,1,5.53179272452665e-05,0.00046681319398898216,-0.006723659929395689,0.0070150569697537205,0.9916130101483351
2012-08-06,1,0.0007579437042882094,0.0012689022064430592,-0.008147729249048732,0.0070150569697537205,0.9914375912256257
2012-08-08,1,0.0018349941473358561,0.0025571547180793467,-0.008147729249048732,0.0070150569697537205,0.9911464458395007
2012-08-10,1,0.002457180230981544,0.003231031721051558,-0.008147729249048732,0.005623977103557492,0.9910626851864635
2012-08-14,1,0.0011910350152522632,0.0017166009879469148,-0.006934234294671417,0.009169648688446098,0.9911420046383445
2012-08-16,1,0.0017314421593169688,0.002348160538636058,-0.006349433008658873,0.010072332241482464,0.9903241567984411
2012-08-20,1,0.0007168549355764113,0.001133560002891883,-0.007025048486838285,0.010072332241482464,0.9897714000751135
2012-08-22,1,0.0011774498292976888,0.0016683111429342528,-0.009264299338163062,0.010072332241482464,0.9887960211217082
2012-08-24,1,0.0012766989529020057,0.0017870013588919902,-0.010547089765624141,0.010072332241482464,0.988697124642053
2012-08-28,1,0.0010558452444044322,0.001517396438193549,-0.01216334147367026,0.010072332241482464,0.9875782490559519
2012-08-30,-1,-0.0003704864406350589,-0.0001204184962270362,-0.010547089765624141,0.011506467278579922,0.988181831180105
2012-09-04,1,0.00034681984362656916,0.0007623255514894731,-0.009136017480698552,0.01068496158822506,0.9889839878935949
2012-09-06,1,0.00023412295063483,0.0005675643785553693,-0.010547089765624141,0.009169648688446098,0.9888502459599642
2012-09-10,1,0.0010397635909224837,0.0015433749260626971,-0.010547089765624141,0.0074602358138533284,0.9894451354097357
2012-09-12,1,0.002306931394913488,0.002945900150656107,-0.010547089765624141,0.004277900235829331,0.9894573270948654
2012-09-14,1,0.0032000934505085664,0.004000224812765092,-0.010547089765624141,0.002123041280761447,0.9897562681301851
2012-09-18,1,0.003057306848272987,0.0038618223874269013,-0.009328974933453114,0.006796920717594997,0.9905715940271071
2012-09-20,1,0.002789106087037383,0.003562930455959114,-0.008868822771128219,0.007030801316295245,0.9914673155655559
2012-09-24,1,0.002654989951982982,0.0034182735970955404,-0.009470142049992861,0.007030801316295245,0.9910442355110138
2012-09-26,1,0.000464099310524968,0.0008084227298976935,-0.010859246112089035,0.007030801316295245,0.9904997335634965
2012-09-28,1,0.0008536490069472543,0.0012606402177545567,-0.009470142049992861,0.007030801316295245,0.9910533640535419
2012-10-02,1,0.0007773315581174999,0.0011548148327755678,-0.009470142049992861,0.008151132939033658,0.990587359033175
2012-10-04,0,-6.500696216847927e-05,0.00015036665751474174,-0.009470142049992861,0.009006243696636877,0.9897546151597473
2012-10-08,-1,-0.0002344931591253325,-9.60802830368681e-05,-0.010859246112089035,0.009566665774246613,0.9883796239275852
2012-10-10,-1,-0.0009947549511645814,-0.0007410462527076146,-0.012097468845136688,0.009566665774246613,0.9868894646650287
2012-10-12,0,0.0,0.0,-0.012097468845136688,0.009006243696636877,0.9873344044881686
2012-10-16,0,0.0,0.0,-0.014856684623400992,0.009006243696636877,0.9863985015539187
2012-10-18,1,0.0014471346882668473,0.001571946650137923,-0.014856684623400992,0.009006243696636877,0.9847397736688447
2012-10-22,-1,-0.00015942385261340865,-7.694633695718171e-06,-0.014856684623400992,0.009006243696636877,0.9853787659092642
2012-10-24,-1,-0.0020178078946602764,-0.0016159385725530316,-0.011300427185451618,0.010409288155490396,0.986204489097784
2012-10-26,0,0.0,0.0,-0.011300427185451618,0.012685364321069486,0.9860832773350467
2012-11-01,0,0.0,0.0,-0.011300427185451618,0.013973698226506062,0.9861203545116476
2012-11-05,0,0.0,0.0,-0.00974273007243235,0.012685364321069486,0.9873684480383537
2012-11-07,0,0.0,0.0,-0.008652745863809359,0.009717319446255424,0.9887138434355015
2012-11-09,-1,-0.0021221313410797193,-0.0017824018345277415,-0.008057750126557258,0.009538845558636653,0.990014976408723
2012-11-13,-1,-0.0020519830521391353,-0.0016927312211752821,-0.008057750126557258,0.009327129434414157,0.9900191895287199
2012-11-15,-1,-0.002747530715745054,-0.002257932920511047,-0.008057750126557258,0.0055448857035485,0.9893126940443232
2012-11-19,-1,-0.0028598931758316275,-0.002293868326248209,-0.004357646199130417,0.009043470544791703,0.9897716349947081
2012-11-21,-1,-0.002285365699905486,-0.0018773371009715093,-0.004357646199130417,0.009043470544791703,0.9897158643825594
2012-11-26,-1,-0.0020496110293513844,-0.001682921001268468,-0.006400217638007682,0.006753524637265787,0.9899116073842057
2012-11-28,-1,-0.0013889899753419639,-0.0011171465782099943,-0.0038406779189355243,0.005018289869113513,0.9908135824801576
2012-11-30,-1,-0.0011487455674413453,-0.0009122865368646931,-0.006506845285972579,0.005018289869113513,0.9898136237906633
2012-12-04,-1,-0.0017162633671097844,-0.0014001329663394192,-0.00609312100531867,0.006753524637265787,0.9884860311052467
2012-12-06,-1,-0.0012288182887120892,-0.0009962982537899635,-0.00609312100531867,0.009043470544791703,0.987837597597857
2012-12-10,-1,-0.0008374822451428664,-0.0006758849088448874,-0.00609312100531867,0.009043470544791703,0.9878777715573908
2012-12-12,-1,-0.0005917999032109939,-0.0004585591456731726,-0.00609312100531867,0.012016204110817602,0.9873778263969034
2012-12-14,-1,-0.0004174802207080092,-0.0003443000370733626,-0.00609312100531867,0.012016204110817602,0.9892025229426956
2012-12-18,1,0.0002317943450336904,0.00027414490773597,-0.00609312100531867,0.00728919119794044,0.9904448209382419
2012-12-20,1,0.000880723097585532,0.0010295097247804814,-0.004677320188596366,0.014749606048468816,0.9883893259666263
2012-12-24,-1,-0.000642024620467384,-0.0005413435549401478,-0.002504702543223441,0.014749606048468816,0.9890592761461399
2012-12-27,-1,-0.0005331931023977495,-0.00044504276184787806,-0.0025783533342195078,0.01630154963427675,0.9881853106175316
2012-12-31,1,4.189406093437693e-05,4.335088549626187e-05,-0.0025783533342195078,0.014749606048468816,0.9888807868339896
2013-01-03,1,0.0005210639286969852,0.000624581229077009,-0.0025783533342195078,0.014749606048468816,0.9895191201997543
2013-01-07,1,0.0015850738684042693,0.001878145393159122,-0.0029537607749599323,0.010338136936898707,0.9900840698555494
2013-01-09,1,0.0010301454378198645,0.0012101010608335193,-0.00410192157735886,0.010338136936898707,0.9888869444568276
2013-01-11,1,0.0019607137107559283,0.0022912497712064737,-0.0075661076143204425,0.010131878345531711,0.9885158570657768
2013-01-15,1,0.0011479152203519817,0.0013384158140819342,-0.00410192157735886,0.010131878345531711,0.989024097861234
2013-01-17,1,0.0017051161953858278,0.001989930252614293,-0.0075661076143204425,0.015062893227489377,0.9867478852803523
2013-01-22,1,0.0032792793086708254,0.003763619744092973,-0.010558578015030625,0.008572408142147566,0.9881318458168767
2013-01-24,1,0.002975259263456103,0.0034071584998180185,-0.014109924122415617,0.008572408142147566,0.9876034816388037
2013-01-28,1,0.0027626555916335374,0.003097926389194458,-0.015034581500475019,0.00788715736945532,0.9871290986129231
2013-01-30,1,0.0025201052160984906,0.002822496784085367,-0.014109924122415617,0.008008528941704812,0.98736446888978
2013-02-01,1,0.0032336663776986606,0.0036490479518581087,-0.014483984059974158,0.006870071609243319,0.9874481807575356
2013-02-05,1,0.003133039029505991,0.00352919781010466,-0.014483984059974158,0.006060158853438019,0.9879065421672493
2013-02-07,1,0.0025906518798385217,0.0029528646407684014,-0.014109924122415617,0.006870071609243319,0.9893296897994887
2013-02-11,1,0.003090517917363159,0.003583772190534455,-0.006780284121962793,0.006060158853438019,0.9899949278662916
2013-02-13,1,0.0031049775219149896,0.0035743592716547447,-0.006780284121962793,0.006060158853438019,0.9894054103207969
2013-02-15,1,0.0032896623819753104,0.003764177552537648,-0.006780284121962793,0.006060158853438019,0.9898047217069958
2013-02-20,1,0.0024773395679830797,0.0028088334035884,-0.006780284121962793,0.006060158853438019,0.9892760847058165
2013-02-22,1,0.0017880988668112332,0.0019789357776927386,-0.004464234846204389,0.007008769107801802,0.9894165161550147
2013-02-26,1,0.0013813990876180224,0.0015221961252653308,-0.004464234846204389,0.007749905863341467,0.9902945004437368
2013-02-28,1,0.0016236271500693457,0.0017924848725741815,-0.004464234846204389,0.007749905863341467,0.9907387912590082
2013-03-04,1,0.0010616772319682621,0.0011409285302024894,-0.004464234846204389,0.008328891452926514,0.9906201055457523
2013-03-06,1,0.0012323667311512636,0.0013333369512994748,-0.005271785133391698,0.008328891452926514,0.9902290355317542
2013-03-08,1,0.0012612704776667624,0.0013420180770810498,-0.005271785133391698,0.008216832040745307,0.9900488261339204
2013-03-12,1,0.0012341651757697288,0.0013338158170642209,-0.005271785133391698,0.008474823972813256,0.9893224588808074
2013-03-14,1,0.0019893520217440864,0.0022140636590082296,-0.007816648427184807,0.008216832040745307,0.9892280609508641
2013-03-18,1,0.0013833268613355264,0.001557848286713809,-0.007816648427184807,0.00843766838335023,0.9881182730660251
2013-03-20,1,0.00019881869624681651,0.00020895258863034806,-0.007816648427184807,0.00843766838335023,0.9881222314761381
2013-03-22,-1,-0.0002930723245746346,-0.00014972575437641823,-0.010924541281506328,0.00843766838335023,0.9873834926891009
2013-03-26,-1,-0.00040729535000516445,-0.000245452300577318,-0.010924541281506328,0.010143973681236259,0.9867333158239999
2013-03-28,-1,-0.00019832849794445688,-6.99002414752664e-05,-0.010924541281506328,0.010143973681236259,0.9870894631230404
2013-04-02,-1,-0.0003440743646969963,-0.00019164516337027098,-0.0036947282972340295,0.009548126258100201,0.9874096386446092
2013-04-04,-1,-0.0008730750590149065,-0.0006491580558470307,-0.0031709729005222837,0.009548126258100201,0.9870609612443547
2013-04-08,-1,-0.0009063371657725761,-0.0006468580086468848,-0.0031709729005222837,0.011750153020760386,0.9864928449061295
2013-04-10,1,0.00011199889268698193,0.00024343779084654151,-0.0031709729005222837,0.009680694833570029,0.9872118050391793
2013-04-12,-1,-0.0006364754882481302,-0.00041649964474764934,-0.004678057497637551,0.009680694833570029,0.9875798549780117
2013-04-16,-1,-0.0007997788832724632,-0.0005862750585114584,-0.002847829648553675,0.009452458898763937,0.9906636888056116
2013-04-18,-1,-0.002095543665907976,-0.0017162405702324363,-0.004640869733560531,0.009452458898763937,0.9910732080568655
2013-04-22,-1,-0.0019235390842193985,-0.0015617948800328186,-0.002847829648553675,0.009452458898763937,0.9911577638526349
2013-04-24,-1,-0.0010509432874676213,-0.0007994311292159076,-0.004648086137886548,0.006959121832024346,0.9917477111314253
2013-04-26,-1,-0.0009430319232790092,-0.0007111463045806032,-0.0054547837003356865,0.006959121832024346,0.9914784995221488
2013-04-30,-1,-0.0006559982657808449,-0.00045135715158994665,-0.005567327089404368,0.006959121832024346,0.9914848252325364
2013-05-02,-1,-0.0007781415838192859,-0.0005620991544514667,-0.005567327089404368,0.006959121832024346,0.9910129607230032
2013-05-06,1,5.8791100205736815e-06,0.00012441773120085907,-0.005567327089404368,0.003820409070416091,0.991652557703287
2013-05-08,1,0.0007340983464874461,0.0007567701457292265,-0.006476939323471731,0.0029010094326035914,0.9910367357708356
2013-05-10,-1,-0.00040725243775417187,-0.0002246524380469533,-0.008690391745561424,0.003820409070416091,0.99114674089137
2013-05-14,1,7.530007730759632e-05,0.00014506386540288771,-0.00928559649807234,0.003820409070416091,0.9896291777184868
2013-05-16,-1,-0.0006789342575743275,-0.0005039784509367677,-0.00928559649807234,0.006831847564888474,0.9892918114208755
2013-05-20,-1,-0.00023190765949335484,-6.350409752396854e-05,-0.00928559649807234,0.008923976035584263,0.98881490702532
2013-05-22,-1,-0.001234696917402684,-0.0009464299360330902,-0.009725675519785492,0.008923976035584263,0.9889734662307521
2013-05-24,-1,-0.0016081591857986816,-0.001287699887764556,-0.010653261802453705,0.009651469408179129,0.9880220696511067
2013-05-29,-1,-0.0013994071095591873,-0.001130500293547262,-0.010653261802453705,0.010156446394610769,0.9879446390316343
2013-05-31,-1,-0.0019247489163409701,-0.0016195490879226692,-0.009459751487974198,0.010156446394610769,0.9889012896929263
2013-06-04,-1,-0.0020346613391937027,-0.0017131763251445158,-0.009459751487974198,0.01257379738961269,0.9884556261180992
2013-06-06,-1,-0.0013265411991223274,-0.001119483786879852,-0.00895318807940038,0.01257379738961269,0.988430904588987
2013-06-10,-1,-0.0018002951174181702,-0.001511128343746876,-0.007706269547259116,0.014573670033152086,0.9875422416420678
2013-06-12,-1,-0.0025265007975281105,-0.002169405967572289,-0.0040888705743300545,0.014573670033152086,0.9883194430233542
2013-06-14,0,0.0,0.0,-0.003786206299685558,0.01257379738961269,0.989985884629737
2013-06-18,0,0.0,0.0,-0.0040888705743300545,0.010156446394610769,0.9907074472829591
2013-06-20,-1,-0.0005325047604533842,-0.0005312715054468526,-0.0026902367394967507,0.01250978217127531,0.9886348853402863
2013-06-24,0,0.0,0.0,-0.0024677347373840705,0.013260228370772084,0.9896056626530413
2013-06-26,0,0.0,0.0,-0.0029925927701745826,0.013260228370772084,0.9897927657299291
2013-06-28,0,0.0,0.0,-0.0037105480048112514,0.013260228370772084,0.9892127887975453
2013-07-02,0,0.0,0.0,-0.0037105480048112514,0.011640466457381569,0.989863293897521
2013-07-05,0,0.0,0.0,-0.005150528370936915,0.011640466457381569,0.9891341328274867
2013-07-09,0,0.0,0.0,-0.0068437416778139425,0.00723274933651816,0.9903470514639927
2013-07-11,0,0.0,0.0,-0.007922921171815544,0.00539027177245912,0.9900607201729508
2013-07-15,0,0.0,0.0,-0.00801562227773165,0.00539027177245912,0.9897173334271672
2013-07-17,0,0.0,0.0,-0.00801562227773165,0.00539027177245912,0.9894949539462219
2013-07-19,0,0.0,0.0,-0.00801562227773165,0.0005552137519995978,0.9925674942227695
2013-07-23,0,0.0,0.0,-0.008216121285226682,0.0005552137519995978,0.9923090236518867
2013-07-25,0,0.0,0.0,-0.00801562227773165,0.0023185422475069297,0.9912242028782303
2013-07-29,0,0.0,0.0,-0.007277527644301953,0.002662766162017694,0.9916118066024969
2013-07-31,0,0.0,0.0,-0.007945373591800243,0.002662766162017694,0.990490258404681
2013-08-02,1,0.002670892507689855,0.003045009319410735,-0.008294477553865136,0.0023185422475069297,0.9900656186126109
2013-08-06,1,0.002685288429760212,0.0030901731232970096,-0.008294477553865136,0.0034468245151048522,0.9899078948569607
2013-08-08,1,0.001971273915632409,0.002222498229052838,-0.007324698115177024,0.012296120475884709,0.9898060742087175
2013-08-12,1,0.0010636177140076692,0.0011410862384789852,-0.006693966856265891,0.015643103942517857,0.9896144642655124
2013-08-14,1,0.0016177879106451022,0.0017799176394075176,-0.006693966856265891,0.012039410331638634,0.9906059545786982
2013-08-16,1,0.0014369817859192543,0.0015692214690473522,-0.006693966856265891,0.012039410331638634,0.9907666812550925
2013-08-20,1,0.0010574427628291104,0.0011484783283796636,-0.005691546069218111,0.014189649913548272,0.9906729946347074
2013-08-22,1,0.001636300886283834,0.0017999758892280997,-0.005691546069218111,0.011640495703397463,0.9916151852616232
2013-08-26,1,0.0012197775343652764,0.0013081011830499965,-0.004780739478899264,0.011640495703397463,0.9911966701585337
2013-08-28,1,0.001704995906433498,0.0018806180001655235,-0.0024926847927456103,0.01022751419054473,0.9923906120064395
2013-08-30,1,0.0013093407255145102,0.0014707913123103136,-0.000534128672801159,0.01022751419054473,0.9930200722770253
2013-09-04,1,0.00156944050955685,0.0017317881967166685,-0.000534128672801159,0.00923660794035807,0.9934602255605866
2013-09-06,1,0.001690861449582182,0.0018258414972797594,-0.0024898182945981033,0.007983173824093475,0.9941204527982243
2013-09-10,1,0.0017151328334171615,0.0017955949352138866,-0.004725687915797907,0.007582972376278543,0.9936260547804969
2013-09-12,1,0.0013225253746696588,0.0013677953100417095,-0.004725687915797907,0.007983173824093475,0.9920775793942976
2013-09-16,1,0.0016558280929309937,0.0017839884775802514,-0.004725687915797907,0.008625208253998021,0.9914369828289845
2013-09-18,1,0.002211833576310599,0.0024091483744356204,-0.005611787042127288,0.008102659506027919,0.9911704006442947
2013-09-20,1,0.0017856166550495082,0.0019459403202415607,-0.005611787042127288,0.00923660794035807,0.9903945354085836
2013-09-24,1,0.0018310107752324252,0.0019884461439304384,-0.005797072587606322,0.009358618926569875,0.9903316790688026
2013-09-26,1,0.002158265522202559,0.002387874326078485,-0.007182384518872993,0.009358618926569875,0.9896352092884166
2013-09-30,1,0.0022582259699542055,0.002526659814710709,-0.007182384518872993,0.009358618926569875,0.9899025411522502
2013-10-02,1,0.0024211982473185496,0.0026931410282737666,-0.007182384518872993,0.01095900604464988,0.9897867955182355
2013-10-04,1,0.0023141441911064355,0.002563659714669803,-0.0077616346291860235,0.01095900604464988,0.9896294195030442
2013-10-08,1,0.0013776053421807426,0.0014680351232023367,-0.0071032212013078435,0.01095900604464988,0.9902669591235523
2013-10-10,1,0.0022299315375817474,0.0024807905073978304,-0.0071032212013078435,0.009439821998756693,0.9909456595128427
2013-10-14,1,0.0022211344029027203,0.0024339958879190313,-0.0071032212013078435,0.009439821998756693,0.9907686971343816
2013-10-16,1,0.002194935899263962,0.002378006350245495,-0.00779591726522198,0.009439821998756693,0.9904305435952648
2013-10-18,1,0.0026033720489890243,0.0028360189609978196,-0.005990155957710665,0.006385904469150914,0.9917730745613264
2013-10-22,1,0.0022324328251674664,0.0023702540736120514,-0.008612498569739275,0.0032241835431603915,0.9915326105304095
2013-10-24,1,0.0014940237177536498,0.0015273482657885318,-0.008304510639255244,0.0056607513182662765,0.992034528847329
2013-10-28,1,0.0014812943210650987,0.0015211714465689229,-0.009400909075909434,0.006916476610063198,0.9897151619146705
2013-10-30,1,0.001610901758634118,0.0016477023514396398,-0.010737994082121106,0.0056607513182662765,0.9891798753099014
2013-11-01,1,0.0006510758616086474,0.000790357936849767,-0.010737994082121106,0.0056607513182662765,0.9893020146645377
2013-11-05,1,0.0003885848900906572,0.0005507703524912587,-0.009536655718016027,0.005555800481152756,0.9899660481827364
2013-11-07,1,0.000777485165098617,0.0008447000347194552,-0.0091381700261276,0.005555800481152756,0.9899656228463798
2013-11-11,1,0.0006549976262571979,0.0007913453659009408,-0.009536655718016027,0.003189199930789218,0.99020053552525
2013-11-13,1,0.00023816045366139215,0.00045561258934365134,-0.00945515800807748,0.003189199930789218,0.9909868706536846
2013-11-15,1,7.609039757802835e-05,0.0003075609993699731,-0.00945515800807748,0.005555800481152756,0.9906429406647614
2013-11-19,-1,-0.0008536342599909721,-0.000498892922472337,-0.00945515800807748,0.006467034430044277,0.9899908027273794
2013-11-21,-1,-0.0009306176425366969,-0.0005822016054944155,-0.00945515800807748,0.007783553143935183,0.9898553634430423
2013-11-25,-1,-0.0010744737608307678,-0.0007346441374915939,-0.0091085395858114,0.007783553143935183,0.9916852025226548
2013-11-27,-1,-0.0013104195503241523,-0.0009856589765126766,-0.007351868400201925,0.009318628803114463,0.9916153299788311
2013-12-02,-1,-0.001549035751776137,-0.0011960889614261276,-0.00711855759842779,0.009774960074167643,0.9914023343572796
2013-12-04,-1,-0.0016940133161733252,-0.0013287417300705926,-0.008353481486348067,0.009774960074167643,0.9907964790459476
2013-12-06,-1,-0.0013270271361714883,-0.001014935264400274,-0.008353481486348067,0.009318628803114463,0.9913853799814946
2013-12-10,-1,-0.001359254515674182,-0.0011078303379441978,-0.00711855759842779,0.009318628803114463,0.9914166494443699
2013-12-12,-1,-0.0013993087052033937,-0.0011444897277251937,-0.0071016687755814465,0.009574205308273638,0.9910253961630675
2013-12-16,-1,-0.001692742059382705,-0.0013874398763138065,-0.006555481293951328,0.010740663284851515,0.990816568978835
2013-12-18,-1,-0.0018253641043921864,-0.0014798299526037793,-0.005859665780165781,0.010740663284851515,0.9916077811467011
2013-12-20,-1,-0.0017951049057788918,-0.0014540045493759333,-0.0057598546501081305,0.010740663284851515,0.9917996103357002
2013-12-24,-1,-0.0013732161169821646,-0.0011145035307477348,-0.006555481293951328,0.009951661691965041,0.9909640217044102
2013-12-27,-1,-0.0009786159639590948,-0.000751418218647312,-0.006555481293951328,0.003426802898252951,0.9917349463086085
2013-12-31,-1,-0.0013259548035766734,-0.0010321787453052588,-0.005859665780165781,0.003426802898252951,0.9916683522901599
2014-01-03,-1,-0.002380219384420416,-0.0019477576942460643,-0.006555481293951328,0.003426802898252951,0.9915156200825088
2014-01-07,-1,-0.002200069137006104,-0.0018267436295642708,-0.008643334359763256,0.010099490619788286,0.9906058136752178
2014-01-09,-1,-0.002595103759750093,-0.002167730880588987,-0.008643334359763256,0.012419288721706414,0.988897304686226
2014-01-13,-1,-0.0024556440060948146,-0.0020205829519556852,-0.006535040829418454,0.012123146140326958,0.9892829791167264
2014-01-15,-1,-0.0016133502312210826,-0.0013098364048666255,-0.006535040829418454,0.011146042078391072,0.9899021642504493
2014-01-17,-1,-0.0011914499937204417,-0.0009200887113990801,-0.006535040829418454,0.010099490619788286,0.9905827785336281
2014-01-22,-1,-0.0008611087629066858,-0.0006475663509785065,-0.006535040829418454,0.007342231779127843,0.9907896856996943
2014-01-24,-1,-0.0026021072885158867,-0.002148051822359119,-0.005165130269517314,0.011146042078391072,0.990392346194894
2014-01-28,-1,-0.002260515806720426,-0.0018828863337713947,-0.005165130269517314,0.011146042078391072,0.990437193195159
2014-01-30,-1,-0.0013173079241458113,-0.0010967665330510854,-0.004106679359321877,0.007342231779127843,0.9910803580771262
2014-02-03,-1,-0.0018734665485232028,-0.0016181964991337614,-0.0026421801611820964,0.011146042078391072,0.9906996122060093
2014-02-05,-1,-0.0020509969433153497,-0.0017684558946967797,-0.0026421801611820964,0.008828223598193744,0.9911239901483356
2014-02-07,-1,-0.0008861183417711795,-0.0007450223802730185,-0.0026421801611820964,0.005003512694724617,0.9931248222268649
2014-02-11,-1,-6.536944126265298e-05,-6.410065636818716e-05,-0.004119191757887108,0.003077340162916597,0.9932166386280701
2014-02-13,-1,-0.000520232965643782,-0.000429380177562999,-0.008830064910278854,0.0030211496010904802,0.9924899652852784
2014-02-18,-1,-0.00021308859752624677,-0.00017453215380952466,-0.008830064910278854,0.006495231631829393,0.9918610946448959
2014-02-20,-1,-1.6289233175766774e-05,-7.620334128916807e-06,-0.008830064910278854,0.007813657829009581,0.9917239438053936
2014-02-24,1,0.0007187012076375896,0.0008018019004594389,-0.006012992659886982,0.007813657829009581,0.9925883666131166
2014-02-26,1,0.0006664934116140248,0.0007650439262108448,-0.006012992659886982,0.008025358050772712,0.9915660595807605
2014-02-28,1,0.000846914080089702,0.0009666751900101511,-0.006012992659886982,0.00900199769221824,0.9908454040720703
2014-03-04,1,0.0002694860187633582,0.0002719569654391222,-0.0024576419786566184,0.008106968682021338,0.992037620453984
2014-03-06,1,0.0007411892113924987,0.0008326972010414882,-0.0018492641335103189,0.008089746072119004,0.9924583491889138
2014-03-10,1,0.0010542123954362208,0.0012213196610649651,-0.0031637484642081737,0.008089746072119004,0.9923647908536583
2014-03-12,1,0.0006950030554638702,0.00083104895846557,-0.0014070184963627962,0.00837674909954969,0.9926878398255117
2014-03-14,1,0.00032579528825655934,0.0004515994586622197,-0.0014070184963627962,0.00837674909954969,0.9927821523741425
2014-03-18,1,0.0008971472389893175,0.001112626463672754,-0.0014070184963627962,0.011128916635985068,0.9922094362764438
2014-03-20,1,0.0009299732226058426,0.0011179758150735683,-0.001585428898893178,0.011128916635985068,0.9917740351769326
2014-03-24,1,0.0015187895691558318,0.0017902831607552036,-0.001585428898893178,0.011128916635985068,0.992037457158571
2014-03-26,1,0.0024301450387166426,0.0028400822915245266,-0.002384495341101464,0.009231846752686668,0.9931989765409756
2014-03-28,1,0.00304020250155805,0.003514042216959782,-0.003069972192578406,0.00649161567377999,0.9934285294523263
2014-04-01,1,0.0029911535581824055,0.0034402113455661047,-0.003069972192578406,0.00649161567377999,0.9934940807654906
2014-04-03,1,0.0027855301461699768,0.003194546582308914,-0.004105086675575784,0.00649161567377999,0.9933081122997809
2014-04-07,1,0.0029163670873902803,0.0033790771272375134,-0.002698274744890667,0.00649161567377999,0.9934912381323839
2014-04-09,1,0.0032715925188538195,0.0037709947151651525,-0.00413870168372771,0.003784002250817195,0.9925003184138634
2014-04-11,1,0.0024531055786567034,0.002830296600216802,-0.0017446560552175695,0.003784002250817195,0.9938497120527945
2014-04-15,1,0.003201615806981341,0.003646658553418722,-0.0017446560552175695,0.002264893384297211,0.9943846061675682
2014-04-17,1,0.0028823044959010754,0.003278543813863481,-0.0017446560552175695,0.0018879650086474772,0.9945914699732048
2014-04-22,1,0.0030920183669153577,0.0034834926482790675,-0.0017446560552175695,0.0016246232738356468,0.9949723505733993
2014-04-24,1,0.002520994369495629,0.00280053099974291,-0.0006960014156013486,0.0017540016641287483,0.9951937176037334
2014-04-28,1,0.0021307714257260907,0.002339514153510416,-0.0006960014156013486,0.0029332174927552204,0.9954261798464625
2014-04-30,1,0.0020244357181838325,0.002211214744010208,-0.0012585584926821632,0.005423035524127271,0.9944503110092096
2014-05-02,1,0.001944913361474975,0.0021292775573379286,-0.001054201705562341,0.005423035524127271,0.9947669711704117
2014-05-06,1,0.001594342165416035,0.0017050537867798806,-0.0012500645188663166,0.005423035524127271,0.9948080243708838
2014-05-08,1,0.0012537386148510957,0.0013194774727990424,-0.0007610985155222693,0.005423035524127271,0.9951507567620893
2014-05-12,1,0.0011551808238500069,0.0012012133751258336,-0.0012500645188663166,0.0069228216113197474,0.9948457024654974
2014-05-14,1,0.0013198053418556576,0.0014004369012785283,-0.0013839299637350916,0.0069228216113197474,0.99487838527285
2014-05-16,1,0.0008738815735221479,0.000888165330479301,-0.0013839299637350916,0.007170268159748243,0.9941387689056062
2014-05-20,1,0.000999918417242872,0.0010392871993971933,-0.0018280575223427605,0.00800500989098405,0.9935528310117331
2014-05-22,1,0.0015024290644971433,0.00163283490111697,-0.0018280575223427605,0.00800500989098405,0.9934724424734588
2014-05-27,1,0.0016179023636598015,0.0017618319580819265,-0.0018280575223427605,0.0074747557785001546,0.992950661246331
2014-05-29,1,0.0017633268478740266,0.0018834731665614446,-0.0013839299637350916,0.009785265316375065,0.9900578330972009
2014-06-02,1,0.0014322215361658956,0.0014884333013778345,-0.0013839299637350916,0.012190392150948706,0.9895351315334106
2014-06-04,1,0.0010248943669494367,0.001048722796894424,-0.0012087472521118102,0.012190392150948706,0.9894933659790583
2014-06-06,1,0.0019418510502313224,0.002056162504973586,-0.0018236997958845048,0.009785265316375065,0.9901146758921213
2014-06-10,1,0.00203368689923459,0.0021843466915980373,-0.001958008880584787,0.009785265316375065,0.9901296662460419
2014-06-12,1,0.0021438175932362246,0.0023457261889456783,-0.005859489164772254,0.009785265316375065,0.9892554606105753
2014-06-16,1,0.0021689187571044036,0.0023740731439313503,-0.005859489164772254,0.00963016553233851,0.9895215733612839
2014-06-18,1,0.0016062090091540381,0.0016657516624944452,-0.005859489164772254,0.010965958774064082,0.989381006579108
2014-06-20,1,0.0018145680587605042,0.0018906160263704305,-0.0072245997813764305,0.00724169860396345,0.9886834838649188
2014-06-24,1,0.0012668118913350909,0.0012668648258859683,-0.0072245997813764305,0.00724169860396345,0.9890610759511747
2014-06-26,1,0.0036792322094060994,0.003926704042227381,-0.010891245155990156,0.003967896049188584,0.9911590525469611
2014-06-30,1,0.003591756614407776,0.003811109619676437,-0.010891245155990156,0.00216733099802753,0.9911803395304432
2014-07-02,1,0.0038678040299124214,0.004184464460959108,-0.011514916626221663,0.00216733099802753,0.9899012196398704
2014-07-07,1,0.00373219492270911,0.004042948589784453,-0.011514916626221663,0.003967896049188584,0.989524813080873
2014-07-09,1,0.003328811269593261,0.0035737282016093225,-0.011944626763415851,0.00494499304563042,0.9888778911932021
2014-07-11,1,0.0026617379991173296,0.002815675775810567,-0.011514916626221663,0.006746632278496896,0.9894108444472436
2014-07-15,1,0.0024033589278424057,0.002519320354508625,-0.011514916626221663,0.00645354801056418,0.9896249668238194
2014-07-17,1,0.00268597136808828,0.0028829872513564453,-0.0118207900493594,0.00494499304563042,0.9895639469538632
2014-07-21,1,0.0017360071555400656,0.0017778996026947126,-0.011514916626221663,0.006305049677780417,0.9902100971975815
2014-07-23,1,0.0013282347122355943,0.0013316742339032843,-0.00865485333843033,0.007951340884363164,0.9903547525124172
2014-07-25,1,0.000762365232139071,0.0008638935527290835,-0.007073657376110253,0.006305049677780417,0.990998118132536
2014-07-29,1,0.000473194651802574,0.0006042607276129355,-0.005816778007713232,0.008472304896353727,0.9905878318661451
2014-07-31,-1,-0.0006783549051895428,-0.0004070214891598405,-0.004346050653721495,0.008472304896353727,0.9914204374540722
2014-08-04,-1,-0.0007292621586042469,-0.00040976922674458365,-0.005885679122355533,0.007358191083225817,0.9915424503811633
2014-08-06,-1,-0.002248629107252791,-0.001706561277909071,-0.005885679122355533,0.007358191083225817,0.9918437861991662
2014-08-08,-1,-0.0019684035097875976,-0.0014787350387279025,-0.009011261739383465,0.007358191083225817,0.9911355986147781
2014-08-12,-1,-0.002130679261268197,-0.0016343902468485057,-0.005713652377728031,0.006205027833378873,0.9917320436021547
2014-08-14,-1,-0.002437794605029574,-0.0019421333258022402,-0.005713652377728031,0.006205027833378873,0.9912745161451335
2014-08-18,-1,-0.0012298307545514269,-0.0009135995758353482,-0.005713652377728031,0.007473566816476005,0.9910131740955614
2014-08-20,-1,-0.0003555211346068295,-0.00018002386545354972,-0.009546489374100504,0.007473566816476005,0.9904984713930618
2014-08-22,-1,-0.0007010327963225685,-0.00048591300295059705,-0.014417253077561757,0.007473566816476005,0.9895868177135486
2014-08-26,-1,-0.000279521337879711,-0.00010430638850527594,-0.014417253077561757,0.00307339976048301,0.9902867495255597
2014-08-28,-1,-0.0007607200776987479,-0.0005153209655203213,-0.014417253077561757,0.004757980927079554,0.9890247876596541
2014-09-02,-1,-0.0012952554691837343,-0.0010155961610529385,-0.014676175605877143,0.004757980927079554,0.9891400824272952
2014-09-04,-1,-0.003033603254925906,-0.0025059654825808847,-0.014676175605877143,0.004757980927079554,0.9887363858090847
2014-09-08,-1,-0.0027478606226711616,-0.0023186534950096517,-0.012654815529459199,0.004413424140917096,0.989604676632689
2014-09-10,-1,-0.0027741732306592252,-0.0023287908305895826,-0.012654815529459199,0.004413424140917096,0.9897275008218612
2014-09-12,-1,-0.003370179468008514,-0.0028820771238160653,-0.014676175605877143,0.004413424140917096,0.9884277542042447
2014-09-16,-1,-0.0023451040682935685,-0.00196882711160525,-0.01666273710488283,0.0014549122976832056,0.9879047683932509
2014-09-18,-1,-0.003023918517960999,-0.0025595762250038125,-0.01641877580096243,0.0023059357347599754,0.9882025738736598
2014-09-22,-1,-0.0028638117909790123,-0.002435619222559205,-0.01641877580096243,0.004404100540716977,0.9868273098004721
2014-09-24,-1,-0.002527176163289028,-0.0021267014711281703,-0.01837637301372038,0.006713561604181011,0.984747272989362
2014-09-26,-1,-0.0020027699977995536,-0.001670958861264189,-0.01837637301372038,0.006713561604181011,0.9847418530891765
2014-09-30,-1,-0.003006942319256401,-0.0025423809317081662,-0.02003381851771254,0.009063548473665936,0.9820738891479646
2014-10-02,-1,-0.004117849811316901,-0.0035236739552259736,-0.01837637301372038,0.011001504749482537,0.9826454009831512
2014-10-06,-1,-0.0037492519239301463,-0.0032068488314888855,-0.02003381851771254,0.011997571928734203,0.9818940902903324
2014-10-08,-1,-0.0034617903629319763,-0.002942881110001267,-0.021671454076661184,0.01793428294356423,0.9797504762713888
2014-10-10,-1,-0.005382174712217913,-0.00465046632931476,-0.018920110307154455,0.019445803257290346,0.980307200022669
2014-10-14,-1,-0.006762698653038404,-0.005890016296828553,-0.005937634059267962,0.019445803257290346,0.9810341539162107
2014-10-16,-1,-0.005072561819007835,-0.004411843509028934,-0.012286783805536581,0.019445803257290346,0.9818603216941
2014-10-20,-1,-0.0039100737743591575,-0.0034205197160494367,-0.012286783805536581,0.012501412033309576,0.9837308808616526
2014-10-22,-1,-0.0035857916986694275,-0.0031286232254855405,-0.009686466081510163,0.009657496498954057,0.9862284780435596
2014-10-24,-1,-0.0029559520298049623,-0.002571649550511158,-0.005706234055481131,0.01099017115246597,0.9862184742924094
2014-10-28,-1,-0.0019610434171183832,-0.0017332768482958873,-0.005706234055481131,0.009657496498954057,0.9878442005061295
2014-10-30,-1,-0.0016130222140311636,-0.0014174585863357327,-0.02238074861852827,0.007108017863840637,0.9839372125134177
2014-11-03,-1,-0.0023211936219970997,-0.002038388139422041,-0.015798574328261757,0.005197946333720647,0.98470598000776
2014-11-05,-1,-0.001303769412305086,-0.0011582131726718978,-0.010319922739687107,0.006375234806346662,0.9857287361893515
2014-11-07,-1,-0.0004892285341046346,-0.00044515864006527663,-0.015962128646765047,0.005197946333720647,0.9850960075583184
2014-11-11,-1,-0.0003897773361073105,-0.0003769298098793808,-0.025448919520033145,0.006375234806346662,0.9832944866924692
2014-11-13,-1,-0.0016491628151141303,-0.0014596251797944332,-0.025556292865566915,0.006375234806346662,0.9833880194530892
2014-11-17,1,0.00044704384407916837,0.00062156612549947,-0.025556292865566915,0.006375234806346662,0.9832850516535665
2014-11-19,1,0.0007044403336496062,0.0009562528256348543,-0.025556292865566915,0.012740649943129474,0.9813449855646857
2014-11-21,1,0.0015324247014803795,0.001890792787378633,-0.025556292865566915,0.009532478347866805,0.980373171230839
2014-11-25,1,0.00044693573227799863,0.0006617048126221465,-0.015962128646765047,0.009532478347866805,0.9818270072659757
2014-11-28,-1,-0.0013220727440656933,-0.0013073298853918769,-0.004515597573434086,0.009532478347866805,0.9862790763284798
2014-12-02,-1,-0.002235994654647128,-0.0020763366852309057,-0.009202916746984832,0.009532478347866805,0.9861334769260961
2014-12-04,-1,-0.0008275604645579437,-0.0008109732472546579,-0.010792301781447222,0.0043648116500494645,0.9860432334568232
2014-12-08,-1,-0.002241344542526524,-0.002102769260484018,-0.010792301781447222,0.0043648116500494645,0.9867607380889283
2014-12-10,-1,-0.00242230724552207,-0.0022614184642324106,-0.010792301781447222,0.0043648116500494645,0.9873163981980465
2014-12-12,-1,-0.0035596845940079587,-0.0032549666878818762,-0.010792301781447222,0.0043648116500494645,0.987069754362391
2014-12-16,-1,-0.003059995083813994,-0.002820257430223085,-0.01341081362275124,0.006888611511548702,0.9860604207131761
2014-12-18,-1,-0.0007016548178357733,-0.0006772963659400284,-0.01341081362275124,0.003925707105876841,0.9849511991379721
2014-12-22,-1,-0.00032553048006124665,-0.0002823194286651231,-0.01341081362275124,0.003925707105876841,0.9861622189800888
2014-12-24,1,0.0003566241785141277,0.000532859115825446,-0.01341081362275124,0.004243716947982099,0.9854845962708839
2014-12-29,1,2.4564307507747975e-05,0.00012093530118599316,-0.01831098305077272,0.008481176355027136,0.9829888374288235
2014-12-31,-1,-0.0006432079644959292,-0.0006124260705917787,-0.01831098305077272,0.010826585245557782,0.9830947213114138
2015-01-05,-1,-0.0011244374125845308,-0.001079216774422217,-0.012312411421756642,0.015803080873259656,0.9817153812132138
2015-01-07,-1,-0.002060141606219372,-0.001886059764264966,-0.012312411421756642,0.017274480840689624,0.9803374289900116
2015-01-09,-1,-0.001930546131790893,-0.0018069591712987047,-0.005572451687500667,0.017274480840689624,0.98146387496789
2015-01-13,-1,-0.002209388716070222,-0.0020943685151704732,-0.006060189013081349,0.017274480840689624,0.9828127250052979
2015-01-15,-1,-0.0029399629086816507,-0.002730903104734843,-0.004397094145071058,0.020739848918026868,0.9817802666825889
2015-01-20,-1,-0.0013158602743588532,-0.0013019619815526344,-0.004397094145071058,0.017274480840689624,0.9848154170447484
2015-01-22,-1,-0.0005725630660447595,-0.00047468817348569116,-0.007408993005156995,0.014938329726919107,0.9851563924194601
2015-01-26,1,0.00014312764906582566,0.0003178039373651373,-0.007408993005156995,0.014310290999999479,0.9860019855082283
2015-01-28,-1,-0.001002417163093916,-0.0010016528596629589,-0.007408993005156995,0.014310290999999479,0.9878941400635128
2015-01-30,0,-5.3868009653348914e-05,6.103794265686923e-05,-0.007408993005156995,0.007957082779719167,0.9884174352846273
2015-02-03,1,0.001411575466359596,0.001724635301476143,-0.007408993005156995,0.003936764465379636,0.9908137411809249
2015-02-05,1,0.0005701866273901026,0.0007309187634184956,-0.007408993005156995,0.0032706876533056487,0.9918079399695301
2015-02-09,1,0.0010699888355257341,0.001367529539479168,-0.009929802338106844,0.0032706876533056487,0.9908979818264175
2015-02-11,1,0.0007661227772750479,0.0010154384295169554,-0.009929802338106844,0.0032706876533056487,0.9913741596651385
2015-02-13,1,0.001710229353289299,0.00203169559688151,-0.009929802338106844,0.0028361628479603644,0.9921920864536375
2015-02-18,1,0.001449108641966225,0.0017565718270990667,-0.009198611410528669,0.0028361628479603644,0.9917676039661277
2015-02-20,1,0.0012021927998643542,0.0015177172205292687,-0.009198611410528669,0.0032706876533056487,0.9916108445761259
2015-02-24,1,0.0006567668769470926,0.000854296210946585,-0.009198611410528669,0.0032706876533056487,0.9917496475727228
2015-02-26,-1,-0.000238571055428242,-0.0002254696411732319,-0.007074469619207348,0.003936764465379636,0.9918092006244353
2015-03-02,1,0.0003827445524556905,0.0004963326078178461,-0.007074469619207348,0.005181625493696124,0.9913748895009922
2015-03-04,1,0.000727142550359412,0.0009011348475207627,-0.009198611410528669,0.010161605548875685,0.9904494550939027
2015-03-06,-1,-0.0009647699234000334,-0.0008259324540450125,-0.007074469619207348,0.01134490992656528,0.9909532300925739
2015-03-10,-1,-0.0027150631586774165,-0.002293591482779446,-0.004168340790769748,0.01134490992656528,0.9913625051033647
2015-03-12,-1,-0.001847764490408241,-0.0016078672857174616,-0.0024949551424708082,0.014730016221501352,0.9898892752628297
2015-03-16,-1,-0.0011543403972750928,-0.0010305242722437452,-0.0024949551424708082,0.014730016221501352,0.9897807271041147
2015-03-18,-1,-0.000683390410725518,-0.0006339728457121498,-0.0017613141529755538,0.014730016221501352,0.989443253597531
2015-03-20,-1,-0.0006242296614340957,-0.0006093620348978081,-0.0017613141529755538,0.011428085357230331,0.9901547962747875
2015-03-24,-1,-0.00038684070089448075,-0.0003278430691255488,-0.0016052481141448425,0.011428085357230331,0.9894086947865841
2015-03-26,1,0.00032948637753449405,0.000506685404308406,-0.002353958470931852,0.010189330692430701,0.9893992037169215
2015-03-30,1,0.0006430889046766011,0.0008275420671246045,-0.002353958470931852,0.00975960076437565,0.9897119163070087
2015-04-01,1,0.0007623451899667127,0.0009853897936884558,-0.0013314082487051967,0.009881861546537684,0.9899166117536335
2015-04-06,1,0.001819265933225862,0.0022293797974362287,-0.002353958470931852,0.009561852013476898,0.990179454377971
2015-04-08,1,0.0019143021632885666,0.002332367519118703,-0.005677329855414883,0.009561852013476898,0.9898754503167104
2015-04-10,1,0.0026721091742553634,0.003136224375267263,-0.010640324466607815,0.009561852013476898,0.9891504585399931
2015-04-14,1,0.0025969191604689546,0.003067584529901647,-0.007882865512989518,0.009561852013476898,0.9894633759483592
2015-04-16,1,0.0036581848919345276,0.0042553118016690665,-0.007882865512989518,0.00827708770127658,0.9906966719980815
2015-04-20,1,0.0042212727645548976,0.004948758826012009,-0.007882865512989518,0.007685715736072028,0.9909563039966534
2015-04-22,1,0.0035317260506000925,0.0041065527397285174,-0.007882865512989518,0.006872229048331775,0.9907524987104287
2015-04-24,1,0.002228891911267668,0.00253185377540286,-0.004541635456983958,0.006872229048331775,0.9915206828198477
2015-04-28,1,0.002332775595322554,0.002623469956076611,-0.007882865512989518,0.004280265447952025,0.9909888739358029
2015-04-30,1,0.0031352769392699225,0.0035753117470817735,-0.007882865512989518,0.00259048858421572,0.990938636409201
2015-05-04,1,0.0018631036659730585,0.0020637776845303275,-0.004669747404412078,0.003804106589326466,0.9920732210404665
2015-05-06,1,0.0015190054437707705,0.001656521360167994,-0.004669747404412078,0.003804106589326466,0.9918063333429376
2015-05-08,1,0.00120064484570169,0.0012349874010100545,-0.004669747404412078,0.002289900945160629,0.9936449455653463
2015-05-12,1,0.0011229893064692539,0.00115405956738391,-0.0037180251308256583,0.003519714877562351,0.9932662577646593
2015-05-14,1,0.0015130576825702353,0.001675861282026736,-0.006519304729315765,0.003519714877562351,0.9925717527046096
2015-05-18,1,0.001957430870614336,0.002216103739670036,-0.008208046651583575,0.002875846261393613,0.9922688139634008
2015-05-20,1,0.0016077189146208406,0.001829360780764561,-0.008208046651583575,0.002875846261393613,0.9928752562580687
2015-05-22,1,0.0019333162855548593,0.002195324604401624,-0.009273286965911232,0.002875846261393613,0.9921406351201426
2015-05-27,1,0.001275984691308485,0.0014127089727720618,-0.008208046651583575,0.003190649138741432,0.9923383338636408
2015-05-29,1,0.0008327888566266008,0.0008817218120376073,-0.009053796896160446,0.003190649138741432,0.9921204620955641
2015-06-02,1,0.0007426935448309397,0.0007472427313967409,-0.00981843815316515,0.003190649138741432,0.9917813221249449
2015-06-04,0,-9.022311706758182e-05,1.3475284626823455e-05,-0.00981843815316515,0.003190649138741432,0.9915801739005421
2015-06-08,-1,-0.0009818864267678146,-0.0007230418855810884,-0.00981843815316515,0.004401164677294669,0.9915278471393826
2015-06-10,-1,-0.000734501903776439,-0.0004755821360790633,-0.010757204347435092,0.003190649138741432,0.9916760609753038
2015-06-12,-1,-0.00037254871274678043,-0.00022530130697823782,-0.010098734138182734,0.0042572630191751335,0.9918672576705322
2015-06-16,-1,-0.00035595667612123543,-0.000232034209416734,-0.011611902929917201,0.005227204485095318,0.9908511308824343
2015-06-18,-1,-0.0004539803068334232,-0.0003407543393274502,-0.01011254476561209,0.005227204485095318,0.9911461389067273
2015-06-22,-1,-0.001309674189442537,-0.0010561343621322784,-0.007042079532799664,0.006539863950555929,0.9919615466485201
2015-06-24,-1,-0.000965017121358665,-0.0007822911936203327,-0.007042079532799664,0.007824308103709885,0.9916958241081401
2015-06-26,-1,-0.0009987385213391382,-0.0008525885319527437,-0.012177876165442594,0.007824308103709885,0.9897797396746091
2015-06-30,-1,-0.001039967902498438,-0.0008763879219521104,-0.008080217568234715,0.008948097870432855,0.98929950344495
2015-07-02,-1,-0.001819892708097237,-0.0015605057624587648,-0.006737639974761223,0.008948097870432855,0.9898925187861005
2015-07-07,-1,-0.0015259148960478559,-0.0012944719165013125,-0.008519645909624757,0.008948097870432855,0.990074460057757
2015-07-09,-1,-0.0011529150975373593,-0.0010160671594420623,-0.005403225248671895,0.009122930088147933,0.9902825743788649
2015-07-13,-1,-0.001054222865240706,-0.0009177069551085555,-0.008519645909624757,0.009851340446484797,0.9887446785604922
2015-07-15,-1,-0.0016747878083957601,-0.0014448337140002122,-0.005403225248671895,0.009122930088147933,0.9898867133904696
2015-07-17,-1,-0.001729190130086418,-0.001485655759093952,-0.008466740782855009,0.009122930088147933,0.9897414512766001
2015-07-21,-1,-0.0017845619475432516,-0.001511205061812622,-0.008466740782855009,0.008948097870432855,0.9900686857914173
2015-07-23,-1,-0.0012821401089216367,-0.0010762807895892553,-0.010139135619826566,0.003489629093095727,0.9890477696073509
2015-07-27,-1,-0.0030238493880331736,-0.00261263192910519,-0.010513073367113024,0.003489629093095727,0.9884297942900788
2015-07-29,-1,-0.0023736591015285297,-0.001994592110131899,-0.016591794556377926,-0.00013189206767447257,0.9874317600409867
2015-07-31,-1,-0.003396460973382826,-0.0028693256164734116,-0.016591794556377926,0.003489629093095727,0.9838191869401716
2015-08-04,-1,-0.0036809634609226744,-0.0031151864125804254,-0.01981181705034846,0.007481550654009994,0.9823576966259121
2015-08-06,-1,-0.0032418543946043554,-0.00272795540563542,-0.01981181705034846,0.006996454909502542,0.9825266849978833
2015-08-10,-1,-0.002380316091432069,-0.0019949525758071046,-0.01981181705034846,0.00597853450003864,0.9832407784110886
2015-08-12,-1,-0.0019913470399026633,-0.0016696361750524436,-0.01981181705034846,0.0017006145565451514,0.9827547802684108
2015-08-14,-1,-0.002409009175952448,-0.0020311237221855172,-0.01981181705034846,0.0017006145565451514,0.9826778867679334
2015-08-18,-1,-0.002285987905439504,-0.0019521460529925397,-0.01981181705034846,0.010540329121302634,0.980462492617979
2015-08-20,-1,-0.003569914106687077,-0.0031075450552868725,-0.01981181705034846,0.010540329121302634,0.9806213705109393
2015-08-24,-1,-0.003246176217624401,-0.002820282058403751,-0.015449113263922423,0.010540329121302634,0.9832763984561493
2015-08-26,-1,-0.0022960225641698757,-0.00201673590719494,-0.011386252421264613,0.010636939042408906,0.9844918529642697
2015-08-28,-1,-0.00024404871218433567,-0.00020770266795593745,-0.01252453615680332,0.007974144375300411,0.9859551334708365
2015-09-01,-1,-7.065372535858559e-05,-3.686247593469713e-05,-0.011386252421264613,0.005211932610171113,0.9877179934668777
2015-09-03,1,0.00014483387377024133,0.00020353826393001048,-0.01252453615680332,0.005211932610171113,0.985366034235796
2015-09-08,1,0.0002229099457682339,0.00036151182980736764,-0.011386252421264613,0.010328744187143316,0.9840862420612118
2015-09-10,-1,-0.00022503834001698554,-0.00013361947923714863,-0.009333932651382692,0.017607454385798197,0.983315388789151
2015-09-14,-1,-0.00047825926373949897,-0.00040916392733954515,-0.009333932651382692,0.017607454385798197,0.9830340859568159
2015-09-16,1,0.000944866989209111,0.001190639675802434,-0.009333932651382692,0.012099045248242837,0.9847745659048842
2015-09-18,-1,-0.00040766069364068266,-0.0003180678704911167,-0.0052580305614476335,0.0157785114674259,0.9853308831774654
2015-09-22,1,0.00015108766747011536,0.0003720177324319482,-0.005894668704695968,0.01759461986749118,0.9846548772333568
2015-09-24,1,0.00030841171254794163,0.0005298307332344124,-0.004243885647086479,0.019030957983603977,0.9838843635588397
2015-09-28,-1,-0.0010985186753219999,-0.001079177562960915,-0.004243885647086479,0.019030957983603977,0.985325145774949
2015-09-30,-1,-0.0008904173930743584,-0.0008369478281838078,-0.004243885647086479,0.020594746362752794,0.9840604109482431
2015-10-02,1,0.0003513410045941452,0.0005539704491580971,-0.00511446102970955,0.019030957983603977,0.9865964325857286
2015-10-06,1,0.0022698619622965087,0.0027169395599013642,-0.00511446102970955,0.01759461986749118,0.9870514419550146
2015-10-08,1,0.003336957233930031,0.003942823954954368,-0.008762199168018897,0.015560651015959985,0.9864106195908852
2015-10-12,1,0.0020101665347733453,0.0023946780753964928,-0.008687915429506926,0.015560651015959985,0.9871660531066643
2015-10-14,1,0.0025018197106269372,0.002984048798676949,-0.01449084027467986,0.015560651015959985,0.9863031615153973
2015-10-16,1,0.00222691281547958,0.002642839321085816,-0.01356916535673283,0.01234088446909009,0.9869454556785804
2015-10-20,1,0.0026520194750002456,0.00311352315268412,-0.01449084027467986,0.01234088446909009,0.9856162675427312
2015-10-22,1,0.004011772685255216,0.004673238726222342,-0.01449084027467986,0.01234088446909009,0.9852614618271317
2015-10-26,1,0.003026659057610544,0.0035206672873127603,-0.01356916535673283,0.01234088446909009,0.9858569521368226
2015-10-28,1,0.004068350901666816,0.004686681056836277,-0.01356916535673283,0.01138671534834908,0.9859757722327825
2015-10-30,1,0.004115216405979215,0.004790719920639653,-0.01356916535673283,0.01138671534834908,0.9863302621058985
2015-11-03,1,0.005167559219155503,0.0059536626120053285,-0.01449084027467986,0.0052341386620192495,0.9853292645238807
2015-11-05,1,0.004064308178288019,0.004690322092366105,-0.01321016705956377,0.0052341386620192495,0.9867724708013899
2015-11-09,1,0.0035520156307177544,0.004075412582819403,-0.01356916535673283,0.0034400613179823313,0.9854426857649486
2015-11-11,1,0.00318074863690124,0.003616396852787135,-0.01321016705956377,0.0028483313380813897,0.9859976888515961
2015-11-13,1,0.0024684344134711577,0.002807818892363273,-0.014357450263158232,0.004316190551518846,0.9862713261427966
2015-11-17,1,0.002475385012039911,0.002798165925683169,-0.010709133586777322,0.004316190551518846,0.986967457563662
2015-11-19,1,0.003110611039246318,0.0035260895146470407,-0.019198720366480383,0.0013966058268998804,0.9851838382783524
2015-11-23,1,0.0022868105443929624,0.0025310069937686426,-0.019198720366480383,0.008768154967513184,0.985010631740462
2015-11-25,1,0.002737441944491413,0.003062234806715569,-0.019198720366480383,0.008768154967513184,0.9845077762178613
2015-11-30,1,0.002077002961107982,0.002287271597365384,-0.019198720366480383,0.008768154967513184,0.9849026650430495
2015-12-02,1,0.0015703960711219238,0.0017288367842159583,-0.014357450263158232,0.004316190551518846,0.9864540106751604
2015-12-04,1,0.0012672428995982178,0.0013575939240553843,-0.013718331465424168,0.00563704920201817,0.9867474914189768
2015-12-08,1,0.00012017798663425217,0.00017365182257615116,-0.014830086325783871,0.00563704920201817,0.9866142623505249
2015-12-10,0,-3.9398313106353566e-05,1.68510241640225e-05,-0.018153485934022495,0.003304751257170445,0.986482101162779
2015-12-14,-1,-0.0002360171436964706,-0.0001829294796318239,-0.013446513813870322,0.002341073046801667,0.9871466595184261
2015-12-16,-1,-0.0009623051056592927,-0.0007400272799571484,-0.018153485934022495,0.002341073046801667,0.9872859781879744
2015-12-18,-1,-0.0022284586814663937,-0.0019071372734089627,-0.013446513813870322,0.002341073046801667,0.9887675215984058
2015-12-22,-1,-0.001621080174570407,-0.0013384255898790088,-0.013446513813870322,0.002341073046801667,0.9869369172809715
2015-12-24,-1,-0.001188576960881154,-0.0010085459219067255,-0.018153485934022495,0.002341073046801667,0.9851958069703728
2015-12-29,-1,-0.0008506736040513233,-0.0007343482523760421,-0.018153485934022495,0.0050659949384374795,0.9820556323725751
2015-12-31,-1,-0.0009361270694475084,-0.0008293625047288082,-0.018153485934022495,0.007644152724491157,0.9802875539174554
2016-01-05,-1,-0.0007792507631738744,-0.0006889477533607786,-0.023183014908147604,0.015788293901180993,0.9777220319144347
2016-01-07,-1,-0.002154712077878248,-0.00188112029435055,-0.018708719920849354,0.015788293901180993,0.9789375229750416
2016-01-11,-1,-0.002641409065408525,-0.0023105395566668354,-0.024848716868628173,0.017799528170284268,0.9777284503917797
2016-01-13,-1,-0.003530760931858398,-0.003047574287726856,-0.024848716868628173,0.019407623351517616,0.9772449669750977
2016-01-15,-1,-0.0038992681578745155,-0.0034074468641194866,-0.014537237492479035,0.023353565257146068,0.9765920151683142
2016-01-20,-1,-0.0050540083232767045,-0.0043905820918198725,-0.005872726567993529,0.023353565257146068,0.9763724862350502
2016-01-22,-1,-0.0021828408530822274,-0.001957707013572947,-0.005872726567993529,0.020813998776067485,0.9792834335656838
2016-01-26,-1,-0.0025990311770193496,-0.0023020132287320354,-0.005872726567993529,0.020506723214042493,0.9805808591677784
2016-01-28,-1,-0.0006943156932146828,-0.0006420320903397086,-0.005872726567993529,0.01745468887308221,0.983852836493194
2016-02-01,-1,-0.00031122975044422954,-0.00028608174898983265,-0.005658019805811142,0.01745468887308221,0.9843292768123584
2016-02-03,-1,-0.00040420997097574533,-0.00035040998159369927,-0.0035945392276386778,0.016292199375813686,0.9869252969610945
2016-02-05,-1,-0.0017954455306281188,-0.0015492915639176157,-0.0004584781265766732,0.016777909023613386,0.9867556638736482
2016-02-09,-1,-0.0011303094013507444,-0.001036781552745648,-0.0004584781265766732,0.016777909023613386,0.9868720691431376
2016-02-11,-1,-0.0012720060683899964,-0.0011023156461711149,0.00044906088026503354,0.018450424089882733,0.9860788369637622
2016-02-16,-1,-0.00019821913676204762,-0.00015931402008182796,-0.0030015845696127292,0.008546334595567728,0.9875488885894743
2016-02-18,1,3.696616414972387e-05,4.700302752191176e-05,-0.000915233309777031,0.008490740067041005,0.9877018450804559
2016-02-22,1,0.0001472147873396592,0.0001908247227541142,-0.004731875872649736,0.008490740067041005,0.9873063017895625
2016-02-24,-1,-0.0006780609535524096,-0.00053544149765728,-0.00921003441790931,0.008490740067041005,0.9874769919107932
2016-02-26,-1,-0.0003146378203535317,-0.0002518274329901829,-0.00921003441790931,0.008490740067041005,0.9873372841874539
2016-03-01,1,0.0009317353359498155,0.0010948256937716246,-0.0061138074710223745,0.008490740067041005,0.9885711205561609
2016-03-03,1,0.0017017770809612377,0.002022292244866039,-0.010073364570396282,0.00848889762950697,0.9873845811642431
2016-03-07,1,0.0018930556134227985,0.0021970906398424655,-0.010073364570396282,0.00623553243497491,0.9878824033321826
2016-03-09,1,0.0005886615216155948,0.0007246893460939017,-0.010073364570396282,0.006963563285143484,0.989123622409792
2016-03-11,1,0.0013156219795743378,0.0015470198278098781,-0.010073364570396282,0.006963563285143484,0.9893071972979566
2016-03-15,1,0.0008146260268189036,0.0009944515521950396,-0.00884021305399315,0.016826320230543153,0.9883824012710922
2016-03-17,1,0.0016381831095888528,0.001973563192789825,-0.009568391727916396,0.010066224646946972,0.9883669729030904
2016-03-21,1,0.001804912627642144,0.002126076886268386,-0.00884021305399315,0.016532111477081435,0.9879732090407984
2016-03-23,1,0.001419436284873744,0.0017369417427798507,-0.006123677901876103,0.018578143323050925,0.9879946697180928
2016-03-28,1,0.0012771241415167561,0.001555485526902072,-0.009210943619567393,0.018578143323050925,0.9873097063383545
2016-03-30,1,0.0023031032856765856,0.002768079515047394,-0.009210943619567393,0.017840711937462946,0.9873531334190516
2016-04-01,1,0.0012126662679700362,0.0014701359853741525,-0.005720167708244242,0.017840711937462946,0.9880482114936947
2016-04-05,1,0.0013671283345176994,0.0016354921241881876,-0.010591749546955565,0.017840711937462946,0.9863604279507396
2016-04-07,1,0.0010707134223071815,0.0012946150458796933,-0.010591749546955565,0.017840711937462946,0.9861641015270061
2016-04-11,1,0.0014502047265733706,0.0017038379190789069,-0.011673122852530582,0.016122528718333973,0.9855049724367585
2016-04-13,1,0.002578167275649505,0.0029864837484320185,-0.011673122852530582,0.00916556504596849,0.9860460565315007
2016-04-15,1,0.002275863853996063,0.002658435640914779,-0.01240334343866876,0.00916556504596849,0.9858010901851813
2016-04-19,1,0.002991951251686867,0.0034610057998260974,-0.01240334343866876,0.008237418135840347,0.986197232472468
2016-04-21,1,0.002986972482141463,0.0034612345896174847,-0.015740184120242695,0.008237418135840347,0.9857945324296875
2016-04-25,1,0.002583033089777884,0.0029918185759941554,-0.013630783186580205,0.010654926303364273,0.9865707218005153
2016-04-27,1,0.0028363038756021655,0.0032579465487198164,-0.013630783186580205,0.010654926303364273,0.985808958462261
2016-04-29,1,0.002581953630019626,0.0029542642572990808,-0.013630783186580205,0.010654926303364273,0.9859101059369673
2016-05-03,1,0.0012920906009254846,0.0014448880761265342,-0.009655870658351235,0.010654926303364273,0.9871446513340764
2016-05-05,1,0.000558830544054222,0.0005959827396312184,-0.006824033094988028,0.010654926303364273,0.9880701064803971
2016-05-09,-1,-0.0002858894145469445,-0.00020432820911205768,-0.00584001943958926,0.013096914772402716,0.9868965575679903
2016-05-11,1,0.00021246466731855186,0.00022101621312727352,-0.006604201138247103,0.012111463414081574,0.9872990969050106
2016-05-13,-1,-0.0009950857487269356,-0.0007913068365564524,-0.009467054048495826,0.012111463414081574,0.9870693416645439
2016-05-17,1,0.00034224371802315314,0.0003468235375274478,-0.009467054048495826,0.009208585832322109,0.9882143297773265
2016-05-19,1,0.0003257748052907162,0.0003271609131554174,-0.008185424733268828,0.009208585832322109,0.9889514360813714
2016-05-23,1,0.0003552150116408992,0.0003605637127947909,-0.008185424733268828,0.009644452924045472,0.9888409708748335
2016-05-25,1,0.0011080183969654387,0.001197472113008965,-0.008185424733268828,0.009644452924045472,0.9895890493949084
2016-05-27,1,0.0007174618236675644,0.0007544026446723566,-0.010707298230954041,0.009644452924045472,0.9872986136576634
2016-06-01,-1,-0.0003359694755474567,-0.00019415337152104247,-0.008535900590803096,0.013376524036498718,0.9865517063746414
2016-06-03,-1,-0.0007676278401843891,-0.0005530486228351125,-0.008535900590803096,0.015311352024059663,0.9858508817338206
2016-06-07,0,-6.865195722714941e-05,8.766706580994716e-05,-0.010722171426835563,0.01278837092462535,0.987308097063367
2016-06-09,-1,-0.0004062226722194146,-0.00019563212373946025,-0.008739590396540027,0.013837426310095616,0.9874034881854284
2016-06-13,-1,-0.0016521735532462,-0.0012622072478725998,-0.006946009375668855,0.015311352024059663,0.9873115451212762
2016-06-15,-1,-0.0008117939585922578,-0.000547442246597938,-0.007263257823595185,0.015311352024059663,0.9871429567026542
2016-06-17,-1,-0.0006456545058668747,-0.00040498819039984596,-0.005744892268521542,0.013953550173872824,0.9877992332767236
2016-06-21,1,0.000836894590052629,0.0008476668039262668,-0.005744892268521542,0.013953550173872824,0.9881834413381573
2016-06-23,1,0.0012810172782412627,0.0013796045460904099,-0.007683047982799469,0.013953550173872824,0.9880248733308488
2016-06-27,-1,-0.00014713849499912676,-6.945684134278566e-05,-0.005257896916429175,0.013953550173872824,0.9898013981876829
2016-06-29,-1,-0.00029779639518013603,-0.0001330533618895846,-0.008985771856547944,0.0066475702612236315,0.9906990541621858
2016-07-01,0,-0.00013722015121167845,3.101804503659501e-05,-0.009274862496381299,0.00662895506139388,0.9896171748514574
2016-07-06,0,-0.0001243256886600893,2.490070979752415e-06,-0.008985771856547944,0.009414705248965965,0.9903032656612687
2016-07-08,1,0.00026219320899229003,0.00030663640302700684,-0.008985771856547944,0.009727801024453357,0.9902364343384519
2016-07-12,1,0.0006304365401697136,0.0006305374213153548,-0.008324146893883654,0.009727801024453357,0.9905719657622701
2016-07-14,1,0.0005869215405031514,0.0006142419150638725,-0.008324146893883654,0.009727801024453357,0.9902088544776839
2016-07-18,1,0.000646479555915984,0.0006560723040594865,-0.008324146893883654,0.009942852997573668,0.9898300109394222
2016-07-20,1,0.0007571125996080991,0.0007615347589305041,-0.008324146893883654,0.009772133289115683,0.9900710889931522
2016-07-22,1,0.001606476132772694,0.00176624987534423,-0.008324146893883654,0.009772133289115683,0.9901726650619399
2016-07-26,1,0.0010765117094423391,0.0011688391315111824,-0.008324146893883654,0.009772133289115683,0.9898247557634673
2016-07-28,1,0.0008694995795875051,0.0009788847595466404,-0.0054928407874057636,0.009772133289115683,0.9905350169157706
2016-08-01,-1,-0.0003398377949533329,-0.00021094283747321538,-0.005205526494197132,0.00935779867947997,0.9922648112081512
2016-08-03,1,0.0008573107193931085,0.0009312059883412215,-0.006261288218762079,0.008447422483374122,0.99151991293569
2016-08-05,1,0.0008795090755355591,0.0009161328448964446,-0.006261288218762079,0.0031099618306987134,0.9920126729422775
2016-08-09,1,0.001018742918307885,0.0010925902124317164,-0.005597544065023625,0.0029376623405445697,0.9929046431329707
2016-08-11,1,0.0011118512159812805,0.0012253188350848433,-0.005597544065023625,0.0029376623405445697,0.9922514398907021
2016-08-15,1,0.0006553580836919946,0.0006685061626565852,-0.006261288218762079,0.0029376623405445697,0.9912372437273363
2016-08-17,1,0.0006557579453401848,0.0006702287716990423,-0.0072217389899270614,0.0029376623405445697,0.9907542755226986
2016-08-19,1,0.0010869466338264454,0.0011573898579015948,-0.006924440901095901,0.0008241704325081358,0.9912537847199662
2016-08-23,0,-4.428722293560379e-05,7.862873913383971e-05,-0.006563441092238002,0.0029376623405445697,0.9915839822870566
2016-08-25,-1,-0.00015970902310770375,-3.0966215699167405e-05,-0.008128197610354831,0.003632570993209931,0.9908942035457046
2016-08-29,-1,-0.0004897788338079747,-0.0003093274060440186,-0.008128197610354831,0.0036036343319886116,0.9910698214297369
2016-08-31,-1,-0.0009771235647971115,-0.0007643053804989637,-0.007876415439068658,0.005692315957065972,0.9903127526717137
2016-09-02,-1,-0.00021645336773749174,-0.00017163565364095037,-0.007876415439068658,0.006857139362171049,0.989342154624556
2016-09-07,-1,-0.0005786305231795561,-0.00046128493157131836,-0.007876415439068658,0.011293537995292868,0.98843425708281
2016-09-09,-1,-8.311142134670595e-05,-7.692398460242266e-05,-0.0065316549389187175,0.01580284144846885,0.9890936013775425
2016-09-13,-1,-0.0002552434817981202,-0.000234284996634875,-0.0065316549389187175,0.013355653029597857,0.989973897064307
2016-09-15,-1,-0.000431868380721655,-0.0003757905626700168,-0.00516550866535421,0.013355653029597857,0.9905308964324626
2016-09-19,-1,-0.00040518567510512216,-0.00038401011563914426,-0.004499448961726282,0.013355653029597857,0.9907187410651288
2016-09-21,-1,-8.776122285203384e-05,-6.991460434968059e-05,-0.004255313743828803,0.013369788512208373,0.99035000014172
2016-09-23,-1,-0.0010214557318981962,-0.000874274625932458,-0.004499448961726282,0.013369788512208373,0.989738132872125
2016-09-27,-1,-0.001531529312187164,-0.001293195627452207,-0.004276412519955386,0.013369788512208373,0.990024736380778
2016-09-29,-1,-0.001601709888955836,-0.0013025797425603182,-0.004276412519955386,0.006933355830351595,0.9919657388752326
2016-10-03,-1,-0.000928429128764179,-0.0007222704204367095,-0.005081024961793709,0.0020945296192926882,0.9921026286431928
2016-10-05,-1,-0.0008473193712938533,-0.000617572047099182,-0.00528478675924263,0.0020945296192926882,0.9924263285876164
2016-10-07,1,2.380941029535611e-05,0.00010319040536250332,-0.005988260276317921,0.0020945296192926882,0.9920617989110805
2016-10-11,1,2.1415966932661595e-05,0.00010423320143285991,-0.00528478675924263,0.0021120928725283307,0.9918096474161688
2016-10-13,0,-2.1383912644193977e-05,6.346151914720036e-05,-0.00528478675924263,0.0022051684638368166,0.9919292951508573
2016-10-17,1,0.00037731102523431715,0.000400041180902571,-0.006020401361278265,0.0022051684638368166,0.9913804107124492
2016-10-19,1,0.001019182453697894,0.0011053484809926818,-0.006020401361278265,0.0011595059230040826,0.9910122160411036
2016-10-21,-1,-0.0002825383497413622,-0.0001820107720456747,-0.005912036580853531,0.0011595059230040826,0.9925728883124932
2016-10-25,-1,-0.0005172842704210291,-0.00038358148772506907,-0.005912036580853531,0.0024413969280796368,0.9915867062186273
2016-10-27,1,8.416589123157494e-05,9.776863771053343e-05,-0.00574439637687952,0.0024413969280796368,0.9916744335711349
2016-10-31,-1,-0.0003717254779332201,-0.0003284367103485164,-0.004097600884746323,0.0024413969280796368,0.991794604656671
2016-11-02,-1,-0.0008090968287070546,-0.0006750956441569115,-0.0026348946585479714,0.007247508143275793,0.9898632900406332
2016-11-04,-1,-0.001052053641469113,-0.000879201089386928,-0.0026348946585479714,0.00521136155085798,0.9901472260381456
2016-11-08,-1,-0.00017241914974582727,-0.00012159588189241413,-0.003513752207604717,0.004665694289466129,0.9907964294445677
2016-11-10,-1,-6.27997038707989e-05,-3.759268488142576e-05,-0.003513752207604717,0.004665694289466129,0.9906085760778823
2016-11-14,-1,-0.00023154941974482787,-0.00019352883553830672,-0.0026348946585479714,0.00521136155085798,0.9906114097371534
2016-11-16,-1,-0.00048577075024672966,-0.0003522777181659649,-0.003513752207604717,0.004665694289466129,0.9916398855124061
2016-11-18,-1,-0.0002948010413036554,-0.00022806298939252802,-0.00323316625838808,0.004665694289466129,0.9918656610631084
2016-11-22,1,0.000533022600308351,0.0005963515748386159,-0.00323316625838808,0.004665694289466129,0.992578071393886
2016-11-25,1,0.0002293957817791286,0.0002372738490411326,-0.004724998269894634,0.004665694289466129,0.9920133775472434
2016-11-29,-1,-2.259090649836218e-05,-5.1502888904914474e-06,-0.004724998269894634,0.004665694289466129,0.9922694263359702
2016-12-01,1,0.001323476851811665,0.0014901695817192092,-0.0052023972811675225,0.0029521859751438346,0.9949724165836271
2016-12-05,1,0.00099871676747714,0.0011099522096799327,-0.0046035453244356265,0.003913700242074609,0.9947144290137522
2016-12-07,1,0.001189009315628443,0.0013428337796952056,-0.0033379440159863544,0.004609737933350955,0.9945231704595239
2016-12-09,1,0.0014218987947052942,0.001623747743209916,-0.00586322526816244,0.0038920108729333398,0.9934610108121994
2016-12-13,1,0.0019275584639409722,0.0022148736630968773,-0.00586322526816244,0.0037921169217968584,0.9931912522009245
2016-12-15,1,0.0014389128462760751,0.0016344696929206078,-0.005304913470598282,0.008103196350370523,0.9926871991516292
2016-12-19,1,0.001110354807593758,0.0012238689751425005,-0.005304913470598282,0.010173612327815416,0.9922714711356517
2016-12-21,1,0.0013459517225377015,0.0014760375272774714,-0.008159160731868322,0.008103196350370523,0.9909106572077039
2016-12-23,1,0.001265348786937178,0.0014072489803679173,-0.006518163561613111,0.010342738286542537,0.9909724933198046
2016-12-28,1,0.001202051305325481,0.0013606624323376517,-0.006324519723441606,0.010342738286542537,0.990915693976544
2016-12-30,1,0.0010535936044457539,0.001196402047805065,-0.007561260106135177,0.010342738286542537,0.9908706436764821
2017-01-04,1,0.001399194907532012,0.0015824406500206476,-0.008159160731868322,0.005507912892412349,0.9906337808193445
2017-01-06,1,0.0018361943029859286,0.002087367050595363,-0.008351839084524032,0.001816686608939001,0.9905815869290066
2017-01-10,1,0.0012607517505978337,0.0014383531861603064,-0.007727824145086094,0.001816686608939001,0.9915844457895753
2017-01-12,1,0.0016884172242131188,0.0019418763058884551,-0.007727824145086094,0.001816686608939001,0.9916698133737004
2017-01-17,1,0.0017834031733827047,0.0020200288392293836,-0.007727824145086094,0.001816686608939001,0.9922601734845511
2017-01-19,1,0.0018218244570661441,0.0020544594813036144,-0.008259199780111182,0.0011310694363899395,0.9919950785670985
2017-01-23,1,0.0011290678009059712,0.0012636407677858261,-0.00758552400580359,0.0011310694363899395,0.9937945469038013
2017-01-25,1,0.0010387615242433838,0.0011226811004490498,-0.007844832304547585,0.0008231848698923189,0.9933759926824879
2017-01-27,1,0.0006770782841836409,0.0007034451492209682,-0.007844832304547585,0.0011310694363899395,0.9934428085418272
2017-01-31,1,0.00046037468644483494,0.00046255079384643053,-0.007844832304547585,0.0027875769473870906,0.9924645707129931
2017-02-02,-1,-0.000163289067513928,-6.678776615785104e-05,-0.007844832304547585,0.0027875769473870906,0.9923863005034199
2017-02-06,-1,-0.0006696166938312115,-0.0005030560757040311,-0.007844832304547585,0.0027875769473870906,0.9925060470819466
2017-02-08,-1,-0.0007503080206791443,-0.0005665716397804807,-0.008616553492801708,0.007717339491561254,0.9914092936299498
2017-02-10,-1,-0.000841733630202538,-0.0006289932227784386,-0.008616553492801708,0.0021995816536876578,0.992074336820166
2017-02-14,-1,-0.0005494035750998545,-0.000381004969464314,-0.008616553492801708,0.0021995816536876578,0.991282746929368
2017-02-16,-1,-0.0013204556533243299,-0.0010438857771482414,-0.007766347673893457,0.0021995816536876578,0.9918443118884764
2017-02-21,-1,-0.0015281303672985678,-0.001219750630063356,-0.008098591697205636,0.0021065230696838562,0.9917924309571449
2017-02-23,-1,-0.0011811085069515195,-0.0009539476865485179,-0.008098591697205636,-3.327515027330943e-05,0.9922030121180192
2017-02-27,-1,-0.0007135690801131008,-0.0005510696185612663,-0.008741261374438387,-3.327515027330943e-05,0.9922697665055867
2017-03-01,0,-6.126793378243584e-05,2.596703829708274e-07,-0.008204311875924162,0.00038081183632594496,0.9925207151548308
2017-03-03,-1,-0.00046525179336833324,-0.00036178302925841336,-0.008204311875924162,0.0014197486983523718,0.9928857288970185
2017-03-07,-1,-0.0006415282909139927,-0.0005198447586890593,-0.007587364507722049,0.0036544399397371425,0.992834194444639
2017-03-09,-1,-0.0009987185961094916,-0.0008380132407922314,-0.005710398046504511,0.0035268697992418586,0.9940947197244292
2017-03-13,-1,-0.0013170126847654846,-0.001108919365780506,-0.005710398046504511,0.004214411549846095,0.9937828870016645
2017-03-15,0,-1.0645199869899457e-05,5.397568199479888e-07,-0.005710398046504511,0.004214411549846095,0.9942332117232394
2017-03-17,-1,-0.0010068524600106352,-0.0008325071996196267,-0.005821146054275237,0.004214411549846095,0.9938104696409558
2017-03-21,-1,-0.0012846966132798161,-0.001071259415052688,-0.006105849399165172,0.004214411549846095,0.9932333830169218
2017-03-23,-1,-0.00176129068919016,-0.001478541188663045,-0.006126550671905321,0.004214411549846095,0.9926067402224084
2017-03-27,-1,-0.0020175383168244774,-0.0016940984332567157,-0.006313177045446027,0.004214411549846095,0.9925887912992079
2017-03-29,-1,-0.0015616145738901492,-0.0012911969802616875,-0.010053405353652442,0.0016987415955462318,0.9929859662464828
2017-03-31,-1,-0.0019290392022356688,-0.0016075512886879351,-0.006313177045446027,0.0011509951931511458,0.9934734165367191
2017-04-04,-1,-0.0016461233869015132,-0.0013881404902485713,-0.010354962814516824,0.0011274670131840082,0.9933816633935677
2017-04-06,-1,-0.0016983170218838107,-0.0014321527724278694,-0.010354962814516824,0.000574105020867401,0.9926745613038332
2017-04-10,-1,-0.0017555704126286115,-0.001478521304199159,-0.010354962814516824,0.000902993174805763,0.9927360330534639
2017-04-12,-1,-0.0011225335526477815,-0.000942030589564872,-0.011879274462194939,0.000902993174805763,0.9924564526318221
2017-04-17,-1,-0.0015402448455933524,-0.0012949356975538407,-0.010880116519719561,0.000902993174805763,0.9922622808467417
2017-04-19,-1,-0.0017048632067516861,-0.0014767259615305764,-0.010062783730784964,0.000902993174805763,0.9926888681044203
2017-04-21,-1,-0.002071577898972554,-0.0017940815467848595,-0.009034404513699855,0.0037252286717925926,0.9931277528063399
2017-04-25,-1,-0.0029978388235654004,-0.002604843453571271,-0.008373667745088999,0.0037252286717925926,0.9931569128715696
2017-04-27,-1,-0.0025895239227653214,-0.002318667020696048,-0.009094014476960871,0.0037252286717925926,0.9923700479710351
2017-05-01,-1,-0.0029083248158290175,-0.0025938853491532265,-0.010241613620568014,0.00470884835773153,0.9910424368198236
2017-05-03,-1,-0.003062756708166788,-0.002738481708099463,-0.009094014476960871,0.005596278985470814,0.9906340463528163
2017-05-05,-1,-0.0025865518359323553,-0.002325973105003966,-0.010241613620568014,0.004720411988945267,0.9910097905823513
2017-05-09,-1,-0.0022301829208969033,-0.002040068029610257,-0.010878756563551976,0.005596278985470814,0.9900542611317874
2017-05-11,-1,-0.0024640447522667184,-0.0022380498683824477,-0.010241613620568014,0.007170534238579326,0.9896763753142243
2017-05-15,-1,-0.0022880799535268522,-0.002084269041396858,-0.009094014476960871,0.004921015874319859,0.9905880293262671
2017-05-17,-1,-0.0022219593858743497,-0.0020567690566436806,-0.01193015463068857,0.004921015874319859,0.9898245885484451
2017-05-19,-1,-0.0018852762451422038,-0.0017500454805595344,-0.01193015463068857,0.005893459471304594,0.9892906323301499
2017-05-23,-1,-0.0016827857173667643,-0.0015589066677283861,-0.01729804745413949,0.005893459471304594,0.9879245564630853
2017-05-25,-1,-0.0028985996096971374,-0.0026278505439405026,-0.013567962126166632,0.008946903557348123,0.9891856014668629
2017-05-30,-1,-0.002789408244074553,-0.0025626866365512256,-0.01193015463068857,0.0055131389805761245,0.9902360648514431
2017-06-01,-1,-0.001760789596742298,-0.0016845304357361594,-0.01193015463068857,0.0026180523749618836,0.9908837908136098
2017-06-05,-1,-0.0024043004205528016,-0.0022171006811402137,-0.009149512241345924,0.0074184785572291925,0.9903232041559881
2017-06-07,-1,-0.0022078736161030084,-0.0020707932050346295,-0.010075984703864923,0.0032531655671795725,0.9905759538835387
2017-06-09,-1,-0.0010243451930547218,-0.0009764398234037172,-0.010075984703864923,0.0025313933821348804,0.9913887617177436
2017-06-13,-1,-0.0010828480232254229,-0.001030453122870198,-0.010075984703864923,0.0047947696848664205,0.991198198150596
2017-06-15,-1,-0.0022796425799517205,-0.00214836761940738,-0.0072603030938507875,0.0068087046118034174,0.9912857605364376
2017-06-19,-1,-0.0013130302417445506,-0.0012963832258902142,-0.00835251491462761,0.005744021481286774,0.9922352788963302
2017-06-21,-1,-0.0026684294687651998,-0.0025115175545150376,-0.003950931317765218,0.0068087046118034174,0.9923956491809184
2017-06-23,-1,-0.0022380611575651774,-0.0021309868843542613,-0.006498687535740757,0.005744021481286774,0.9928209040396814
2017-06-27,-1,-0.002639390996859215,-0.0024694387464457472,-0.003950931317765218,0.0068087046118034174,0.9924268558491575
2017-06-29,-1,-0.0026769919818114478,-0.0024859538899932184,-0.003950931317765218,0.009170310595036275,0.9913669441758233
2017-07-03,-1,-0.001599622230536042,-0.0015450925885729621,-0.003950931317765218,0.007270491993680196,0.9924945709414108
2017-07-06,-1,-0.00243570289886306,-0.00229459139559496,-0.002038039115559955,0.007270491993680196,0.9926139869176306
2017-07-10,-1,-0.0017708327457729238,-0.001731654846816933,-0.006498687535740757,0.007270491993680196,0.9921787131675311
2017-07-12,-1,-0.001968676777937793,-0.0018785309534784078,-0.007914962510306944,0.006703279071376113,0.9918564740219029
2017-07-14,-1,-0.0012120387072559705,-0.0012118279350182984,-0.00978658400722538,0.0030279181405381953,0.9919139982887586
2017-07-18,-1,-0.001430685097179159,-0.001415212607173522,-0.009130133968314462,0.0030279181405381953,0.9919008499748961
2017-07-20,-1,-0.0006484087991390537,-0.0005363880018313267,-0.010144158921357053,0.0025977349701014276,0.9924596959211477
2017-07-24,-1,-0.0002784979642021609,-6.92699815421741e-05,-0.010144158921357053,0.004342247482900783,0.9924466997594317
2017-07-26,-1,-0.00034949183640816317,-0.0001970589668633645,-0.010144158921357053,0.004342247482900783,0.9924714438001968
2017-07-28,1,0.0005030684443969047,0.0007559508420614299,-0.010144158921357053,0.0025977349701014276,0.9924443088400717
2017-08-01,1,0.0007948539950415475,0.0010718757469457823,-0.010144158921357053,0.0017740999472541635,0.9922977447982188
2017-08-03,1,0.0002835415647940773,0.00048215217652714025,-0.009130133968314462,0.0018832392680200403,0.993003450149479
2017-08-07,1,5.290345474918338e-05,0.00028187915236973257,-0.007042285430261032,0.0024837689811798218,0.9928319555237775
2017-08-09,-1,-0.0004248165938561908,-0.00027961034808484693,-0.0054731120362175555,0.004342247482900783,0.9930294265665898
2017-08-11,-1,-0.001293978877251589,-0.001277441716659955,-0.00494277343157714,0.004839631538523374,0.9926451728530041
2017-08-15,-1,-0.0014940530280617668,-0.001467430548384406,-0.0031206868480229783,0.007913077934466085,0.9921128284355477
2017-08-17,-1,-0.0016858252819560416,-0.0016343331428076051,-0.0031206868480229783,0.009651645588919613,0.9919166480233377
2017-08-21,-1,-0.0010858711132302199,-0.0010085009618905796,-0.0025208766729466463,0.009651645588919613,0.9919446183541472
2017-08-23,-1,-0.0008847654761924056,-0.0007919433388260358,-0.0028837075342338543,0.009651645588919613,0.9918735180137498
2017-08-25,0,-0.00016683560134624282,3.370070608958232e-05,-0.0019290412985657136,0.01013313858198188,0.9920412184675946
2017-08-29,0,-0.0001741972565854925,3.359010556357308e-05,-0.0019290412985657136,0.01013313858198188,0.991640776571778
2017-08-31,0,-2.863620617916344e-05,0.00020853784212242373,-0.00040884784027097834,0.01013313858198188,0.9914091918411605
2017-09-05,1,0.0012412477826864742,0.0016708489616172704,-0.003807307154950991,0.009651645588919613,0.9929046753537439
2017-09-07,1,0.0013011820515599634,0.0017100409933531369,-0.003807307154950991,0.009535878544391816,0.993062241050606
2017-09-11,1,0.001055247955054843,0.0013864164882846873,-0.003807307154950991,0.008849008321156251,0.9939618087998787
2017-09-13,1,0.0016376128651681818,0.0020493220133902014,-0.004559572744731388,0.007381761571294057,0.993993920011643
2017-09-15,1,0.0016731376248276199,0.0020647776662935467,-0.004559572744731388,0.004571129751145082,0.9942732296669038
2017-09-19,1,0.0018051984351305068,0.0021916281795386836,-0.005708097775927085,0.0018130786944701072,0.9939585077882249
2017-09-21,1,0.001880957338147376,0.0022619124908802297,-0.006906189385733533,0.0008344590156037782,0.9927401315843083
2017-09-25,1,0.002475456099168598,0.0029173959147805817,-0.008694000372323282,-0.00010968511162762657,0.9909221413043657
2017-09-27,1,0.0023196823446192134,0.0027622247373643577,-0.007930469768539327,0.00018164433296841872,0.9908921486098905
2017-09-29,1,0.0027935769134748573,0.003304084473237003,-0.007930469768539327,-0.00010968511162762657,0.9906764466240413
2017-10-03,1,0.0021923354553722097,0.0026084470270857345,-0.007930469768539327,0.00018164433296841872,0.9913980712004778
2017-10-05,1,0.002334978132641931,0.0027836490886501003,-0.008694000372323282,0.0007101164123785935,0.9907252837570462
2017-10-09,1,0.0018222134582543009,0.0021752683938752308,-0.008694000372323282,0.004585590758342517,0.9888157732634779
2017-10-11,1,0.0018287052935563658,0.0022089195052918884,-0.009076580277177691,0.0060532637875416375,0.9885146436359392
2017-10-13,1,0.0016415671519172635,0.0020107079645272606,-0.011273365687514659,0.0060532637875416375,0.9879949560383702
2017-10-17,1,0.0006205551234835338,0.0007731884548577723,-0.016315827997791164,0.0060532637875416375,0.9863836851212103
