JNU-Tangyin/eata/results/Batch4_SP500/Batch4_SP500-NVR.csv
Date,Action,Predicted_Q25,Predicted_Q75,Actual_Q25,Actual_Q75,RL_Reward
2010-12-14,0,0.0,0.003292225575544443,-0.0018811212567968975,0.013274846026184306,0.9924281023889193
2010-12-16,0,0.0,0.0,-0.0007533572575437598,0.018063840762125537,0.9896106184772999
2010-12-20,0,0.0,0.0,-0.0007533572575437598,0.015650753837807903,0.9898475857798017
2010-12-22,0,0.0,0.0,-0.003884738686007272,0.015650753837807903,0.989223571255376
2010-12-27,0,0.0,0.0,-0.0031722544433904635,0.015650753837807903,0.9888858175921135
2010-12-29,0,0.0,0.0,-0.0011284637837486492,0.015650753837807903,0.9886131574252145
2010-12-31,0,0.0,0.0,-0.007666843188464369,0.015650753837807903,0.9870859488056276
2011-01-04,0,0.0,0.0,-0.005363076359934768,0.015650753837807903,0.9868890446731235
2011-01-06,0,0.0,0.0,-0.007666843188464369,0.012173232914864931,0.9882688207051096
2011-01-10,0,0.0,0.0,-0.007666843188464369,0.008593960280403734,0.9900139574174427
2011-01-12,1,0.003090105409256005,0.003443410885591041,-0.007666843188464369,0.008102611398208623,0.9902394494710663
2011-01-14,1,0.007807167376658377,0.008694967256561678,-0.007666843188464369,0.005798037372340311,0.9889314194488853
2011-01-19,1,0.007668509098287741,0.008550956675815524,-0.007278873257447055,0.005798037372340311,0.9891360649207136
2011-01-21,1,0.005735529287711967,0.00627477202767442,-0.0067489995792166775,0.005798037372340311,0.9910083486874296
2011-01-25,1,0.005665690232806835,0.006183529003570575,-0.007374860221727486,0.0023795888821307003,0.9886395134250024
2011-01-27,1,0.0064968157267724334,0.007190981003672687,-0.007374860221727486,0.0023795888821307003,0.9874390163420251
2011-01-31,1,0.004317882202690285,0.004675275572429618,-0.007261329944748887,0.0023795888821307003,0.990076446727349
2011-02-02,1,0.004203666388099004,0.004536132517057554,-0.007261329944748887,0.005798037372340311,0.9895266914318446
2011-02-04,1,0.004425022666059892,0.0048774803238469736,-0.007253770096330429,0.0026118398959086844,0.9895280013452863
2011-02-08,0,0.0,0.0,-0.007253770096330429,0.01125627845827473,0.9892818865559095
2011-02-10,1,0.001716001226594252,0.001861721635759998,-0.007322230283632982,0.01125627845827473,0.9880016282326627
2011-02-14,0,0.0,0.0,-0.007908698234771219,0.011936887861547788,0.9874405485888486
2011-02-16,0,0.0,0.0,-0.009739303708145856,0.011635253302803544,0.9874911881670242
2011-02-18,0,0.0,0.0,-0.009739303708145856,0.011635253302803544,0.9873025500088302
2011-02-23,0,0.0,0.0,-0.007392480677109155,0.011635253302803544,0.989191160474292
2011-02-25,0,0.0,0.0,-0.007392480677109155,0.00925874096603807,0.9896117753868967
2011-03-01,0,0.0,0.0,-0.00738057336240003,0.00925874096603807,0.9896759854408125
2011-03-03,1,0.0012739260556108082,0.0012934066194407487,-0.00811944941519974,0.006557307014250324,0.9906504045444785
2011-03-07,1,0.0006213655813618706,0.0007261813578290268,-0.00811944941519974,0.006557307014250324,0.9910654794276252
2011-03-09,1,0.002098071310434449,0.0021462753096641025,-0.00811944941519974,0.00592458644178219,0.9924989998554171
2011-03-11,1,0.001256182585561714,0.0012856403249200715,-0.004005794070740171,0.006557307014250324,0.9936650550277973
2011-03-15,1,0.0007984135874799475,0.0008996783851329552,-0.004476303135102581,0.00592458644178219,0.994458773878598
2011-03-17,1,0.00011751171036868526,0.00031828171182072575,-0.003921222511069283,0.00592458644178219,0.9950705182558763
2011-03-21,1,0.00027597206372270906,0.000470846245179554,-0.003921222511069283,0.0049228821875991575,0.9951392653439354
2011-03-23,0,-0.0001393582338810414,0.00010641138897462328,-0.002914197077793953,0.007607256307245949,0.9947990303482717
2011-03-25,1,0.0002639371255181753,0.0004786821424747204,-0.004476303135102581,0.004061022677260457,0.9918672611580654
2011-03-29,1,0.0004520096495949091,0.0006365190771407141,-0.004476303135102581,0.004925850931276744,0.9908642048906472
2011-03-31,0,0.0,0.0,-0.002914197077793953,0.006019190601064796,0.991250881622021
2011-04-04,0,0.0,0.0,-0.003921222511069283,0.006019190601064796,0.9910502169054356
2011-04-06,0,0.0,0.0,-0.0031766019419826076,0.006019190601064796,0.9910906502223962
2011-04-08,-1,-0.0006886698406241684,-0.00040206959181007394,-0.005028324030518605,0.004428437977534061,0.9913192936827383
2011-04-12,0,0.0,0.0,-0.005028324030518605,0.004428437977534061,0.9910891025505266
2011-04-14,-1,-0.0013372471637578764,-0.0008946847775677838,-0.006044795382384189,0.004428437977534061,0.9906765243437734
2011-04-18,0,0.0,0.0,-0.0061368602664268355,0.004428437977534061,0.9900228853099433
2011-04-20,0,0.0,0.0,-0.0061368602664268355,0.00335852316499318,0.9901466367313687
2011-04-25,0,0.0,0.0,-0.005887365272152452,0.005679451858217223,0.9930711971929164
2011-04-27,-1,-0.0016045318970597986,-0.0012987586955672881,-0.0061368602664268355,0.005679451858217223,0.9936907950926988
2011-04-29,-1,-0.0023590892268100464,-0.0018798246610563984,-0.0061368602664268355,0.008419980000020177,0.9930652120680562
2011-05-03,0,0.0,0.0,-0.006966846225034372,0.008419980000020177,0.9925305733570601
2011-05-05,-1,-0.001823627033845747,-0.0014642861323366934,-0.008131506441180006,0.006670924024209025,0.9925596968507553
2011-05-09,-1,-0.0029639585180034327,-0.00241489698194607,-0.008644320246673574,0.006670924024209025,0.9919833846141699
2011-05-11,-1,-0.0032931020809117747,-0.0027117791959016986,-0.008947167736023812,0.006670924024209025,0.9920039217272906
2011-05-13,0,0.0,0.0,-0.008572383324168618,0.006670924024209025,0.9920772854308524
2011-05-17,0,0.0,0.0,-0.008895013188281826,0.004962336226650274,0.9923618323295548
2011-05-19,0,0.0,0.0,-0.008895013188281826,0.006670924024209025,0.9915357653400564
2011-05-23,-1,-0.0030160176226033345,-0.0024774281501649628,-0.009269425237943121,0.008419980000020177,0.9910232662220225
2011-05-25,0,0.0,0.0,-0.009269425237943121,0.005480785759956748,0.9916853273537504
2011-05-27,0,0.0,0.0,-0.010817278611111696,0.004044671733499716,0.991306617717594
2011-06-01,-1,-0.0018803124463704906,-0.0015694293637276845,-0.010041352162771394,0.00571265146523663,0.9911854291969684
2011-06-03,-1,-0.0011584124434241535,-0.0010115563196304103,-0.009269425237943121,0.00922313368968104,0.9903820071813503
2011-06-07,-1,-0.001005089983405543,-0.0009160669567427905,-0.008895013188281826,0.00922313368968104,0.9909943068763242
2011-06-09,-1,-0.0005975871005132491,-0.0005601051958335844,-0.008895013188281826,0.010650913672787888,0.9902598596713753
2011-06-13,-1,-0.000657778365496853,-0.0006245645083006434,-0.009093584444768365,0.010650913672787888,0.9893449807121947
2011-06-15,0,0.0,0.0,-0.005345994516719641,0.010650913672787888,0.9896855698101406
2011-06-17,0,0.0,0.0,-0.010606356982319298,0.005769850915048715,0.989577351518431
2011-06-21,1,0.0006773044073658691,0.0008848741467080275,-0.010606356982319298,0.007830296262148671,0.9900676130688139
2011-06-23,1,0.00016417980099308447,0.0002313534196660042,-0.011355648245053206,0.007830296262148671,0.9888060630516925
2011-06-27,-1,-0.0006261285179730903,-0.0006085596088775631,-0.010606356982319298,0.007830296262148671,0.9893804683869348
2011-06-29,-1,-0.00010653701299573037,-7.532874639599791e-05,-0.011078999376402297,0.0051616143762401746,0.9891519061958057
2011-07-01,1,0.0008598607933178123,0.0010364446000733674,-0.011078999376402297,0.004082839178721579,0.9903007953764963
2011-07-06,0,0.0,0.0,-0.0208036354989305,0.004082839178721579,0.9881191864966937
2011-07-08,1,0.0008665155729047579,0.0010133071000134758,-0.02187838239166702,0.004082839178721579,0.986738218595092
2011-07-12,0,0.0,0.0,-0.02187838239166702,0.0051616143762401746,0.9852248617794607
2011-07-14,1,0.00012218611448371996,0.00017091368880448228,-0.022225323034280674,0.00673235073846847,0.9831606088349675
2011-07-18,-1,-0.0021042337139605795,-0.001810025832249074,-0.02187838239166702,0.007830296262148671,0.9827101228991093
2011-07-20,-1,-0.0013263299665253437,-0.0011432493679279507,-0.02187838239166702,0.008202409863288357,0.9828320733027399
2011-07-22,-1,-0.0019804779870334645,-0.001709104794795247,-0.023723646314203012,0.008202409863288357,0.9816865485524794
2011-07-26,-1,-0.0015105719129712152,-0.0013498237728040226,-0.023723646314203012,0.01252309378860713,0.9811154010608023
2011-07-28,-1,-0.002428736560851286,-0.0021486281148013274,-0.022812950450973948,0.01292742462393988,0.9805963817623958
2011-08-01,-1,-0.0011978565992392266,-0.0011395784733441874,-0.022812950450973948,0.01292742462393988,0.9808336370171596
2011-08-03,-1,-0.003183042328174646,-0.0028569332356700506,-0.005502797408716136,0.014621921980281529,0.9807661758206414
2011-08-05,-1,-0.0039005814807299265,-0.003490462736867295,-0.0038115438729735447,0.014621921980281529,0.9819132836896308
2011-08-09,-1,-0.005394657655857149,-0.004805662915499944,-0.0038115438729735447,0.014621921980281529,0.9830303643973812
2011-08-11,-1,-0.005318825066680224,-0.004763164953928742,-0.0038115438729735447,0.012883745863086809,0.983783771339638
2011-08-15,-1,-0.004075700210394376,-0.0036641827623125145,-0.0038115438729735447,0.011728686042779652,0.9861364118467985
2011-08-17,0,0.0,0.0,-0.004028035055461773,0.011728686042779652,0.9873071973747531
2011-08-19,-1,-0.003467632337062548,-0.0031570882926961427,-0.00046478249467314724,0.012339737199275995,0.9862792775267526
2011-08-23,0,0.0,0.0,-0.01043449334526905,0.011728686042779652,0.9871979163622226
2011-08-25,-1,-0.003208938908985401,-0.0029324026540187595,-0.01211423788342104,0.0067146707510048935,0.98656610672146
2011-08-29,-1,-0.0027495817108298282,-0.002544312196626931,-0.01211423788342104,0.011200099416105266,0.9859556850542267
2011-08-31,-1,-0.0013288991275952399,-0.001312647955430492,-0.014367779686709714,0.0067146707510048935,0.9868619272092741
2011-09-02,-1,-0.0014560710528214377,-0.0014120715123912934,-0.01701078025126237,0.005058726842054587,0.9851346938444332
2011-09-07,-1,-0.001660662629716934,-0.0015989775589393968,-0.015593489385509949,0.007813686864047577,0.9840784867007278
2011-09-09,-1,-0.002248808595783699,-0.002132929939220999,-0.015284612589938507,0.01680529859246743,0.9838623079214309
2011-09-13,-1,-0.0015036064110124886,-0.0014962182787977836,-0.015284612589938507,0.021635533849462565,0.9823382503872519
2011-09-15,0,0.0,0.0,-0.015284612589938507,0.01680529859246743,0.9827031459320296
2011-09-19,0,0.0,0.0,-0.015284612589938507,0.01427045817153492,0.9838419759845372
2011-09-21,-1,-0.0017112064863625744,-0.0016311268985140922,-0.014614975471563348,0.01680529859246743,0.9827637108897401
2011-09-23,-1,-0.0020135301001769,-0.0018922879207011656,-0.010889890417917322,0.01680529859246743,0.9832040274030309
2011-09-27,-1,-0.0010236039395828034,-0.0010116341500311097,-0.014614975471563348,0.01567395619588294,0.9823238691983942
2011-09-29,-1,-0.0014184634617847773,-0.0013686967020346548,-0.010889890417917322,0.021635533849462565,0.9814236175368577
2011-10-03,-1,-0.003478769022973227,-0.0031803141347165704,-0.009140044232893888,0.021635533849462565,0.9834990322820292
2011-10-05,-1,-0.001940020612669823,-0.0018069183077442231,-0.010837191166479665,0.011254575251415521,0.9847812267206321
2011-10-07,0,0.0,0.0,-0.009140044232893888,0.007340581856898141,0.986047127214665
2011-10-11,0,0.0,0.0,-0.009140044232893888,0.007944710592640895,0.9872298856618723
2011-10-13,0,0.0,0.0,-0.010837191166479665,0.007944710592640895,0.986015707039952
2011-10-17,1,0.00010417954696896034,0.0002739557476644775,-0.009140044232893888,0.008649748898138446,0.9860573911108099
2011-10-19,1,0.0016065037568201244,0.0020094788422177863,-0.008501103084383961,0.007944710592640895,0.9889261537998599
2011-10-21,1,0.0013977942013943352,0.0017532755440399967,-0.008750244426362729,0.007944710592640895,0.9887998338029966
2011-10-25,1,0.0008286701651553756,0.0011022164116738678,-0.006924755191187896,0.007944710592640895,0.9892462121330016
2011-10-27,1,0.00152483641324627,0.0018755627303554852,-0.008750244426362729,0.006722183142331797,0.9899046885135265
2011-10-31,0,0.0,0.0,-0.006924755191187896,0.007944710592640895,0.9893120818547284
2011-11-02,0,0.0,0.0,-0.006879150248254367,0.00879291168581701,0.9881725964744735
2011-11-04,1,0.0005760261620300686,0.000761181315513074,-0.006879150248254367,0.012255475202182058,0.9876680153411805
2011-11-08,1,0.0015795645754682216,0.0019540902380688102,-0.006879150248254367,0.012255475202182058,0.9879969206547112
2011-11-10,1,0.0014808024125065739,0.001852976609045572,-0.006879150248254367,0.012176834406417718,0.9880243745326865
2011-11-14,1,0.0016614239113768759,0.002065140414524339,-0.008613429597562144,0.01151633165052701,0.9865209333627769
2011-11-16,1,0.001460603907264378,0.001801193339814379,-0.011864380133776466,0.015943068002970455,0.9846250728367955
2011-11-18,1,0.001429851719592312,0.0018033829244204027,-0.017235466504143065,0.016557792336918252,0.9831602760246775
2011-11-22,1,0.0023956763662479888,0.002939346970901407,-0.017235466504143065,0.0177858734623142,0.9824237940653769
2011-11-25,1,0.001867679727022912,0.0023440518329671143,-0.009760694996256382,0.0177858734623142,0.9833895920362873
2011-11-29,0,0.0,0.0,-0.010665421295631522,0.016557792336918252,0.98349037781748
2011-12-01,0,0.0,0.0,-0.010665421295631522,0.016557792336918252,0.9844403045871808
2011-12-05,1,0.002859621875677766,0.0034711104988527494,-0.010665421295631522,0.01915700394604973,0.9845222759941119
2011-12-07,0,0.0,0.0,-0.010665421295631522,0.01915700394604973,0.9840230055766552
2011-12-09,0,0.0,0.0,-0.005814585650855984,0.01915700394604973,0.9859305803440084
2011-12-13,0,0.0,0.0,-0.002656775626110804,0.01915700394604973,0.9877645615367143
2011-12-15,0,0.0,0.0,-0.002211071796528325,0.016513853607024877,0.9892200270158515
2011-12-19,0,0.0,0.0,-0.0016678778484198798,0.016513853607024877,0.9894282296696303
2011-12-21,0,0.0,0.0,-0.0027221333029192286,0.009234868513401615,0.9909644347198235
2011-12-23,1,0.0014452728925530628,0.001933490556144762,-0.0027221333029192286,0.010311663227948253,0.9909520358268167
2011-12-28,0,0.0,0.0,-0.002560106863854249,0.010311663227948253,0.9879950032351359
2011-12-30,0,0.0,0.0,-0.003736674247599642,0.009149367577141425,0.9885794237514449
2012-01-04,1,0.0020874157516418594,0.0022250960953258845,-0.00497573299501435,0.009149367577141425,0.987828460130227
2012-01-06,1,0.0026882852626698753,0.002964559991947451,-0.006272794456651151,0.009149367577141425,0.9872328654866882
2012-01-10,1,0.002818465144100833,0.0031165075765658247,-0.006272794456651151,0.009149367577141425,0.9870630457119063
2012-01-12,1,0.0020547653684723955,0.0021462919233488993,-0.007863755571131803,0.006573658317818737,0.9862927173039368
2012-01-17,1,0.002424785763786304,0.002594034458270745,-0.007863755571131803,0.006573658317818737,0.985671677341313
2012-01-19,1,0.0038948905286729295,0.004297168575843216,-0.007863755571131803,0.002420190933711176,0.9861837108036708
2012-01-23,1,0.0031586512351460894,0.003465145041573421,-0.005862073192500726,0.002420190933711176,0.9872691165341558
2012-01-25,1,0.003745680286001258,0.004176248157784773,-0.006631591778680528,0.0012431390954441243,0.9862109848677131
2012-01-27,1,0.0017916785769794344,0.0019535933914946006,-0.006631591778680528,0.002420190933711176,0.9883531231963213
2012-01-31,1,0.001384636491371316,0.0014724337493389516,-0.006631591778680528,0.003968165534263842,0.9881809516152689
2012-02-02,0,0.0,0.0,-0.006631591778680528,0.0012431390954441243,0.9902747918124788
2012-02-06,0,0.0,0.0,-0.008032771521746623,0.0009805215848647706,0.9904013132453067
2012-02-08,0,0.0,0.0,-0.008032771521746623,0.003843841512482836,0.9883578136189443
2012-02-10,0,0.0,0.0,-0.004249855931988891,0.011175083330063274,0.9880130098020693
2012-02-14,0,0.0,0.0,-0.006165019463276545,0.011175083330063274,0.9878843344037345
2012-02-16,1,0.0008611812755363841,0.0009206204033759232,-0.004255859607829831,0.011175083330063274,0.9878790570141155
2012-02-21,1,0.0008175172968239271,0.0008530378073645978,-0.008017754929025626,0.011175083330063274,0.9873609216631479
2012-02-23,1,1.9011510448957826e-06,0.00015415794430179445,-0.0039468924135095266,0.011175083330063274,0.9879028777290625
2012-02-27,-1,-0.0012612151361039356,-0.0008835400246023162,-0.0039468924135095266,0.011107881106738266,0.9889605129449038
2012-02-29,-1,-0.0008521384594028215,-0.000574153243065464,-0.0029571595869865375,0.011107881106738266,0.9894683615605412
2012-03-02,-1,-0.0009318390631116817,-0.0006668567804148215,-0.006207171211362014,0.011107881106738266,0.9884352390476527
2012-03-06,-1,-0.0012814961731485365,-0.0010078906720466874,-0.006207171211362014,0.011519826555907364,0.9882488010679346
2012-03-08,1,0.00018767219258985813,0.0002821093178359094,-0.006207171211362014,0.008474217258454025,0.9907429903255854
2012-03-12,1,0.0005991687714843098,0.0006628490229420751,-0.006957306013510334,0.0059887690459051405,0.9912490037946513
2012-03-14,1,0.0016570369818365302,0.001785245764785397,-0.006957306013510334,0.008474217258454025,0.9906633902350058
2012-03-16,1,0.0018377411173229204,0.00197961352479486,-0.009532590154998605,0.006923778793789219,0.9903026866692809
2012-03-20,1,0.0010734225076976763,0.0010785088407793849,-0.006957306013510334,0.011519826555907364,0.9902281301526545
2012-03-22,1,0.00151576381820892,0.0016125368490729837,-0.006957306013510334,0.013011801245828963,0.9893660424639162
2012-03-26,1,0.0011538016134552888,0.0011878664669174388,-0.006957306013510334,0.013011801245828963,0.9896583490681015
2012-03-28,1,0.0010807706282473365,0.001089882315764211,-0.006957306013510334,0.015947606130562217,0.9888872838127801
2012-03-30,1,0.00018790209767623428,0.00030418410022484176,-0.005672713706168021,0.01689385571448845,0.9886096375370585
2012-04-03,1,0.0006650365779718922,0.0007101920914654544,-0.0041437486079884175,0.01689385571448845,0.9882443342273827
2012-04-05,1,0.00032650326175519013,0.0004429620060621175,-0.00621485992627516,0.01689385571448845,0.9872146609115119
2012-04-10,-1,-0.00039341659780008456,-0.00019525308355875588,-0.0027340945351234285,0.01812491758264812,0.9870080918668633
2012-04-12,1,0.0009333726434242279,0.0009775052396179323,-0.011467043629786637,0.015637921359359222,0.9879603167883267
2012-04-16,1,0.00020983002441308444,0.0003761351607121353,-0.006522874740741775,0.01689385571448845,0.9871633910850561
2012-04-18,1,0.000711876251723275,0.0008006658792322699,-0.012712489526318538,0.01689385571448845,0.9866277079076524
2012-04-20,0,0.0,0.0,-0.016171384354535717,0.01545885391894658,0.9846607197026462
2012-04-24,0,0.0,0.0,-0.016171384354535717,0.01689385571448845,0.9837471509086092
2012-04-26,1,0.0017821000684735129,0.0018691058031543497,-0.016171384354535717,0.01719586326903914,0.984001171254687
2012-04-30,1,0.0020649538041478894,0.002228614214431438,-0.013330583135635201,0.016481130682997544,0.9850861703909011
2012-05-02,1,0.0031429072112381115,0.003450277690206966,-0.01633066991909958,0.015220609723599381,0.9847281982022146
2012-05-04,1,0.0022262682729772615,0.002383680497223309,-0.017139150511402,0.015220609723599381,0.982254182664319
2012-05-08,1,0.0019102898669028493,0.0019343668025468214,-0.017139150511402,0.015220609723599381,0.981353090010404
2012-05-10,1,0.000536688933464395,0.0006947346716726442,-0.017139150511402,0.015220609723599381,0.9818510012544726
2012-05-14,0,0.0,0.0,-0.01896842058205957,0.014646749860284174,0.9816778586753736
2012-05-16,0,0.0,0.0,-0.01896842058205957,0.0147836113397166,0.9811367702808022
2012-05-18,0,0.0,0.0,-0.010074347473305023,0.0166226441327244,0.9826858692742119
2012-05-22,0,0.0,0.0,-0.010074347473305023,0.0147836113397166,0.9841029053209059
2012-05-24,1,0.0023808429042022766,0.002590853794058065,-0.012906203874546444,0.01376515546261378,0.98471164719113
2012-05-29,1,0.0030845112205932623,0.003418935619365848,-0.012906203874546444,0.015132144962401662,0.9838329157417446
2012-05-31,1,0.0020697848656477938,0.002277628903835056,-0.011817583892634648,0.015132144962401662,0.9847713906344415
2012-06-04,-1,-0.0002100932057187365,-0.00012190828319095043,-0.0023010955234848336,0.015396382375341293,0.9868075269596958
2012-06-06,1,0.001161956367879434,0.0012614796624156343,-0.005789882425931074,0.014162178821171302,0.9881418534921705
2012-06-08,1,0.001790271268222142,0.00198556890926751,-0.008227647647419307,0.014162178821171302,0.988245145260413
2012-06-12,1,0.0017977893404796835,0.0020699997062197154,-0.008227647647419307,0.014162178821171302,0.9888487853663417
2012-06-14,1,0.0017021259549829617,0.0019131936705186086,-0.005700937700296449,0.014162178821171302,0.9899556749275487
2012-06-18,1,0.0021822474313465314,0.0024732681131199607,-0.003538650169623391,0.013553615219618006,0.9911123294241799
2012-06-20,1,0.0013819812719524567,0.0014590238374868948,-0.005700937700296449,0.013553615219618006,0.9862492239855326
2012-06-22,0,0.0,0.0,-0.005700937700296449,0.013553615219618006,0.9856617347543184
2012-06-26,0,0.0,0.0,-0.005700937700296449,0.012633836212687068,0.9855458587679298
2012-06-28,1,0.0027157745657728797,0.002949578495788047,-0.005700937700296449,0.014162178821171302,0.9840181372799
2012-07-02,1,0.0029363907402324848,0.0031851667089231005,-0.005910015895532932,0.013030034900676727,0.9839971333236531
2012-07-05,1,0.0026938176244237265,0.0028611250749679355,-0.005910015895532932,0.013986177684537127,0.9840271846978573
2012-07-09,1,0.002917888210362135,0.003160149525554906,-0.003608342901368885,0.014989195106288997,0.9840196065344411
2012-07-11,1,0.002185603651686179,0.0023058601235834883,-0.0016004376656133155,0.01838172912893326,0.9833725898646242
2012-07-13,1,0.0025479241811922574,0.0026952683609849887,-0.0028298238023287473,0.01717470755792367,0.983958332710162
2012-07-17,1,0.002071083912068061,0.0021120333486120578,-0.005186750314212015,0.01717470755792367,0.9834494951257873
2012-07-19,-1,-0.0031571320186380217,-0.0025639118935446084,-0.0023795364715422937,0.018068104835110007,0.9862692783874368
2012-07-23,-1,-0.003404448757805919,-0.002774265681518414,-0.0023795364715422937,0.017122951629016274,0.986304752470087
2012-07-25,-1,-0.004041272317935262,-0.0033250416612839962,-0.004037169170610675,0.017122951629016274,0.9875374389197713
2012-07-27,-1,-0.002559515857234013,-0.001966291704553989,-0.004037169170610675,0.014481283577885097,0.9897088261879112
2012-07-31,-1,-0.0018984295972705482,-0.0014642831428437995,-0.004056799264707009,0.014481283577885097,0.9893157074229126
2012-08-02,-1,-0.0004784249895367369,-0.00025620735964540053,-0.004246654068361891,0.008497426690767612,0.9905591176272434
2012-08-06,1,0.00023129755090338952,0.00034356767905677595,-0.004246654068361891,0.011309461960896182,0.9897688706788377
2012-08-08,1,0.0015283012549663025,0.001585367957652112,-0.004246654068361891,0.007361870159675914,0.9909138767962344
2012-08-10,1,0.0010193674823677388,0.0010628485198651448,-0.004472471175596946,0.007361870159675914,0.9908806953811848
2012-08-14,1,0.0007289668154929519,0.0007983871985253561,-0.003863835797822391,0.007361870159675914,0.9913171306766974
2012-08-16,1,0.0012796711314409254,0.0012959987929309783,-0.003863835797822391,0.00884442898232406,0.9907455541285276
2012-08-20,1,0.00019047015721982953,0.0003149945465694529,-0.004472471175596946,0.00884442898232406,0.9918730375934098
2012-08-22,-1,-0.0010015950441401317,-0.0006867935796022691,-0.004472471175596946,0.009236050459368456,0.9916066059656717
2012-08-24,1,4.516379948922133e-07,0.0001854515726018378,-0.004472471175596946,0.00884442898232406,0.9926300317457603
2012-08-28,0,-0.00016610361000424093,3.657699879890759e-05,-0.004472471175596946,0.00884442898232406,0.9920419026350905
2012-08-30,-1,-0.0007522568148594384,-0.00044133823130937475,-0.004844065778564633,0.00884442898232406,0.9919113695044823
2012-09-04,1,0.0013901800064932285,0.001412246193812339,-0.004844065778564633,0.0077880403381322795,0.9925437325286578
2012-09-06,1,0.001239942849362143,0.0012619827522280583,-0.004844065778564633,0.009074879424313634,0.9921237840885627
2012-09-10,1,0.0011415886258929178,0.0011608112362269181,-0.00496960421574405,0.009522353698119171,0.9917630457751223
2012-09-12,1,0.0013276457288166135,0.001362909391816355,-0.0068691080618622,0.009523972044240646,0.990971014708238
2012-09-14,1,0.0020234568609321423,0.0021055521083679233,-0.007549269418112379,0.00933715452334449,0.9917328110880379
2012-09-18,1,0.0018050986636479463,0.001915246137697562,-0.00496960421574405,0.009523972044240646,0.9919194167542856
2012-09-20,1,0.0017791799502071457,0.0018809441404243656,-0.002889436158037777,0.009523972044240646,0.9909902752021867
2012-09-24,1,0.002226080084389055,0.0024694914463675548,-0.004522314879680152,0.009523972044240646,0.9907760337104222
2012-09-26,1,0.001061665429153375,0.0011075205331964521,-0.002698317259516452,0.009523972044240646,0.9919481271771151
2012-09-28,1,0.001490649913555458,0.0016317669314747777,-0.0024302884070515098,0.009523972044240646,0.9921662852432793
2012-10-02,1,0.0011370663900757616,0.0011671365723674952,-0.0024302884070515098,0.00985396701375394,0.9919408070155599
2012-10-04,1,0.002419099089673947,0.002681568543784902,-0.003718228322285324,0.007478313332793132,0.9918142865894043
2012-10-08,1,0.0022867175849945946,0.002527338761494558,-0.0024302884070515098,0.004826494439319163,0.9925420785280964
2012-10-10,1,0.000851961557506364,0.0009214424680658481,-0.0024302884070515098,0.0030276102212080775,0.9924799257922104
2012-10-12,1,0.0011294248869217413,0.0011519688101094844,-0.003718228322285324,0.0030276102212080775,0.9914162873275298
2012-10-16,1,0.0021372234020208647,0.002361933724515853,-0.006019752848263498,0.002043495245997447,0.9908067116396841
2012-10-18,1,0.0035907554181719625,0.004033417740589115,-0.006019752848263498,0.0030276102212080775,0.9905265524964716
2012-10-22,1,0.0025587926974442753,0.002778119198099794,-0.004876075740645507,0.005526968676247197,0.9908330743742099
2012-10-24,1,0.0009518754587051697,0.0010918724608547144,-0.010380592053307356,0.007277778554715267,0.989867731773066
2012-10-26,1,0.001629704283096302,0.0016403721771912681,-0.010380592053307356,0.007277778554715267,0.9897960025367561
2012-11-01,1,0.0023866222349929606,0.002526234933996537,-0.010380592053307356,0.006867381027681294,0.9901575745022945
2012-11-05,1,0.0015617428344792633,0.0015823123797533117,-0.010367771517686697,0.007303283381223956,0.9895702800376234
2012-11-07,1,0.0017498641145831774,0.0017715428133579154,-0.013004021296335303,0.007303283381223956,0.9881338197945028
2012-11-09,1,0.0007545738366531005,0.0008332055464492868,-0.010367771517686697,0.009025007026193826,0.9888626921745733
2012-11-13,-1,-0.0004938055386378804,-0.00027304978556156494,-0.003494938629304034,0.011241212956657448,0.9887621023584634
2012-11-15,-1,-0.0013414794737874685,-0.0010301496432409052,-0.004667229420417301,0.011241212956657448,0.9890333091144504
2012-11-19,1,0.00023429600426377227,0.00034082213513244924,-0.004667229420417301,0.014200531603249715,0.9888347839826445
2012-11-21,1,0.0014824389571093607,0.001576456603179685,-0.006226359936242258,0.011241212956657448,0.9892603522035319
2012-11-26,1,0.0016754255546455419,0.0018238118468279687,-0.006226359936242258,0.009940726404791097,0.9896032232501668
2012-11-28,1,0.0016063986270216848,0.0017619186373879912,-0.007846867191149425,0.009940726404791097,0.9892219031925109
2012-11-30,1,0.0017968377429079412,0.0019700739963751787,-0.010373719135290426,0.009940726404791097,0.9885822394096787
2012-12-04,1,0.00186832567470012,0.002028025818855638,-0.007846867191149425,0.010625168881503805,0.9890306081076724
2012-12-06,1,0.0012333070526714986,0.0013490833381048766,-0.004326179128076986,0.01150597031200896,0.9896010835098271
2012-12-10,1,0.0018202862508573626,0.002010553259503653,-0.004326179128076986,0.01150597031200896,0.9899003357334522
2012-12-12,1,0.0005942154324525138,0.0008365499897174893,-0.006823716314128479,0.009266990569420732,0.9904761877537485
2012-12-14,-1,-0.0006078596475437182,-0.00024047715349247156,-0.003733683632005114,0.010691070438717896,0.9903337526097015
2012-12-18,1,0.0006153877336222,0.0008723596923996807,-0.005356787379609946,0.00807435905907216,0.9920732971104036
2012-12-20,1,0.001789270420685277,0.0018023119370001298,-0.005930449743685585,0.007455078245153997,0.9920822718751565
2012-12-24,1,0.0003572349529630677,0.0005738444264918289,-0.003557509543907781,0.010691070438717896,0.9915171819077371
2012-12-27,1,0.0007260102173682234,0.0008509719406279081,-0.003557509543907781,0.01150597031200896,0.9901621177721558
2012-12-31,0,0.0,0.0,-0.0018752621993879902,0.01150597031200896,0.9898687629945301
2013-01-03,0,0.0,0.0,-0.005502506847848684,0.009459073647349329,0.990558555152035
2013-01-07,0,0.0,0.0,-0.006896130412693797,0.008173920577704387,0.9906673671693303
2013-01-09,0,0.0,0.0,-0.007053635544163332,0.0077568181602465855,0.9910602137516964
2013-01-11,0,0.0,0.0,-0.006520689227346741,0.0077568181602465855,0.9912712386049772
2013-01-15,0,0.0,0.0,-0.006520689227346741,0.0077568181602465855,0.9905904403164077
2013-01-17,0,0.0,0.0,-0.007053635544163332,0.009103626072287842,0.9902094522986534
2013-01-22,1,0.0015864294988843551,0.0016108923570809122,-0.008758083188939045,0.009103626072287842,0.9878502713388613
2013-01-24,1,0.0023974342326831813,0.0024428579928675235,-0.008758083188939045,0.0077568181602465855,0.9884613040084751
2013-01-28,1,0.0030979271519058554,0.003263361466915951,-0.008934614442097056,0.0077568181602465855,0.9888006489643797
2013-01-30,1,0.004228436046523537,0.004600581862085949,-0.011264253466907813,0.0073919103958411045,0.987264575403695
2013-02-01,1,0.003308337115749204,0.00356670025543431,-0.009438581867177557,0.00919113009491682,0.9882835109633498
2013-02-05,1,0.002941322734995331,0.0031026167751065387,-0.0070901600796589494,0.010966931355350477,0.9883758981182529
2013-02-07,1,0.002235080537121512,0.002301205633660434,-0.0037954162598731345,0.010966931355350477,0.9886984325058762
2013-02-11,1,0.002939799982161564,0.003164396941752412,-0.00707411345676912,0.010966931355350477,0.9886568045756258
2013-02-13,1,0.0033364151110903024,0.0035642415535830736,-0.00707411345676912,0.009459775219284025,0.9890039580408164
2013-02-15,1,0.0030997492136173913,0.003307508517078035,-0.0042638355260379195,0.009459775219284025,0.9896314700201396
2013-02-20,1,0.0005953918194598329,0.0007230075375011147,-0.0004948096083236007,0.011516803818735535,0.991158347189717
2013-02-22,1,0.0007782736656288939,0.0009295524830475162,-0.0014046374182569595,0.009459775219284025,0.9903569863940771
2013-02-26,1,0.0008201798294046967,0.0009708728580743895,-0.0004948096083236007,0.007929933893617399,0.991653662745782
2013-02-28,1,0.0010860070426448904,0.0011838193351265528,-0.00017697006127998904,0.007733002382365359,0.9931019078126273
2013-03-04,1,0.0021021560679042412,0.002160966123838675,-0.0014046374182569595,0.006695145842009958,0.992929785914109
2013-03-06,1,0.002346731636728164,0.0024409209208835934,-0.0042638355260379195,0.006695145842009958,0.9920060184384224
2013-03-08,1,0.00228238254683202,0.002356914741060802,-0.0042638355260379195,0.00755482349145011,0.9913655088079725
2013-03-12,1,0.0016887477140652377,0.0017090031250365679,-0.008130946076401468,0.00755482349145011,0.9903950338010683
2013-03-14,1,0.0018670316798091253,0.001893828443247303,-0.009177585648687548,0.006695145842009958,0.9895152194053856
2013-03-18,1,0.002552422815166133,0.0027406271126198863,-0.010788465054132907,0.00755482349145011,0.9876095433660257
2013-03-20,1,0.003472630880757471,0.003737359741251857,-0.013272345071933644,0.006695145842009958,0.9875732655782192
2013-03-22,1,0.0017242914810231406,0.001844783151605067,-0.013272345071933644,0.00755482349145011,0.9877318849732653
2013-03-26,1,0.002435992460859758,0.0026364244945206693,-0.01330044083983975,0.00795422168040177,0.986483769278467
2013-03-28,1,0.0028935080353479047,0.00318565215636593,-0.01330044083983975,0.010274599892793999,0.985639789546272
2013-04-02,1,0.0022498031375517468,0.0024139039527387896,-0.01330044083983975,0.010728762501250185,0.9861305881305947
2013-04-04,1,0.0013941259596128132,0.0014423564651593682,-0.013211015853681648,0.010728762501250185,0.9866645304133695
2013-04-08,1,0.001430510208618922,0.0014444272782741514,-0.013211015853681648,0.010274599892793999,0.9870823359356861
2013-04-10,-1,-0.0005470629721491158,-0.00025361448447700744,-0.013211015853681648,0.010274599892793999,0.9879235742962296
2013-04-12,-1,-0.0018297654013969948,-0.0013349693742686155,-0.012923170307380992,0.010274599892793999,0.9889169219599971
2013-04-16,-1,-0.0004244135829099793,-0.00017400268213633725,-0.009515649138307977,0.00853201268733528,0.9905879429044261
2013-04-18,-1,-0.0013920992023354934,-0.0010617054778381176,-0.008542501057379154,0.010274599892793999,0.9904070434941792
2013-04-22,0,-4.476737771954534e-06,0.0001666172481281247,-0.0067903560952880405,0.008605467486854321,0.9916161777580664
2013-04-24,0,-6.303815857153401e-05,0.00013297624099939777,-0.00495701250667227,0.007575641184428637,0.993116635728516
2013-04-26,1,0.0009639893843461859,0.0010209630515828807,-0.0067903560952880405,0.0030254302540321703,0.9937618490597436
2013-04-30,1,0.0012593209009508406,0.0012827645799837492,-0.008451043104888733,0.0030254302540321703,0.9926707958694131
2013-05-02,1,4.252195129876655e-05,0.0002526409252803281,-0.0067903560952880405,0.001715848193749293,0.9938291581046047
2013-05-06,0,-6.303218710790781e-05,0.0001343929362933276,-0.008451043104888733,0.001715848193749293,0.9931571721758257
2013-05-08,-1,-0.00028642796794101034,-0.00012659904459700282,-0.008451043104888733,0.0030254302540321703,0.9921189782883779
2013-05-10,-1,-0.0010006114557654417,-0.0007144842484456295,-0.00874683887022573,0.0030254302540321703,0.9915755259073513
2013-05-14,-1,-0.00042188567507401615,-0.0002979196605204219,-0.013685840999148761,0.0030254302540321703,0.9905669659294624
2013-05-16,-1,-0.000304398373485337,-0.00017401545001237396,-0.013685840999148761,0.004874839116004961,0.9903580650327882
2013-05-20,-1,-0.0009742626451406788,-0.0007327169598098995,-0.013685840999148761,0.007833764310370799,0.9896175226233719
2013-05-22,-1,-0.001470582173685655,-0.0011599683027597118,-0.015025964135723172,0.007833764310370799,0.9874964879839624
2013-05-24,-1,-0.002859989672754651,-0.0023811991326202287,-0.017183342746248456,0.007833764310370799,0.9868185495002862
2013-05-29,-1,-0.0021519886839536304,-0.0017878316158255756,-0.015025964135723172,0.004765718949240401,0.9880572765666193
2013-05-31,-1,-0.0022204364207561037,-0.0019043143930358897,-0.015025964135723172,0.007833764310370799,0.9864601216461618
2013-06-04,-1,-0.002632714791938876,-0.0022848947278484885,-0.014067989960521707,0.011492696525125252,0.9864395532122868
2013-06-06,-1,-0.002258590124963686,-0.0019342485678230954,-0.01444454877475678,0.007833764310370799,0.9874581504322153
2013-06-10,-1,-0.00257129381519579,-0.002198006236739659,-0.014067989960521707,0.008836228823940083,0.9877737110984296
2013-06-12,-1,-0.0038367202345318168,-0.003315015636036505,-0.007697652349438079,0.014500090065833107,0.9865379000540774
2013-06-14,-1,-0.003090455060841166,-0.0026608737590020537,-0.009856520718090914,0.006589688438480198,0.9874761708907958
2013-06-18,-1,-0.0014325675102144783,-0.0012515877830312143,-0.01349823376835696,0.0038637295836933217,0.9873287432017361
2013-06-20,-1,-0.0022449631205370703,-0.002026031045016187,-0.007697652349438079,0.0038637295836933217,0.9895313026032638
2013-06-24,-1,-0.002252004448255501,-0.002050895077987307,-0.007697652349438079,0.012598707557228297,0.9891377232892482
2013-06-26,-1,-0.003569618912374171,-0.0032069941830937697,-0.00981605488772309,0.012598707557228297,0.98816088296977
2013-06-28,-1,-0.0031466445518101476,-0.0028050610274122085,-0.009434721772599117,0.0038637295836933217,0.9894865328646889
2013-07-02,-1,-0.0029614869347241164,-0.0026272913342399585,-0.009434721772599117,0.0038637295836933217,0.9886933746278932
2013-07-05,-1,-0.0033393161090140796,-0.002964386975304393,-0.007282403645933284,0.010421354155988173,0.9884617462900094
2013-07-09,-1,-0.0024750705119640903,-0.0022530037275691663,-0.01349823376835696,0.006683732826502078,0.9875021429390257
2013-07-11,-1,-0.00093762029153276,-0.000909328644635801,-0.01447004259353149,0.006683732826502078,0.9878395763285973
2013-07-15,-1,-0.0027418231211956768,-0.0024053302703621986,-0.014348645102428023,0.006683732826502078,0.9883841010955191
2013-07-17,-1,-0.0022205053282914147,-0.0020006531891259443,-0.01892370180941907,0.005537532775389844,0.9878324391514642
2013-07-19,-1,-0.00228541797757884,-0.002046642364663961,-0.01892370180941907,0.006683732826502078,0.9862434045681342
2013-07-23,-1,-0.0021106816844630666,-0.0019140482620028925,-0.019435488001460915,0.006683732826502078,0.9846762418392214
2013-07-25,-1,-0.00278904736966578,-0.002545617369747763,-0.01760096248801202,0.010911910158448319,0.9850232134899776
2013-07-29,-1,-0.0031206494937581876,-0.0028711873368900197,-0.019435488001460915,0.010911910158448319,0.9838211293535492
2013-07-31,-1,-0.0014393493158266512,-0.001401255328167478,-0.019895735900789156,0.006683732826502078,0.9843857399315376
2013-08-02,-1,-0.0012926323957743783,-0.001254607989237566,-0.019895735900789156,0.00581263474716571,0.9848490495873558
2013-08-06,-1,-0.0026938710035777393,-0.0025008939711326453,-0.019435488001460915,0.00581263474716571,0.9859099318564668
2013-08-08,-1,-0.002477331833159054,-0.0023142087881012864,-0.0185501034205529,0.00581263474716571,0.9859922774327103
2013-08-12,-1,-0.0019122283373625894,-0.001891135939841311,-0.0185501034205529,0.00936849077216631,0.9846161888610412
2013-08-14,-1,-0.003300256578620235,-0.003068806399768129,-0.00879564202246944,0.01712230933746292,0.9845289386731838
2013-08-16,-1,-0.0023291926466072095,-0.002223034083365622,-0.007425961312983486,0.014674436730523922,0.9854822267310696
2013-08-20,-1,-0.0009407281777076051,-0.0008523610842302763,-0.005844304159627426,0.014674436730523922,0.9868603440067364
2013-08-22,-1,-0.000588546589812248,-0.0004828837831297874,-0.007425961312983486,0.013669125561137543,0.9871300944830659
2013-08-26,-1,-0.0018261334370744315,-0.0017351377905375695,-0.005844304159627426,0.013669125561137543,0.9882575806485194
2013-08-28,-1,-0.0022639450950216033,-0.002186676888273578,-0.0038631836205521687,0.013669125561137543,0.9890797803536672
2013-08-30,-1,-0.0026425403962871746,-0.0024728900024221516,-0.007311260609295773,0.013669125561137543,0.9889575068230398
2013-09-04,-1,-0.003652284039764944,-0.0033098503376611512,-0.005844304159627426,0.013669125561137543,0.9887813602503984
2013-09-06,-1,-0.001980888846093736,-0.0018718887275843785,-0.005844304159627426,0.010000583032733804,0.9898520371825595
2013-09-10,-1,-0.002252780271549927,-0.002056526061994965,-0.006140657719056966,0.008039950290899229,0.9910937341003735
2013-09-12,1,3.20419103513773e-05,0.00017627857946884453,-0.008353392471883133,0.004671710099236336,0.9912585118788338
2013-09-16,-1,-0.0009988394920890514,-0.0009866141068858886,-0.008353392471883133,0.004671710099236336,0.9914253962410541
2013-09-18,1,0.0018818635655776686,0.002318328656892151,-0.0092006067095447,0.004671710099236336,0.9915849005505655
2013-09-20,1,0.001556513349386213,0.0019683278525231573,-0.008353392471883133,0.008039950290899229,0.9911953407398165
2013-09-24,1,0.0016492153683911382,0.0020655734573836034,-0.009354347884402736,0.009502469496778673,0.9884387934316227
2013-09-26,1,0.0019429036644052575,0.002377652654022508,-0.009354347884402736,0.011870558326047765,0.9872765048942186
2013-09-30,1,0.0012877810881790892,0.0016081180948148174,-0.007166934196009956,0.011870558326047765,0.9876388032613592
2013-10-02,1,0.002017295186736852,0.002430921088209698,-0.01166967925622106,0.01275766198975684,0.9862891985342351
2013-10-04,1,0.001255395187621862,0.0015773008623564178,-0.007166934196009956,0.01275766198975684,0.9869234848265085
2013-10-08,1,0.0010684648022679746,0.0014047513106447266,-0.004462631523182305,0.01275766198975684,0.9870194803502761
2013-10-10,1,0.001097918725512165,0.0014157932418199233,-0.004462631523182305,0.01275766198975684,0.9876257312910971
2013-10-14,1,0.0018591739957405052,0.002294663442950144,-0.006306888455365546,0.011761808029979942,0.9879304304221658
2013-10-16,1,0.0018953777143064523,0.002354037934960924,-0.004462631523182305,0.009088510532447096,0.9892334476699896
2013-10-18,1,0.0025790497449049614,0.003077867350702142,-0.004462631523182305,0.008450684841391004,0.9897530009416958
2013-10-22,1,0.0012879759460598088,0.0016319362560285322,-0.002663780589764531,0.007868358780506839,0.9925655097455475
2013-10-24,1,0.0023849369240710426,0.002813352251132927,-0.002663780589764531,0.008450684841391004,0.9929543422141841
2013-10-28,1,0.0022623058215582815,0.0027221398962249573,-0.0007913496814075051,0.008450684841391004,0.9934073473320272
2013-10-30,1,0.0016770975471030432,0.0019989062512815953,0.00030460375962623536,0.008450684841391004,0.9949072743998864
2013-11-01,1,0.001275846699336628,0.0015137681599970373,-0.0007913496814075051,0.008450684841391004,0.9937032705952087
2013-11-05,1,0.0022879127123152606,0.0027303152958999656,-0.0028383679441661026,0.007868358780506839,0.9937048727382541
2013-11-07,1,0.002672095891926414,0.003210448501498076,-0.0011913046842024144,0.008953074060718779,0.9938506706944683
2013-11-11,1,0.0013799376008355253,0.0016334671556283275,-0.0011913046842024144,0.008953074060718779,0.9933630858895063
2013-11-13,1,0.0009753386180891861,0.0011293936972804563,-0.0028383679441661026,0.008953074060718779,0.9923860137356249
2013-11-15,1,0.0013392664502752953,0.0015052769622198228,-0.0062835230521495365,0.009321440092326194,0.992317378060902
2013-11-19,1,0.002137674626769459,0.002452175359904559,-0.0062835230521495365,0.010247513884157152,0.9913435180245233
2013-11-21,1,0.00349410625041399,0.004002750124946443,-0.0062835230521495365,0.008944265996737715,0.9918074292174791
2013-11-25,1,0.0034647585941413933,0.003933745638830902,-0.0062835230521495365,0.009321440092326194,0.9910870618543413
2013-11-27,1,0.004173283198043467,0.004768547106166568,-0.0062835230521495365,0.009182827086349783,0.9911332079884966
2013-12-02,1,0.0031696234926389608,0.0036739554458318086,-0.0062835230521495365,0.009182827086349783,0.9917012110963832
2013-12-04,1,0.0023510279156243796,0.002685411962175633,-0.006364006735160909,0.009182827086349783,0.9915993454032449
2013-12-06,1,0.003254221490460191,0.0037200283541794768,-0.006771441499374471,0.008254389369137517,0.991599203947469
2013-12-10,1,0.002968751474172196,0.0033515562608670835,-0.006364006735160909,0.008254389369137517,0.9919466578667491
2013-12-12,1,0.002712040239989371,0.0031272231269687126,-0.006364006735160909,0.008254389369137517,0.991807985459533
2013-12-16,1,0.002222310461922349,0.0024950191673939037,-0.0051852393987066835,0.008254389369137517,0.9918678433906813
2013-12-18,1,0.0027510684517563465,0.0030363747419543466,-0.0051852393987066835,0.0062788892270458216,0.9928096062678247
2013-12-20,1,0.0039393770985189595,0.004495865464615113,-0.0051852393987066835,0.0062788892270458216,0.9930272351421453
2013-12-24,1,0.004726404291011024,0.005390824360815654,-0.006771441499374471,0.006050468251903413,0.9925220055763341
2013-12-27,1,0.004070113808228826,0.0045379656146065876,-0.006771441499374471,0.006050468251903413,0.9884567158285151
2013-12-31,1,0.0036965724365199595,0.004050079620769283,-0.004884905023656849,0.006384890595990806,0.9892394149313315
2014-01-03,1,0.0030568756451467777,0.0033204790579013884,-0.004884905023656849,0.007677394417363523,0.9878170551211726
2014-01-07,1,0.0021512085484096492,0.0021619527116167577,-0.004121468056016598,0.010544705679704542,0.9874429876904554
2014-01-09,1,0.0023647938226289042,0.0024577414504551543,-0.0025427502614068765,0.010776257730822539,0.9874340055299679
2014-01-13,1,0.0017797437502665295,0.001821452896746565,-0.0027182668152361403,0.010776257730822539,0.9871008209906426
2014-01-15,1,0.0025248698934345285,0.002702271168868649,-0.005483950196172094,0.011322053844223214,0.9869040669072048
2014-01-17,1,0.0018772955578615974,0.001877836173180871,-0.006134906174736511,0.011322053844223214,0.986196661344944
2014-01-22,1,0.0015101692716140036,0.0016134492360070892,-0.008282716017086758,0.011322053844223214,0.9859537107054619
2014-01-24,1,0.0006521797710812078,0.0008382721408497954,-0.007546716412475694,0.011322053844223214,0.9860473349370878
2014-01-28,1,0.00397902705206649,0.004151819907559895,-0.007546716412475694,0.008716643373691522,0.9899091212631084
2014-01-30,1,0.0038824745508303058,0.0040765364580711925,-0.007546716412475694,0.008716643373691522,0.990054877807448
2014-02-03,1,0.00456520346896125,0.004878747765292728,-0.006134906174736511,0.008716643373691522,0.9914753000609675
2014-02-05,1,0.00587073041285044,0.006415715523438263,-0.007546716412475694,0.007879642144900353,0.9906857103675534
2014-02-07,1,0.006206849493900947,0.006808472302044745,-0.008616921720965806,0.006902211763581973,0.9891629748668329
2014-02-11,1,0.005755222443927173,0.006399960375081329,-0.006747017896815072,0.007879642144900353,0.990867672419591
2014-02-13,1,0.005878853315418556,0.006493798707956416,-0.008616921720965806,0.007879642144900353,0.9908790402893943
2014-02-18,1,0.0053286991316925094,0.005868884964861876,-0.008648702600467894,0.007599698511454922,0.9910430014408322
2014-02-20,1,0.004862922145088697,0.005319170861486449,-0.006747017896815072,0.007599698511454922,0.9912423682646369
2014-02-24,1,0.004279285351674714,0.004621461198158186,-0.00762164682795727,0.006860032842743863,0.9909157880366466
2014-02-26,1,0.005440137634603028,0.005945004626481572,-0.011433640522018925,0.00618740782208347,0.9902466056691892
2014-02-28,1,0.004902887283060304,0.0052809882943904325,-0.011433640522018925,0.006691718703897277,0.9904143140332119
2014-03-04,1,0.005301679344500179,0.005698082644517228,-0.011433640522018925,0.004892859087131987,0.9906825498642974
2014-03-06,1,0.003901335215740852,0.004102060665992252,-0.008815015642707116,0.0062515892658611995,0.9916147198836539
2014-03-10,1,0.00314894569138107,0.003254916882724425,-0.005958760931762651,0.0062515892658611995,0.9928527371757203
2014-03-12,1,0.0035043170692932455,0.0036223409256204305,-0.007666037908732191,0.0031099149386232348,0.9925347907044262
2014-03-14,1,0.003172608158676234,0.003347240755059591,-0.005860704153572834,0.0019554534775861167,0.9930060096220322
2014-03-18,1,0.002367526332851317,0.002393039148368166,-0.005541562478594308,0.0010382728292336082,0.9936012282436733
2014-03-20,1,0.0024850001729490416,0.002549464465488071,-0.006610556105606798,0.0010382728292336082,0.9930108078472699
2014-03-24,1,0.001339489135637644,0.001416175840074423,-0.007666037908732191,0.0007546493072665242,0.9912906565967265
2014-03-26,1,0.00014901204857515813,0.0004041381411005625,-0.006610556105606798,0.0010382728292336082,0.9908210773377324
2014-03-28,1,0.00010325725990940188,0.0003619098482604041,-0.006610556105606798,0.0017942102421990712,0.9909962415241984
2014-04-01,1,0.0003244888816357393,0.0005470678088794205,-0.006610556105606798,0.001106257728145844,0.9906653401251044
2014-04-03,1,0.0003436270400244309,0.0005619940861291381,-0.006610556105606798,0.002149251717077492,0.9904113106911752
2014-04-07,0,-6.979607431975305e-05,0.00020371665302722664,-0.008211865174686087,0.002149251717077492,0.9895271168288725
2014-04-09,-1,-0.0005553247312667861,-0.00021370551486887682,-0.007378543185452761,0.003443375541385848,0.9896352034771126
2014-04-11,-1,-0.0007393576064138407,-0.0003967397271981254,-0.007378543185452761,0.006279940752985321,0.9892436581357168
2014-04-15,-1,-0.001142400023403066,-0.0007616687359541404,-0.008688078245388184,0.006279940752985321,0.9891560217628775
2014-04-17,-1,-0.0013505170944867694,-0.0009868492746253218,-0.0068933968315430805,0.007691247580023267,0.9890738188708829
2014-04-22,-1,-0.003824391379665478,-0.0031693454832903783,-0.004560056060342763,0.007691247580023267,0.9917031920657682
2014-04-24,-1,-0.0027910606233795803,-0.002276155484147918,-0.004560056060342763,0.007691247580023267,0.9923839026873749
2014-04-28,-1,-0.0033815835217167697,-0.002743081044019509,-0.004560056060342763,0.009784492118163117,0.9918540263086251
2014-04-30,-1,-0.003598595303540095,-0.0029147986024242165,-0.004560056060342763,0.011893242158562778,0.9914474537607719
2014-05-02,-1,-0.0022420419217863852,-0.0017499169841829901,-0.005485992405722291,0.007434420088748235,0.9923584731748958
2014-05-06,-1,-0.0032194571071518883,-0.0026039348569145047,-0.0037090551515763575,0.007434420088748235,0.9927002668210398
2014-05-08,-1,-0.0036174649124137113,-0.0029245728891441683,-0.0034316903496957006,0.011893242158562778,0.9918711476918901
2014-05-12,-1,-0.003186957280518092,-0.002543724560018069,-0.0034316903496957006,0.00764624121979085,0.9925048941860375
2014-05-14,-1,-0.0031169174307706105,-0.002534100714460563,-0.003632458827136027,0.00764624121979085,0.9920273971253478
2014-05-16,-1,-0.0026035968087293766,-0.002087917879931965,-0.003971435616094628,0.00590716871456079,0.9926394446588612
2014-05-20,-1,-0.002373445964678861,-0.0019338598608256707,-0.002638879931440639,0.007954739490039981,0.9919656798138705
2014-05-22,-1,-0.002002545032673599,-0.0016293903674412557,-0.002638879931440639,0.00590716871456079,0.9933631227981347
2014-05-27,-1,-0.0018108038628076558,-0.0014337832410765841,-0.002638879931440639,0.00590716871456079,0.9933322341126082
2014-05-29,-1,-0.0016582128494877551,-0.0012816175495505057,-0.003762423630936893,0.005676756720768382,0.993815990270166
2014-06-02,-1,-0.0022592345921016955,-0.001800353700804397,-0.00358304920253686,0.005676756720768382,0.9940910639876203
2014-06-04,-1,-0.0023320527950335505,-0.0018625987766329516,-0.003762423630936893,0.00590716871456079,0.9932803106483244
2014-06-06,-1,-0.0021869861824252747,-0.0017031446642688068,-0.00440191056459854,0.00590716871456079,0.9934941850313573
2014-06-10,-1,-0.0017014458779982115,-0.0013058561458210761,-0.005938510143431685,0.005676756720768382,0.993433179876108
2014-06-12,-1,-0.0027277633084052417,-0.002201579426169128,-0.004715816745030931,0.005676756720768382,0.9937236610541882
2014-06-16,-1,-0.002549987328097519,-0.0020588417184925615,-0.0074761933711221425,0.004170312122032476,0.9936243585052872
2014-06-18,-1,-0.0025696033695027597,-0.0020423785869565655,-0.009045948952590858,0.003784112228521363,0.9931548028463859
2014-06-20,-1,-0.00046382742202299017,-0.0003651055246975457,-0.009206231128034257,0.004479266983548485,0.9897349389007651
2014-06-24,1,0.00023231461012522707,0.00024042918440390874,-0.009206231128034257,0.0046901219807556575,0.9887134514887441
2014-06-26,1,0.00022275982404387903,0.00024219532735764588,-0.009896936114413448,0.0046901219807556575,0.9871650314670523
2014-06-30,1,0.0009618023411669065,0.0011364078997562314,-0.009896936114413448,0.006639970934325462,0.9869487958873027
2014-07-02,1,0.0012603807194960634,0.0015051156772411002,-0.009381511714834244,0.0046901219807556575,0.9873895939209235
2014-07-07,1,0.0007190484836616235,0.0008478143449082572,-0.00912374318285336,0.004848806262170607,0.9879186477873447
2014-07-09,1,0.0006436481223168967,0.0007832361535825314,-0.00912374318285336,0.004848806262170607,0.9880778581004392
2014-07-11,1,9.792491540311664e-05,0.00016173973343672402,-0.00904688813688241,0.007376607298988266,0.9881968895781195
2014-07-15,-1,-0.0005699895436371847,-0.0005350418200040144,-0.00912374318285336,0.007376607298988266,0.987858156418728
2014-07-17,-1,-0.001182993004338423,-0.0010771258017281313,-0.007228450154322047,0.009191610539084774,0.988199240471712
2014-07-21,1,0.0009319293214831771,0.0011430516898996907,-0.006529325420087639,0.009191610539084774,0.9905440272834205
2014-07-23,1,0.0021791251342729713,0.0025628257321766825,-0.006529325420087639,0.007376607298988266,0.9912198364359758
2014-07-25,1,0.0013327635582451648,0.0016545442968394428,-0.0037738423286132828,0.007376607298988266,0.9928919453741137
2014-07-29,1,0.001398335320984788,0.001691646453072359,-0.004296325771890706,0.008901302641756943,0.9925092471201187
2014-07-31,1,0.0008750169836829604,0.0010603941089350213,-0.00371459919929509,0.008901302641756943,0.9926501261305543
2014-08-04,1,0.0015114374664872703,0.0018157632476216152,-0.004296325771890706,0.0062422078314477766,0.9924212404426037
2014-08-06,1,0.001382283144644829,0.0016616176319869452,-0.004802933091058322,0.0062422078314477766,0.9918334208804783
2014-08-08,1,0.0016560722257772682,0.0019614812205521843,-0.004802933091058322,0.004940649866248129,0.9920636559364661
2014-08-12,1,0.0009126628484620058,0.0011100140039822814,-0.003431686417387586,0.004940649866248129,0.9932152443690921
2014-08-14,1,0.0012280491849110042,0.0014385420391434625,-0.00371459919929509,0.001372285887484205,0.9929663897691082
2014-08-18,1,0.0013476521073852753,0.001535858489491313,-0.003431686417387586,0.0011956226232634252,0.9942151826991884
2014-08-20,1,0.001990515340493106,0.002274374697048091,-0.003431686417387586,0.0011956226232634252,0.9942229111260514
2014-08-22,1,0.0018666874750787885,0.0021448312705866727,-0.004137905064968572,0.0011956226232634252,0.993737932693629
2014-08-26,1,0.002232250743467347,0.0025790995841710263,-0.004289455595304345,9.932208601086412e-05,0.9937428022785582
2014-08-28,1,0.0020186745723047334,0.002337806924958556,-0.004289455595304345,0.0011956226232634252,0.9942419054128887
2014-09-02,1,0.0016416665247600249,0.0018965509501987494,-0.005200070491834983,0.0011956226232634252,0.9940103151079945
2014-09-04,1,0.0010092406584489367,0.0011656318062980946,-0.005200070491834983,0.0026065414191756126,0.9942345253428141
2014-09-08,1,0.0009830037801449132,0.0011166116072158032,-0.005200070491834983,0.00411117264192306,0.9938478189433435
2014-09-10,1,0.0005476725427849475,0.0005931115710291929,-0.005200070491834983,0.006182477650939298,0.9934927883425928
2014-09-12,-1,-0.0006388970784254711,-0.00042597292529728524,-0.0071576718607964905,0.00411117264192306,0.9929322251475802
2014-09-16,-1,-0.00016282082741494563,-4.124269084380494e-05,-0.00883806237719877,0.006182477650939298,0.9895193720538472
2014-09-18,1,0.0002676645887034493,0.00033075928897388976,-0.00883806237719877,0.006172336588409422,0.9898182047069752
2014-09-22,-1,-0.00036449384609001524,-0.00023006396933544836,-0.0071576718607964905,0.007469706979325926,0.9875576942964313
2014-09-24,-1,-5.74214447135102e-05,-4.160191303237399e-06,-0.0071576718607964905,0.008435613683998857,0.9871017112069167
2014-09-26,-1,-0.00044107461684655085,-0.00030583011309286807,-0.0071576718607964905,0.008435613683998857,0.9869555801736564
2014-09-30,-1,-0.001049819207083511,-0.0008476496794983023,-0.0017886265598843964,0.013291659955247833,0.9857452970928825
2014-10-02,-1,-0.0009621150463936576,-0.0007937452738905136,-0.0017886265598843964,0.013291659955247833,0.9859664317164945
2014-10-06,-1,-0.0006608318450227786,-0.0005044628628837371,-0.001866700175581161,0.013291659955247833,0.9868459211098237
2014-10-08,1,8.741989018340828e-05,0.0001350921613358011,-0.004492705150225131,0.009014069624791473,0.9874350556661814
2014-10-10,-1,-0.001314118949705789,-0.0010860623912416385,-0.0015510687464861878,0.012682745760107169,0.9876787123173334
2014-10-14,-1,-0.001587506707004676,-0.0013340636799685506,-0.0005976601392414331,0.008682457961901282,0.9905459845512625
2014-10-16,-1,-0.0010183918192672912,-0.0008578912441521967,-0.0011465008309696776,0.0074578479881823485,0.991071874150976
2014-10-20,1,0.0014423896775112872,0.0016079511149485323,-0.0029633699745806276,0.0029725490012159177,0.9943041837713915
2014-10-22,1,0.0016402812277537281,0.0018093767708521656,-0.004349293965578528,0.0021196239828612027,0.994463951222374
2014-10-24,1,0.0014510115843292734,0.0015933422956078502,-0.0029633699745806276,0.0029725490012159177,0.9944953569224627
2014-10-28,1,0.0026953810217840222,0.0030323403096370292,-0.0029633699745806276,0.002861915725139763,0.995130931616729
2014-10-30,1,0.0022419140555818952,0.0025266762025322785,-0.0029633699745806276,0.004348810812434432,0.9952089704785643
2014-11-03,1,0.0018266309908152732,0.002010476854125885,-0.0029633699745806276,0.005165791736692511,0.9950490998125221
2014-11-05,1,0.0016770433993945437,0.001841055340172002,-0.004907516694770388,0.005165791736692511,0.9943629204404861
2014-11-07,1,0.002022429616645327,0.0022529685304801482,-0.003135590219028998,0.004961739306994093,0.994913682628497
2014-11-11,1,0.002093833581412548,0.0023255293406133433,-0.004907516694770388,0.004961739306994093,0.9939939486942465
2014-11-13,1,0.0022871689636213242,0.0025744639476880764,-0.007163404307609233,0.004961739306994093,0.9929309296119624
2014-11-17,1,0.0017779253324855747,0.0019765497985436637,-0.008605083583388237,0.004961739306994093,0.9916869263489771
2014-11-19,1,0.0016548299206786033,0.001847497049586018,-0.008605083583388237,0.006817956460063762,0.9902288023383942
2014-11-21,1,0.0017781561892189724,0.0019850154551968695,-0.008605083583388237,0.007606312541817653,0.9899483711793577
2014-11-25,1,0.0020213948966854513,0.002246938634203409,-0.008605083583388237,0.006162326628260221,0.9901892401583335
2014-11-28,1,0.0021862751159434013,0.0024123306689981974,-0.008605083583388237,0.006162326628260221,0.9904425575136938
2014-12-02,1,0.0020384520030198444,0.0022049932634866645,-0.008605083583388237,0.0073716055880380885,0.9901485710539111
2014-12-04,1,0.0009988935330925441,0.0010063223563540587,-0.008986927500395921,0.0073716055880380885,0.9902303420201093
2014-12-08,1,0.0008187569174026535,0.0008948900877683931,-0.008986927500395921,0.013086687247942734,0.9894080443471749
2014-12-10,1,0.0010213624280796055,0.0010577369188583539,-0.005280390918532225,0.01396086146388369,0.9890257790042187
2014-12-12,1,0.0008685611790797614,0.0009574022242366184,-0.0018847682753531814,0.01396086146388369,0.9889530970823107
2014-12-16,-1,-0.0014780546477227178,-0.0012050166690265244,-0.0009877953375538252,0.01396086146388369,0.988816829102871
2014-12-18,1,0.00041123701529875196,0.0004480723495531698,-0.0018847682753531814,0.013086687247942734,0.9900092262966296
2014-12-22,1,0.0006316993015862229,0.0006590715507042112,-0.0018847682753531814,0.009743292227775178,0.989946485396974
2014-12-24,1,0.0008859913763316388,0.0009030137139156362,-0.014235627296648058,0.009743292227775178,0.9879955262437787
2014-12-29,1,0.0012873428202315746,0.0013510811485131081,-0.014235627296648058,0.008259193320298718,0.9885164798610394
2014-12-31,1,0.001742104459264016,0.0018871651633642892,-0.014235627296648058,0.008259193320298718,0.9869048273324574
2015-01-05,1,0.0006343065015529204,0.0006763645672202552,-0.0117284383103878,0.00893579861244483,0.9873273720113854
2015-01-07,1,0.0014715440118993667,0.0015662628309231943,-0.0117284383103878,0.008259193320298718,0.9881540328022764
2015-01-09,1,0.002492133357481658,0.002747870363387306,-0.0117284383103878,0.008175087395139164,0.9885481357323156
2015-01-13,1,0.0023340355211615466,0.0025996521600254144,-0.006236370944543656,0.00862294208296695,0.9891476854726574
2015-01-15,1,0.001241646623385002,0.001345601826197276,-0.005719125926705957,0.009069593816068386,0.9891219351495306
2015-01-20,1,0.001178268269182704,0.001284663645642561,-0.0031016224664915304,0.00862294208296695,0.9902326314433522
2015-01-22,1,0.0015391862610203348,0.0016762487254215156,-0.0031016224664915304,0.0070846682243444065,0.9907610574017498
2015-01-26,-1,-0.00014228463125901696,-5.1182085750245757e-05,-0.0017701325533108416,0.009069593816068386,0.9914330474101586
2015-01-28,-1,-0.000717546397490104,-0.0005274345353125516,-0.002274484598748778,0.009069593816068386,0.9907773253285552
2015-01-30,1,0.00023182615712800576,0.00030472323214563585,-0.002274484598748778,0.008876120687939314,0.9925806619678064
2015-02-03,1,0.0005890667253190515,0.0006302104829991378,-0.0048908674010753475,0.0070846682243444065,0.9923753832119945
2015-02-05,1,0.0010491447250073598,0.0010678757711018738,-0.0048908674010753475,0.008876120687939314,0.9921423356062099
2015-02-09,1,0.0017500980566300178,0.0018621447719098562,-0.0048908674010753475,0.007033512163862087,0.9928055083261303
2015-02-11,1,0.0019535999720794762,0.0021141346587644117,-0.0038247454132277797,0.00569078500073094,0.9932211332295172
2015-02-13,1,0.0016967417103684102,0.0017821995262193404,-0.0038247454132277797,0.004178875656961586,0.9935051834461816
2015-02-18,1,0.001724282158497988,0.001794731536956418,-0.004851343501837675,0.004178875656961586,0.9928100423064262
2015-02-20,1,0.0016988757515174308,0.0017630604729223617,-0.004851343501837675,0.006384576776322554,0.9920392475103142
2015-02-24,1,0.001490735388156871,0.0014907481419571698,-0.005095630192902461,0.005400006071708962,0.9919638166419439
2015-02-26,1,0.0006449220443570686,0.0007567071773522875,-0.005095630192902461,0.005400006071708962,0.9922757176207699
2015-03-02,1,0.0009109957524644675,0.000968457316027892,-0.004426174727493773,0.005466363883823516,0.9924885517010141
2015-03-04,1,0.00036958425661356975,0.00046970373723067085,-0.004426174727493773,0.005466363883823516,0.9931598917884
2015-03-06,0,-0.00014566200841064064,7.373777150455202e-05,-0.004426174727493773,0.005466363883823516,0.9929778137127001
2015-03-10,-1,-0.0007442416444158021,-0.00041980905910463887,-0.005166620669516651,0.0056718169904467555,0.9915585331306197
2015-03-12,-1,-0.0004848100707597763,-0.00019531337761191148,-0.005166620669516651,0.0056718169904467555,0.9918580645886323
2015-03-16,1,0.00029297882643927064,0.000386743482451161,-0.005166620669516651,0.0056718169904467555,0.9917630591217894
2015-03-18,1,0.0009194817013381992,0.0009231027755920091,-0.007047375316771207,0.00562832520444944,0.9920177655348145
2015-03-20,1,0.001312800006439954,0.0013550577847682335,-0.007524118003096837,0.005431691217764318,0.9921080403575704
2015-03-24,1,0.0014319450090746382,0.001561393977304642,-0.007524118003096837,0.00562832520444944,0.9909556815215634
2015-03-26,1,0.0006134849172652694,0.0006242000355370415,-0.007985175456135895,0.005872534637826325,0.9901806640698259
2015-03-30,1,0.0009810081410413613,0.0010158178603689113,-0.007985175456135895,0.007580201100504972,0.9897822345224938
2015-04-01,1,0.0005763818150756959,0.000602716285205377,-0.01040277482187613,0.007580201100504972,0.9890647031143871
2015-04-06,1,0.0014010556347571934,0.0014911249962278805,-0.01040277482187613,0.007580201100504972,0.9889319528843757
2015-04-08,1,0.0012257904430649186,0.0013031991941746938,-0.01040277482187613,0.00622076388210605,0.9894767288666307
2015-04-10,1,0.0009386021605810427,0.0009712687997159235,-0.01040277482187613,0.00622076388210605,0.9894342187896997
2015-04-14,1,0.00036774362055405857,0.0004254889518218788,-0.01068765673632919,0.00622076388210605,0.9895946450598649
2015-04-16,1,3.8505348760080966e-05,0.00015027049393080086,-0.01068765673632919,0.009760541433856578,0.9893045965879669
2015-04-20,-1,-0.0005889556612355095,-0.0004117003106653233,-0.008276963897907932,0.010267428207771797,0.9896482718524761
2015-04-22,1,0.0004413560114097642,0.0004806603323093604,-0.005410986852842352,0.010267428207771797,0.9906154389762978
2015-04-24,1,0.0008165553051964981,0.000842646520632751,-0.005228202009124836,0.008899705812894086,0.9917570141612115
2015-04-28,1,0.0012028773920729837,0.0012955229707761686,-0.0064344685736529746,0.008435421018249074,0.9917081898133808
2015-04-30,-1,-0.00014095202595728365,-2.959710256052612e-05,-0.0064344685736529746,0.008435421018249074,0.9920862393368124
2015-05-04,1,0.00040064093557704353,0.00043144332744924556,-0.0064344685736529746,0.007631190272875706,0.9928528581808171
2015-05-06,-1,-0.00034064031223352253,-0.0001892632290131477,-0.006031233719980217,0.008435421018249074,0.9931908600637408
2015-05-08,-1,-0.0011871305772045383,-0.0008908771613882067,-0.006031233719980217,0.008435421018249074,0.9928301412508889
2015-05-12,-1,-0.0026607023627810886,-0.002122329462462246,-0.0043473867712275115,0.008435421018249074,0.9927054169819609
2015-05-14,-1,-0.0008874939448356104,-0.0006373608961973836,-0.0043473867712275115,0.0070151983152918875,0.9936058086529971
2015-05-18,-1,-0.0003419432537107972,-0.00017600017375632687,-0.006031233719980217,0.006321658633542221,0.9935867339497918
2015-05-20,1,0.0006026821528385545,0.000655806454277652,-0.006031233719980217,0.00508938674030281,0.9944071453488545
2015-05-22,1,0.0005818061525562177,0.0006103108823750136,-0.0043473867712275115,0.00508938674030281,0.9944341760617146
2015-05-27,1,0.0006824191956555239,0.0006859469415170449,-0.0018882378696368782,0.004962823787117132,0.9952989788627008
2015-05-29,0,-6.935755175647057e-05,4.953315096166666e-05,-0.0011507681513938128,0.003609635812815833,0.9959352659263974
2015-06-02,1,0.000236039346486319,0.0002857737490546748,-0.0043473867712275115,0.003609635812815833,0.9948641794625125
2015-06-04,1,0.0008347499929208734,0.0009144953082326071,-0.001791555161690584,0.004127937875586316,0.994917913070171
2015-06-08,1,0.00018622833647226735,0.00021447632675231491,-0.0008799405278159494,0.005438927308668811,0.9947148725295031
2015-06-10,-1,-0.000476492793025256,-0.0003256577390216516,-0.0008799405278159494,0.005723227735811794,0.994387667680638
2015-06-12,-1,-0.00013739109384407563,-2.061608629733353e-05,-0.0008799405278159494,0.005002299799907295,0.994789008853247
2015-06-16,-1,-0.00034134320521623856,-0.00022548784272483188,0.00024843340492966727,0.0053025815877209585,0.9947024698723155
2015-06-18,-1,-0.0009934476003192628,-0.0007333914886072165,-0.0014095955025356004,0.00577491538137847,0.9943819085193094
2015-06-22,-1,-0.0009125875640388461,-0.0006522218838761952,-0.0029992920737468096,0.006640698833027924,0.9940087270815124
2015-06-24,-1,-0.0004605190965670295,-0.00027924265629771276,-0.0029992920737468096,0.007572827350786645,0.9930290881448531
2015-06-26,-1,-0.0002515769115467149,-0.00011722765355194127,-0.0034282519463828373,0.007664724057404116,0.9921978261973144
2015-06-30,-1,-0.000990343814798341,-0.0007918091830749443,-0.002794694388264852,0.008728682443235491,0.9921760962765295
2015-07-02,1,0.00014165173943705262,0.0001659723620786981,-0.002794694388264852,0.007917791919619766,0.992853231818341
2015-07-07,1,0.0006763192526254302,0.0007252608026072234,-0.0029992920737468096,0.007917791919619766,0.993181472034788
2015-07-09,1,0.0008050608356068609,0.000883675558031884,-0.003530125948097402,0.007917791919619766,0.9930842787347012
2015-07-13,1,0.0011820671957163016,0.0013271235849832287,-0.003530125948097402,0.008728682443235491,0.9926564530380012
2015-07-15,1,0.001270387866951413,0.0014297764395181742,-0.0029992920737468096,0.009179060661577695,0.9923832558725374
2015-07-17,1,0.0015809850405354093,0.0017971405011796796,-0.002794694388264852,0.009392940028792835,0.9924267656592822
2015-07-21,1,0.001740667423578709,0.0019468755926589606,-0.0016705559561374015,0.009392940028792835,0.9920921058306637
2015-07-23,1,0.0024464107217526763,0.0027475309829106654,-0.0020845802978185102,0.009207871554184184,0.9924067447956372
2015-07-27,1,0.001946571665188043,0.002137110883299594,-0.004896887836795523,0.009207871554184184,0.9906134242065068
2015-07-29,1,0.002489488452161518,0.0027740759847604186,-0.006864059418186819,0.009207871554184184,0.9894853844184415
2015-07-31,1,0.002613092471784941,0.002903274351842613,-0.006864059418186819,0.009412217357168406,0.988989305513693
2015-08-04,1,0.0023704390828907405,0.0026410707004060454,-0.007722755037600641,0.009412217357168406,0.988789894504699
2015-08-06,1,0.0016571369325156507,0.001797364659508075,-0.003934716524069892,0.011822191535696785,0.9879688749920333
2015-08-10,1,0.0022196305267387314,0.002452714322277784,-0.006127339938015487,0.015707651058485907,0.9876348225794364
2015-08-12,1,0.003016669884602429,0.0033825596838174187,-0.01217365168036047,0.011822191535696785,0.987534460143445
2015-08-14,1,0.0030471803484312015,0.0033874587737795087,-0.01217365168036047,0.015784395815645374,0.9870601780759454
2015-08-18,1,0.0036269071117670847,0.004010898306078536,-0.01217365168036047,0.011822191535696785,0.9878473967604757
2015-08-20,1,0.0035033217470694616,0.003888061181110297,-0.010634286191091673,0.011822191535696785,0.9880820460082845
2015-08-24,1,0.0016448966990252377,0.0017664639949335258,-0.00537328095438188,0.011822191535696785,0.9900657634622008
2015-08-26,1,0.0018847350719852919,0.002080013826683403,-0.0030344692743390143,0.011162701835538311,0.9913292009191785
2015-08-28,1,0.0021473164238313114,0.002361646792400007,-0.00537328095438188,0.008650178291455472,0.9906547849607132
2015-09-01,1,0.001770899129051239,0.0019215856376776478,-0.00537328095438188,0.008650178291455472,0.9899973494980836
2015-09-03,1,0.002557086411983135,0.002791500121640495,-0.00537328095438188,0.007203944774711096,0.9905660106188579
2015-09-08,1,0.0028438084228134632,0.0031073743510367305,-0.009155629949145858,0.007203944774711096,0.9898929403710145
2015-09-10,1,0.001851635740341313,0.0019448533811510396,-0.0041744860628749715,0.009040908432278089,0.9900911944743362
2015-09-14,1,0.002541345054518435,0.0027638021622021273,-0.0041744860628749715,0.009040908432278089,0.9902346555832027
2015-09-16,1,0.0024628615755606037,0.0026807025480642304,-0.011069840840865748,0.009040908432278089,0.9884402686684455
2015-09-18,1,0.002388728228840162,0.0026061843679596767,-0.009982944953397433,0.009215185539210418,0.9887127644534554
2015-09-22,1,0.0014968748715028996,0.001548645529190456,-0.006710078280562571,0.012710943103128437,0.9882948420514143
2015-09-24,1,0.0021117960407512322,0.002253575307826562,-0.006710078280562571,0.014168938236864263,0.9874458726071467
2015-09-28,1,0.0013646049055231677,0.0013869660979248292,-0.002544287815741673,0.014168938236864263,0.9881682960868564
2015-09-30,1,0.0003660053438168804,0.0004749198299894793,-0.002544287815741673,0.014168938236864263,0.9885703681909036
2015-10-02,1,0.00041082690507847575,0.0005421763469558964,-0.0034815912657351665,0.013823760966275044,0.9891211585184067
2015-10-06,1,0.0003868688010747388,0.0004897076871947123,-0.002228315207805639,0.010272844170398893,0.9903987190550273
2015-10-08,1,0.0012138532513387974,0.001219230766531856,-0.002228315207805639,0.00840418974743615,0.991098522508197
2015-10-12,1,0.002167596186779841,0.0023424396874007123,-0.005309877677609213,0.007603250125921926,0.9908422012494462
2015-10-14,1,0.0008236491446276643,0.0008441446395281165,-0.002228315207805639,0.00971606684778926,0.9915442467094018
2015-10-16,1,0.0007194014781511924,0.0007540535773897532,-0.003449362262934662,0.00971606684778926,0.9910097789730623
2015-10-20,1,0.0012329145935890296,0.001244278361635472,-0.005213190669207699,0.00971606684778926,0.9904910535612819
2015-10-22,1,0.002230448132554337,0.0023659520359311194,-0.005213190669207699,0.0074960756410952685,0.9917132324006674
2015-10-26,1,0.002343790381175183,0.002489191894339231,-0.005213190669207699,0.0074960756410952685,0.9917399232613184
2015-10-28,1,0.001557144532830255,0.0015752131000292646,-0.005213190669207699,0.008005926628730217,0.9917683677979082
2015-10-30,1,0.0012973587408929414,0.0013205958392073745,-0.005213190669207699,0.008005926628730217,0.9916828465578075
2015-11-03,1,0.0015285136170395135,0.001548323230840054,-0.00847391745167408,0.008998722263835756,0.9908006229395261
2015-11-05,1,0.0012497741841193126,0.001295795831768285,-0.00897166546708876,0.010130163344602905,0.9895472054623748
2015-11-09,1,0.00040887431316998267,0.0005491767232169902,-0.00897166546708876,0.010130163344602905,0.9894688611210258
2015-11-11,1,0.0012505332970423036,0.001287513850647582,-0.010113196826678513,0.008998722263835756,0.9880508330672406
2015-11-13,1,0.0002959573196191661,0.00044548142241943186,-0.00897166546708876,0.008998722263835756,0.9889705462148962
2015-11-17,1,0.000501590888300905,0.0006332591690341892,-0.0058924404770551945,0.008461559937388898,0.9901097626173923
2015-11-19,0,-2.45330068667476e-05,0.0002188513035361765,-0.007663101008677967,0.008461559937388898,0.9901154460240358
2015-11-23,1,0.0006277333565293923,0.0007728832093761363,-0.007663101008677967,0.006287097662282142,0.9903546898208376
2015-11-25,1,0.000642224665187039,0.0007687289019325727,-0.005575258325827866,0.005094981282465755,0.9911037986738719
2015-11-30,1,0.0005866168879793726,0.0007244105802662718,-0.005575258325827866,0.004641153695852071,0.9912492097019809
2015-12-02,1,0.00039750507714403826,0.0005524162240015321,-0.0042198334915422115,0.004299095527147577,0.9923692654781792
2015-12-04,1,0.0008542865854214649,0.000954332007129493,-0.0042198334915422115,0.004299095527147577,0.9900803127057333
2015-12-08,1,0.0003985934354526357,0.0005490929642201394,-0.004553745647080303,0.002219611628570042,0.9901400635335379
2015-12-10,0,-0.00012197990992340976,7.340253827327705e-05,-0.004553745647080303,0.0013372415920149172,0.9924642405539471
2015-12-14,1,0.00023475428569977942,0.00036011742460095246,-0.005494199968030107,0.0013372415920149172,0.9899214431147042
2015-12-16,1,1.914389638068111e-05,0.0001816873893825016,-0.007102743784057362,0.0003526043130052839,0.98999123712556
2015-12-18,1,6.407910338777114e-05,0.00019248712306880523,-0.005062907466490135,0.0003526043130052839,0.9901316259510308
2015-12-22,1,0.00017620322359233437,0.0002786733462977117,-0.005062907466490135,0.002003752672255092,0.9897152381452938
2015-12-24,-1,-0.0002245338762905801,-5.460472221260388e-05,-0.005062907466490135,0.006473331536430328,0.9872691148400615
2015-12-29,-1,-0.0007058502684712394,-0.00045726110709267656,-0.00550082686964964,0.006473331536430328,0.9870312761764626
2015-12-31,-1,-0.0006257629978589187,-0.00041331322515981864,-0.00550082686964964,0.01118137760051761,0.9864109619918118
2016-01-05,-1,-0.0013395722839584009,-0.0010717759151780608,-0.007188659223661416,0.006473331536430328,0.9892238020066944
2016-01-07,-1,-0.002137064824670445,-0.0017895819720843277,-0.007188659223661416,0.006473331536430328,0.9893574784691044
2016-01-11,-1,-0.0017742218653478555,-0.0015169921960254589,-0.008434073855719933,0.006473331536430328,0.9888367421860799
2016-01-13,-1,-0.002222135533952055,-0.0019055999215352591,-0.008434073855719933,0.005075010965589863,0.9900447127485477
2016-01-15,-1,-0.003620555131550636,-0.0030579645342693144,-0.006412293906904531,0.007921670609179041,0.9889380742993544
2016-01-20,-1,-0.003499752198626223,-0.0029489153238588675,-0.006412293906904531,0.009592026210225884,0.9881625340800492
2016-01-22,-1,-0.002642911208515759,-0.002215303367884898,-0.009565526900506615,0.008105600619506834,0.9886632911517357
2016-01-26,-1,-0.0007449785313947978,-0.0005270957581716522,-0.009565526900506615,0.00615329751767992,0.9910823087367149
2016-01-28,-1,-0.0001474372233908683,-5.571493827428878e-05,-0.009565526900506615,0.008105600619506834,0.9900487555894711
2016-02-01,1,0.0005348139804071827,0.0005475706678231258,-0.009565526900506615,0.007553166680967028,0.9902047514513771
2016-02-03,-1,-0.0007237040427651164,-0.0005554660116442337,-0.0038020194613797775,0.008105600619506834,0.9902126576462364
2016-02-05,-1,-0.0010376167871545237,-0.0008594917666147848,-0.0038020194613797775,0.008105600619506834,0.9907026982806523
2016-02-09,-1,-0.001821072226464175,-0.0015551618701346438,-0.0015366617991522113,0.008105600619506834,0.9911306694247691
2016-02-11,-1,-0.002581173098668633,-0.002222150045370986,-0.0006094350333551412,0.009382807891212673,0.9910864651241097
2016-02-16,-1,-0.002195522363432012,-0.0018611638551463178,-0.0015366617991522113,0.008277296106576633,0.9917098893882321
2016-02-18,-1,-0.0010008671408612438,-0.0008375872279044409,-0.0007235318116307941,0.010352422070252203,0.9918570413640632
2016-02-22,-1,-0.0014077383019316684,-0.0011698818717404066,-0.0007235318116307941,0.011740558514106061,0.9917855152522282
2016-02-24,-1,-0.0017911979401483893,-0.0014692711972878491,5.4589844718514716e-05,0.011740558514106061,0.9916989032129542
2016-02-26,-1,-0.0004985201015411873,-0.00034972160063646086,-0.0007034449538722544,0.011345858975628944,0.9931045375599035
2016-03-01,-1,-0.00025014794190930613,-0.00011137505284343946,-0.0022160055503301457,0.011740558514106061,0.9913665245336205
2016-03-03,1,0.00037246883339595537,0.0003989873593540121,-0.0022160055503301457,0.011345858975628944,0.9911031448788572
2016-03-07,1,0.00039561599406800433,0.0004110261741686076,-0.0039024298489666875,0.011345858975628944,0.990437105001227
2016-03-09,-1,-0.0003372309275237901,-0.0001970698227508565,-0.0039024298489666875,0.011345858975628944,0.9896787789779318
2016-03-11,1,0.0003374253752428683,0.00039495952702089894,-0.0039024298489666875,0.010117735828985919,0.9898412636032594
2016-03-15,1,0.0005479755862259266,0.000561267002819901,-0.0022160055503301457,0.010117735828985919,0.9899019927503583
2016-03-17,1,0.0022197850424214884,0.0025334045717470776,-0.003325594558339926,0.009095427994392011,0.9913263066690142
2016-03-21,1,0.0026162153773641207,0.0029957370764469183,-0.003759816314821064,0.008146278842744195,0.991326208082006
2016-03-23,1,0.002422381239565521,0.0027447800748516236,-0.008887545418298918,0.008146278842744195,0.989140739770218
2016-03-28,1,0.002622445883654714,0.0029659670341741417,-0.008887545418298918,0.007648579870552459,0.9892092408190543
2016-03-30,1,0.003019286014556151,0.0034234083457741447,-0.007923424293272361,0.007648579870552459,0.990951182017868
2016-04-01,1,0.002783156976917382,0.0031646840627217662,-0.007923424293272361,0.006820703007361224,0.9909964918556856
2016-04-05,1,0.0014722103049488054,0.0016312933284963024,-0.007923424293272361,0.007648579870552459,0.9910662326439366
2016-04-07,1,0.0024466448627927804,0.0027833271103393942,-0.007923424293272361,0.006082940129684724,0.9911733258027979
2016-04-11,1,0.0025674143476382277,0.002869664270923529,-0.007923424293272361,0.0042371774830490955,0.9910312911071117
2016-04-13,1,0.003200141364837532,0.0036080246097219804,-0.008116041358034705,0.001082534413529098,0.9904596802942959
2016-04-15,1,0.003076407734727766,0.003478411128408651,-0.008116041358034705,0.004144820458732145,0.9904944508871696
2016-04-19,1,0.0028847344226318274,0.0032908604109056455,-0.0078079625762891855,0.005914779394774005,0.9899188502233787
2016-04-21,1,0.0013310420848095983,0.0015269606483464563,-0.00656666765960335,0.005914779394774005,0.991347724955508
2016-04-25,1,0.0012334704005386213,0.0014245567532918876,-0.006248746882277459,0.007743755610552402,0.99102236046846
2016-04-27,1,0.001434826732169524,0.0016457469320265666,-0.006854200244311511,0.007743755610552402,0.9894490830551196
2016-04-29,1,0.0010413876348096434,0.0012376415088636412,-0.006248746882277459,0.011333906275944721,0.9897759563434191
2016-05-03,1,0.0006847580921157856,0.0008155850310683994,-0.005873567030094578,0.008929520091822334,0.9907197066808777
2016-05-05,1,0.0002393455663260366,0.0002746770397411651,-0.005873567030094578,0.008929520091822334,0.9906444027264805
2016-05-09,1,0.0003358735627661969,0.00039174035738374143,-0.005190288100737196,0.008929520091822334,0.9908624442007753
2016-05-11,1,0.0002402238452643827,0.00028231088155313,-0.004448391209814388,0.008929520091822334,0.9909651352172373
2016-05-13,1,9.772494604962624e-05,0.00010800429181469664,-0.004448391209814388,0.008929520091822334,0.9908755869490314
2016-05-17,1,0.0014351477301518382,0.001623128617292358,-0.005090860172299297,0.005488562753377074,0.992136480065528
2016-05-19,1,0.0007609729850198781,0.0008542963596865215,-0.005090860172299297,0.007643445319112264,0.9922340254443474
2016-05-23,1,0.0008628285733743764,0.0009615590138579014,-0.004448391209814388,0.007643445319112264,0.9924113441285385
2016-05-25,1,0.0011744418267054047,0.001302745404416926,-0.004448391209814388,0.007643445319112264,0.9934001017449419
2016-05-27,1,0.0012503864171150493,0.001320525758651759,-0.006681267545679532,0.004068561409444096,0.992565062652372
2016-06-01,1,0.00025269013211127344,0.00036355353701739027,-0.006681267545679532,0.005874807962754694,0.9915623896385503
2016-06-03,-1,-0.0002451717661845829,-6.100646430148859e-05,-0.006681267545679532,0.007775119800248757,0.9904728948468781
2016-06-07,-1,-0.00027623351323319105,-6.807275216171851e-05,-0.0077461222871723825,0.009262227395683706,0.9900177968855622
2016-06-09,-1,-0.0005508738697481073,-0.0002866388480934662,-0.0077461222871723825,0.011697447307660048,0.9894138677729455
2016-06-13,-1,-0.0011863812185270528,-0.0008439864979234866,-0.007787500599501144,0.011697447307660048,0.9893789018131162
2016-06-15,-1,-0.0011257257751886899,-0.000817827059189094,-0.009733505441873505,0.011697447307660048,0.9890296346328812
2016-06-17,1,7.026811366147857e-05,0.0001305846551908696,-0.008212847302980646,0.011697447307660048,0.9890185441192877
2016-06-21,1,0.00042190501105613835,0.0004461067298208094,-0.008212847302980646,0.0068232233018029834,0.9896256490730285
2016-06-23,1,0.0007251202213212529,0.0007627716408498933,-0.007338181426191486,0.0023817410285837336,0.9901647217954954
2016-06-27,-1,-0.0011755947791312242,-0.0009399938359814034,-0.0065543419165927565,0.0023817410285837336,0.9917560579907535
2016-06-29,-1,-0.00015482620219825092,-4.710704289022556e-06,-0.00716646806514919,0.001120784802947336,0.9921050227593657
2016-07-01,1,0.00031697205659133893,0.00046356941649921185,-0.007338181426191486,0.0005753959570056065,0.9926765068434477
2016-07-06,0,-0.00017693341483386105,7.732635041955661e-05,-0.008002878655392776,0.0005753959570056065,0.9929044437106266
2016-07-08,1,0.0010123573998186072,0.00110042329374441,-0.008002878655392776,0.000981305220660633,0.9928009855103618
2016-07-12,1,0.0007197627115591531,0.0008039512579418046,-0.0073082502996423574,0.000981305220660633,0.9935067728725766
2016-07-14,-1,-0.00020385287806794054,-5.79804813000389e-06,-0.0065543419165927565,0.0017179508375236826,0.994327220194221
2016-07-18,-1,-0.0008795201095288185,-0.000605134699978534,-0.005790555219764724,0.00357344859160573,0.9945836591642387
2016-07-20,-1,-0.0002464639804003545,-9.939694200328958e-05,-0.006321766705024574,0.00357344859160573,0.993837229724345
2016-07-22,-1,-0.0005601028385041106,-0.0004012592447109871,-0.005191512920925512,0.00357344859160573,0.994330069414214
2016-07-26,-1,-0.0006910342859642853,-0.0005240531987309733,-0.0045900602020581775,0.003906844864602206,0.9941018522803496
2016-07-28,-1,-0.001070766986932383,-0.0008378642967636885,-0.004386003725888279,0.00357344859160573,0.9951176938582249
2016-08-01,-1,-0.0015969218040146334,-0.0013077452229890128,-0.003499807296398131,0.00357344859160573,0.9951189895742965
2016-08-03,-1,-0.0016284585888763038,-0.001368058774803224,-0.002877774952822819,0.0035458720826582334,0.9956720639409433
2016-08-05,-1,-0.001093628245238151,-0.0008826018469459822,-0.002877774952822819,0.0027723370034474495,0.9963550375498258
2016-08-09,-1,-0.0005202442333635789,-0.0004341738078873659,-0.0020352416941003208,0.0031438645438517905,0.9962512524871049
2016-08-11,-1,-0.00019559608123817946,-0.00016487863545851846,-0.00543135583720102,0.002652900025607721,0.9954749489588252
2016-08-15,-1,-0.0002227832724344899,-0.00019509539611629797,-0.005636896235709039,0.002652900025607721,0.9953422737492459
2016-08-17,-1,-0.0006339897633035478,-0.0005776968802193845,-0.001980134783312923,0.002712243664021456,0.9956828055839636
2016-08-19,-1,-0.0002082864816508783,-0.00018979481753761228,-0.004695197814002968,0.002712243664021456,0.9957098076024424
2016-08-23,1,2.5366762263270137e-06,3.3857446742898206e-05,-0.005636896235709039,0.002712243664021456,0.9957860372839143
2016-08-25,-1,-0.0006883643100178338,-0.0005919477197077498,-0.005104794688680886,0.002712243664021456,0.9956626949212074
2016-08-29,-1,-0.0004520479110652184,-0.000414595223395712,-0.0034140345737417705,0.002712243664021456,0.9959865883824681
2016-08-31,1,3.79764816765517e-05,9.547238796412321e-05,-0.0034318838961238177,0.0025496639813512552,0.9960868555019058
2016-09-02,1,0.0005196733735107714,0.0006711149604229974,-0.0034318838961238177,0.0024268299400457684,0.9963631535941652
2016-09-07,1,0.0006556286637935801,0.0008174849537676016,-0.005111610710016342,0.0010869121791745543,0.995735446502146
2016-09-09,-1,-0.00028974648618710274,-0.00027398219191776036,-0.0034318838961238177,0.0024268299400457684,0.9962427601465426
2016-09-13,-1,-0.0014076553316075147,-0.0012158778938457415,-0.003071657007439524,0.0024268299400457684,0.996631149953233
2016-09-15,-1,-0.0012918991215283872,-0.0011062146596443167,-0.0034371499656073706,0.0006100098329492168,0.9967438399972126
2016-09-19,-1,-0.0012610021123253031,-0.0010936402331075535,-0.004542980426793298,0.0005606529550973164,0.9963613875001661
2016-09-21,-1,-0.001913695772389358,-0.0016315794488054344,-0.0033622467365753425,0.0010451682072429623,0.995765399027546
2016-09-23,-1,-0.0020186338286585226,-0.0017140513062717743,-0.004542980426793298,0.0009225976454996562,0.9946272943719341
2016-09-27,-1,-0.002281208379905509,-0.0019393907361932661,-0.005956316362175489,0.0009225976454996562,0.9941851327786899
2016-09-29,-1,-0.0023829342126599467,-0.002030089992930323,-0.00892401467252236,0.0008871554249582864,0.993395493320891
2016-10-03,-1,-0.0024445136423221782,-0.0020791941248662635,-0.00892401467252236,0.0021842580380322394,0.9933228875585058
2016-10-05,-1,-0.003024569703066679,-0.0025901312715279666,-0.008743985120199433,0.0021842580380322394,0.9933431030698152
2016-10-07,-1,-0.0020377807648300455,-0.0017920904748031717,-0.008743985120199433,0.0021136751977515068,0.9935333772149106
2016-10-11,-1,-0.0023989221817107102,-0.002079876554757997,-0.008743985120199433,0.0021136751977515068,0.9931356485836472
2016-10-13,-1,-0.0025515416272460316,-0.0022265079771418414,-0.008743985120199433,0.0021136751977515068,0.9930161575832365
2016-10-17,-1,-0.002712789318595404,-0.0023963358526638543,-0.007404446689440458,0.004784140891665732,0.9920568434756986
2016-10-19,-1,-0.0012580819553621632,-0.0011508803730243026,-0.007404446689440458,0.003686089441318755,0.9926814646387236
2016-10-21,-1,-0.0022864761205445786,-0.0020492841792153537,-0.0057888210050586544,0.007260315179382138,0.9927640030250837
2016-10-25,-1,-0.0028782327058872828,-0.0025658747295857843,-0.0023334237602699094,0.007260315179382138,0.9929332269490069
2016-10-27,-1,-0.003493109072968092,-0.0031295974455258484,-0.0008879354812599995,0.007260315179382138,0.9929676636095007
2016-10-31,-1,-0.0031472860966233174,-0.002835436285991208,-0.0009751282581957539,0.008890097185006286,0.992842260691854
2016-11-02,-1,-0.00401497862255939,-0.0035825519135824968,-0.0009751282581957539,0.008890097185006286,0.9922245355214818
2016-11-04,-1,-0.0038210555892393035,-0.0034078195427076265,-0.0016823506223169204,0.008890097185006286,0.9924296274258334
2016-11-08,-1,-0.003323954723811846,-0.002970547396563574,-0.0016823506223169204,0.009591312149224901,0.9919349435097796
2016-11-10,-1,-0.003131325054652626,-0.0028274170378781533,-0.0016823506223169204,0.011140584057428309,0.9912593031078158
2016-11-14,-1,-0.002031978994946817,-0.0018679076790425553,-0.0016823506223169204,0.008912093574418248,0.9922431196372766
2016-11-16,-1,-0.0021922919825459273,-0.0019507934268400045,-0.0031022011121147075,0.008912093574418248,0.991593065824928
2016-11-18,-1,-0.0003795103471601289,-0.0003216720885673406,-0.0031022011121147075,0.008912093574418248,0.9916557292391845
2016-11-22,1,0.00027700539422554303,0.0004979262431737623,-0.0031022011121147075,0.008958564194624642,0.9914521416315049
2016-11-25,1,0.0006449245760199065,0.0009292157423463525,-0.0031022011121147075,0.008958564194624642,0.9915419247182374
2016-11-29,1,0.0014903495653955496,0.0019305514556466927,-0.002907566968668138,0.008859136320993246,0.9919053500926412
2016-12-01,1,0.000582344457113344,0.0008730648944030254,-0.0027849974102870396,0.008859136320993246,0.9924227722646751
2016-12-05,1,0.00047682323567182,0.0007175209796497179,-0.002907566968668138,0.008958564194624642,0.9913466371495524
2016-12-07,1,0.0012699934844038726,0.0015881033455110568,-0.00386374561701165,0.00870581435169934,0.9919899978742394
2016-12-09,1,0.0019014686555521062,0.002308233040283286,-0.00386374561701165,0.00845239275741223,0.9928689537295178
2016-12-13,1,0.0022151842037694287,0.002636937356349651,-0.00386374561701165,0.007804777297886692,0.9929456748032093
2016-12-15,1,0.0009079409039949224,0.0011515033013685919,-0.002340340693872258,0.007804777297886692,0.9939269424913104
2016-12-19,1,0.0017576042183284856,0.00211069175650726,-0.00386374561701165,0.005806899090450977,0.9943025447352395
2016-12-21,1,0.0017972260121105173,0.0021270272567562153,-0.00386374561701165,0.004918746660552954,0.9945552399586169
2016-12-23,1,0.001778491426627545,0.002087500607422421,-0.00386374561701165,0.006652004434381089,0.9891439665765722
2016-12-28,1,0.0022069725608053975,0.0026054894906118644,-0.0065829127977339915,0.006652004434381089,0.9880342077331956
2016-12-30,1,0.0020063076766012366,0.00237833732820466,-0.007003873368839061,0.007971059782218683,0.9876419710003098
2017-01-04,1,0.0022923017628388503,0.0027081237045439364,-0.0032702589208563346,0.007971059782218683,0.9885390622446073
2017-01-06,1,0.002238881076157443,0.0026423112677554875,-0.002193723646215635,0.007971059782218683,0.9888121839330317
2017-01-10,1,0.002216200415277171,0.002581167626716101,-0.0022672180151309847,0.007971059782218683,0.9884976661385095
2017-01-12,1,0.0025222301459041268,0.002932341096605557,-0.002406083989062744,0.00920783183261788,0.9882723309399372
2017-01-17,1,0.0021614804855017815,0.002543819227873549,-0.002406083989062744,0.00920783183261788,0.988509214020391
2017-01-19,1,0.0019376067116596107,0.002278646028363519,-0.0022672180151309847,0.00920783183261788,0.9889995204234866
2017-01-23,1,0.0018253275931550254,0.0021417324540426923,-0.0022672180151309847,0.009696105086935584,0.9885239530780168
2017-01-25,1,0.006188435098245665,0.007088342812307717,-0.002406083989062744,0.00788375678757702,0.9926572806187938
2017-01-27,1,0.0057679196700196785,0.006619580407004333,-0.0022672180151309847,0.00788375678757702,0.9940766086544238
2017-01-31,1,0.005702602082663953,0.006552486461173342,-0.0022672180151309847,0.008043225149932803,0.9934491706989479
2017-02-02,1,0.005418760775479793,0.006173353530320289,-0.002406083989062744,0.007192409288053766,0.9931066807341992
2017-02-06,1,0.0052898135130045815,0.006009663132153582,-0.002290649054677702,0.007830891909818331,0.9931983948701313
2017-02-08,1,0.005473727450438344,0.006223943388366682,-0.002956858739466298,0.009049237199341812,0.9925123147201094
2017-02-10,1,0.005529902807199033,0.006272757654471125,-0.005012663823696498,0.009990263922251353,0.9914863135778265
2017-02-14,1,0.004943428508546708,0.0055926734145401915,-0.004687465926560545,0.009990263922251353,0.9918978781825111
2017-02-16,1,0.005056045404247523,0.0057142075585990704,-0.004687465926560545,0.013495617156451317,0.9908349633314981
2017-02-21,1,0.0052901128897906175,0.0059622848580303135,-0.005880150699108636,0.009990263922251353,0.9903987012767687
2017-02-23,1,0.004934468678368732,0.00554654846129804,-0.005880150699108636,0.009990263922251353,0.9908753887419562
2017-02-27,1,0.005532275856975533,0.006216800606983053,-0.005880150699108636,0.007453074035230609,0.9909285781210108
2017-03-01,1,0.0055030604711074575,0.0061431851482843785,-0.003621115799321003,0.006124170051599591,0.9920488967482881
2017-03-03,1,0.005057411917100766,0.005632937403469197,-0.0029478297653998215,0.007453074035230609,0.9926486963299032
2017-03-07,1,0.005195426095273715,0.005779515401402913,-0.0029478297653998215,0.006124170051599591,0.9925916896567032
2017-03-09,1,0.005136629709928873,0.005685288663173688,-0.0029478297653998215,0.005770276037065973,0.9925182315780698
2017-03-13,1,0.004822877895844285,0.005284714605958787,-0.0029478297653998215,0.004564963993859939,0.993297259339726
2017-03-15,1,0.004893979983876541,0.0054039969643296885,-0.0028050400592422287,0.005770276037065973,0.9928863779745825
2017-03-17,1,0.005114735406961397,0.005584743791565441,-0.0028050400592422287,0.005770276037065973,0.9935765686611068
2017-03-21,1,0.004084842509153592,0.004371817275493799,-0.0007013995614835252,0.005770276037065973,0.9945833496566479
2017-03-23,1,0.0035179422349430793,0.003662236271600055,-0.0016205614294463836,0.005770276037065973,0.9921498928805965
2017-03-27,1,0.003500881361814214,0.0036299711574718546,-0.002814597959143547,0.0057549151537257094,0.9917674059026019
2017-03-29,1,0.00287457472478921,0.002882039262659726,-0.002373027228804497,0.0074464658232914925,0.9914671914370471
2017-03-31,1,0.0032153786715814854,0.0032451495112711596,-0.002373027228804497,0.005805944013489253,0.9917443006141261
2017-04-04,1,0.003154420903066707,0.0031837117492438728,-0.0027766867821331395,0.005836954187313119,0.9915323944620352
2017-04-06,1,0.0020267957572191074,0.0021571651628498577,-0.0014913606866622812,0.006935162109843797,0.9920470394271307
2017-04-10,1,0.0018426457380730553,0.0019587551928919762,-0.0007469161626900678,0.007012049916366388,0.9922872148356113
2017-04-12,1,0.0026803024258820886,0.0026803413571817813,-0.000997738095809439,0.006884868136626321,0.9929314835757597
2017-04-17,1,0.003393624264828268,0.0035178876928892745,-0.000997738095809439,0.006884868136626321,0.9926086724392685
2017-04-19,1,0.003155646875918428,0.003233092009915085,-0.002303474505747264,0.009241873970492464,0.9915493575474038
2017-04-21,1,0.0016706409346305545,0.0017809887274494516,-0.000997738095809439,0.010502878581242882,0.9923859724805714
2017-04-25,1,0.0012649609745618668,0.001417702920433932,-0.000997738095809439,0.013145273703806701,0.9907798952287956
2017-04-27,1,0.0008964088069814122,0.0011466264848187038,-0.0010573861155363084,0.010502878581242882,0.9910291809311341
2017-05-01,1,0.0009206830220537663,0.001176084005231555,-0.002568028612961441,0.010502878581242882,0.9910295542328253
2017-05-03,1,0.0013366737348819732,0.0014989448910665828,-0.0011624582278339977,0.013145273703806701,0.9906387248319409
2017-05-05,1,0.002006560577356384,0.0020685708790023063,-0.0011624582278339977,0.013145273703806701,0.9907513990869101
2017-05-09,1,0.002245615467899648,0.0022623832337564935,-0.002876008067273923,0.013231097012439724,0.9900584954196161
2017-05-11,1,0.0012243876215576551,0.001445806283091008,-0.00413010033044579,0.013231097012439724,0.9898738510857367
2017-05-15,1,0.0023012512048139052,0.002362322409038128,-0.00413010033044579,0.013231097012439724,0.9899684316178795
2017-05-17,1,0.0020128808558844934,0.0021027113936990414,-0.00413010033044579,0.013219045088520221,0.9903822478383211
2017-05-19,1,0.003368309267503224,0.0034383016411342316,-0.00413010033044579,0.009843563860650172,0.9919549161193806
2017-05-23,1,0.0025927974656090535,0.0026259650662372185,-0.001556047730180048,0.0086729498232084,0.9936444305204014
2017-05-25,1,0.0019718188027848024,0.0021019163823165913,-0.00413010033044579,0.0086729498232084,0.992653117704895
2017-05-30,1,0.0014922201905439663,0.0016833482771816837,-0.004137752259197729,0.0086729498232084,0.9924595776883951
2017-06-01,1,0.0017006713814296964,0.0018815324748573349,-0.005027206412799348,0.007748521324890218,0.990972126891914
2017-06-05,1,0.0020878997449585122,0.0022322223964937778,-0.005027206412799348,0.0086729498232084,0.989998604455563
2017-06-07,1,0.002354424267678333,0.00246540487543353,-0.004814887073150141,0.0086729498232084,0.9904853780665778
2017-06-09,1,0.0014417928106146127,0.0017031353298407048,-0.0010167447864953317,0.01093037640437718,0.9897416987951629
2017-06-13,1,0.0018820027172467566,0.0021154617096950283,-0.004259213183601012,0.009827778548633101,0.9903808883147804
2017-06-15,1,0.001489442573173691,0.0017867584850995706,-0.0010167447864953317,0.007781366671999581,0.9911542836621614
2017-06-19,1,0.004389454804459405,0.004693014147449366,-0.004259213183601012,0.005485548431352325,0.9903479339630623
2017-06-21,1,0.00413996255944166,0.004370536008653599,-0.006225738853245993,0.005485548431352325,0.9892907082619229
2017-06-23,1,0.002386088833379197,0.0024126048344044566,-0.0011617125327694296,0.008143637519908584,0.9869621281472362
2017-06-27,1,0.0023785003091783647,0.002411198301687639,-4.832258209136596e-05,0.00732756143970166,0.9874529782198495
2017-06-29,1,0.0006083357938386295,0.0007918090013154141,-0.0013539465703891155,0.00732756143970166,0.988388536974653
2017-07-03,1,0.001630277748563028,0.001693914078245352,-0.005013608719368862,0.00732756143970166,0.9890552207183662
2017-07-06,1,0.002096828953896929,0.002100379260146919,-0.005013608719368862,0.010950844046902962,0.9887726357262403
2017-07-10,1,0.00275386220095228,0.002799483027397319,-0.0059039509532139945,0.006472385803033711,0.9891346461023838
2017-07-12,1,0.002529775794678629,0.0025485466031847895,-0.0059039509532139945,0.008338473467477712,0.9890265317970841
2017-07-14,1,0.002548582675278337,0.0025855561801190314,-0.00792895316767074,0.010950844046902962,0.9871023082915861
2017-07-18,1,0.001385630506273178,0.0015078010640007266,-0.0059039509532139945,0.011752377468069642,0.9873689604200945
2017-07-20,1,0.0009619496789231266,0.0011035847229176553,-0.0042234279110045445,0.011752377468069642,0.987475983218203
2017-07-24,1,0.00422304761233933,0.004503027027961398,-0.0059039509532139945,0.010950844046902962,0.9904070193819462
2017-07-26,1,0.003951808302280313,0.0041674410169181475,-0.007106871281513251,0.010950844046902962,0.989937440351646
2017-07-28,1,0.003061797470963236,0.0031677851346886155,-0.0042234279110045445,0.010950844046902962,0.9908907778752316
2017-08-01,1,0.00321670544545282,0.003351151909007511,-0.007862503824034032,0.009484625777081429,0.9906491162818023
2017-08-03,1,0.0038218823937965075,0.004041158843235508,-0.007862503824034032,0.007875939315556217,0.9903206224556326
2017-08-07,1,0.0032769516567400445,0.003400962851581512,-0.005359311509927204,0.007660632760244118,0.9906104344532639
2017-08-09,1,0.00405021464589172,0.0043211521806929155,-0.005359311509927204,0.005762403379110326,0.9907796572964983
2017-08-11,1,0.003101211891675281,0.003208825817837166,-0.003998169952261285,0.007660632760244118,0.9914824886653149
2017-08-15,1,0.00330899311284227,0.0034472813194936086,-0.005202933147499301,0.005762403379110326,0.9914392259282054
2017-08-17,1,0.0032945631183398496,0.0034323945618171064,-0.007031139493058497,0.004437167640782204,0.9910062105642209
2017-08-21,1,0.0023911900378062816,0.0024077401752816826,-0.005202933147499301,0.007554905194727423,0.9914144115501152
2017-08-23,1,0.002276844773253724,0.0023026252405989513,-0.005202933147499301,0.007554905194727423,0.9910306972345655
2017-08-25,1,0.0020775194427851947,0.00208346257095585,-0.007393368736750321,0.01135461871081998,0.9904431248638502
2017-08-29,1,0.0006928520067884259,0.0008958061717856476,-0.0045868936699871195,0.012813498696324852,0.990993641665083
2017-08-31,1,0.0013038719302027111,0.0014618020899818864,-0.005082550465176217,0.010954291501274365,0.9913992478117696
2017-09-05,1,0.0012058137755646548,0.001342815245463438,-0.006452535028729176,0.012813498696324852,0.9904796516560644
2017-09-07,1,0.001406245458916729,0.0014942446401323924,-0.006691526965834093,0.014486243936935131,0.9887453707071624
2017-09-11,1,0.0026961326246421136,0.0027656129009190076,-0.006691526965834093,0.010954291501274365,0.9901048506831135
2017-09-13,1,0.0012541098104541586,0.0014227306233067002,-0.006452535028729176,0.010954291501274365,0.9904648037524661
2017-09-15,1,0.00017882120786987226,0.0004943696312579861,-0.0022755776613478454,0.010954291501274365,0.9909435421135416
2017-09-19,1,0.001294473781547943,0.0014683749741702657,-0.006452535028729176,0.007272665727147402,0.9917694576088217
2017-09-21,1,0.0007450698186288714,0.0009781144324983952,-0.002347512476856417,0.010387478155858916,0.988731740951172
2017-09-25,1,0.0004779063046140635,0.0007401983970007342,-0.002347512476856417,0.010954291501274365,0.9876528882082529
2017-09-27,1,0.0009191426981593857,0.0011122074860515853,-0.006452535028729176,0.007312925735604315,0.9873875783618136
2017-09-29,1,0.0008565435594818131,0.001059479049709808,-0.002406817104247334,0.01213464266651712,0.9870535114598606
2017-10-03,1,0.0012070283005538051,0.0013671937318626818,-0.0005817568977085506,0.011855891403688925,0.9878305001215396
2017-10-05,1,0.0011136400646026884,0.0012605308259876443,-0.0022028719000206946,0.00757377876756821,0.9883438549983161
2017-10-09,1,0.0009438863558605335,0.001122421558050161,-0.0022028719000206946,0.011855891403688925,0.9877207127718609
