JNU-Tangyin/eata/results/Batch4_SP500/Batch4_SP500-PWR.csv
Date,Action,Predicted_Q25,Predicted_Q75,Actual_Q25,Actual_Q75,RL_Reward
2010-12-14,0,0.0,0.00601408997998271,-0.004197066750750862,0.009720152840133351,0.9919984162604598
2010-12-16,0,0.0,0.0,-0.004197066750750862,0.010782159667650188,0.9878234462525064
2010-12-20,1,0.002163678954422225,0.0025729723590634706,-0.004197066750750862,0.013040893497427299,0.9877971124132573
2010-12-22,0,0.0,0.0,-0.005045226325786964,0.010782159667650188,0.9880050195778242
2010-12-27,0,0.0,0.0,-0.004197066750750862,0.013040893497427299,0.9851776088759718
2010-12-29,0,0.0,0.0,-0.004197066750750862,0.016636982533470786,0.9844572630977945
2010-12-31,0,0.0,0.0,-0.006534243081211782,0.0211199608106014,0.9826343619920287
2011-01-04,0,0.0,0.0,-0.012054166315410364,0.016636982533470786,0.9840392822427896
2011-01-06,0,0.0,0.0,-0.012054166315410364,0.013040893497427299,0.98410269924656
2011-01-10,1,0.005432034113842606,0.006000896162634882,-0.012054166315410364,0.011858803343868731,0.9842893603483877
2011-01-12,1,0.005070504121554949,0.005541353348137544,-0.012054166315410364,0.013723196281392205,0.9842455074976071
2011-01-14,1,0.005267741736507492,0.005692364782109103,-0.011297451273238859,0.01133268960666364,0.9861369298040699
2011-01-19,1,0.004462610230846727,0.004744534095037196,-0.011297451273238859,0.01133268960666364,0.9862580269005301
2011-01-21,1,0.0037849948743490444,0.003961743608408001,-0.011279790449087411,0.01133268960666364,0.9864954698110951
2011-01-25,1,0.006196547130686682,0.006766723198763122,-0.011279790449087411,0.008350085029817994,0.9872299864200799
2011-01-27,1,0.007468083398391237,0.008176810296887809,-0.01208594660195875,0.008350085029817994,0.9849461904466381
2011-01-31,1,0.0072254809786452615,0.007871921849737413,-0.01208594660195875,0.008350085029817994,0.985375110056822
2011-02-02,1,0.006147147671001673,0.006574302213408914,-0.011279790449087411,0.011159822435091239,0.9860374844504161
2011-02-04,0,0.0,0.0,-0.011017063815057175,0.008798682170753417,0.9875233768633477
2011-02-08,0,0.0,0.0,-0.011017063815057175,0.011886518902764716,0.9871555490556749
2011-02-10,1,0.005211149173105019,0.005630259165510293,-0.012297981848980035,0.011886518902764716,0.9838913768019176
2011-02-14,1,0.004680617465822044,0.004989313067187003,-0.012297981848980035,0.011886518902764716,0.9829868877173821
2011-02-16,1,0.0048555213424366465,0.005219986661338718,-0.013654459468466551,0.010655598048396272,0.9828173243216556
2011-02-18,1,0.004589712299768653,0.004963538003889431,-0.013434774679276226,0.011886518902764716,0.9830576006726621
2011-02-23,1,0.0034175539450824856,0.0035973689826767734,-0.011672588496047237,0.011886518902764716,0.984779961174767
2011-02-25,1,0.0022102695098343756,0.0022310221887540606,-0.011047070560922087,0.011886518902764716,0.9863160874748607
2011-03-01,1,0.002399947550464707,0.0024203641551801313,-0.011047070560922087,0.011886518902764716,0.9864536819314641
2011-03-03,1,0.0035073499290397183,0.003766365901792891,-0.011047070560922087,0.010804000719156003,0.9866254038737494
2011-03-07,1,0.002781758253126142,0.0029604582263723788,-0.011047070560922087,0.012066077637824186,0.9866368381553079
2011-03-09,1,0.002854726860586262,0.0030267902217263644,-0.01153409156356495,0.013930376628176923,0.9856841321206257
2011-03-11,1,0.00262009139264528,0.0027666577281645136,-0.011012325386706469,0.011189924439259737,0.9875145513632688
2011-03-15,1,0.0012223993496890807,0.0012885388900314805,-0.009608325633252063,0.011189924439259737,0.9874527674949789
2011-03-17,0,-0.00013588942317304114,0.00011654219546608426,-0.009608325633252063,0.011189924439259737,0.9866789095418487
2011-03-21,1,0.0014757219427000937,0.0014894924004058112,-0.011012325386706469,0.009716229930482259,0.9867171448258139
2011-03-23,1,0.0010765791300449462,0.0011575572122470173,-0.00977066596746635,0.010120750918458335,0.9871946028434512
2011-03-25,1,0.0014641962916227746,0.0015132449529554103,-0.01303345807558915,0.010120750918458335,0.9866747199060284
2011-03-29,-1,-0.0008627215225331813,-0.0004295217585803619,-0.00977066596746635,0.005606385957126412,0.9884618457947579
2011-03-31,0,0.0,0.0,-0.00977066596746635,0.012910677036427093,0.9871511935717793
2011-04-04,-1,-0.0009137791952217107,-0.0004117643274540656,-0.010485579826337759,0.006276146852597685,0.9880137164044865
2011-04-06,-1,-0.0010642506167519684,-0.0006486197645249705,-0.012019691512577578,0.005989442259632414,0.9841985351068739
2011-04-08,-1,-0.0016012058613520909,-0.001129763442108801,-0.012019691512577578,0.011269919825976341,0.9836208594347032
2011-04-12,-1,-0.003198618141289048,-0.0024526842430969424,-0.007096144397361801,0.011269919825976341,0.9842201687504506
2011-04-14,-1,-0.005382191610205562,-0.004371406070247537,-0.0026665585189200054,0.011269919825976341,0.9851983106190758
2011-04-18,0,0.0,0.0,-0.004560794731746677,0.011269919825976341,0.9862926012034235
2011-04-20,0,0.0,0.0,-0.004560794731746677,0.012115893650638577,0.9856163025213964
2011-04-25,0,0.0,0.0,-0.004560794731746677,0.011198270607723663,0.9862937054889198
2011-04-27,0,0.0,0.0,-0.007096144397361801,0.012014098595731888,0.985430551658784
2011-04-29,0,0.0,0.0,-0.007096144397361801,0.011198270607723663,0.9863612854751469
2011-05-03,0,0.0,0.0,-0.007906297802581603,0.011198270607723663,0.9854673104136054
2011-05-05,0,0.0,0.0,-0.007906297802581603,0.009086427566038073,0.9896983024747252
2011-05-09,0,0.0,0.0,-0.014093884530457186,0.009086427566038073,0.9882412569838673
2011-05-11,0,0.0,0.0,-0.014093884530457186,0.009086427566038073,0.9883034775068245
2011-05-13,0,0.0,0.0,-0.014093884530457186,0.009086427566038073,0.9880054780167652
2011-05-17,0,0.0,0.0,-0.012830726017199427,0.011852612866371143,0.9881465668795096
2011-05-19,-1,-0.007636781379316225,-0.006464352654704093,-0.012830726017199427,0.006312066224318057,0.988589096990784
2011-05-23,-1,-0.008017149682889321,-0.006814154370272567,-0.011047684626557088,0.009095603700547777,0.9876584455808605
2011-05-25,-1,-0.007551807979821485,-0.0064186401285245415,-0.004229635856145924,0.01077037727146898,0.9868158341026947
2011-05-27,-1,-0.006327652886551199,-0.005426166681810557,-0.011047684626557088,0.011012058446307085,0.9868243436019103
2011-06-01,-1,-0.0062572153215744684,-0.005415598524047528,-0.004229635856145924,0.013865711314675476,0.9861191772165645
2011-06-03,-1,-0.006238258404480904,-0.005440680858501181,-0.0033215538954141266,0.016854329402574964,0.9861254367653063
2011-06-07,-1,-0.006661653790826045,-0.005833279997772958,-0.002110927834258869,0.013843071998552505,0.9874740839078553
2011-06-09,-1,-0.00555571807212964,-0.004941606052377115,-0.0033215538954141266,0.013843071998552505,0.987253006540534
2011-06-13,-1,-0.005942988037171177,-0.005290218953726259,-0.007791041085519472,0.013843071998552505,0.9860694149734336
2011-06-15,-1,-0.005922162416535962,-0.005257861011194641,-0.008183364405805233,0.011573378838706981,0.985214719389101
2011-06-17,-1,-0.003882190926418594,-0.003580818914449937,-0.00968607254856517,0.011573378838706981,0.9855694068560176
2011-06-21,-1,-0.002528879608675188,-0.0024206085187499357,-0.00968607254856517,0.011573378838706981,0.9858533388143211
2011-06-23,-1,-0.001107437238172811,-0.0010393456286659263,-0.00968607254856517,0.011573378838706981,0.9867797454846724
2011-06-27,-1,-0.0012622379929240416,-0.0012238051945627586,-0.008948012293403643,0.009667893187629296,0.9878719563026901
2011-06-29,0,-7.587083166674656e-05,0.00010742313741580827,-0.01337791984409968,0.005012344240646045,0.9872377718471518
2011-07-01,1,0.00030531383699585824,0.0005391295469155999,-0.017306224019551203,0.0028716410805142752,0.9865464263748986
2011-07-06,1,0.0010935290460476308,0.0013016756904317777,-0.020893180747016193,0.005012344240646045,0.9794032324680574
2011-07-08,1,0.00018781785081176816,0.0003641621204906316,-0.03135113021675328,0.0028716410805142752,0.9769818840952436
2011-07-12,-1,-0.0006810303887312757,-0.0005778804340430222,-0.03217889677648179,0.005012344240646045,0.9698149403335972
2011-07-14,-1,-0.0020012217297036097,-0.001892241635293501,-0.027257385028993154,0.007333770927873276,0.9678281075663222
2011-07-18,0,0.0,0.0,-0.027257385028993154,0.018875929168491963,0.9667137292740478
2011-07-20,0,0.0,0.0,-0.027257385028993154,0.00427069572458731,0.9661342103254947
2011-07-22,0,0.0,0.0,-0.03217889677648179,-0.0009139415268244265,0.9638395474275931
2011-07-26,0,0.0,0.0,-0.03217889677648179,0.005467873488127002,0.9619056108775158
2011-07-28,0,0.0,0.0,-0.027690208204087352,0.025599075958551452,0.9619952736484493
2011-08-01,0,0.0,0.0,-0.01967800438794719,0.03532756444352464,0.9606361251310835
2011-08-03,-1,-0.00036637308724157564,-0.0002476611725100641,-0.017045892137206364,0.034603104445246065,0.9654139717498538
2011-08-05,-1,-0.003346663305802478,-0.003071351380421607,-0.0185790369812708,0.034603104445246065,0.9662443206824298
2011-08-09,-1,-0.0036315553596881333,-0.003319869477152342,-0.017045892137206364,0.03190976232915221,0.973561183190698
2011-08-11,-1,-0.0020105187582296832,-0.0019409943037020218,-0.017045892137206364,0.025599075958551452,0.9761504568201782
2011-08-15,-1,-0.0015061074634477518,-0.0015041307990751932,-0.017045892137206364,0.025097494789155062,0.9760855911589174
2011-08-17,-1,-0.0021723637448699423,-0.0021220582508016295,-0.011659491722838446,0.025097494789155062,0.9754402421351805
2011-08-19,0,0.0,0.0,-0.00578116644415908,0.025097494789155062,0.9786487157754956
2011-08-23,-1,-0.0014210073063055664,-0.0013830524878506092,-0.008067154985033673,0.02114209098971582,0.9803725624812599
2011-08-25,0,0.0,0.0,-0.008067154985033673,0.02114209098971582,0.9796691307506076
2011-08-29,0,0.0,0.0,-0.008067154985033673,0.02063528511957987,0.9818382557202254
2011-08-31,0,0.0,0.0,-0.012998516304016695,0.02063528511957987,0.9800942679640658
2011-09-02,0,0.0,0.0,-0.015457302678854964,0.02063528511957987,0.9780374389136149
2011-09-07,0,0.0,0.0,-0.015457302678854964,0.021526228050765567,0.9755415284968848
2011-09-09,0,0.0,0.0,-0.010736354579272186,0.026119373864108522,0.9750055722404922
2011-09-13,0,0.0,0.0,-0.010736354579272186,0.032247516682683,0.9743086863163026
2011-09-15,0,0.0,0.0,-0.01867453568351795,0.032247516682683,0.9743506846506417
2011-09-19,1,0.0012007185975669125,0.0014842554193937483,-0.022145334049134473,0.032247516682683,0.9730722183796711
2011-09-21,1,0.0016150285100778616,0.002024178263989858,-0.022145334049134473,0.032247516682683,0.971644698547749
2011-09-23,1,0.0022186867696542814,0.0026747967081719964,-0.01867453568351795,0.03203819475549621,0.9732966581675975
2011-09-27,1,0.0013988833474214545,0.0016324812884483022,-0.021674409222239982,0.03203819475549621,0.9720917965976326
2011-09-29,1,0.002149916652006387,0.002516715495370919,-0.01867453568351795,0.03203819475549621,0.9732081636522899
2011-10-03,-1,-0.0016502259617889052,-0.0015246249513413484,-0.01608615987648385,0.03203819475549621,0.9757550173854485
2011-10-05,1,0.0016444820453895052,0.0019470020908691594,-0.01867453568351795,0.02699577704074861,0.9734908153254854
2011-10-07,1,0.0013345369383729903,0.001524390237256527,-0.01935757990149267,0.02147805064362721,0.9743257833965764
2011-10-11,1,0.0021481252733156916,0.0025067143088437476,-0.023723541876164135,0.0198897536737,0.9740063229625889
2011-10-13,1,0.002538714575361067,0.002894814563801815,-0.02835199397078132,0.018345100053873575,0.9708897206845593
2011-10-17,1,0.002473153711073175,0.0028114293206528062,-0.02693921949009784,0.015002359031962266,0.9714401683093704
2011-10-19,1,0.0024889321427047878,0.0028493390414536506,-0.02693921949009784,0.020674950770602434,0.9713051116722277
2011-10-21,1,0.0031025795830497025,0.0035452518019352727,-0.02693921949009784,0.015002359031962266,0.9718654437922065
2011-10-25,1,0.0027169506885336672,0.0030652870983489495,-0.02662429894607489,0.013144573176621474,0.9729664126878103
2011-10-27,1,0.004686316009841504,0.005276387157727325,-0.02662429894607489,0.0077039314989966684,0.9739795053810121
2011-10-31,1,0.003166380295888914,0.0035511657057289052,-0.021953696788074614,0.011984841876135327,0.9730995011243229
2011-11-02,1,0.003922262159614343,0.004388683723431831,-0.020615840669889515,0.011984841876135327,0.9775050489035064
2011-11-04,1,0.0032435148229636133,0.003611649279193287,-0.018353007319802918,0.012827918472623202,0.9784805361730369
2011-11-08,1,0.0019454049881299203,0.0021422180511488542,-0.016043374370609237,0.012827918472623202,0.9802923033802283
2011-11-10,-1,-0.00030936973222996176,-0.0002482899191209656,-0.014147899518744032,0.01794270796209729,0.9819285781559627
2011-11-14,-1,-0.00015367125634741104,-0.00011015594493756349,-0.014147899518744032,0.01794270796209729,0.9819397637151572
2011-11-16,1,0.0014042607642771442,0.0016085994597489761,-0.014996049461926625,0.008916258252976948,0.9825623716972335
2011-11-18,1,0.0012557617932384335,0.001485764935333186,-0.016043374370609237,0.01661360314502336,0.9811283148070689
2011-11-22,0,0.0,0.0,-0.015543497440427738,0.020688218155452617,0.9803194889083963
2011-11-25,0,0.0,0.0,-0.011246815885519554,0.028509541532635935,0.9799356150887318
2011-11-29,1,0.0019317097848994612,0.002273137457347492,-0.011246815885519554,0.01966682416879576,0.9821518156041084
2011-12-01,1,0.00242372030101706,0.0027396940541093533,-0.011246815885519554,0.01661360314502336,0.9844579225432052
2011-12-05,1,0.0023588230986735965,0.0026265820948141506,-0.011246815885519554,0.010491876833100313,0.985205835289723
2011-12-07,1,0.0020166845305630596,0.0022220672806522227,-0.011246815885519554,0.01363554025059801,0.9848664314772372
2011-12-09,0,0.0,0.0,-0.007997608984967439,0.01363554025059801,0.9869365444257713
2011-12-13,0,0.0,0.0,-0.004697036346256716,0.01363554025059801,0.9882446330376413
2011-12-15,1,0.0027850941353610085,0.0030629120482374545,-0.004697036346256716,0.009350484791165875,0.9887113519455059
2011-12-19,0,0.0,0.0,-0.004697036346256716,0.007325285844356681,0.9906793688849733
2011-12-21,0,0.0,0.0,-0.005637037318374581,0.006622313968800161,0.9906451175512845
2011-12-23,0,0.0,0.0,-0.005637037318374581,0.0046853748200443345,0.9909449925682837
2011-12-28,0,0.0,0.0,-0.005067926351309317,0.006622313968800161,0.9914342118622187
2011-12-30,0,0.0,0.0,-0.005637037318374581,0.006123423771305355,0.9911236867441467
2012-01-04,1,0.0017118184669680403,0.0018739320208757046,-0.005637037318374581,0.007201274987932181,0.9900410297219134
2012-01-06,1,0.0016439780404963356,0.0018041965681002178,-0.005067926351309317,0.006332708995705916,0.9906814678904514
2012-01-10,1,0.00124694120978824,0.0012807087741196045,-0.006102450364778548,0.006068800057521827,0.991152660492103
2012-01-12,1,0.0001638700060524965,0.000354225893038806,-0.009554488991761825,0.006332708995705916,0.9895484172321594
2012-01-17,1,0.0002431025879060702,0.0003392251418059616,-0.006102450364778548,0.007201274987932181,0.989906028106991
2012-01-19,1,0.00022409128492532318,0.00033461331852598195,-0.009554488991761825,0.007037403846581597,0.9897449590644223
2012-01-23,-1,-0.0002993944919865493,-0.00021980035089306298,-0.0029682719157814916,0.007037403846581597,0.9910888152546117
2012-01-25,1,0.0014193528751568745,0.0016154542930904938,-0.007092447308331976,0.006068800057521827,0.9915382369172818
2012-01-27,1,0.000601861725277446,0.0006122472296447357,-0.00934781164947071,0.006068800057521827,0.9908084477126833
2012-01-31,1,0.0008813239055999482,0.000978305775578249,-0.010075144684638401,0.005985253698734559,0.9904925004268825
2012-02-02,1,0.0009004457069337838,0.0009277677598015864,-0.010075144684638401,0.004608698142784399,0.9906268485257252
2012-02-06,1,0.001474381305215169,0.0016260552962139932,-0.011174543310917868,0.005246886876107505,0.9890617100878435
2012-02-08,1,0.001398054668076742,0.0015853333291728018,-0.01055451128404453,0.011987339279025717,0.9882800029257821
2012-02-10,1,0.0010842852406546656,0.0012354314692268424,-0.009549296724315814,0.011745753435228557,0.989445987156688
2012-02-14,1,0.0012675308392823257,0.0014058860939743078,-0.009549296724315814,0.011606965802605274,0.9893031997992956
2012-02-16,1,0.0011791212323513398,0.0013464243745539744,-0.007159608999947011,0.011606965802605274,0.9896349831435952
2012-02-21,1,0.0010641477025070168,0.0012204297984101259,-0.009549296724315814,0.011606965802605274,0.9887094773165462
2012-02-23,1,0.0008319552129712653,0.000981385891257634,-0.007830183449908006,0.011606965802605274,0.9895527550506787
2012-02-27,-1,-0.00271215008080457,-0.0020743949350793757,-0.006299772935178127,0.011115197744221709,0.9900561048006579
2012-02-29,-1,-0.0013407201326257705,-0.001058954279894126,-0.007830183449908006,0.011115197744221709,0.9896165453399612
2012-03-02,-1,-0.001066424810965196,-0.0008352155750979012,-0.006299772935178127,0.010828326732610237,0.9904289373312106
2012-03-06,-1,-0.0010600114804275814,-0.0008592108601297174,-0.005765673230827436,0.008935666066052648,0.9916622239929115
2012-03-08,-1,-0.00013025349418325984,-3.0061441279170982e-05,-0.005765673230827436,0.007730390266741828,0.9920281645079378
2012-03-12,0,0.0,0.0,-0.008704193271281165,0.006547461331001917,0.9896467933124905
2012-03-14,0,0.0,0.0,-0.008704193271281165,0.008332709018124959,0.9888183436866438
2012-03-16,0,0.0,0.0,-0.011814328074688688,0.0073066382790638006,0.9885591973089565
2012-03-20,0,0.0,0.0,-0.010588243854870167,0.008332709018124959,0.9882111427884278
2012-03-22,1,0.001050404753142166,0.0012549003447965856,-0.011814328074688688,0.011071920979424882,0.9868834649824337
2012-03-26,1,0.0007850622440372485,0.0008804757411617482,-0.013215458601874574,0.012020718060039006,0.9860815934281567
2012-03-28,1,0.0005225617649007833,0.0006508739080404108,-0.010588243854870167,0.013316346053911356,0.9862601045610048
2012-03-30,1,0.00021398996629072163,0.00028145953672187155,-0.010588243854870167,0.017607952794934642,0.9854568984486198
2012-04-03,-1,-0.0001939238877665992,-0.00016597032018345151,-0.010588243854870167,0.017607952794934642,0.9846707298974806
2012-04-05,-1,-0.0011014675519074345,-0.0008253638012543611,-0.012196614523610375,0.017607952794934642,0.9832258426177192
2012-04-10,-1,-0.0030069250861148767,-0.0024924259053899053,-0.006725036046264946,0.017607952794934642,0.9845281829588362
2012-04-12,-1,-0.0012435297950484582,-0.0010070849690871678,-0.010509725931777873,0.015281851044250495,0.9861017149025335
2012-04-16,-1,-0.0018679987445755115,-0.00152535705288976,-0.010033959039522035,0.015281851044250495,0.9862772420103549
2012-04-18,-1,-0.00181767482482689,-0.0014668905435079212,-0.010239178330912663,0.014427620411756978,0.9869259751152061
2012-04-20,-1,-0.0009185678432391918,-0.0007236460724800942,-0.011619138750291552,0.012591596434889185,0.9866157973388532
2012-04-24,-1,-0.0010595224450202269,-0.0008586552104314258,-0.010239178330912663,0.014427620411756978,0.9867572850674378
2012-04-26,0,0.0,0.0,-0.010239178330912663,0.014427620411756978,0.9866306033303243
2012-04-30,1,0.0007117676736336424,0.0007614954846680433,-0.010239178330912663,0.013873425336795295,0.9869684820751629
2012-05-02,1,0.0012322942157474597,0.001338894628563907,-0.011619138750291552,0.013957715292058161,0.9861783917772127
2012-05-04,0,0.0,0.0,-0.011619138750291552,0.008075194939888558,0.986194129136234
2012-05-08,0,0.0,0.0,-0.011619138750291552,0.008075194939888558,0.9855335963509975
2012-05-10,0,0.0,0.0,-0.01126119597132889,0.014163563400470229,0.9848797070608261
2012-05-14,0,0.0,0.0,-0.013800772676470873,0.014163563400470229,0.9843179375485482
2012-05-16,0,0.0,0.0,-0.01196156506448283,0.015788965191880704,0.9837543550423151
2012-05-18,0,0.0,0.0,-0.007908308175960941,0.017451548660047937,0.9848272069503927
2012-05-22,0,0.0,0.0,-0.007908308175960941,0.015788965191880704,0.9857245552496527
2012-05-24,1,0.0012165264869447095,0.0014092692496881522,-0.009536728959554203,0.012968936064431811,0.9859439589265447
2012-05-29,1,0.0007491975175166976,0.0008916163967687705,-0.01197900319139469,0.012968936064431811,0.985363192301604
2012-05-31,1,0.001056715180142079,0.0012435233091580315,-0.006011690362458157,0.01517415933038382,0.9852051349469688
2012-06-04,-1,-0.0004330657461461526,-0.00041930868855733904,-0.004021032886150568,0.01725661592765989,0.9862438760498474
2012-06-06,1,0.0006525992806122291,0.000829366692526109,-0.005219209018131624,0.01517415933038382,0.9872263155264555
2012-06-08,0,0.0,0.0,-0.008120159804028816,0.011487623112441739,0.9877360921998997
2012-06-12,1,0.000993978429170336,0.0011116493199511924,-0.010996548155724106,0.011487623112441739,0.9872182802402947
2012-06-14,1,0.0010030434237378563,0.0010488718793672902,-0.010996548155724106,0.012852998363487042,0.9873912665088536
2012-06-18,1,0.002070550869850686,0.002319079231119998,-0.010996548155724106,0.010750538721343928,0.9879301466134531
2012-06-20,1,0.0016774910276869874,0.0018794759923343816,-0.014283863447856518,0.010750538721343928,0.9866646967777553
2012-06-22,0,0.0,0.0,-0.014283863447856518,0.010750538721343928,0.9858685075481387
2012-06-26,0,0.0,0.0,-0.010996548155724106,0.010438757341437403,0.9869089192012463
2012-06-28,0,0.0,0.0,-0.010996548155724106,0.010438757341437403,0.9867384159528844
2012-07-02,0,0.0,0.0,-0.012486538882501425,0.009625733266726083,0.9873396379268324
2012-07-05,0,0.0,0.0,-0.014283863447856518,0.010438757341437403,0.9839424953588404
2012-07-09,0,0.0,0.0,-0.012922314845566654,0.013266445771506426,0.9825863104300833
2012-07-11,1,0.0008973188139025861,0.0010330693633047426,-0.008065065134928362,0.013266445771506426,0.9838846210486628
2012-07-13,1,0.001582845954295563,0.0017973147661496606,-0.008065065134928362,0.009625733266726083,0.9845534997185841
2012-07-17,1,0.001461405921005981,0.0015819490554494985,-0.00898562097840924,0.008492784282366828,0.984599588728292
2012-07-19,1,0.0002510787880839041,0.0002880098025876488,-0.00795762069433046,0.010284586356305893,0.9852179173189178
2012-07-23,-1,-0.0010302367861871296,-0.000800302961569439,-0.00795762069433046,0.009849794470326087,0.986305631833292
2012-07-25,-1,-0.0011485608092579916,-0.0009123976130692134,-0.00898562097840924,0.009849794470326087,0.9858082814508295
2012-07-27,0,-3.271108243413194e-05,9.697009396821265e-05,-0.00898562097840924,0.008138384103372002,0.9878784994687605
2012-07-31,1,0.0003122099501169051,0.00034220593335424984,-0.007671895815951097,0.008138384103372002,0.9883171125629086
2012-08-02,1,0.0010893892045018795,0.0011674571156783265,-0.00898562097840924,0.005142357967249073,0.9912008879474434
2012-08-06,1,0.001384905354068524,0.001503396770954895,-0.007671895815951097,0.005142357967249073,0.9924290129853832
2012-08-08,0,0.0,0.0,-0.007671895815951097,0.005142357967249073,0.9914129946708676
2012-08-10,0,0.0,0.0,-0.009463107459119414,0.0034671746578253284,0.9915348223521987
2012-08-14,1,0.0014842003684097387,0.0015768641096008524,-0.0063930169097812534,0.005348514441860281,0.9910666647156743
2012-08-16,1,0.0022053465863348764,0.002410173374129603,-0.0063930169097812534,0.004275480826089764,0.9902348452705989
2012-08-20,1,0.0010403483765322272,0.0010424195008628004,-0.006104690116044578,0.004275480826089764,0.9904315847802257
2012-08-22,1,9.358422734677597e-05,0.00023019236214103466,-0.0074169427624892325,0.004275480826089764,0.9904582663091709
2012-08-24,0,0.0,0.0,-0.0074169427624892325,0.0050079345400952015,0.9903502208363348
2012-08-28,0,0.0,0.0,-0.011062496869325453,0.0050079345400952015,0.9900295401285921
2012-08-30,-1,-0.0011446991988770094,-0.0008292570288003622,-0.0031265581640299587,0.0050079345400952015,0.9913763040009986
2012-09-04,0,-8.665650362441708e-05,6.303501000090681e-05,-0.0031265581640299587,0.00481822812220848,0.9919453937920468
2012-09-06,1,0.0007065102733141087,0.0007781148960189111,-0.003075837733972259,0.0036203454508249963,0.9931656075749311
2012-09-10,1,0.00012332804875457565,0.00025347121677413956,-0.003628559127965566,0.0036203454508249963,0.9935789681519832
2012-09-12,1,0.000789321085283467,0.0008334352486091068,-0.007290658643026784,0.0009077509686071644,0.9926218491206253
2012-09-14,1,0.0014867977958585175,0.0015047358059347633,-0.007290658643026784,0.0009077509686071644,0.9933903061829535
2012-09-18,1,0.0014106674129106844,0.001458478982468972,-0.006660596308213431,0.0031293517446433234,0.9930045080464943
2012-09-20,1,0.0010005694910612214,0.0010280701502642664,-0.005591107510830131,0.0031293517446433234,0.9935421613158232
2012-09-24,1,0.0014549538601095267,0.0015811021217467434,-0.009591128564006823,0.0009077509686071644,0.9919225596254542
2012-09-26,1,0.0012978323973102403,0.0014314612828814726,-0.008199604591468198,0.0015721100430354748,0.9925242546475863
2012-09-28,1,0.001404216167963903,0.0015700831061879615,-0.008199604591468198,0.0031293517446433234,0.9921672542934625
2012-10-02,1,0.0008944135770856154,0.0009723054065697817,-0.008409523385126605,0.003275630725816721,0.987301230474624
2012-10-04,0,0.0,0.0,-0.009591128564006823,0.006776639642024693,0.986135359027354
2012-10-08,0,0.0,0.0,-0.009591128564006823,0.010066052135243038,0.9852820054320995
2012-10-10,0,0.0,0.0,-0.008409523385126605,0.010066052135243038,0.9854664945137787
2012-10-12,0,0.0,0.0,-0.00963075056231709,0.0100017417136114,0.9851105643250853
2012-10-16,0,0.0,0.0,-0.010526271888843764,0.003959817462271003,0.9852836108209253
2012-10-18,0,0.0,0.0,-0.00963075056231709,0.008044730984899225,0.985398373914338
2012-10-22,-1,-0.0018231172596498793,-0.0015323485423058805,-0.00837380361443608,0.008044730984899225,0.9866204115538736
2012-10-24,-1,-0.0028671276577009602,-0.0023823572141108617,-0.00837380361443608,0.009780829796571697,0.985655422802948
2012-10-26,-1,-0.0018849958375353089,-0.001566366531058416,-0.009523591250245513,0.008044730984899225,0.9856576275389349
2012-11-01,-1,-0.00030434158704316676,-0.0002041229565090458,-0.009523591250245513,0.009780829796571697,0.9893943880377439
2012-11-05,0,-3.199306350498628e-05,4.945074213267325e-05,-0.006748173158247392,0.009780829796571697,0.9902808914979709
2012-11-07,1,0.001102300077581857,0.001200689816144436,-0.008952242204283792,0.007192798055535729,0.9906599714488964
2012-11-09,1,0.00041995629532182437,0.00046565047607057127,-0.007387945667222419,0.010941532490652887,0.9896564155785178
2012-11-13,-1,-0.00071804252988444,-0.0005975593793924733,-0.0029810509630774722,0.011705624936247844,0.9898132457734824
2012-11-15,0,0.0,0.0,-0.0029329637212167532,0.011705624936247844,0.9902491147004613
2012-11-19,0,0.0,0.0,-0.0029329637212167532,0.011990532093716422,0.9899546610534197
2012-11-21,0,0.0,0.0,-0.0031736296420984524,0.012102316940768241,0.9892015255702439
2012-11-26,0,0.0,0.0,-0.007387945667222419,0.012102316940768241,0.9893442106760614
2012-11-28,0,0.0,0.0,-0.005861020442982001,0.012102316940768241,0.9900340113722669
2012-11-30,0,0.0,0.0,-0.007387945667222419,0.012102316940768241,0.9890830539936062
2012-12-04,0,0.0,0.0,-0.008666799448069317,0.012192072207842604,0.9882150508204937
2012-12-06,-1,-0.00010148960500212764,-6.632570414444516e-05,-0.006287305036597634,0.012192072207842604,0.9879676026848433
2012-12-10,1,0.0013825793844573571,0.00162545490056619,-0.006287305036597634,0.012102316940768241,0.9896987584034463
2012-12-12,1,0.0010498123620257228,0.001176051645446033,-0.006517701174548682,0.012102316940768241,0.9893789640987886
2012-12-14,0,0.0,0.0,-0.006517701174548682,0.012102316940768241,0.988885297773119
2012-12-18,0,0.0,0.0,-0.009046241590075919,0.01088577360997407,0.9892249163747455
2012-12-20,1,0.0017003712770080294,0.0018767163463090397,-0.006517701174548682,0.01093388586147011,0.9891837424580474
2012-12-24,1,0.0008042474400077794,0.0008403993300062144,-0.006491619398732286,0.012429826091404694,0.9887934293884648
2012-12-27,1,0.0010687247138748976,0.0011823061402412287,-0.006491619398732286,0.012429826091404694,0.9891554934943136
2012-12-31,1,0.0017234824431810623,0.0019521660347908947,-0.006491619398732286,0.01093388586147011,0.9900051408978623
2013-01-03,0,0.0,0.0,-0.006491619398732286,0.010399152046580578,0.9903386772007982
2013-01-07,0,0.0,0.0,-0.00896799626262673,0.007850472480003578,0.9905228820848607
2013-01-09,0,0.0,0.0,-0.00896799626262673,0.007766917633077235,0.9908295910286394
2013-01-11,0,0.0,0.0,-0.00896799626262673,0.006459920541609022,0.9911078674763453
2013-01-15,0,0.0,0.0,-0.008193340444715196,0.009224241821727385,0.990710222051773
2013-01-17,1,0.0014782815739471317,0.001512438092892759,-0.008193340444715196,0.009224241821727385,0.9904516048320734
2013-01-22,1,0.003627408909428127,0.004062013804903155,-0.009046226559614708,0.005428020279729819,0.9899106281889752
2013-01-24,1,0.0037555958484706453,0.004206658613542045,-0.008744833827040974,0.006826390909408375,0.9904237714391471
2013-01-28,1,0.003327338895377851,0.0036411747823765247,-0.011203139369308165,0.006826390909408375,0.9888640608605109
2013-01-30,0,0.0,0.0,-0.009866240043836235,0.00952180141901774,0.9901658436873508
2013-02-01,0,0.0,0.0,-0.008466678272789038,0.00952180141901774,0.9900477438685302
2013-02-05,0,0.0,0.0,-0.007568969594850381,0.01119065986935472,0.9893927125182499
2013-02-07,0,0.0,0.0,-0.007568969594850381,0.00952180141901774,0.9896850249237137
2013-02-11,0,0.0,0.0,-0.007942771667115468,0.011047653474221113,0.9891660266780153
2013-02-13,0,0.0,0.0,-0.007942771667115468,0.00818092391998552,0.9901816173758079
2013-02-15,1,0.0014787457018604858,0.001645780025629934,-0.007942771667115468,0.00818092391998552,0.9907191178637516
2013-02-20,1,0.00039183217297054457,0.00042960666240166013,-0.0046518610177328145,0.00818092391998552,0.9915743907775915
2013-02-22,1,0.0013328279972160317,0.00144041336696312,-0.007942771667115468,0.007214938703316725,0.990997408634358
2013-02-26,1,0.00010162700893624787,0.00015338376531839776,-0.0046518610177328145,0.007214938703316725,0.9917053953532442
2013-02-28,1,0.001012009908841783,0.0010767732022167972,-0.005012050193694442,0.007214938703316725,0.9919772294052386
2013-03-04,1,0.000788453888269492,0.0008167923091176585,-0.010263741416910171,0.006506172123761281,0.9898742338926774
2013-03-06,1,0.0011717960262506715,0.0012202737596761102,-0.010934515020645817,0.0053406486740068,0.9896330728223011
2013-03-08,1,0.0006752416110397058,0.0007662848734682598,-0.010934515020645817,0.0068183806057234295,0.9877468053911115
2013-03-12,1,0.0008254061007342141,0.0008729383203571416,-0.010263741416910171,0.006403718134924441,0.9883921221534352
2013-03-14,1,0.001121744311731971,0.0011241493229697972,-0.010263741416910171,0.006403718134924441,0.9880911284254452
2013-03-18,1,8.767755177991384e-05,0.0002979869828507939,-0.013915967917724743,0.007580580207555773,0.985619017879139
2013-03-20,-1,-0.0010043987267697554,-0.0006090584969138341,-0.014891637836876153,0.007580580207555773,0.9850807907834713
2013-03-22,-1,-0.0023738321735286773,-0.001809848327743771,-0.011107813426118858,0.008892012079770433,0.9854081813542639
2013-03-26,-1,-0.002607547583641043,-0.002033509112599354,-0.010804380400278433,0.008892012079770433,0.9853361065264301
2013-03-28,-1,-0.00198425932099931,-0.0016060900525025283,-0.010804380400278433,0.009637142438987587,0.9847578668274852
2013-04-02,-1,-0.004042898581578164,-0.003458170561337729,-0.0074205178866329465,0.009637142438987587,0.9868156955042545
2013-04-04,-1,-0.003859912333644639,-0.003293292331745426,-0.0074205178866329465,0.012194124776498299,0.9847243004281545
2013-04-08,-1,-0.00255437426455138,-0.0021199048091199804,-0.0074205178866329465,0.010795436315094564,0.9862277763199889
2013-04-10,-1,-0.0011919136526382134,-0.0008172411370712042,-0.0074205178866329465,0.010795436315094564,0.9864478210026721
2013-04-12,-1,-0.00327232470236965,-0.002682460495071891,-0.007920945816127196,0.012316194986196911,0.9860257330705822
2013-04-16,-1,-0.00288843965490987,-0.0022894019425277494,-0.007920945816127196,0.012316194986196911,0.987632992779189
2013-04-18,-1,-0.004248344355899929,-0.003503135460782324,-0.006934776263591701,0.012910651164520469,0.9872909499094403
2013-04-22,-1,-0.002807983718208086,-0.002244861564312893,-0.006934776263591701,0.012910651164520469,0.988062931622012
2013-04-24,-1,-0.0032202505174230484,-0.0025950936473301996,-0.007674837097708227,0.012910651164520469,0.9874593016864868
2013-04-26,-1,-0.0030794511507684762,-0.0025246019248890347,-0.007676372717100449,0.012316194986196911,0.9879457281912915
2013-04-30,-1,-0.0034496640214588667,-0.0028904069600031567,-0.009147063939909706,0.012316194986196911,0.9874656004565301
2013-05-02,-1,-0.002834996411850108,-0.0023147837736611308,-0.007676372717100449,0.010636186899966815,0.9907922381784862
2013-05-06,-1,-0.0013903062534089434,-0.0011275193922442347,-0.009147063939909706,0.0023234138411402216,0.9898237455050097
2013-05-08,-1,-0.001741231746062978,-0.0014495088766676941,-0.009558819130445416,0.005274339463484829,0.9891333845361955
2013-05-10,-1,-0.0014731546611607832,-0.0011818425090125285,-0.013211993473196253,0.005550296811552893,0.9886750269388109
2013-05-14,-1,-0.0004223765992016539,-0.00026583993323228325,-0.014871387175209198,0.0023234138411402216,0.9884959339113478
2013-05-16,0,-8.701053773149312e-05,1.7794870561740005e-05,-0.014871387175209198,0.0010977859251410963,0.9890710402706333
2013-05-20,1,1.9310851919494235e-05,0.00010769481254836293,-0.014871387175209198,0.0010977859251410963,0.9883940005334478
2013-05-22,-1,-0.0011422027202244599,-0.0008988685342502078,-0.014871387175209198,0.0010977859251410963,0.9884232387634514
2013-05-24,-1,-0.0007861014029065465,-0.0006996094103519316,-0.014022885373020435,0.0010977859251410963,0.9883868178530291
2013-05-29,-1,-0.0012823470755216435,-0.0011299395051152128,-0.014022885373020435,0.004528507582260007,0.9882184253611869
2013-05-31,-1,-0.0009631623056591223,-0.0008858745630384196,-0.014022885373020435,0.012239894366191304,0.9871895718610786
2013-06-04,-1,-0.0022667479309753202,-0.0020627340714040555,-0.013076196974584385,0.012239894366191304,0.9886671156972133
2013-06-06,-1,-0.001855236674827115,-0.0017032331181872041,-0.013076196974584385,0.008963847462012734,0.989047278653289
2013-06-10,-1,-0.002076213017041516,-0.0019070502084363628,-0.009953999590329648,0.012354180170779196,0.9888279390949202
2013-06-12,-1,-0.0034559485462803434,-0.0031132450086974084,-0.003601774354591281,0.012354180170779196,0.9894311813895379
2013-06-14,-1,-0.0024115160570828726,-0.0022425293799280474,-0.003601774354591281,0.014153518588077549,0.9890546239179698
2013-06-18,-1,-0.0009763731355012706,-0.0009562100447848622,-0.005327069934046515,0.009517515240689403,0.990681520089056
2013-06-20,-1,-0.00225436348556635,-0.0021322706964494566,-0.0012505609998966344,0.014153518588077549,0.9907911212945102
2013-06-24,-1,-0.0029653990492648228,-0.002715011031880976,-0.000190844057073111,0.014153518588077549,0.9903467187351754
2013-06-26,-1,-0.002733478584985337,-0.0025053367435943627,-0.0034075238347926837,0.009517515240689403,0.9909082497773902
2013-06-28,-1,-0.0030721741003306023,-0.002776090154253094,-0.005338886335598234,0.00784113068567658,0.990416187071503
2013-07-02,-1,-0.002960138766497148,-0.0027026276860601527,-0.0034075238347926837,0.00846193251232222,0.9903698516895545
2013-07-05,-1,-0.0026819359865878785,-0.002436669453454899,-0.0034075238347926837,0.010848435321707655,0.9885395332150634
2013-07-09,-1,-0.0018361245636626619,-0.0017296185121844013,-0.0058408638656123005,0.006360525965589317,0.9894727196130562
2013-07-11,-1,-0.001663009667594255,-0.0015714955805651433,-0.006899115683595643,0.007863844953848044,0.9888388585294698
2013-07-15,-1,-0.0014452278754116612,-0.0013267632610855506,-0.006899115683595643,0.007863844953848044,0.9891854516886952
2013-07-17,-1,-0.00046401715959691045,-0.00035814010649156113,-0.008744661556099084,0.007863844953848044,0.9888564935288405
2013-07-19,1,2.368013683066582e-05,0.00015619927930085663,-0.010565270826554004,0.0024890098807038435,0.9885556192911921
2013-07-23,1,0.0004300634027014665,0.0006538040239522424,-0.015141389119323506,0.002561936315662841,0.9877850917599408
2013-07-25,1,9.33344571928355e-05,0.0002723404948934136,-0.010565270826554004,0.008082624258725036,0.9876386548382269
2013-07-29,-1,-0.0008248874246444384,-0.0007497284993035273,-0.00856541347337446,0.008367054092752627,0.988860934107745
2013-07-31,-1,-0.00023194694050517614,-6.375527796447758e-05,-0.010565270826554004,0.008082624258725036,0.9882153610034614
2013-08-02,1,0.0005170607669421154,0.0007923872835892822,-0.010565270826554004,0.0048766882586119935,0.990026545699922
2013-08-06,1,0.00013623760016096258,0.0003807741757539078,-0.00856541347337446,0.0048766882586119935,0.9907345129220766
2013-08-08,-1,-0.0003147530493974422,-0.00013925887029114532,-0.00856541347337446,0.004013874795258316,0.9911017566180664
2013-08-12,1,1.6887253973095202e-05,0.00024214912875290535,-0.00856541347337446,0.004013874795258316,0.9909890002399804
2013-08-14,-1,-0.0007143008816704183,-0.0006272524897061665,-0.008103825339547876,0.005485342102238355,0.9911248646795507
2013-08-16,-1,-0.0012344616650299218,-0.0012272944148484493,-0.007703190022091168,0.008366601188666944,0.9906405726211291
2013-08-20,-1,-0.0012874490180234564,-0.00127760552449109,-0.007427164129729275,0.010166341533961195,0.9900768474994978
2013-08-22,-1,-0.0021988085954898024,-0.0019767052301635107,-0.007703190022091168,0.009352831974075732,0.9904712383158386
2013-08-26,-1,-0.002307284323592234,-0.00203848718201982,-0.007703190022091168,0.00984301744504289,0.9903337213411423
2013-08-28,-1,-0.002449429911923578,-0.002246395317081138,-0.00527988375643371,0.011710319207855943,0.990107149127484
2013-08-30,-1,-0.0022725897356372722,-0.002104412550317689,-0.00527988375643371,0.011710319207855943,0.9896947679880417
2013-09-04,-1,-0.002241499777913167,-0.0020815742942696986,-0.004714914901883093,0.011710319207855943,0.9892202746143979
2013-09-06,-1,-0.0033428268582441404,-0.0030348630270996685,-0.004714914901883093,0.011710319207855943,0.9893732388097266
2013-09-10,-1,-0.0032971597503867276,-0.0029688618722273335,-0.006285817294725854,0.011161468936492053,0.9892666690740576
2013-09-12,-1,-0.0022708585414069503,-0.0021164519163305163,-0.006285817294725854,0.012802563526377198,0.9885903378447992
2013-09-16,-1,-0.001957523794325663,-0.0018405342574714602,-0.005085076036174341,0.012802563526377198,0.988629339755178
2013-09-18,-1,-0.0004239956667193861,-0.00034222148393700156,-0.007176162002229372,0.009463608227163581,0.9894979595007211
2013-09-20,-1,-0.0004727267294259577,-0.0004046123000840928,-0.005085076036174341,0.011161468936492053,0.9892501702543821
2013-09-24,1,0.000452832873934713,0.0006971891341779796,-0.005050226081313808,0.011161468936492053,0.9894994954690578
2013-09-26,1,0.0017731545106770528,0.002180931001929773,-0.005050226081313808,0.009463608227163581,0.9902022537870547
2013-09-30,1,0.0007124268081920928,0.0009527094631028443,-0.0026505351618957293,0.009463608227163581,0.9912448449797521
2013-10-02,1,0.0016023348114390385,0.001976673939259656,-0.0026505351618957293,0.009646301666097727,0.9911600397407809
2013-10-04,1,0.0014095834493173243,0.0017667573696910574,-0.0013815288708845844,0.013128972439358424,0.9903675544970135
2013-10-08,1,0.0005550689772802054,0.0008189527940845063,-0.001109538305821224,0.013128972439358424,0.9909787219713645
2013-10-10,1,0.001874539191976299,0.0023601669978335713,-0.0015796373557731575,0.01187156652802294,0.9916681111823954
2013-10-14,1,0.0016878653376725611,0.0020816328329024206,-0.0015796373557731575,0.009646301666097727,0.9925752158371366
2013-10-16,1,0.0014038350386504513,0.0017238592274277163,-0.001109538305821224,0.00823713923950903,0.9937524159262964
2013-10-18,1,0.0019148362410149374,0.0022773821972711062,-0.0013964254619048236,0.004792116064173432,0.9944197317432341
2013-10-22,1,0.0024189887439199503,0.0028342331340598624,-0.0026505351618957293,0.003759039901859491,0.9941222869972527
2013-10-24,1,0.0015860355118547573,0.0018462982967199543,-0.003409050921059878,0.003759039901859491,0.9941630170774024
2013-10-28,1,0.0017056503255441233,0.001989954413738685,-0.00688062713734848,0.004792116064173432,0.9935073591040627
2013-10-30,1,0.0026427751258476734,0.003039158433843079,-0.00688062713734848,0.003759039901859491,0.9939236021890598
2013-11-01,1,0.002730351214799771,0.0030645931341531808,-0.008122616171739889,0.0030646287398075492,0.994220907434942
2013-11-05,1,0.0019192727862921406,0.002098304459969054,-0.006863372876146931,0.0032240149921649005,0.994809288812369
2013-11-07,1,0.001988275692566885,0.0022328200528266193,-0.006863372876146931,0.003759039901859491,0.9945601852237196
2013-11-11,1,0.0013037964271284512,0.0013924745381828122,-0.008122616171739889,0.004037500267977693,0.99411667300288
2013-11-13,1,0.0011836973622418863,0.0012373328439438656,-0.008174378955344536,0.0037751282639676515,0.9932453134278801
2013-11-15,1,0.0018120563553176156,0.0019986252882358293,-0.008174378955344536,0.004164519993532687,0.9927515691715002
2013-11-19,1,0.0009265990074347563,0.0010120176561201001,-0.006938453522064853,0.004425371429150575,0.9913003193313672
2013-11-21,1,0.00022597182239254804,0.0002502690533992109,-0.008122616171739889,0.005761251840895829,0.9905433528277899
2013-11-25,1,0.0008113603543460699,0.0008586936803693147,-0.006938453522064853,0.006568504758875985,0.9907124687838719
2013-11-27,1,0.0012802000639197848,0.0014572328911253481,-0.006938453522064853,0.006568504758875985,0.9909223607552747
2013-12-02,1,0.0011628504533835126,0.0013365195329054888,-0.004943555190180702,0.010864965197177575,0.9907128586322962
2013-12-04,1,0.0014118871749741178,0.0016463491787478699,-0.0069557077832664025,0.010864965197177575,0.9906797790852122
2013-12-06,1,0.0015483272645831127,0.0017994288347762482,-0.007050884867813891,0.00875374243806035,0.990804694264217
2013-12-10,1,0.001640219302981401,0.0019413451894126318,-0.004510037138149164,0.010864965197177575,0.9907990803859624
2013-12-12,1,0.001307916525247936,0.0015631700865325641,-0.0032996828954622694,0.010864965197177575,0.9906556411882953
2013-12-16,1,0.0012140863779939682,0.0014177982335556961,-0.003095664816746554,0.011120620945595948,0.9904862707261458
2013-12-18,1,0.0009372075795897555,0.0010477835191289907,-0.0038164880371621265,0.009468742318415258,0.9923228209580446
2013-12-20,1,0.0006233113473262982,0.0007156808073987045,-0.0030910869965387854,0.009303857607226242,0.9927348885709212
2013-12-24,1,0.0025260017076546605,0.00285684257716977,-0.0038164880371621265,0.008288334811806245,0.9918685260535921
2013-12-27,1,0.0022171942327532178,0.0024602603222461062,-0.005011437946722697,0.008288334811806245,0.9912706730400954
2013-12-31,1,0.002428024236451882,0.0026796080593019106,-0.009232540002718493,0.008288334811806245,0.9905329647481078
2014-01-03,1,0.002236026814319241,0.00247513930978165,-0.011449004769848696,0.008288334811806245,0.9890430146639699
2014-01-07,1,0.0017542147883486845,0.0018944165990298547,-0.005675157195283392,0.009303857607226242,0.98914705570827
2014-01-09,1,0.0018453318332437999,0.0019522272355796788,-0.005675157195283392,0.009303857607226242,0.9890964034176457
2014-01-13,1,0.000854285376161375,0.000895861102171022,-0.003753201593525937,0.009303857607226242,0.9898328652061253
2014-01-15,1,0.0013866573522616575,0.0014486444735256317,-0.003753201593525937,0.006526033419117897,0.9904262530492244
2014-01-17,1,0.0014521827454416175,0.0015175986153138064,0.0002920634682092029,0.007801020923615177,0.9903300445318957
2014-01-22,1,0.001376546340164507,0.00138070798097945,-0.0047322179480350675,0.008006931628541701,0.9867976218236905
2014-01-24,1,3.2252709332850516e-05,0.00016711221759923504,0.0009359454646064632,0.008900299049880711,0.9875345504738329
2014-01-28,-1,-0.0004149194132996519,-0.00021616412120658516,0.0009359454646064632,0.008900299049880711,0.9872923419304088
2014-01-30,-1,-0.0007645292050939752,-0.0004849416072080547,0.0018766666770260515,0.007900170411794838,0.987916460798091
2014-02-03,-1,-0.0016001478423542097,-0.00122730419251486,0.0024100048401875206,0.008900299049880711,0.9884233752101772
2014-02-05,-1,-0.0009784653422856143,-0.000684851034106899,0.0024100048401875206,0.008900299049880711,0.9890212886472889
2014-02-07,-1,-0.0002768622195949634,-7.41859806228769e-05,0.0013574273669264057,0.007900170411794838,0.9897557665882006
2014-02-11,1,0.0005200227619511821,0.0005739621657124671,-0.0027072109357624404,0.007900170411794838,0.9893240066204584
2014-02-13,1,0.0005460843306409612,0.0006060272272149633,-0.005470885724946206,0.007900170411794838,0.9894196445259292
2014-02-18,1,0.001218832439408376,0.001244183441302917,-0.005470885724946206,0.008319693579962859,0.9893188631558497
2014-02-20,1,0.00212584925299571,0.0023019236959333634,-0.0025944366494649058,0.008319693579962859,0.9930474555405909
2014-02-24,1,0.0016854554652583624,0.0017620427618973327,-0.005470885724946206,0.008103957345471462,0.9926599195570718
2014-02-26,1,0.0018372291434520193,0.001944624122546059,-0.0038073659985168712,0.007626895040986691,0.9930903422303757
2014-02-28,1,0.0019046628868196918,0.002015432017400564,-0.005395999330660054,0.009812914098636022,0.9922334316540338
2014-03-04,1,0.0019256750102070444,0.001971937180845741,-0.005395999330660054,0.006539553714712924,0.99278051214032
2014-03-06,1,0.002540699508325363,0.002701430174513855,-0.005395999330660054,0.004281112638586225,0.9930956589885058
2014-03-10,1,0.0024278205124760527,0.0026127947344352217,-0.005584549400980354,0.004281112638586225,0.991839731572262
2014-03-12,1,0.0016335232801433747,0.0016724650630632462,-0.004785436689634719,0.006539553714712924,0.9920883500242629
2014-03-14,1,0.0017679917917898733,0.0018645963183068232,-0.006239354166945372,0.006539553714712924,0.9906681406304845
2014-03-18,1,0.0026311664203745888,0.002869753765153075,-0.006239354166945372,0.004581768656658139,0.9909656098001417
2014-03-20,1,0.0026960813661719555,0.0029394672164527198,-0.006239354166945372,0.005062869001629245,0.990065333929089
2014-03-24,1,0.0023895474378528743,0.002588725250232248,-0.006711673329029296,0.004581768656658139,0.9898019881711353
2014-03-26,1,0.0022946430887384192,0.002517108517717272,-0.007587728931688271,0.004581768656658139,0.9895488223343086
2014-03-28,1,0.003266717275795918,0.0036538833335835533,-0.01047949064116622,0.003969741895968357,0.989147271919916
2014-04-01,1,0.00315894014178767,0.0035040056688044165,-0.01047949064116622,0.004581768656658139,0.9883419147014706
2014-04-03,1,0.0025679512437416225,0.0028042493758901575,-0.011021125345861867,0.004581768656658139,0.9879222503256606
2014-04-07,1,0.0013692089026021727,0.00143867145933987,-0.011021125345861867,0.004581768656658139,0.9891885995181137
2014-04-09,1,0.0020949786458528503,0.0022623016697094337,-0.011021125345861867,0.00045184645315699446,0.9894666977801209
2014-04-11,1,0.0009481934351782638,0.0009643597612158407,-0.009402630842104012,0.0045139756170011125,0.9907271178779732
2014-04-15,1,0.0004803971571810546,0.0005555834151128375,-0.011773816126353632,0.005018741390453392,0.9897709993596824
2014-04-17,1,0.0014902852591287053,0.0015234948764723587,-0.011773816126353632,-0.0025550423738309822,0.9900852098192212
2014-04-22,1,0.000784242397259512,0.0008405085555373247,-0.01364545606848799,0.00045184645315699446,0.9900438993316119
2014-04-24,1,0.00038453450282045895,0.0004798410520829665,-0.01364545606848799,0.005018741390453392,0.9902557418897193
2014-04-28,-1,-0.0007518714563552779,-0.0005053971842460362,-0.011027532553926071,0.007126895731899693,0.9906678865236157
2014-04-30,-1,-0.0004995428086818017,-0.0002769870989595606,-0.011027532553926071,0.007126895731899693,0.9908920875212958
2014-05-02,-1,-0.0013115363339265863,-0.000990922446937978,-0.011027532553926071,0.007126895731899693,0.990915775198658
2014-05-06,-1,-0.0022176102580780364,-0.0017787794528952804,-0.007092735343818066,0.007126895731899693,0.9912512894742881
2014-05-08,-1,-0.0028329474997873015,-0.0022822118420198463,-0.007092735343818066,0.008398265523420476,0.9898930583719278
2014-05-12,-1,-0.003075707022284134,-0.0025055323125960207,-0.007092735343818066,0.009841323596288946,0.9887596180099907
2014-05-14,-1,-0.002719039851504237,-0.002261711243956444,-0.007952184992083944,0.008470440422849805,0.9893852354832273
2014-05-16,-1,-0.003384424890739166,-0.002848899375572968,-0.0048812213917953816,0.008470440422849805,0.989474568816966
2014-05-20,-1,-0.00330634228025881,-0.002807782180207701,-0.0039019712373632924,0.0065307980013894285,0.9901583352658919
2014-05-22,-1,-0.002666020319524385,-0.002252168475742483,-0.0039019712373632924,0.00862781397432089,0.9898075645786233
2014-05-27,-1,-0.0017787289025175286,-0.001481295161136814,-0.005251408298231784,0.006097499266197535,0.9903355490237237
2014-05-29,-1,-0.0015413463410741328,-0.0012566055376057668,-0.005251408298231784,0.006097499266197535,0.9905122060329669
2014-06-02,-1,-0.002452672586900818,-0.0020528975453562577,-0.0047448219059647205,0.0074152628369499075,0.9903125550282762
2014-06-04,-1,-0.0018907579273280233,-0.0015900074947251337,-0.0047448219059647205,0.009448652509058067,0.9895074829153508
2014-06-06,-1,-0.0013068165886893197,-0.0010320362856280421,-0.005684851615801639,0.0075443189799799006,0.9905637234466843
2014-06-10,-1,-0.0010678143485854847,-0.000837150028918505,-0.0047448219059647205,0.0069914222293426895,0.9925111091474245
2014-06-12,-1,-0.0019582147372879236,-0.0016354015379723935,-0.004025366872842093,0.0069914222293426895,0.9926229176532447
2014-06-16,-1,-0.001686668623072624,-0.0014241040312529818,-0.002866289829297582,0.0069914222293426895,0.9927005878907174
2014-06-18,-1,-0.002161474084500301,-0.0017831836367493425,-0.0047448219059647205,0.0069914222293426895,0.9923960619083049
2014-06-20,-1,-0.0014995739595853792,-0.0011844583002773674,-0.0047448219059647205,0.005241404649909827,0.9929547505320532
2014-06-24,-1,-0.002378856704389324,-0.001969563719322779,-0.003010770935154201,0.0075443189799799006,0.9928010265653545
2014-06-26,-1,-0.0025657233983163883,-0.002085945881799527,-0.005290569751833109,0.005241404649909827,0.993094116463728
2014-06-30,-1,-0.0019690076493032315,-0.0015974887849164508,-0.00679128383154855,0.003953013334698108,0.9932091844709708
2014-07-02,-1,-0.0007199552161995127,-0.0005259765100259,-0.010329437093169169,0.0037283229047578924,0.9916138425313034
2014-07-07,-1,-0.0010661912409026838,-0.0008377088634963794,-0.00679128383154855,0.003953013334698108,0.9916130276338627
2014-07-09,-1,-0.0008489567383507322,-0.0006665752142099722,-0.010329437093169169,0.005999357134657891,0.9900566866635606
2014-07-11,-1,-0.0012816623958366857,-0.0010211093842397785,-0.007706118065936795,0.010172492293988932,0.9898914940401536
2014-07-15,-1,-0.00028695472126423775,-0.00023253803604767108,-0.007706118065936795,0.010747368948113229,0.9888508971689246
2014-07-17,-1,-0.0005219077728736618,-0.00044432499543596733,-0.005932428081524789,0.010747368948113229,0.9889697430724772
2014-07-21,1,0.00012307235716267105,0.0001260165316889877,-0.0077528698430978865,0.010747368948113229,0.9884771062528195
2014-07-23,1,0.0004806512013222358,0.0005515439056468272,-0.0077528698430978865,0.010686757000241248,0.9888812234460809
2014-07-25,1,0.0004132010370178316,0.0005143048265042685,-0.0048970122205757825,0.012306831489732968,0.9881770155323472
2014-07-29,1,0.0002619550177856411,0.0003799498224022447,-0.003547897877312812,0.012306831489732968,0.9884389885910464
2014-07-31,-1,-0.0008015109781491796,-0.0007633800357193093,-0.003547897877312812,0.010686757000241248,0.9905778798163428
2014-08-04,-1,-0.0005979320612586091,-0.000550651128198428,-0.003547897877312812,0.012306831489732968,0.9903151271573049
2014-08-06,-1,-0.0008651866074541785,-0.0007826858862258494,-0.003547897877312812,0.008708425471125901,0.9912756101171987
2014-08-08,1,5.796214494121875e-05,0.00014248656566829182,-0.001694792533719681,0.006867497100996154,0.9922311549424865
2014-08-12,1,0.0010512766027383313,0.001298401436366364,-0.003547897877312812,0.00653312033929568,0.9936672051824001
2014-08-14,1,0.0012873681929337893,0.0015521848119838387,-0.004286517186452251,0.005999584349424787,0.9931019422590249
2014-08-18,1,0.0014936946590087463,0.0017768308611010543,-0.003547897877312812,0.005999584349424787,0.9941375216624485
2014-08-20,1,0.0018563923840097067,0.00222830896458651,-0.000828721887815657,0.005999584349424787,0.9945449560925398
2014-08-22,1,0.0029796532037891024,0.003508793019986611,-0.0016384570366223157,0.005227958663602417,0.9954901195280222
2014-08-26,1,0.002939400711175753,0.003448596801393789,-0.0019110556936613862,0.004344050765369996,0.9954008435028731
2014-08-28,1,0.002166763126809782,0.002499820773355691,-0.0023587622827943074,0.004344050765369996,0.9945757257935823
2014-09-02,1,0.0032825261053211277,0.0038193934327392333,-0.0025809321322802724,0.0037094754454191693,0.9947766156963757
2014-09-04,1,0.002501172809817242,0.002857958577390958,-0.0025809321322802724,0.0037094754454191693,0.9937928031740548
2014-09-08,1,0.002703724324788926,0.0030957150246140814,-0.006599160833123216,0.004335001925719716,0.9928753211234358
2014-09-10,1,0.0033830393424755423,0.003945297324183189,-0.008243879916801727,0.005137262885257542,0.9913821748043039
2014-09-12,1,0.002498494943770073,0.0028999079411184724,-0.012433186892238933,0.004335001925719716,0.9883022092216686
2014-09-16,1,0.002616240347347134,0.003011375832618586,-0.022333745601283997,0.0037094754454191693,0.9859951975975825
2014-09-18,1,0.00246253116900543,0.002788534015715845,-0.022333745601283997,0.0035317202181550673,0.9854984564462056
2014-09-22,1,0.002682183071922367,0.003059566328757213,-0.022333745601283997,0.0037094754454191693,0.9838145467054507
2014-09-24,1,0.0021085046872354276,0.002364479245656525,-0.022333745601283997,0.003973879485381684,0.9817466469362832
2014-09-26,1,0.001059083490153203,0.0011357832004610393,-0.02168379545901768,0.009497498182112438,0.9821147426594743
2014-09-30,1,0.0008970986122206577,0.0009475143857676576,-0.02168379545901768,0.011296356777368451,0.9814947990894392
2014-10-02,-1,-0.00043090041324021387,-0.0003040511395616028,-0.01993363211645564,0.011296356777368451,0.9825935959227656
2014-10-06,-1,-0.0007069826539206827,-0.0005136971106092208,-0.01993363211645564,0.013387203815766979,0.9817417129086714
2014-10-08,-1,-0.00150648630680982,-0.0012085677645804762,-0.01993363211645564,0.011296356777368451,0.982412304854419
2014-10-10,-1,-0.004585373666919439,-0.003918154396625199,-0.009348284196450715,0.013387203815766979,0.9845492713060043
2014-10-14,-1,-0.006027224791839996,-0.005214739926430121,-0.005160451645796639,0.013387203815766979,0.9851511764498283
2014-10-16,-1,-0.005778994787358979,-0.005032902063860884,-0.005160451645796639,0.013387203815766979,0.9851590645003089
2014-10-20,-1,-0.0041844436465907865,-0.0036483395331289876,-0.008843103984890615,0.011296356777368451,0.9872011168130244
2014-10-22,-1,-0.0039032395375017096,-0.0033675998547563223,-0.008843103984890615,0.010007390699622058,0.9887571771324405
2014-10-24,-1,-0.002870500875085849,-0.002461534108202588,-0.008843103984890615,0.008650611235343974,0.9891527717920179
2014-10-28,-1,-0.0017504580420402162,-0.0015285736777069662,-0.008843103984890615,0.008390913446797302,0.9891852412815899
2014-10-30,-1,-0.0015948785901262145,-0.0013976870049990024,-0.010048955582013557,0.007298287473807407,0.9854866253275801
2014-11-03,-1,-0.0016843499487255993,-0.0014268769491381785,-0.013320656236186624,0.007298287473807407,0.9829364393659569
2014-11-05,-1,-0.0023695791093022757,-0.0020292914802254288,-0.009441656501988699,0.008390913446797302,0.9831211270769677
2014-11-07,-1,-0.0013484810447965839,-0.0011402850923283503,-0.013320656236186624,0.008390913446797302,0.9827185437633831
2014-11-11,-1,-0.0005625023875376423,-0.000491828035701669,-0.016084516484728563,0.009424671785715762,0.9803823293659331
2014-11-13,-1,-0.0016586574410789529,-0.0014161598112350854,-0.021183418778625417,0.009424671785715762,0.9783036162627248
2014-11-17,-1,-0.001959127650322127,-0.0017033106745931018,-0.02431258252075182,0.009424671785715762,0.9772201710911496
2014-11-19,-1,-0.0025103084410911494,-0.0022020296003238044,-0.022721103311381472,0.013961461683129759,0.975497547467086
2014-11-21,-1,-0.0010073622020642067,-0.0009221109930069734,-0.022721103311381472,0.014551443050189877,0.9753306735838493
2014-11-25,-1,-0.0005243536301686433,-0.00047871878763135374,-0.022721103311381472,0.017963438239281346,0.9748700194706817
2014-11-28,-1,-0.004490930463746908,-0.003984530822880051,-0.01444755512455798,0.017963438239281346,0.9785798251381932
2014-12-02,-1,-0.005913149261053236,-0.005237932284659847,-0.00866213896199709,0.015633127598395215,0.9824895715771729
2014-12-04,-1,-0.005278174357178702,-0.004682844266576162,-0.01444755512455798,0.013864937181056641,0.9824914915189783
2014-12-08,-1,-0.005623544369736395,-0.00497957000215858,-0.012350677342647349,0.012410128825158448,0.983560315912622
2014-12-10,-1,-0.006586392542370203,-0.005868650552277169,-0.012350677342647349,0.015633127598395215,0.9839876150719037
2014-12-12,-1,-0.008600217442288963,-0.0076645450956540125,-0.012350677342647349,0.015633127598395215,0.9844776525982023
2014-12-16,-1,-0.010250759402993793,-0.009108423605648529,-0.008988627089954914,0.015633127598395215,0.9842036123235708
2014-12-18,-1,-0.007707115696981234,-0.0068435962220634115,-0.008988627089954914,0.004270855694548857,0.9871406772555213
2014-12-22,-1,-0.007708311892290115,-0.006800458377672343,-0.008988627089954914,0.005668925250892734,0.9861463750853041
2014-12-24,-1,-0.0061220054717064844,-0.005435369990852618,-0.008988627089954914,0.00494820403926342,0.9871903983321548
2014-12-29,-1,-0.005307413971200943,-0.0047066671578668215,-0.013627777893861279,0.002941820215748985,0.987007734433543
2014-12-31,-1,-0.005334908779451263,-0.004745549675566876,-0.013627777893861279,0.00494820403926342,0.9858567809055484
2015-01-05,-1,-0.005824309436037682,-0.005229456943452119,-0.011763950497204887,0.019015225381537645,0.9820171737728731
2015-01-07,-1,-0.00582978629746699,-0.005263484110900971,-0.013050524688580437,0.023154646047431976,0.9800377528349733
2015-01-09,-1,-0.004800583114112158,-0.004375630253954401,-0.009151941972093375,0.019015225381537645,0.9820904056018839
2015-01-13,-1,-0.00611020493795454,-0.005541966229389081,-0.007267719706170236,0.019015225381537645,0.983026734700265
2015-01-15,-1,-0.006104723648033214,-0.005608710135227889,-0.00564015578653727,0.019015225381537645,0.9827755889735964
2015-01-20,-1,-0.004577902513240943,-0.004278061031280802,-0.00564015578653727,0.019494695152199905,0.9833886474321881
2015-01-22,-1,-0.002956004568098321,-0.002851263108345858,-0.00564015578653727,0.013139374010814648,0.9851617426700148
2015-01-26,-1,-0.0016545333906944587,-0.0015436071435048922,-0.007267719706170236,0.013139374010814648,0.9842414299106661
2015-01-28,-1,-0.003221711979806592,-0.003143506148212144,-0.00564015578653727,0.013139374010814648,0.985522451599192
2015-01-30,-1,-0.0024178778914043225,-0.0023736512006201733,-0.004431537951550126,0.010193518131559354,0.9869435654878828
2015-02-03,1,0.0012804465442789205,0.0018120553634536065,-0.004431537951550126,0.004539731212125359,0.9908382019602905
2015-02-05,1,0.001239683653181689,0.00175283658308188,-0.004431537951550126,0.0034567343356415895,0.9926194363684931
2015-02-09,1,0.0013333594899180672,0.0018862949502014654,-0.004431537951550126,0.0034567343356415895,0.9925385111580773
2015-02-11,1,0.0014585723500650718,0.0020509309411821984,-0.003655648131567917,0.0034567343356415895,0.9929094786198052
2015-02-13,1,0.0020169116885605572,0.0026975257581074398,-0.005416734077247252,0.0034567343356415895,0.991770692975223
2015-02-18,1,0.003106393406360823,0.003931768717218528,-0.007083582879448239,0.0034567343356415895,0.9915835767544771
2015-02-20,1,0.0031226420332782215,0.003917907730346045,-0.009270807775292662,0.0034567343356415895,0.9907486794138687
2015-02-24,1,0.0026308243103243503,0.003364725963852012,-0.007083582879448239,0.0034567343356415895,0.9921176932272693
2015-02-26,1,0.002065894849699661,0.002675645236496775,-0.007083582879448239,0.004599393549967189,0.9916186938452135
2015-03-02,1,0.0019874194243393916,0.002589186738986323,-0.00839788546735194,0.008338280195082945,0.9903975079848879
2015-03-04,1,0.0019336271350154134,0.002515391412034121,-0.00947007211082242,0.008338280195082945,0.9897758853332155
2015-03-06,1,0.00011612804361999982,0.00028090136921011405,-0.00839788546735194,0.010722679093530965,0.9895619804693147
2015-03-10,-1,-0.0010326587112918,-0.0009541434383837219,-0.008709795039550258,0.010722679093530965,0.9889719459249466
2015-03-12,-1,-0.0011049632972767482,-0.001006480434180003,-0.008709795039550258,0.010722679093530965,0.9886052791597537
2015-03-16,-1,-0.0001105773460380534,-1.0125660327561879e-05,-0.0070082154781432714,0.010269508938232128,0.9894364747423793
2015-03-18,1,0.0006971145395569479,0.000943445007615793,-0.008709795039550258,0.010269508938232128,0.9883410955463227
2015-03-20,1,0.0007345101353596476,0.00105211478684913,-0.008709795039550258,0.010269508938232128,0.9887140335998352
2015-03-24,1,0.001291228747540732,0.0017096610315831388,-0.008709795039550258,0.00884332857001906,0.988709510482006
2015-03-26,1,0.0015705419380670582,0.0020331343304246683,-0.0070082154781432714,0.007342357012236072,0.9897279206061972
2015-03-30,1,0.0028553339756217707,0.0035307709936754157,-0.005771178474572666,0.006974097239643146,0.9912230104991
2015-04-01,1,0.0021563180701547136,0.002726984311282853,-0.005771178474572666,0.006974097239643146,0.990827124886576
2015-04-06,1,0.003883412367218828,0.004737822180492585,-0.008444321410048552,0.006846455115634047,0.989960833255351
2015-04-08,1,0.003168575352622298,0.003949444006895423,-0.005713513044770616,0.006846455115634047,0.9910770198261998
2015-04-10,1,0.003237775099029691,0.004001483776497226,-0.005713513044770616,0.006846455115634047,0.9903070768955698
2015-04-14,1,0.0037378015874128846,0.004539858450897875,-0.008271325120642402,0.006846455115634047,0.9891758753478991
2015-04-16,1,0.00396088321173262,0.004755293199808115,-0.005713513044770616,0.006846455115634047,0.9907111089480392
2015-04-20,1,0.0042640530353638606,0.005150569782260906,-0.005208232175939851,0.007809343589001663,0.9910938260449046
2015-04-22,1,0.004357557571085007,0.005297510392540458,-0.004256459732881893,0.007809343589001663,0.9908197855503978
2015-04-24,1,0.0025877033842992368,0.003061903949602089,-0.008397459898218463,0.010695876122739957,0.9891768475225428
2015-04-28,1,0.0022500902260310348,0.0026095764189389293,-0.015189750095490125,0.011901684354989046,0.9871352802892933
2015-04-30,1,0.0017495670995467923,0.0020631241844743017,-0.008397459898218463,0.011901684354989046,0.9880398948987191
2015-05-04,1,0.0006067693525593082,0.0007477263725158409,-0.004647470711560811,0.01477374220940465,0.9881793915508925
2015-05-06,-1,-0.00021414616298592057,-0.00017503052058040502,-0.006646124950439073,0.01477374220940465,0.9867842350926856
2015-05-08,-1,-0.00042802966600920624,-0.00025586597771103125,-0.015189750095490125,0.011901684354989046,0.986867468387174
2015-05-12,-1,-0.0015904464134923896,-0.0012088648246619059,-0.00744245243107595,0.012058672645825207,0.9871705782244322
2015-05-14,1,0.0004601915610318437,0.0004947769628296319,-0.00744245243107595,0.010695876122739957,0.9879084489559649
2015-05-18,1,0.0014091834968704526,0.0015161448251625358,-0.011960232210578398,0.01110509940380907,0.9878168570034073
2015-05-20,1,0.0012457098053392226,0.0013740157056817788,-0.0055696189888018305,0.01110509940380907,0.9887652265968605
2015-05-22,1,0.001446239254719614,0.001632365337255224,-0.003311064710303649,0.01110509940380907,0.9896448048151639
2015-05-27,1,0.0013453506696606574,0.0015029429482797403,-0.004363124839433248,0.008116331385842978,0.9903706362095792
2015-05-29,1,0.00039656111424527657,0.0004227598410161264,-0.00646791632019853,0.01110509940380907,0.9891083597619214
2015-06-02,1,0.0010017489087704244,0.0010242130952685235,-0.011028385580689698,0.008116331385842978,0.9887712650829695
2015-06-04,1,3.91801305931098e-05,0.0001105828839758349,-0.007480110014903788,0.008116331385842978,0.989828192020474
2015-06-08,-1,-0.0013449012279815181,-0.0010429550406787563,-0.006972266876090313,0.01110509940380907,0.9900802803653731
2015-06-10,-1,-0.0013573268368322962,-0.0010038060678826033,-0.008563869351863856,0.008689215434389927,0.9888127562880533
2015-06-12,-1,-0.00046145485035687295,-0.0002497956425067698,-0.008563869351863856,0.010303507252579806,0.9881868521072216
2015-06-16,1,0.0003239977981843894,0.00039053254705510284,-0.009504856164249273,0.00884979517560891,0.987722101202369
2015-06-18,1,0.00029774829179085886,0.00035022948562862615,-0.011880927321417595,0.00884979517560891,0.9870235181220924
2015-06-22,0,-5.29319825876589e-05,0.0001229650299671203,-0.011880927321417595,0.007908239322095514,0.9879586835701772
2015-06-24,-1,-0.0010308375975189611,-0.0007501332323085337,-0.011441927042547307,0.007908239322095514,0.9884033802372706
2015-06-26,1,0.0008592700232112096,0.0009687151995841889,-0.012497442373379138,0.006240595025358227,0.987789815511068
2015-06-30,-1,-0.00010518158751540737,-8.535139645808782e-05,-0.011441927042547307,0.00884979517560891,0.9874713325579839
2015-07-02,-1,-0.000562612536418176,-0.0004784947104397939,-0.011441927042547307,0.00884979517560891,0.9877309443211999
2015-07-07,-1,-0.0004057009648352085,-0.0003275294496040014,-0.011441927042547307,0.007908239322095514,0.9884358277049519
2015-07-09,-1,-0.00135069215187286,-0.0011748756156323514,-0.011441927042547307,0.008320526608063126,0.9855528254723919
2015-07-13,-1,-4.0956394080320634e-05,-2.596730255034003e-05,-0.011441927042547307,0.010086657033511743,0.9840154483866496
2015-07-15,-1,-0.0002826932052256996,-0.00027554688325890996,-0.011178411479941667,0.01067764553139312,0.9845836374779071
2015-07-17,-1,-0.0007190479495328224,-0.0006363974599065072,-0.011396217433214164,0.013153928445895633,0.9834892214496654
2015-07-21,-1,-0.000929249008611214,-0.000812790821695274,-0.011396217433214164,0.013153928445895633,0.9834006885189409
2015-07-23,-1,-0.0019218287848597896,-0.0016775096861637775,-0.012919588316030295,0.013153928445895633,0.9829735191248129
2015-07-27,-1,-0.0034217667632393915,-0.002997649199987229,-0.014870003370466381,0.013153928445895633,0.9809949868834781
2015-07-29,-1,-0.0011637795227480282,-0.0009934102823098705,-0.014870003370466381,0.01067764553139312,0.9814779317353217
2015-07-31,-1,-0.0016019331639667467,-0.0013711936760774928,-0.014870003370466381,0.013153928445895633,0.9787802757421208
2015-08-04,-1,-0.0018974939311623153,-0.0016344215887389019,-0.02246886435687852,0.015484748996148566,0.9762529926127816
2015-08-06,-1,-0.004038736322994493,-0.00353673598987636,-0.014870003370466381,0.019130661744860313,0.9796971513918721
2015-08-10,-1,-0.002255272151088419,-0.0019815301017624223,-0.014870003370466381,0.019130661744860313,0.9806791342497807
2015-08-12,-1,-0.0020177100311470544,-0.0017434507117006976,-0.014870003370466381,0.01527070503838814,0.98131623129087
2015-08-14,-1,-0.0024980427102624745,-0.002178117626306578,-0.009131845301939345,0.01042530609338014,0.9830608150920908
2015-08-18,-1,-0.002502778584195124,-0.0021903626239084583,-0.009131845301939345,0.016805990988488777,0.9816255464702972
2015-08-20,-1,-0.003085965962789012,-0.0027400988193789517,-0.0074381366222228285,0.016805990988488777,0.9825649121891968
2015-08-24,-1,-0.004936155048450715,-0.004348179196654338,-0.006694705493936313,0.016805990988488777,0.9840506125189581
2015-08-26,-1,-0.003860036627358258,-0.0034500252834349238,-0.0074381366222228285,0.015719697084834904,0.9835499691141699
2015-08-28,-1,-0.0026333651036835083,-0.00232706447384409,-0.007705118730931855,0.013967187925007852,0.9847850734995333
2015-09-01,-1,-0.00312733269566727,-0.002771809532211901,-0.0074381366222228285,0.01384273087353336,0.98614842105477
2015-09-03,-1,-0.0018052023529740802,-0.0016339315383953092,-0.0074381366222228285,0.01384273087353336,0.9864350069060418
2015-09-08,-1,-0.000758967390364411,-0.0007235523453344144,-0.006694705493936313,0.01384273087353336,0.9865494668391097
2015-09-10,-1,-0.000732958074604974,-0.0006965125041394603,-0.006694705493936313,0.015719697084834904,0.9848073114095249
2015-09-14,-1,-0.001284615109930262,-0.0011765551351030135,-0.007885009307491987,0.015719697084834904,0.9844154004256224
2015-09-16,-1,-0.00019657500617683402,-0.00015831128086366038,-0.010266405410796722,0.015218742051261367,0.9848738730920291
2015-09-18,-1,-0.00037201808188154836,-0.00034511873721074476,-0.01191952837549083,0.016650729552515762,0.9795223706329493
2015-09-22,-1,-0.0008650524486565023,-0.0008181419703447804,-0.010266405410796722,0.02216295733063326,0.9780943584101301
2015-09-24,-1,-0.0015786182464755816,-0.001407963784848342,-0.011055509652882631,0.02216295733063326,0.9790235268673748
2015-09-28,-1,-0.0024610821332680896,-0.0021835314540847683,-0.010266405410796722,0.02216295733063326,0.9803078285971599
2015-09-30,-1,-0.0009174137693831425,-0.0008676589609642435,-0.010266405410796722,0.022636738184197584,0.9801753040420919
2015-10-02,1,2.166426683806869e-05,8.67697464885036e-05,-0.010266405410796722,0.022636738184197584,0.9807807798523792
2015-10-06,1,0.0010448197930136441,0.0012822786630140384,-0.010266405410796722,0.02216295733063326,0.9821115113756786
2015-10-08,1,0.0028155551468594464,0.003330790883028278,-0.010517245639757821,0.015780704536250797,0.9815503336507058
2015-10-12,1,0.001973127082948231,0.002352479624524936,-0.010517245639757821,0.019985773261902748,0.9818078156079347
2015-10-14,1,0.0012969981184600705,0.00158884825556352,-0.005418243030499805,0.019985773261902748,0.9823481221171401
2015-10-16,-1,-0.0006508580731119339,-0.0006132825683957319,-0.005418243030499805,0.014499937629889723,0.9852480883046274
2015-10-20,1,0.0010287235841785294,0.00127398576066594,-0.009901975080856605,0.012102245724614262,0.9870755452836812
2015-10-22,1,0.0006686197995726266,0.0009167333099028656,-0.0006164962629644995,0.014119613128030567,0.9870456857272456
2015-10-26,1,0.0005006524663327816,0.0006744649814791494,-0.004030100719862605,0.014119613128030567,0.9869914631968737
2015-10-28,1,0.0009372669631078107,0.0011507239393124087,-0.003751879388449424,0.01391056581639155,0.9879107560692668
2015-10-30,1,0.0016236911121887696,0.001961207413573626,-0.003751879388449424,0.015481905125474107,0.9880428297550491
2015-11-03,1,0.0020387930380432605,0.002461422159719353,-0.0026592294811775986,0.016556566413187992,0.9876098707749491
2015-11-05,1,0.00305456688528909,0.003624470095683861,-0.0026592294811775986,0.015481905125474107,0.9864969997119567
2015-11-09,1,0.0036880779394835193,0.004338261511174842,-0.005737548148945008,0.015081532497376548,0.9841075127938154
2015-11-11,1,0.004583234878447584,0.005393796084523446,-0.005737548148945008,0.015081532497376548,0.9843829498782605
2015-11-13,1,0.002885913048347835,0.0034204134478360215,-0.005737548148945008,0.015081532497376548,0.985427033504575
2015-11-17,1,0.0033100987156631746,0.003912750538968576,-0.0038038636847415887,0.015481905125474107,0.9852318735301251
2015-11-19,1,0.0037399226450376176,0.004342269349772,-0.01009397561536042,0.015081532497376548,0.9837716586346412
2015-11-23,1,0.003313761827048724,0.0038417681088976337,-0.00971178569136291,0.015081532497376548,0.9840268531391807
2015-11-25,1,0.0038709895428783204,0.004499510720835436,-0.015204060369879218,0.015081532497376548,0.9828050267083568
2015-11-30,1,0.0038136552948567354,0.004363172759825149,-0.015204060369879218,0.01315014751960911,0.9829278552661536
2015-12-02,1,0.004827279662788373,0.005553475617666722,-0.016822872972419238,0.008585548641614276,0.9821208095115473
2015-12-04,1,0.003173730766164354,0.003656537505649154,-0.016822872972419238,0.0059726474393293405,0.9838915908495167
2015-12-08,1,0.0014132712832762954,0.001659078569541803,-0.01231692241693048,0.0059726474393293405,0.9856169462800829
2015-12-10,1,0.001590302370747327,0.0018546963452315563,-0.012514135880430878,0.0059726474393293405,0.9844607335443849
2015-12-14,1,0.0003950046265602775,0.00045683505354118424,-0.012514135880430878,0.0059726474393293405,0.9849836548181403
2015-12-16,1,0.0011852122815106838,0.0012941393310813404,-0.012514135880430878,0.0036068789229546324,0.9864293698888595
2015-12-18,1,0.000608216345693795,0.000727068682711837,-0.012514135880430878,0.0052308370148496045,0.9868600626284643
2015-12-22,1,0.0010547075499866138,0.0012131092739636688,-0.012514135880430878,0.00350425595371229,0.9869745544659304
2015-12-24,1,0.0014019108199869173,0.0015834074703083066,-0.012514135880430878,0.003343906368956178,0.9886994287814201
2015-12-29,1,0.00015321905551037279,0.00026855709550070305,-0.012514135880430878,0.003343906368956178,0.9884398457002753
2015-12-31,0,-5.0256610746189396e-05,1.758798380319999e-05,-0.011795788542543748,0.004647165291338925,0.9876600234305518
2016-01-05,-1,-0.0009907899560682313,-0.000842831817519416,-0.011795788542543748,0.005232717249579849,0.9882354098118641
2016-01-07,-1,-0.0023068692230144906,-0.0019711308803615738,-0.008769588716453669,0.007293178830795824,0.9884300061312912
2016-01-11,-1,-0.0031147506085973894,-0.0026764332294039383,-0.0066283729700061,0.007293178830795824,0.9862212978872008
2016-01-13,-1,-0.00450153659445712,-0.003846018215477213,-0.0066283729700061,0.007293178830795824,0.9867309700394994
2016-01-15,-1,-0.006061237962301255,-0.005099246843790288,-0.0066283729700061,0.012963291592578825,0.9843668965635087
2016-01-20,-1,-0.006896961991903105,-0.00586304135005253,-0.004732655528142501,0.014073518533933193,0.983725924477878
2016-01-22,-1,-0.005293603519234641,-0.004548991576759222,-0.004732655528142501,0.01746742607886421,0.9839112030179233
2016-01-26,-1,-0.00582654646515008,-0.0049754941272823205,-0.008269042151011543,0.01746742607886421,0.9836094225615067
2016-01-28,-1,-0.004488099627232962,-0.003851564864666138,-0.007080587045015923,0.019000867018049306,0.9800970387560798
2016-02-01,-1,-0.002486054366135599,-0.00212951417763685,-0.007080587045015923,0.019000867018049306,0.980864583241519
2016-02-03,-1,-0.0026086480112489487,-0.0022430568838382524,-0.004732655528142501,0.019000867018049306,0.9808155235339928
2016-02-05,-1,-0.00279959946926012,-0.0023827574691596904,-0.0036960744931404162,0.019000867018049306,0.9804478700150412
2016-02-09,-1,-0.004460977349780697,-0.003906181186894113,-0.0007953178566017253,0.019000867018049306,0.9822693139680693
2016-02-11,-1,-0.004976383422826538,-0.0043382496641844355,0.0031035967615058754,0.020614444436125107,0.9805786131608989
2016-02-16,-1,-0.003648759872993325,-0.003155353358202564,-0.0007953178566017253,0.015680099938658865,0.9829204720554655
2016-02-18,-1,-0.002769389715421052,-0.002372085087455831,-0.0007953178566017253,0.014847666764557205,0.9834541064755574
2016-02-22,-1,-0.002597711751819009,-0.00216574592931105,-0.0014470796742513587,0.014676887434426984,0.9844847072447289
2016-02-24,-1,-0.0026111690936084994,-0.0022289964577965,-0.0006716032703318185,0.014676887434426984,0.9845283651484446
2016-02-26,1,0.000998425220690664,0.0011066804110651525,-0.0010028996737807506,0.013240342055967008,0.9903173747790591
2016-03-01,1,0.0025012127275952454,0.00284910702621912,-0.0010028996737807506,0.012837256482482996,0.9915914715904591
2016-03-03,1,0.004184759019432441,0.004855755123404927,-0.0020268127015075853,0.011522353110186295,0.9919561280144223
2016-03-07,1,0.00442900274640454,0.00507737347239889,-0.004432641127527142,0.006703214412289825,0.9911596676014846
2016-03-09,1,0.0036235739282575287,0.004109153566018232,-0.004565462469167441,0.00831789918260957,0.9896794237581845
2016-03-11,1,0.003123041747471089,0.003403342916187498,-0.005982308440102559,0.008190442732760568,0.989669010070125
2016-03-15,1,0.0032687507154717486,0.0036993261705112156,-0.004565462469167441,0.013077290816538639,0.9899365459595072
2016-03-17,1,0.0033182116652023357,0.003680004194898249,-0.0053705680803843164,0.008248115071221765,0.9902016793718904
2016-03-21,1,0.0033142801641278994,0.0036789704556313848,-0.0053705680803843164,0.011869456527049942,0.9900971580292306
2016-03-23,1,0.003061672848322027,0.0034333852206868214,-0.004565462469167441,0.011869456527049942,0.9910177772594921
2016-03-28,1,0.003262710324444652,0.0036804007069376815,-0.0053705680803843164,0.013077290816538639,0.9894252086063816
2016-03-30,1,0.003602550496085895,0.004073719258309598,-0.0053705680803843164,0.0170424788174176,0.987467034382395
2016-04-01,1,0.004075887360596896,0.004678560026484899,-0.007202233198990493,0.0170424788174176,0.9864946144503399
2016-04-05,1,0.003276815868251701,0.0037849106568168898,-0.007202233198990493,0.0170424788174176,0.9861360308022927
2016-04-07,1,0.0032391515810754057,0.003764371217962529,-0.00486375901958583,0.014090075182582956,0.9877162849523679
2016-04-11,1,0.0026198092217917567,0.00298518562792299,-0.00486375901958583,0.017404837416043664,0.9869355085828875
2016-04-13,1,0.0041009335439163635,0.004669670380229787,-0.00486375901958583,0.013463945247476728,0.9872691457742435
2016-04-15,1,0.004281220313091238,0.004940773408320827,-0.011426132614411662,0.013463945247476728,0.9859947240039723
2016-04-19,1,0.004319639474890193,0.00495923099500639,-0.018242935796040784,0.016335034413054457,0.9847665092587241
2016-04-21,1,0.00456565521926194,0.005252971914583324,-0.018242935796040784,0.016335034413054457,0.9840908313545282
2016-04-25,1,0.00489571285035463,0.005670803796944916,-0.014997584736126161,0.012136813700732928,0.98559295919981
2016-04-27,1,0.007413927132854729,0.008557961725675037,-0.014997584736126161,0.009092964352063889,0.9850185653214987
2016-04-29,1,0.0052219480615555355,0.00597872328820708,-0.010732758086560283,0.009092964352063889,0.9872604010771961
2016-05-03,1,0.0035333809769269387,0.003961541887872679,-0.009387538130096077,0.012136813700732928,0.9881489341078804
2016-05-05,1,0.0038895282397145093,0.004373652915228014,-0.010452005587908039,0.012136813700732928,0.9877639983618056
2016-05-09,1,0.0028080908171118817,0.003101523576902341,-0.009387538130096077,0.011589989600275043,0.9889605820133219
2016-05-11,1,0.003926844711011971,0.004440069605797269,-0.01008592499080288,0.011212039534494756,0.9889157281965668
2016-05-13,1,0.0019839210348338043,0.002148855687617873,-0.011850854548511265,0.011212039534494756,0.9881714855850218
2016-05-17,1,0.002079611325272278,0.002292221187015052,-0.01008592499080288,0.008412984902338357,0.9895640917949073
2016-05-19,1,0.0023709968017237635,0.0026460788762051003,-0.005213903947181672,0.008412984902338357,0.9904457642623622
2016-05-23,1,0.0028092584147346293,0.003165832470332593,-0.005213903947181672,0.008121218410652595,0.9905631758140577
2016-05-25,1,0.0030739024141426007,0.0033956785437854325,-0.0032169467036492717,0.008121218410652595,0.9916444723858029
2016-05-27,1,0.002052241606365548,0.002175522693920212,-0.011850854548511265,0.008121218410652595,0.9865889248079048
2016-06-01,1,0.0017987195750380595,0.001834850999166606,-0.011850854548511265,0.009383500061972104,0.986084078673719
2016-06-03,1,0.0009240686112389194,0.0010275749618111807,-0.0051518090427681695,0.010336740059437466,0.9852151315984565
2016-06-07,1,0.0008729169901019367,0.0010305171173334983,-0.007079193930402507,0.010336740059437466,0.9849877371228132
2016-06-09,1,0.000897470805059075,0.0010287753143095742,-0.003683282369100303,0.011989460070317336,0.9843399729030579
2016-06-13,-1,-0.0014737456991762746,-0.0010111467833654453,0.0020557969336809233,0.019488423281679497,0.9835047236618468
2016-06-15,-1,-0.00152357904658074,-0.0010381351170921714,0.0016954131435236413,0.019488423281679497,0.9836383680863012
2016-06-17,-1,-0.001567830747602693,-0.0010744520187523797,0.002015812383002954,0.019488423281679497,0.9833442373685403
2016-06-21,-1,-0.0010881150837601516,-0.0006552378493896766,0.0004934340407153882,0.019488423281679497,0.9837117186726626
2016-06-23,1,0.000189699568587012,0.00042649035847450894,-0.003336489215588911,0.014101589910933476,0.9851381798483907
2016-06-27,-1,-0.0030431730708407696,-0.0024098573129734254,0.0003938646898605841,0.014588747371712146,0.9878491794523636
2016-06-29,-1,-0.001751662805138282,-0.0012665364269278125,-0.0012782606281666717,0.012888143545021475,0.9896541281263661
2016-07-01,-1,-0.0030173359295750483,-0.002309067550690323,-0.003336489215588911,0.009662229747792383,0.9905989143740832
2016-07-06,-1,-0.0026361492584589664,-0.0019519614651678978,-0.003336489215588911,0.008963905128304462,0.9910149016868798
2016-07-08,-1,-0.0011033851474062254,-0.0006723851872131011,-0.005866813350845096,0.008963905128304462,0.9867131323715236
2016-07-12,1,0.00019672853008592195,0.0004517411462846868,-0.008265058717574478,0.00447929915533095,0.9881905276272115
2016-07-14,1,3.920725405601394e-06,0.000257547167244801,-0.008265058717574478,0.006726056750389869,0.9875931499453471
2016-07-18,1,0.0006306854612529336,0.0008971715781948696,-0.008265058717574478,0.007048908123225126,0.9869316639845541
2016-07-20,1,0.0014315805538377654,0.0015013227429187793,-0.007136553121889145,0.007048908123225126,0.9872474453816169
2016-07-22,1,0.0015750743617891382,0.001575210330402184,-0.0077890902623301535,0.010793169686557708,0.9859198130811565
2016-07-26,1,0.0022355322796369093,0.0023753213626824463,-0.0077890902623301535,0.01088646694705116,0.9859360040075145
2016-07-28,1,0.002161280816731571,0.002327074968856283,-0.006998528669071762,0.01088646694705116,0.986136205023661
2016-08-01,1,0.0016980921095964808,0.0017870917572346931,-0.006998528669071762,0.01088646694705116,0.9860546930705046
2016-08-03,1,0.002178046916604153,0.00237678320679219,-0.006998528669071762,0.008002915823466057,0.9860293151445263
2016-08-05,1,0.0015021418542053317,0.001551458993850793,-0.006576573104539499,0.008002915823466057,0.9919923888667206
2016-08-09,1,0.0015503220496866713,0.0016536620643758675,-0.006576573104539499,0.006898685182137675,0.9922211534776374
2016-08-11,1,0.0018149963453189732,0.001959277999442734,-0.006998528669071762,0.004037371541441308,0.9913321526389092
2016-08-15,1,0.0018824383579588973,0.0019999680514770557,-0.007740579009805006,0.0026959295145338276,0.9915271036584082
2016-08-17,1,0.0017363991636574838,0.001829655481942294,-0.008017300922129357,0.004037371541441308,0.990691266986574
2016-08-19,1,0.0023036213390402217,0.002494567577424867,-0.008017300922129357,0.004037371541441308,0.9913497969154125
2016-08-23,1,0.0026451004998148935,0.002860986249980874,-0.00812901479315321,0.004037371541441308,0.9891289960896172
2016-08-25,1,0.0019558202945328795,0.002032001838364327,-0.00812901479315321,0.009311638904729892,0.9890457384590982
2016-08-29,1,0.0015402378349475138,0.0015450214693404423,-0.008017300922129357,0.01054255578319299,0.9885977403499301
2016-08-31,1,0.0008914900202043048,0.0009775011270594775,-0.0028107782170186764,0.012272621065244923,0.9876838575685772
2016-09-02,1,0.002053002714516431,0.002182400380324215,-0.0049497772746175716,0.01054255578319299,0.9880733582734867
2016-09-07,1,0.0014977428856176433,0.0015316434868066374,-0.0017909977716639624,0.01143417607898587,0.9878740211664683
2016-09-09,1,0.000680189072646484,0.0007301547358063696,-0.001420812201603977,0.011718372799014179,0.9887940164251755
2016-09-13,1,2.2796250255862748e-05,0.00015207405723130708,-0.001420812201603977,0.011718372799014179,0.9876466383362941
2016-09-15,0,-1.9509831204178043e-05,0.00011503248787815112,-0.001420812201603977,0.011718372799014179,0.9881272055583087
2016-09-19,1,0.001611177269152228,0.001788894782693549,-0.002819440119082902,0.010637288023202426,0.9888183492888573
2016-09-21,1,0.0014862830624521838,0.0015988723424179936,-0.001420812201603977,0.010778006330056843,0.9905000998879728
2016-09-23,1,0.0015824118496046524,0.0016730172270001602,-0.0024544399806391633,0.010778006330056843,0.9909598922163805
2016-09-27,1,0.002211884216317881,0.0023759484591156245,-0.0025544972447762914,0.009263841789189046,0.9916196778431283
2016-09-29,1,0.0028761121837668,0.003119568597071184,-0.0030884993217968025,0.008028770805253972,0.9927761093049443
2016-10-03,1,0.003118526219531699,0.00342033490911551,-0.0025544972447762914,0.009263841789189046,0.9926589459765311
2016-10-05,1,0.00279105595228418,0.0029791426524998646,-0.0031774361790650025,0.008028770805253972,0.9922717236660716
2016-10-07,1,0.0028834878697471472,0.003054924904600774,-0.006761731860464278,0.006935029104358799,0.9919370031955875
2016-10-11,1,0.0018192286289889009,0.0018369723047060745,-0.004793812463862841,0.008523759630817314,0.9924731900097367
2016-10-13,1,0.0019193221606849263,0.001954157078624265,-0.0036855043845921845,0.0113800845176784,0.989189305651564
2016-10-17,1,0.001707831038039929,0.0017596257956771283,-0.0025544972447762914,0.012304453131496449,0.9893272321038042
2016-10-19,1,0.0023587766109081083,0.0025049103984935467,-0.0036855043845921845,0.012973948270034251,0.9872130361306896
2016-10-21,1,0.00246827210617712,0.0026381378320597766,-0.006761731860464278,0.012973948270034251,0.9868656116543661
2016-10-25,1,0.002146036210300873,0.0022423226168921144,-0.006761731860464278,0.012973948270034251,0.9867039088967072
2016-10-27,1,0.0020406757666212023,0.0021555907460907332,-0.002973499643313297,0.01418899582076346,0.9865019301928136
2016-10-31,1,0.002521064609437692,0.002688883731040724,-0.006769593228694184,0.014037760519490105,0.9862996259866011
2016-11-02,1,0.0011708545828708105,0.001264507961731377,-0.002973499643313297,0.017932041294324318,0.9845472073757767
2016-11-04,1,0.00042039577722067904,0.0006046667642802351,-0.0017959719279811766,0.017932041294324318,0.9845688065188309
2016-11-08,1,0.0014575362076932308,0.0015132693185835701,-0.0017959719279811766,0.01759953793757177,0.985184307085902
2016-11-10,1,0.003700781987443031,0.0039372177589964115,-0.0017959719279811766,0.014015856459481725,0.9880707710095543
2016-11-14,1,0.004439886003559939,0.004792318912432253,-0.003520725457019234,0.014015856459481725,0.9874933458206862
2016-11-16,1,0.0029003491159198523,0.0029566778618344398,-0.002178145724704747,0.012000096134693116,0.9899033810001798
2016-11-18,1,0.002867417825843794,0.0028804008982412773,-0.002178145724704747,0.012000096134693116,0.9898190466932931
2016-11-22,1,0.003400676776787585,0.00351189637778932,-0.004479181138324675,0.012000096134693116,0.9893400488762009
2016-11-25,1,0.003969531089377353,0.004178874420175723,-0.008735300356054177,0.011089936197445957,0.9893861408363196
2016-11-29,1,0.00372485524191369,0.003972795785239849,-0.008735300356054177,0.011089936197445957,0.9893880330015551
2016-12-01,1,0.005780121465505734,0.0063744509408376095,-0.008735300356054177,0.008196434676621994,0.9913900581565395
2016-12-05,1,0.005031147949932585,0.005505439197766103,-0.004707561159110717,0.008196434676621994,0.9922881298456876
2016-12-07,1,0.005916928944763072,0.006526864471262079,-0.007481890387170984,0.006834606193031495,0.9919041559861755
2016-12-09,1,0.006456095079810078,0.007115351537437944,-0.009807197505064688,0.005948600350456818,0.9908163860633861
2016-12-13,1,0.005415513053795956,0.005908483713967388,-0.009267545665666796,0.005948600350456818,0.9918216323042901
2016-12-15,1,0.005700647301817694,0.006249162473008707,-0.009807197505064688,0.005948600350456818,0.990649820245294
2016-12-19,1,0.004949589486518484,0.005365603147390519,-0.009267545665666796,0.005948600350456818,0.9916749280176604
2016-12-21,1,0.004150296761500558,0.00446998431872632,-0.007430925469589149,0.005589256224750742,0.992907837957023
2016-12-23,1,0.003871873967218742,0.004142783991961394,-0.0010636171484421327,0.005948600350456818,0.9900149574306513
2016-12-28,1,0.003327056768867565,0.003454186397992081,-0.004700902504250061,0.005589256224750742,0.9895067544940799
2016-12-30,1,0.0032740361951490386,0.0033625771844877812,-0.007430925469589149,0.005519665026579991,0.9883577703950889
2017-01-04,1,0.003379384753415894,0.0034926751140576476,-0.007430925469589149,0.005187114279101866,0.9877264488152192
2017-01-06,1,0.0030145153368234356,0.0030983433668825833,-0.006274581867297097,0.005519665026579991,0.9870040567890149
2017-01-10,1,0.0024395220441243647,0.0024423938747061874,-0.006486876007764656,0.005187114279101866,0.9875777968302755
2017-01-12,1,0.0023124144860616177,0.002316015696130638,-0.005469899731480368,0.005519665026579991,0.9872933206820326
2017-01-17,1,0.002040642929519727,0.0020478321740207647,-0.004894949061691899,0.005519665026579991,0.9886853625052734
2017-01-19,1,0.0020023726481450295,0.0020355763347782636,-0.004894949061691899,0.005749059146594325,0.9885521256746052
2017-01-23,1,0.0019125648275466727,0.001975260978980272,-0.005469899731480368,0.007051047749842088,0.986557019449336
2017-01-25,1,0.004031285747463404,0.004191289671850045,-0.00921219969387723,0.005470628699728076,0.9876421591997737
2017-01-27,1,0.0032255921928477766,0.0032920740061871904,-0.006486876007764656,0.009067307506652902,0.9884541778039642
2017-01-31,1,0.0017672920058351255,0.0019016198867862323,-0.006486876007764656,0.011522492322730744,0.9877402610740529
2017-02-02,1,0.0003443630539582121,0.000699298287433266,-0.00921219969387723,0.014567856146037205,0.9867268796981118
2017-02-06,1,0.0007463367030916017,0.001098547295217363,-0.01054174578909329,0.010813923261432178,0.9875498704584168
2017-02-08,0,-0.0001861682960986287,0.00028513131847358007,-0.013192158843226488,0.010813923261432178,0.9872142602104941
2017-02-10,1,0.0006165556962357533,0.0009669964517806348,-0.013192158843226488,0.010813923261432178,0.986986062941402
2017-02-14,1,0.0009498881486579826,0.0012383751742622551,-0.013192158843226488,0.011925780449805478,0.9862933794454872
2017-02-16,1,0.0011748398865400922,0.0014245931041593964,-0.013192158843226488,0.011925780449805478,0.9860345771564447
2017-02-21,1,0.00233120266603527,0.00240776846740547,-0.015127063185010708,0.01016942104978779,0.9859780876080197
2017-02-23,1,0.0010739020898349449,0.0012570697748865958,-0.010215093252415503,0.01117457034438954,0.9876081932803401
2017-02-27,1,0.0018010412211153107,0.0019091857043605027,-0.010215093252415503,0.010021351355231094,0.9878244362350695
2017-03-01,1,0.0018299749721581754,0.0019187708140627417,-0.008607881510391038,0.010021351355231094,0.9892502649328493
2017-03-03,1,0.001489235768711098,0.001612771453213209,-0.0064611099412493385,0.009959896967009944,0.9903978594391787
2017-03-07,1,6.845981984449035e-05,0.00041224339874908244,-0.0064611099412493385,0.009959896967009944,0.9904160653098939
2017-03-09,-1,-0.0010939608667234891,-0.0006006703362523385,-0.0064611099412493385,0.009959896967009944,0.989814243952723
2017-03-13,-1,-0.0007485782251152671,-0.00025980812615567254,-0.0064611099412493385,0.006988075987085057,0.9907835719587854
2017-03-15,-1,-0.0006127372738691204,-0.00016945868342472191,-0.0064611099412493385,0.006070129446575904,0.990587863772001
2017-03-17,-1,-0.0013439741585559502,-0.0008035801925142594,-0.010420358796379085,0.006988075987085057,0.9891499987414532
2017-03-21,-1,-0.003053296375545005,-0.002308313122099238,-0.005829693735881615,0.006988075987085057,0.9902436362377627
2017-03-23,-1,-0.0029937522968803924,-0.0022292715955214907,-0.006318907268989523,0.006070129446575904,0.990740911395973
2017-03-27,-1,-0.003185440825571958,-0.0024366086879088057,-0.005191012770210911,0.006988075987085057,0.9893550821350122
2017-03-29,-1,-0.0029240995899387956,-0.0021805867154730692,-0.005191012770210911,0.006439276327898688,0.9900901489300366
2017-03-31,-1,-0.0031530853483527632,-0.002358188303791838,-0.008504315899366973,0.004898804292998729,0.9897216897924788
2017-04-04,-1,-0.003507684284854724,-0.0027232698650787638,-0.007637594148595632,0.004898804292998729,0.9898044300079639
2017-04-06,-1,-0.0027726185357633,-0.0022025856345764695,-0.007548723367126883,0.004527227172046637,0.9911079101195486
2017-04-10,-1,-0.002398449621862934,-0.0018949481982272352,-0.007548723367126883,0.0034898709456168287,0.9914260441270751
2017-04-12,-1,-0.0034412608129456186,-0.002824275266558756,-0.007548723367126883,0.0034898709456168287,0.9911986574418319
2017-04-17,-1,-0.0036038867189404776,-0.0029498579402274577,-0.007548723367126883,0.0023114515944415255,0.9915632338978163
2017-04-19,-1,-0.003396411594781942,-0.002780925750577105,-0.014906715700405294,0.0019692960096489476,0.9903443680055608
2017-04-21,-1,-0.003041858685169327,-0.002502921900438198,-0.014906715700405294,0.00265305079778429,0.989944524746295
2017-04-25,-1,-0.0024299731243164198,-0.0019272111205940004,-0.014906715700405294,0.003502093885648764,0.9910204313480991
2017-04-27,-1,-0.0010864525466021337,-0.0008424538918589511,-0.014906715700405294,0.002315525907785504,0.9903117961157472
2017-05-01,-1,-0.00201012537518275,-0.0016341144839695126,-0.013314334504361982,0.0019592597510006684,0.9912198924393377
2017-05-03,-1,-0.002051928222920509,-0.0017219237767407644,-0.01317796427999846,0.002315525907785504,0.9905146577403983
2017-05-05,-1,-0.001968262266115531,-0.0017047376185544958,-0.011381927138382564,0.003645690142843253,0.9901667955956931
2017-05-09,-1,-0.002333028873624703,-0.001997080225335273,-0.011381927138382564,0.005097198707718412,0.9899695704508784
2017-05-11,-1,-0.0031143506934658578,-0.002705614576294351,-0.01041436038179488,0.0058679831743124345,0.9887141045840419
2017-05-15,-1,-0.004679885893777236,-0.004078898227688027,-0.009048624596375758,0.007118060842969079,0.9890580289881431
2017-05-17,-1,-0.0065781368059955655,-0.005750353881452574,-0.009048624596375758,0.007118060842969079,0.9890672532653296
2017-05-19,-1,-0.006025605675516773,-0.005254371757679126,-0.009048624596375758,0.00810144632655816,0.9892193534441324
2017-05-23,-1,-0.0057316012363680694,-0.004976890893589502,-0.011381927138382564,0.00810144632655816,0.9890240392503435
2017-05-25,-1,-0.006256282562170295,-0.005468756388109855,-0.01041436038179488,0.010458999329312402,0.9881892933451021
2017-05-30,-1,-0.006303028431998782,-0.005528571878560346,-0.005709410000359337,0.01121816982031614,0.987309452289936
2017-06-01,-1,-0.005406011093303393,-0.004728805661310179,-0.011014440737447066,0.010458999329312402,0.988472478577047
2017-06-05,-1,-0.0057514768862427495,-0.0050193176535612005,-0.008640443036364808,0.01121816982031614,0.9872924481597913
2017-06-07,-1,-0.0055566500934935235,-0.004840687089577988,-0.008640443036364808,0.01121816982031614,0.987442465853827
2017-06-09,-1,-0.003895494934523494,-0.0033606461152408183,-0.008640443036364808,0.010318159225223885,0.9890427630655529
2017-06-13,-1,-0.003267166494496456,-0.002827591177116424,-0.008640443036364808,0.010204310866377646,0.9890759090909119
2017-06-15,-1,-0.004260554317325008,-0.0037251179995782787,-0.004037860938907327,0.010366866020048375,0.988815408307425
2017-06-19,-1,-0.001525596494076068,-0.0014695551103053543,-0.008640443036364808,0.010204310866377646,0.9889096312776964
2017-06-21,-1,-0.0033684599410082157,-0.003055468284290038,-0.004953518618346428,0.010204310866377646,0.9888392590950015
2017-06-23,-1,-0.0031778694557930013,-0.002850965178764129,-0.004953518618346428,0.010204310866377646,0.988254427090649
2017-06-27,-1,-0.0026198843592531978,-0.0023420797146216426,-0.00862215323904926,0.010204310866377646,0.9882338063668811
2017-06-29,-1,-0.002052922257109752,-0.0019069230471148119,-0.008347340942306797,0.010204310866377646,0.988282229505666
2017-07-03,-1,-0.0012671465572513638,-0.0011896549388799077,-0.005706691459033022,0.010204310866377646,0.9890661222198124
2017-07-06,-1,-0.0005403521953969845,-0.0004813110240418072,-0.007442599334258692,0.011880994812401484,0.9871017892505715
2017-07-10,1,0.000514542420646106,0.0007451110298484761,-0.007442599334258692,0.0167322426996023,0.9870202458427728
2017-07-12,1,0.0010775019253872506,0.0014059684359016278,-0.007442599334258692,0.0167322426996023,0.9871903798918171
2017-07-14,1,0.0020599340269858717,0.002565610308945616,-0.01088167176110904,0.011035620256537293,0.9869384266689689
2017-07-18,1,0.0003514383384025845,0.0005520134312516229,-0.00682623756703036,0.011035620256537293,0.9878695966832803
2017-07-20,1,0.0005857268825275881,0.0008778126866653958,-0.008757774162681581,0.011035620256537293,0.9871180023979703
2017-07-24,1,0.0017391616448008316,0.0022012011495150387,-0.008757774162681581,0.00637784803528473,0.987608307625658
2017-07-26,1,0.0020000146866271367,0.0024896264949274566,-0.007763954653744634,0.00637784803528473,0.9882795610913466
2017-07-28,1,0.0015265306739384824,0.0019291758539307104,-0.006700418319794155,0.00637784803528473,0.9887008264176095
2017-08-01,1,0.0021810865059013846,0.0026307289028676293,-0.006700418319794155,0.007189240448490016,0.9890585471871322
2017-08-03,1,0.004133794079793732,0.004903538919941953,-0.006224583532572099,0.007189240448490016,0.9908777799920175
2017-08-07,1,0.004697209019613131,0.005544234367424069,-0.006906792501336552,0.00637784803528473,0.991451981472551
2017-08-09,1,0.004892742645049448,0.005741878629663936,-0.006906792501336552,0.005911084738513606,0.9906074390928677
2017-08-11,1,0.0031365479728787575,0.0036739304837117917,-0.006277213479480721,0.006678138533568686,0.9921827207055762
2017-08-15,1,0.003093768689420938,0.003655896205827859,-0.006277213479480721,0.008694803742619535,0.9920526819695735
2017-08-17,1,0.0014342234613142055,0.0017557910389333598,-0.00236258741762545,0.008694803742619535,0.9936259058744896
2017-08-21,1,0.0018384669855509388,0.002258661484971865,-0.0006396919208049704,0.010532841200835051,0.9939185143826519
2017-08-23,1,0.0027783069079010594,0.003346562114952669,-0.0006396919208049704,0.008694803742619535,0.9946321911271799
2017-08-25,1,0.002583738468913824,0.0030825206317477054,0.00020089390741696628,0.008694803742619535,0.9947247877350652
2017-08-29,1,0.0029307903620763823,0.0034312423746488932,0.00020089390741696628,0.00538011773858414,0.9951737235583222
2017-08-31,1,0.003599570818926371,0.004199412545742227,-0.0023961190559900637,0.005268941178614888,0.9950046193742552
2017-09-05,1,0.0028844558670463936,0.003332752237281076,-0.0017310430487196373,0.005268941178614888,0.9955326133709619
2017-09-07,1,0.002647414811753684,0.0030688968540444205,0.00015717850138078596,0.00538011773858414,0.9953339884437058
2017-09-11,1,0.003250550124527168,0.00375520885347989,-0.0023961190559900637,0.005268941178614888,0.995554198241334
2017-09-13,1,0.0033602934274966547,0.00387807871247661,-0.0006662093815781324,0.005148563095600874,0.9961877215402153
2017-09-15,1,0.003938211782597444,0.004590995042589047,-0.0008653432426063477,0.004491638419193186,0.995757303606134
2017-09-19,1,0.004412065196344883,0.005133123646885397,-0.0023961190559900637,0.004491638419193186,0.99481580107562
2017-09-21,1,0.004350740730156483,0.005033017430490734,-0.004130570232741057,0.0026702729029966896,0.9941190665520061
2017-09-25,1,0.00428956570232264,0.004929575946048087,-0.004130570232741057,0.0026702729029966896,0.9939980591128325
2017-09-27,1,0.0041392508055002955,0.004722324307571401,-0.004796410641887177,0.002473726233995892,0.9930530854470716
2017-09-29,1,0.0038230792819814166,0.00436070468388706,-0.004796410641887177,0.00509524502999481,0.9935504842390919
2017-10-03,1,0.003334420030505508,0.0037511019802394284,-0.005737437221202523,0.00509524502999481,0.9932120625488261
2017-10-05,1,0.0026126981313892824,0.0028491351758248252,-0.0067800086022599786,0.004044447545438221,0.9924881137181086
2017-10-09,1,0.00138978399888986,0.0014079468333556232,-0.009079560455996939,0.00509524502999481,0.9910495412790946
2017-10-11,1,0.0015999267559835524,0.0016271210328697174,-0.009079560455996939,0.004857041483404482,0.9909237650597954
2017-10-13,1,0.0013569367538967046,0.0013642873731725548,-0.010314049835365463,0.00797307234816259,0.9898220189330075
2017-10-17,1,0.0007799014283551222,0.0008913867856028238,-0.011118345886649183,0.00797307234816259,0.9886585247547723
2017-10-19,1,8.804050653192345e-05,0.0003013425941500005,-0.011757546698260983,0.009638006504080598,0.9876955420983794
2017-10-23,1,0.0007004035374786341,0.0008066255704664014,-0.011757546698260983,0.01108165381855633,0.9874248814842241
2017-10-25,1,0.0002118467290636891,0.0003909170615755052,-0.01123792785151058,0.011714552383488692,0.9874779979589232
2017-10-27,1,0.0007015913585100434,0.0008246484660771733,-0.01123792785151058,0.009848972692391385,0.9877192949464635
