JNU-Tangyin/eata/results/Batch4_SP500/Batch4_SP500-NDAQ.csv
Date,Action,Predicted_Q25,Predicted_Q75,Actual_Q25,Actual_Q75,RL_Reward
2010-12-14,0,0.0,0.0,-0.005877332209508971,0.007038187056160227,0.9907510543366307
2010-12-16,0,0.0,0.0,-0.005877332209508971,0.007038187056160227,0.992051317777071
2010-12-20,0,0.0,0.0,-0.007291375367022639,0.007038187056160227,0.9908466706495247
2010-12-22,0,0.0,0.0,-0.007291375367022639,0.008412987018200174,0.9911792368617115
2010-12-27,0,0.0,0.0,-0.007291375367022639,0.009928829019423368,0.9910723892722227
2010-12-29,1,0.0027571063920528195,0.0029325785667045803,-0.007291375367022639,0.010720686779361195,0.9903327752287487
2010-12-31,1,0.005348403531035837,0.005986848575705271,-0.007384187613953889,0.010720686779361195,0.9897004670770954
2011-01-04,1,0.0050132683515818005,0.005545805702584351,-0.004975921190864001,0.01110747263274734,0.9873540019155237
2011-01-06,0,0.0,0.0,-0.002416964888166686,0.012362268658825958,0.9854118534982532
2011-01-10,0,0.0,0.0,-0.0032588796726369567,0.012362268658825958,0.9838246510402594
2011-01-12,1,0.0015034764926097196,0.0017387933090733966,-0.0032588796726369567,0.013075626577705012,0.981873873214913
2011-01-14,1,0.0023232876740156517,0.0024093395068411636,-0.0032588796726369567,0.019190448568484692,0.9797213731166354
2011-01-19,1,0.0004381278502979233,0.0006106648867542745,-0.0032588796726369567,0.019190448568484692,0.9779141860944076
2011-01-21,0,0.0,0.0,-0.0032588796726369567,0.019190448568484692,0.9776448949299196
2011-01-25,0,0.0,0.0,-0.004101554173477156,0.019190448568484692,0.9768720835250376
2011-01-27,0,0.0,0.0,-0.004101554173477156,0.014455823566774441,0.9779501111543435
2011-01-31,0,0.0,0.0,-0.0034892660920662253,0.014455823566774441,0.9774451070769234
2011-02-02,0,0.0,0.0,-0.0034892660920662253,0.012877493246256855,0.9801165842289429
2011-02-04,1,0.004961562048642063,0.005297647008510898,-0.0032581801676585687,0.011220349131984587,0.9822618320392186
2011-02-08,1,0.0019200509071665294,0.0019488830476309693,-0.0032581801676585687,0.011220349131984587,0.981977955048013
2011-02-10,0,0.0,0.0,-0.015324224363973543,0.009545259113447623,0.9832909585879562
2011-02-14,1,1.1824180866556961e-05,2.4540712906773117e-05,-0.023586001235587996,0.007800501366522306,0.9839678176143635
2011-02-16,0,0.0,0.0,-0.023586001235587996,0.007800501366522306,0.9838346137745768
2011-02-18,0,0.0,0.0,-0.023586001235587996,0.007800501366522306,0.9833569882670105
2011-02-23,1,0.0021619060216409498,0.002162085111004724,-0.021192465235336924,0.007800501366522306,0.9847023041835246
2011-02-25,1,0.0029842375484025723,0.0030721638925926484,-0.021192465235336924,0.007800501366522306,0.9844616646402848
2011-03-01,1,0.0021816643643550048,0.002201133395241078,-0.014988800961088736,0.008024509752943207,0.9853238467373067
2011-03-03,1,0.0027866278047201393,0.0028738103059010706,-0.014988800961088736,0.007800501366522306,0.9862806140855838
2011-03-07,1,0.002400270034796787,0.00243795168578028,-0.021192465235336924,0.007973535170641269,0.9814751145455546
2011-03-09,1,0.0019324326085621512,0.0020225083769982565,-0.013423791355483283,0.012050263913409678,0.98063290770457
2011-03-11,0,0.0,0.0,-0.013423791355483283,0.012050263913409678,0.9805341774674858
2011-03-15,0,0.0,0.0,-0.009158195281406612,0.012050263913409678,0.9818671196286031
2011-03-17,0,0.0,0.0,-0.008351102725806244,0.012050263913409678,0.9843948593992617
2011-03-21,0,0.0,0.0,-0.009158195281406612,0.010998146342012674,0.9841268267981828
2011-03-23,-1,-0.0014186839025266025,-0.000978498395465708,-0.009158195281406612,0.010998146342012674,0.9845989942654167
2011-03-25,-1,-0.0014198294944445969,-0.001026775496669526,-0.00923577729629168,0.009839290139111298,0.984644152269053
2011-03-29,-1,-0.0005478306774884912,-0.0002799211397348932,-0.00923577729629168,0.008120728599734419,0.9850980988545103
2011-03-31,0,-0.00011564738567977888,6.064816197545904e-05,-0.009364304516958567,0.008120728599734419,0.9846267614397602
2011-04-04,0,0.0,0.0,-0.009364304516958567,0.0075117168868465735,0.9897045318143637
2011-04-06,0,0.0,0.0,-0.009364304516958567,0.0018099667757802743,0.9916831067393517
2011-04-08,0,0.0,0.0,-0.00860508904993322,0.0021315410639520904,0.9915503868442319
2011-04-12,0,0.0,0.0,-0.007226397965238655,0.003085274340401575,0.9917477238945256
2011-04-14,1,0.0011825534904433541,0.001285450072102688,-0.009124659572487103,0.004039056302456339,0.9909551291635168
2011-04-18,0,-0.00021441606383936613,0.00012845715749033556,-0.010392039669018959,0.003085274340401575,0.9913079765732147
2011-04-20,0,0.0,0.0,-0.010392039669018959,0.004039056302456339,0.9910088183437245
2011-04-25,0,0.0,0.0,-0.011414362534076019,0.003085274340401575,0.9896964139194868
2011-04-27,0,0.0,0.0,-0.011414362534076019,0.0013075409365627707,0.989831337386129
2011-04-29,0,0.0,0.0,-0.014230606620746739,0.003085274340401575,0.987660846828448
2011-05-03,1,0.0004046177885226002,0.0006443180475299981,-0.016251272178868674,0.003944311375442187,0.9860858756307483
2011-05-05,-1,-0.0020990432247150964,-0.001697335513804972,-0.017078710622028953,0.003944311375442187,0.9859394302076742
2011-05-09,-1,-0.0012688707122370125,-0.0009148101633024918,-0.01862142182720761,0.003944311375442187,0.9857234525125002
2011-05-11,1,0.0010284583824770473,0.0011481110572250602,-0.01862142182720761,0.0060072623587290805,0.9837453146172058
2011-05-13,0,0.0,0.0,-0.01862142182720761,0.003929195112371615,0.9840685504526112
2011-05-17,0,0.0,0.0,-0.01862142182720761,0.006746524699049064,0.9836943585702345
2011-05-19,0,0.0,0.0,-0.01862142182720761,0.006773800543099567,0.9837183648402217
2011-05-23,-1,-0.0036727639823195468,-0.0030693752332637504,-0.016213738380103794,0.009888124971686668,0.9845549892435663
2011-05-25,-1,-0.004156647985542655,-0.00347720140224569,-0.017078710622028953,0.009888124971686668,0.9833260886640661
2011-05-27,0,0.0,0.0,-0.01635692503293442,0.009888124971686668,0.9854779444032515
2011-06-01,0,0.0,0.0,-0.014862907028491829,0.012569181031804738,0.9847615992006495
2011-06-03,0,0.0,0.0,-0.013199002681700978,0.014764743545902048,0.9838896363354992
2011-06-07,0,0.0,0.0,-0.013199002681700978,0.014764743545902048,0.9841565000262212
2011-06-09,-1,-0.004712464716133171,-0.004003315973871575,-0.013199002681700978,0.012569181031804738,0.9839655288622194
2011-06-13,-1,-0.00579255485672073,-0.004916326643993777,-0.01355173526656126,0.012569181031804738,0.9820984574628682
2011-06-15,-1,-0.005698021374541189,-0.004870277051934412,-0.012008044303619405,0.01001095103484855,0.9838203343422826
2011-06-17,-1,-0.005259190632008472,-0.004483265108558334,-0.01355173526656126,0.00826618832160598,0.9827552542988489
2011-06-21,-1,-0.003718909153396217,-0.0031867378984194363,-0.01355173526656126,0.00826618832160598,0.9826088762761462
2011-06-23,-1,-0.005657996700469011,-0.004853588257404182,-0.009776658906163367,0.01454826938633419,0.9815599062726896
2011-06-27,0,0.0,0.0,-0.009776658906163367,0.01454826938633419,0.9831230276946495
2011-06-29,-1,-0.0012541782999321565,-0.0011009929286522162,-0.012792052097938067,0.009048623627793472,0.983455079780611
2011-07-01,0,0.0,0.0,-0.012792052097938067,0.006536942445254282,0.9849871722838928
2011-07-06,1,0.00037591807306396703,0.0005457871661571061,-0.012792052097938067,0.006536942445254282,0.9847810189197255
2011-07-08,0,0.0,0.0,-0.016947058937025014,0.0085542664801177,0.9827153048480465
2011-07-12,0,0.0,0.0,-0.016947058937025014,0.015564637771936651,0.9759058483321538
2011-07-14,0,0.0,0.0,-0.03276405271425986,0.01752732346464779,0.969672768081031
2011-07-18,0,0.0,0.0,-0.026291483795246012,0.019748410937606816,0.9693294776491995
2011-07-20,-1,-0.0008858929971008293,-0.000863866722663822,-0.028770148355971244,0.01752732346464779,0.9690384200545764
2011-07-22,-1,-0.00019294360668931635,-0.00015941827655239902,-0.03276405271425986,0.008899523330105567,0.9672806855089408
2011-07-26,1,0.0003767416576247615,0.0005266970484823367,-0.03276405271425986,0.018036732215449755,0.964133024187247
2011-07-28,1,0.00013056634392915104,0.00024535916976376485,-0.033898888939198506,0.019791987222562046,0.963573843038212
2011-08-01,1,0.00011456377758619626,0.0002154365604204403,-0.033898888939198506,0.028937913052979655,0.9614474281617719
2011-08-03,-1,-0.0009741681191599464,-0.0009095444284750767,-0.029424451164120253,0.028937913052979655,0.9627388945319088
2011-08-05,-1,-0.0026640066976793293,-0.0023314997527224103,-0.025994254822261045,0.028937913052979655,0.9637796698429528
2011-08-09,-1,-0.0019114238824740211,-0.00158587177093514,-0.025994254822261045,0.028937913052979655,0.967212453822058
2011-08-11,-1,-0.0007222551327155198,-0.0006233735946270475,-0.025994254822261045,0.023598752361767235,0.9713361294804113
2011-08-15,-1,-0.001046411170799305,-0.0009167850463849218,-0.025994254822261045,0.026582624677401842,0.9710778872519205
2011-08-17,-1,-0.0018933496374006335,-0.0016566281807383965,-0.023467310945093828,0.031063068140204247,0.9692601387658587
2011-08-19,-1,-0.0033647369709027455,-0.002984897677888784,-0.019944729692749193,0.031063068140204247,0.9712428388129561
2011-08-23,-1,-0.0013863263721561473,-0.0012416301896356547,-0.021487974423611094,0.026582624677401842,0.9740436719682197
2011-08-25,-1,-0.0016424680801020199,-0.0015716897201416653,-0.019509252728097764,0.022813656236574633,0.9759900917505331
2011-08-29,1,0.0006918570362850086,0.0010108730972137035,-0.019509252728097764,0.018337566277724888,0.9774227384325732
2011-08-31,1,0.0007355080051569907,0.0010243435148401079,-0.021487974423611094,0.018337566277724888,0.9757839486113469
2011-09-02,-1,-0.0003489223766978886,-0.00022857918047965056,-0.024756513490579002,0.018337566277724888,0.974471763969192
2011-09-07,1,0.0007517127359062462,0.0010356379068107496,-0.019509252728097764,0.02473948482608935,0.9773040209623785
2011-09-09,-1,-0.0006504374278903107,-0.0005555247516689128,-0.014875519265139286,0.02473948482608935,0.9778906034088151
2011-09-13,1,0.0008910529844221484,0.0011808512347236176,-0.014875519265139286,0.02405952521089979,0.9788806852290907
2011-09-15,1,0.0025089207927342233,0.00300874408387341,-0.014875519265139286,0.01815733394950638,0.9817539510840876
2011-09-19,1,0.00217571796207367,0.0026511427376281348,-0.015389934175426587,0.01815733394950638,0.9816799170402312
2011-09-21,1,0.0013037646968486797,0.0016421636243684054,-0.010854719057780531,0.01815733394950638,0.9820762489409331
2011-09-23,1,0.001572528132814074,0.0019333940384106535,-0.010854719057780531,0.014430820973118732,0.9827594895961351
2011-09-27,1,0.0019502338524805423,0.002349144779082274,-0.015429225891748239,0.01363821311683689,0.9807763706716855
2011-09-29,1,0.0016622309617856231,0.002087055169981285,-0.010854719057780531,0.021501469313835758,0.9798319529608428
2011-10-03,-1,-0.0006621441129879463,-0.0005644578913095925,-0.006787469348209516,0.021501469313835758,0.9815649328615944
2011-10-05,1,0.0012189731674974221,0.0015653038091889017,-0.010854719057780531,0.01184768673728675,0.9831860262245142
2011-10-07,1,0.000748902956633275,0.0009880720035918848,-0.006787469348209516,0.01184768673728675,0.9837057313589297
2011-10-11,1,0.0018377676909907168,0.002232485782003216,-0.006787469348209516,0.01332436752003026,0.9847746391964525
2011-10-13,1,0.001673406973181032,0.001966959870008829,-0.012781531868613208,0.013717375788143821,0.9828096100520608
2011-10-17,1,0.001085574808761835,0.0012991674217266522,-0.006787469348209516,0.015130920999285459,0.9821308629260691
2011-10-19,1,0.001363230671144933,0.0016573728563013756,-0.010522501855857513,0.015130920999285459,0.9808392568139347
2011-10-21,1,0.0011873057741861065,0.0013893460403641195,-0.01554491527538071,0.015130920999285459,0.9802839893558393
2011-10-25,1,0.00038576006903728464,0.0004611631639620269,-0.014283733434364673,0.013717375788143821,0.9822443431580508
2011-10-27,1,0.0016135910046986956,0.0018345548092695934,-0.018434617985908015,0.01332436752003026,0.9841959098840548
2011-10-31,1,0.0008680418894330252,0.0010153729253123804,-0.013806087079690669,0.013717375788143821,0.983979314808087
2011-11-02,1,0.00036337783860330986,0.0004330398380847347,-0.009645399613132651,0.015130920999285459,0.9833056517156901
2011-11-04,1,0.0007044724335742037,0.0007974886026289115,-0.009645399613132651,0.013494987368820724,0.9835860705707732
2011-11-08,1,0.0013460295491847052,0.0015355627110856262,-0.013806087079690669,0.010862344671729522,0.9834825458218938
2011-11-10,1,0.0013674368537741214,0.0015932496196079087,-0.013806087079690669,0.010862344671729522,0.9831193001355635
2011-11-14,1,0.0013786998670195913,0.0015507465109165493,-0.020254418210857012,0.009436295810583016,0.9824681630454958
2011-11-16,1,0.0009577458300343144,0.0010923623279732453,-0.018434617985908015,0.00818287362898956,0.9838533516767208
2011-11-18,1,0.0015941134380588061,0.0019137473203081116,-0.018434617985908015,0.0005430127123344675,0.9832201009758351
2011-11-22,0,0.0,0.0,-0.01759788891177036,0.008818356761229119,0.9833008735407165
2011-11-25,0,0.0,0.0,-0.012082394472504924,0.008818356761229119,0.983654244603266
2011-11-29,1,0.0012279428205991413,0.001417242317554104,-0.014722722957253083,0.006898377359072739,0.9843350028430505
2011-12-01,1,0.0014409302483146236,0.0015801678814669848,-0.014722722957253083,0.006898377359072739,0.9860246631078698
2011-12-05,1,0.0012712847163860717,0.0013677016866325798,-0.014722722957253083,0.006898377359072739,0.9854416806878221
2011-12-07,1,0.00028936506678342144,0.0003570329283265937,-0.013667351897813748,0.006898377359072739,0.9863532208067838
2011-12-09,1,0.0006493232775195885,0.0006518022381576791,-0.011118277071648242,0.006898377359072739,0.9870585108890297
2011-12-13,-1,-7.386986753714212e-05,-3.122117787254954e-05,-0.009135789472432404,0.006898377359072739,0.9891499587780104
2011-12-15,0,0.0,0.0,-0.009135789472432404,0.006533266737037826,0.9891420777426202
2011-12-19,-1,-0.0009070178766097615,-0.0007570779865617135,-0.005256610864928896,0.011452092144377559,0.9893693859330503
2011-12-21,0,-6.2152258264520146e-06,3.2096624647972655e-05,-0.005256610864928896,0.00861749067793337,0.9904312448291813
2011-12-23,-1,-0.00012035598583822463,-4.415774605144362e-05,-0.005256610864928896,0.00966571173060457,0.9902487398385801
2011-12-28,0,0.0,0.0,-0.004793707412661465,0.00966571173060457,0.9905692594961417
2011-12-30,0,0.0,0.0,-0.007139318155874652,0.008304848804902036,0.9891473965478151
2012-01-04,-1,-0.0003502174733074052,-0.00020747483599434485,-0.005178215760273506,0.007880449477633817,0.9905504335430425
2012-01-06,0,0.0,0.0,-0.004522554124089551,0.00966571173060457,0.9896512155404071
2012-01-10,-1,-0.00014992828594248374,-3.759964727903417e-05,-0.004522554124089551,0.010744907274136847,0.9898745894491001
2012-01-12,-1,-0.001688845949947123,-0.0013192334550076962,-0.004933194173253388,0.010744907274136847,0.9890796083726567
2012-01-17,-1,-0.0010446393120316561,-0.0008435959757531618,-0.0006756819452658685,0.011828218154129145,0.9891522102486563
2012-01-19,-1,-0.0008571758395054393,-0.0006474857553934798,-0.0031372659012349835,0.011828218154129145,0.9892758784903123
2012-01-23,-1,-7.49324269857126e-05,-1.3028187909636633e-05,-0.004753275605373284,0.011828218154129145,0.9896238513751237
2012-01-25,1,0.0004156211155082792,0.00042023995175421194,-0.0062260887418100425,0.011828218154129145,0.989718106990156
2012-01-27,-1,-0.0001323366220089555,-3.237015888919525e-05,-0.0062260887418100425,0.013816576139010968,0.9891494414410056
2012-01-31,-1,-0.0007302985522909089,-0.0005887967056719644,-0.005760939190455564,0.013816576139010968,0.9905193981697789
2012-02-02,-1,-0.0018832613675232308,-0.0015213676981989323,-0.00637972225591895,0.013816576139010968,0.9902367401439487
2012-02-06,0,-5.6933516499287545e-05,2.249738126916832e-06,-0.007659572612934424,0.006929265780242463,0.990496190461974
2012-02-08,1,0.0013505715505735013,0.0015547902590324534,-0.007659572612934424,0.005146234687572311,0.9913623135250527
2012-02-10,1,0.0008547519724169908,0.0009574345224346733,-0.007659572612934424,0.006740064077979241,0.9913255870268098
2012-02-14,0,0.0,0.0,-0.008026678270041013,0.006740064077979241,0.9898586665064826
2012-02-16,0,0.0,0.0,-0.008026678270041013,0.006740064077979241,0.9904098554732507
2012-02-21,0,0.0,0.0,-0.00785328082446907,0.006987397008424297,0.9904074398459458
2012-02-23,0,0.0,0.0,-0.00637972225591895,0.006987397008424297,0.9908897277340917
2012-02-27,-1,-0.0019901396469145806,-0.0016003406882953287,-0.00785328082446907,0.006987397008424297,0.990579164083472
2012-02-29,1,0.0004979246870217073,0.0005512789758762071,-0.00785328082446907,0.006987397008424297,0.9899203624197843
2012-03-02,0,0.0,0.0,-0.008687992897385977,0.006987397008424297,0.9890573206224864
2012-03-06,0,0.0,0.0,-0.007936750386148581,0.006987397008424297,0.9899710817904456
2012-03-08,0,0.0,0.0,-0.008687992897385977,0.006987397008424297,0.9893368318096889
2012-03-12,0,0.0,0.0,-0.008687992897385977,0.005433976760334551,0.988456799182065
2012-03-14,0,0.0,0.0,-0.008016940378889604,0.006055028994571434,0.9898003725336703
2012-03-16,0,0.0,0.0,-0.010504048118833261,0.005072255415433359,0.989512438604857
2012-03-20,0,0.0,0.0,-0.010504048118833261,0.005072255415433359,0.9891685742061076
2012-03-22,1,0.0015976840067123644,0.001854738227944493,-0.010504048118833261,0.0064940126141173945,0.9884955697694435
2012-03-26,1,0.0009433940289231366,0.0010243363905944576,-0.00959242562211382,0.0064940126141173945,0.9893988111025867
2012-03-28,0,0.0,0.0,-0.007857431923292737,0.0064940126141173945,0.9904251859677048
2012-03-30,0,0.0,0.0,-0.007857431923292737,0.0064940126141173945,0.9904420202618436
2012-04-03,1,0.0008263503146939319,0.0009429823877936008,-0.009798097152835314,0.0064940126141173945,0.9897102061280895
2012-04-05,1,0.00030483792356119635,0.00035300009495508775,-0.009798097152835314,0.003517482756573405,0.9905075594020215
2012-04-10,1,0.00036418565133606266,0.0004693573069487337,-0.008647137387747913,0.0064940126141173945,0.9914246639131012
2012-04-12,1,0.0005384337227472938,0.0006622208795468774,-0.010716668304498106,0.0043339225145432245,0.9905075877891365
2012-04-16,0,0.0,0.0,-0.010716668304498106,0.008660947327325263,0.9905312780494503
2012-04-18,0,0.0,0.0,-0.013867039895927911,0.005960424029008739,0.9899630072717869
2012-04-20,-1,-0.0009939351649769818,-0.0008267906354515665,-0.014638609295902685,0.003367499336387881,0.9885926133474805
2012-04-24,-1,-0.000552881901643554,-0.0004509838539413197,-0.01605267565322722,0.003367499336387881,0.9863562097231179
2012-04-26,-1,-3.525912480028742e-05,-4.502900793179691e-06,-0.018124220929843806,0.003367499336387881,0.9855493268223924
2012-04-30,-1,-0.0006325723748640805,-0.0005984982909174385,-0.01605267565322722,0.007580195765610976,0.9859562253194168
2012-05-02,-1,-0.0016900853263313454,-0.0014957031544793745,-0.017688933782118565,0.007580195765610976,0.9858789641445928
2012-05-04,0,0.0,0.0,-0.01888720989470364,0.007580195765610976,0.9854491579604965
2012-05-08,0,0.0,0.0,-0.01888720989470364,0.009402812693306995,0.9844460458182276
2012-05-10,0,0.0,0.0,-0.01888720989470364,0.007580195765610976,0.9856470293812565
2012-05-14,0,0.0,0.0,-0.02085717161451463,0.008421434249667462,0.9846935833226687
2012-05-16,0,0.0,0.0,-0.01888720989470364,0.008421434249667462,0.985080286954862
2012-05-18,0,0.0,0.0,-0.01807979440016019,0.01038639508126148,0.9865340904092099
2012-05-22,-1,-0.00585350751077429,-0.005094794465175944,-0.008872902641847567,0.01038639508126148,0.9865260404495321
2012-05-24,-1,-0.005738671364274209,-0.005018358204667719,-0.008872902641847567,0.01063833727551314,0.985630623975371
2012-05-29,0,0.0,0.0,-0.01807979440016019,0.009956998124607043,0.986774063438542
2012-05-31,0,0.0,0.0,-0.008872902641847567,0.011590521583832648,0.9865336294297187
2012-06-04,0,0.0,0.0,-0.0035710241688874807,0.013669779611926235,0.9853943529920436
2012-06-06,-1,-0.004123011842563938,-0.0036347219854463426,-0.0066906486573339394,0.010431910625383433,0.9859520285810479
2012-06-08,-1,-0.004757122335736616,-0.004164821607359152,-0.015138527415710024,0.010431910625383433,0.9850657345739156
2012-06-12,-1,-0.004518827919122171,-0.0040085425171412,-0.010578576818216421,0.010431910625383433,0.9857819738226157
2012-06-14,-1,-0.005059465505136458,-0.004510418112304061,-0.008828392735104454,0.012200679495301167,0.9849427001215366
2012-06-18,-1,-0.0036081740441984483,-0.003273580828612415,-0.008828392735104454,0.012204758429820398,0.9857341848504811
2012-06-20,-1,-0.0024661392929803856,-0.0022755973815058983,-0.008828392735104454,0.01110218118979737,0.9869461389579567
2012-06-22,-1,-0.004297284250940017,-0.0038073624761421647,-0.009378715287473667,0.01110218118979737,0.9877697882223515
2012-06-26,-1,-0.0049722899750276215,-0.004402418417521224,-0.009378715287473667,0.012204758429820398,0.9859622109165185
2012-06-28,-1,-0.0028796588818792365,-0.0026140754827117005,-0.009378715287473667,0.012046382376283828,0.9865660402550622
2012-07-02,-1,-0.0004590830154118149,-0.0003635861203094734,-0.010987709203832874,0.007389870019000882,0.9875048155709099
2012-07-05,-1,-0.0011289297381226052,-0.0011217393640357068,-0.010987709203832874,0.007389870019000882,0.9877541242995449
2012-07-09,-1,-0.0017941352248601861,-0.001731880411991228,-0.007439412202654067,0.011975302834966055,0.9879741572125241
2012-07-11,0,0.0,0.0,-0.0052823374840837815,0.0105519350731677,0.98862291546626
2012-07-13,0,0.0,0.0,-0.0052823374840837815,0.008798300299288924,0.9897419677282214
2012-07-17,-1,-0.0009222499944488837,-0.0007981810668100794,-0.007404071988102995,0.006682141749674868,0.9899126781546448
2012-07-19,-1,-0.0002950727103941703,-4.230317649345889e-05,-0.007404071988102995,0.005951490391305601,0.990013679940668
2012-07-23,-1,-0.0013654638350759887,-0.0012775602677294637,-0.004078968686927596,0.007512873437818706,0.990542227636025
2012-07-25,-1,-0.0005851632644858693,-0.000402408110464707,-0.004078968686927596,0.007355689771813304,0.9924085877280483
2012-07-27,-1,-0.0005261671836430518,-0.0003740776218405553,-0.0052823374840837815,0.005697332521574322,0.992424114903526
2012-07-31,-1,-0.0008747410148560156,-0.0007268814160962874,-0.0044550780243455095,0.007355689771813304,0.9927025898986878
2012-08-02,-1,-0.0008320448010874774,-0.0006785291485363035,-0.0044550780243455095,0.007355689771813304,0.9926964713398014
2012-08-06,1,0.00041413207842042467,0.0007899405825429267,-0.0044550780243455095,0.00609660109732896,0.9931983652855805
2012-08-08,1,0.0009479107027856432,0.001413189978326321,-0.00401648216564924,0.00609660109732896,0.9931121311857756
2012-08-10,1,0.0013922090039987852,0.0019344507273267922,-0.004754280323443433,0.00609660109732896,0.9928346464658143
2012-08-14,1,0.0014866021755619873,0.00206373024930217,-0.00401648216564924,0.006569557489303195,0.9931122768156821
2012-08-16,1,0.0030871518281604614,0.00378654971045665,-0.00401648216564924,0.007809216576917404,0.9924479900197863
2012-08-20,1,0.0027643545543294314,0.003366300609063733,-0.006707388825279476,0.007809216576917404,0.9908722330213914
2012-08-22,1,0.002132811553208446,0.0026208106754151556,-0.006707388825279476,0.008907625156800176,0.9909371408534203
2012-08-24,1,0.0015939886634309345,0.0020007002033393716,-0.0043982885585548605,0.008907625156800176,0.9916312826193479
2012-08-28,1,0.00203170942686964,0.0024906113584072086,-0.009653176397545867,0.0074397318850588975,0.9902577258909809
2012-08-30,1,0.0010149825102044041,0.001268025315183267,-0.007230108428188327,0.011861662776287264,0.9896352191548328
2012-09-04,1,0.00211419404341535,0.002549561267248396,-0.009498887763194526,0.010413485305353503,0.9895583595674611
2012-09-06,0,0.0,0.0,-0.009498887763194526,0.010413485305353503,0.9893532412160523
2012-09-10,0,0.0,0.0,-0.009498887763194526,0.010413485305353503,0.9893110957011968
2012-09-12,0,0.0,0.0,-0.01013330188645654,0.01072858066677921,0.9887638753179648
2012-09-14,0,0.0,0.0,-0.010464901275753459,0.005424286553130362,0.9894868682328825
2012-09-18,0,0.0,0.0,-0.009136209989922565,0.01185083029195624,0.9894504736285296
2012-09-20,0,0.0,0.0,-0.006394357755471654,0.012092734278486833,0.98981508429824
2012-09-24,1,0.0020300485270796135,0.0025319678655128163,-0.009136209989922565,0.012092734278486833,0.9890666105247837
2012-09-26,1,0.00045837978609386673,0.0007041239812190613,-0.006557553453518995,0.012092734278486833,0.9898412985074361
2012-09-28,1,0.0012040939630542915,0.0015646877345286995,-0.006557553453518995,0.011118371502878603,0.9902957340994646
2012-10-02,1,0.0012316107520631751,0.0016092273628145026,-0.004923154864342805,0.013218866989801625,0.9904771224979091
2012-10-04,0,0.0,0.0,-0.005775028121438974,0.011192826042760883,0.9908089169280154
2012-10-08,0,0.0,0.0,-0.006788633993682504,0.011192826042760883,0.9896326200367489
2012-10-10,0,0.0,0.0,-0.006762965154220793,0.011192826042760883,0.9901007009641417
2012-10-12,0,0.0,0.0,-0.006762965154220793,0.011192826042760883,0.98982961546178
2012-10-16,1,0.0008013699244566804,0.0008820226066979966,-0.010303447308838653,0.006721773877456403,0.9901593326171847
2012-10-18,1,0.0015533839949867765,0.0017651087392180258,-0.010303447308838653,0.006721773877456403,0.9898421288224309
2012-10-22,1,0.0007113357852309152,0.0007894399963674613,-0.008210972913558233,0.006721773877456403,0.9904371327524228
2012-10-24,-1,-0.000548327797178289,-0.000437532402209545,-0.008210972913558233,0.010967822362536921,0.9900233947100416
2012-10-26,1,0.0003708750574748954,0.00043665015514708215,-0.008210972913558233,0.010967822362536921,0.9899959710849482
2012-11-01,1,0.0007929380389361577,0.000900408176294295,-0.008210972913558233,0.010967822362536921,0.9900870534598605
2012-11-05,1,0.0006707786267028202,0.0007345294046660252,-0.009774102704798168,0.011326004968404612,0.9896375390539714
2012-11-07,-1,-0.0006917588878111078,-0.0005508269946856261,-0.009774102704798168,0.011326004968404612,0.9901490289897866
2012-11-09,-1,-0.000549357859917004,-0.0004626099156495538,-0.009798522928299675,0.011326004968404612,0.9901405133191978
2012-11-13,-1,-0.0007955647976297653,-0.0007155114478717807,-0.008219112988058736,0.0117848488755209,0.9891574126132462
2012-11-15,-1,-0.001157117519885093,-0.0009803664811605921,-0.0059387011479625045,0.011712292069313549,0.9901402142479365
2012-11-19,-1,-0.0014809350514902138,-0.0012426576019722345,-0.0059387011479625045,0.013307948672385569,0.9889317683815697
2012-11-21,-1,-0.00121695899161142,-0.0010549900134848495,-0.002263264637047637,0.01575920066819097,0.9877330115239168
2012-11-26,-1,-0.0003074145636197633,-0.00018855650247558787,-0.006432499836389508,0.013307948672385569,0.9880617684191193
2012-11-28,1,7.983852139329886e-05,0.0002246551153022527,-0.006432499836389508,0.011712292069313549,0.9886863023879904
2012-11-30,-1,-0.00031736114443240793,-0.000283098164583453,-0.007215541637661797,0.005838667042575955,0.9887702997222775
2012-12-04,-1,-0.0002505509663647157,-0.0001906850244966808,-0.005604177364496858,0.020244785439506204,0.9873264091645586
2012-12-06,-1,-0.0006479162821922573,-0.0006053912660729851,-0.005604177364496858,0.020244785439506204,0.9876972612103858
2012-12-10,-1,-0.0007164014599974099,-0.0006662809753444739,-0.005604177364496858,0.020244785439506204,0.9873825777142469
2012-12-12,1,0.0005846716616722334,0.0008136013890794408,-0.005604177364496858,0.012717336565972058,0.9887965607788796
2012-12-14,-1,-0.00020311191987775138,-0.0001435011413496576,-0.004875837065279916,0.012717336565972058,0.9885514450664347
2012-12-18,1,0.0004828230098372423,0.0006985018413885347,-0.004875837065279916,0.00861013919064985,0.9902738646395866
2012-12-20,1,0.0008070730196144957,0.0010810083662216117,-0.004875837065279916,0.00861013919064985,0.9913612870674033
2012-12-24,0,0.0,0.0,-0.002875161927241576,0.00861013919064985,0.9922801726808179
2012-12-27,0,0.0,0.0,0.0011929799403181326,0.00861013919064985,0.992130354171697
2012-12-31,0,0.0,0.0,0.002233821214704365,0.00861013919064985,0.9923063972534308
2013-01-03,0,0.0,0.0,0.002233821214704365,0.00861013919064985,0.9938383322237623
2013-01-07,0,0.0,0.0,0.002233821214704365,0.009981011784049724,0.9931512186367151
2013-01-09,0,0.0,0.0,0.002441557426976665,0.009189027783316421,0.9932131539282509
2013-01-11,0,0.0,0.0,0.0025920588472796114,0.009548975746127463,0.9919167216732825
2013-01-15,0,0.0,0.0029657026792764656,0.0027933608498372764,0.011602999733125976,0.9914633881025096
2013-01-17,0,0.0,0.0,0.0027933608498372764,0.012794592590513694,0.9883962257557972
2013-01-22,0,0.0,0.0,0.0027933608498372764,0.012764540239047651,0.9878281791544925
2013-01-24,1,0.0024859996501001604,0.0027660712051508496,0.0027933608498372764,0.012764540239047651,0.9891957299654678
2013-01-28,1,0.0024998784554980226,0.002749502431556974,0.0013180486290752626,0.013978293664170789,0.9876131994682859
2013-01-30,1,0.0029149578967423216,0.0032614925353577563,-0.002713186764711392,0.013978293664170789,0.9871978853801247
2013-02-01,1,0.004444398070396519,0.0050373846081166115,-0.0029174839266344127,0.014527056090369,0.9878508899873294
2013-02-05,1,0.004532221582529848,0.005119430030449267,-0.0029174839266344127,0.013700816981684016,0.9881537897624474
2013-02-07,1,0.005142126837320496,0.005824018870306483,-0.004761974389020433,0.013700816981684016,0.987805036872807
2013-02-11,1,0.006368317471550899,0.007246404269484535,-0.006569621432150223,0.01321396079245071,0.9883649404115911
2013-02-13,1,0.0072349574358273605,0.008156416266517523,-0.006569621432150223,0.01321396079245071,0.9890866516227697
2013-02-15,1,0.00658380998454422,0.0074196413424630295,-0.006569621432150223,0.01247760223544162,0.9903532060209974
2013-02-20,1,0.006652756619377226,0.007491450738370537,-0.006569621432150223,0.011174683253599008,0.9904113348484415
2013-02-22,1,0.005953647798323964,0.006621142013011262,-0.006569621432150223,0.010193363765905846,0.9909379790777618
2013-02-26,1,0.006082566277071976,0.00678466254293286,-0.006569621432150223,0.010193363765905846,0.9918301087135314
2013-02-28,1,0.006024766429710156,0.006710389571636619,-0.006569621432150223,0.009053223279097754,0.991605329197303
2013-03-04,1,0.006611325011490501,0.00739044022956936,-0.006882949569119818,0.004533633111973108,0.9861691569104397
2013-03-06,0,0.0,0.0,-0.006882949569119818,0.009053223279097754,0.988648357066969
2013-03-08,0,0.0,0.0,-0.006574335333866005,0.009053223279097754,0.9883101999411454
2013-03-12,1,0.0038208823921846726,0.00408886677191368,-0.00709460441224766,0.009018665552508479,0.9879353402470854
2013-03-14,1,0.004799772887317199,0.005258317253862325,-0.00709460441224766,0.008432616103781631,0.9882492622780084
2013-03-18,0,0.0,0.0,-0.007254104496803686,0.008432616103781631,0.9878588145025131
2013-03-20,0,0.0,0.0,-0.008710162721787169,0.008432616103781631,0.9872187991795502
2013-03-22,0,0.0,0.0,-0.008710162721787169,0.00707406769991024,0.9874922091238363
2013-03-26,1,0.0015098056957930912,0.0016264232803565538,-0.009104709926508317,0.00707406769991024,0.9874128262872816
2013-03-28,0,0.0,0.0,-0.009104709926508317,0.008432616103781631,0.9864630048594664
2013-04-02,0,0.0,0.0,-0.001898020388142774,0.009174763004016782,0.9908295106431008
2013-04-04,1,1.2691155129153993e-05,0.00017802945458596751,-0.008006625998306748,0.008432616103781631,0.9905016202672163
2013-04-08,0,0.0,0.0,-0.008836487188101582,0.009363704726787707,0.9898111876143776
2013-04-10,0,0.0,0.0,-0.008222358044090073,0.010783739908751437,0.9900107585098789
2013-04-12,0,0.0,0.0,-0.00965042138671722,0.010783739908751437,0.989380097365301
2013-04-16,0,0.0,0.0,-0.008222358044090073,0.011790360920726453,0.9898866907794556
2013-04-18,0,0.0,0.0,-0.002442317041710175,0.011790360920726453,0.9901765785209016
2013-04-22,0,0.0,0.0,-0.002442317041710175,0.013402786117685998,0.9896226981567969
2013-04-24,0,0.0,0.0,-0.005272899939488948,0.013402786117685998,0.9900798858965272
2013-04-26,0,0.0,0.0,-0.006534517927075205,0.011206438337092887,0.9908968488851904
2013-04-30,0,0.0,0.0,-0.006534517927075205,0.011550768249028086,0.9904749827123508
2013-05-02,-1,-0.0021698792533951673,-0.0018130307656528636,-0.006534517927075205,0.011550768249028086,0.9899789508841497
2013-05-06,-1,-0.0017601601129394334,-0.0011888809456761817,-0.006820449528502333,0.00934592974041009,0.990700745156391
2013-05-08,-1,-0.0006858401844608308,-0.0003201441529299925,-0.006820449528502333,0.010307598941897925,0.9897298465465204
2013-05-10,-1,-0.0012742808657596842,-0.0008033013120419049,-0.006534517927075205,0.014890558852535356,0.9889269070466272
2013-05-14,0,-0.00015213795275886117,0.00011674360090881358,-0.008283752692706998,0.009157494855375177,0.9873363870510357
2013-05-16,0,-8.598496800464692e-05,0.00014123773788175462,-0.006820449528502333,0.016622981624558896,0.9862696248282873
2013-05-20,0,0.0,0.0,-0.006820449528502333,0.01455449035160265,0.9861895822546963
2013-05-22,-1,-0.0010942339000832126,-0.0006494567557711938,-0.008490964687916975,0.01455449035160265,0.9860359990736014
2013-05-24,-1,-0.0018387421981615405,-0.001295477847890097,-0.013151453177998757,0.01455449035160265,0.9850169907561553
2013-05-29,1,0.0003342690163269246,0.0005203417277478811,-0.013151453177998757,0.014047321377738438,0.9857172286887179
2013-05-31,-1,-0.0006354472186437298,-0.00029969319017076864,-0.008490964687916975,0.013318666214202426,0.9867741811272488
2013-06-04,-1,-0.0014013370079884763,-0.0009826791481116698,-0.002971692092871627,0.013318666214202426,0.9869623473207902
2013-06-06,0,-1.2060969884773775e-05,0.00024313671250079613,-0.006693257251547001,0.013318666214202426,0.9874863311852234
2013-06-10,1,0.00092190367908942,0.0010609022335405704,-0.006693257251547001,0.01063410959571943,0.9887254867725036
2013-06-12,-1,-0.0010328073129217028,-0.0006764957288450511,-0.002798836736179769,0.013318666214202426,0.9895927931347025
2013-06-14,0,0.0,0.0,-0.00469973893249313,0.01063410959571943,0.9911599129538945
2013-06-18,1,0.0014872243418117186,0.001612640704867068,-0.004977655414153041,0.006396417303230588,0.9913345282334698
2013-06-20,1,0.0007847065494588043,0.0009794034078745963,-0.004977655414153041,0.01063410959571943,0.9911937282772519
2013-06-24,-1,-0.0005729844650509958,-0.0002958322406095812,-0.004043179126265977,0.01063410959571943,0.992244444067314
2013-06-26,1,0.0003420429827586108,0.0004805999638524875,-0.00469973893249313,0.010519527130639675,0.9909844685190726
2013-06-28,1,0.0008745164250567421,0.0009413023705662131,-0.005434290170597449,0.006396417303230588,0.9911098619780376
2013-07-02,1,0.0011815021388380106,0.0011880738726281182,-0.007824303417340585,0.0035819753357873444,0.9905800108890279
2013-07-05,1,0.002101615107359528,0.002299117612878176,-0.006800597250251028,0.0035819753357873444,0.99031317174384
2013-07-09,1,0.002555901432789028,0.002887568904322549,-0.007824303417340585,0.003369290843242996,0.9896547592382041
2013-07-11,1,0.002959840432074803,0.003295943459485664,-0.009018346097221944,0.0024607185340324257,0.990008987214315
2013-07-15,1,0.0026900099765277278,0.002976897399522087,-0.009632900430349632,0.0022208434694571894,0.9898261899238616
2013-07-17,1,0.0023219364669173374,0.0025787377476421515,-0.009018346097221944,0.0022208434694571894,0.9907475318115566
2013-07-19,1,0.002518851109366618,0.002803335115906437,-0.01122406033569685,0.0017179039402000205,0.9895723814791613
2013-07-23,1,0.0024292074133313952,0.0027056754962686775,-0.01122406033569685,0.0017179039402000205,0.9892731169130415
2013-07-25,1,0.0021733191877062255,0.002447154867230162,-0.01122406033569685,0.0017179039402000205,0.9893641522216589
2013-07-29,1,0.0018757755219101584,0.0021082615222799204,-0.01122406033569685,0.0017179039402000205,0.989243185572041
2013-07-31,1,0.0010237948189651168,0.0011290982211625976,-0.01122406033569685,0.0017179039402000205,0.989163572934816
2013-08-02,1,0.0015813442388618666,0.0017625014552855025,-0.01122406033569685,0.0017179039402000205,0.989835234331549
2013-08-06,1,0.0014375248056592376,0.0016338627594181332,-0.00949600690961569,0.0034716007166194565,0.9902442201310339
2013-08-08,1,0.0010251495082577626,0.0011455597415686112,-0.007799980203291644,0.007522748314740642,0.9901228305257161
2013-08-12,1,0.00040207103990244045,0.00041184644440251186,-0.006042174921296423,0.00819647971877848,0.9901039037952335
2013-08-14,1,0.0006264985465855072,0.0006951384641341262,-0.006042174921296423,0.009088736267665803,0.9898609159316957
2013-08-16,-1,-0.0006102266150398452,-0.000533157243594913,-0.002844294040334175,0.009088736267665803,0.9911423345127987
2013-08-20,-1,-0.00013486879284637184,-0.00010081531847678545,-0.002844294040334175,0.00819647971877848,0.9913962673696738
2013-08-22,-1,-0.0034677767835824954,-0.002847667193502377,-0.0016285396294969674,0.007883930181519111,0.9918311730118246
2013-08-26,-1,-0.0029906229932577,-0.0024648581557563274,-0.0007870709078409648,0.007676100329077266,0.9925054469524486
2013-08-28,-1,-0.0036166630641769654,-0.003046816006352685,0.0003283214769783274,0.007883930181519111,0.9920356828794186
2013-08-30,-1,-0.0036432988623673803,-0.003067834764272027,-0.0007870709078409648,0.007883930181519111,0.9922867498119528
2013-09-04,-1,-0.0032624276324857322,-0.0027415342185374194,-0.0003874291703331125,0.008126502416881688,0.9923727974033202
2013-09-06,-1,-0.0030399946084068543,-0.00251330955768745,-0.0007870709078409648,0.008081798059625845,0.9925923101663194
2013-09-10,-1,-0.003278962784010672,-0.002674494032020765,-0.002320071601234347,0.007676100329077266,0.9922037450285032
2013-09-12,-1,-0.0026847233000959862,-0.00216719259298154,-0.002320071601234347,0.007676100329077266,0.9910935088641207
2013-09-16,-1,-0.002717805953840766,-0.0021951543464522943,-0.002320071601234347,0.008081798059625845,0.9905290728951296
2013-09-18,-1,-0.00186626953476295,-0.0014780668459936064,-0.003106214471744356,0.0091653664669082,0.9907472977750461
2013-09-20,-1,-0.0012960199504242207,-0.0010079140001554643,-0.003106214471744356,0.010589153181875734,0.9906479129261769
2013-09-24,-1,-0.000840320300516065,-0.0006370180163189844,-0.004521100851709986,0.010589153181875734,0.9902152094237738
2013-09-26,-1,-0.0004002601128330198,-0.0002452960983966748,-0.003940033295690683,0.010589153181875734,0.98818236133775
2013-09-30,-1,-0.0006759279316486898,-0.0005145678693442359,-0.002437590528082074,0.010589153181875734,0.988601575776122
2013-10-02,-1,-0.000495805509611301,-0.00035004833243151184,-0.003940033295690683,0.010589153181875734,0.9883431816566167
2013-10-04,1,0.00037580149191462924,0.00039777756762284,-0.006417567892694049,0.008714291813951731,0.9888938063107036
2013-10-08,-1,-0.0012304509615447862,-0.0010055100271253218,-0.003738924108367919,0.008714291813951731,0.9898345507262766
2013-10-10,1,0.0006984139846398085,0.0007370424648218531,-0.004452332164509305,0.005851892321035666,0.9913150763743924
2013-10-14,1,0.0008974636462064926,0.0009406086392263438,-0.004452332164509305,0.005851892321035666,0.9908431868977321
2013-10-16,1,0.0007479951267856882,0.0007481338387028308,-0.003738924108367919,0.005851892321035666,0.9910954375759031
2013-10-18,1,0.0015904333538335836,0.001751689419437214,-0.003738924108367919,0.005851892321035666,0.9901269395301004
2013-10-22,1,0.0008466532347230209,0.0008963439647827874,-0.003336648373202796,0.010409733978601309,0.989685902561023
2013-10-24,1,0.002467581207321802,0.0026848291535046575,-0.003336648373202796,0.009762429202739484,0.9919329219706324
2013-10-28,1,0.002970637233368505,0.003323627583203323,-0.003738924108367919,0.012081805158211225,0.9909582307267247
2013-10-30,1,0.0034969962193333757,0.003978279862639082,-0.003887279819959716,0.012081805158211225,0.990670762294171
2013-11-01,1,0.0021022054515324787,0.0022929719491037127,-0.0033861002770667285,0.01457365124188006,0.9905773280640003
2013-11-05,1,0.00264136829217543,0.002983709713820515,-0.0033861002770667285,0.01637308126007912,0.9895730496502653
2013-11-07,1,0.0026310797896402244,0.003003803039767506,-0.0033861002770667285,0.01637308126007912,0.9887824678831363
2013-11-11,1,0.0030908455464953833,0.0034969644218610335,-0.0033861002770667285,0.01457365124188006,0.9896437160742357
2013-11-13,1,0.002780778863072337,0.0030867925143903035,-0.00405736092101627,0.01457365124188006,0.9897429893229581
2013-11-15,1,0.0036562754598684633,0.004106852861504933,-0.005018142620456673,0.012081805158211225,0.990649492920863
2013-11-19,1,0.004781629220901973,0.005398003444077823,-0.005018142620456673,0.008391549384885894,0.9907864332625356
2013-11-21,1,0.005281847721858057,0.00597299121920246,-0.005018142620456673,0.008700695306525726,0.9901988055341416
2013-11-25,1,0.005440890156894563,0.006161686897277713,-0.004722603808831723,0.0051516839247007186,0.990733872497553
2013-11-27,1,0.004705332128011743,0.005317565140349514,-0.0038086576615671266,0.0051516839247007186,0.9919199602844926
2013-12-02,1,0.005600992188871915,0.0063772527553470106,-0.0038086576615671266,0.003931946315766531,0.9914113348432566
2013-12-04,1,0.0059934576789751936,0.0068152317328456025,-0.0038086576615671266,0.003931946315766531,0.9913334464482236
2013-12-06,1,0.004758838082832598,0.005385219407556185,-0.0025747669654391805,0.004498452420895642,0.9937331509467976
2013-12-10,1,0.004760315478763413,0.005394565005131034,-0.0025747669654391805,0.004498452420895642,0.9939291572956807
2013-12-12,1,0.0044816315279476455,0.005070607310258674,-0.003902789840800035,0.004498452420895642,0.9928747988084277
2013-12-16,1,0.003849438733054179,0.004318754507775609,-0.003902789840800035,0.005417537874316165,0.9927005896717805
2013-12-18,1,0.004393032111911152,0.004912936656684743,-0.005137753887795852,0.004020564298971681,0.9922174696193714
2013-12-20,1,0.004264255441056901,0.004719179185324225,-0.005777831164653974,0.0030020709389335576,0.9923444693407795
2013-12-24,1,0.004475293834654645,0.004983315481461522,-0.00797825267970809,0.0025898815231519164,0.9898648911667917
2013-12-27,1,0.003970146092805857,0.004377123086490021,-0.00797825267970809,0.0032499849627800267,0.9898104382291559
2013-12-31,1,0.0035287470896961013,0.003855676858480705,-0.00903034957642921,0.005783853050833884,0.9883628100316542
2014-01-03,1,0.003048781906776433,0.0032866659739286376,-0.00903034957642921,0.0032499849627800267,0.9880314483496423
2014-01-07,1,0.003099813754894179,0.0033327962093326413,-0.00903034957642921,0.00901344985901198,0.9871087035787508
2014-01-09,1,0.002389518013576071,0.0024405760345896444,-0.009130735842676667,0.00901344985901198,0.9863444318862097
2014-01-13,1,0.0014144310862938534,0.0014647543684086668,-0.008089849308187742,0.01005466545950886,0.9869414466039703
2014-01-15,1,0.0009721898556800423,0.001128469393164943,-0.008089849308187742,0.00901344985901198,0.9877729682216724
2014-01-17,1,0.0010053302960889492,0.0011584884346905067,-0.008089849308187742,0.00901344985901198,0.9882000382657196
2014-01-22,0,-0.00012810055464082082,0.00021841956079773157,-0.007945353108748117,0.009662820832213481,0.9881620971794844
2014-01-24,-1,-0.002276191069034277,-0.0016695415880517712,-0.007551032688306593,0.009662820832213481,0.9894358310656576
2014-01-28,-1,-0.0024173283362912256,-0.0017951051372162071,-0.007945353108748117,0.009662820832213481,0.9893752844960111
2014-01-30,-1,-0.001527352402246277,-0.0010336651341740556,-0.0070427015671020495,0.006681782548689099,0.991465537288064
2014-02-03,-1,-0.00262171388985829,-0.002029390311397614,-0.001527236726036076,0.009662820832213481,0.9904738508309219
2014-02-05,-1,-0.001304637569355619,-0.0009130220410881937,-0.001527236726036076,0.006818283220261478,0.9912919308300188
2014-02-07,-1,-0.002145181946396504,-0.0016475159042583511,-0.0011010516870558294,0.006818283220261478,0.9907855026028438
2014-02-11,-1,-0.0013408989590098525,-0.0009457086783708441,-0.0026539931163166025,0.005577124353570778,0.9914833357874333
2014-02-13,-1,-0.0011400533491275095,-0.0007763676345727596,-0.006031581469811904,0.006661804229127158,0.9906657238297263
2014-02-18,-1,-0.0009169420078073826,-0.0005807677658072213,-0.01304396922195192,0.006686309514123494,0.9892586112785607
2014-02-20,-1,-0.0005928329907754933,-0.00030194153770615154,-0.014128486309717189,0.005041612266154548,0.9886353165903555
2014-02-24,-1,-0.001398908773651831,-0.0009826017914049184,-0.013241418649981249,0.006686309514123494,0.9887304262579935
2014-02-26,-1,-0.00215189993618957,-0.0016548167765329305,-0.013165423826952218,0.006686309514123494,0.9886158807661927
2014-02-28,-1,-0.001992518931681961,-0.001531816943946251,-0.013165423826952218,0.006686309514123494,0.9879047378144951
2014-03-04,-1,-0.0016029050750696143,-0.0011197072153395055,-0.014492850124718078,0.005641533728410569,0.9880855839257224
2014-03-06,0,-0.00026989347826916917,8.3993115156674e-06,-0.014632092943052585,0.003156324836783366,0.9867003479761268
2014-03-10,-1,-0.0006362383609965711,-0.0003322768204939352,-0.014632092943052585,0.0026792496908792413,0.9866650510796949
2014-03-12,-1,-0.0016432420978766695,-0.001205038526874368,-0.014632092943052585,0.0030060114675812748,0.9864064219473136
2014-03-14,-1,-0.0014950210928466364,-0.0011012792179890768,-0.014463269574467214,0.0016841732320515787,0.987546974791491
2014-03-18,-1,-0.002922131619144056,-0.002323890877468387,-0.014141408304830603,0.0013940646155541632,0.9891331434322753
2014-03-20,-1,-0.002598732828212036,-0.0021509016628296646,-0.012687893162447705,0.0030060114675812748,0.9887881106271529
2014-03-24,-1,-0.0020199357371926685,-0.0016385190383661795,-0.012687893162447705,0.006508977199223382,0.9872577344015369
2014-03-26,-1,-0.0025392800733381924,-0.0021019289998460687,-0.01153994070266743,0.006508977199223382,0.987674285533376
2014-03-28,-1,-0.003462188898710908,-0.0029065138749047605,-0.009553710129236875,0.00721663599285887,0.9880252278070856
2014-04-01,-1,-0.0043744772205463,-0.0037097317004956745,-0.00842462921603489,0.008786363041532842,0.9885992281206948
2014-04-03,-1,-0.00388018002801317,-0.003260817796326526,-0.006583470619741809,0.00721663599285887,0.9907641088804888
2014-04-07,-1,-0.004054883766877851,-0.003455535104359248,-0.006583470619741809,0.00721663599285887,0.9908437164173778
2014-04-09,-1,-0.004410409969503121,-0.0037861204578239424,-0.006583470619741809,0.008786363041532842,0.9909884400318034
2014-04-11,-1,-0.0040926549571029805,-0.0035435182725334765,-0.006583470619741809,0.011381123598795105,0.9904193807061946
2014-04-15,-1,-0.003966672806071745,-0.003494019980957762,-0.005414165223118041,0.011381123598795105,0.9904744691030246
2014-04-17,-1,-0.0027869823328539917,-0.0024743004866084168,-0.006651143632135619,0.00794081276969097,0.9918788602854584
2014-04-22,-1,-0.0009421950475214399,-0.0008602389583549674,-0.008427456438470808,0.004497161720886235,0.9933083905921205
2014-04-24,-1,-0.0013760732358089937,-0.0012193841047735882,-0.006651143632135619,0.0058659238094423746,0.9928630773049008
2014-04-28,-1,-0.001124311467949765,-0.0010301765111223118,-0.0059997351882126754,0.006871950676888432,0.9926072261576784
2014-04-30,-1,-0.00014457725202075695,-8.040144468374986e-05,-0.0059997351882126754,0.009735997194310939,0.9924495239239011
2014-05-02,-1,-0.000804205571469932,-0.000737807220909459,-0.0059997351882126754,0.009735997194310939,0.9921155868531694
2014-05-06,-1,-0.0012729286174828357,-0.001151327234198817,-0.004612281709048045,0.009735997194310939,0.9920864305692149
2014-05-08,-1,-0.0010559876581209384,-0.0009545888179376032,-0.004612281709048045,0.007767018564034276,0.9927157550780549
2014-05-12,-1,-0.0007528435609179177,-0.0006852768795692426,-0.005434590733168279,0.005632170170779178,0.9927328423047801
2014-05-14,-1,-0.00045285740621869505,-0.0004339971756267821,-0.005434590733168279,0.007767018564034276,0.9918839681021691
2014-05-16,-1,-0.0006462211219225295,-0.0006388970542597884,-0.003797688474917121,0.007767018564034276,0.9921392243258429
2014-05-20,-1,-0.0009365050813402592,-0.0009112222738548736,-0.002647949262416641,0.009901267465426807,0.9910441479739148
2014-05-22,-1,-0.0002891885272598562,-0.00023421475184132865,-0.003797688474917121,0.008883312910635028,0.9913233932282539
2014-05-27,1,0.00023721381997174969,0.0003586307443019526,-0.006050731694703264,0.008883312910635028,0.9893268445560026
2014-05-29,1,0.0010014581691454854,0.0012289567372687842,-0.006050731694703264,0.007822108654406232,0.9895355039231253
2014-06-02,1,0.0010897737726558504,0.00134046383245842,-0.006050731694703264,0.009270735241241803,0.9893099933126651
2014-06-04,1,0.0015625461006114436,0.0018831826454375744,-0.006050731694703264,0.01064948082320414,0.9886022894669013
2014-06-06,1,0.0006504425122705539,0.0008034482364778874,-0.005115081838323187,0.01064948082320414,0.9885551913324933
2014-06-10,1,0.0004999149193313935,0.0006554531244942598,-0.005115081838323187,0.01064948082320414,0.9881984644380218
2014-06-12,1,0.00047247950812945115,0.0006336056736810667,-0.005115081838323187,0.012892872033296759,0.9882249036152371
2014-06-16,1,0.00014043703406966022,0.000249890544906827,-0.005353643724791994,0.014204628581261544,0.9868143046172886
2014-06-18,1,0.0005800683122621211,0.0006537715155498682,-0.005353643724791994,0.01064948082320414,0.9879883465695796
2014-06-20,1,0.00046799375353926104,0.0005363038593008251,-0.004883637799022336,0.01064948082320414,0.9882476279833096
2014-06-24,1,0.0007873264414023898,0.0009457307628586964,-0.004883637799022336,0.009607972846363527,0.990470206412405
2014-06-26,1,0.0005087300023302775,0.0005502094954509972,-2.3801872265477456e-05,0.009607972846363527,0.9897609030517976
2014-06-30,1,0.0016469908252856203,0.0019130710674679552,-0.0011296089762727476,0.009956533502569618,0.9905254264439449
2014-07-02,1,0.0018990715379521264,0.0021428955103048094,-0.005353643724791994,0.00939250098095359,0.9907483369723968
2014-07-07,1,0.002259110543420606,0.0026045218997841073,-0.005215516730098379,0.00939250098095359,0.9908754846103776
2014-07-09,1,0.0018350126851200133,0.0021298340111309115,-0.005215516730098379,0.00939250098095359,0.9912032788221075
2014-07-11,1,0.0021377156595792294,0.0024922556570474495,-0.005215516730098379,0.008108552767994662,0.9920767212014904
2014-07-15,1,0.0027954613418766797,0.0032523476761950904,-0.005349008187024481,0.007811024742112432,0.9929499629077816
2014-07-17,1,0.0032317226536234004,0.003732254492267978,-0.005349008187024481,0.008464672789653696,0.9928971912333512
2014-07-21,1,0.0031242765144304198,0.003563118790271858,-0.005349008187024481,0.007402778852081448,0.9928586339206235
2014-07-23,1,0.0030204736723932505,0.0034462322820654353,-0.0032572151177015195,0.006023284523547417,0.9935574171498974
2014-07-25,1,0.005205208101905742,0.006008506246331823,-0.0032572151177015195,0.005507546093498282,0.993684829949173
2014-07-29,1,0.005776707294238797,0.006696542313901566,-0.0032572151177015195,0.005507546093498282,0.9932838406687289
2014-07-31,1,0.004895290543002792,0.005663034426796314,-0.00030029748290531067,0.005507546093498282,0.9947645129135381
2014-08-04,1,0.004652706533668605,0.0053482058677170015,-0.00030029748290531067,0.0047547886012074495,0.9946370977380309
2014-08-06,1,0.004013278283607751,0.004621533756715407,-0.0027578336795473653,0.0047547886012074495,0.9951285007041876
2014-08-08,1,0.0035841535534197853,0.004084112291885557,-0.0006511994379577367,0.0047547886012074495,0.9955707429566337
2014-08-12,1,0.0028228048269581564,0.0031610696960464603,-0.0006511994379577367,0.0047547886012074495,0.995715437178693
2014-08-14,1,0.0035693005759400457,0.004040744343838099,-0.0009972446231134426,0.004148128677605538,0.9953396100013077
2014-08-18,1,0.003204162702371583,0.0035876962601437364,-0.0011502805508298612,0.004195074188588136,0.9953023272729187
2014-08-20,1,0.002983710748677729,0.0032865357520630075,-0.003198238411039282,0.003688816562056761,0.99485413510345
2014-08-22,1,0.002268534619242161,0.0024271653806528337,-0.0035526958988388955,0.003812262987623432,0.9943583444681172
2014-08-26,1,0.0031303770239605676,0.003432824960255803,-0.0049183625697545134,0.003812262987623432,0.9937611425446651
2014-08-28,1,0.002782668189455869,0.0029926339951469386,-0.006378751538762613,0.00437985023802834,0.9925968657946594
2014-09-02,1,0.0018674372951568716,0.0019365537729720953,-0.0049183625697545134,0.00437985023802834,0.9931715024233746
2014-09-04,1,0.0012219691644467915,0.0012544274681507274,-0.005326172146597328,0.00437985023802834,0.9931764033881053
2014-09-08,1,0.0007457495075874773,0.0008724438355610254,-0.008488546440322733,0.005651073187130628,0.992055107187632
2014-09-10,1,0.0011230490812198094,0.001174879607030037,-0.011526959260081097,0.005651073187130628,0.9905773598311702
2014-09-12,1,0.0020794961589158997,0.0022253048143739554,-0.013353020790204376,0.00437985023802834,0.9899614664371272
2014-09-16,1,0.0020478381726317615,0.002143038977686536,-0.01484141631792146,0.003532287506881908,0.9884392953012626
2014-09-18,1,0.0015971289975164017,0.0016187290235041888,-0.01484141631792146,0.003532287506881908,0.9888113296640834
2014-09-22,1,0.0013449732006753478,0.0013593521703553402,-0.013388089260651215,0.0061974212282800735,0.9887055237372679
2014-09-24,1,0.0007421405759241305,0.0008114485925810112,-0.011526959260081097,0.009670075770765986,0.9890179131502891
2014-09-26,0,-9.829276085051035e-05,9.875083839310905e-05,-0.010397075177503948,0.009485684795780934,0.9896048000038643
2014-09-30,0,-0.00012798891959099395,6.365960415927576e-05,-0.010397075177503948,0.010878758613913795,0.9886079464744336
2014-10-02,-1,-0.00040064629561066187,-0.0001829810079603503,-0.0072765073590828865,0.011894765773081779,0.9881920081777531
2014-10-06,-1,-0.000705827355338761,-0.000432798077547316,-0.005329915104099184,0.011148370622948281,0.9886517191048172
2014-10-08,-1,-0.0011087566172319871,-0.0007605682613093636,-0.004140794726710366,0.010878758613913795,0.9905112844417413
2014-10-10,-1,-0.002268492192495466,-0.0017631524773994234,-0.0007813814010677724,0.010878758613913795,0.9905408531921759
2014-10-14,-1,-0.00346966371350678,-0.002851555735521218,0.0009840562142117853,0.010878758613913795,0.9906417691464886
2014-10-16,-1,-0.0032155776939764794,-0.00265271931321695,0.0007444690815947886,0.010878758613913795,0.9908715309563164
2014-10-20,-1,-0.0018851151947802726,-0.0015124657898127013,-0.0006271750337264082,0.008269885124554498,0.9928478891630662
2014-10-22,-1,-0.0018406228452866173,-0.0014724554482238538,-0.00028519552258485746,0.006684312580489942,0.9932571183484993
2014-10-24,-1,-0.0017050963125825709,-0.0013674500237281242,-0.00028519552258485746,0.006019488010774931,0.9939674316827222
2014-10-28,-1,-0.0013291083114717209,-0.0010011057736283764,-0.0006271750337264082,0.006019488010774931,0.9948544771924261
2014-10-30,-1,-0.0008888051420262704,-0.0005861158437501387,-0.0006271750337264082,0.005490086347790248,0.9958417833722035
2014-11-03,-1,-0.0006159286219189039,-0.00032123533651211853,-0.0011925716337350656,0.004432304474585201,0.9953074637451125
2014-11-05,-1,-0.000816041796774246,-0.00047795132206504467,-0.0011925716337350656,0.005692290158474664,0.994543513078879
2014-11-07,0,-6.060333377589137e-05,0.00012555437796363993,-0.0013477692625419805,0.0066550064192957125,0.9939566211741749
2014-11-11,1,1.744394782576494e-05,0.00020616770380584807,-0.0023743633380026046,0.0066550064192957125,0.9935738957673536
2014-11-13,-1,-0.0005833655404042466,-0.0003217142214764748,-0.0013477692625419805,0.009194634920302062,0.9918743350500114
2014-11-17,-1,-0.0006416375006171297,-0.00038329385955665463,-0.0024339093981389105,0.009194634920302062,0.9907655705317079
2014-11-19,-1,-0.00026961620990060696,-7.666492603260601e-05,-0.0024339093981389105,0.01235793384057634,0.9888684370645024
2014-11-21,1,0.0002897563442128007,0.00037143744037228845,-0.0024229519350794848,0.013840617459011778,0.9878107396204171
2014-11-25,1,0.0006035673624275885,0.0006514556383295243,-0.006279564149411061,0.013840617459011778,0.9879699450042724
2014-11-28,1,0.00038942567338754754,0.0004945578778988088,-0.006279564149411061,0.013840617459011778,0.9880723590697651
2014-12-02,1,0.0003420047964534888,0.00045763717821616003,-0.006279564149411061,0.012416424375940809,0.9887178522790562
2014-12-04,1,0.00143968057804979,0.001493090396612043,-0.006279564149411061,0.012416424375940809,0.9890856614014838
2014-12-08,1,0.0017943234757722137,0.0019191567276737216,-0.005952632805638833,0.01281510616647504,0.9892519103880304
2014-12-10,1,0.00154142810765894,0.0016496951046716668,-0.005952632805638833,0.014603984691067638,0.9888119589927967
2014-12-12,1,0.001720027385569841,0.0018525680250042935,-0.008706395227197409,0.01281510616647504,0.9889639552872495
2014-12-16,1,0.001899597326983111,0.002111992942274601,-0.008706395227197409,0.01281510616647504,0.9888831528853547
2014-12-18,1,0.003581313976287519,0.004037033955552971,-0.008706395227197409,0.005205577282152939,0.9893161121723218
2014-12-22,1,0.004240320114554774,0.00474375158446186,-0.008706395227197409,0.002412559238180796,0.9888184100007751
2014-12-24,1,0.003734700232357606,0.004167759667696259,-0.008110248969227145,0.002412559238180796,0.9896915012604702
2014-12-29,1,0.003384333867896775,0.0037370196761588566,-0.011270416445815272,0.0008698429627373366,0.9881655939307973
2014-12-31,1,0.002523108209220626,0.002750322214152718,-0.010434888456686551,0.004544660031827625,0.9894925725002104
2015-01-05,1,0.0021183836474306665,0.0022823555869592588,-0.010434888456686551,0.010035202702260888,0.9888852505391357
2015-01-07,1,0.002723382637352636,0.0029959925472629193,-0.010434888456686551,0.011609076852251958,0.9885313563979915
2015-01-09,1,0.0028331845011847563,0.0031203681201588942,-0.011270416445815272,0.011609076852251958,0.9880885164176775
2015-01-13,1,0.0015326377566335387,0.0016617394828932846,-0.005916809123982068,0.012011365637677136,0.9895003660905919
2015-01-15,1,0.000748186980736552,0.0007726998348916172,-0.005430457195089029,0.012011365637677136,0.9896926668531612
2015-01-20,1,0.0012180152771211013,0.0013445115875071547,-0.0015069440866462718,0.012011365637677136,0.9903248615597116
2015-01-22,1,0.0016420135805837643,0.0018301500479459055,0.00011096253604345982,0.011948183395390773,0.9907295153644045
2015-01-26,1,0.00151407516211757,0.0016689078530256482,-0.002803504180254597,0.011948183395390773,0.9903733209569339
2015-01-28,1,4.3190246078708705e-05,9.809143959276927e-05,-0.0008393049183168572,0.011948183395390773,0.9912578030472725
2015-01-30,1,0.0005230644584315828,0.0005300750251374483,-0.002803504180254597,0.012786828352739822,0.9907643790444904
2015-02-03,1,0.0016045380493647744,0.0017535407605942077,-0.002946798129770613,0.011948183395390773,0.9918077703601488
2015-02-05,1,0.002657150275067908,0.0029667407550404397,-0.004884782529825471,0.009566809791972889,0.9919342321398009
2015-02-09,1,0.0027372169932473054,0.003058340965269292,-0.004884782529825471,0.009209659328176436,0.9921014207944134
2015-02-11,1,0.0029733070710068954,0.0033093539718901162,-0.0055811567578522795,0.009209659328176436,0.9916930316840625
2015-02-13,1,0.0028884260160331812,0.003184141850203234,-0.00503890900787371,0.009209659328176436,0.9920299957977228
2015-02-18,1,0.0027449775334120303,0.0029936582022267377,-0.006103742552210435,0.008765617147808834,0.9909389122559337
2015-02-20,1,0.003100996190942093,0.003368395789391198,-0.006103742552210435,0.008765617147808834,0.9907071134717698
2015-02-24,1,0.0027125943511542394,0.002922688540607004,-0.006103742552210435,0.008765617147808834,0.9908197355461829
2015-02-26,1,0.0023858788451059628,0.0025257070550122798,-0.0070829373290059675,0.008765617147808834,0.9897628816590498
2015-03-02,1,0.002432649878753938,0.0025771078160264655,-0.006103742552210435,0.008765617147808834,0.9900792712033734
2015-03-04,1,0.0022873624374442608,0.0024008790024823232,-0.006888362563985145,0.00849026858552288,0.9900842929334357
2015-03-06,1,0.0010530828164420879,0.0011409967300858334,-0.006266700835139259,0.00957491893914103,0.9901785293297339
2015-03-10,-1,-0.000610176484695727,-0.0002475440515278943,-0.006266700835139259,0.008294777708981103,0.9909939788537698
2015-03-12,-1,-0.0005981600160864539,-0.0002295306238549288,-0.004118310279478224,0.008143790092824591,0.9912485638190066
2015-03-16,1,0.00033564370461391783,0.0005570358687883686,-0.007557856493411929,0.005533599450077105,0.991216295173452
2015-03-18,-1,-0.0008566852905138457,-0.0004941939824344671,-0.0055893872760563075,0.006376430780253131,0.992300147590186
2015-03-20,-1,-0.00039307834730810485,-6.701002677095562e-05,-0.007594062184036,0.005014667179792019,0.9917831151267396
2015-03-24,-1,-0.00030728739722777015,-3.282813197740073e-05,-0.007594062184036,0.006358375650729142,0.9914738381662496
2015-03-26,-1,-0.0004691051892735072,-0.00021366805166117032,-0.007594062184036,0.006358375650729142,0.9907426590276959
2015-03-30,1,0.0007042963220960628,0.0007944466747980255,-0.007594062184036,0.006358375650729142,0.9903282576297695
2015-04-01,1,0.0003741725453399525,0.0004994352753827141,-0.007063181985081763,0.006358375650729142,0.9903378146032531
2015-04-06,1,0.00043960785797595234,0.0005559921952018267,-0.007063181985081763,0.008054936441468576,0.990178794759645
2015-04-08,0,-0.00011900723021824233,4.963115302460011e-05,-0.007063181985081763,0.008054936441468576,0.9902544566115162
2015-04-10,0,-4.000018627360602e-06,0.00017945797656737823,-0.007063181985081763,0.00938275028512199,0.9893274798105595
2015-04-14,-1,-0.0009490265104446845,-0.0006484819713452235,-0.006801292457280228,0.00938275028512199,0.9896919846073522
2015-04-16,-1,-0.0008257310236278011,-0.0005482969049347079,-0.006801292457280228,0.012022915150020198,0.9891775661272708
2015-04-20,-1,-0.0020964385396562467,-0.0016747292101099063,-0.006171571364008165,0.012022915150020198,0.9895738749235802
2015-04-22,-1,-0.001586064209667651,-0.0012378583573099274,-0.006472014398605243,0.012022915150020198,0.9894039499946441
2015-04-24,-1,-0.0017110322254857595,-0.0013589715054611773,-0.006171571364008165,0.011549475478713335,0.9905888441033802
2015-04-28,-1,-0.000978138526283998,-0.0007176354584571289,-0.006260977765627466,0.009978699083479193,0.9913034247583379
2015-04-30,-1,-0.00133596114443608,-0.0010657396988521667,-0.005315369535334269,0.009978699083479193,0.9909856815770647
2015-05-04,-1,-0.0004644844873790946,-0.0003041885205404895,-0.005315369535334269,0.008732680212690226,0.9918602946850912
2015-05-06,-1,-0.001362073014428571,-0.0010728506586543272,-0.005315369535334269,0.008732680212690226,0.9913588606903947
2015-05-08,0,-1.780845667303507e-05,0.00010528914774881698,-0.008787094874700575,0.0067178272542660795,0.991970541028019
2015-05-12,-1,-0.00040669605383797066,-0.0002173316594450606,-0.008787094874700575,0.007209521779345718,0.9917725869255793
2015-05-14,1,0.0013850588782084992,0.0015155122939997932,-0.008787094874700575,0.0067178272542660795,0.9922147350683346
2015-05-18,1,0.002088402288189141,0.002369337151266001,-0.008787094874700575,0.006549943239817017,0.9925401953177292
2015-05-20,1,0.0017255013847124663,0.001923353490305515,-0.008386257908857522,0.006549943239817017,0.9928575012916274
2015-05-22,1,0.002230951434765812,0.002501208511914882,-0.010239419073336696,0.005069230144119633,0.9924004453772703
2015-05-27,1,0.0013765175837463417,0.001487525804637545,-0.010239419073336696,0.005069230144119633,0.9920372200871835
2015-05-29,1,0.0008934488040442685,0.0009255211715648801,-0.008386257908857522,0.004664801397394524,0.9923420448393059
2015-06-02,1,0.0010749873847350705,0.0011646060398780049,-0.01040494800921292,0.005063462090432317,0.9913225008631595
2015-06-04,1,0.0008025284283230855,0.0008555104791092663,-0.008386257908857522,0.005063462090432317,0.9916990611905996
2015-06-08,-1,-0.0008816880840131355,-0.0006700596008711193,-0.007020780837224298,0.005063462090432317,0.9925063868885635
2015-06-10,-1,-0.0008736561562678685,-0.0006261113523717037,-0.0076191807418694475,0.005063462090432317,0.9909344587056884
2015-06-12,-1,-0.0010499563938433977,-0.0007832812151310961,-0.0076191807418694475,0.005063462090432317,0.9900578952236953
2015-06-16,-1,-0.0008047225434091117,-0.0005959700672653492,-0.00578588088856056,0.006172145881411279,0.9900761412706282
2015-06-18,-1,-0.0005650251259695242,-0.00037545598744003134,-0.00578588088856056,0.006172145881411279,0.9901866245476404
2015-06-22,-1,-0.0018648073332319672,-0.001460078382909411,-0.00578588088856056,0.006172145881411279,0.9906970291920302
2015-06-24,-1,-0.0023083500352560167,-0.0018744994864303359,-0.0042007424118959205,0.008834611687872213,0.9905757344747671
2015-06-26,-1,-0.0017473528431693859,-0.0014292903599865564,-0.0047824936693188404,0.008834611687872213,0.9901320052872524
2015-06-30,-1,-0.0017585102246616133,-0.001486078857456448,-0.0047824936693188404,0.008834611687872213,0.9906532410378246
2015-07-02,-1,-0.0015990749039275793,-0.0013424153695814245,-0.0047824936693188404,0.007607498657713322,0.9910094670943825
2015-07-07,-1,-0.0014046984437963823,-0.0011991902246536322,-0.0022686830852848994,0.008104177145541373,0.9910131372209117
2015-07-09,-1,-0.001013414176871476,-0.0008618652445904595,-0.001021884553719382,0.008104177145541373,0.9920837004314454
2015-07-13,1,0.00018511388281398236,0.0001894918766915217,-0.001021884553719382,0.008104177145541373,0.9931307782164935
2015-07-15,1,0.0009462892626074585,0.0010960606835948975,-0.004020157090895657,0.007151830138837264,0.9932090376260815
2015-07-17,1,0.0011469612212911082,0.001305697152155749,-0.004020157090895657,0.008274959747722362,0.9928319934188297
2015-07-21,1,0.0007104366199480537,0.0008107592718193033,-0.002210529741619414,0.008274959747722362,0.993263155857906
2015-07-23,1,0.0010623641197784366,0.0012212410578981796,-0.004627522327733475,0.007151830138837264,0.9927748990690258
2015-07-27,1,0.0009321715702137138,0.0010797571347489644,-0.005087425933384988,0.0070958670991588604,0.9904742163868495
2015-07-29,1,0.0007370698562252963,0.0008188778567912065,-0.005087425933384988,0.008517302201540533,0.989666296803968
2015-07-31,1,8.364552933625102e-05,0.00010450341607152437,-0.005087425933384988,0.011271162136333935,0.9879173802043223
2015-08-04,1,0.00047579820521926583,0.0005218058228920574,-0.008398801983041384,0.011271162136333935,0.9869340144576635
2015-08-06,1,0.0012984142491867154,0.0014738643946571968,-0.008398801983041384,0.011271162136333935,0.9872265471041846
2015-08-10,1,0.0012239798481239119,0.001351415017391077,-0.016241455179432027,0.011279538443322648,0.9853705566791433
2015-08-12,1,0.0013159790988752414,0.0014793734214195687,-0.016951574153873106,0.011279538443322648,0.9846728143756708
2015-08-14,1,0.0017354948895585342,0.0019470183283610987,-0.016951574153873106,0.007639313356688724,0.9848739126055636
2015-08-18,1,0.0013933833599988536,0.001542431778835324,-0.016951574153873106,0.007639313356688724,0.9847844727202281
2015-08-20,1,0.0010795127676825537,0.0012232455605326311,-0.016755379846005024,0.007639313356688724,0.9846130109378773
2015-08-24,-1,-0.000340079152195424,-0.0002856933654709766,-0.011094748807973417,0.009604145229675828,0.9869222183465475
2015-08-26,-1,-0.00012638673111573336,-0.00011621210663193651,-0.00786250982067129,0.009604145229675828,0.9876169643236771
2015-08-28,1,0.00010944808946581384,0.00012522182832960474,-0.011220184322656921,0.009604145229675828,0.9866161393970202
2015-09-01,-1,-0.00046057683252717554,-0.0004001285291362339,-0.00786250982067129,0.014200721765568832,0.9863685102441236
2015-09-03,-1,-0.00021508155859198787,-0.00015438801008400393,-0.01039406368430338,0.009604145229675828,0.9868477457475344
2015-09-08,1,0.0004850177714390726,0.0005187602737811981,-0.00786250982067129,0.009604145229675828,0.9880321943792015
2015-09-10,-1,-0.0004637814389520553,-0.0003364224981594396,-0.00561022449768274,0.010790012405259107,0.9888381041263873
2015-09-14,-1,-0.0005155838307089146,-0.000395372755682428,-0.006129718509363994,0.015006493105599492,0.9880091702240631
2015-09-16,-1,-0.00023020008801129846,-0.0001377790642422961,-0.009467354140855437,0.015006493105599492,0.9879347257860455
2015-09-18,-1,-0.0005784594369060236,-0.0004760647333535847,-0.004285825283090782,0.018657936244842174,0.9879871283598556
2015-09-22,-1,-0.000719332743212146,-0.0005665802777159898,-0.004285825283090782,0.018657936244842174,0.9879766238374396
2015-09-24,1,4.72150801947346e-05,8.214970733125153e-05,-0.006176080794504381,0.019432782266248894,0.9851116797571444
2015-09-28,-1,-0.0003420193961370873,-0.00023565148900336208,-0.0056946389421332995,0.01216774993598717,0.9872995093171806
2015-09-30,1,0.001061637995493696,0.0011759615850926467,-0.0056946389421332995,0.00950418913005734,0.9883526740734485
2015-10-02,1,0.0007781215835448932,0.0008500354052309522,-0.0056946389421332995,0.00950418913005734,0.9877987579604826
2015-10-06,1,0.001103318242166097,0.0012505850737539403,-0.006258014361880461,0.00950418913005734,0.9872473504767266
2015-10-08,1,0.001467981300162575,0.0016711554173522046,-0.0072239586424524705,0.00876699371263329,0.9865011062014938
2015-10-12,1,0.001644137520114781,0.0018657143313624523,-0.007263445590812517,0.008069442294800855,0.9871127810796694
2015-10-14,1,0.0014650143438072814,0.0016894645792263586,-0.006442960173964443,0.00876699371263329,0.9869012275096815
2015-10-16,1,0.0018600961084028378,0.0021166305050008966,-0.009763929654403578,0.008069442294800855,0.9861578054723713
2015-10-20,1,0.002113946877384573,0.002387791484925595,-0.009763929654403578,0.008286365140256196,0.9860427234114715
2015-10-22,1,0.004244241085891394,0.00479733258918281,-0.007265679133824818,0.00991730051703228,0.9885580987518331
2015-10-26,1,0.003106511210538402,0.003494829108348407,-0.010296398277371464,0.010561172606362638,0.9883934108337767
2015-10-28,1,0.0030084270703544295,0.00334162151784284,-0.012378008797501451,0.010561172606362638,0.9878279778906601
2015-10-30,1,0.002417306107350373,0.00269128831358641,-0.010296398277371464,0.010561172606362638,0.9887616431202031
2015-11-03,1,0.0028304068479918752,0.003146026118057207,-0.010296398277371464,0.008500989170032983,0.9901600992738254
2015-11-05,1,0.0025972114493598773,0.002874750110029376,-0.010296398277371464,0.010561172606362638,0.9885553234049386
2015-11-09,1,0.0021749541079995743,0.0024100709781630794,-0.011483284377850598,0.010561172606362638,0.9885586509522225
2015-11-11,1,0.0023483547540142907,0.002579880024956824,-0.012378008797501451,0.007958262583426865,0.9874341338546435
2015-11-13,1,0.0009988017774652828,0.0010163488850989766,-0.011483284377850598,0.010561172606362638,0.9873449609178179
2015-11-17,1,0.0013990664263120738,0.0014615412610646825,-0.011483284377850598,0.010561172606362638,0.9874561899510492
2015-11-19,1,0.0019645652906458456,0.002064952746620567,-0.012378008797501451,0.0033817800818941473,0.9876768856835328
2015-11-23,1,0.0016725434333371384,0.0017414780222407182,-0.011521825570843608,0.007802933520547702,0.9872545948493036
2015-11-25,1,0.0011172996620661332,0.0011287455706799068,-0.009441317613908116,0.007802933520547702,0.9879679100660353
2015-11-30,1,0.0011837116408213169,0.001185282948163615,-0.009441317613908116,0.010317163484354713,0.9874593687305628
2015-12-02,1,0.0013100484532800613,0.001359011825299886,-0.01195792434076465,0.010317163484354713,0.9865984928724242
2015-12-04,1,0.002002639237210121,0.0021635202938526596,-0.01195792434076465,0.010317163484354713,0.9873499842556074
2015-12-08,1,0.0013928523430630033,0.001488420278452801,-0.010201351985708118,0.010317163484354713,0.9880364995922235
2015-12-10,-1,-0.000188776483135879,-6.488621502189433e-05,-0.008106524245165371,0.013030491072049658,0.9875919259526024
2015-12-14,1,0.0002842059971461141,0.00033966194126466425,-0.008106524245165371,0.010317163484354713,0.9877637844124776
2015-12-16,1,0.00024897632938332463,0.00032739722933168146,-0.014278988748965299,0.011043826968754932,0.986065526984131
2015-12-18,-1,-0.00017417340129659254,-7.215110447077709e-05,-0.015149994999977424,0.01574492682328052,0.985108489817589
2015-12-22,1,0.000830534220901522,0.0008396879501176707,-0.015149994999977424,0.01574492682328052,0.9845631064978518
2015-12-24,1,0.00043130810012053777,0.000477276823045644,-0.01793924569082104,0.017839611145224955,0.9821210589377196
2015-12-29,1,0.0012830214345346549,0.0013797062881205167,-0.01793924569082104,0.01574492682328052,0.9824063045349943
2015-12-31,1,0.0008808173207146884,0.0009412617247895418,-0.01793924569082104,0.019596035676531974,0.9807979966089604
2016-01-05,1,0.0006410343131564864,0.0006605336307599603,-0.013013537644138727,0.019596035676531974,0.9818755281827911
2016-01-07,1,0.0007091585887174358,0.0007662585762627969,-0.01793924569082104,0.019596035676531974,0.9804086255392257
2016-01-11,1,0.000799877822242999,0.0008603299762085507,-0.013013537644138727,0.01832594758115235,0.9811566565173582
2016-01-13,-1,-0.0006487368688040524,-0.0004940143578296128,-0.01240180593513882,0.01832594758115235,0.9818607533977441
2016-01-15,-1,-0.001157907630052457,-0.0008644980634120798,-0.01032860342821856,0.01832594758115235,0.9828863855623909
2016-01-20,-1,-0.0013004884953171552,-0.0009869683510049816,-0.00940730335216659,0.02112730797470304,0.9836387687992635
2016-01-22,1,0.00016360690110737183,0.00027055718106097355,-0.00811925080034806,0.015498142938079749,0.9851793925869685
2016-01-26,-1,-0.0002505641843134779,-3.9417070637150025e-05,-0.006718381357426342,0.01099915058888131,0.987092586330665
2016-01-28,1,0.0004108181620435543,0.0005169435012840479,-0.00811925080034806,0.01342321677347308,0.9866343638421892
2016-02-01,1,0.0017567836005916286,0.001843280962167459,-0.009058006784734118,0.01342321677347308,0.988253745360554
2016-02-03,1,0.0012604535286644004,0.0012682419237394337,-0.007831791851560329,0.01342321677347308,0.9886550284037671
2016-02-05,-1,-0.0002204101061128237,-2.7441564848481367e-05,-0.007031300018888361,0.01342321677347308,0.9895558228793886
2016-02-09,1,0.0011023139881196783,0.001127578497616747,-0.007031300018888361,0.010141457719999036,0.9905365063900735
2016-02-11,-1,-0.0005013836182668074,-0.0002456689372467159,-0.004520530389990754,0.011595100819168641,0.990503533373095
2016-02-16,1,0.00031808073801383217,0.00046998647455202597,-0.004520530389990754,0.011477727913612802,0.9912713083726713
2016-02-18,1,0.0009275090824456212,0.0009880116768994553,-0.006423452031100748,0.010141457719999036,0.9915095341570733
2016-02-22,1,0.0011191460418495157,0.0011712320711816057,-0.007031300018888361,0.010107551739207438,0.9906740916337183
2016-02-24,1,0.0018029886969409528,0.0018882715291808948,-0.0070032013034534235,0.011477727913612802,0.9905495986579406
2016-02-26,1,0.0013011143881690845,0.0013077920941681374,-0.0070032013034534235,0.010484288186853038,0.9898971617275385
2016-03-01,1,0.0016131746530897947,0.0016490739045265305,-0.0061927780076315685,0.010484288186853038,0.9901594630461322
2016-03-03,1,0.0020621944356614187,0.002171408642485007,-0.0061927780076315685,0.010952601654097652,0.98962102915981
2016-03-07,1,0.0014180404888162602,0.0014479833498548759,-0.006853236831591358,0.010952601654097652,0.9894773840406581
2016-03-09,1,0.001567604921541597,0.001583735240632716,-0.008301936577397391,0.010952601654097652,0.9894761415581168
2016-03-11,1,0.002191974537090598,0.00232818681106438,-0.008894923784541322,0.010000688253072898,0.9895128545830058
2016-03-15,1,0.0025276114769814525,0.0027322759993335353,-0.009775383215748,0.010000688253072898,0.9885162150986826
2016-03-17,1,0.0029829749634246224,0.003386284886102253,-0.008894923784541322,0.010755330795978645,0.9888342822500958
2016-03-21,1,0.0017160098000489395,0.0018895172032169186,-0.008301936577397391,0.010755330795978645,0.9899642972496547
2016-03-23,1,0.002526597961867158,0.002828866280667799,-0.008301936577397391,0.010000688253072898,0.9900795401907047
2016-03-28,1,0.0015692161959025247,0.0016984914518723253,-0.006617931222734769,0.004590095885742489,0.9920213040356333
2016-03-30,1,0.0020083074945893183,0.0022330643129489453,-0.005785067109311703,0.0030506524741791686,0.9925021188937374
2016-04-01,1,0.0021924073492181713,0.0024226164498322056,-0.008894923784541322,0.0028148981959705208,0.9914680983693672
2016-04-05,1,0.0012470411469658147,0.0013174666592685482,-0.009775383215748,0.0030506524741791686,0.9911468390780775
2016-04-07,1,0.0011738917796599794,0.001259997017260986,-0.006115561058657102,0.0062082386731339865,0.9912294566511901
2016-04-11,1,0.0005169114482691383,0.0005729765937659371,-0.00473909837967868,0.007982101769375742,0.9912807508624332
2016-04-13,1,0.0006168134692925489,0.0006367977548163044,-0.00473909837967868,0.005568869374194193,0.9919422458724778
2016-04-15,1,0.0013019033092268653,0.0014253373381284858,-0.005690034425373086,0.005568869374194193,0.9919898799915978
2016-04-19,1,0.0009093988604047993,0.0009632279425137537,-0.008778952998995249,0.005568869374194193,0.9912725757060662
2016-04-21,1,0.000413290059904869,0.0004466101485083708,-0.008778952998995249,0.007584280470081242,0.9911280547984791
2016-04-25,1,0.0006648710352315481,0.0006650376499295216,-0.008778952998995249,0.008437598648885186,0.9908787237665433
2016-04-27,1,0.0004604158018147762,0.0004923802582310471,-0.008778952998995249,0.00890183303127922,0.9896022490755708
2016-04-29,-1,-0.00043128280416284613,-0.0003265336601720734,-0.0032036239116234257,0.00937725844277769,0.9905106261264572
2016-05-03,-1,-0.0006035191344986998,-0.0004419205131614796,-0.002924344573500069,0.00890183303127922,0.9915469564110562
2016-05-05,-1,-0.0009860817045854425,-0.000722180320854897,-0.00637327492336567,0.008437598648885186,0.9919998362785577
2016-05-09,-1,-0.0003574015516840276,-0.00017722069860983856,-0.00637327492336567,0.005962043328262653,0.9928340780126227
2016-05-11,-1,-0.0007557201535392611,-0.0005412398265626269,-0.0043164809334680365,0.007138837375329964,0.9930126595133825
2016-05-13,-1,-0.0011748060119710101,-0.0008809667801811377,-0.0043164809334680365,0.005569640268153013,0.9934984177464539
2016-05-17,-1,-0.0009950777110860403,-0.0007845950822943051,-0.0034554206642861685,0.005569640268153013,0.9942915497917895
2016-05-19,-1,-0.0010102377663979366,-0.0007803964064892238,-0.0043164809334680365,0.005108512225836704,0.9939542505015966
2016-05-23,-1,-0.00041609619731337784,-0.00028558280286714244,-0.00637327492336567,0.0023130137058748777,0.9936241433346852
2016-05-25,0,-3.934540805947492e-05,7.720222124845197e-05,-0.00637327492336567,0.002700674196470967,0.9940683898624033
2016-05-27,-1,-0.00018750573624163176,-4.564445363654945e-05,-0.006936520621889902,0.001518052513859692,0.9926607540977517
2016-06-01,-1,-0.00047157737895727055,-0.00028510169748146555,-0.006936520621889902,0.002700674196470967,0.9911789932880115
2016-06-03,-1,-0.0006202734165694491,-0.0004197582482424627,-0.004555417505963416,0.005500776908192474,0.9909925863133758
2016-06-07,-1,-0.001416799686840833,-0.0010865590144858,-0.004325903712409283,0.005500776908192474,0.9910303880003523
2016-06-09,-1,-0.0009228714763256169,-0.0006528952386120172,-0.004325903712409283,0.004347703663466497,0.9907226418779166
2016-06-13,-1,-0.0015253098615452812,-0.0011693717932897548,-0.0029290087358653564,0.010099127813334087,0.9898423587116086
2016-06-15,-1,-0.001192124153717565,-0.0009190533999379546,-0.0022547208866729907,0.010099127813334087,0.9897390622743926
2016-06-17,-1,-0.0015941866405889387,-0.0012865568269012613,-0.0019465531211385575,0.010099127813334087,0.9901534699816632
2016-06-21,-1,-0.001863713711221666,-0.0015426137135784227,0.0004798878182803669,0.010099127813334087,0.9899953823483724
2016-06-23,-1,-0.00020173721273728204,-0.0001296920991670614,-0.0022547208866729907,0.008523877421921934,0.9912190585710324
2016-06-27,-1,-0.001902268480123232,-0.00162738550406618,0.001219029000684896,0.009184488630870027,0.9920897963581836
2016-06-29,-1,-0.0011135337377176338,-0.0008768982013087132,0.0007633373812897566,0.008523877421921934,0.9929390117898794
2016-07-01,-1,-0.00031666798757638414,-0.00023434251916480567,-7.041214516154831e-05,0.008593258222564664,0.9933315622540759
2016-07-06,-1,-0.0009489922690234863,-0.0007382245172617651,-7.041214516154831e-05,0.008593258222564664,0.992972489501458
2016-07-08,1,2.1228634840424947e-05,8.385009098301122e-05,-0.0016840967578751432,0.007301671643316859,0.9939771034712905
2016-07-12,1,0.0008583349940916338,0.0009240531937155435,-0.0031852591568244408,0.0050346329788229114,0.9944120152451124
2016-07-14,1,0.0009682703597298451,0.0010643993733108416,-0.003582355938192431,0.0050346329788229114,0.9943980989826123
2016-07-18,1,0.0010651095317000632,0.0011815229260429094,-0.003582355938192431,0.0050346329788229114,0.9943267247976522
2016-07-20,1,0.0010269852782972939,0.0011342183578905486,-0.003582355938192431,0.0050346329788229114,0.9936794750996306
2016-07-22,1,0.0011730382036095842,0.0013144133879829652,-0.0031852591568244408,0.0024438871643854116,0.9942054288521955
2016-07-26,1,0.0016096091746626586,0.0018310228703430596,-0.0031852591568244408,0.0017082293751131098,0.9944433761323113
2016-07-28,1,0.00218626608316843,0.002451870508951741,-0.003582355938192431,0.0017082293751131098,0.9953363617901126
2016-08-01,1,0.0026379068571258423,0.0029895650399020765,-0.003582355938192431,0.0017082293751131098,0.9950901708954847
2016-08-03,1,0.0028945783258598496,0.003294661358100217,-0.003582355938192431,0.0017082293751131098,0.9950640804534526
2016-08-05,1,0.0029090593221554662,0.0033351325505881443,-0.002338068182323564,0.002129073998406874,0.9953543370853715
2016-08-09,1,0.002213705277054628,0.002514455447008044,-0.001973622359669209,0.002129073998406874,0.9958107905596392
2016-08-11,1,0.0015940681833058502,0.001770675258237123,-0.0027710804908890625,0.002129073998406874,0.9948908390984903
2016-08-15,1,0.0018752317356243611,0.0021230465197622918,-0.004487437664173594,0.0037411051297859136,0.9942714050240814
2016-08-17,1,0.0016822260217000408,0.001876416504762269,-0.00431562909867448,0.0037411051297859136,0.9947077558349209
2016-08-19,1,0.0017346540515254165,0.0019454098971801754,-0.00431562909867448,0.004772108818839275,0.9944482749654029
2016-08-23,1,0.0019279119281462465,0.002185288233777591,-0.00431562909867448,0.005137986524859596,0.9936593512584104
2016-08-25,1,0.001599509613409331,0.0017823262812988769,-0.005529452998270048,0.00507224711958486,0.9931102015428478
2016-08-29,1,0.001569969886012434,0.0017305412939802374,-0.006631549226612969,0.003719191994694335,0.9928128279378498
2016-08-31,1,0.001526929244590094,0.0016781373986672892,-0.008525173749279961,0.0015016264722335733,0.9921472680843082
2016-09-02,1,0.0016434080001339695,0.001795477599605753,-0.008525173749279961,-0.0003170712135365768,0.9918754908665051
2016-09-07,1,0.0014086832906202858,0.0015397925746994303,-0.007672678481950564,0.0009662830782595179,0.9924112189482225
2016-09-09,1,0.0004143453661972594,0.00042505647749372847,-0.005529452998270048,0.0020859504319203567,0.9936704799356277
2016-09-13,1,0.0002931360374546614,0.00033098123552066384,-0.007233774297422215,0.0009662830782595179,0.9935332518949244
2016-09-15,1,0.0005856000272621365,0.0005901362766001816,-0.007233774297422215,0.0020859504319203567,0.9936574051538808
2016-09-19,1,0.0005384643405414949,0.0005426736268914109,-0.007672678481950564,0.0023278367443729047,0.9930148323369854
2016-09-21,1,0.00021118695344990982,0.00031264587755049946,-0.007672678481950564,0.001615817825304853,0.9937467171602846
2016-09-23,-1,-0.0003312875111234921,-0.00017297921445147803,-0.007672678481950564,0.0035816841763537314,0.9939165278156219
2016-09-27,-1,-0.0006465222490138861,-0.0004709490219845976,-0.007233774297422215,0.0035816841763537314,0.9943939104706438
2016-09-29,-1,-0.0007445168699825751,-0.000588969329877687,-0.0077162713192566994,0.0035816841763537314,0.9933491547036786
2016-10-03,-1,-0.001296385696830212,-0.0010525362729212793,-0.007695145150968407,0.0035816841763537314,0.993596494953771
2016-10-05,-1,-0.00140293216664494,-0.0011474015571486056,-0.007695145150968407,0.004263185829285814,0.9933194378277805
2016-10-07,-1,-0.0016278766896034823,-0.0013210392364722753,-0.007695145150968407,0.005784414340962544,0.9930782543117952
2016-10-11,-1,-0.0019877517650699165,-0.0016526017536655302,-0.003679436363532327,0.0060567283811033285,0.9929494658516974
2016-10-13,-1,-0.0014917545286422713,-0.0012197736266690484,-0.003679436363532327,0.0060567283811033285,0.9924409887052722
2016-10-17,-1,-0.0013096976978842643,-0.0011030492721812593,-0.007734972856332891,0.004402153054617285,0.9917516636555747
2016-10-19,-1,-0.0012504920912229218,-0.0010518126069398647,-0.007734972856332891,0.004402153054617285,0.9916563983820547
2016-10-21,-1,-0.0013497076289651902,-0.0011350202152888332,-0.004655324279855365,0.004402153054617285,0.991490883215393
2016-10-25,-1,-0.0015019800003379029,-0.0012611422641076349,-0.006192459700866945,0.004402153054617285,0.9913576700609756
2016-10-27,-1,-0.0028226149909755596,-0.0024154770312535736,-0.0037102930764172015,0.005585853910000404,0.9921973602657922
2016-10-31,-1,-0.002576082094125859,-0.0022234611362156394,-0.004374604557146447,0.006097705704382569,0.9913962513128903
2016-11-02,-1,-0.0029016594225755397,-0.002491623470497989,-0.006540221469468037,0.006097705704382569,0.9910631885496589
2016-11-04,-1,-0.002422008363646461,-0.0020612793210691848,-0.006540221469468037,0.0055272191998333355,0.990825842143521
2016-11-08,-1,-0.0023192544156941776,-0.0019439897322682499,-0.006540221469468037,0.008345213408662292,0.9893282440323556
2016-11-10,-1,-0.0019530859890914318,-0.0015957094087444463,-0.006540221469468037,0.007664903320841011,0.9899446053267454
2016-11-14,-1,-0.002864732859013987,-0.002439588551757363,-0.0037102930764172015,0.008259863046730246,0.9905472656006367
2016-11-16,-1,-0.0042930151977657845,-0.003593894196049839,-0.004222671550087728,0.008259863046730246,0.9895046547774363
2016-11-18,-1,-0.002405198178969902,-0.002015099315936699,-0.006437897067771706,0.006237390902845245,0.9907778383576301
2016-11-22,-1,-0.0026180461507394263,-0.0022145615859731544,-0.007738505861352033,0.006237390902845245,0.9905236483256187
2016-11-25,-1,-0.002558373852659628,-0.0021597525486904195,-0.007738505861352033,0.006237390902845245,0.9908005270085678
2016-11-29,-1,-0.0025515661001321386,-0.0021902365702038303,-0.005878523842953518,0.005727767508834657,0.9915048624438851
2016-12-01,-1,-0.002924947643382852,-0.00256424135331163,-0.0043367337660059815,0.005727767508834657,0.9919041757243994
2016-12-05,-1,-0.001990037442700563,-0.0017396576284490716,-0.004997749921738309,0.005727767508834657,0.9922286080126883
2016-12-07,-1,-0.00011150651356367261,-8.566696826060841e-05,-0.004997749921738309,0.005185550937363569,0.9938402258308646
2016-12-09,1,0.000521761439516606,0.0005803219752417383,-0.006828002021457181,0.004716127535525881,0.9935703969766598
2016-12-13,1,0.0007517686957337714,0.000844467370742564,-0.006828002021457181,0.004716127535525881,0.9933018558643689
2016-12-15,1,0.0006167867609475739,0.0007134271102706364,-0.006828002021457181,0.004584084201387437,0.9935569107356607
2016-12-19,1,0.0008089178398873541,0.0010084586172521832,-0.005314242647906197,0.004584084201387437,0.9939541898462847
2016-12-21,1,0.0008770654841096929,0.001106258814382977,-0.004769134301777507,0.0045050597662560305,0.9943062808188103
2016-12-23,1,0.0008201522473452127,0.001047868027765624,-0.004769134301777507,0.005454570252365162,0.9939946479357845
2016-12-28,1,0.0008333832685157873,0.001050207326543512,-0.005314242647906197,0.006097164403968576,0.993701298042618
2016-12-30,1,0.0005000378981157154,0.0006451156547050667,-0.005182844869093619,0.007312012246728115,0.9921504551253802
2017-01-04,1,0.0009383042708447,0.001139521131933001,-0.003300362518821269,0.006097164403968576,0.9930685080206987
2017-01-06,1,0.0013614301394900353,0.0016208725341911,-0.005251096369349459,0.004884418051778681,0.9929555054409832
2017-01-10,1,0.0007124448577746861,0.0008958922792957505,-0.004906207506811964,0.004884418051778681,0.9932860298256749
2017-01-12,1,0.0010176761258521598,0.0012474524578780363,-0.0048644188520940695,0.004884418051778681,0.9933693424941336
2017-01-17,1,0.0007515371887268855,0.0009502068067747977,-0.0032864329672486377,0.006097164403968576,0.9934742143519814
2017-01-19,1,0.0009167930579594164,0.0011432365263905123,-0.003142225700559725,0.006772746968671606,0.9935452493569192
2017-01-23,1,0.0012469258112600661,0.001534104543596469,-0.003142225700559725,0.006772746968671606,0.99365042424016
2017-01-25,1,0.0018464067741223223,0.002215466373097824,-0.003142225700559725,0.004055568359371472,0.994000547210622
2017-01-27,1,0.001993462323520099,0.0023985533825643173,-0.0030245105510616674,0.003031260677859352,0.9942636817692302
2017-01-31,1,0.0032727501111531375,0.003827375222759565,-0.002517968792067098,0.003031260677859352,0.9947813353840107
2017-02-02,1,0.002458818658487197,0.0028391100144720084,-0.004316471387388616,0.003009321449024481,0.9943745472918103
2017-02-06,1,0.001982110937811146,0.0023042070205288204,-0.0027338979796001067,0.003344986011188728,0.9949246793606612
2017-02-08,1,0.0017008129080959052,0.0020026030533788703,-0.0020296827059702806,0.004085586613477184,0.9953881905645872
2017-02-10,1,0.0022459357568931524,0.0026245463978811804,-0.002318383516227756,0.0031603290996492055,0.9952819494293429
2017-02-14,1,0.0029914034030106293,0.0035008177497390857,-0.002318383516227756,0.002524119080744045,0.995245947359986
2017-02-16,1,0.0029532990051979154,0.0034163765541352286,-0.00260743337303833,0.002524119080744045,0.9951005923392612
2017-02-21,1,0.002600708476392358,0.0029837592887991976,-0.003098416500325225,0.0019036861532419943,0.9944890513384913
2017-02-23,1,0.0023489082376095764,0.0026645199083899845,-0.003098416500325225,0.0007117340590136697,0.9945732453421167
2017-02-27,1,0.0020059945370681544,0.0022582794832635093,-0.003098416500325225,0.0015969640807778818,0.9944724654729715
2017-03-01,1,0.00238612937098631,0.002679599949159314,-0.00445751048293605,0.0015969640807778818,0.9945069204020422
2017-03-03,1,0.0018188815212007796,0.002041588884164825,-0.003098416500325225,0.0017616245944242653,0.9953845796227435
2017-03-07,1,0.001310107086532332,0.0014259878765832288,-0.003966869653656348,0.0015969640807778818,0.9953552094508921
2017-03-09,1,0.0015741956731054772,0.0017548439345934572,-0.003966869653656348,0.0015969640807778818,0.9953234990095051
2017-03-13,1,0.0012022833227372572,0.0013123026085783297,-0.003966869653656348,0.0017616245944242653,0.9957787796782949
2017-03-15,1,0.0011733684050470742,0.0012797577625244996,-0.004775844434762795,0.0017616245944242653,0.9952977857479351
2017-03-17,1,0.001032834201876612,0.001113138282281631,-0.005592222316180897,0.0017616245944242653,0.9946476795944835
2017-03-21,1,0.00042529266238752804,0.00042537331271616985,-0.004775844434762795,0.0017616245944242653,0.9955465310978685
2017-03-23,-1,-0.0004994988949650714,-0.0003178289526179315,-0.004775844434762795,0.0019185307439775728,0.994707053476767
2017-03-27,-1,-0.0010240038644634404,-0.00077720680083369,-0.004206838430099185,0.003192572289594444,0.9947884987177119
2017-03-29,-1,-0.0014051434398414172,-0.0011044145741452643,-0.004775844434762795,0.003192572289594444,0.9939576143338573
2017-03-31,-1,-0.0006692549925090256,-0.00048109388586439175,-0.005453673598683003,0.0022450463905755932,0.9942038780833714
2017-04-04,-1,-0.0009609906035984585,-0.0007570512810130588,-0.005453673598683003,0.0022450463905755932,0.9943136446682113
2017-04-06,-1,-0.00011461203723876626,-5.764155576941374e-05,-0.005453673598683003,0.0020699451123559055,0.9945374373404202
2017-04-10,-1,-0.0008652387588823826,-0.0006535696564349902,-0.00669416017916317,0.00140469548492319,0.9940809670872238
2017-04-12,-1,-0.0013272988467859825,-0.0010598591196643466,-0.00669416017916317,0.0023872151055048607,0.9940635432897437
2017-04-17,-1,-0.0007269645756961825,-0.0005615480967233777,-0.0046938036537946355,0.0029986054271359157,0.9946950681925443
2017-04-19,-1,-0.0008745829025963627,-0.0006808566024575366,-0.00669416017916317,0.0029986054271359157,0.9941499922252791
2017-04-21,-1,-0.00048809975844953395,-0.00034240079974025994,-0.00669416017916317,0.0029986054271359157,0.9943533255787529
2017-04-25,-1,-0.0005111301379396995,-0.0003378436127225091,-0.00669416017916317,0.0029986054271359157,0.9944465966472645
2017-04-27,-1,-0.002129838033012272,-0.0017238209409965498,-0.004608468449722092,0.0037447334407048295,0.9949090876321687
2017-05-01,-1,-0.0019072147479296457,-0.0015611674117300112,-0.004608468449722092,0.0037447334407048295,0.9950117910894325
2017-05-03,-1,-0.0012654024490234045,-0.001073776374712722,-0.003914880446609407,0.003860646417658627,0.9949361184155348
2017-05-05,-1,-0.0008866378379501949,-0.0007665413353863386,-0.00449578645023856,0.0052766207383857225,0.9946210623618887
2017-05-09,-1,-0.0013410497156666114,-0.0011835467334530023,-0.0027325327666788655,0.005995070957340896,0.9938868462795292
2017-05-11,-1,-0.0012833457080047332,-0.001116142770827553,-0.0027325327666788655,0.006051983058720909,0.9935838425513198
2017-05-15,-1,-0.001255208369830309,-0.0010666960750656297,-0.0027325327666788655,0.0071479783938756545,0.9932856573653213
2017-05-17,-1,-0.0018874354378903848,-0.0016202987626063718,-0.002080360694506241,0.0071479783938756545,0.9934902178582248
2017-05-19,-1,-0.001569476001576478,-0.0013308857865169143,-0.002080360694506241,0.006051983058720909,0.9939907214007412
2017-05-23,-1,-0.001256712412929495,-0.001059173757732416,-0.004233479294062788,0.005547659904860809,0.9937040876459597
2017-05-25,-1,-0.001199316088352341,-0.001001553705798232,-0.00383563420905213,0.0049300007828084105,0.9938811651076189
2017-05-30,-1,-0.0014162814732456004,-0.0012115069210135339,-0.0023127163199044495,0.005547659904860809,0.9935764032717529
2017-06-01,-1,-0.000921878442922184,-0.0007941004404590328,-0.0023127163199044495,0.005884247958166017,0.993366530441851
2017-06-05,-1,-0.0013593925804148402,-0.001145268952937484,-0.0015517353063196735,0.005884247958166017,0.9936588124807925
2017-06-07,-1,-0.00027470300709819053,-0.00019458280701535415,-0.0023127163199044495,0.004910989569520234,0.9948250092120324
2017-06-09,0,-2.4993026589794205e-05,4.108599157132508e-05,-0.003484880733184959,0.0048577141907238715,0.995025594766522
2017-06-13,1,0.00048794044603335876,0.0004935564578771711,-0.003484880733184959,0.0034064082975060112,0.9956169190513768
2017-06-15,1,0.00019595124017395,0.00023088014156438872,-0.003484880733184959,0.0034064082975060112,0.9955844612506476
2017-06-19,1,0.00053062057021506,0.0005652004773268115,-0.003484880733184959,0.0048577141907238715,0.9953409815726927
2017-06-21,-1,-0.0002051691589430558,-0.00014903061813934188,-0.0014329770336622318,0.0048577141907238715,0.996000352245271
2017-06-23,1,0.0004813449910713886,0.0005756710306959645,-0.0012860684074759653,0.0052455946680101334,0.9960549434136575
2017-06-27,1,0.0008574382482286871,0.0010019975220919054,-0.0012860684074759653,0.003506117303348614,0.9955061571943803
2017-06-29,1,0.0010198947358858869,0.00115634066844004,-0.0014340769892102622,0.0029391082253750625,0.9961032241897637
2017-07-03,1,0.0008006002826228615,0.0008822051903597879,-0.0014340769892102622,0.003506117303348614,0.9959226288895378
2017-07-06,1,0.000847929612386534,0.0009660480146451381,-0.001398860210357969,0.0052724699952589596,0.9959540364453607
2017-07-10,1,0.0010746446719593853,0.0012475811626576007,-0.0013422816325282664,0.003586268009393803,0.9963250855788895
2017-07-12,1,0.001318495191971931,0.0015439607356675068,-0.0003328591244652771,0.005540891870604079,0.9958855608676845
2017-07-14,1,0.0011472911941197029,0.001345288860864738,-0.0013422816325282664,0.005540891870604079,0.9957062793430129
2017-07-18,1,0.0015211819042884674,0.001772487225612094,-0.0013422816325282664,0.005540891870604079,0.9951987782965847
2017-07-20,1,0.0015298192031578985,0.0017727388264451112,-0.001398860210357969,0.005540891870604079,0.994633614141351
2017-07-24,1,0.0022060479585493805,0.0025737424105086682,-0.0015062065106949464,0.005182806805529508,0.9939734798903009
2017-07-26,1,0.003455530686058245,0.003952603062534511,-0.0022908657978818136,0.005182806805529508,0.9934432101835478
2017-07-28,1,0.0024888861754381528,0.0028487866943638224,-0.00462894819508556,0.005540891870604079,0.9930562845267534
2017-08-01,1,0.00275143766757532,0.0031501479816885614,-0.00553741808214227,0.005210776562739061,0.9926387384347254
2017-08-03,1,0.002709816433982682,0.0030912268328362486,-0.00553741808214227,0.004265006937033098,0.9927130117650116
2017-08-07,1,0.002546936473525791,0.002906603514168167,-0.006617900159302692,0.004265006937033098,0.9921531544349357
2017-08-09,1,0.003279049976869826,0.0037303365151720815,-0.007204192340771137,0.0029520893294744653,0.9916135442121823
2017-08-11,1,0.002326239123427421,0.0026145466655690367,-0.007204192340771137,0.004265006937033098,0.9922584313131791
2017-08-15,1,0.002924442552868939,0.0032880607826321294,-0.007204192340771137,0.004265006937033098,0.9920019375983264
2017-08-17,1,0.002344524417631961,0.0026057234225215107,-0.005748758562644486,0.004265006937033098,0.9926721143667253
2017-08-21,1,0.0017968768708772308,0.00197114639882253,-0.004287162481910498,0.005547806397204154,0.993163125157606
2017-08-23,1,0.0020322214211252617,0.002261845370366751,-0.004287162481910498,0.004787133593761085,0.9936661849596908
2017-08-25,1,0.0018351411792897523,0.0020083952155148708,-0.0028821198384725026,0.004787133593761085,0.994263852677616
2017-08-29,1,0.001596587208707861,0.0017480393017918069,-0.0028821198384725026,0.006263793350198199,0.9938503552600407
2017-08-31,1,0.001598952110244733,0.0017533076434131341,-0.0028821198384725026,0.006998411638131664,0.9937758524117375
2017-09-05,1,0.0009158230111727318,0.0009548141832274572,-0.002454334589930151,0.006998411638131664,0.9943723050079772
2017-09-07,1,0.0006543052703443744,0.0006745323961573694,-0.0011584774204172236,0.006998411638131664,0.9947014707014016
2017-09-11,1,0.0007906473861843666,0.0008124044668698543,-0.0011584774204172236,0.0068917170534450265,0.9924733587843407
2017-09-13,1,0.001285938052520344,0.0013963428076536131,-0.0005946484973074546,0.0068917170534450265,0.9926363866671541
2017-09-15,1,0.00142097532667501,0.0015661053809624254,-0.0036386431036804405,0.0068917170534450265,0.9918045936175651
2017-09-19,1,0.0017228370917895175,0.0018403309140604973,-0.004222722538558656,0.006885984805539224,0.9920935009845474
2017-09-21,1,0.0013059809827360778,0.0013515074153788954,-0.004222722538558656,0.006885984805539224,0.9914837605256788
2017-09-25,1,0.001587828211298584,0.001650477326997023,-0.004222722538558656,0.006816160517346736,0.9915336049294997
2017-09-27,1,0.001346876343956423,0.001373513836288467,-0.004222722538558656,0.003747775706816707,0.991722906359987
2017-09-29,1,0.0009255851558985983,0.0009940643822163526,-0.004222722538558656,0.0014825351090339573,0.9920862871157251
2017-10-03,1,0.0011075421275568743,0.0011387306951248434,-0.004222722538558656,0.0016367604324114696,0.9920310407479582
2017-10-05,1,0.000931141980032088,0.0009761953526931426,-0.004379899111809997,0.004544000596962895,0.9916001195441491
2017-10-09,-1,-0.001259709318751678,-0.0009195588127882936,-0.006356692116512005,0.001485342994895918,0.9939530319957768
2017-10-11,-1,-0.00035604564203557535,-0.00014697469400119713,-0.006356692116512005,0.001485342994895918,0.9940698914593951
2017-10-13,-1,-0.0013059470759335023,-0.0009925771140976067,-0.0031463301862449033,0.004544000596962895,0.9941111103799877
2017-10-17,-1,-0.0009855905627254632,-0.0007180396374061202,-0.0024534932859639163,0.007523749487872947,0.9929800057040409
2017-10-19,-1,-0.00253407568206985,-0.0020527981754923574,-0.0020955837456647875,0.007523749487872947,0.9934056756799107
2017-10-23,-1,-0.002063651408199342,-0.0016499851961649362,-0.0020955837456647875,0.008068870946408303,0.9934071411386126
2017-10-25,-1,-0.002959884708528295,-0.002436273639632106,-0.0011974153101400537,0.008068870946408303,0.9931248448126887
2017-10-27,-1,-0.0022806979379936376,-0.0018939098058658496,-0.0006214984772520693,0.008068870946408303,0.99340401878871
2017-10-31,-1,-0.0018420076754139952,-0.0015264131120750514,-0.0006214984772520693,0.01012190435846061,0.9930006930469146
2017-11-02,-1,-0.001104976688231275,-0.0009069740338393884,-0.0003290722407341222,0.008227451074126268,0.9934920984846534
