JNU-Tangyin/eata/results/Batch4_SP500/Batch4_SP500-BEN.csv
Date,Action,Predicted_Q25,Predicted_Q75,Actual_Q25,Actual_Q75,RL_Reward
2010-12-14,0,-0.0004676489681101185,0.0,-0.009965147396375072,0.012379683849535124,0.9888821942979892
2010-12-16,0,0.0,0.0,-0.009965147396375072,0.0162468555356643,0.9876844079438929
2010-12-20,0,0.0,0.0,-0.007945789755759942,0.0162468555356643,0.9883455874871966
2010-12-22,0,0.0,0.0,-0.005772927645375227,0.0162468555356643,0.9891064832061042
2010-12-27,0,0.0,0.0,-0.0030585776282737176,0.012414322754539759,0.9899048894434843
2010-12-29,0,-0.0007533144128360023,0.0,-0.00027717801735804284,0.016669147180794583,0.9891099195873934
2010-12-31,0,0.0,0.0,-0.005772927645375227,0.016669147180794583,0.9885646561054167
2011-01-04,0,0.0,0.0,-0.005772927645375227,0.016705381529761296,0.9880037407997877
2011-01-06,0,0.0,0.0,-0.001562196384982263,0.016705381529761296,0.988684313905865
2011-01-10,0,0.0,0.0,-0.001562196384982263,0.016816344595800198,0.9884447494144631
2011-01-12,0,0.0,0.0,-0.0022454813773690116,0.011834541517750097,0.9900798330269883
2011-01-14,1,3.405740639727173e-05,0.00033909336120632966,-0.0022454813773690116,0.010916784536470575,0.9907866068815953
2011-01-19,-1,-0.0009289793333446016,-0.0005094628405219912,0.0006249181598989991,0.010916784536470575,0.9912675407350905
2011-01-21,-1,-0.000985858092279862,-0.0005517439245709996,-0.001562196384982263,0.010916784536470575,0.9910650317250073
2011-01-25,0,-6.766310674276017e-05,0.0001974388953527921,-0.003831879856370668,0.0085960425654544,0.9893477593962695
2011-01-27,1,0.0008944379215053855,0.001021175802633645,-0.003831879856370668,0.007788971090048345,0.9900399960532352
2011-01-31,1,0.00013909015264413,0.0003450644717746012,-0.003831879856370668,0.007788971090048345,0.989601858574472
2011-02-02,1,0.0005674545824856282,0.0007073583375633013,-0.002090995877982815,0.007788971090048345,0.9901738267272054
2011-02-04,1,0.0009487710561483817,0.0010236064900518132,-0.005588277449256131,0.007788971090048345,0.9895770374868875
2011-02-08,1,0.0018932809096682624,0.0019427448015521187,-0.009808500377928598,0.006917983687625136,0.9889487998650305
2011-02-10,1,0.002005357106638765,0.0020927870858067025,-0.010760917588727112,0.007788971090048345,0.9869998963841478
2011-02-14,1,0.0018365950495847893,0.0018457901695978938,-0.015579962053092797,0.005907736671320786,0.9857048454097413
2011-02-16,1,0.0021762405987294465,0.0022635519993023413,-0.01921366731827179,0.006489608096399715,0.9842112188898314
2011-02-18,1,0.002188274599850197,0.0022825609829087382,-0.01921366731827179,0.01032742151616849,0.9835944042533319
2011-02-23,1,0.00031207169288985826,0.00046261767866339677,-0.015579962053092797,0.01032742151616849,0.985452396876944
2011-02-25,1,0.00042687087061800503,0.0005693015139877686,-0.015579962053092797,0.013027859649583603,0.984607916285146
2011-03-01,1,0.0008066234135027018,0.0008176554329180609,-0.01154799921103404,0.013027859649583603,0.9852128094849791
2011-03-03,1,0.0016369234584649212,0.001747502264072706,-0.01154799921103404,0.015043801376570453,0.9846190917290477
2011-03-07,1,0.0012578709849686346,0.001341102798925604,-0.01058152849372271,0.01726046880853562,0.9849728408459569
2011-03-09,1,0.0012333757320632617,0.0013215064524467366,-0.01058152849372271,0.014732537835867116,0.9862414701962096
2011-03-11,1,0.0004937974195588782,0.0005002164600860312,-0.008692755812016522,0.013766748793571992,0.9881700743488249
2011-03-15,-1,-0.0008071085278573071,-0.0006481201446984493,-0.005450545005910656,0.013766748793571992,0.9895719647442434
2011-03-17,-1,-0.0012117370457559906,-0.0010026157262990553,-0.005450545005910656,0.010402376072908389,0.9907843937733444
2011-03-21,-1,-0.00037905479874648614,-0.0002671484281779961,-0.007641866061806033,0.0051389493091179,0.9912624360059183
2011-03-23,-1,-0.0006605593972615201,-0.0005004151888421706,-0.005450545005910656,0.007419465751827592,0.990964669707554
2011-03-25,1,0.00033370462037524124,0.0003366636743386946,-0.007641866061806033,0.006807386796254079,0.9910214018010111
2011-03-29,1,0.0004211203545631541,0.000460525963106889,-0.005450545005910656,0.013853913237133612,0.9906466928403805
2011-03-31,1,0.002238140341041916,0.00259018014522305,-0.005450545005910656,0.012108964071975654,0.9912919585198555
2011-04-04,1,0.002348135046804753,0.0026666937888356656,-0.005450545005910656,0.006081964583778177,0.9915790514853774
2011-04-06,1,0.0016563595943869644,0.0018655673729806688,-0.0062113024315424755,0.006081964583778177,0.9912317946121918
2011-04-08,1,0.001277594834664777,0.00140283537341348,-0.005069013546634782,0.010762347589552274,0.9911371694900651
2011-04-12,1,0.0007614419321623183,0.0007879093016255818,-0.006913420135356033,0.010762347589552274,0.9901950941554468
2011-04-14,1,0.0005508034200847694,0.0005511565646620841,-0.005856359595826358,0.012108964071975654,0.9898614606152374
2011-04-18,0,0.0,0.0,-0.005856359595826358,0.012108964071975654,0.9902829586034624
2011-04-20,0,0.0,0.0,-0.005856359595826358,0.010762347589552274,0.9910059008278526
2011-04-25,0,0.0,0.0,-0.006126110384856772,0.009758621912805788,0.9908011986363738
2011-04-27,0,0.0,0.0,-0.006126110384856772,0.008267941397334009,0.9914705435724285
2011-04-29,1,0.0012718278431477774,0.001427970265339893,-0.006126110384856772,0.008267941397334009,0.9913674689202571
2011-05-03,1,0.002513225919553969,0.0027936982314351235,-0.0074226735105064195,0.009758621912805788,0.9888200877704298
2011-05-05,0,0.0,0.0,-0.0074226735105064195,0.009758621912805788,0.9897259911583239
2011-05-09,0,0.0,0.0,-0.009754090034252582,0.008267941397334009,0.9895195753936659
2011-05-11,1,0.0005725185376875327,0.0005809760167031219,-0.0074226735105064195,0.008300983124152544,0.9902057414622574
2011-05-13,0,-6.262909123251511e-05,8.789377755782837e-05,-0.009754090034252582,0.006885027834288592,0.990386517367828
2011-05-17,-1,-0.0008176756652038366,-0.0005523714006558186,-0.010835565232046042,0.008300983124152544,0.9882702510442449
2011-05-19,-1,-0.0006533186546177407,-0.0004106632921547842,-0.010835565232046042,0.00733443254685116,0.9880466039462196
2011-05-23,-1,-0.001760344222150667,-0.0013821551515766806,-0.0036545520564196625,0.00998371584986649,0.9881949091653424
2011-05-25,-1,-0.0015902788371399453,-0.0012442405890786025,-0.010605270545214707,0.00998371584986649,0.9878520473351764
2011-05-27,0,0.0,0.0,-0.010605270545214707,0.00733443254685116,0.9878849319593428
2011-06-01,0,0.0,0.0,-0.008473925091260437,0.010172446016365482,0.9890879447575001
2011-06-03,0,0.0,0.0,-0.006299469808530802,0.015702704802230603,0.9878430745246464
2011-06-07,0,0.0,0.0,-0.00254419158909541,0.015702704802230603,0.9887337407726927
2011-06-09,0,0.0,0.0,-0.0024254129935022037,0.016287937410072152,0.9882880592234384
2011-06-13,-1,-0.0018415440840364827,-0.0015003957047669569,-0.0037186879838613618,0.016287937410072152,0.9868577623179652
2011-06-15,-1,-0.0017502105933192517,-0.0014250028602847068,-0.0037186879838613618,0.015702704802230603,0.9891192924114152
2011-06-17,-1,-0.0008377770177063782,-0.0006466534632746087,-0.006154275845307937,0.015702704802230603,0.9892416715430659
2011-06-21,1,0.0005105932275899215,0.0005313650098520996,-0.006154275845307937,0.015811797169275593,0.989089419606427
2011-06-23,-1,-0.0008794285124040666,-0.0006940772839414045,-0.004105541428341188,0.01661521451120713,0.987843982582116
2011-06-27,-1,-0.00017959128888389602,-9.964701560833693e-05,-0.0034565355658678276,0.015811797169275593,0.9888758181917471
2011-06-29,1,0.0013378089812335987,0.0014570491875997814,-0.005367818591327334,0.015811797169275593,0.9871581311426734
2011-07-01,1,0.0036816406246124654,0.004196336902168632,-0.007915280419789042,0.0023160069183870914,0.9864714288499601
2011-07-06,1,0.003790864277660831,0.004322975428638027,-0.011200905567780362,0.005703890505030392,0.9840720626995474
2011-07-08,1,0.004838086544895098,0.005548470032404209,-0.01649230575965742,0.001155561543215636,0.9812312332431188
2011-07-12,1,0.001971681079106678,0.002285795945201642,-0.01649230575965742,0.005703890505030392,0.9766948083311542
2011-07-14,1,0.0016416456569918183,0.0019099572854893278,-0.02238228344668174,0.017357544723222894,0.9722784664056602
2011-07-18,1,0.0003999501254174774,0.0004293186088917733,-0.02238228344668174,0.017357544723222894,0.9731918135568045
2011-07-20,1,0.001079122728260698,0.001218651818865924,-0.02238228344668174,0.011506137736990144,0.9730194953786006
2011-07-22,1,0.0013807460475881844,0.0015486663798945002,-0.035447571045898726,0.00842100192421406,0.9720446028781327
2011-07-26,1,0.001174350742149573,0.0013272688727535248,-0.035447571045898726,0.01690372670752959,0.9707208249550497
2011-07-28,1,0.00047321545953111187,0.0005268013690812218,-0.02238228344668174,0.01553828519471484,0.9723285568521698
2011-08-01,0,0.0,0.0,-0.01878379863365348,0.017251623093389692,0.9716992628567956
2011-08-03,-1,-0.0019358819070493913,-0.0017485871809981594,-0.011187051354630495,0.01553828519471484,0.9729435796731886
2011-08-05,-1,-0.004100318850310219,-0.0036351628299098647,-0.014409913371927763,0.01553828519471484,0.9732163539244183
2011-08-09,-1,-0.005532051787658421,-0.00489216757924648,-0.014307055923431355,0.01553828519471484,0.9791290977331301
2011-08-11,-1,-0.004813970879189193,-0.004280319096739366,-0.014307055923431355,0.012641393216483885,0.983143097155119
2011-08-15,-1,-0.004440786144985188,-0.003949584667425368,-0.014307055923431355,0.013448679518153263,0.9823685063544916
2011-08-17,-1,-0.0039437018773698035,-0.003535619323061503,-0.014307055923431355,0.01553828519471484,0.9802808833254439
2011-08-19,-1,-0.005164017761382412,-0.004597963082220013,-0.014307055923431355,0.01553828519471484,0.9817457533169814
2011-08-23,-1,-0.004475844105836199,-0.004019591566748854,-0.01470139685986305,0.013382082561209112,0.982285689790272
2011-08-25,-1,-0.0044547093013206866,-0.004059003989338341,-0.016987507058510945,0.013382082561209112,0.9778960551664376
2011-08-29,0,0.0,0.0,-0.016987507058510945,0.013382082561209112,0.9776565506715885
2011-08-31,-1,-0.0007555564189146967,-0.0006616079611234655,-0.02487886450334651,0.016427003135053214,0.9752933574765046
2011-09-02,-1,-0.0019440399866355366,-0.0017147776479583183,-0.03310536106203553,0.016427003135053214,0.9730416565877781
2011-09-07,0,0.0,0.0,-0.03310536106203553,0.021122124210038916,0.9711605345575672
2011-09-09,0,0.0,0.0,-0.040216409563641434,0.021122124210038916,0.969911235942624
2011-09-13,0,0.0,0.0,-0.040216409563641434,0.024760586570795353,0.9670176100303655
2011-09-15,0,0.0,0.0,-0.040216409563641434,0.021122124210038916,0.9690775211533378
2011-09-19,0,0.0,0.0,-0.040216409563641434,0.024760586570795353,0.9679213772148245
2011-09-21,0,0.0,0.0,-0.03204982150212395,0.028942330584469347,0.967202963652701
2011-09-23,0,0.0,0.0,-0.028825950944922834,0.030347124380194542,0.9710900802988043
2011-09-27,-1,-0.0032988275340149614,-0.002946908076691273,-0.03204982150212395,0.030347124380194542,0.9687712990125286
2011-09-29,-1,-0.0039836795351835055,-0.0035637821178602126,-0.028825950944922834,0.03341548365464658,0.9682467017714345
2011-10-03,-1,-0.005431171244890159,-0.004851051531822111,-0.02097023877798215,0.03341548365464658,0.969308901272623
2011-10-05,-1,-0.004257666328357377,-0.0038196569374640333,-0.028825950944922834,0.03341548365464658,0.969246934801295
2011-10-07,-1,-0.0037901737659700443,-0.003395940932652544,-0.02097023877798215,0.03341548365464658,0.9704162321599719
2011-10-11,-1,-0.0037848877343963283,-0.003406090290210252,-0.0065445274834500106,0.03130747163821822,0.9729031682315614
2011-10-13,-1,-0.003901919961162751,-0.0034846514374694986,-0.02097023877798215,0.03130747163821822,0.9706999657596698
2011-10-17,-1,-0.003090132559174014,-0.002768166807543047,-0.020004666400582426,0.027882050392102564,0.9714122400742224
2011-10-19,0,0.0,0.0,-0.02201848095365956,0.02657837533955102,0.9736881048925091
2011-10-21,0,0.0,0.0,-0.026336567091848652,0.025186210719093886,0.973971713912325
2011-10-25,-1,-0.0016209184767011053,-0.001474677233528161,-0.026336567091848652,0.0185629334919602,0.9756698470842244
2011-10-27,1,7.288528765785946e-05,0.00011098768571406067,-0.032498735052254646,0.013841055146207001,0.9773685823126683
2011-10-31,-1,-0.00029859849555716455,-0.00029531238377160417,-0.026336567091848652,0.013841055146207001,0.9789566507192302
2011-11-02,-1,-0.0006855217821480373,-0.0006389423240582338,-0.02201848095365956,0.013841055146207001,0.9794318817736767
2011-11-04,1,0.00010077328006775294,0.0001542409029722558,-0.02201848095365956,0.013841055146207001,0.9792868063131774
2011-11-08,1,0.0005778672677736719,0.0007097530944965096,-0.02201848095365956,0.004731123535672204,0.9798178288000186
2011-11-10,1,2.27747855157973e-06,8.261830320839309e-05,-0.02201848095365956,0.007561922781605,0.9793897433482657
2011-11-14,-1,-0.00013171655301134135,-8.535213814500107e-05,-0.023419695447065996,0.00018314882869104596,0.9799888362107507
2011-11-16,-1,-0.0004508360329484057,-0.0004324251498443544,-0.021407564133202973,0.00018314882869104596,0.9796253773006562
2011-11-18,-1,-0.0006263204294338455,-0.0005917717857507725,-0.01672634646425368,0.004940118569291363,0.9798206790139803
2011-11-22,-1,-0.0007581081278412722,-0.000685294396340484,-0.014831008972891597,0.016413408421584157,0.9799173773123344
2011-11-25,-1,-0.0014388127670919228,-0.0014282083559785405,-0.014118233784182654,0.016413408421584157,0.9808842755694311
2011-11-29,-1,-0.0005769562882842384,-0.0004440060060287359,-0.014831008972891597,0.010371688794048867,0.9814375973348406
2011-12-01,0,0.0,0.0,-0.014118233784182654,0.010371688794048867,0.984521552849296
2011-12-05,1,0.0008246398856140146,0.001121040443991471,-0.014118233784182654,0.010371688794048867,0.9839457486608629
2011-12-07,0,0.0,0.0,-0.014118233784182654,0.011957535940993044,0.9833526908371626
2011-12-09,0,0.0,0.0,-0.012520633329147608,0.011957535940993044,0.9853877078167435
2011-12-13,0,0.0,0.0,-0.012520633329147608,0.011957535940993044,0.9848492010786628
2011-12-15,0,0.0,0.0,-0.007857449023212346,0.011957535940993044,0.9859826648576204
2011-12-19,0,-0.00026458009503978967,0.0,-0.004125765350057921,0.01790313709145103,0.9852708857032254
2011-12-21,0,0.0,0.0,-0.0018971927374161846,0.012597318972502327,0.9863424923303932
2011-12-23,0,0.0,0.0,-0.0018971927374161846,0.014800904710363596,0.9860322368383162
2011-12-28,0,0.0,0.0,-0.001291386918711508,0.015435156517383877,0.9861861109318651
2011-12-30,0,0.0,0.0,-0.0023492105655872004,0.014495711437722339,0.986180989994197
2012-01-04,0,0.0,0.0,-0.001291386918711508,0.014495711437722339,0.9850276197024141
2012-01-06,0,0.0,0.0,-0.0011838529282763644,0.015435156517383877,0.984470141727208
2012-01-10,0,0.0,0.0,-0.0011838529282763644,0.014495711437722339,0.9859764035292345
2012-01-12,0,0.0,0.0,-0.0006649921017661288,0.014495711437722339,0.9881062897368084
2012-01-17,0,0.0,0.0,-0.0006649921017661288,0.014495711437722339,0.9876342946983567
2012-01-19,0,0.0,0.0,-0.0006649921017661288,0.011522144215793687,0.9892538158534774
2012-01-23,0,0.0,0.0,-0.0017396516114364332,0.011522144215793687,0.9895956320344969
2012-01-25,0,0.0,0.0,-0.002334525431897199,0.011522144215793687,0.9895558353312296
2012-01-27,1,0.002973702344465174,0.0036375685731232154,-0.003436389304662916,0.010210353271549085,0.9903314654280077
2012-01-31,1,0.0028322710901423614,0.003621944982941935,-0.003229718950925415,0.009660770567862288,0.9910196007192412
2012-02-02,1,0.0028219023392077208,0.0037676398926484366,-0.003671523219349547,0.005714214523355018,0.9932964278600365
2012-02-06,1,0.003482213060188484,0.004312148224254901,-0.005853923922084253,0.004581814902287856,0.9930702122772778
2012-02-08,0,0.0,0.0,-0.005853923922084253,0.008389965224901116,0.992282649249744
2012-02-10,0,0.0,0.0,-0.005791678601778127,0.008389965224901116,0.9921623343165703
2012-02-14,0,0.0,0.0,-0.004637072625551327,0.009189875905871916,0.9913722414079422
2012-02-16,0,0.0,0.0,-0.004637072625551327,0.010233289709827443,0.9910541310625834
2012-02-21,1,0.9669818308878865,0.970938046708889,-0.005791678601778127,0.010233289709827443,0.5086115553287271
2012-02-23,0,0.0,0.0,-0.005791678601778127,0.005968547978065095,0.9909407289627817
2012-02-27,1,0.002474569047460419,0.002552419383887627,-0.005791678601778127,0.010411948283970343,0.9900182293550978
2012-02-29,0,0.0,0.0,-0.005791678601778127,0.010411948283970343,0.9902698686553375
2012-03-02,0,0.0,0.0,-0.005791678601778127,0.008806061299089361,0.9900022437193459
2012-03-06,-1,-0.000567513375165688,-0.00015454939088924862,-0.0038373613733984637,0.017496917542651917,0.9900260143242692
2012-03-08,-1,-0.0005776586794651434,-0.00017466494409767433,-0.004440183745969737,0.007800508206409767,0.9908308283447526
2012-03-12,-1,-0.000649613685403113,-0.0002485126025115851,-0.008163503275739437,0.007800508206409767,0.9894478903441526
2012-03-14,0,0.0,0.0,-0.008163503275739437,0.007800508206409767,0.9898098665219599
2012-03-16,0,0.0,0.0,-0.009626436154517684,0.005433252316438102,0.9896462953661364
2012-03-20,0,0.0,0.0,-0.013920563069837577,0.007800508206409767,0.988548321715537
2012-03-22,0,0.0,0.0,-0.01027661141411542,0.007800508206409767,0.9889903970944779
2012-03-26,0,0.0,0.0,-0.013920563069837577,0.007571986969476141,0.9881866889694634
2012-03-28,0,0.0,0.0,-0.013920563069837577,0.013387544371640492,0.9867068050288351
2012-03-30,1,0.00041121529111341434,0.0005326546339058835,-0.01027661141411542,0.013387544371640492,0.9875718253372969
2012-04-03,1,0.0027467108865406407,0.0031150246693641085,-0.014131535435744191,0.012510195239139642,0.9870819444069815
2012-04-05,1,0.0025771257698360573,0.002877808511004585,-0.01635928029192448,0.005892776496539837,0.9861734205128414
2012-04-10,1,0.0023344035805391364,0.002614808043539885,-0.01433578742773372,0.005892776496539837,0.9872379161027023
2012-04-12,1,0.0019107132506385473,0.0021048508557956563,-0.01433578742773372,0.003450535269012003,0.987839588435573
2012-04-16,1,0.0012703778635889348,0.0013389579284370221,-0.012468488950750894,0.002920621780798583,0.9883366489540285
2012-04-18,1,0.000792050695070765,0.000815167408024886,-0.012908689226318687,0.002066744354329443,0.988850362784692
2012-04-20,1,9.398431435490693e-05,0.00024842235304916964,-0.01594621479546444,0.0017707427685472064,0.9880479353435538
2012-04-24,-1,-0.00022066342321115607,-3.047843741899167e-05,-0.012908689226318687,0.0017707427685472064,0.9887576564075815
2012-04-26,0,0.0,0.0,-0.012908689226318687,-0.0015884493524820791,0.9898703462316809
2012-04-30,0,0.0,0.0,-0.012908689226318687,-0.0029339276370178562,0.9886831333433967
2012-05-02,1,0.0004746043210866468,0.000500243407714127,-0.012908689226318687,-0.003180392725294806,0.9893221114705032
2012-05-04,-1,-0.00030721656251586534,-0.00018272237205273895,-0.011400942316565573,0.0010900244561941079,0.9888932086438008
2012-05-08,0,0.0,0.0,-0.010643534676104542,0.006277382046153891,0.9876171729186557
2012-05-10,0,0.0,0.0,-0.010643534676104542,0.007637467288565765,0.9874479930275357
2012-05-14,0,0.0,0.0,-0.012606668533632386,0.00854549502661992,0.986366406103379
2012-05-16,0,0.0,0.0,-0.012003098808229362,0.009301227527942123,0.9863937971505529
2012-05-18,0,-0.001890452135034326,0.0,-0.012003098808229362,0.011549089094066203,0.9859739121412043
2012-05-22,-1,-0.001974929742122501,-0.001635173748510385,-0.012003098808229362,0.011837867692656844,0.985124494198689
2012-05-24,0,0.0,0.0,-0.015310556041828662,0.011837867692656844,0.983992806048191
2012-05-29,0,0.0,0.0,-0.015310556041828662,0.009301227527942123,0.9845179723607049
2012-05-31,0,0.0,0.0,-0.013511361083104443,0.011837867692656844,0.9843419484209869
2012-06-04,-1,-0.004950105199925877,-0.0042053862999962876,-0.011269216084975033,0.016124853422162418,0.9826541647060711
2012-06-06,-1,-0.005459820421548436,-0.004549807415053267,-0.011269216084975033,0.012290564224813996,0.9838415856142848
2012-06-08,-1,-0.005350819277813865,-0.004446969322783058,-0.013315971290149562,0.011032020459215416,0.9843027062500478
2012-06-12,-1,-0.004961963894930546,-0.004177991825165588,-0.011269216084975033,0.011032020459215416,0.985455353543851
2012-06-14,-1,-0.005072925912892911,-0.00428733561410388,-0.009366173828238766,0.017602410350331717,0.984124348023854
2012-06-18,-1,-0.004404345140397182,-0.0037286942981732737,-0.009366173828238766,0.010587525564663382,0.9857048785322783
2012-06-20,-1,-0.003941562469281491,-0.003338446344820798,-0.008221904259994764,0.006941065332604678,0.9866800165658093
2012-06-22,-1,-0.005134816563885961,-0.004385131440234264,-0.009850253266909892,0.006941065332604678,0.9868395020221034
2012-06-26,-1,-0.003986952504731772,-0.003475450111127463,-0.009850253266909892,0.006941065332604678,0.9871565829854485
2012-06-28,-1,-0.0027381784549351295,-0.0024140291660633166,-0.009850253266909892,0.00979857391158052,0.9857117427106156
2012-07-02,-1,-0.0008650131674374573,-0.0007670673658078945,-0.009850253266909892,0.008450586164178646,0.986866315900646
2012-07-05,0,0.0,0.0,-0.013194428136902437,0.002484426025928642,0.9862257457460469
2012-07-09,0,0.0,0.0,-0.012680940016572701,0.008450586164178646,0.9859448948916233
2012-07-11,0,0.0,0.0,-0.012680940016572701,0.016422052058686055,0.9848290441180426
2012-07-13,0,0.0,0.0,-0.012680940016572701,0.008450586164178646,0.9871265140395702
2012-07-17,-1,-9.514189398310188e-05,-5.7680457181498676e-05,-0.007314551732442909,0.008053776536528624,0.9875697155179499
2012-07-19,1,4.6452452778761365e-05,0.00010597370390492549,-0.007314551732442909,0.01451683943718032,0.9862799374170703
2012-07-23,-1,-0.0019266689387818416,-0.0017427102606435104,-0.0053203825611230346,0.01451683943718032,0.9876060582030816
2012-07-25,0,0.0,0.0,-0.004614159056207628,0.01451683943718032,0.988010820250599
2012-07-27,-1,-0.00046464900100303883,-0.00041184720204341023,-0.004614159056207628,0.010064137452312412,0.9898679455956335
2012-07-31,0,0.0,0.0,-0.005780901972303517,0.006695641115959631,0.9909248345308955
2012-08-02,0,0.0,0.0,-0.004614159056207628,0.006695641115959631,0.9921002425088234
2012-08-06,0,0.0,0.0,-0.004614159056207628,0.004990598700237766,0.9931457984921593
2012-08-08,0,0.0,0.0,-0.004481441888488889,0.004990598700237766,0.9930209447848984
2012-08-10,1,0.00136248888204928,0.0016399167273463567,-0.004481441888488889,0.006110062792248497,0.9931304193432334
2012-08-14,1,0.0017844519795303605,0.0021333269076051252,-0.003470853397603588,0.007137859752893054,0.99284940447472
2012-08-16,1,0.0029309999243487313,0.0034683598677149154,-0.003470853397603588,0.007137859752893054,0.9925287584349407
2012-08-20,0,0.0,0.0,-0.005382750469147303,0.007137859752893054,0.9916575458058754
2012-08-22,0,0.0,0.0,-0.005255597575228771,0.007429851884347744,0.991570700223106
2012-08-24,0,0.0,0.0,-0.005255597575228771,0.006649612139666817,0.9919730975978688
2012-08-28,0,0.0,0.0,-0.007025798699148334,0.006649612139666817,0.9916911633602349
2012-08-30,0,0.0,0.0,-0.005255597575228771,0.008369736096888892,0.9915156196904329
2012-09-04,0,0.0,0.0,-0.005255597575228771,0.008369736096888892,0.9914451316565445
2012-09-06,0,0.0,0.0,-0.0030599306185068523,0.008369736096888892,0.9919020027153441
2012-09-10,0,0.0,0.0,-0.0030599306185068523,0.008369736096888892,0.99213713661702
2012-09-12,0,0.0,0.0,-0.007025798699148334,0.006412820319311074,0.9923870982633657
2012-09-14,0,0.0,0.0,-0.007703908923236403,0.003880150782679735,0.9933467371928947
2012-09-18,0,0.0,0.0,-0.004878238819209437,0.007091215604253643,0.992823342935846
2012-09-20,1,0.0028538165055785663,0.003253991759127062,-0.002440900624604435,0.008581191617603748,0.9928281166657023
2012-09-24,1,0.002722070173477565,0.003095359425922514,-0.005104275560572127,0.008581191617603748,0.991935627424446
2012-09-26,1,0.002243666630907493,0.002586520507705814,-0.0021667562150950075,0.008581191617603748,0.9917776189413187
2012-09-28,1,0.004706093648384388,0.005356881676544113,-0.005104275560572127,0.008581191617603748,0.9904894184355408
2012-10-02,0,0.0,0.0,-0.005104275560572127,0.012083303661437861,0.9890184551250801
2012-10-04,0,0.0,0.0,-0.007025429983527074,0.008581191617603748,0.9897255457625551
2012-10-08,0,0.0,0.0,-0.008179455037920186,0.00933591541717476,0.9883289050527982
2012-10-10,0,0.0,0.0,-0.008011476181016223,0.00933591541717476,0.9882647343074071
2012-10-12,0,0.0,0.0,-0.007397430398175849,0.00933591541717476,0.9886430923705736
2012-10-16,0,0.0,0.0,-0.010895133064495324,0.004994173296204458,0.9891801544395793
2012-10-18,0,0.0,0.0,-0.010895133064495324,0.004994173296204458,0.9888800536862258
2012-10-22,0,0.0,0.0,-0.007397430398175849,0.006424463338615271,0.9896891121229817
2012-10-24,1,0.0012101355348035545,0.0013516416480045437,-0.007236752409869339,0.007358468420012054,0.9901974622973151
2012-10-26,1,0.0014894314655923525,0.0015110574470645851,-0.005043802612170196,0.006424463338615271,0.9912608693155173
2012-11-01,1,0.002657046862243332,0.002781389055251615,-0.005098353160489177,0.006424463338615271,0.9925177389308001
2012-11-05,0,0.0,0.0,-0.0055143575144449,0.006424463338615271,0.9917181427337018
2012-11-07,1,0.0005151993408482665,0.0006325061160223249,-0.0055143575144449,0.004994173296204458,0.9927731467033868
2012-11-09,0,0.0,0.0,-0.00340295244514235,0.003552141033332681,0.9931852676558409
2012-11-13,0,0.0,0.0,-0.004904259701849367,0.0029823266972663796,0.9932460922074111
2012-11-15,0,0.0,0.0,-0.00340295244514235,0.0029823266972663796,0.9941188812114539
2012-11-19,0,0.0,0.0,-0.00340295244514235,0.0019111996426723055,0.9943800396476464
2012-11-21,0,0.0,0.0,-0.00340295244514235,0.0027114931452990863,0.9944085623334753
2012-11-26,0,0.0,0.0,-0.00340295244514235,0.0018462696175918572,0.9949747597079288
2012-11-28,0,0.0,0.0,-0.004904259701849367,0.0018462696175918572,0.9943550621870366
2012-11-30,0,0.0,0.0,-0.006619654246248852,0.0018462696175918572,0.9939342183349038
2012-12-04,0,0.0,0.0,-0.003548789588275282,0.0027114931452990863,0.9934597267991215
2012-12-06,0,0.0,0.0,-0.003548789588275282,0.0033442004609009392,0.9930098376998728
2012-12-10,0,0.0,0.0,-0.00606528503135918,0.0055791466559349644,0.9923324808864109
2012-12-12,0,0.0,0.0,-0.0035697003982800863,0.012394647826308261,0.9910438212728533
2012-12-14,0,0.0,0.0,-0.0035697003982800863,0.012394647826308261,0.991151022062261
2012-12-18,0,0.0,0.0,-0.003486528401190293,0.009335193261852438,0.99186963942848
2012-12-20,-1,-0.0362782580991245,-0.03548531826218411,-0.0063835050093479255,0.009335193261852438,0.9638832098875408
2012-12-24,-1,-0.00011287412616955107,-8.275932791057043e-05,-0.005186709715368519,0.009335193261852438,0.9914891734312989
2012-12-27,-1,-0.0016878378438119808,-0.0013341335823400505,-0.0022569601196511906,0.012051777099366116,0.9907467152496503
2012-12-31,-1,-0.0015192710392626795,-0.0012131247318614463,-0.002108263355743943,0.012394647826308261,0.9909505486349113
2013-01-03,-1,-0.0003855980709592371,-0.0002386941496046528,-0.0034726975620654084,0.012394647826308261,0.9918285815759217
2013-01-07,-1,-0.0003547534528008573,-0.0002109239640342099,-0.0034726975620654084,0.012051777099366116,0.9919760021181616
2013-01-09,-1,-0.0002742530149454597,-0.00013832191420060785,-0.0034726975620654084,0.011524049510538217,0.992442030062909
2013-01-11,1,0.0008019299878332273,0.0008282373584109704,-0.0034726975620654084,0.0055481839888303,0.9937474636440126
2013-01-15,0,0.0,0.0,-0.0034726975620654084,0.010303724294820836,0.9929964077571583
2013-01-17,0,0.0,0.0,-0.0034726975620654084,0.011524049510538217,0.9924257891849335
2013-01-22,0,0.0,0.0,-0.0034726975620654084,0.011524049510538217,0.9917994695130548
2013-01-24,-1,-0.0002680672130943505,-0.0001378292573640745,-0.0034726975620654084,0.0122707220275261,0.990489809163613
2013-01-28,1,3.908877861062953e-05,0.00015622089854361315,-0.0048627203087771905,0.011183052034300752,0.990418332938031
2013-01-30,1,0.0002550487526483842,0.0003461863826025996,-0.004668528340199381,0.011183052034300752,0.9903071429123085
2013-02-01,1,0.0009475462549866193,0.0009701222710191844,-0.004668528340199381,0.010548746358125215,0.990855658447101
2013-02-05,0,0.0,0.0,-0.0034697724292943933,0.011285445498145676,0.9902750386121358
2013-02-07,0,0.0,0.0,-0.003051733744294437,0.011285445498145676,0.9905353427305642
2013-02-11,0,0.0,0.0,-0.003051733744294437,0.011285445498145676,0.9903124790590047
2013-02-13,0,0.0,0.0,-0.003051733744294437,0.010548746358125215,0.9905069311404056
2013-02-15,0,0.0,0.0,-0.0034697724292943933,0.008927325212900484,0.990576349843125
2013-02-20,0,0.0,0.0,-0.003051733744294437,0.008388506847798675,0.9915867861397358
2013-02-22,0,0.0,0.0,-0.003051733744294437,0.008388506847798675,0.9920404568920865
2013-02-26,0,0.0,0.0,-0.0014723968786226013,0.008847264665235168,0.9925272099954017
2013-02-28,0,0.0,0.0,-0.0014723968786226013,0.008388506847798675,0.9927602215343955
2013-03-04,0,0.0,0.0,-0.0014723968786226013,0.008314149429333083,0.9927627827442927
2013-03-06,0,0.0,0.0,-0.0034256163329234625,0.008314149429333083,0.9914916305605326
2013-03-08,0,0.0,0.0,-0.00747743646674832,0.008388506847798675,0.9908603876625077
2013-03-12,1,0.001959079338181586,0.0020406459855197815,-0.00747743646674832,0.009639841626098426,0.989675684988304
2013-03-14,1,0.002472006090269709,0.002668030350972142,-0.00747743646674832,0.009639841626098426,0.9896875500846615
2013-03-18,1,0.002227281024331923,0.002414544530355884,-0.00747743646674832,0.011434423801683344,0.9880889681554872
2013-03-20,1,0.002300067177761477,0.002455554365925601,-0.009149399707990747,0.011434423801683344,0.9857494900744955
2013-03-22,1,0.001963950485689353,0.0020652310077556705,-0.007665860626774521,0.014670988843457257,0.9858892225226366
2013-03-26,1,0.0025294405073773628,0.002690310711448047,-0.007665860626774521,0.014679100427827472,0.9856389047233383
2013-03-28,1,0.002695717919101162,0.0029368849497050714,-0.007513219451831785,0.014679100427827472,0.9858084949314125
2013-04-02,0,0.0,0.0,-0.005500756342225175,0.014679100427827472,0.9853316702877714
2013-04-04,0,0.0,0.0,-0.005238550040018559,0.011744320173325053,0.9873831893912788
2013-04-08,0,0.0,0.0,-0.004163967306846703,0.014679100427827472,0.9867195311499025
2013-04-10,0,0.0,0.0,-0.004163967306846703,0.010404440468458908,0.9877491915249543
2013-04-12,0,0.0,0.0,-0.004659245417906666,0.011066726055610529,0.9873314544173021
2013-04-16,0,0.0,0.0,-0.003426006206970784,0.011696214646471179,0.9879043656722039
2013-04-18,0,0.0,0.0,-0.0033937306738290865,0.011696214646471179,0.9900962776222696
2013-04-22,0,0.0,0.0,-0.0033937306738290865,0.011696214646471179,0.9904380723441579
2013-04-24,0,0.0,0.0,-0.004202693124662106,0.011032325405204445,0.9905979512840561
2013-04-26,0,0.0,0.0,-0.005354727493464769,0.010614269998745792,0.9905329277644921
2013-04-30,0,0.0,0.0,-0.006741942689501887,0.011522964402649952,0.9895977301909992
2013-05-02,0,0.0,0.0,-0.00748657875512308,0.011522964402649952,0.9879538267938244
2013-05-06,0,0.0,0.0,-0.008227411357331776,0.010567986800940744,0.988869313304343
2013-05-08,1,0.00043423000727244623,0.00048723081468978347,-0.00963136480819496,0.00802103476567566,0.9874607924518345
2013-05-10,0,0.0,0.0,-0.00963136480819496,0.006482840420091212,0.9881022506931547
2013-05-14,0,0.0,0.0,-0.016030039549853995,0.004634485020328724,0.9876326697808291
2013-05-16,1,0.0021921811828394706,0.0023023389491542384,-0.016030039549853995,0.005754145016567172,0.9861715945006762
2013-05-20,1,0.0022423922886249557,0.0023355869782817383,-0.016030039549853995,0.005754145016567172,0.985822967598093
2013-05-22,1,0.0008234438021285185,0.0009414400788537998,-0.02288096628077632,0.005754145016567172,0.9830315543190222
2013-05-24,1,0.0006488452706332216,0.0008050242937596348,-0.023114640216636412,0.004834459910481771,0.9825338523379396
2013-05-29,1,0.0006789668606048644,0.0007947566615688017,-0.023114640216636412,0.004834459910481771,0.9827476906498978
2013-05-31,-1,-0.0009927847799984276,-0.0006845046009915652,-0.021952847559605953,0.006482840420091212,0.9835147225118235
2013-06-04,-1,-0.0009809391596777369,-0.0006797197183301376,-0.021952847559605953,0.00795412189681464,0.9830830189765072
2013-06-06,-1,-0.0012679446821343833,-0.0009822894979367469,-0.021178108397991918,0.007567809697619939,0.9848508385322118
2013-06-10,-1,-0.001248554034726986,-0.00096061981984965,-0.021178108397991918,0.01245079202518426,0.9842539984172586
2013-06-12,-1,-0.003118249561665976,-0.002609378612153381,-0.009936437836213018,0.0168004989757486,0.9843339188466563
2013-06-14,-1,-0.002516317678957502,-0.0020420687423531713,-0.009936437836213018,0.0168004989757486,0.9842457907408172
2013-06-18,-1,-0.001867862596082482,-0.001456616680445759,-0.009936437836213018,0.01245079202518426,0.9849227546192456
2013-06-20,-1,-0.004710661338893512,-0.0040049286628426085,-0.002477947721560135,0.01245079202518426,0.987883993098007
2013-06-24,-1,-0.005191932261042074,-0.004443797502501685,-0.002117068070390586,0.0168004989757486,0.9871721901558589
2013-06-26,-1,-0.004167485002890468,-0.003560681118817414,-0.00752349828991805,0.01245079202518426,0.9885278827353347
2013-06-28,-1,-0.004528251438264879,-0.0038837077807541407,-0.00752349828991805,0.014620602405475639,0.9887102532668489
2013-07-02,-1,-0.003999832910182496,-0.0034100082926122556,-0.00752349828991805,0.013664842551222781,0.9888711657255602
2013-07-05,-1,-0.004201190106866122,-0.0035969406604608217,-0.0038324096955200822,0.014620602405475639,0.9876396606801023
2013-07-09,-1,-0.003120203922224647,-0.0026707867406897887,-0.008300258898769513,0.013664842551222781,0.9884272974167141
2013-07-11,-1,-0.002675980794948725,-0.0023036246746974487,-0.0038324096955200822,0.010729698272576839,0.9901266954012522
2013-07-15,-1,-0.0018351069566445053,-0.0015384759053267939,-0.008300258898769513,0.0053062960973757674,0.9912822932238898
2013-07-17,-1,-0.0013525253752888506,-0.001120188501658837,-0.008846025404261831,0.006158009592043576,0.9909681516943288
2013-07-19,-1,-0.0020397178992154503,-0.00167999610893981,-0.012216500228462612,0.006158009592043576,0.989246192443541
2013-07-23,-1,-0.0014722931035138483,-0.0011986607904677959,-0.012216500228462612,0.005772092291355255,0.9895798302750977
2013-07-25,-1,-0.0022149000006436055,-0.0018684899691037806,-0.009700806901490635,0.012049004221327044,0.9889281231016257
2013-07-29,-1,-0.0016770351196006257,-0.0014348318579273443,-0.00999790683862201,0.005772092291355255,0.9894108437143052
2013-07-31,-1,-0.0009714926586095306,-0.0008177895500025608,-0.013175508372272585,0.0024703022641415335,0.9883872415091958
2013-08-02,-1,-8.489031077681675e-05,-4.861799789964547e-05,-0.013175508372272585,0.0024703022641415335,0.9883746973354867
2013-08-06,-1,-0.0002603064297818111,-0.00022332928415256566,-0.00999790683862201,0.007639329894955998,0.9884178507286421
2013-08-08,-1,-0.0003992187948952718,-0.0003252836293472659,-0.013914613272284566,0.010389760345734472,0.9867151486298174
2013-08-12,-1,-0.0010157042400373956,-0.0008793040222363763,-0.00999790683862201,0.012049004221327044,0.9869816161985344
2013-08-14,-1,-0.0009179397914613886,-0.0007893190450590478,-0.009521602898168063,0.011395685902663077,0.9874151883344963
2013-08-16,-1,-0.0020405940937501935,-0.0018044369386013654,-0.0035879098881124675,0.012250499207431563,0.9869106774699242
2013-08-20,-1,-0.0017523788362957225,-0.001552728325129951,-0.0014756706923601745,0.01564767528387293,0.9854046523507641
2013-08-22,-1,-0.0011640218034954953,-0.0010321069001610341,-0.0028343199305068114,0.011983098189455917,0.9866056711373893
2013-08-26,-1,-0.0019889462176321602,-0.0017475353710599477,-0.0029052536569428434,0.011983098189455917,0.9863551272271327
2013-08-28,-1,-0.003187700346718055,-0.0028119185954403655,-0.0029052536569428434,0.011983098189455917,0.9869614972873223
2013-08-30,-1,-0.0020402028932972652,-0.001963599891507678,-0.005126707502525736,0.010558603837457485,0.9882985221585633
2013-09-04,-1,-0.0008558652558399092,-0.0008275810558936138,-0.005126707502525736,0.010558603837457485,0.9888523889072273
2013-09-06,-1,-0.0009797783807416439,-0.0009122018304046426,-0.003341979183348246,0.010558603837457485,0.9899113170549602
2013-09-10,-1,-0.001638649549103815,-0.001394815636488055,-0.0051744048864901014,0.008023356188806181,0.9888070577301131
2013-09-12,-1,-0.0007155789290335807,-0.0006246414574947636,-0.0051744048864901014,0.01030144829204152,0.9877196509088007
2013-09-16,1,0.0013219361389668464,0.0015482911475918123,-0.0051744048864901014,0.007804868656889244,0.9896448022071134
2013-09-18,1,0.003121647454900383,0.003601121513412434,-0.005636748615645429,0.007025736111732555,0.990162260069991
2013-09-20,1,0.0025870958611306574,0.003009211344330934,-0.0051744048864901014,0.01030144829204152,0.9902531983731829
2013-09-24,1,0.0017274987747986975,0.0020133530887573164,-0.003342492411092355,0.01030144829204152,0.991070607300374
2013-09-26,1,0.0024841248758977743,0.0029350179139149583,-0.0006868102048842797,0.007340175475803636,0.9919089873200737
2013-09-30,1,0.0025566104863177477,0.003054037938049289,0.0002753367006019282,0.007340175475803636,0.9922665458365103
2013-10-02,1,0.0029294555677797417,0.003487701670949727,-0.0004128447366417001,0.007340175475803636,0.9918821710587746
2013-10-04,1,0.0041949110761155236,0.005002849983670141,-0.0028906243340558664,0.005906056891255618,0.9917178828257116
2013-10-08,1,0.002681030154137152,0.0032744365641110967,-0.002118483396291437,0.005906056891255618,0.9926581773162764
2013-10-10,1,0.004091752310605334,0.004898136508017413,-0.004291937683229777,0.005160937978960745,0.9918684249681361
2013-10-14,1,0.003919174949610274,0.004654061793079459,-0.006707750167543624,0.005809106576851476,0.9914192715747542
2013-10-16,1,0.004375852397574945,0.005162805167218526,-0.004391327354250336,0.006063104639908242,0.9916862265020754
2013-10-18,1,0.00546425351973912,0.0063873928534815445,-0.004391327354250336,0.005809106576851476,0.9913678648227245
2013-10-22,1,0.004771075381949125,0.005505786679766022,-0.006460623050097505,0.005213287228511619,0.9911206153799269
2013-10-24,1,0.004835164958809966,0.00556812527202731,-0.006460623050097505,0.007622286886648138,0.9902914362321845
2013-10-28,1,0.004080335273195388,0.004644231284580111,-0.006460623050097505,0.013000213261684906,0.9897955425111287
2013-10-30,1,0.003978566476379632,0.004537425896376164,-0.005494251278809803,0.013000213261684906,0.9898923173002937
2013-11-01,1,0.0028218096160639735,0.0031226524171113564,-0.004407954568418408,0.013000213261684906,0.9902862835871395
2013-11-05,1,0.002192274098897154,0.0024619235789058312,-0.005427825055793005,0.013000213261684906,0.990967931919606
2013-11-07,1,0.002271851341282667,0.0026024115594760937,-0.005427825055793005,0.010351454924037391,0.9917725982786781
2013-11-11,1,0.0003702248515847674,0.00047141481699768145,-0.005427825055793005,0.014459484777171495,0.990910148132317
2013-11-13,1,0.0007833319826754794,0.0008921842888891733,-0.006079579004211176,0.006890184482787073,0.9910348132676875
2013-11-15,1,0.0016202832450894107,0.0016538492328155982,-0.006079579004211176,0.006890184482787073,0.9909128492481512
2013-11-19,1,0.0009602820455116757,0.0010331993632208703,-0.005427825055793005,0.009709846828049599,0.9898439613102372
2013-11-21,1,0.0016254047619356693,0.0016594431280145025,-0.006116149692957886,0.009398897851416451,0.9899864262947489
2013-11-25,1,0.0018284605395219944,0.001860039515750673,-0.006116149692957886,0.006890184482787073,0.9909480350941298
2013-11-27,1,0.0019869865861466838,0.0020707994811068713,-0.006116149692957886,0.008213995041039767,0.9911882794531388
2013-12-02,1,0.0018816215475512793,0.0019506597680920676,-0.006116149692957886,0.009154811692877685,0.9908598551993768
2013-12-04,1,0.0017108524528901524,0.0018186561298626411,-0.004625514950069689,0.009154811692877685,0.9907345165102873
2013-12-06,1,0.0018530493359289785,0.002002111314939276,-0.0043717497501686384,0.008309799947367219,0.9911755758941826
2013-12-10,1,0.0019169087093863213,0.0020614183502473443,-0.004072053458546623,0.006743314752897348,0.9923743038906561
2013-12-12,1,0.0012143488685536655,0.0012880834252982903,-0.004072053458546623,0.008309799947367219,0.9920017340307322
2013-12-16,1,0.0012277863710092123,0.0012465377445131415,-0.004072053458546623,0.008309799947367219,0.9916543255766357
2013-12-18,1,0.001969790615953357,0.0020878145090094205,-0.0015770362118255762,0.006743314752897348,0.9933981818672716
2013-12-20,1,0.0022462236263580057,0.0024295181107979896,-0.003488287196458248,0.005986768960094704,0.9937468233067002
2013-12-24,1,0.0028838350146883716,0.003185570644680621,-0.0045675405001162385,0.005155032534098352,0.9897899905212704
2013-12-27,1,0.002816785887090397,0.003084160957926578,-0.007089265550241074,0.005155032534098352,0.9888574938487906
2013-12-31,1,0.0028692743292311716,0.0031449880428451966,-0.0134689193637286,0.00414927250523614,0.9882192847385455
2014-01-03,1,0.0019277250217225707,0.0020312849894188823,-0.015353418064245911,0.0038772599632893416,0.9868730812168128
2014-01-07,1,0.0017571994202624972,0.0018421601041818103,-0.015353418064245911,0.00414927250523614,0.9864914625793907
2014-01-09,1,0.0007492000660908101,0.0008722731937657589,-0.015353418064245911,0.012476307280542463,0.985614837407932
2014-01-13,1,0.00041938241118099473,0.0005813315670047943,-0.012742334593001472,0.012476307280542463,0.9864683083776805
2014-01-15,1,0.0014733109755921887,0.0014839316057847904,-0.012742334593001472,0.00791627701874072,0.987086963952135
2014-01-17,1,0.0010512582720842941,0.001147893667418452,-0.012742334593001472,0.012476307280542463,0.9862740159400114
2014-01-22,0,-0.0002767993964267408,4.5555898366667264e-05,-0.014714697650667446,0.012476307280542463,0.9859594274433859
2014-01-24,-1,-0.002914613453133997,-0.0023150070690073853,-0.007571996565553046,0.012995815486227795,0.9885883057817808
2014-01-28,-1,-0.002672885001228918,-0.0021238915368255004,-0.012266799917591229,0.012476307280542463,0.9888744029382358
2014-01-30,-1,-0.0033615541318753896,-0.0027342841937823665,-0.007477004199395516,0.012995815486227795,0.9885933834213794
2014-02-03,-1,-0.004848350182046904,-0.004073632687154506,-0.006030647755352851,0.013853500689785424,0.9889056485807081
2014-02-05,-1,-0.0044030640740077625,-0.0036963697521693664,-0.006030647755352851,0.013853500689785424,0.9892802214545866
2014-02-07,-1,-0.0025450541553954965,-0.002121299057597656,-0.007374339216555718,0.008184322952664785,0.9908468887494667
2014-02-11,-1,-0.0010700134149330097,-0.000901737798614933,-0.009037090327921157,0.005858825244493286,0.9913628932934234
2014-02-13,-1,-0.0012740728179555538,-0.0010507050330629993,-0.011438858901882155,0.004354900458539177,0.9902984733944623
2014-02-18,-1,-0.0013449815394530953,-0.0010822671765533753,-0.011438858901882155,0.0061760521087869,0.9901661767213782
2014-02-20,-1,-0.0020202251567815015,-0.0016844059841315054,-0.011438858901882155,0.008547839678793726,0.9896890380028741
2014-02-24,-1,-0.0016295215309734545,-0.0013230188987857026,-0.011438858901882155,0.0061760521087869,0.9902870971554432
2014-02-26,-1,-0.0024243284938926376,-0.0020346096620169844,-0.008816286704540464,0.012089009089529718,0.989542775318987
2014-02-28,-1,-0.001436691204247015,-0.0011861422638300818,-0.010673783048900279,0.011224345231790852,0.9897542307908039
2014-03-04,-1,-0.0022272363604752925,-0.0018128156059568237,-0.008816286704540464,0.009894442727571374,0.9902511800606855
2014-03-06,-1,-0.0015620738152740407,-0.0012754866931971758,-0.008816286704540464,0.010760936392337748,0.9897644128698976
2014-03-10,-1,-0.0017767510792205733,-0.0014719842145314859,-0.010773793178182256,0.010760936392337748,0.9883767676804656
2014-03-12,-1,-0.0018137255314198018,-0.0015257607112365876,-0.010773793178182256,0.011224345231790852,0.9874815580692488
2014-03-14,-1,-0.0023174167098387764,-0.002025359576195062,-0.008524965619207694,0.011224345231790852,0.9875445882441642
2014-03-18,-1,-0.0013122223310926056,-0.0011486495815045416,-0.008524965619207694,0.010760936392337748,0.9885698857378956
2014-03-20,-1,-0.0012915764585540146,-0.0011419507557119727,-0.005875845908122325,0.012522520208323522,0.9880603934993172
2014-03-24,-1,-0.0012790227207548034,-0.0011298248744340275,-0.007310554442506791,0.014167993847981572,0.9875544330545656
2014-03-26,-1,-0.00020840887396878855,-0.0001795770784410126,-0.007310554442506791,0.010915177210778124,0.9890672231535547
2014-03-28,-1,-0.00031167331346840536,-0.0002625371284699418,-0.01065032095481703,0.009791386720567131,0.9880573872788172
2014-04-01,-1,-0.00045051425595234645,-0.00033417424559916195,-0.01065032095481703,0.011463668423997474,0.987948795888024
2014-04-03,-1,-0.0005650744315765016,-0.00041993217265070106,-0.010506332717103651,0.009991984097249294,0.9882518714659598
2014-04-07,-1,-0.00227942315119324,-0.0019311753236859607,-0.007571568236358913,0.009991984097249294,0.9890926158173489
2014-04-09,-1,-0.0007756153059289863,-0.0006545618552458101,-0.007571568236358913,0.013355412836017308,0.9880750887961774
2014-04-11,-1,-0.0015200879602705873,-0.0013344135167974239,-0.00389855547458573,0.014167993847981572,0.9877092709837283
2014-04-15,-1,-0.0015549174156658132,-0.0013549831487000515,-0.00389855547458573,0.014167993847981572,0.9875284078515303
2014-04-17,-1,-5.146803821150913e-05,-5.0220950154933516e-05,-0.007571568236358913,0.012191057975698149,0.9882262619212578
2014-04-22,1,0.0004515090185985245,0.0005488514047966603,-0.010740756527021646,0.011662149828833734,0.9879832814306148
2014-04-24,1,0.000369733804101234,0.00045833388887878574,-0.010740756527021646,0.012191057975698149,0.9874404459769264
2014-04-28,-1,-0.0010441842280447264,-0.0009600837606552663,0.0002305766871129543,0.012191057975698149,0.9885552521626266
2014-04-30,-1,-0.0007469964145684146,-0.0006703130949483768,0.0002305766871129543,0.011662149828833734,0.9894535479007452
2014-05-02,-1,-0.00031618244224378643,-0.00029173192866027833,-0.0007241490364490917,0.011662149828833734,0.9900172658240475
2014-05-06,-1,-0.0011043994148781137,-0.0010024570761928793,0.0002305766871129543,0.011662149828833734,0.9904089013258773
2014-05-08,1,1.6743111672926215e-05,2.6723359310821522e-05,0.0002305766871129543,0.009063736129422496,0.9924530483053502
2014-05-12,1,0.001231627429239576,0.001413271907330755,-0.00017813186129216388,0.004761394448801814,0.9942424625303926
2014-05-14,1,0.0018671926501136423,0.0021799870587039336,-0.0023940730645177918,0.004525775747438813,0.9937394691908533
2014-05-16,1,0.0010836260545442136,0.0013003140966479656,-0.00291888819853157,0.004525775747438813,0.9945079858778109
2014-05-20,1,0.001095157887806722,0.00133264292711725,-0.0023940730645177918,0.006795666714718261,0.9935820310108481
2014-05-22,1,0.0017317678184302233,0.0020709122823976828,-0.00291888819853157,0.004525775747438813,0.9940176468492451
2014-05-27,1,0.0021499460488459774,0.00256240364366341,-0.004280473073492088,0.0037289989508952244,0.9934664726316843
2014-05-29,1,0.0020455588187927904,0.0024233806134413395,-0.004280473073492088,0.0037289989508952244,0.9933574639892143
2014-06-02,1,0.0020553346695742995,0.0024324659315477118,-0.004280473073492088,0.0046507810393084294,0.9934981282952687
2014-06-04,1,0.0022837170665553595,0.0026929410429788114,-0.004888002680129858,0.003244913828681889,0.9935285549968449
2014-06-06,1,0.0027084426489530538,0.003166166216908726,-0.00538216202370653,0.002855301965985435,0.9927908906875382
2014-06-10,1,0.003185288487026045,0.003751485783591079,-0.006757102710513217,0.003244913828681889,0.9918305769183752
2014-06-12,1,0.002861313387346926,0.003394329687278541,-0.006757102710513217,0.004401434435280148,0.9920599763843142
2014-06-16,1,0.0023982355963287376,0.0028571442800143826,-0.00538216202370653,0.004429350987019126,0.992985902054355
2014-06-18,1,0.0025146404089429254,0.0028428456827457077,-0.007160311301045011,0.00417600143434142,0.9940650690147833
2014-06-20,1,0.0024092883548796082,0.0027235447786626036,-0.007160311301045011,0.004240651698676748,0.9935543927689308
2014-06-24,1,0.0018447854493432174,0.002049322696320908,-0.004639333368632309,0.0045395521248081765,0.9938386469320551
2014-06-26,1,0.0009409210410418316,0.0009530017002443122,-0.007049721576455985,0.0045395521248081765,0.9929235493342091
2014-06-30,1,0.0011644607716948126,0.001188179348773751,-0.007049721576455985,0.0045395521248081765,0.9927589729882673
2014-07-02,1,0.0014361723898818864,0.0015480020427053624,-0.009385038544456669,0.0045395521248081765,0.9905057497204952
2014-07-07,1,0.0016523735318539133,0.001813859324059246,-0.009473030486128204,0.0045395521248081765,0.9908393348514271
2014-07-09,1,0.0015820828263153344,0.001742975283455012,-0.010001888573789556,0.0045395521248081765,0.9900748763994147
2014-07-11,1,0.0014788118628346792,0.001642034736563928,-0.010014916911716918,0.00470742482196609,0.9896278437023868
2014-07-15,1,0.0012403586129561578,0.001325265974055311,-0.010014916911716918,0.00470742482196609,0.9894810052493423
2014-07-17,1,0.0010495924892336495,0.001143789667856711,-0.00862920776100028,0.006447210656633129,0.9901699206504371
2014-07-21,1,0.0008633316012159442,0.0008773936157109975,-0.00862920776100028,0.006447210656633129,0.9905764725187634
2014-07-23,1,0.001560208728924453,0.0017046459509204434,-0.00862920776100028,0.005869926819287203,0.9908489985680848
2014-07-25,1,0.001107047502600857,0.0011931237625128564,-0.008670210441282905,0.006725568779093843,0.9907966223068723
2014-07-29,1,0.0009843640437415025,0.0010578762483555862,-0.008670210441282905,0.008487605271973096,0.9905014000953827
2014-07-31,-1,-0.0011997968486560531,-0.000994116162378562,-0.0035255300375246286,0.008487605271973096,0.9923775779375551
2014-08-04,-1,-0.001504690603149281,-0.0012502972117401665,-0.001880872522050269,0.008487605271973096,0.9925527937719656
2014-08-06,-1,-0.002092302916436181,-0.0017093461481134475,-0.0016780118756778617,0.006725568779093843,0.9939187320595688
2014-08-08,-1,-0.001591998086094038,-0.0013069615809346673,-0.0016780118756778617,0.005807529738285071,0.9948247943538897
2014-08-12,-1,-0.0016962325167543773,-0.0013915458397604193,-0.0024428701493132425,0.005807529738285071,0.9945325996072376
2014-08-14,-1,-0.0013899351034323253,-0.0011182486437842998,-0.004415339538236223,0.0056705687949333275,0.9947882695370207
2014-08-18,-1,-0.0004800865334690477,-0.00036789854602733865,-0.004415339538236223,0.005207660269459676,0.9949742508680562
2014-08-20,-1,-0.00027394130338316693,-0.00018382534069752904,-0.004415339538236223,0.005207660269459676,0.9944266155561615
2014-08-22,1,3.76971095802606e-05,6.780868477980323e-05,-0.005857195921082324,0.004590226110109186,0.9939062837039168
2014-08-26,1,0.0006538330424840143,0.000706485166020872,-0.006117045545182995,0.003692050423956845,0.9935763605386662
2014-08-28,-1,-0.0006993159745560251,-0.0005032415954687548,-0.006843634595908754,0.005207660269459676,0.9926950129159118
2014-09-02,1,1.847258700567449e-05,8.773385215897316e-05,-0.006843634595908754,0.003692050423956845,0.9926176311699497
2014-09-04,-1,-0.0007495303769916583,-0.0005399396399031047,-0.007425216945921884,0.005207660269459676,0.9921867548856736
2014-09-08,-1,-0.0008776381189998868,-0.0006520445904995742,-0.007054287950433232,0.003692050423956845,0.9926271104527771
2014-09-10,-1,-0.0007485631433969715,-0.0005945153859890049,-0.007054287950433232,0.0055918701471574656,0.9917910995763191
2014-09-12,-1,-0.0007877880976767037,-0.0006365336256381076,-0.013276008492786876,0.0055918701471574656,0.9894045085205765
2014-09-16,-1,-0.0007615031491827783,-0.0006059257399037184,-0.013276008492786876,0.007636296603178891,0.9888387660259131
2014-09-18,-1,-0.0011453181049129102,-0.000863473862956518,-0.013276008492786876,0.007329256091154932,0.9893508149457927
2014-09-22,-1,-0.0019284101600025724,-0.0015828177244013705,-0.008259635283916825,0.008025215835001024,0.9897427400107929
2014-09-24,-1,-0.001445242688948434,-0.0011743960675141994,-0.009955722781342595,0.008025215835001024,0.9889759114643564
2014-09-26,-1,-0.002419470441729822,-0.0019846693636923624,-0.008259635283916825,0.009002909595425497,0.9891408661968077
2014-09-30,-1,-0.0017617563634489439,-0.0014810804832503049,-0.008259635283916825,0.009173055546085787,0.9882204932476828
2014-10-02,-1,-0.001119299209580339,-0.0009673558068941104,-0.005468002093836487,0.009173055546085787,0.9885229760774267
2014-10-06,-1,-0.0009753452092598376,-0.0008539048021498759,-0.005468002093836487,0.009338691282347726,0.9879366439355316
2014-10-08,-1,-0.0019524876336343272,-0.0016692107998244222,-0.0009489046647507061,0.009338691282347726,0.9886715942022319
2014-10-10,-1,-0.004202139392567918,-0.003647588366442872,0.0008550620007315746,0.010348397908559938,0.9888327235592363
2014-10-14,-1,-0.0038331641534229033,-0.003349789809626428,0.0008550620007315746,0.010348397908559938,0.9892011955307948
2014-10-16,-1,-0.003435624324249849,-0.0030149611792756326,0.00018289433269596367,0.010348397908559938,0.9898407436838551
2014-10-20,-1,-0.0026201459341501756,-0.0023006712910941226,-0.0009726808411294949,0.009338691282347726,0.9913481734131456
2014-10-22,-1,-0.0023864603109422676,-0.002096515766105589,4.710849512945233e-05,0.008694315039301329,0.9927716783034483
2014-10-24,-1,-0.0012842255948670568,-0.0011355773535319533,4.710849512945233e-05,0.007762530908981636,0.9940520635676621
2014-10-28,-1,-0.0002471227739805217,-0.0002455717019342157,4.710849512945233e-05,0.007468986556355401,0.9953280585777023
2014-10-30,1,9.040471803511361e-05,0.00014321074779493796,-0.001759864895710759,0.0044153649831524385,0.995675437230315
2014-11-03,1,0.000374956569075834,0.0004403466133284728,-0.001759864895710759,0.004494184677895304,0.9958578834042832
2014-11-05,1,0.00029914283110562103,0.00032967942347325986,-0.001759864895710759,0.007192803016363295,0.9955933198303838
2014-11-07,1,0.0018070648122472774,0.0021367367126754353,-0.001759864895710759,0.006178483552824596,0.9960172048954128
2014-11-11,1,0.0017373842293571529,0.0020516296865516507,-0.002874427620146985,0.004104597745869103,0.9945511015651392
2014-11-13,1,0.001493230018925575,0.0017572677232617997,-0.0029173336421763982,0.004104597745869103,0.9925295589337905
2014-11-17,1,0.0011730610193177956,0.0013946983623723051,-0.0024721467013903587,0.004104597745869103,0.9925136464321008
2014-11-19,1,0.0014596883811954608,0.00173540127941224,-0.0024721467013903587,0.007237324557545546,0.9902609796234753
2014-11-21,1,0.0017003319512840466,0.0019971448450596292,-0.0024721467013903587,0.007652299638187646,0.990091754139159
2014-11-25,1,0.0018499431203796008,0.002173753400596017,-0.002626826864505314,0.007652299638187646,0.9897241498175409
2014-11-28,1,0.0016796040685713406,0.001976690260033229,-0.004108095773003959,0.007652299638187646,0.9894290709457361
2014-12-02,1,0.001970082562604427,0.0022892622129638196,-0.009711327386528336,0.006667938366639252,0.9887291478329943
2014-12-04,1,0.002259607147822912,0.002629350292443236,-0.011677940359641715,0.006029268891673233,0.9873258586705922
2014-12-08,1,0.0025285411770961143,0.0029073397364476694,-0.012878407312538191,0.003472101335985705,0.9860863311112154
2014-12-10,1,0.0013936861056438642,0.0016454334976846309,-0.009711327386528336,0.0075633094598470795,0.9878579952919689
2014-12-12,1,0.00013516343691656916,0.00024903812731887656,-0.010432001187749495,0.0075633094598470795,0.9886615232155813
2014-12-16,-1,-0.00044384982409749555,-0.00043430801001426817,-0.011677940359641715,0.0075633094598470795,0.9880385031545075
2014-12-18,1,0.0012981421967663723,0.0015358125135702667,-0.011677940359641715,0.003472101335985705,0.9893019579230599
2014-12-22,1,0.0007043143950956556,0.0007533949707341026,-0.011677940359641715,0.0072639838724415425,0.9874691718508041
2014-12-24,1,0.0007220993768338041,0.0007637721146367811,-0.01256336802178397,0.010404302659361911,0.9862875525969385
2014-12-29,1,0.0004036485027377601,0.0004120472826821625,-0.016786569335894157,0.010404302659361911,0.9851748889417922
2014-12-31,-1,-0.00032248771966388035,-0.0002459709969972123,-0.017489734981478728,0.010404302659361911,0.984836461157628
2015-01-05,-1,-0.0014800515433473502,-0.001268706631745936,-0.016786569335894157,0.013684488455972347,0.9847950064668411
2015-01-07,-1,-0.0014449068463242253,-0.001256664047647107,-0.01510493470138445,0.013684488455972347,0.9853290570033831
2015-01-09,-1,-0.0008720240078486066,-0.000764087767482637,-0.01510493470138445,0.011057914347580295,0.9855556835274557
2015-01-13,-1,-0.001759616052759538,-0.0015612651136000303,-0.012456605815953252,0.011057914347580295,0.9864092819263821
2015-01-15,-1,-0.0025312271689696174,-0.0022474139457382795,-0.009110595237025265,0.011057914347580295,0.9866988744150814
2015-01-20,-1,-0.0016777803221653797,-0.0015248573643864007,-0.009110595237025265,0.009533220283472324,0.9872818251536105
2015-01-22,1,3.660913186361615e-05,7.804923317845887e-05,-0.009110595237025265,0.009257277915406367,0.9896783672945205
2015-01-26,1,0.00018428322771855623,0.0002608550546725753,-0.006769461775427645,0.006477675223920431,0.9910408208122429
2015-01-28,-1,-0.0010737546142384235,-0.0009936129254954908,-0.0029766571969286884,0.007732943906917375,0.9919342444893512
2015-01-30,-1,-0.0014733052607638966,-0.0013466740177201933,-0.0029766571969286884,0.00778946710159001,0.9922007692690815
2015-02-03,-1,-0.0002887181277950846,-0.0002767267255625958,-0.006769461775427645,0.00540320339732774,0.9934951616044985
2015-02-05,-1,-0.00038100880993737016,-0.00035468017532111213,-0.006769461775427645,0.00540320339732774,0.9929344891292038
2015-02-09,-1,-0.0005405312259837705,-0.0005029940114847128,-0.007080744483138289,0.00540320339732774,0.9915371884750247
2015-02-11,1,5.972682075779635e-05,0.00013260746055939252,-0.007080744483138289,0.00540320339732774,0.990754603496467
2015-02-13,-1,-9.394628470878094e-05,-9.245317556746197e-05,-0.009677895607305797,0.005988404952648312,0.9897830610224512
2015-02-18,-1,-3.191317923151666e-05,-1.0540765425470623e-05,-0.010544395008196993,0.00807997645762467,0.989071910974805
2015-02-20,1,5.5472367151766435e-05,7.277903644224503e-05,-0.011473237521424564,0.010835954005114681,0.9881988630877127
2015-02-24,-1,-0.0002738877956840219,-0.0002391161034238075,-0.012169590256916456,0.010835954005114681,0.9873244960502822
2015-02-26,1,0.00013201664689106675,0.0001443657222118175,-0.012815894111232228,0.010835954005114681,0.9868985401462035
2015-03-02,1,5.050564864993054e-05,5.059531053396106e-05,-0.01303410190587668,0.011958595532410679,0.9867359482349705
2015-03-04,-1,-0.0008633676411722524,-0.0007385585945708706,-0.01303410190587668,0.011958595532410679,0.9872226540683787
2015-03-06,-1,-0.002176262178283055,-0.0018052869550681469,-0.012242326188464606,0.007814660024188765,0.9884295604396915
2015-03-10,-1,-0.0031770347919516046,-0.002686125995711288,-0.011473237521424564,0.007814660024188765,0.9895956079347822
2015-03-12,-1,-0.002105703525460004,-0.0017468899104489373,-0.011473237521424564,0.006561297113269448,0.9907784689914276
2015-03-16,-1,-0.0016193947932849919,-0.0013446762698942833,-0.009521103973207455,0.006561297113269448,0.9915470648838846
2015-03-18,-1,-0.0016255982766118775,-0.0013559289260659823,-0.008070658176869498,0.006009044165314972,0.9922615458991799
2015-03-20,-1,-0.0011191240114049828,-0.000947254661942229,-0.008070658176869498,0.0048149451112887405,0.9922052670183772
2015-03-24,-1,-0.001102546521411286,-0.0009609789360764783,-0.002983889742759191,0.0044203980014717,0.9930023836259295
2015-03-26,-1,-0.0015419076862256027,-0.001362691042906114,-0.001451723172670614,0.0048149451112887405,0.993432445278077
2015-03-30,-1,-0.001173006742334123,-0.0010626709465785104,-0.0006301037788342052,0.0044203980014717,0.9944291914180361
2015-04-01,-1,-0.0012692183478364826,-0.0011568402182489334,-0.001451723172670614,0.0044203980014717,0.994444377766647
2015-04-06,-1,-0.0006605455670569424,-0.000651886179536872,-0.001451723172670614,0.0053400880595131685,0.9940094707247089
2015-04-08,-1,-0.0004435441735442383,-0.00042136318472448854,-0.0024406778907880575,0.004595445650879843,0.9939635329302156
2015-04-10,-1,-0.0004601611827145515,-0.00044298381558117246,-0.0017817405455721063,0.004595445650879843,0.9940669634471212
2015-04-14,-1,-0.00025903117080723756,-0.00023079025631017207,-0.004451894171638414,0.004025412218208551,0.9939769743301937
2015-04-16,1,5.192120077736193e-05,0.00012957647161645033,-0.004451894171638414,0.004219721927244647,0.9938099095142778
2015-04-20,-1,-0.0004746903674362049,-0.00044660892432080645,-0.004451894171638414,0.005380197153744541,0.994512137925482
2015-04-22,-1,-0.00021801820917889954,-0.00014861162464930005,-0.006018433577019847,0.005380197153744541,0.9944122807590124
2015-04-24,0,-3.991662265962357e-05,4.801980728028071e-05,-0.006018433577019847,0.004038652411891949,0.9946911481341046
2015-04-28,1,0.000416224263182061,0.0005899753069707097,-0.0067586413787183094,0.005380197153744541,0.993803690730183
2015-04-30,1,0.0002867437928632742,0.00045628296448004544,-0.0067586413787183094,0.005380197153744541,0.9937579241732656
2015-05-04,1,0.0010786569634655073,0.0013843836399887515,-0.0067586413787183094,0.0004365451424497947,0.9939217450378732
2015-05-06,1,0.0002347437495257882,0.00036173573473189654,-0.0070498469088895715,0.0019329232638253947,0.9938361636638208
2015-05-08,-1,-0.00014276676602954978,-0.00014148184747565177,-0.008197505682240439,0.001132606005462117,0.9937381148991709
2015-05-12,-1,-0.0007623289958054646,-0.0006747921022381,-0.0070498469088895715,0.0035847125059239454,0.9936077798697704
2015-05-14,1,0.00039858184849912937,0.0005343247503453979,-0.007666760187457434,0.0028839988722884373,0.9936623911277072
2015-05-18,1,0.0006059805839026853,0.0007903697812013954,-0.007666760187457434,0.0028839988722884373,0.9933342176297459
2015-05-20,1,0.0005370758641298857,0.0007232099271339104,-0.006529122741093704,0.007058983739174193,0.9928912934513452
2015-05-22,1,0.0003939099732061746,0.0005497664205217671,-0.006529122741093704,0.007058983739174193,0.9929069742717502
2015-05-27,1,0.00020719355720821115,0.0003103683020526379,-0.006529122741093704,0.00396190898126194,0.9933056247399976
2015-05-29,-1,-0.0005604716420759917,-0.000519582149639568,-0.006141449528368122,0.004109061723658335,0.9935001001389159
2015-06-02,-1,-0.0006474723147725914,-0.0005866821095529934,-0.006529122741093704,0.004109061723658335,0.9919237806104441
2015-06-04,-1,-0.0006989037203078169,-0.0006475917993472267,-0.006141449528368122,0.004063951359750721,0.9926169365880452
2015-06-08,-1,-0.0013072203259105399,-0.0011467834351165042,-0.006141449528368122,0.004063951359750721,0.9928566992927601
2015-06-10,-1,-0.0013813165960916756,-0.0011843550919523717,-0.006525011988435685,0.004063951359750721,0.9922916027395469
2015-06-12,-1,-0.0012548921645212409,-0.0010877809021543508,-0.006141449528368122,0.006645110254714212,0.991957360346942
2015-06-16,-1,-0.0003379332856490821,-0.0003339418651317061,-0.004587249647131989,0.006126604976546655,0.992482987498648
2015-06-18,1,8.29488385255274e-05,0.0001337483480285849,-0.004855623814429021,0.004063951359750721,0.992722714089194
2015-06-22,-1,-0.00032446269930874207,-0.0002838969712791811,-0.006262702609034938,0.004063951359750721,0.9924487865406143
2015-06-24,-1,-0.0007773409242842796,-0.000671664369472419,-0.006888771230436132,0.004063951359750721,0.9918603433691237
2015-06-26,-1,-0.00033477140153950795,-0.00032421566872002666,-0.007785872463077259,0.003984680729285917,0.9910003275082436
2015-06-30,-1,-0.0009952043847349617,-0.000907176489122869,-0.006888771230436132,0.003984680729285917,0.9925920659479335
2015-07-02,-1,-0.0009664877177034128,-0.0008750190960940102,-0.007790714028924637,0.002661065241995525,0.9920839116449149
2015-07-07,-1,-0.0009600144636528592,-0.0008799819663606397,-0.007790714028924637,0.002595973807152316,0.9922903413774672
2015-07-09,-1,-0.0010372554945720937,-0.0009616620726975646,-0.007790714028924637,0.0007541587952933292,0.9931992169996458
2015-07-13,-1,-0.0006373273650822223,-0.0006079324129080789,-0.00852115783300781,-0.00010738515404385676,0.9928075853523441
2015-07-15,-1,-0.0004853881579061865,-0.000485170484215665,-0.009095824973102908,-0.00010738515404385676,0.9920073991413074
2015-07-17,-1,-0.00033292069689874374,-0.00031841117126906897,-0.009647264226663472,-0.00010738515404385676,0.9922499811518014
2015-07-21,-1,-0.00034255521242182257,-0.0003100007570327847,-0.009647264226663472,0.0007988148291216426,0.9923909265032085
2015-07-23,-1,-0.0009357624815450742,-0.0008952740235267298,-0.011270086371045887,0.0007988148291216426,0.9917296173025061
2015-07-27,-1,-0.0021539581493050797,-0.0019623273197808804,-0.013442738587384982,0.0007988148291216426,0.9902147341505871
2015-07-29,-1,-0.0014812566505049835,-0.0013492974829764656,-0.014147056978478649,0.0007988148291216426,0.9881691066862748
2015-07-31,-1,-0.002171758370769283,-0.0019320915890049478,-0.014147056978478649,0.003030461297993197,0.9875080224181687
2015-08-04,-1,-0.0019493504777318659,-0.001772066466074794,-0.01745583072365033,0.003030461297993197,0.9856874846401384
2015-08-06,-1,-0.0018175332278458954,-0.0016592094896245428,-0.01745583072365033,0.0035642825936036317,0.9855497635870192
2015-08-10,-1,-0.00147020674195023,-0.0013488888021767702,-0.02052457121724243,0.0035642825936036317,0.9843069097958251
2015-08-12,-1,-0.001905444582565774,-0.0017423297092464371,-0.017026788874928436,0.0035642825936036317,0.9846585171306659
2015-08-14,-1,-0.0020585747553372616,-0.0018709198941928877,-0.017026788874928436,0.0035642825936036317,0.9847366723200093
2015-08-18,-1,-0.0019543730267864217,-0.0017610668136026743,-0.017026788874928436,0.005258519630285176,0.9845101991082321
2015-08-20,-1,-0.002781780506404882,-0.0024974257435196687,-0.017026788874928436,0.005258519630285176,0.9852408755658515
2015-08-24,-1,-0.003798518697379352,-0.003390123799521057,-0.014658188625906033,0.005258519630285176,0.987082263239045
2015-08-26,-1,-0.00338132367061758,-0.0030312577876652046,-0.013274793365976204,0.0038837674004013785,0.9885759067245191
2015-08-28,-1,-0.0025014743573555415,-0.002260944039778272,-0.016142642490616928,0.003177251097476553,0.9892917198699333
2015-09-01,-1,-0.0031321854204067892,-0.002820108655784097,-0.010765342419831868,0.00357046098760756,0.98957804402634
2015-09-03,-1,-0.00268235972091957,-0.0024362772686835716,-0.010765342419831868,0.00357046098760756,0.9891053375328112
2015-09-08,-1,-0.002627160510901689,-0.0024093702638381185,-0.009506254383091939,0.00357046098760756,0.9899123783349105
2015-09-10,-1,-0.003168070533663514,-0.002865040680432721,-0.007710332436973354,0.0045137256436570275,0.9900624251394278
2015-09-14,-1,-0.00301580994804523,-0.0027408641374076087,-0.010039506697241362,0.0045137256436570275,0.9895383267158355
2015-09-16,-1,-0.0026566548729728976,-0.0024390273204053167,-0.012757908115642584,0.002719986862757204,0.9896726439173907
2015-09-18,-1,-0.0030040346808969274,-0.002758955174029476,-0.010039506697241362,0.008079417848006263,0.9892936524027579
2015-09-22,-1,-0.0032616883615746266,-0.0029825515470126413,-0.008554698639928294,0.008079417848006263,0.9898304488342546
2015-09-24,-1,-0.0032635871250891527,-0.0030088427360483957,-0.006794083599999194,0.011169370908158938,0.9877839679390384
2015-09-28,-1,-0.004000910797163292,-0.0036724182368193395,-0.005194632309314631,0.011905430849772868,0.9878502888414796
2015-09-30,-1,-0.00324990404956835,-0.0030303810983934175,-0.005194632309314631,0.011351529386998124,0.9881162487603175
2015-10-02,-1,-0.0028744056609441427,-0.002689879867632291,-0.004070253489525845,0.011351529386998124,0.9880954513204184
2015-10-06,-1,-0.0018165904772453967,-0.001779254883901097,-0.004070253489525845,0.009690048057859411,0.9888266377190374
2015-10-08,-1,-0.0014939768335531186,-0.0014853269461157902,-0.00634498063533121,0.010215945588638479,0.9886035057357413
2015-10-12,-1,-0.002010148743015767,-0.001959698472786985,-0.00634498063533121,0.010215945588638479,0.9885685349633642
2015-10-14,-1,-0.0022054002310001788,-0.00213659341349516,-0.005426123071095683,0.010215945588638479,0.9887410024256194
2015-10-16,-1,-0.0012731065110482616,-0.0012171496683575141,-0.006970852911824294,0.009690048057859411,0.989078922849422
2015-10-20,-1,-0.001452704503694174,-0.0014228544863246165,-0.00634498063533121,0.010215945588638479,0.9883096542191709
2015-10-22,-1,-0.00021402048167697087,-1.2521165420686952e-05,-0.0054850461750373825,0.010215945588638479,0.9897930357707515
2015-10-26,1,1.9440017344242162e-05,0.0002471077388539498,-0.005959471900531235,0.009850650807043705,0.9899987909627328
2015-10-28,1,2.268891493315147e-05,0.00024951040978530886,-0.005297620159495691,0.009850650807043705,0.9908880694517377
2015-10-30,1,0.0008263927494810647,0.0011794127566396753,-0.005568810347385237,0.008524760589992809,0.991323732352347
2015-11-03,1,0.0013361598655372137,0.0017558726997884857,-0.005959471900531235,0.004941447509097788,0.9907694379236905
2015-11-05,1,0.0016875861415394354,0.002170797663202194,-0.006961259582505616,0.004941447509097788,0.9899675259724255
2015-11-09,1,0.00157986546838008,0.0020940778370269223,-0.008465958145885289,0.004941447509097788,0.9889090555704754
2015-11-11,1,0.0018666787755616805,0.002422372316489622,-0.011613471926592527,0.004941447509097788,0.9877212173308544
2015-11-13,1,0.0010746892575474332,0.001519021639331441,-0.015931664761376804,0.004941447509097788,0.9850588446769876
2015-11-17,1,0.0017714769678890737,0.0023093065044081304,-0.015931664761376804,0.009281154606514064,0.984844777452863
2015-11-19,1,0.002361345362106442,0.002943561458188476,-0.019252559130481194,0.003865101970598906,0.9839691630388007
2015-11-23,1,0.0022722522198381327,0.0028523357732779366,-0.019252559130481194,0.009281154606514064,0.9838818271494393
2015-11-25,1,0.002820983841852452,0.003476516489186001,-0.019252559130481194,0.009549543144704376,0.9816574269166768
2015-11-30,1,0.0029088510207069844,0.0035665930630894727,-0.019252559130481194,0.013167734582084117,0.9816001706695933
2015-12-02,1,0.0026560604767075953,0.003313841011507541,-0.01605912188997663,0.013167734582084117,0.9819483621395803
2015-12-04,1,0.0028373777694849695,0.00351826745314951,-0.017945113569176517,0.008393186858238545,0.9822303192456758
2015-12-08,1,0.0018597449186457122,0.0024388509806683783,-0.01987625752338617,0.008393186858238545,0.9819544858097042
2015-12-10,1,0.0012296309499190393,0.0017080133976455814,-0.017945113569176517,0.008393186858238545,0.9824082157523301
2015-12-14,-1,-0.0015451532047448936,-0.0014739545200618122,-0.013865927589562007,0.013167734582084117,0.9853550144722379
2015-12-16,-1,-0.0008347391799113152,-0.0007079339533490275,-0.017945113569176517,0.008099225698402155,0.9849971996039079
2015-12-18,-1,-0.0014144742187296626,-0.0013663693431430301,-0.013591090766275356,0.012119291513433847,0.9857769555503414
2015-12-22,-1,-0.0008771750611027236,-0.0007836988908794047,-0.013591090766275356,0.012119291513433847,0.9851133332304255
2015-12-24,1,5.527065563759386e-05,0.00026366744968205926,-0.018730105437105293,0.012119291513433847,0.9840669025425139
2015-12-29,1,0.0003556277650821984,0.0005907357756924422,-0.018730105437105293,0.00979314294508805,0.9843052496124974
2015-12-31,1,0.0001508936121199652,0.00037116501659643973,-0.023448824350291202,0.01224218557931694,0.9818320996519054
2016-01-05,-1,-0.0004960479055702758,-0.00039231944482660667,-0.026099499209255604,0.013850906725938635,0.9799395529959755
2016-01-07,-1,-0.0020578546076338053,-0.0019627848540893066,-0.014939354949905512,0.01522626167452525,0.9810352976926668
2016-01-11,-1,-0.002298142775288042,-0.002196717833969923,-0.024077720122369285,0.01522626167452525,0.9795156922157611
2016-01-13,-1,-0.003145592115384133,-0.0028850124324195886,-0.024077720122369285,0.014151795266135525,0.9796712820856828
2016-01-15,-1,-0.004527783356376488,-0.0040223247711500135,-0.015545505557447013,0.025199976858710095,0.9773052967200887
2016-01-20,-1,-0.0038886398445631487,-0.0034852095542593896,-0.015545505557447013,0.025199976858710095,0.9767335346427822
2016-01-22,-1,-0.002061772342513421,-0.0019216454439043742,-0.01954699424196429,0.02618889962740549,0.9767852657550278
2016-01-26,-1,-0.0032797427621695015,-0.0029397449687216916,-0.012732441462938494,0.018918852458657553,0.9799096729907172
2016-01-28,-1,-0.0030809144564344607,-0.0027835867172225403,-0.012732441462938494,0.027382201572292757,0.9781079246975858
2016-02-01,-1,-0.0024363960544110455,-0.002229381826121747,-0.00907378241715878,0.027382201572292757,0.9796938297683503
2016-02-03,-1,-0.0034223019841166068,-0.0030754910222862203,-0.005938482973290169,0.027382201572292757,0.9807709995688437
2016-02-05,-1,-0.002421366549787963,-0.002190486307341169,-0.005938482973290169,0.018503785867035293,0.9817597018848441
2016-02-09,-1,-0.003549596900980506,-0.003207705218133172,-0.005938482973290169,0.018503785867035293,0.9824179491088659
2016-02-11,-1,-0.004535199415813649,-0.004043802572744443,-0.005938482973290169,0.027382201572292757,0.9812211590025773
2016-02-16,-1,-0.0022900086714830216,-0.002045933001271781,-0.009150012107667749,0.01453649909738721,0.9840526779642045
2016-02-18,-1,-0.0017751841451002937,-0.0015639250465715937,-0.009150012107667749,0.021891349771318232,0.982738632533665
2016-02-22,-1,-0.0017095838146063969,-0.001484666018773288,-0.007353655072034195,0.016704693141047222,0.9843741854924546
2016-02-24,-1,-0.0016380756781454308,-0.0014456420506532514,-0.009150012107667749,0.016704693141047222,0.9839657793162644
2016-02-26,-1,-9.918977947843043e-05,-9.020787342002199e-05,-0.01185062848168801,0.01453649909738721,0.9851935562381164
2016-03-01,1,0.0009146621522559315,0.0011027748474643985,-0.01185062848168801,0.01453649909738721,0.986112574592499
2016-03-03,1,0.001719911137752567,0.0020226898363742284,-0.01185062848168801,0.011768393362812154,0.9865347158020142
2016-03-07,1,0.001809257434165639,0.0020858535890242104,-0.01233016485149618,0.008815186412524503,0.9858412145053369
2016-03-09,1,0.0007990564009949986,0.0009159048153100975,-0.01233016485149618,0.008815186412524503,0.9858162699506187
2016-03-11,1,0.0019287973025986938,0.0022403260432878732,-0.009838415039561746,0.0067891319370503925,0.9883322394403181
2016-03-15,1,0.0006826123139892168,0.000816402514988782,-0.003979726238987017,0.011481255722556738,0.9879126583688833
2016-03-17,1,0.002734931639800771,0.003210467192977436,-0.009084910086268584,0.007748123646868692,0.9893541633296039
2016-03-21,1,0.003067148485567379,0.003600205433569856,-0.009084910086268584,0.00830951354028227,0.9890014800703251
2016-03-23,1,0.0026819261991981595,0.0031595883880989545,-0.009084910086268584,0.011463613569891472,0.9886758225243338
2016-03-28,1,0.002822886649647051,0.003353256566304357,-0.009084910086268584,0.011463613569891472,0.9888375351558681
2016-03-30,1,0.0036520145032918998,0.004318742775064463,-0.009642654457338416,0.00830951354028227,0.9886915629320422
2016-04-01,1,0.003983108849905954,0.004702489552496757,-0.012886969353352113,0.0057213942878957084,0.9859076488801987
2016-04-05,1,0.0029362268997338258,0.003479075266417598,-0.012886969353352113,0.008362777919905112,0.9861057965881865
2016-04-07,1,0.0021573469509446157,0.002606902643841869,-0.012886969353352113,0.008362777919905112,0.9864395083523333
2016-04-11,1,0.0019350687764506495,0.0023068631037283537,-0.012886969353352113,0.008362777919905112,0.9860527760904922
2016-04-13,1,0.0037620080795463147,0.004407933422356406,-0.015123940201215758,0.007546509478104963,0.9862232914413148
2016-04-15,1,0.0041040809520996365,0.004841167818269491,-0.02100094798189669,0.00545834684521789,0.9856091291981128
2016-04-19,1,0.00458652941874265,0.005372572829655712,-0.02100094798189669,0.005072755287818392,0.9855892026368994
2016-04-21,1,0.004886225686302344,0.005735956733060949,-0.02100094798189669,0.005072755287818392,0.985377973833731
2016-04-25,1,0.0046362694596787275,0.005455895789486406,-0.02100094798189669,0.006378715957678807,0.9861559962336612
2016-04-27,1,0.004036069649423362,0.004743222608350148,-0.02100094798189669,0.010133420739914873,0.9853899826206914
2016-04-29,1,0.00253493330292461,0.0030497599426767795,-0.011492135682604857,0.010133420739914873,0.9875334652744683
2016-05-03,1,0.0015694027381095324,0.0018860734624822238,-0.011492135682604857,0.009168913001554627,0.9881944059233747
2016-05-05,1,0.000593081439448113,0.0007471571695270693,-0.011492135682604857,0.009168913001554627,0.987765286638483
2016-05-09,-1,-0.000734345884727305,-0.0005878488877091852,-0.011492135682604857,0.009168913001554627,0.9875278438676726
2016-05-11,-1,-0.0004719193259287747,-0.00039685492268836135,-0.011492135682604857,0.006722779041049833,0.9880947208425747
2016-05-13,-1,-0.001606243516768704,-0.0013512802984491585,-0.012750026975854872,0.006722779041049833,0.9880078015928355
2016-05-17,-1,-0.0011654214375253656,-0.0009954767676658815,-0.012750026975854872,0.006653316822021374,0.9877317390061038
2016-05-19,-1,-0.00044081383238851664,-0.00040240871541788724,-0.012750026975854872,0.006653316822021374,0.988416405281218
2016-05-23,1,0.00012135929246692836,0.0001717258391073243,-0.012750026975854872,0.006653316822021374,0.9883305275913286
2016-05-25,1,0.0012101273933340776,0.00137899951305346,-0.012750026975854872,0.004665632731197705,0.9891785971910104
2016-05-27,1,0.0007277720669154414,0.0008037449875093411,-0.01611769444388955,0.002174351743881608,0.9845843643140862
2016-06-01,-1,-0.0005238707540738772,-0.00037155814016089946,-0.01611769444388955,0.006694664318592897,0.9828384909930057
2016-06-03,-1,-0.0017672272280796365,-0.0014440454994959213,-0.011962728324896244,0.009660803580829314,0.9827459313071605
2016-06-07,-1,-0.0021532922824677525,-0.0017652024037765471,-0.01611769444388955,0.009660803580829314,0.9820682003066721
2016-06-09,-1,-0.0033165984163922232,-0.0027694318839155234,-0.011962728324896244,0.011632323870931258,0.9807074803199222
2016-06-13,-1,-0.0042657739794275664,-0.0036143383416880216,-0.003800310274025038,0.015444454006478483,0.980088452014192
2016-06-15,-1,-0.0038981308139896175,-0.0033355459518855076,-0.003800310274025038,0.015444454006478483,0.9801870931987883
2016-06-17,-1,-0.0038982212851793674,-0.0033121417155913676,-0.003800310274025038,0.015444454006478483,0.9801528755624269
2016-06-21,-1,-0.003558280686607653,-0.0030089886482212174,-0.00939755281047962,0.01793597594953034,0.9799825811222628
2016-06-23,-1,-0.002693483444544842,-0.0022627686190239433,-0.00939755281047962,0.012462831185281877,0.9812226769081279
2016-06-27,-1,-0.006606818034420212,-0.005677854745856392,-0.0045966240196750816,0.012462831185281877,0.9844421098599994
2016-06-29,-1,-0.004277622425268551,-0.0036645870023597517,-0.0045966240196750816,0.007799459478351892,0.9876165913855178
2016-07-01,-1,-0.004585800495061172,-0.003871066878665484,-0.00345437863287479,0.007799459478351892,0.9874385356635085
2016-07-06,-1,-0.005749701370485622,-0.004858360454764786,-0.00345437863287479,0.010390054841122078,0.9862596483919328
2016-07-08,-1,-0.0030342450962142897,-0.002569332817500611,-0.005139611814603062,0.010390054841122078,0.9880961293157424
2016-07-12,-1,-0.0019155859828048267,-0.001613316149363849,-0.00812633182722078,0.007799459478351892,0.988823050688544
2016-07-14,-1,-0.0019701946941159828,-0.0016740265426972772,-0.006018348812312174,0.007799459478351892,0.9891775766708505
2016-07-18,-1,-0.0018071629054398437,-0.0015193537155567011,-0.006018348812312174,0.00873342357486326,0.9890762570276185
2016-07-20,-1,-0.0009600445740249869,-0.0008285728201640294,-0.00471401908812542,0.006040047302555945,0.9898650548337502
2016-07-22,-1,-0.0005393270913057338,-0.0004876696348536673,-0.00471401908812542,0.008051213637956892,0.9894205438760437
2016-07-26,-1,-0.0005211724901761279,-0.0005095100709230573,-0.00471401908812542,0.009775586999920972,0.9892367467124458
2016-07-28,1,8.757595645037685e-05,0.00018221573278004292,-0.006018348812312174,0.009775586999920972,0.9889052805601
2016-08-01,1,0.0004970725531289924,0.0006030455140722654,-0.006018348812312174,0.006922004503816186,0.9904371584859303
2016-08-03,1,0.000632969269971022,0.0008018607165396289,-0.005333537644343404,0.005663644257842377,0.9923501883875459
2016-08-05,1,0.0007159540694763348,0.000831926848392329,-0.005333537644343404,0.005663644257842377,0.9928878235924238
2016-08-09,1,0.0009644704862003789,0.001198959246362627,-0.0038363847279916058,0.00652997952678992,0.9934703718425563
2016-08-11,1,0.0010503012608853906,0.001310817611142994,-0.0038363847279916058,0.00652997952678992,0.9921414467305635
2016-08-15,1,0.0011842720839529558,0.0014453853416051482,-0.006108078779569163,0.00652997952678992,0.9901369041590546
2016-08-17,1,0.0013418164353800003,0.0016149353815582117,-0.006108078779569163,0.008479055389502901,0.9895936544425876
2016-08-19,1,0.002039385595376669,0.0024366265338835896,-0.010901747933398638,0.006340356673115452,0.9892098725812988
2016-08-23,1,0.002225033412599317,0.0026610767355375355,-0.009492793914267156,0.006340356673115452,0.9888390671987289
2016-08-25,1,0.0012960544454063859,0.001569536853164688,-0.009492793914267156,0.008487769342914932,0.9883396544649995
2016-08-29,1,0.001089261632205614,0.001285464599832082,-0.017696137605972793,0.008487769342914932,0.987413626374367
2016-08-31,1,0.0013337115023011716,0.0015726920727025997,-0.017696137605972793,0.009354899148311035,0.9869479638649176
2016-09-02,1,0.0018713423064898962,0.002270670402275238,-0.009654701666858102,0.011753758078847256,0.9863423098319009
2016-09-07,1,0.0021512695486403293,0.0025882883624967594,-0.015088429769953424,0.01692539245623069,0.9848743050723237
2016-09-09,1,0.001890363871452323,0.002330576473793706,-0.01435143561062283,0.01692539245623069,0.9852681999248306
2016-09-13,1,0.0017632286176764368,0.0021932564283341804,-0.01435143561062283,0.013583150950538778,0.9852784096221738
2016-09-15,1,0.0021554630794906023,0.0026299255580080564,-0.01435143561062283,0.01097692457315785,0.9853494504658938
2016-09-19,1,0.0016941948233940595,0.002091652754309381,-0.011068245419899782,0.01097692457315785,0.9854096223871975
2016-09-21,1,0.0012329607032377065,0.0014750148148203446,-0.011068245419899782,0.012293829164104611,0.9854214720981951
2016-09-23,1,0.0007083667211283759,0.0008596514266432663,-0.009276725205337575,0.012293829164104611,0.9865256989637953
2016-09-27,-1,-4.13706648710623e-05,-2.9514837147377375e-05,-0.008193085305829368,0.012293829164104611,0.9872583927912625
2016-09-29,1,0.00010770851323291676,0.00014508049942478366,-0.009276725205337575,0.012293829164104611,0.9866632159063825
2016-10-03,1,0.0011403187545673786,0.001302898489912219,-0.011068245419899782,0.00744826524593312,0.9874168483654151
2016-10-05,1,0.001221382854723212,0.001366003799120751,-0.011362394958499923,0.0037562129979640748,0.9885976904735136
2016-10-07,1,0.0006047046256145254,0.0006677819683602831,-0.009276725205337575,0.008065351894203963,0.9891084533111308
2016-10-11,-1,-0.00019679045068322462,-0.00016388755104528347,-0.008193085305829368,0.008065351894203963,0.9907861169196266
2016-10-13,-1,-0.0003266906305380386,-0.0002983071397293513,-0.008193085305829368,0.00871891751245095,0.9856057454602898
2016-10-17,1,4.9673295307302886e-05,0.00016045812832724834,-0.00945454884265766,0.010878249175064345,0.9837176410053131
2016-10-19,1,0.0009392319357509505,0.0011634756709570566,-0.011760419901026706,0.008065351894203963,0.9844679559234655
2016-10-21,1,0.00045204207940825384,0.0005872033559556078,-0.011760419901026706,0.008310877630817975,0.9845319225912712
2016-10-25,1,0.00023314651483296786,0.00028015023762559504,-0.011760419901026706,0.00923921267612364,0.9841823800285018
2016-10-27,-1,-0.0001562083736352426,-0.00014635115884020167,-0.00786231863011231,0.00923921267612364,0.9852266237466963
2016-10-31,-1,-0.0014368387568254402,-0.0012322679697183538,-0.006555289017292444,0.00923921267612364,0.9851585251718755
2016-11-02,-1,-0.0025552532258916556,-0.002167638800561944,-0.0041688981356856995,0.010547434894111083,0.9844355450350691
2016-11-04,-1,-0.002112986392722911,-0.0017654940454832043,-0.006132850260541518,0.011606560657448086,0.9845753011081559
2016-11-08,-1,-0.0015387448448196932,-0.0012715381708202403,-0.00507374074068496,0.011606560657448086,0.9846589422761247
2016-11-10,1,0.0012598768398089887,0.0013464139830925003,-0.00507374074068496,0.011606560657448086,0.9884642799120784
2016-11-14,1,0.002355528284152903,0.0026209705697382304,-0.00507374074068496,0.009323315249212162,0.9899999514982349
2016-11-16,0,-0.0002074375542849802,8.281591406778216e-05,-0.00507374074068496,0.009323315249212162,0.9893236348978725
2016-11-18,1,0.0012652072724804826,0.0012836439397472127,-0.005633036409762303,0.011218453177538562,0.9891425167937892
2016-11-22,1,0.0016704934569025825,0.0017365982558255368,-0.005633036409762303,0.012862692349933822,0.9891213603348398
2016-11-25,1,0.001296467926505971,0.0013168939634775685,-0.005633036409762303,0.012862692349933822,0.9887728268015563
2016-11-29,1,0.001426636966505396,0.0015057678087390296,-0.005633036409762303,0.012862692349933822,0.988348985881994
2016-12-01,1,0.002514173376284887,0.002783362396357071,-0.005633036409762303,0.006842593008727971,0.9889820155572158
2016-12-05,1,0.002475427066830231,0.0027219030101656772,-0.004290066964715799,0.013316216882740428,0.9881870142345458
2016-12-07,1,0.0032297286658339586,0.003591868302539777,-0.007169674084128255,0.006842593008727971,0.9879180052249167
2016-12-09,1,0.0035122888985774717,0.003912300396160323,-0.006120569968846709,0.00447657284715249,0.9899419880446227
2016-12-13,1,0.0025449391742029927,0.0028147200144015483,-0.005077636417034976,0.00588977885125843,0.9909288146445142
2016-12-15,1,0.0016551635797977533,0.0017680560830561252,-0.005077636417034976,0.00588977885125843,0.9911895387406888
2016-12-19,1,0.0020276872084835514,0.002210636873145857,-0.004806114193914135,0.00447657284715249,0.9916703362986933
2016-12-21,1,0.0029388005911790993,0.0032985581604282727,-0.005534782644535789,0.00447657284715249,0.9909463940704193
2016-12-23,1,0.0026836747120140884,0.002983326808944529,-0.005534782644535789,0.010749201510129574,0.9899654611099836
2016-12-28,1,0.0021211007339781316,0.002387881888116998,-0.007668711656441718,0.010749201510129574,0.9895305439165499
2016-12-30,1,0.001817286565971639,0.0020028535053012433,-0.010727692306477299,0.010749201510129574,0.9889547516834705
2017-01-04,1,0.003100561577466901,0.003444862360459805,-0.010727692306477299,0.00324724786408525,0.9899253435910477
2017-01-06,1,0.0026353024417905013,0.0029314013827148743,-0.00862995646552997,0.006883999953360939,0.9902512361100018
2017-01-10,1,0.0023713688848156925,0.0026441354981266117,-0.007045789217774109,0.006883999953360939,0.9904628508554093
2017-01-12,1,0.002631124962801795,0.0029658835672756916,-0.007045789217774109,0.009980016799918974,0.9900143595381423
2017-01-17,1,0.002122223026000775,0.00238904543015395,-0.005565395444003668,0.01451280792471609,0.9897969396460224
2017-01-19,1,0.001557790650422906,0.001698990148300375,-0.007045789217774109,0.014897902800013121,0.9888387896055889
2017-01-23,1,0.002056320176157764,0.0022747243819463067,-0.007045789217774109,0.014341811753052484,0.9894099725168801
2017-01-25,1,0.0032195353804783285,0.0035984702063316036,-0.007045789217774109,0.010645865649218583,0.9905460260554845
2017-01-27,1,0.001676836753922185,0.0018282925059069097,-0.005003757508575369,0.012370667383190951,0.9914678976894402
2017-01-31,1,0.0012450104071882663,0.0013540717610434885,-0.005003757508575369,0.012370667383190951,0.9914059212838825
2017-02-02,1,0.0008467832171543965,0.0008530994511146688,-0.006218750253391105,0.012370667383190951,0.9907404412944617
2017-02-06,1,0.0006287589790139134,0.0006707772844677402,-0.006218750253391105,0.012370667383190951,0.991224674216255
2017-02-08,1,0.0005917137474686292,0.0006156367577499251,-0.005182733010486442,0.012370667383190951,0.9912111991153817
2017-02-10,1,0.0011775700400789924,0.001192426122855252,-0.005182733010486442,0.00990932208547723,0.9923519829059841
2017-02-14,1,0.0021948470474921224,0.0023666153391386077,-0.005182733010486442,0.006579694125112658,0.992854937978018
2017-02-16,1,0.0019058652732343528,0.00200817281673802,-0.005182733010486442,0.006579694125112658,0.9911243984078344
2017-02-21,1,0.001996938018715252,0.0020714816348926025,-0.00628895180145045,0.004042852738491234,0.9905408342459483
2017-02-23,1,0.0018180998683435144,0.0018653323239837562,-0.005429427574915919,0.0038907425708918017,0.9909932874759185
2017-02-27,1,0.0027384361093246382,0.002986904055588196,-0.005429427574915919,0.002574592983404584,0.9909312951890243
2017-03-01,1,0.002865364063083296,0.0031507898176453557,-0.005429427574915919,0.002574592983404584,0.9901157119421465
2017-03-03,1,0.001725412215766946,0.0018078647215882628,-0.00440352833734363,0.0038907425708918017,0.9905947531552153
2017-03-07,1,0.0006848495735006282,0.000796202223416888,-0.004439524712495816,0.0038907425708918017,0.990589665693404
2017-03-09,1,0.00025044165352018405,0.0004408527009517458,-0.004439524712495816,0.006128479454856929,0.9902400453111687
2017-03-13,0,-0.00024685114429593856,3.8827501886957625e-05,-0.004439524712495816,0.007966903686205845,0.9900564765596742
2017-03-15,1,0.0005438093122604211,0.0006920243142225225,-0.005971301412114507,0.00318740106052089,0.9891330612491536
2017-03-17,-1,-0.0005886944646709504,-0.0002822141843429604,-0.005005305142922582,0.00318740106052089,0.9912653689780977
2017-03-21,-1,-0.0013647420747697752,-0.0009792178327473118,-0.005005305142922582,0.006298963337053312,0.9916024465479879
2017-03-23,-1,-0.001688526609266765,-0.0012420719387582037,-0.006356861579162475,0.007382119270044343,0.9907447075849002
2017-03-27,-1,-0.0026707177112639856,-0.0020698574111244292,-0.006356861579162475,0.010843406154490273,0.9898102734716306
2017-03-29,-1,-0.0029410106252502947,-0.002274707813898676,-0.005005305142922582,0.010018868756103035,0.990710096053756
2017-03-31,-1,-0.002140895076186676,-0.0015935428951161157,-0.006130835164655321,0.010018868756103035,0.9903229712360734
2017-04-04,-1,-0.0026215356424688398,-0.0020292466972884806,-0.005005305142922582,0.010018868756103035,0.990622813399899
2017-04-06,-1,-0.0004652132885381181,-0.0002948678461099829,-0.005622838080630082,0.007963025753432813,0.990602672081171
2017-04-10,0,-8.955193191866013e-05,6.444531436821451e-06,-0.005622838080630082,0.010018868756103035,0.9903209802367103
2017-04-12,-1,-0.0011735327433045409,-0.0009398812380590398,-0.005622838080630082,0.010018868756103035,0.9908044310918793
2017-04-17,-1,-0.0006140670057792716,-0.00045945262261671183,-0.004935041746110558,0.009610325512656137,0.9914394254404826
2017-04-19,-1,-0.0006668109264636555,-0.0005145156549851578,-0.004935041746110558,0.009610325512656137,0.9905859614656916
2017-04-21,-1,-0.0008448422556156089,-0.0006717504040493869,-0.00432892011764042,0.007850121586611117,0.9913787703062042
2017-04-25,-1,-0.00041600522128482174,-0.0002652218979002757,-0.004935041746110558,0.007178721415670151,0.9917401390527449
2017-04-27,1,0.00011446926044114851,0.00017150926879918641,-0.0047901583331397945,0.007178721415670151,0.9919390133402213
2017-05-01,1,0.0004922038585880409,0.0004997732090417108,-0.003823775997252335,0.005466960297572879,0.9931364410470207
2017-05-03,1,0.0007514888468024214,0.0008133792898869052,-0.003823775997252335,0.007178721415670151,0.9920763691949331
2017-05-05,1,0.0008780041880015247,0.0009744563120480181,-0.00351485253964985,0.005466960297572879,0.9927188909822238
2017-05-09,1,0.0008696540431639681,0.0009201996777006697,-0.003823775997252335,0.004126647946001233,0.9929299422805093
2017-05-11,1,0.0004984976657292213,0.0005209404607656137,-0.00351485253964985,0.005360513994995874,0.992519351895673
2017-05-15,1,0.0007260403062894621,0.0007405258021068856,-0.0025365809459386114,0.005144223844940142,0.992686576265728
2017-05-17,-1,-0.00015744103028193448,-8.92999102772314e-05,-0.0010070198134978585,0.00579701938658142,0.9939728629416185
2017-05-19,-1,-0.0001788366760239373,-0.00010928104609764374,-0.0010070198134978585,0.007206580844960263,0.9931724753094159
2017-05-23,-1,-0.0011609186464794437,-0.0009391692297500112,-0.0014454216037773791,0.007206580844960263,0.9932710561109888
2017-05-25,-1,-0.0009413310659427803,-0.0007474376752531917,-0.003022886639910013,0.00579701938658142,0.9933251228423127
2017-05-30,-1,-0.0002322066888239692,-0.00018573605093934824,-0.0021092479181558437,0.006130698271065428,0.9929908333058629
2017-06-01,1,0.00034036307986610114,0.0003439602350199047,-0.005730885931051808,0.006130698271065428,0.9936853869292941
2017-06-05,1,0.00015663319520180973,0.0001971263248470934,-0.005730885931051808,0.006385354248921021,0.9931594280126862
2017-06-07,-1,-9.121231585339928e-05,-2.2834549224256303e-05,-0.005980902591735377,0.006385354248921021,0.9929063578894075
2017-06-09,1,0.00046949198941355927,0.000494355576637009,-0.005980902591735377,0.005996712041201711,0.9937702333747491
2017-06-13,1,0.0006701817926435462,0.0006781857634177959,-0.005980902591735377,0.006385354248921021,0.9935086244552382
2017-06-15,1,0.0010501321212560743,0.0011107291148660448,-0.005980902591735377,0.006537156701400603,0.9935325612467747
2017-06-19,1,0.0017547718757373073,0.001969503141677865,-0.0037098341400559594,0.005996712041201711,0.9947433787524224
2017-06-21,1,0.000715091232009634,0.0007240097385766616,-0.001457935639931997,0.006472684774991599,0.9945922152906816
2017-06-23,1,0.00013403419470674178,0.0002210414898929577,-0.001457935639931997,0.006472684774991599,0.9947299785406554
2017-06-27,1,0.00046209710295496076,0.00050875537642102,-0.0016001004420922805,0.007201106969203489,0.9945737928008974
2017-06-29,1,0.0004870718847394929,0.0005372817324309858,-0.002692808060793593,0.006472684774991599,0.9926571005926448
2017-07-03,1,0.0006414123644074409,0.0006899949006251588,-0.002692808060793593,0.005649335055086765,0.9930143613645551
2017-07-06,1,0.0009430500711567209,0.0009801992092101494,-0.002692808060793593,0.005649335055086765,0.9924650577245256
2017-07-10,1,0.0017655329625007625,0.0019648631790242007,-0.003011713471696617,0.0027987997176227323,0.992492059320636
2017-07-12,1,0.0020593704060608347,0.0023036212789604884,-0.002692808060793593,0.0019660935230553216,0.9929122985766529
2017-07-14,1,0.002465873200803777,0.002793462282809517,-0.0034417866536527383,0.0019660935230553216,0.9918654789341907
2017-07-18,1,0.002352586524691046,0.0026582150733666255,-0.00346503125603052,0.0022141311057596804,0.9917716031889011
2017-07-20,1,0.00284872491067528,0.003235949994175002,-0.007956354295318175,0.00018344765801244878,0.990493289378331
2017-07-24,1,0.002819280594141691,0.003203166951839527,-0.008461755082132968,-0.00016926789061908832,0.9903357292614628
2017-07-26,1,0.0027758231970180973,0.003114986013477701,-0.008461755082132968,-0.00016926789061908832,0.9900396450617205
2017-07-28,1,0.0008005611970132327,0.0008614717540054418,-0.004021487559802532,0.0015358396999764364,0.9937682262722161
2017-08-01,1,0.000785328604589822,0.0008435820002301035,-0.004719698090805314,0.0010525222635037591,0.9935421492598759
2017-08-03,1,0.0001328452648323569,0.00015277015058278373,-0.003996553680401494,0.0033493725632522337,0.9938419595823891
2017-08-07,1,0.00010658973722100582,0.00011299452255137363,-0.003996553680401494,0.004187577285624895,0.9920320148438733
2017-08-09,-1,-0.00028306285797494797,-0.00020011238900191175,-0.004888165019743578,0.004187577285624895,0.9915666193234111
2017-08-11,-1,-0.0014466501771775526,-0.0011923880495611687,-0.003996553680401494,0.005293556358761325,0.9921390579905145
2017-08-15,-1,-0.0013095208472272495,-0.001074981900951278,-0.004706170069859868,0.005365931999420315,0.9917880527097703
2017-08-17,-1,-0.002230225367142326,-0.0018720020904811087,-0.003996553680401494,0.006911260595614189,0.9918944733913243
2017-08-21,-1,-0.0023439490725678863,-0.0019849521555295865,-0.0030976568188368254,0.007077356253752862,0.9914211403016077
2017-08-23,-1,-0.001478055453115791,-0.0012501195323226186,-0.0033303936625044194,0.006660667963621875,0.992046527881956
2017-08-25,-1,-0.0015157103544879416,-0.0012593670907656796,-0.0033303936625044194,0.0074175503046298545,0.9914730319372121
2017-08-29,-1,-0.0015962617532867284,-0.0013449910913976295,-0.0025419163463915153,0.00862765632472654,0.9902531221108604
2017-08-31,-1,-0.0008547726806935941,-0.0006936139671028819,-0.0025419163463915153,0.0074175503046298545,0.9914053712342094
2017-09-05,-1,-0.0027694504120425473,-0.0023329962096341624,-0.001281087923353837,0.0074175503046298545,0.9923232032756064
2017-09-07,-1,-0.0030779001152250393,-0.0026263789979110433,0.00044623413667711006,0.0074175503046298545,0.9922316381323087
2017-09-11,-1,-0.002611610333303697,-0.002208615720451249,0.00044623413667711006,0.006940161638719546,0.9933348372013572
2017-09-13,-1,-0.002605277799265903,-0.002189968312222358,0.0007263725575299205,0.005413743741870352,0.9936088297423413
2017-09-15,-1,-0.0016719218561436888,-0.001408273979975485,-0.0011760979341049992,0.004758370849590837,0.9948571671444287
2017-09-19,-1,-0.0012048260570894445,-0.0010065385567586051,-0.0021209305821397024,0.0032746270632625606,0.9950757340052854
2017-09-21,-1,-0.0011629274870733966,-0.0009910785944067014,-0.0011760979341049992,0.004758370849590837,0.9950141816867624
2017-09-25,-1,-0.00046065582757257197,-0.0003696362439778565,-0.0021209305821397024,0.002962463124257708,0.9954691287837949
2017-09-27,1,0.0004235757594519802,0.0004382256177886719,-0.002562008587777308,0.002962463124257708,0.9958326707652071
2017-09-29,1,0.0006843599050937743,0.0007625870739445418,-0.003811076031974087,0.002962463124257708,0.9945157112042652
2017-10-03,1,0.0008130925345126479,0.0009018320612422196,-0.007958007473084443,0.002291246221996288,0.9937701899185153
2017-10-05,1,0.0008685681497894596,0.0009754638682576496,-0.007958007473084443,0.0045172325514957435,0.9930367686927772
2017-10-09,1,9.057069590521192e-05,0.00014668095452516328,-0.007958007473084443,0.0045172325514957435,0.9927101635446384
2017-10-11,1,0.00018269863078905195,0.0002325686381789079,-0.008443025777893111,0.0030889745881716346,0.9918532505134683
2017-10-13,-1,-0.00045267493411070515,-0.0003000576689421309,-0.010168352546442752,0.0030889745881716346,0.9914417969646743
2017-10-17,-1,-0.0005985164074219275,-0.0004371728362249125,-0.010168352546442752,0.0030889745881716346,0.9915839865325983
2017-10-19,-1,-0.0003347018272274283,-0.00019866827316397981,-0.010168352546442752,0.002512325928898561,0.9914965409131646
2017-10-23,-1,-9.859599942889426e-05,-3.441627760607187e-05,-0.009389676948326132,0.002512325928898561,0.9917760174988217
2017-10-25,-1,-0.00044139849229124744,-0.0003375977525844802,-0.008273557863228783,0.002512325928898561,0.9916883310358108
2017-10-27,-1,-0.001707305077312692,-0.0014417812595937988,-0.007817428063113058,0.002512325928898561,0.9931984686612025
2017-10-31,-1,-0.001790490750541442,-0.0015636066657725854,-0.005023702274547677,0.006713791199311325,0.9914343046556179
2017-11-02,-1,-0.0007199393606122301,-0.0006380326384977735,-0.005023702274547677,0.00352435290717091,0.9920014394568096
2017-11-06,-1,-0.0008730791991299402,-0.0007888197171083202,-0.005574388997366404,0.005554839693695759,0.9906236808354318
2017-11-08,-1,-0.0012815087816216535,-0.0011660039581908067,-0.004651852630198412,0.005554839693695759,0.9911536395322695
2017-11-10,-1,-0.002196969707856645,-0.0019534948268861816,-0.004394116304062,0.005554839693695759,0.9908766003088287
2017-11-14,-1,-0.002535831204464567,-0.002243955515084353,-0.004394116304062,0.005554839693695759,0.990612950070844
2017-11-16,-1,-0.0024531028726578557,-0.0021938762975457615,-0.004394116304062,0.007451477625887402,0.9900625290277102
2017-11-20,-1,-0.0020834584043355115,-0.0018744150519997374,-0.004394116304062,0.006089351349642184,0.9901823394915784
2017-11-22,-1,-0.0011251270901932395,-0.0010520228757263475,-0.0016933194761260628,0.0048312912969669004,0.9913828552677452
2017-11-27,-1,-0.001311465065540663,-0.0012141375221591047,-0.0017641041269742092,0.0048312912969669004,0.9910375384324649
2017-11-29,1,0.0007129269341084204,0.0009026319670370785,-0.004345683192316291,0.0039581107886605136,0.9939992217141562
2017-12-01,1,0.0012142509393444413,0.001492068671303607,-0.005381625498767382,0.003530032112804489,0.9939482060401874
