JNU-Tangyin/eata/results/Batch4_SP500/Batch4_SP500-TSCO.csv
Date,Action,Predicted_Q25,Predicted_Q75,Actual_Q25,Actual_Q75,RL_Reward
2010-12-14,0,0.0,0.003546772966699746,-0.004695194607717891,0.00569758861834807,0.9921970718405141
2010-12-16,1,0.00323323348311856,0.0035274242518539677,-0.005967136670129564,0.004886497633074476,0.9907616098004671
2010-12-20,0,0.0,0.0,-0.005967136670129564,0.005792868799405448,0.9911182621183489
2010-12-22,0,0.0,0.0,-0.010096803678849534,0.005792868799405448,0.9905575941916722
2010-12-27,0,0.0,0.0,-0.010096803678849534,0.01012977092926772,0.9887087459643602
2010-12-29,0,0.0,0.0,-0.010096803678849534,0.01218678222102703,0.9843290577385269
2010-12-31,1,0.0033162155994581693,0.003526453370168389,-0.013829284410884119,0.012833991589899566,0.983309962719789
2011-01-04,1,0.0019047670873004058,0.001948140466968626,-0.013829284410884119,0.010345507385558565,0.9846269413066058
2011-01-06,1,0.0011910601422346844,0.0012229243693351367,-0.0027133677289032146,0.01299592195359043,0.9843945281361969
2011-01-10,0,0.0,0.0,-0.003209472275592894,0.01305837907054706,0.9838246836523802
2011-01-12,0,0.0,0.0,-0.0019188254313722921,0.01305837907054706,0.9841188643885916
2011-01-14,0,0.0,0.0,-0.0017195097630903454,0.01305837907054706,0.9842381255563496
2011-01-19,0,0.0,0.0,-0.007649450170290446,0.01305837907054706,0.9840236207702122
2011-01-21,-1,-0.0005996094860161562,-0.00013222045070228079,-0.0025705247139315586,0.01305837907054706,0.9846494670456356
2011-01-25,0,0.0,0.0,-0.00834354692699787,0.008549026203007723,0.98402919593998
2011-01-27,1,0.004911811970199951,0.00521089530939894,-0.00834354692699787,0.008549026203007723,0.9874854862729402
2011-01-31,1,0.004062074201376305,0.004291919720370454,-0.00834354692699787,0.007427138848068646,0.9887027285544884
2011-02-02,1,0.0033103922646553494,0.0034019576601788306,-0.007649450170290446,0.011815700202717761,0.9877542115453379
2011-02-04,1,0.0043881292217860385,0.00465480392661987,-0.007649450170290446,0.011527139177303726,0.9878289478747481
2011-02-08,1,0.004745154822657348,0.005040259729369941,-0.007649450170290446,0.012131235735059533,0.9878299156767839
2011-02-10,1,0.004623144159018447,0.004941043185602009,-0.007745599922152029,0.012131235735059533,0.9876150524255498
2011-02-14,1,0.0031588472340769534,0.0033190619761219063,-0.00978009281832275,0.012131235735059533,0.9868682373784627
2011-02-16,0,0.0,0.0,-0.00978009281832275,0.012131235735059533,0.9869495871380083
2011-02-18,1,0.004046946176895747,0.004293641728470215,-0.00978009281832275,0.014422217381952315,0.9864974879950883
2011-02-23,1,0.0016948738997799632,0.0017512854447384264,-0.003895377632810971,0.014422217381952315,0.9887291735149314
2011-02-25,1,0.0020161284168976165,0.0020963187513424906,-0.003895377632810971,0.015049546818766866,0.9886467992116796
2011-03-01,0,0.0,0.0,-0.001335513101351997,0.016640749586481072,0.9884787417361408
2011-03-03,0,0.0,0.0,-0.001335513101351997,0.015049546818766866,0.989408888897255
2011-03-07,1,0.0016737523965103455,0.001729478123697782,0.0004970104264664136,0.015491377439721404,0.9901891470357983
2011-03-09,1,0.0030020035780526245,0.0031108343508823664,-0.001335513101351997,0.015491377439721404,0.9906715269726362
2011-03-11,0,0.0,0.0,0.0004970104264664136,0.015491377439721404,0.9897439836274864
2011-03-15,0,0.0,0.0,0.001634720532279935,0.015491377439721404,0.9904824511689511
2011-03-17,1,0.0007717262147624727,0.0011668230317160556,0.0023271769233954975,0.015491377439721404,0.9903586778702601
2011-03-21,1,0.0025895954593384346,0.002716952818707572,0.00021486813440530362,0.014382564819304876,0.9902745036581508
2011-03-23,0,0.0,0.0,0.0023131500664933056,0.015877642076687855,0.9882346161194937
2011-03-25,0,0.0,0.0,-0.002557701585274963,0.011986603774504345,0.9880894314265259
2011-03-29,0,0.0,0.0,-0.002557701585274963,0.010643771890227758,0.9885389738769881
2011-03-31,0,0.0,0.0,-0.0034627135149851366,0.010087242975322942,0.9894513459503117
2011-04-04,0,0.0,0.0,-0.004741207228548534,0.008629909688527964,0.9886841669424674
2011-04-06,0,0.0,0.0,-0.005113788270972856,0.008057432187306729,0.9883181134890199
2011-04-08,0,0.0,0.0,-0.005113788270972856,0.008057432187306729,0.9882020678250011
2011-04-12,0,0.0,0.0,-0.0050294049025637385,0.009056766287710615,0.987472361039539
2011-04-14,0,0.0,0.0,-0.008401671637180173,0.009056766287710615,0.9863614296058568
2011-04-18,1,66.30615750414009,76.7277932129386,-0.015017942083794377,0.009056766287710615,0.01378947028315873
2011-04-20,0,0.0,0.0,-0.015017942083794377,0.009056766287710615,0.9854528972663755
2011-04-25,0,0.0,0.0,-0.015017942083794377,0.011848498839648048,0.9847918022107734
2011-04-27,1,0.0040483350043261,0.004110472842422415,-0.015017942083794377,0.011848498839648048,0.9847180122330671
2011-04-29,0,0.0,0.0,-0.015017942083794377,0.013740810614124436,0.9837124430277256
2011-05-03,0,0.0,0.0,-0.015017942083794377,0.013740810614124436,0.9837378602409144
2011-05-05,0,0.0,0.0,-0.018138581278287932,0.013740810614124436,0.9824788141950496
2011-05-09,0,0.0,0.0,-0.018138581278287932,0.01912620756222925,0.9818232651689682
2011-05-11,0,0.0,0.0,-0.018138581278287932,0.015914029847342553,0.9818634685161614
2011-05-13,0,0.0,0.0,-0.02401544041182975,0.01270509871009494,0.9819440898748741
2011-05-17,0,0.0,0.0,-0.01167307676738661,0.015914029847342553,0.9824366911069748
2011-05-19,-1,-0.0006680256003820122,-0.000416017136409876,-0.01167307676738661,0.01270509871009494,0.9835445416594549
2011-05-23,-1,-0.00078151862738521,-0.0005081188289832232,-0.010067254977620375,0.015800852440509564,0.9828321663526981
2011-05-25,-1,-0.000954283200119474,-0.0006591379347787152,-0.010067254977620375,0.019127222426481832,0.9825350410940915
2011-05-27,-1,-0.0005889756486994991,-0.000262063847044386,-0.01167307676738661,0.017554424432698217,0.9825141221102364
2011-06-01,-1,-0.0019032503547952717,-0.0014040057352349032,-0.010067254977620375,0.017554424432698217,0.9832879896684952
2011-06-03,-1,-0.003123773817004288,-0.002509687582247548,-0.002107921166028368,0.017554424432698217,0.984233036584569
2011-06-07,-1,-0.0028988773514762606,-0.002271267638471325,0.0012357652718371552,0.017554424432698217,0.9831454506462355
2011-06-09,-1,-0.0034040035384345726,-0.0026951441607522652,0.0012357652718371552,0.017554424432698217,0.9832713533571094
2011-06-13,-1,-0.004321726208217589,-0.0035132354712347786,0.0003724158250379614,0.017554424432698217,0.9834947348574947
2011-06-15,-1,-0.004125768902503912,-0.0033033932911563616,0.0003724158250379614,0.015005629980053444,0.9843577882133874
2011-06-17,-1,-0.0030656339955654026,-0.0024453855586681296,-0.0017952960417157691,0.015005629980053444,0.9848554547685223
2011-06-21,1,0.0018774083951083576,0.0019669610642236305,-0.0017952960417157691,0.01181291999701063,0.9880836941381446
2011-06-23,1,0.0018062107595970594,0.0018530346854964926,-0.008274722105218391,0.011652747564791134,0.9857287261162725
2011-06-27,1,0.001208093577490548,0.0012600121443367678,-0.008274722105218391,0.010817206588927868,0.9865666349399088
2011-06-29,1,0.0019994933484634115,0.002107839702612413,-0.01130136796733165,0.008822579651041357,0.9856790752604736
2011-07-01,1,0.002545309380769938,0.002754979419702325,-0.01130136796733165,0.00793689715110906,0.9860545158761517
2011-07-06,1,0.0043129041856949145,0.004738333897749901,-0.014560140243426403,0.00793689715110906,0.9848573988153757
2011-07-08,1,0.003622173574057911,0.003968487842934475,-0.01999031276172039,0.005216647421484012,0.9817089948923762
2011-07-12,1,0.0017795444541990537,0.0019374984596020831,-0.020856451754467348,0.008667933434609339,0.9758369298264116
2011-07-14,1,0.0012606916906390132,0.001349074893277374,-0.02451640214282999,0.011652747564791134,0.9747231032333973
2011-07-18,-1,-0.0002990900678387933,-9.026460192277643e-05,-0.02451640214282999,0.014878832249304677,0.9740480627168137
2011-07-20,1,0.001009015011930521,0.0010120248817035102,-0.02451640214282999,0.013884962892298538,0.9740978865962497
2011-07-22,-1,-0.0010596933677408816,-0.0007560378246927497,-0.031260936912942856,0.006957329644804492,0.9737454790738576
2011-07-26,-1,-0.0005630644927990453,-0.0003925989479260119,-0.031260936912942856,0.01553222441629315,0.970769004463158
2011-07-28,-1,-0.001176160303840092,-0.0009329292572357692,-0.031260936912942856,0.017631706038507527,0.969788764573389
2011-08-01,1,4.880647598015956e-05,0.00023306734473145074,-0.031260936912942856,0.02334714342573738,0.9671825272118227
2011-08-03,-1,-0.0012458877903690159,-0.0009016087737946552,-0.02542755912029191,0.02334714342573738,0.9700287354584618
2011-08-05,-1,-0.004731489458433621,-0.00393661431571791,-0.022680143647884177,0.02334714342573738,0.9722083241032077
2011-08-09,-1,-0.003758549025756384,-0.003154556566800603,-0.016279638467256826,0.02334714342573738,0.9773834953209134
2011-08-11,-1,-0.0035370904526947494,-0.0030231168445082274,-0.011468697511748317,0.01979868513905924,0.9778324248171438
2011-08-15,-1,-0.002763747279547284,-0.0022427297689286306,-0.011468697511748317,0.022355800117104987,0.9773792400230095
2011-08-17,-1,-0.003134029286287863,-0.002619992061028353,-0.0035786040258036053,0.022355800117104987,0.9774350259135148
2011-08-19,-1,-0.005398734613339824,-0.004662188222175873,0.0021924704896253986,0.022355800117104987,0.9782658905244991
2011-08-23,0,0.0,0.0,-0.0035786040258036053,0.02159009078976272,0.9823281196658582
2011-08-25,0,0.0,0.0,-0.0035786040258036053,0.021916461428079077,0.9820383023905332
2011-08-29,0,0.0,0.0,-0.004799071390194403,0.01840217840085081,0.9837702481596813
2011-08-31,1,0.0032984660601606424,0.003584631423623301,-0.007736993851809526,0.01840217840085081,0.9837957014097574
2011-09-02,1,0.002097456351365645,0.002213745255645505,-0.016686097214290277,0.01840217840085081,0.9797522933120705
2011-09-07,1,0.004397568730730389,0.004870402490026569,-0.016686097214290277,0.01840217840085081,0.9799803257759225
2011-09-09,1,0.0049311824521963525,0.005388047426619569,-0.016686097214290277,0.018999313617751968,0.979622628074318
2011-09-13,1,0.006704048687983294,0.007441178061113787,-0.016686097214290277,0.014462460288858562,0.9802810935947123
2011-09-15,0,0.0,0.0,-0.016686097214290277,0.015273235634489572,0.9797181555437326
2011-09-19,0,0.0,0.0,-0.016686097214290277,0.015273235634489572,0.9801718788105652
2011-09-21,0,0.0,0.0,-0.010938535476958645,0.015273235634489572,0.9813264118254877
2011-09-23,0,0.0,0.0,-0.005866251931910776,0.017731902274920622,0.9787023071609952
2011-09-27,0,0.0,0.0,-0.010938535476958645,0.015273235634489572,0.9785973147009852
2011-09-29,0,0.0,0.0,-0.003458790429358175,0.01723876316178544,0.9789469551218728
2011-10-03,0,0.0,0.0,-0.002012902807225447,0.01723876316178544,0.9822351469516345
2011-10-05,0,0.0,0.0,-0.002012902807225447,0.01723876316178544,0.9834398636389635
2011-10-07,0,0.0,0.0,-0.002012902807225447,0.015117636131290519,0.9853871980653878
2011-10-11,1,0.003104478079201835,0.0031434627864976184,-0.0014805215199730545,0.011289529689875016,0.9865739716192123
2011-10-13,1,0.0036844807520341944,0.003823947065682526,-0.001980130269235887,0.009632940626295841,0.9856164619728993
2011-10-17,1,0.003405220461112504,0.003495369902202894,-0.001980130269235887,0.012154908973564284,0.9842943853137897
2011-10-19,1,0.00299877198744167,0.0030948151648366074,-0.0018846283119524165,0.014361813995620566,0.9847284222135594
2011-10-21,1,0.005825284728139119,0.006245678699240666,-0.006061639855376502,0.007651230158854842,0.986992641905701
2011-10-25,1,0.004527802046388846,0.004694152354811035,-0.0051041351025252184,0.007651230158854842,0.9878586100616102
2011-10-27,1,0.006257201310360332,0.006669557542184684,-0.012842452039857418,0.0051797823983303105,0.984551425317746
2011-10-31,1,0.004589919502522449,0.004772003926471575,-0.007737605576566234,0.011233954917337204,0.9863946550517677
2011-11-02,1,0.005800066717244996,0.0061236407145545775,-0.007737605576566234,0.011233954917337204,0.9856202442368814
2011-11-04,1,0.005703867813988945,0.00603337320236489,-0.007737605576566234,0.014256394959503944,0.984911217349521
2011-11-08,1,0.005773932679681773,0.006113679327435131,-0.008938040080927674,0.014256394959503944,0.9839466351508986
2011-11-10,1,0.006241916681492216,0.006797678957278995,-0.008938040080927674,0.016849051742379724,0.9834119607914571
2011-11-14,1,0.007004162177148622,0.007691884056412177,-0.015469279805136252,0.014256394959503944,0.9825751941378118
2011-11-16,1,0.006316676889603845,0.00689352149697845,-0.01894294249469842,0.014194790211326878,0.9819198883673993
2011-11-18,1,0.005512201796986286,0.0059781225636761975,-0.017685303755713436,0.016849051742379724,0.9824708939003903
2011-11-22,1,0.005227063024708683,0.005679672865070606,-0.017685303755713436,0.016849051742379724,0.9824537815900228
2011-11-25,1,0.0036363205027195333,0.004007990348170613,-0.01508694421079216,0.016849051742379724,0.9843053589731074
2011-11-29,1,0.004744328034364122,0.005251871669581657,-0.01508694421079216,0.01567797619820967,0.984435161485028
2011-12-01,1,0.004469669374974836,0.004862969449977139,-0.016939585494145253,0.013859245890374565,0.9844734586756284
2011-12-05,1,0.004647263593621742,0.005022499714993904,-0.016939585494145253,0.012363018240371783,0.9846094952808575
2011-12-07,1,0.004596414650668756,0.004941319749982517,-0.016939585494145253,0.006140892216548923,0.9854358267223319
2011-12-09,1,0.005346109278756597,0.005860451786765324,-0.014965816655050796,0.012215130602141645,0.9860719585934007
2011-12-13,1,0.003241161055098065,0.0034241182562227837,-0.006120097101476601,0.01341558297568415,0.9840188659501469
2011-12-15,1,0.0027886474877918763,0.0028751769494697885,-0.004863723995091207,0.01341558297568415,0.9857486157319385
2011-12-19,1,0.0015367072685122088,0.0016765383604688397,-0.004863723995091207,0.01074022860856261,0.9865809854248586
2011-12-21,1,0.0022914297280943116,0.002320766137166824,-0.005028728531505702,0.007204231528620199,0.9869590301599723
2011-12-23,1,0.0009675787811713031,0.0012423417456386698,-0.004863723995091207,0.007204231528620199,0.9882162082551598
2011-12-28,-1,-0.0009906511976593806,-0.0002914065615191089,-0.005028728531505702,0.006504224217297192,0.9881703166261946
2011-12-30,-1,-0.002479034537083081,-0.0017886164621005046,-0.001342625309531448,0.006504224217297192,0.9879974975066272
2012-01-04,0,0.0,0.0,-0.0011156150534296964,0.007964559636702175,0.987433555747678
2012-01-06,-1,-0.002419515741793757,-0.001798616429479112,-0.0011156150534296964,0.01091482818351747,0.9855652683188708
2012-01-10,-1,-0.0013937978566856914,-0.0008248612155817468,-0.0024803040243084975,0.010134336857584136,0.9855943237561784
2012-01-12,1,0.0006201167005057788,0.0009397526850131332,-0.0034381978307405124,0.007964559636702175,0.9907352442887329
2012-01-17,1,0.0017802556817618966,0.0018263888763683676,-0.0034381978307405124,0.010134336857584136,0.9899133799767262
2012-01-19,1,0.000876218680306282,0.0010617102096134598,-0.0037882062612450834,0.008034314923615114,0.990212981542565
2012-01-23,1,0.0019022182546082377,0.0019223669424701017,-0.004309257243616638,0.008113938934226801,0.9899045647478706
2012-01-25,0,0.0,0.0,-0.004309257243616638,0.01091482818351747,0.9892701810280404
2012-01-27,0,0.0,0.0,-0.004011220516565763,0.013056906711778588,0.9881040906444605
2012-01-31,0,0.0,0.0,-0.00812551559963367,0.013056906711778588,0.9873673942751994
2012-02-02,0,0.0,0.0,-0.00812551559963367,0.014950888988520443,0.9874737083798792
2012-02-06,1,0.0016693653771470303,0.0017430955654486745,-0.009921035120724108,0.00911356653209889,0.9878030033177597
2012-02-08,1,0.0016945031588158632,0.00176456252826953,-0.00812551559963367,0.00911356653209889,0.9894747736333389
2012-02-10,1,0.0020646693755647172,0.002261555784855372,-0.00812551559963367,0.00911356653209889,0.9895570002337657
2012-02-14,1,0.0013456271979043564,0.0013798436530873032,-0.00812551559963367,0.008218371562679095,0.9898176594492835
2012-02-16,1,0.002072905370477135,0.002274040168742325,-0.00812551559963367,0.008218371562679095,0.9892995320275453
2012-02-21,1,0.0020688892194584826,0.0022729193801016233,-0.008065948246229011,0.0074690901462712185,0.9896472355836355
2012-02-23,1,0.0006860175642991209,0.0007105570790649307,-0.008065948246229011,0.0074690901462712185,0.9900378298024388
2012-02-27,1,0.0015300101352894082,0.0016640110666169365,-0.009921035120724108,0.0074690901462712185,0.9882564507208598
2012-02-29,1,0.00024736989545427594,0.0005056886491483657,-0.004864388172240275,0.0074690901462712185,0.9895635429621701
2012-03-02,1,0.0010563598338454905,0.0011522003985833295,-0.004586500501217486,0.006050460177352089,0.9906358470844643
2012-03-06,1,0.0005592842861855133,0.000717896756342938,-0.0023128905093079116,0.010776176573954554,0.9901792144147199
2012-03-08,1,0.0014403318679105477,0.0014700098441543569,-0.003097786615675083,0.008519988188082474,0.9906344060110188
2012-03-12,1,0.0012712210705700848,0.001310006345133835,-0.004586500501217486,0.008519988188082474,0.9894006759582944
2012-03-14,1,0.0007916008822044078,0.0009167336033966603,-0.0036498391881066173,0.010918705359029647,0.9866536976917756
2012-03-16,1,0.001190712249566035,0.0012724957015968032,-0.0029830501211820285,0.010918705359029647,0.9874042602196126
2012-03-20,1,0.002026647611351278,0.002365855384533746,-0.0029830501211820285,0.011266365052938388,0.9874117215419896
2012-03-22,1,0.001758164733649772,0.0018698891694536794,-0.0035915463928393766,0.011266365052938388,0.9871522748182255
2012-03-26,1,0.0022489550751530877,0.0024363002356228474,-0.0035915463928393766,0.008632830289512715,0.9894933623734848
2012-03-28,0,0.0,0.0,-0.0035915463928393766,0.008632830289512715,0.9891850005625771
2012-03-30,0,0.0,0.0,-0.0035915463928393766,0.011266365052938388,0.9880738045832352
2012-04-03,0,0.0,0.0,-0.0035915463928393766,0.008686493704598012,0.988617607440379
2012-04-05,0,0.0,0.0,-0.007849542085256652,0.007256124679868411,0.9875142291561926
2012-04-10,0,0.0,0.0,-0.005765790794682923,0.007256124679868411,0.988496293863464
2012-04-12,0,0.0,0.0,-0.005765790794682923,0.006695250310080448,0.991366985348501
2012-04-16,0,0.0,0.0,-0.005765790794682923,0.009266398605683956,0.9910100936804813
2012-04-18,1,0.0022243489498382767,0.002441407158029956,-0.007849542085256652,0.009266398605683956,0.9905130306731407
2012-04-20,0,0.0,0.0,-0.01010111536457382,0.009266398605683956,0.9882900217915419
2012-04-24,1,0.0022596205080685503,0.0022713690102486306,-0.00840931981595128,0.01046047096383751,0.9867675342191691
2012-04-26,1,0.0029349024906694717,0.003049871695352279,-0.00840931981595128,0.012667511023980678,0.9860483385427332
2012-04-30,0,0.0,0.0,-0.00840931981595128,0.010971790064217453,0.9838485346043409
2012-05-02,0,0.0,0.0,-0.013726540248892345,0.010971790064217453,0.9820171434550745
2012-05-04,0,0.0,0.0,-0.02203648308203463,0.010971790064217453,0.9804299207409319
2012-05-08,0,0.0,0.0,-0.02203648308203463,0.013699586234795752,0.9788210181273678
2012-05-10,0,0.0,0.0,-0.02203648308203463,0.013699586234795752,0.9788252279654442
2012-05-14,0,0.0,0.0,-0.024604773740724416,0.01589705323404262,0.977244077620109
2012-05-16,1,0.0010942040584409466,0.0012928382837508454,-0.030735214122591885,0.020829272369855517,0.9748058856394997
2012-05-18,0,0.0,0.0,-0.02012267779076127,0.022208518449032943,0.9760089629532399
2012-05-22,0,0.0,0.0,-0.02012267779076127,0.01589705323404262,0.9777705531503507
2012-05-24,0,-0.00017842340149458588,0.00011777624704992651,-0.02370182736087014,0.01589705323404262,0.977097486137172
2012-05-29,-1,-0.0033663553368216783,-0.002534160177032642,-0.02012267779076127,0.01589705323404262,0.9806350672211649
2012-05-31,-1,-0.004112528749611419,-0.0031822372392044055,-0.02012267779076127,0.013361603508662959,0.9807367524812431
2012-06-04,-1,-0.005906788059248377,-0.004838726354338635,-0.01598568511728997,0.014575256296666325,0.9816184583167621
2012-06-06,-1,-0.002615210716475646,-0.0020845485579511413,-0.01598568511728997,0.011762970576278465,0.9833686277661138
2012-06-08,-1,-0.0032919416741894704,-0.002680159571144431,-0.015460848709478229,0.011762970576278465,0.9837481004777076
2012-06-12,0,0.0,0.0,-0.015460848709478229,0.01042078047594686,0.9835511547374826
2012-06-14,0,0.0,0.0,-0.015460848709478229,0.01042078047594686,0.9844074955028508
2012-06-18,0,0.0,0.0,-0.017840452302760525,0.006870606010435753,0.9846806518044906
2012-06-20,0,0.0,0.0,-0.017840452302760525,0.010005798789188078,0.9837839992904827
2012-06-22,-1,-0.0039110008454055845,-0.0033332247269454098,-0.016956297187582507,0.01063951253868253,0.982397874712477
2012-06-26,-1,-0.004169942966194162,-0.0035679922881790968,-0.02290989984872646,0.01063951253868253,0.9814043369316626
2012-06-28,-1,-0.005884837486681364,-0.005002316084743819,-0.012954687365583726,0.012952592454680638,0.9785856026795635
2012-07-02,-1,-0.004558649962434721,-0.0038603230008123378,-0.014068269508980122,0.010532092064980906,0.9797417269595821
2012-07-05,-1,-0.004619405499468066,-0.0039033816119133716,-0.02290989984872646,0.012625772826853832,0.9784749892396204
2012-07-09,0,0.0,0.0,-0.02290989984872646,0.012950311993408337,0.9775086585157454
2012-07-11,0,0.0,0.0,-0.014068269508980122,0.01420126108979686,0.9788161439313287
2012-07-13,0,0.0,0.0,-0.011679447929613541,0.012950311993408337,0.9805564218731425
2012-07-17,-1,-0.0052156260120119115,-0.004518914380461029,-0.009804096761311857,0.012950311993408337,0.9812180310983661
2012-07-19,-1,-0.0028614653714624408,-0.002497020702657427,-0.009804096761311857,0.012950311993408337,0.9820186373430027
2012-07-23,-1,-0.0033245815161130226,-0.00283759540174498,-0.007670620333104323,0.012950311993408337,0.9845284156805505
2012-07-25,-1,-0.004251916679211983,-0.0036816911834890694,-0.006648732629273825,0.01420126108979686,0.9841508917972971
2012-07-27,-1,-0.0023712064523245067,-0.00201458189711078,-0.004275692513811282,0.012950311993408337,0.9896105067773725
2012-07-31,-1,-0.002275504861211663,-0.001955267750877498,-0.0029104564143826676,0.012950311993408337,0.989650039121897
2012-08-02,-1,-0.00242421061038233,-0.0020885119098705976,-0.004111116805815785,0.011068064121700388,0.9913997362969137
2012-08-06,-1,-0.002212524936441667,-0.0019039590717479203,-0.003483710250370705,0.011720611740872938,0.9900051455092787
2012-08-08,0,0.0,0.0,-0.005995454021775396,0.008818603376692151,0.9897799969318648
2012-08-10,0,0.0,0.0,-0.0026826407693066982,0.008818603376692151,0.9906041473862738
2012-08-14,0,0.0,0.0,-0.003483710250370705,0.008818603376692151,0.9902744227772147
2012-08-16,0,0.0,0.0,-0.00701166523224702,0.003132071292426071,0.9908363930599436
2012-08-20,0,0.0,0.0,-0.007607253427937279,0.0028622106241061544,0.9907860348188668
2012-08-22,0,0.0,0.0,-0.007607253427937279,0.0009585688463754206,0.9919522619405804
2012-08-24,1,0.005984358878412752,0.006053292806945008,-0.007607253427937279,0.0015991047050669571,0.9888748096810485
2012-08-28,1,0.0011506648494282125,0.0013679007301812074,-0.007607253427937279,0.0012639422010671444,0.9914935632001892
2012-08-30,1,0.00018261873328593838,0.0002128639086988777,-0.007725965745311716,0.003223534406673485,0.9906740626020972
2012-09-04,0,0.0,0.0,-0.008092701553190277,0.0014874655363973956,0.9922282136422523
2012-09-06,0,0.0,0.0,-0.007725965745311716,0.0014874655363973956,0.992738569366609
2012-09-10,0,0.0,0.0,-0.008092701553190277,0.003223534406673485,0.9910318030328173
2012-09-12,0,0.0,0.0,-0.008062077501939456,0.003223534406673485,0.9903379179002254
2012-09-14,0,0.0,0.0,-0.008156089147180419,0.003223534406673485,0.9905772732039453
2012-09-18,0,0.0,0.0,-0.008156089147180419,0.0014874655363973956,0.9908154010627181
2012-09-20,0,0.0,0.0,-0.008156089147180419,0.003223534406673485,0.990533721171433
2012-09-24,0,0.0,0.0,-0.009143974241366794,0.0032361142066132565,0.9894786412625092
2012-09-26,-1,-0.0010916668010245026,-0.000990086122619132,-0.009143974241366794,0.004619527048816574,0.9896932806099229
2012-09-28,1,0.003131627741835827,0.003710455720007646,-0.009143974241366794,0.0018352078403369798,0.9883388214517541
2012-10-02,1,0.0030886059435124556,0.0036880750072832732,-0.008778108171382162,0.006002545558404452,0.9868997993239718
2012-10-04,0,0.0,0.0,-0.009766777565995408,0.004619527048816574,0.9877216767985135
2012-10-08,0,0.0,0.0,-0.013723018235850142,0.0018628865203063247,0.9880537844087476
2012-10-10,0,0.0,0.0,-0.009272099241130892,0.004438334165535754,0.9893034821684134
2012-10-12,1,0.002350396677300672,0.0028607558709245,-0.010613604741250764,0.004438334165535754,0.9883599074847439
2012-10-16,0,0.0,0.0,-0.013087872201859311,0.004438334165535754,0.9875250509434645
2012-10-18,0,0.0,0.0,-0.013087872201859311,0.005562712241436689,0.986373915375093
2012-10-22,1,0.0006417017906168895,0.0008375574409253102,-0.009677439371791082,0.005925172959870876,0.9871885276151431
2012-10-24,0,0.0,0.0,-0.010446646514947663,0.006153929786832052,0.986508441358751
2012-10-26,0,0.0,0.0,-0.009677439371791082,0.008046941074235224,0.9872241400850651
2012-11-01,0,0.0,0.0,-0.009677439371791082,0.005070715323949948,0.9892062677858358
2012-11-05,0,0.0,0.0,-0.009713890761321878,0.005070715323949948,0.9870394798856977
2012-11-07,0,0.0,0.0,-0.009448106493369322,0.0061959158395155645,0.9879501999955745
2012-11-09,0,0.0,0.0,-0.009713890761321878,0.008634409778588354,0.986950762479952
2012-11-13,0,0.0,0.0,-0.009758647879682388,0.010272325069234981,0.9864690335787556
2012-11-15,0,0.0,0.0,-0.008760092742096999,0.010272325069234981,0.9882440894930911
2012-11-19,-1,-0.0015451241051709246,-0.0014451282091503528,-0.008760092742096999,0.010272325069234981,0.9885139957775189
2012-11-21,0,0.0,0.0,-0.008760092742096999,0.011824213370082411,0.9876133730277578
2012-11-26,0,0.0,0.0,-0.008760092742096999,0.011824213370082411,0.9880430876917868
2012-11-28,0,0.0,0.0,-0.009867538761645539,0.007839621579763093,0.988047168533677
2012-11-30,0,0.0,0.0,-0.009867538761645539,0.01038930150206487,0.9880271643465919
2012-12-04,0,0.0,0.0,-0.003202694594398706,0.012056859389448078,0.9894855706746861
2012-12-06,-1,-0.00491610299793916,-0.004266807813354568,-0.005506411398982947,0.011413684867061387,0.9885393421812408
2012-12-10,-1,-0.00532884772730189,-0.004576804432718285,-0.003202694594398706,0.01672576858445599,0.9875890801507665
2012-12-12,-1,-0.004410305464281422,-0.00381063601969285,-0.003715890097880326,0.011809384382316645,0.988859146415483
2012-12-14,-1,-0.0039500929079725805,-0.003430044781729971,-0.003715890097880326,0.011809384382316645,0.9884509074064625
2012-12-18,-1,-0.004591764354601176,-0.004024367125961004,-0.0026745345372974176,0.01042838784741226,0.9883850682126806
2012-12-20,-1,-0.00201913652944738,-0.0018467691774065968,-0.0026745345372974176,0.009661673096663872,0.9906399697422426
2012-12-24,-1,-0.002874615357442315,-0.002581118188322632,-0.0026745345372974176,0.01042838784741226,0.9893046649405751
2012-12-27,0,0.0,0.0,-0.0026745345372974176,0.011858943951767172,0.9891909452177846
2012-12-31,-1,-0.0022951578204236144,-0.0019622974528720593,-0.0048698978863723815,0.011858943951767172,0.9887030589504159
2013-01-03,-1,-0.00037166105022908697,-0.0003213174824694354,-0.0048698978863723815,0.011858943951767172,0.9861610013786456
2013-01-07,-1,-0.0012012117672740956,-0.0010166212546483056,-0.0048698978863723815,0.013598474167571449,0.9851370196010304
2013-01-09,0,0.0,0.0,-0.0059630903604586585,0.00991515094947349,0.9868296518475274
2013-01-11,0,0.0,0.0,-0.0059630903604586585,0.01000242976522591,0.986967619823458
2013-01-15,0,0.0,0.0,-0.0059630903604586585,0.01000242976522591,0.9873463373640927
2013-01-17,0,0.0,0.0,-0.0059630903604586585,0.007130171651897224,0.9877911671986312
2013-01-22,0,0.0,0.0,-0.007955766179721087,0.007130171651897224,0.9867815121310142
2013-01-24,0,0.0,0.0,-0.006926901438281368,0.005166987535460411,0.9878741573891096
2013-01-28,1,0.0007239610143585842,0.0009959279415276373,-0.005633256518193919,0.005166987535460411,0.9891970054696109
2013-01-30,1,0.0014818945537742692,0.0019124728203080477,-0.0037130371030096735,0.007106658171924483,0.9892515338048459
2013-02-01,1,0.002887416130409085,0.003535490807776087,-0.005633256518193919,0.006495803104419369,0.9931205962155202
2013-02-05,1,0.002545428551830235,0.0031320905142127008,-0.0037130371030096735,0.005988763536458671,0.9943665526110504
2013-02-07,1,0.001953073102775457,0.0024205644127384025,-0.003368451406857407,0.006495803104419369,0.9942797618521151
2013-02-11,1,0.0017124055031520471,0.002111498433923423,-0.004502271488302562,0.005988763536458671,0.9941067622696881
2013-02-13,1,0.0017706897265786677,0.002179128649449984,-0.004502271488302562,0.005988763536458671,0.9939401092140165
2013-02-15,1,0.002207344372919174,0.002684241028607002,-0.00630538377171296,0.005763268290108934,0.9933286720106153
2013-02-20,1,0.0013885719269983161,0.001766480438708966,-0.006261217474235782,0.006179993066688689,0.9935197811199247
2013-02-22,1,0.0014559257606013875,0.0018445494894796975,-0.004923148256962545,0.006179993066688689,0.9936865841465251
2013-02-26,1,0.0021914406252957312,0.002699600595990625,-0.006223052985290602,0.005763268290108934,0.9936697211367029
2013-02-28,1,0.0026147490485797353,0.003162189839717426,-0.006223052985290602,0.005763268290108934,0.9931929451008105
2013-03-04,1,0.0028441758095669135,0.0034525551834888543,-0.006223052985290602,0.004723084153461858,0.9928004350193964
2013-03-06,1,0.003226920102444949,0.003916013002294865,-0.006305908939272376,0.005371256370653329,0.9916209335089357
2013-03-08,1,0.002792383261266493,0.0033517077071016804,-0.006305908939272376,0.010167408517669842,0.9903173417226545
2013-03-12,1,0.002112412906177426,0.0025406659546880245,-0.004938045411974742,0.010167408517669842,0.9913178230620361
2013-03-14,1,0.0017002118083457203,0.002032380783869695,-0.006305908939272376,0.010167408517669842,0.9909379864274649
2013-03-18,1,0.0013741066778613495,0.0016615752938032757,-0.006305908939272376,0.010167408517669842,0.9901391739527635
2013-03-20,1,0.0014665202737312627,0.0017438380183121653,-0.004938045411974742,0.008958554313382095,0.9909773435883987
2013-03-22,1,0.0014238875880954512,0.0017037878620871447,-0.003085582345532314,0.012665380519341648,0.9899130132578472
2013-03-26,1,0.0005279959377885515,0.0005523438200416703,-0.0017467157828775222,0.014474376731791949,0.9891584939331635
2013-03-28,0,0.0,0.0,-0.009497287817278658,0.014474376731791949,0.988487925064917
2013-04-02,0,0.0,0.0,-0.00821056643709513,0.014474376731791949,0.9886015689395397
2013-04-04,0,0.0,0.0,-0.00864440722539131,0.014474376731791949,0.9876905154027504
2013-04-08,0,0.0,0.0,-0.00864440722539131,0.011260480867688409,0.9884997183801675
2013-04-10,0,0.0,0.0,-0.011226408489921798,0.01218736197726774,0.9873287301730197
2013-04-12,0,0.0,0.0,-0.00864440722539131,0.014474376731791949,0.9868857266354379
2013-04-16,1,0.0008809787331175681,0.0008984032204086302,-0.0052563816558819365,0.014474376731791949,0.9883597450998485
2013-04-18,1,0.0012220589081623206,0.0012690215094557924,-0.00864440722539131,0.014474376731791949,0.9878241139008056
2013-04-22,1,0.001638657448836033,0.001737435559953265,-0.00864440722539131,0.01060333829689235,0.9888913899756548
2013-04-24,1,0.0021335144091836037,0.0023143874520184155,-0.012252145729396731,0.01060333829689235,0.9875718694045993
2013-04-26,1,0.0010011087028456464,0.0010051955464560947,-0.0052563816558819365,0.01060333829689235,0.9890513128333737
2013-04-30,-1,-0.00037512899730994217,-0.0001380477031607594,-0.003013116461179549,0.01060333829689235,0.9892429665244206
2013-05-02,1,0.0001740661077854094,0.00032801960353381264,-0.003013116461179549,0.01060333829689235,0.9903143855212823
2013-05-06,0,0.0,0.0,-0.011863986591957483,0.005830193188388295,0.9902872739186865
2013-05-08,0,0.0,0.0,-0.005224312742305379,0.008211636681669033,0.9900947731677431
2013-05-10,0,0.0,0.0,-0.005224312742305379,0.00815753351467995,0.9904695739065065
2013-05-14,0,0.0,0.0,-0.011863986591957483,0.00815753351467995,0.9898780530820526
2013-05-16,0,0.0,0.0,-0.005224312742305379,0.01245042372077454,0.9899948195931871
2013-05-20,0,0.0,0.0,-0.004903681427477254,0.013042829820639248,0.9890544448979516
2013-05-22,-1,-0.0004315545068402329,-0.0002533887297266849,-0.011680675708611764,0.01245042372077454,0.9892023945362233
2013-05-24,0,0.0,0.0,-0.013787583188572356,0.01245042372077454,0.9877603250533695
2013-05-29,0,0.0,0.0,-0.013787583188572356,0.01245042372077454,0.987490180737939
2013-05-31,1,0.0005301715682238686,0.000620963596494376,-0.013787583188572356,0.01245042372077454,0.9869882171789488
2013-06-04,0,0.0,0.0,-0.0055816026590025285,0.01245042372077454,0.9875120151109632
2013-06-06,0,0.0,0.0,-0.0055816026590025285,0.009923733804600059,0.9878551120834317
2013-06-10,1,0.0013616603940663395,0.0014092650176228227,-0.0055816026590025285,0.008943993745167227,0.9885717261459471
2013-06-12,1,0.0011120508237425222,0.0011522598486548915,0.00014794545290949682,0.01084008875218732,0.9884402342258105
2013-06-14,1,0.0016624532306917608,0.0017658947504051578,-0.0037138194090608617,0.008943993745167227,0.9891534208202217
2013-06-18,1,0.0024145022491056296,0.002610724642153934,-0.010738068127992575,0.00864408061570449,0.9887963188292244
2013-06-20,1,0.0008485472721659562,0.0008511111931939624,-0.0037138194090608617,0.01028813298399229,0.9894426612478009
2013-06-24,1,0.00040577348123562124,0.0004618596727924165,-0.0034658685217280618,0.01028813298399229,0.99054858884032
2013-06-26,1,0.0012101259582317882,0.0012967415448008211,-0.004752046503113109,0.01028813298399229,0.9897557096356661
2013-06-28,1,0.00238197461060663,0.0026106836286697186,-0.004752046503113109,0.00752781402187539,0.9913241253015852
2013-07-02,1,0.0016750669523679824,0.0017913696374553473,-0.0034658685217280618,0.008445505439619196,0.9916440050597448
2013-07-05,1,0.002458274310169532,0.0026755029866802928,-0.0034658685217280618,0.008445505439619196,0.9921342754656924
2013-07-09,1,0.002581376170101359,0.002807786913342775,-0.00453838003627049,0.00748918507103278,0.9917032388610967
2013-07-11,1,0.0032625404479840695,0.003586432789971961,-0.005733843193088657,0.00748918507103278,0.9907557316428514
2013-07-15,0,0.0,0.0,-0.008249399660324317,0.00748918507103278,0.9901023518941783
2013-07-17,0,0.0,0.0,-0.005733843193088657,0.009768636684421034,0.9901636459522484
2013-07-19,0,0.0,0.0,-0.008256844565537982,0.007104030742917527,0.9900943045231331
2013-07-23,1,0.0025039564134019445,0.0026883296004309803,-0.008256844565537982,0.008332456551254206,0.9890168278643938
2013-07-25,1,0.0013440911702156852,0.0013628806707348749,-0.007355651914596758,0.009840042380257668,0.9883860664679954
2013-07-29,1,0.0014773587203399563,0.0015154173753789272,-0.007355651914596758,0.009840042380257668,0.9883678306537178
2013-07-31,1,0.0019385054212040038,0.0020444208270507386,-0.010684956087543452,0.009765622442735288,0.9880819994492948
2013-08-02,1,0.0020353663507296353,0.002108466376468194,-0.011823927150644821,0.009765622442735288,0.9865469319338842
2013-08-06,1,0.00140230218445027,0.0014268875644985173,-0.011823927150644821,0.014151947863574377,0.9860008188642592
2013-08-08,0,0.0,0.0,-0.010252174894404296,0.009765622442735288,0.9869377693337562
2013-08-12,0,0.0,0.0,-0.008782751972982755,0.01874096051745773,0.9859382120147409
2013-08-14,0,0.0,0.0,-0.007620941253764156,0.01874096051745773,0.9865954775766256
2013-08-16,0,0.0,0.0,-0.00526616366085903,0.01874096051745773,0.987967295050841
2013-08-20,0,0.0,0.0,-0.00526616366085903,0.013795516567154803,0.9892292919618726
2013-08-22,0,0.0,0.0,-0.00526616366085903,0.0090563564167234,0.9908130127569947
2013-08-26,0,0.0,0.0,-0.005459874141093184,0.0090563564167234,0.9908597970162376
2013-08-28,0,0.0,0.0,-0.002353219632652991,0.013528122629661474,0.9906893582252008
2013-08-30,0,0.0,0.0,-0.0014150685167258093,0.01175216556736233,0.992137419337771
2013-09-04,0,0.0,0.0,-0.000229371541526333,0.01175216556736233,0.9922734467789578
2013-09-06,0,0.0,0.0005346114837328171,-0.000229371541526333,0.01175216556736233,0.9926868035262574
2013-09-10,0,0.0,0.0,-0.002353219632652991,0.005313565287338031,0.992476666260193
2013-09-12,1,0.002661664952648521,0.002874773117895608,-0.005549041881107677,0.005313565287338031,0.9918539545296059
2013-09-16,1,0.002857062693091968,0.003133803827037155,-0.005549041881107677,0.005313565287338031,0.991834795214574
2013-09-18,1,0.0023614130859429096,0.002493920875594171,-0.00791124949258375,0.007952621871818936,0.9900429368656083
2013-09-20,1,0.0017071221250679822,0.0017209775831137568,-0.005549041881107677,0.011365368739020233,0.9899006187699642
2013-09-24,0,0.0,0.0,-0.005304736566614529,0.012791335095371495,0.9887367739955976
2013-09-26,0,0.0,0.0,-0.005304736566614529,0.012791335095371495,0.9855490724360283
2013-09-30,0,0.0,0.0,-0.010080569795565148,0.01256036911493685,0.9849035597322033
2013-10-02,0,0.0,0.0,-0.010147571539391699,0.0069974763806138415,0.9852781470632695
2013-10-04,0,0.0,0.0,-0.010147571539391699,0.0069974763806138415,0.9856020444987262
2013-10-08,0,0.0,0.0,-0.005811290120403866,0.0069974763806138415,0.987538296191386
2013-10-10,0,0.0,0.0,-0.005811290120403866,0.006401205394241797,0.9876521500802662
2013-10-14,1,0.000820750255851899,0.0009114654688312462,-0.005811290120403866,0.009499567119759217,0.9864415447430014
2013-10-16,1,0.0013184741469027667,0.0013578377500454036,-0.00393714246584698,0.009499567119759217,0.9871168157468848
2013-10-18,1,0.0014169225893924564,0.0014448491612173836,-0.0035555012414947053,0.00919961892745515,0.9872436500408149
2013-10-22,1,0.0019522539068011285,0.0019848736171364477,-0.009759975203891873,0.008077010660372069,0.9867198928494116
2013-10-24,1,0.0035794274958332556,0.003754982859872923,-0.009759975203891873,0.008077010660372069,0.9894733182342006
2013-10-28,1,0.002967916654198947,0.0031225159846398967,-0.003227572780874044,0.008077010660372069,0.9910012126397532
2013-10-30,1,0.002712238195946392,0.0028494235901093666,-0.003227572780874044,0.00919961892745515,0.9909755223199173
2013-11-01,1,0.0020368130549093884,0.0020572641714688934,-0.003472233636605102,0.00919961892745515,0.9905326180260414
2013-11-05,1,0.0024923557247037466,0.0026321987166428775,-0.005409398057529935,0.00919961892745515,0.9902453225845885
2013-11-07,1,0.002386324787652727,0.002558308504883854,-0.004095721477357322,0.008373333454440047,0.9914034480607097
2013-11-11,1,0.0023184755081650495,0.002368848989084364,-0.005409398057529935,0.007629116526432832,0.9914035293380828
2013-11-13,1,0.0025232107384835487,0.0025728759051335897,-0.005409398057529935,0.00481577017744861,0.9917700569067441
2013-11-15,1,0.002985144964693348,0.0031064223024387895,-0.005409398057529935,0.006810302462559412,0.9909796225869506
2013-11-19,1,0.0021812157764413355,0.002267191724605365,-0.004049578588832686,0.008025967912393796,0.9920946864412366
2013-11-21,1,0.0021201037234712524,0.002171650922003036,-0.004095721477357322,0.008025967912393796,0.9921624979409751
2013-11-25,1,0.0025639497352047615,0.002732467520521361,-0.004095721477357322,0.009910643436532213,0.9918455511516061
2013-11-27,1,0.002902802210421763,0.003111061134112929,-0.004958255448357868,0.007264642396165109,0.9918800461538062
2013-12-02,1,0.002863368891320074,0.0031202479138557754,-0.004049578588832686,0.009910643436532213,0.991764297120986
2013-12-04,1,0.002186643349566816,0.002343033308227255,-0.0040734567264012365,0.009910643436532213,0.9918813043594927
2013-12-06,1,0.001501399743726758,0.0015030713722966691,-0.005029889861063521,0.009910643436532213,0.9911716659276149
2013-12-10,1,0.0013403851799480134,0.0013678538429515153,-0.0040734567264012365,0.009910643436532213,0.9916592963635011
2013-12-12,1,0.0008770926798485235,0.000917003089750454,-0.005029889861063521,0.009910643436532213,0.9897663440939332
2013-12-16,1,0.0009304316749149588,0.001011002738891482,-0.005029889861063521,0.011241483499862918,0.9901344074393674
2013-12-18,1,0.0015234120389128506,0.001527329585148607,-0.007889469833446888,0.009641559578254431,0.9903890363621685
2013-12-20,1,0.0016434895897010303,0.0016796258613414107,-0.00822820931948641,0.00695492768023391,0.9903937988632677
2013-12-24,1,0.0022658629243349853,0.0024185692729413125,-0.012013416197361772,0.005705660195441859,0.9887343007908979
2013-12-27,1,0.0016200797752418505,0.001654561382851048,-0.012013416197361772,0.005705660195441859,0.9891338299187213
2013-12-31,1,0.0018840407182505947,0.0019837461210147882,-0.017149094608674722,0.004138325451261779,0.9878472094727114
2014-01-03,1,0.0004557904073428357,0.0005132017709854368,-0.01880416177009457,0.004138325451261779,0.9858531752329014
2014-01-07,0,-3.006298787286524e-05,8.22678289228529e-05,-0.01880416177009457,0.003569094379702008,0.9866800825982902
2014-01-09,-1,-0.0007561059653659256,-0.0004653244887332609,-0.01880416177009457,0.003569094379702008,0.9852267682115529
2014-01-13,-1,-0.002095974541316508,-0.0017010347640715746,-0.017149094608674722,0.003569094379702008,0.9868764042962023
2014-01-15,-1,-0.0010683365537803979,-0.0008088142341190333,-0.017149094608674722,0.003198988399375391,0.9875109685744407
2014-01-17,-1,-0.0016583383267406283,-0.0013187530937282318,-0.017149094608674722,0.003569094379702008,0.9871484809235417
2014-01-22,-1,-0.0029487166881667524,-0.0024231083061864826,-0.014969930059363713,0.003339198024680897,0.9874609521189527
2014-01-24,-1,-0.004483813337265732,-0.0038217033448628363,-0.009056897719870444,0.005161919111252064,0.9879752438695406
2014-01-28,-1,-0.003941850230754371,-0.0033626594893508494,-0.009056897719870444,0.010342484944441972,0.9857194989975806
2014-01-30,-1,-0.005277183745627885,-0.004533386886716501,-0.005789300026206947,0.010342484944441972,0.986728734473943
2014-02-03,-1,-0.006741582906840164,-0.00590149667270327,-0.002815550974378159,0.014026938227037995,0.9868730131735444
2014-02-05,-1,-0.00609838322426394,-0.005355618104929849,-0.002815550974378159,0.014026938227037995,0.9871250362444433
2014-02-07,-1,-0.004773849631313653,-0.004187682978213904,-0.003078631658000452,0.008144689895672274,0.9897299349573446
2014-02-11,-1,-0.005102125716719485,-0.0044957144870537685,-0.0020746278709935537,0.008144689895672274,0.9894354347990072
2014-02-13,-1,-0.004788958724535688,-0.004204687858468722,-0.003205931808893017,0.008144689895672274,0.9894988041446502
2014-02-18,-1,-0.00480719039263508,-0.004215953350039969,-0.0020746278709935537,0.011617063844480132,0.9879828306769731
2014-02-20,-1,-0.004710477014041177,-0.0041705968819630256,-0.0020746278709935537,0.011617063844480132,0.9881515676923304
2014-02-24,-1,-0.0035830476840661126,-0.003209388453733332,-0.003205931808893017,0.01018284367525557,0.9888358324330659
2014-02-26,-1,-0.0013198571788487629,-0.0012401620073206935,-0.005965293442817071,0.006194487335997085,0.9906494949879301
2014-02-28,-1,-0.0013445302355937878,-0.001255811753384378,-0.005965293442817071,0.007086244055186429,0.9904145230726666
2014-03-04,-1,-0.002469252485849528,-0.002143200339411846,-0.005965293442817071,0.007086244055186429,0.9909375809978206
2014-03-06,-1,-0.00216429427838474,-0.001876902689784678,-0.008493297686774846,0.007082182114073912,0.990360833414365
2014-03-10,-1,-0.0020919240507090656,-0.0018075568185024244,-0.016893420120333714,0.007082182114073912,0.9881224342386957
2014-03-12,-1,-0.001984465969566967,-0.0017464406822641203,-0.016893420120333714,0.00905567700429578,0.9866117387732514
2014-03-14,-1,-0.0025979197839785684,-0.0023021311215582815,-0.01730743056849891,0.00905567700429578,0.9863299752489896
2014-03-18,-1,-0.00042630565220069534,-0.0004195678513037883,-0.01730743056849891,0.007082182114073912,0.9878455731710912
2014-03-20,1,0.0006197261202458439,0.0009022411603805124,-0.01730743056849891,0.00591880797287417,0.9879574338144688
2014-03-24,-1,-0.0007437179857835655,-0.0007220646232374181,-0.01730743056849891,0.00591880797287417,0.9888411552232683
2014-03-26,-1,-0.0027931099559304487,-0.0025659751204811414,-0.008071412737204152,0.00591880797287417,0.990232794430316
2014-03-28,-1,-0.002338730396152254,-0.0021380576505043197,-0.011025497363362353,0.00591880797287417,0.989503186679305
2014-04-01,-1,-0.0017749747681617804,-0.001637658181319378,-0.011025497363362353,0.005871682671379277,0.989575868656308
2014-04-03,-1,-0.0027294338228726787,-0.0024511676689790217,-0.008436315764160006,0.005423301634421808,0.9900742817096874
2014-04-07,-1,-0.004689749693176704,-0.004240590620169204,-0.007666044811879647,0.005423301634421808,0.9911571206907108
2014-04-09,-1,-0.0027623545866203936,-0.002592108371934914,-0.008436315764160006,0.0042909782150753716,0.9926212440876615
2014-04-11,-1,-0.0038855658366920886,-0.0036053272582004018,-0.0048033236728913025,0.005423301634421808,0.9916877260079348
2014-04-15,-1,-0.004666322433270281,-0.0042105220267666015,-0.009018478232606993,0.005423301634421808,0.9903070107771598
2014-04-17,-1,-0.003767896489925523,-0.0034617106789597584,-0.010914093097755033,0.005995648855712329,0.9899549822302969
2014-04-22,-1,-0.003206589616526541,-0.0029857878975897384,-0.010914093097755033,0.005995648855712329,0.9903140653688074
2014-04-24,-1,-0.0029611854831966856,-0.0027901868972695855,-0.010280151790228505,0.006317047345358244,0.9900903028930191
2014-04-28,-1,-0.0027579558312016183,-0.002617754737313925,-0.008225001994984498,0.006317047345358244,0.9902060768982905
2014-04-30,-1,-0.0024797897207802775,-0.002352148898508332,-0.010280151790228505,0.005654400648636831,0.9903710322275179
2014-05-02,-1,-0.00237922728204934,-0.00226949529740959,-0.010280151790228505,0.007094261675619118,0.9897048521644106
2014-05-06,-1,-0.00398102384378261,-0.003660957005877585,-0.006657016934959289,0.007094261675619118,0.9899392720750193
2014-05-08,-1,-0.004424561242757644,-0.0040517675472864605,-0.003247863504734526,0.007761904333917127,0.9895402138036931
2014-05-12,-1,-0.0022978211539557954,-0.0022285399331934365,-0.006494812220406403,0.005636331749890067,0.9916242864053496
2014-05-14,-1,-0.003380426733060454,-0.00323733331922002,-0.003247863504734526,0.005636331749890067,0.9918482421402638
2014-05-16,-1,-0.0018997097168343675,-0.0018094428923292785,-0.003247863504734526,0.00460906569667581,0.9932865946808902
2014-05-20,-1,-0.001282676624714622,-0.0012532600305555925,-0.003207119376141456,0.00460906569667581,0.9931469563197017
2014-05-22,-1,-0.001235817003755137,-0.0012069022409049424,-0.006337856977272296,0.003932145339282626,0.9927110879054495
2014-05-27,1,0.00022033342298935564,0.0004472170288265428,-0.007277665290697656,0.003225142034217954,0.9934983448111169
2014-05-29,-1,-0.0006057144048417999,-0.0005202746384940421,-0.007277665290697656,0.003225142034217954,0.9930522695755667
2014-06-02,0,-0.00011623290740199433,8.232538251956589e-05,-0.008580295317947406,0.0030620394240623815,0.993496944730311
2014-06-04,1,0.0005062510861242643,0.000772631357032934,-0.008580295317947406,0.0030620394240623815,0.9930180289983499
2014-06-06,-1,-0.0008081733322325914,-0.0006263459257027666,-0.008580295317947406,0.002037777152709384,0.9932169880553369
2014-06-10,0,-0.00024769715400463767,7.699263607580142e-05,-0.009973370121088067,0.002068984873312547,0.9925699565456884
2014-06-12,-1,-0.0011908416879490465,-0.000998265595071913,-0.009973370121088067,0.002068984873312547,0.9920500896932833
2014-06-16,-1,-0.0013399099916069088,-0.0011614072264464364,-0.007826840668383383,0.005088545482049348,0.9918704339837938
2014-06-18,-1,-0.0021664105567535913,-0.002142247621361888,-0.007826840668383383,0.005088545482049348,0.9918098723106324
2014-06-20,-1,-0.0028700995131032262,-0.0027951145316195965,-0.007648888424296354,0.005874826866836351,0.9912691951938316
2014-06-24,-1,-0.0028087504791677585,-0.0026509850523510144,-0.008743011878734443,0.005874826866836351,0.9912437692057651
2014-06-26,-1,-0.004779984484877546,-0.004272056505618548,-0.008743011878734443,0.007808566728955186,0.9873334638726537
2014-06-30,-1,-0.004322489419367172,-0.003910663681674951,-0.004443769916554775,0.007808566728955186,0.9876362035233301
2014-07-02,-1,-0.0035690992353895365,-0.0032962864279985197,-0.008743011878734443,0.005874826866836351,0.9872004844165937
2014-07-07,-1,-0.0033272470071917214,-0.003052678266521289,-0.010279227389413231,0.005874826866836351,0.987082275587603
2014-07-09,-1,-0.002781756875202549,-0.002600268595493136,-0.008743011878734443,0.005088545482049348,0.9878657039121687
2014-07-11,-1,-0.0024158135954817153,-0.0023023515383865404,-0.007934086726295668,0.005088545482049348,0.9884272284782164
2014-07-15,-1,-0.002303978644308466,-0.0021854314969237667,-0.007934086726295668,0.004684945580009596,0.9886712501166421
2014-07-17,-1,-0.0017816165631323812,-0.0017516878349541215,-0.007934086726295668,0.005387126702230155,0.988455860637857
2014-07-21,-1,-0.0008830742658694411,-0.0007261287100215707,-0.007934086726295668,0.005387126702230155,0.989052301604051
2014-07-23,-1,-0.0010921242875889668,-0.0009600155737761095,-0.007198701953263558,0.00757482219529209,0.9881892078999964
2014-07-25,-1,-0.001457828550762864,-0.001357903394547129,-0.006822566482739982,0.00757482219529209,0.9913836166303432
2014-07-29,-1,-0.000850848474322527,-0.0006370983868742726,-0.006822566482739982,0.009600943622695205,0.990072735563174
2014-07-31,-1,-0.0014917136212459388,-0.001355051045626871,-0.004722320148849407,0.009966329721257189,0.9905713466254571
2014-08-04,-1,-0.0014311228749803323,-0.0012825673499220651,-0.0032446251138454263,0.009966329721257189,0.9913660587167415
2014-08-06,-1,-0.001740054385458053,-0.0016608846480903228,-0.004632963568093617,0.009966329721257189,0.9907832609558566
2014-08-08,-1,-0.00082617373308523,-0.0005466252341781601,-0.004632963568093617,0.00925721755641228,0.9912577108392496
2014-08-12,0,-0.00019446011333580518,0.0001958768460893405,-0.008012161335364901,0.00925721755641228,0.9895672070244732
2014-08-14,0,-0.0002810107578186397,6.71395654998901e-05,-0.011940249844035999,0.00925721755641228,0.9893616226791527
2014-08-18,-1,-0.0010667999391303143,-0.0009077911320989108,-0.012713444950417582,0.009134354949064748,0.9890762308154902
2014-08-20,1,1.808450356862671e-05,0.00034312651026049534,-0.012713444950417582,0.009110837439429361,0.9897595594854272
2014-08-22,1,0.0008194355206515801,0.0012853344623377117,-0.012713444950417582,0.004677185259496635,0.9897066457173989
2014-08-26,1,0.00134143466499355,0.0018533686776535908,-0.012713444950417582,0.0031640051571224363,0.9895751590944234
2014-08-28,1,0.0006345100002997452,0.0009251257544191817,-0.01363711308522366,0.0031640051571224363,0.9886339622547304
2014-09-02,1,0.0008517617179057209,0.0012136746402602147,-0.01363711308522366,0.0025403847148812997,0.9884887104415966
2014-09-04,0,-0.00013189467366236387,4.649147751081405e-05,-0.014500518320358329,0.004677185259496635,0.9882750826198607
2014-09-08,-1,-0.0006292323743430285,-0.0005162713598009033,-0.01286334867548479,0.009110837439429361,0.9879756898923288
2014-09-10,-1,-0.002042458464920332,-0.0019856139289733303,-0.011963453329587497,0.009110837439429361,0.988590873896416
2014-09-12,-1,-0.0020184657132850214,-0.0019815353410722147,-0.014448277810613537,0.009110837439429361,0.9878109921551619
2014-09-16,-1,-0.0022198418945422417,-0.0021725618250326715,-0.012732732074755913,0.009335115006817555,0.988279884721153
2014-09-18,-1,-0.001911856172154133,-0.0019036857891254653,-0.012732732074755913,0.009479910458445578,0.988088372621785
2014-09-22,-1,-0.0021768550221772827,-0.002162243843356772,-0.0107805422270328,0.011749620550018979,0.9870539580070355
2014-09-24,-1,-0.001290852670880204,-0.0011840787556147833,-0.0107805422270328,0.011749620550018979,0.9876919846694715
2014-09-26,1,0.0008694143843577069,0.0009400572653949283,-0.007512516248850278,0.011749620550018979,0.9841234894825872
2014-09-30,-1,-0.0009328449906716172,-0.0009064844779447314,-0.004251615128307544,0.01668957475470794,0.9829816858312246
2014-10-02,1,0.0009634383791916175,0.0010827823661462017,-0.004251615128307544,0.01668957475470794,0.9837798584512605
2014-10-06,-1,-0.0012897261168871796,-0.0012588864659391222,-0.0023406177550312247,0.013712383050367549,0.9839604383078097
2014-10-08,-1,-0.002169117092590721,-0.0020048597838716042,-0.0023406177550312247,0.013712383050367549,0.9841555657299254
2014-10-10,-1,-0.004397978888520655,-0.003962729538751988,-0.00022073322294493744,0.014801340528011308,0.9831308832488194
2014-10-14,-1,-0.001374605488949948,-0.0011239543044559543,-0.0023406177550312247,0.014801340528011308,0.98506327357134
2014-10-16,-1,-0.0007455341742745921,-0.0006056053930101981,-0.0021002982568988065,0.01308771791595749,0.9856303732494156
2014-10-20,-1,-0.001437984279236301,-0.0013946458315819464,-0.0029209651263369706,0.012410429469408258,0.986216397714311
2014-10-22,1,0.0021126105045663774,0.0023418921244155975,-0.002979979637937463,0.012410429469408258,0.9874440022919428
2014-10-24,1,0.0020019959026753974,0.00244516032990831,-0.002979979637937463,0.01218234690469526,0.9924523333711119
2014-10-28,1,0.006432988348243463,0.00726023250265449,-0.0038899550051032707,0.01218234690469526,0.9915214950220013
2014-10-30,1,0.004519384938721304,0.00514340378380893,-0.0038899550051032707,0.012410429469408258,0.9923181051803702
2014-11-03,1,0.005249989914175754,0.005858908563323787,-0.00430046614965572,0.01218234690469526,0.9918550638471494
2014-11-05,1,0.001700780552919027,0.0020705186876759443,-0.00430046614965572,0.01242272806971275,0.9921129289407287
2014-11-07,1,0.003116774091147861,0.0037131109087599635,-0.00430046614965572,0.008597897351016515,0.9922662149688604
2014-11-11,1,0.002128035547388616,0.0024855249054478493,-0.004252331557651945,0.008597897351016515,0.9922869080720832
2014-11-13,1,0.0023537051211199303,0.0027703596226506784,-0.004252331557651945,0.007743892864894672,0.9923519429116838
2014-11-17,1,0.0021024412697562,0.0024204069934842007,-0.0055030540783999595,0.005297186002623007,0.9920398507599567
2014-11-19,1,0.004251312366532033,0.004581630961836659,-0.0055030540783999595,0.006567378566344024,0.9918553012613095
2014-11-21,1,0.004229957576412035,0.004621104264739966,-0.0060444294427451145,0.0076502837274911445,0.9908553788596447
2014-11-25,1,0.004848004693629367,0.005350228068587575,-0.0060444294427451145,0.0076502837274911445,0.9907272736353815
2014-11-28,1,0.0022429525581381103,0.002639525815732525,-0.0060444294427451145,0.0076502837274911445,0.9918809458179947
2014-12-02,1,0.004680615000053361,0.005160077061057384,-0.006490041463622314,0.008322236840861884,0.9905874977386994
2014-12-04,1,0.006396198776150023,0.0071939003873382895,-0.010749425688614398,0.0076502837274911445,0.9897599003244231
2014-12-08,1,0.00637171676745708,0.007163006078983427,-0.014479976319025334,0.008322236840861884,0.9879069612872915
2014-12-10,1,0.005179027898381991,0.00585104102675667,-0.012881325543125799,0.010291840188123694,0.9869886179522429
2014-12-12,1,0.0049609712160284675,0.005588382025533894,-0.012881325543125799,0.010291840188123694,0.9858749951889016
2014-12-16,1,0.003937044052868878,0.0043954420329083334,-0.014619402175677552,0.010291840188123694,0.9847798076203731
2014-12-18,1,0.004570096193025383,0.005101614851372856,-0.014619402175677552,0.012524036266025785,0.9835744266876869
2014-12-22,1,0.0036788541370454575,0.004032866190787913,-0.013049079375809399,0.017162487630951732,0.9828643003477663
2014-12-24,1,0.002978493313924964,0.0032566998904378433,-0.013049079375809399,0.017788995518149574,0.982872268576993
2014-12-29,1,0.0028164247166973682,0.003093816741789405,-0.014969231939283904,0.017788995518149574,0.9818742954160068
2014-12-31,1,0.0027316389129168352,0.0029771665494640435,-0.015013589396909223,0.02033241586278235,0.9801444469447036
2015-01-05,1,0.0012940045787871797,0.001345161885656255,-0.012997935464327915,0.02259210840992639,0.9810496735993454
2015-01-07,1,0.0013170593345146813,0.001368232520386679,-0.011224542748826227,0.019249648491102517,0.9832519442811077
2015-01-09,1,0.0017162253756506148,0.0018010091822106382,-0.009240858045456728,0.017788995518149574,0.9850462041105293
2015-01-13,1,0.0012965334783323398,0.00137184526420225,-0.010008965834768771,0.017788995518149574,0.9850897628390844
2015-01-15,-1,-0.0006054326625219598,-0.0004860461622974314,-0.007292042275727288,0.017788995518149574,0.9859975394279409
2015-01-20,1,0.0004949374155273324,0.0005695057458214592,-0.006228471823898175,0.013540930996393793,0.9873040885811885
2015-01-22,1,0.0020077361988682764,0.0023066614394966862,-0.006228471823898175,0.010523168697116768,0.988568698096285
2015-01-26,1,0.0038954225086221387,0.004459212482172833,-0.006228471823898175,0.009977837479892003,0.989740251616719
2015-01-28,1,0.0027286797690362313,0.003077553622870369,-0.0002477038753969298,0.010133438148166696,0.9900449132731718
2015-01-30,1,0.002685989879591136,0.002967411292975666,-0.0002477038753969298,0.010133438148166696,0.9922672626295453
2015-02-03,1,0.0025668513175629974,0.002719278613953552,-0.0072574561243096405,0.009977837479892003,0.9905133592186769
2015-02-05,1,0.0027587345319232937,0.0028939845940438463,-0.008025204369877872,0.009977837479892003,0.9900726653169677
2015-02-09,1,0.0019674507825063136,0.0019782168726957534,-0.008845520259984798,0.009977837479892003,0.9895259042570714
2015-02-11,1,0.0020309825430270554,0.0020766305363227986,-0.008025204369877872,0.010133438148166696,0.988882984713383
2015-02-13,1,0.0022035697886309898,0.002215059093066446,-0.0092497652558635,0.008782328981679681,0.9880652112304209
2015-02-18,1,0.0017965631294412222,0.0018595585471465961,-0.0092497652558635,0.008782328981679681,0.9875608407607714
2015-02-20,1,0.003546152131012912,0.0037671601243547586,-0.0092497652558635,0.008782328981679681,0.9886937120289995
2015-02-24,1,0.003660178165630761,0.0039456826429087495,-0.0092497652558635,0.008782328981679681,0.9878186101062373
2015-02-26,1,0.003077578403631214,0.00317734259486616,-0.0092497652558635,0.0080445195227879,0.9873298483529751
2015-03-02,1,0.0029928576685281216,0.0030854933175915346,-0.009244718434959427,0.0080445195227879,0.9879568890932324
2015-03-04,-1,-0.0005993557368671779,-0.00016750619409596672,-0.008072463640865977,0.0080445195227879,0.9897641215907433
2015-03-06,-1,-0.002269222676928016,-0.0015462236996249914,-0.008072463640865977,0.008869920319454492,0.9895091796841078
2015-03-10,-1,-0.0028518294545829995,-0.002066995033016368,-0.008072463640865977,0.008648061172905017,0.9900718546156348
2015-03-12,-1,-0.0014532386514270522,-0.0008504572620072117,-0.008072463640865977,0.008101067443054442,0.9908851449521727
2015-03-16,-1,-0.0004514744618845921,-2.1968127870196667e-05,-0.0070814869525763924,0.005914240957104961,0.9923079523388173
2015-03-18,0,-0.00019205742057714172,9.212070643699495e-05,-0.008072463640865977,0.00557915728453834,0.9923289965042469
2015-03-20,1,0.00122613190163695,0.0012316005989929993,-0.008072463640865977,0.006407269769917468,0.9916720455876388
2015-03-24,1,0.0010129760233770952,0.001024552465404897,-0.005064859378157855,0.008116575299680708,0.9912636749103474
2015-03-26,-1,-0.0008808528048794336,-0.0006351325550678281,-0.002224163028985554,0.008116575299680708,0.9918811691044828
2015-03-30,1,1.9330433235300085e-05,0.00014310602637796833,-0.0037490742776121544,0.006407269769917468,0.9921785552630991
2015-04-01,-1,-0.0011863922739423012,-0.0009147973036664153,-0.005213437601838697,0.006407269769917468,0.9911352616755036
2015-04-06,-1,-0.00018495408475621916,-6.041940358609199e-05,-0.005213437601838697,0.005301166707576171,0.9914043559850916
2015-04-08,-1,-0.0010258827758790696,-0.0007654131824372,-0.010453343403156361,0.005301166707576171,0.9904924250677293
2015-04-10,-1,-0.00019871506385098344,-4.739326885078274e-05,-0.010453343403156361,0.0076684328051729355,0.9901823394533324
2015-04-14,-1,-0.00014574862117881662,-1.700444404789767e-05,-0.010453343403156361,0.0076684328051729355,0.99011209273665
2015-04-16,-1,-0.00038732618353597907,-0.0002501984607908346,-0.006264795394457425,0.012409883090773628,0.9896808171097495
2015-04-20,1,0.00042358678489015747,0.00045775891604358946,-0.006264795394457425,0.012409883090773628,0.9894605553045305
2015-04-22,1,0.0016285971985287502,0.0017414238458398667,-0.006264795394457425,0.010087213148372931,0.9904778763206342
2015-04-24,1,0.0016567375118161404,0.001789712147678244,-0.006264795394457425,0.010087213148372931,0.9904582584423695
2015-04-28,1,0.0008676468882629408,0.0008833684241461516,-0.006577743800388825,0.010087213148372931,0.9897552662805111
2015-04-30,-1,-0.0007410461660347295,-0.0006078929464851021,-0.005138689337357591,0.010087213148372931,0.9907389375092719
2015-05-04,-1,-9.328267526937596e-05,-4.08664567625106e-05,-0.005138689337357591,0.009380417319268856,0.9906140520015577
2015-05-06,-1,-0.0018222264935605624,-0.0015210743605064522,-0.003705682195738982,0.010165506154513618,0.9898499583125623
2015-05-08,-1,-0.0008044644800674328,-0.00065145917781448,-0.004447690316818534,0.008027458167957935,0.9911768513783416
2015-05-12,-1,-0.0012733368024568296,-0.0010168355341898473,-0.004447690316818534,0.009380417319268856,0.9903898449153012
2015-05-14,-1,-0.000645461135635715,-0.0004961740586613687,-0.003591329106876727,0.009380417319268856,0.9905366219532208
2015-05-18,1,0.00032103545097804875,0.00037025618376755295,-0.003591329106876727,0.00795883650189134,0.9913486547201682
2015-05-20,1,7.692711456759783e-05,0.00014621303154613522,-0.003591329106876727,0.009174552321069066,0.9905231482758943
2015-05-22,1,0.0005308291961508871,0.0005360358703680768,-0.004696369428157567,0.009174552321069066,0.9903902228945459
2015-05-27,-1,-0.0002938140089658969,-0.00019906112255778613,-0.004696369428157567,0.009174552321069066,0.9912489472316581
2015-05-29,-1,-0.0020421844080884587,-0.0016730540033052894,-0.0026136098663955215,0.009174552321069066,0.9913904973199278
2015-06-02,-1,-0.0009057118934055956,-0.0006866273738378321,-0.003591329106876727,0.00896346923375619,0.991142902636675
2015-06-04,-1,-0.0007583982545700004,-0.0005388829063585957,-0.003591329106876727,0.00896346923375619,0.9924990082665007
2015-06-08,-1,-0.001418416268600849,-0.001065535499546672,-0.0033343702460464026,0.00896346923375619,0.9921565800863411
2015-06-10,-1,-0.0017475211366258395,-0.0012992856610858662,-0.0038205987074123025,0.00896346923375619,0.9909215920911786
2015-06-12,-1,-0.0008222428655716252,-0.0005165269377715026,-0.0038205987074123025,0.009144754423642258,0.9896270923397719
2015-06-16,1,0.0006061225454172176,0.0006507738026439274,-0.0038205987074123025,0.00902839067110954,0.9897780705961936
2015-06-18,1,0.001590211076496503,0.0017110743588310286,-0.0038205987074123025,0.008554179708054692,0.990291606405889
2015-06-22,1,0.000891950571726479,0.000921678294346042,-0.0038205987074123025,0.008554179708054692,0.9898785265622126
2015-06-24,1,0.0001979162856516612,0.0003096989424108555,-0.0021830879470824175,0.00902839067110954,0.9894803764510839
2015-06-26,1,0.0010114425675473322,0.0010452224081970605,-0.007424734940810263,0.008657889062918948,0.9882667008266404
2015-06-30,-1,-0.0001334853818619897,-2.8404384314527028e-05,-0.004199034104195105,0.008657889062918948,0.9890681353051624
2015-07-02,-1,-0.000358575449675938,-0.00019699592550547406,-0.0035312149419744173,0.008086422199462739,0.9893060433586461
2015-07-07,-1,-0.00024989986478385524,-9.59599971765963e-05,-0.00612073847820897,0.008868444956129443,0.9887678874169752
2015-07-09,-1,-0.000743331474931295,-0.0005701441649088435,-0.00612073847820897,0.008868444956129443,0.9892217950219978
2015-07-13,1,0.0009301441878997421,0.0009668361444803616,-0.00612073847820897,0.0074885543197998426,0.9906699284327645
2015-07-15,1,0.0018824562779671645,0.002128317549911647,-0.00888550838863369,0.006425244250683171,0.9908033232059746
2015-07-17,1,0.0021733942209036495,0.0024626889042765696,-0.00888550838863369,0.006372762097924598,0.990943535720336
2015-07-21,1,0.001733568030872308,0.001954981430887613,-0.0048312403088987925,0.0076365343148056385,0.9914205919404354
2015-07-23,1,0.0026904587251282922,0.003052434949861878,-0.009087091641650181,0.0058863548574688606,0.9897069986042233
2015-07-27,1,0.0005352706397620008,0.000573202420212695,-0.009087091641650181,0.0058863548574688606,0.9880508633789087
2015-07-29,1,0.00025129611426208084,0.0003266012380089135,-0.009087091641650181,0.0066156266713644765,0.9870689036436325
2015-07-31,1,8.583024127991723e-05,0.0001971958960931829,-0.01452992854522154,0.009312384941146834,0.9853652022041159
2015-08-04,1,0.0009383976002665264,0.0010214500003111954,-0.020731523201977284,0.0066156266713644765,0.9845710598727655
2015-08-06,1,0.0004768426901825105,0.0005202758199679033,-0.010863017290307496,0.0066156266713644765,0.9853349234826004
2015-08-10,1,0.001134237868804493,0.0012619766847891019,-0.011754133351327193,0.0058131756764155515,0.9840021926697143
2015-08-12,1,0.0011059578162121789,0.00123322302890859,-0.011754133351327193,0.009360187586600207,0.9837435948168244
2015-08-14,1,0.0007286602589047846,0.0007689122037927456,-0.020151346687110192,0.011442180371137062,0.9822974363204844
2015-08-18,1,0.0006044801090669044,0.0006199463005944939,-0.020151346687110192,0.015207047643264146,0.9817779375535687
2015-08-20,-1,-0.0009718339529845849,-0.0007871523209739858,-0.013235241778659007,0.015207047643264146,0.983368166018704
2015-08-24,-1,-0.0024962528360989973,-0.002104532350957865,-0.01226988028100944,0.015207047643264146,0.9848492610313141
2015-08-26,-1,-0.002588358603380735,-0.002222352275731372,-0.01226988028100944,0.011442180371137062,0.9857807012006972
2015-08-28,-1,-0.00300847167118977,-0.002572172814464465,-0.01226988028100944,0.011442180371137062,0.9856890192756023
2015-09-01,-1,-0.003707878034096857,-0.00322938187910121,-0.009546645447149033,0.015207047643264146,0.98551855124909
2015-09-03,-1,-0.0029815341087144295,-0.00258382075870081,-0.009546645447149033,0.015207047643264146,0.9851272205519561
2015-09-08,-1,-0.0019753523854439633,-0.0016808715432906737,-0.01226988028100944,0.015207047643264146,0.9855576122462982
2015-09-10,-1,-0.001422699561749374,-0.0012311957182461228,-0.01226988028100944,0.017237401187339838,0.9847738499270235
2015-09-14,-1,-0.001203584776032501,-0.0010890455333763217,-0.01226988028100944,0.017237401187339838,0.984152941367596
2015-09-16,-1,-0.00037680792226967106,-0.00034815456528273673,-0.015195695483863986,0.012170096860750086,0.9844696608180485
2015-09-18,-1,-0.001460120051226276,-0.0012849536361539645,-0.015195695483863986,0.012170096860750086,0.9846017681169176
2015-09-22,-1,-0.003236741899528387,-0.0027961403840754085,-0.006561661179974997,0.0185681205239078,0.9847814612599632
2015-09-24,-1,-0.003085436725587351,-0.0026860521771208262,-0.004247541303836086,0.019416356497078596,0.98247968777195
2015-09-28,-1,-0.003804331789099112,-0.0032809297548349746,-0.004247541303836086,0.0185681205239078,0.9835328421171579
2015-09-30,-1,-0.0021439863490219273,-0.0018521315710352748,-0.006104854677281917,0.015277340258887344,0.9847402134852025
2015-10-02,-1,-0.0010506023704537092,-0.000884715748326403,-0.006104854677281917,0.01385266957278839,0.9855054223218724
2015-10-06,-1,-0.00125497669194348,-0.001089788139093822,-0.005098207350743533,0.01095611812879095,0.9870030204113973
2015-10-08,1,0.00018699694670906928,0.00023199531672521607,-0.005098207350743533,0.009950051618171116,0.9879452923782834
2015-10-12,-1,-0.0011561719037746596,-0.0010277252396686653,-0.005098207350743533,0.009950051618171116,0.9894880839974937
2015-10-14,-1,-0.0014707010247437414,-0.0013164885297358643,-0.005098207350743533,0.009950051618171116,0.9899927540683073
2015-10-16,-1,-0.0013197583677396873,-0.0011623927525216556,-0.006431896779583338,0.009950051618171116,0.987516051300741
2015-10-20,-1,-0.0013647165358705205,-0.001168973099401764,-0.007161698321647174,0.009950051618171116,0.9873866087314036
2015-10-22,1,0.0010340055748732694,0.0011658985251218478,-0.007161698321647174,0.01061863840600511,0.988134671775255
2015-10-26,1,0.0007530006143087791,0.0008306954918336589,-0.007111543248336175,0.01061863840600511,0.9880194540397134
2015-10-28,1,0.000584181472173791,0.000625849013548959,-0.005375927962199188,0.010532253711320704,0.9887295096514493
2015-10-30,1,0.0010445952347124551,0.0011807099116766901,-0.007111543248336175,0.007848678429688718,0.988437078342765
2015-11-03,1,0.0012276391905850803,0.0014062394691260805,-0.007111543248336175,0.007848678429688718,0.9885345120144984
2015-11-05,1,0.0016512599373487342,0.0019024976845713974,-0.010514738613525455,0.008459675421066442,0.985583278828684
2015-11-09,1,0.0014395805931353423,0.0016946005465759012,-0.007111543248336175,0.013672184669421382,0.98540361672245
2015-11-11,1,0.001175981982625758,0.0013934852247040753,-0.01003831365286426,0.013672184669421382,0.9850950508218768
2015-11-13,-1,-0.0008818896873215993,-0.0008156540766422231,-0.006072292788722358,0.013672184669421382,0.987541876588014
2015-11-17,-1,-0.00029634470349817744,-0.000275711460320254,-0.006445169272776056,0.010919907433660265,0.9879690936512622
2015-11-19,1,0.00036920442338001696,0.00042898608264062163,-0.010966287812522502,0.004519827525235984,0.9883937574292562
2015-11-23,1,0.0010430045154098159,0.0012025742354725938,-0.01126006909479404,0.0035122943195732277,0.9885604869073126
2015-11-25,1,0.0009952006344888615,0.0011591432368287828,-0.01126006909479404,0.00461805379680252,0.9882935063554342
2015-11-30,1,5.726115874403913e-05,6.107744080321668e-05,-0.010790070758210986,0.0075951157251824665,0.9888007555545046
2015-12-02,1,0.0007160104027596947,0.0008738630533849746,-0.010790070758210986,0.0075951157251824665,0.9880868416784337
2015-12-04,1,0.0007730170304132429,0.0009563513037371596,-0.010790070758210986,0.0046891258241728235,0.9903662727427902
2015-12-08,1,0.0016200722048324311,0.0019345308999883888,-0.01126006909479404,0.0036641877095700912,0.9904966405781056
2015-12-10,1,0.0010187764248866195,0.0012373896456226755,-0.010790070758210986,0.0046891258241728235,0.9906295798603484
2015-12-14,1,0.00122297455438705,0.0015166066109524802,-0.01126006909479404,0.0075951157251824665,0.9883066161105244
2015-12-16,1,0.0007075183883727815,0.0008650373085894558,-0.011748190417418414,0.0075951157251824665,0.9877429058843501
2015-12-18,-1,-6.863812017658658e-05,-1.0811330156647872e-05,-0.011748190417418414,0.008208876514092227,0.9869258972156763
2015-12-22,1,1.6275582584082216e-05,9.41711622549723e-05,-0.011177027794998722,0.014911489648411292,0.9858504799630766
2015-12-24,1,3.397079892269024e-05,0.00011242689816025846,-0.014195578111552238,0.01795717692431632,0.9844281811234026
2015-12-29,1,0.0005438100180655809,0.0006668672285770741,-0.01595774042630588,0.01795717692431632,0.9839275335598852
2015-12-31,1,0.0001456683048030244,0.0002572835303770771,-0.017367334476032538,0.01941832989104629,0.9821988716875182
2016-01-05,-1,-0.00029194254983217047,-0.00023582442809454593,-0.016573833864276275,0.01941832989104629,0.9820916257138073
2016-01-07,-1,-0.0004594106845704489,-0.0004198449452607132,-0.017367334476032538,0.01941832989104629,0.9805664467939172
2016-01-11,-1,-0.00017794850313970897,-7.617654344599796e-05,-0.017367334476032538,0.020868529229082784,0.9798403584940593
2016-01-13,-1,-0.0013997226211916556,-0.0012737687628435485,-0.016573833864276275,0.018970713461386415,0.9824830723141638
2016-01-15,-1,-0.002357388496994035,-0.0020352338742633484,-0.015764060280854163,0.02198693260262397,0.9819423173832531
2016-01-20,-1,-0.0020428199380996136,-0.001779911025484031,-0.015764060280854163,0.02079371392393664,0.9831170260543884
2016-01-22,-1,-0.0009671125334019504,-0.0008151921377602193,-0.015764060280854163,0.020544934734334816,0.9839600778461187
2016-01-26,-1,-0.0011720832950834125,-0.0009451073933951939,-0.016573833864276275,0.01187323572670355,0.9847474749262684
2016-01-28,-1,-0.0006650682254129935,-0.0005197903579291346,-0.01300812736551609,0.011467843682429075,0.9855732072077028
2016-02-01,-1,-3.7485141305065316e-05,-1.5078494406645161e-05,-0.01094317041539642,0.011467843682429075,0.9863566241626932
2016-02-03,-1,-0.0007392315991553165,-0.0006467362953507885,-0.009624966837515115,0.011467843682429075,0.9869169847771531
2016-02-05,-1,-0.002471106908256736,-0.002160614918304637,-0.008638329041875127,0.01309323897427816,0.9877436899620888
2016-02-09,-1,-0.0015402429659110211,-0.0013725026895641422,-0.005871056061355245,0.010606138148352116,0.9886077609722005
2016-02-11,-1,-0.0017118815495368502,-0.0014971753463916253,-0.005871056061355245,0.017639211424434337,0.98693382835095
2016-02-16,-1,-0.0010568345085801918,-0.000853829707857886,-0.005871056061355245,0.010606138148352116,0.9893555357003198
2016-02-18,-1,-0.0017733784285280572,-0.001475421567943501,-0.006517511156448184,0.010606138148352116,0.9898223426445484
2016-02-22,-1,-0.0012520487363368964,-0.0009937635895321327,-0.006517511156448184,0.009010438112643782,0.9904880001325924
2016-02-24,-1,-0.0005289713958128994,-0.0004194053125472839,-0.00557464660594012,0.007465264385866355,0.9914312504242646
2016-02-26,-1,-0.0003859772635199922,-0.00035189351949940133,-0.005133755488439158,0.007974808857421583,0.9912735961310107
2016-03-01,1,0.0006031799700788503,0.0006734756717220246,-0.005133755488439158,0.007411477682174568,0.9924899076560234
2016-03-03,1,0.000493191314698544,0.0006126138527146833,-0.0029951033238447937,0.008901296994540696,0.9924087353844868
2016-03-07,-1,-0.0005677307626033173,-0.0004688743972638,-0.0043996354240503285,0.007411477682174568,0.991972122443328
2016-03-09,-1,-0.0005431333417087064,-0.00041929525658643485,-0.00557464660594012,0.006981039086410549,0.9913780403665152
2016-03-11,1,0.0009001353372694572,0.0009715100538412108,-0.00557464660594012,0.0048149533166865575,0.9928979827429754
2016-03-15,1,0.0009430223231561875,0.0010420941158168864,-0.00557464660594012,0.006981039086410549,0.9917008739636426
2016-03-17,1,0.001617958301752836,0.001925458881892354,-0.00488986551443401,0.007411477682174568,0.9908591386726419
2016-03-21,1,0.0018466211757354899,0.0021819690616073323,-0.005518370782815305,0.00778536596970317,0.9904705354380122
2016-03-23,1,0.0017267394005059838,0.0020464397731,-0.004936371680105184,0.008532333111460273,0.9885511423203442
2016-03-28,1,0.0017782300344965948,0.002109577545796919,-0.004936371680105184,0.008532333111460273,0.988807312281694
2016-03-30,1,0.0022583864011557417,0.002655766308766885,-0.004936371680105184,0.009123409226457744,0.9889372696999577
2016-04-01,1,0.0028864812662024618,0.003386051574044708,-0.006874178839704128,0.007979733261869763,0.9888655450765601
2016-04-05,1,0.0014734438388606143,0.0017545974433953674,-0.004803408625085836,0.009123409226457744,0.9899432161264905
2016-04-07,1,0.0009521285227154471,0.0011503238595766813,-0.004830381153442479,0.009123409226457744,0.9901290201635904
2016-04-11,-1,-0.00030005934641985307,-0.00022725253345730147,-0.004830381153442479,0.009123409226457744,0.9898293202628818
2016-04-13,1,0.0007754176292804813,0.0008538125916833211,-0.005259000114770782,0.007987707500367456,0.9896452312307593
2016-04-15,1,0.001226013942168582,0.0014283289372506638,-0.005259000114770782,0.007987707500367456,0.9901098045549885
2016-04-19,1,0.0015859812037842427,0.001867691057778717,-0.006475289674646086,0.009316638402381788,0.9890956712612401
2016-04-21,1,0.0029802908624682895,0.003437741044795657,-0.006475289674646086,0.009316638402381788,0.9905401359091801
2016-04-25,1,0.002845336701527358,0.00325274995941742,-0.007822467273733105,0.009919978802858668,0.9898683531953568
2016-04-27,1,0.0029881728808323787,0.003410974662788112,-0.007822467273733105,0.010683353065273113,0.9894839369596569
2016-04-29,1,0.002467865487859514,0.0028144264824701143,-0.005575096259447108,0.010940742059299458,0.9899195020201719
2016-05-03,1,0.0028759913331344263,0.003313025241837404,-0.006769339983074666,0.010940742059299458,0.9901299315506654
2016-05-05,1,0.0019750811479727747,0.002261605499400564,-0.006769339983074666,0.010940742059299458,0.9902127564703591
2016-05-09,1,0.0014548016863559997,0.001649503685585879,-0.006769339983074666,0.010940742059299458,0.9898697798829827
2016-05-11,1,0.001580586814466102,0.0017993733845568399,-0.006769339983074666,0.010940742059299458,0.9902947522666754
2016-05-13,1,0.0009187846686235091,0.000994562039396685,-0.007749520233873506,0.01050641585857435,0.9901363762396524
2016-05-17,1,0.0008755859225729498,0.000943884234422022,-0.006769339983074666,0.01050641585857435,0.9909818850262376
2016-05-19,1,0.0011149933724839962,0.0012078622266780607,-0.006769339983074666,0.007511542862984954,0.9912471415248048
2016-05-23,1,0.0014442245221688457,0.0016248345834954502,-0.0061291950369357535,0.007399161104916979,0.9915630250471609
2016-05-25,1,0.001466676254683124,0.001593810863711895,-0.0061291950369357535,0.007399161104916979,0.9916481540490698
2016-05-27,1,0.0014704741700805285,0.0015694991773064582,-0.007596586358414044,0.006178701624671348,0.9908309209025737
2016-06-01,1,0.001241495738768,0.001292592716865177,-0.007007419370761619,0.010523832396111047,0.9903863394708695
2016-06-03,1,0.0006616229510534666,0.0006771529417668916,-0.007007419370761619,0.010932417148961256,0.988530938317554
2016-06-07,1,0.0005082276142465707,0.0005611418523386667,-0.007007419370761619,0.010932417148961256,0.9886704879198459
2016-06-09,-1,-0.0002175374645035893,-7.651265881551027e-05,-0.004952930991799859,0.012321935741929904,0.9892865226229794
2016-06-13,-1,-0.0010202512817561473,-0.0007836371829866452,-0.003743139157480438,0.012321935741929904,0.990135282436949
2016-06-15,-1,-0.00024293027392646678,-0.00014095625771668217,-0.004935638630504751,0.010932417148961256,0.9905049618613865
2016-06-17,1,8.646328711208357e-06,5.785504479613796e-05,-0.004935638630504751,0.0110396716346329,0.9899213244254443
2016-06-21,-1,-0.0003402660859047199,-0.00027897236458289,-0.004935638630504751,0.0110396716346329,0.9904589558121827
2016-06-23,1,0.0003916385440807718,0.00040057059721531284,-0.005162993579853133,0.0110396716346329,0.9884578723224624
2016-06-27,1,0.00026038434940556173,0.0002911102684126827,-0.005162993579853133,0.010654844831149765,0.9893645283526661
2016-06-29,-1,-0.00044919039413259107,-0.0002815792981914915,-0.005381628685038508,0.006708956046804236,0.9896156418327213
2016-07-01,-1,-0.0002670473564671837,-0.00016347703153428216,-0.005162993579853133,0.004436669775276335,0.991934280785615
2016-07-06,-1,-0.0007549976068444606,-0.0005749040025158461,-0.005381628685038508,0.00570724791122053,0.9916425954337774
2016-07-08,1,6.0407188098301427e-05,0.00010787227537776078,-0.0064491817608273196,0.00570724791122053,0.9894251222498617
2016-07-12,-1,-0.0005308713916776344,-0.0003832201925962808,-0.008481975209318687,0.006887394327757587,0.9885417766995395
2016-07-14,-1,-0.0004680415173539064,-0.000356677762016603,-0.008481975209318687,0.007547375975843456,0.9882712192841493
2016-07-18,-1,-0.00032961757476762465,-0.00023246759046257714,-0.0064491817608273196,0.006887394327757587,0.9888803209149365
2016-07-20,-1,-0.0007300441756050879,-0.000557683515747876,-0.008433058445330507,0.006887394327757587,0.9883446146690466
2016-07-22,-1,-0.00021703025743906906,-0.00015802644501966778,-0.007158125669269685,0.006808519231817023,0.9903231060935894
2016-07-26,-1,-0.0012197685684064293,-0.0010109394380112947,-0.006339147662799976,0.006808519231817023,0.9906602877367444
2016-07-28,-1,-0.000793842116775425,-0.0006216574483223533,-0.0073693030582142665,0.005823239713739678,0.9909804067530995
2016-08-01,-1,-0.0011281758275361103,-0.0009286884568739244,-0.0073693030582142665,0.006808519231817023,0.9908991418477406
2016-08-03,-1,-0.00046548817143070417,-0.0003868884606056766,-0.0073693030582142665,0.005876492171070115,0.9909321533629375
2016-08-05,-1,-0.0015067224516691498,-0.001300498016694223,-0.006339147662799976,0.005876492171070115,0.9931855764370219
2016-08-09,-1,-0.0018965448893685497,-0.0016327948642739848,-0.006339147662799976,0.005202405466321789,0.993815920564184
2016-08-11,-1,-0.0013776787499788065,-0.0011864240177185052,-0.009265589184171788,0.00318818619013962,0.9890275777657935
2016-08-15,-1,-0.0016610963857982967,-0.0014342155036696472,-0.009265589184171788,0.005202405466321789,0.9886634005749829
2016-08-17,-1,-0.0017184231057767382,-0.0014894921179085918,-0.007103908752790843,0.005202405466321789,0.9888935979995315
2016-08-19,-1,-0.001241849276775838,-0.0010841068646055847,-0.010387429713089761,0.0023927483165714376,0.9886562725141014
2016-08-23,-1,-0.0011949276162756806,-0.001064304162836972,-0.010387429713089761,0.0026562623663789896,0.9886482509158103
2016-08-25,-1,-0.0017053159615806899,-0.0014695834365586419,-0.009703630399942993,0.0026562623663789896,0.9888522690575263
2016-08-29,-1,-0.001708986162800241,-0.001464611009322545,-0.009703630399942993,0.0029083261992623277,0.9887276720587495
2016-08-31,-1,-0.002139639309378504,-0.001837783783233932,-0.007801372788635095,0.0029083261992623277,0.9889036235532586
2016-09-02,-1,-0.0013399269867986922,-0.0011627326419600612,-0.009973688224504796,0.0026562623663789896,0.9890102462870327
2016-09-07,-1,-0.0017833666443980226,-0.0015523702374123857,-0.007801372788635095,0.0029083261992623277,0.9895769579327691
2016-09-09,-1,-0.003542225142203913,-0.0031130086445207462,-0.004970598305022061,0.0034822166041377136,0.9939046412706447
2016-09-13,-1,-0.002609144960077271,-0.0023479034170651347,-0.004970598305022061,0.0034822166041377136,0.9942256755431133
2016-09-15,-1,-0.002674088641811387,-0.002412661115813685,-0.005418024292523947,0.0034822166041377136,0.9939608327779561
2016-09-19,-1,-0.0029788864925302935,-0.0026938002327210955,-0.004268879958080747,0.0034822166041377136,0.9935773610624544
2016-09-21,-1,-0.002762673383287484,-0.0024947457534069913,-0.0042775887420910645,0.004748103799006383,0.9922517977255756
2016-09-23,-1,-0.002538230559884174,-0.0023024070155437263,-0.005418024292523947,0.0034822166041377136,0.9912307767877817
2016-09-27,-1,-0.002612325643383,-0.0023487857093378584,-0.008822775800277903,-0.0006557815152240254,0.9908178846031404
2016-09-29,-1,-0.002617105206788428,-0.002369709747740088,-0.013037897259433218,0.0002285924752981938,0.9902286190564289
2016-10-03,-1,-0.0027911149271975686,-0.0025058182711952034,-0.00822600705123817,0.0014392376224927079,0.9901724810845897
2016-10-05,-1,-0.0027904881559510314,-0.0025051609922284316,-0.00822600705123817,0.00982748128843006,0.9879938122772608
2016-10-07,-1,-0.0024152684308681033,-0.002178094151396708,-0.00822600705123817,0.0026766256133177726,0.9887652785371857
2016-10-11,-1,-0.0019043766405190897,-0.0017450454539583503,-0.00822600705123817,0.0015788291456550385,0.9889613805790874
2016-10-13,-1,-0.002497033365155001,-0.002277597861450705,-0.0047453953584448375,0.013215116386805762,0.9871814022730214
2016-10-17,-1,-0.0028139961605050346,-0.0025986430136358523,-0.0029732020608610917,0.018638135575805646,0.9855801446679271
2016-10-19,-1,-0.001272451142837044,-0.0012642382443880907,-0.0031230303868226674,0.014636420363816877,0.98722513145825
2016-10-21,-1,-0.002109885934626184,-0.002008745741099212,-0.002797572296874669,0.015536121884132188,0.9878380664847441
2016-10-25,-1,-0.0029690420347190704,-0.0027597141895272913,-0.0010611419685234613,0.018638135575805646,0.9873555302574581
2016-10-27,-1,-0.003006209242155081,-0.0028134475112445547,-0.0010611419685234613,0.018638135575805646,0.9874736947556331
2016-10-31,-1,-0.002644349591210996,-0.002467013809340459,-0.0010242448827356113,0.018638135575805646,0.9880610177188007
2016-11-02,-1,-0.001751674834534022,-0.0016511328249988531,-0.0010242448827356113,0.013661427905151399,0.9899797708530831
2016-11-04,-1,-0.0017468808591441676,-0.0016655667918688303,-0.0009094050116756178,0.014256839203079932,0.9890778398116131
2016-11-08,-1,-0.0012969192536296291,-0.0012734306624805104,-0.002556088901172724,0.014256839203079932,0.988728312717938
2016-11-10,-1,-0.00013951131485855843,-1.1106785781306652e-05,-0.003606468601722158,0.013459720025230737,0.9903484263808711
2016-11-14,1,0.0012027401187086897,0.0015447596032394943,-0.004310528534645414,0.011785272959207923,0.9922927067517144
2016-11-16,1,0.0013311959296947093,0.0017028575987759313,-0.0045633488202463,0.011785272959207923,0.991544574116637
2016-11-18,1,0.001830479301226443,0.0022933150974864215,-0.0045633488202463,0.01039123744870496,0.9924716054371533
2016-11-22,1,0.002121034346920702,0.0026114814417841567,-0.005769990623342276,0.01039123744870496,0.9922020119452407
2016-11-25,1,0.002213965569148299,0.0027127022179654066,-0.005929024270071662,0.01039123744870496,0.9917241704516039
2016-11-29,1,0.0026042941251769895,0.003182492927471527,-0.007149894509656248,0.01039123744870496,0.9912298317519228
2016-12-01,1,0.0031708063244767263,0.0038204287794438704,-0.007149894509656248,0.0064575398478758355,0.9913145067446131
2016-12-05,1,0.0033001061324373243,0.003951505603388928,-0.00703017853767798,0.0064575398478758355,0.9917484793495193
2016-12-07,1,0.003697585708188459,0.004411265562820843,-0.010488938068641544,0.004185526488353548,0.9910086466883212
2016-12-09,1,0.003777917477485389,0.004504841199789318,-0.00727412481380801,0.004185526488353548,0.9915483309069347
2016-12-13,1,0.0036231824988107227,0.0043313188807116675,-0.00645818107966899,0.004185526488353548,0.9918204739329393
2016-12-15,1,0.0031972893751279342,0.003814355990292864,-0.005970434371455583,0.004185526488353548,0.9925156626432738
2016-12-19,1,0.0035443954098499557,0.004244555866015685,-0.008005526110058139,0.004185526488353548,0.9905401697657488
2016-12-21,1,0.0036942077102716363,0.0043924631628402076,-0.008005526110058139,0.004185526488353548,0.9911604040687316
2016-12-23,1,0.0032823274447890344,0.003932722028761562,-0.006882500565602327,0.005378001985912154,0.9924546341274604
2016-12-28,1,0.002477557486139943,0.0029475303708145014,-0.006882500565602327,0.004309337743805015,0.9925542292960595
2016-12-30,1,0.0023929112088733645,0.0028339308212028073,-0.007492457722613494,0.003532879237168124,0.9921712658506997
2017-01-04,1,0.003328380252351612,0.0038556870760640904,-0.00901968081168427,0.003532879237168124,0.990464871974843
2017-01-06,1,0.0019184123352137977,0.0022818485471897353,-0.007492457722613494,0.003532879237168124,0.9918435880158385
2017-01-10,1,0.002363840155224936,0.0027723064470912195,-0.007492457722613494,0.001701519967387995,0.9917405267756801
2017-01-12,1,0.0023073118796281054,0.0027268779498905178,-0.007185375912296704,0.005817914664391529,0.9917515949044756
2017-01-17,1,0.002753761024946385,0.003219894526872294,-0.00901968081168427,0.0038976977682623542,0.9914862047265249
2017-01-19,1,0.0018703082705124846,0.002218016465598712,-0.008582822886794364,0.0038976977682623542,0.9917319636595386
2017-01-23,1,0.0020590331444497933,0.002444976725731301,-0.008582822886794364,0.006263378759239776,0.9910915623178683
2017-01-25,1,0.001860500230449283,0.0021301047676774596,-0.009564898183977487,0.0042062040388606515,0.9898576831964443
2017-01-27,1,0.0016675942704611159,0.0019420200456598683,-0.009564898183977487,0.0042062040388606515,0.9906530447954773
2017-01-31,1,0.001622280846135832,0.0019244865386464736,-0.008658811347916394,0.00765124491765108,0.9903252830063043
2017-02-02,1,0.0002592431420942966,0.0003078898339101942,-0.006500857962479504,0.007566565961100485,0.9915246318189225
2017-02-06,1,0.0003393670085709359,0.0003528357580932697,-0.008445540497076031,0.007566565961100485,0.9911334764726242
2017-02-08,1,5.599023185250116e-05,0.00011551833428981935,-0.008658811347916394,0.009400560296973297,0.9899938931170901
2017-02-10,1,2.1889756914429768e-05,0.0001288745044205198,-0.009356331976235886,0.007956324507346594,0.9899106657921541
2017-02-14,-1,-0.00041275199160653695,-0.0002608168406970429,-0.008658811347916394,0.007956324507346594,0.9904395861768193
2017-02-16,-1,-0.0015963244673053865,-0.0013156977657264935,-0.007738696001709291,0.007956324507346594,0.9916171086642789
2017-02-21,-1,-0.00034146423480630047,-0.00021802181597093475,-0.008445540497076031,0.003607869495700794,0.9907994431224635
2017-02-23,-1,-0.001810382313500355,-0.0014902714916358252,-0.00660627537298286,0.007517454062070597,0.99133856524427
2017-02-27,-1,-0.0019766148561460384,-0.001607194546242385,-0.007738696001709291,0.007517454062070597,0.9913041457955957
2017-03-01,-1,-0.0016944864231759154,-0.0013584115890788453,-0.007738696001709291,0.007392924539663802,0.9915331668736774
2017-03-03,-1,-0.0013236641663920455,-0.0010467403134682262,-0.007738696001709291,0.00727538917501585,0.9915594737766912
2017-03-07,-1,-0.0018457653366238296,-0.0015152409621120816,-0.007805326997025417,0.007392924539663802,0.9909792881958732
2017-03-09,-1,-0.00198935909828835,-0.0016123464029683132,-0.007805326997025417,0.007392924539663802,0.9909218143401844
2017-03-13,-1,-0.0026670397688187,-0.0021591237309196887,-0.006810084646608996,0.00727538917501585,0.9910472974833777
2017-03-15,-1,-0.0018899544448429705,-0.0015239324307579855,-0.007805326997025417,0.006879093834570263,0.9874842654988605
2017-03-17,-1,-0.0030577326166677326,-0.0025076674536876537,-0.009201373447696459,0.006879093834570263,0.9870918721183779
2017-03-21,-1,-0.005399772113796627,-0.004520666405782239,-0.007106012561071446,0.006879093834570263,0.9877369432021866
2017-03-23,-1,-0.005170896109580362,-0.004289032830270646,-0.007106012561071446,0.006879093834570263,0.987459846386413
2017-03-27,-1,-0.00552295194366329,-0.004617553016266179,-0.007220709618435448,0.006879093834570263,0.9871477393749086
2017-03-29,-1,-0.004298037481724963,-0.0036215955250572824,-0.009545464619788467,0.006102606739539779,0.985572869624943
2017-03-31,-1,-0.004359698527498775,-0.0036589367836549064,-0.009545464619788467,0.006102606739539779,0.9861360201823011
2017-04-04,-1,-0.004045810881247807,-0.003393549758535691,-0.008466277796782114,0.006102606739539779,0.9859749509531814
2017-04-06,-1,-0.0029001481574143875,-0.0024563653615591744,-0.008466277796782114,0.006088173712178919,0.9864679328018134
2017-04-10,-1,-0.001604246459418903,-0.001387246170852427,-0.008466277796782114,0.005259724517535412,0.9871030500570663
2017-04-12,-1,-0.0037743220421938674,-0.0032996030451028532,-0.009694122885191447,0.005259724517535412,0.9900328203623822
2017-04-17,-1,-0.0039748692545727386,-0.0034989778560197493,-0.009694122885191447,0.005259724517535412,0.9903187579715155
2017-04-19,-1,-0.003203249246258953,-0.002853084757339415,-0.011903279921222486,0.003497942424868562,0.9900199995658274
2017-04-21,-1,-0.002098572557491476,-0.0018863795712070418,-0.011903279921222486,0.00027248231613323233,0.9905758473099481
2017-04-25,-1,-0.0023363885534097555,-0.00210425814048518,-0.014883255914551655,0.00025087169759304567,0.9884515191518545
2017-04-27,-1,-0.0032204738576633698,-0.0029244816025604495,-0.014883255914551655,0.00025087169759304567,0.989198429706804
2017-05-01,-1,-0.0033817484059762938,-0.003088436132702321,-0.014883255914551655,0.003228757855106335,0.9888538345081334
2017-05-03,-1,-0.0021986949261403946,-0.002067961623626699,-0.014883255914551655,0.004622918329890103,0.9883725682783016
2017-05-05,-1,-0.002344696720073228,-0.002203436190246857,-0.013836044192573864,0.004421711215056088,0.9888680244871674
2017-05-09,-1,-0.002448490170764263,-0.00228267247134505,-0.014729581000955292,0.004421711215056088,0.9882564240256408
2017-05-11,-1,-0.0033451166048166937,-0.0030701255806995396,-0.014173655797468397,0.005416112929335325,0.9869230227641226
2017-05-15,-1,-0.003821255998471139,-0.0035050135764803907,-0.011342044738336242,0.006813439865819155,0.986376917043236
2017-05-17,-1,-0.0042271444155579105,-0.0038986149693730227,-0.011342044738336242,0.006813439865819155,0.9865106031142957
2017-05-19,-1,-0.004466650340183607,-0.0040818329048439095,-0.011342044738336242,0.006813439865819155,0.9866233795475059
2017-05-23,-1,-0.006498014351000717,-0.0058786413992101706,-0.011228214200509293,0.006813439865819155,0.9869673394280932
2017-05-25,-1,-0.005943351031087871,-0.005403339282981309,-0.009693442478223664,0.005416112929335325,0.9887806731422176
2017-05-30,-1,-0.005043169711640644,-0.00464699320501972,-0.009693442478223664,0.005416112929335325,0.9881541365704979
2017-06-01,-1,-0.004283018132967402,-0.0039418661921128036,-0.010336115603471424,0.003112982517869918,0.9891442178130271
2017-06-05,-1,-0.0037011656621939075,-0.0034717863695682156,-0.010336115603471424,0.005918061176422903,0.9876610673058454
2017-06-07,-1,-0.004629949698655457,-0.00429179468043834,-0.01261079787321749,0.005918061176422903,0.9858381593505322
2017-06-09,-1,-0.0020236105015698064,-0.0020035892069671535,-0.01261079787321749,0.003112982517869918,0.9875318179970451
2017-06-13,-1,-0.0026660178636184924,-0.002549655828216456,-0.012852576004745684,0.002434455742800913,0.9882471636302091
2017-06-15,-1,-0.0033219129982526028,-0.0031374853294206494,-0.011799291986689019,0.004649303280734388,0.9874218963350628
2017-06-19,-1,-0.002950869765256525,-0.0028341024807160054,-0.011799291986689019,0.0088598034626938,0.9866852890274646
2017-06-21,-1,-0.004929745869846614,-0.004567392184868199,-0.008655248028493578,0.0088598034626938,0.9881601445117392
2017-06-23,-1,-0.004815793666380835,-0.0044628950184179275,-0.009672177931803024,0.011819359307847575,0.9870019679025935
2017-06-27,-1,-0.003853906080276202,-0.0036368253185865202,-0.009672177931803024,0.011819359307847575,0.9863514129351161
2017-06-29,-1,-0.004250290524276343,-0.0039969741622629925,-0.009752770642312423,0.014064194529645899,0.9823049141619529
2017-07-03,-1,-0.002401267357138081,-0.0023683532424647502,-0.009752770642312423,0.008187894561580951,0.9839707650829551
2017-07-06,-1,-0.0043227992433011635,-0.004114363138918417,-0.008870602540133473,0.008187894561580951,0.9862845500436743
2017-07-10,-1,-0.0048892140809560555,-0.004601965295793077,-0.008870602540133473,0.012048467826307354,0.9849291204018005
2017-07-12,-1,-0.005923881935687077,-0.005454912837299868,-0.008870602540133473,0.012048467826307354,0.9847197053039003
2017-07-14,-1,-0.0033818847915333804,-0.0032849026079999344,-0.009011582726557828,0.007017024185207044,0.9846578789679643
2017-07-18,-1,-0.003432243651118306,-0.003284666500576746,-0.010693482696845755,0.006753984185343682,0.9840509036739338
2017-07-20,-1,-0.0027002842141261455,-0.0026573999685394678,-0.010693482696845755,0.013779866120038555,0.9821152594844859
2017-07-24,-1,-0.0025734528800761066,-0.0025693457236083154,-0.008892181116347143,0.012990746120448466,0.9833879496398658
2017-07-26,-1,-0.0007664193757115063,-0.0004958314176943377,-0.008892181116347143,0.017035836641622316,0.9832986527186821
2017-07-28,1,0.0007556788096217742,0.0012068163551452887,-0.007208591757079989,0.017035836641622316,0.985858689790251
2017-08-01,1,0.0008210283628918751,0.0013098963116761541,-0.007269970870030554,0.017035836641622316,0.9856042061284563
2017-08-03,1,0.00053967259344624,0.0009918543945969603,-0.004896793274877003,0.017035836641622316,0.9856956704101197
2017-08-07,1,0.0016943129134253897,0.0023267438780419586,-0.004080944509642303,0.01241878981788205,0.987270470745981
2017-08-09,1,0.0009020731397466207,0.0014093439227052926,-0.0028634856566418787,0.0153683310846607,0.9871090717258164
2017-08-11,-1,-0.0009025907661196807,-0.0007285139767537689,-0.0028634856566418787,0.0153683310846607,0.9875323346734932
2017-08-15,-1,-0.0008819499716429343,-0.000655253372002895,-0.0002936961957528562,0.0153683310846607,0.9881106539942325
2017-08-17,1,0.000807914136444927,0.0012391515101325724,-0.0002936961957528562,0.011705968775092019,0.9905854852092008
2017-08-21,1,0.0008826263519601829,0.0013361027369251381,-0.001894291878837706,0.011705968775092019,0.9893023844423494
2017-08-23,1,0.0028221223118887035,0.003556133073279386,-0.0028634856566418787,0.010919829709973725,0.990921375987601
2017-08-25,1,0.0046755959836373324,0.005663164671008004,-0.0028634856566418787,0.010614505486797536,0.9913446841298039
2017-08-29,1,0.004434473473211979,0.005416039349283209,-0.0002881610556158263,0.010614505486797536,0.9920989316765096
2017-08-31,1,0.005347327239660178,0.006485444251320813,-0.0002881610556158263,0.010614505486797536,0.9920745015423571
2017-09-05,1,0.004374338559619795,0.005241189058811897,-0.0002881610556158263,0.010614505486797536,0.9922006002803508
2017-09-07,1,0.0051225023925598814,0.006056953053677078,-0.002407493563736025,0.007137938279128442,0.9916337607808294
2017-09-11,1,0.0053009606870920885,0.006277292978587801,-0.006167297305458924,0.004658207520712824,0.9901780574621903
2017-09-13,1,0.006730696935023039,0.007952754689739789,-0.011235572538489103,0.0031760832065368403,0.9882668680828336
2017-09-15,1,0.007116880067638765,0.008371968909614707,-0.013803496746340061,0.0031760832065368403,0.9868668393745988
2017-09-19,1,0.0053788409592090535,0.006317963373988951,-0.011235572538489103,0.0034295604327217056,0.9898805815318903
2017-09-21,1,0.0048151179743572015,0.005650011490008483,-0.008728771457759332,0.0034295604327217056,0.9900893818892696
2017-09-25,1,0.006549005937997102,0.007658402166251714,-0.009257213749789238,0.0031760832065368403,0.9891834877744439
2017-09-27,1,0.006401917825056162,0.007470547043021541,-0.009257213749789238,0.0031760832065368403,0.9888385504206099
2017-09-29,1,0.006068087850804123,0.007084900518044635,-0.010779711765696066,0.003426486694026405,0.9882327856318656
2017-10-03,1,0.005544319737888229,0.006435700646999676,-0.010779711765696066,0.0050966929789496174,0.9871933508538965
2017-10-05,1,0.00481117829734601,0.005562972059729079,-0.010779711765696066,0.006768820727853749,0.9875338355546116
2017-10-09,1,0.0027948220258482053,0.003211083981658566,-0.008318657247282386,0.00785150753267436,0.9892064457820114
2017-10-11,1,0.0022043548681027524,0.0025351065896340595,-0.007871113948239966,0.008567714947525668,0.9885990868169657
2017-10-13,1,0.0007955977725163501,0.000812305881392696,-0.007282715616616871,0.011458535611557727,0.9887377470998675
2017-10-17,1,0.0008944606268574582,0.0009306877255985911,-0.007871113948239966,0.011458535611557727,0.9879705027000979
2017-10-19,1,0.0004883794987187638,0.0004945295709252825,-0.007871113948239966,0.013541818072087534,0.9873481002202971
2017-10-23,1,0.0009163848128484387,0.001021627012265712,-0.006901267040186646,0.01898547356144191,0.986449572666168
2017-10-25,1,0.0005103648921806256,0.0005510365517906913,-0.008498525366061955,0.01898547356144191,0.9860090132154836
2017-10-27,1,0.00024664189472835903,0.000297008313751362,-0.006995752667543875,0.01898547356144191,0.9865653672186931
2017-10-31,1,0.0023101735428919796,0.002634624476189958,-0.006995752667543875,0.019127987475424664,0.9859741542242996
2017-11-02,1,0.001863791211170519,0.0021176854906803525,-0.006995752667543875,0.019127987475424664,0.9858740108463775
2017-11-06,1,0.0012625922804063337,0.0013819742960879014,-0.0033952576579281525,0.019127987475424664,0.9864814613467005
2017-11-08,1,0.0018439498991405607,0.0020284299836703964,-0.006960319351956342,0.01898547356144191,0.9864883373499184
2017-11-10,1,0.0018353440294880453,0.0018963757173292252,-0.007630601906604631,0.018051616702092068,0.9866233979617592
2017-11-14,1,0.0009541285643164053,0.001011762629636869,-0.006867437052601418,0.018051616702092068,0.9873924685797343
2017-11-16,1,0.0022000112966252695,0.002342015133770297,-0.007630601906604631,0.018051616702092068,0.9865785559214835
2017-11-20,1,0.003117812931119273,0.0033376602463473922,-0.007630601906604631,0.012987544101276546,0.9869066120741113
2017-11-22,1,0.0030194046112214613,0.0032994593181681162,-0.006867437052601418,0.018954635736842425,0.9856567451846437
2017-11-27,1,0.0014883231391458192,0.0015548174689907865,-0.002763615908894213,0.018954635736842425,0.9855511567233546
2017-11-29,1,0.00334148541374032,0.0034432433024760463,-0.006067754416930481,0.012987544101276546,0.9883965030205337
2017-12-01,1,0.0021025415262066844,0.0021815225548057933,-0.004690943466346494,0.013768532453857452,0.988688326251416
2017-12-05,1,0.0027981441782938187,0.002862141771935466,-0.004690943466346494,0.017804089422765488,0.9880279907625844
2017-12-07,1,0.00120270277339885,0.0013333944923054428,0.00028651103945303235,0.01817197987579077,0.9882511000064106
2017-12-11,1,0.0012266820840878842,0.0013744473518439249,0.00028651103945303235,0.01817197987579077,0.9887660928870988
2017-12-13,1,0.0012993488973685248,0.0014536055192126793,-0.0009799715736556322,0.01817197987579077,0.988513680378179
