JNU-Tangyin/eata/results/Batch4_SP500/Batch4_SP500-RMD.csv
Date,Action,Predicted_Q25,Predicted_Q75,Actual_Q25,Actual_Q75,RL_Reward
2010-12-14,0,0.0,0.0,-0.009700426968718128,0.009517476465091814,0.9898429683825978
2010-12-16,0,0.0,0.0,-0.009700426968718128,0.008135215699292013,0.9894329974285114
2010-12-20,0,0.0,0.0,-0.013117216243246637,0.007312220237385821,0.989685453034122
2010-12-22,1,17.974603629831055,21.56193328811455,-0.016400270608833145,0.0016080566839819636,0.04813818172925588
2010-12-27,-1,-9.095233028903227e-07,-7.578137142764452e-07,-0.016400270608833145,0.0072093309395400325,0.9892937836431865
2010-12-29,1,0.0028207331778888475,0.0031557384898552553,-0.016400270608833145,0.007312220237385821,0.9874577889738817
2010-12-31,0,0.0,0.0,-0.016400270608833145,0.007312220237385821,0.9859279564875345
2011-01-04,0,0.0,0.0,-0.019701599851660114,0.0072093309395400325,0.9845280275152238
2011-01-06,0,0.0,0.0,-0.016400270608833145,0.00875408958378468,0.9845744318222027
2011-01-10,0,0.0,0.0,-0.01105047308209732,0.00932013645072256,0.9855149171004867
2011-01-12,0,0.0,0.0,-0.010047701610307602,0.007463548962483661,0.9867281775666208
2011-01-14,0,0.0,0.0,-0.010047701610307602,0.007463548962483661,0.986346153206996
2011-01-19,0,0.0,0.0,-0.009113342911518992,0.008958835867731198,0.986747228741989
2011-01-21,0,0.0,0.0,-0.0022362516749604763,0.008958835867731198,0.9874526606202664
2011-01-25,0,0.0,0.0,-0.009542692975276339,0.008958835867731198,0.986234375065622
2011-01-27,0,0.0,0.0,-0.011519596302680332,0.00891607708578978,0.9868018935097062
2011-01-31,0,0.0,0.0,-0.009542692975276339,0.007142725724217314,0.9899393344675761
2011-02-02,0,0.0,0.0,-0.005321720026524264,0.007142725724217314,0.9906121468702276
2011-02-04,0,0.0,0.0,-0.009542692975276339,0.006239910436505264,0.9905458143210059
2011-02-08,0,0.0,0.0,-0.011519596302680332,0.006239910436505264,0.9895909673967749
2011-02-10,0,0.0,0.0,-0.012870152709380136,0.006239910436505264,0.9891141711321462
2011-02-14,0,0.0,0.0,-0.016051281220049462,0.006239910436505264,0.9880695045221528
2011-02-16,0,0.0,0.0,-0.016051281220049462,0.00586985092056524,0.9882113464977108
2011-02-18,0,0.0,0.0,-0.016051281220049462,0.006953702942642767,0.9874837217804987
2011-02-23,0,0.0,0.0,-0.015544830313860848,0.006953702942642767,0.9882272546652352
2011-02-25,-1,-0.002610025038235116,-0.0024155272917965537,-0.015544830313860848,0.006953702942642767,0.9891636853474166
2011-03-01,0,0.0,0.0,-0.015544830313860848,0.006953702942642767,0.9889961929468205
2011-03-03,-1,-0.0004073489642591248,-0.0003625683990883833,-0.015544830313860848,0.0029519790054851444,0.9904622829911834
2011-03-07,-1,-0.0009896476982105974,-0.0008666474076567837,-0.009096701893857917,0.0029519790054851444,0.9911334906940957
2011-03-09,-1,-0.001445569200316077,-0.001247109247028381,-0.006249497613152138,0.006786040733139623,0.9902048969310695
2011-03-11,-1,-0.0016958819645090813,-0.001460903149387343,-0.005826216523034589,0.009441719277204635,0.9905166841249886
2011-03-15,-1,-0.002719334706424672,-0.0023492060821569266,-0.004906183477387102,0.009982850052861121,0.9910297263003248
2011-03-17,-1,-0.0024825641429255113,-0.002162137776781821,-0.003648270976268294,0.011235005093194363,0.9907358349693555
2011-03-21,-1,-0.002241280564690866,-0.0019467519632003103,-0.0028828314244717717,0.00972229694969984,0.9909554351056153
2011-03-23,-1,-0.0024815774644065813,-0.0021761647631472663,-0.0008355973063667797,0.011090087510963915,0.9908752397025078
2011-03-25,-1,-0.0023906034814763144,-0.0020797602600431493,-0.001662303944904413,0.00972229694969984,0.9908760034121716
2011-03-29,-1,-0.0020201035584794104,-0.0017722564545121365,8.889561581631664e-05,0.011090087510963915,0.9899504675592188
2011-03-31,-1,-0.001642793228718464,-0.0014842558005565168,-0.005693237181675369,0.011090087510963915,0.9875994766285559
2011-04-04,-1,-0.0017183567010379752,-0.001535050732863573,0.001372829031012738,0.011090087510963915,0.9877784218142557
2011-04-06,-1,-0.00039914622769129325,-0.00039125810820581856,-0.0028494727573512447,0.009580254778929476,0.9905041371414942
2011-04-08,-1,-0.00033306450951031767,-0.0003260284880529486,-0.00202541719081878,0.010398456558035648,0.9902846878535134
2011-04-12,-1,-0.000253202886700425,-0.00023733363657442113,-0.003657800909068105,0.009081765810240457,0.990201381513897
2011-04-14,1,4.00450644054364e-05,5.833022448628127e-05,-0.007631561630343933,0.008439973901403296,0.989377463603203
2011-04-18,-1,-3.6980726897034204e-05,-2.479663502268891e-05,-0.007631561630343933,0.008046009994900748,0.9897670568319291
2011-04-20,1,0.0005552547738875406,0.0006128221681949623,-0.007631561630343933,0.007546184489325132,0.9902433665330848
2011-04-25,0,0.0,0.0,-0.00897709868519126,0.006623154868120201,0.9895103768082567
2011-04-27,0,0.0,0.0,-0.00897709868519126,0.006159972359204039,0.9896736934989134
2011-04-29,0,0.0,0.0,-0.003657800909068105,0.006623154868120201,0.9914920884529699
2011-05-03,0,0.0,0.0,-0.007631561630343933,0.006623154868120201,0.9905328524423063
2011-05-05,0,0.0,0.0,-0.004372277334855044,0.007760919919213387,0.9902618389389655
2011-05-09,0,0.0,0.0,-0.009688222636779912,0.006623154868120201,0.9901361475622247
2011-05-11,0,0.0,0.0,-0.005647788903548827,0.006159972359204039,0.9907316876629081
2011-05-13,1,0.00045960639149241015,0.0006014247311727759,-0.005641559217584046,0.004329855688806261,0.9919909639586616
2011-05-17,0,0.0,0.0,-0.011964886209778189,0.006159972359204039,0.9898518633184268
2011-05-19,0,0.0,0.0,-0.011964886209778189,0.008369436927336757,0.989327993959438
2011-05-23,0,0.0,0.0,-0.003025466090444683,0.010883806907124748,0.9894871742949847
2011-05-25,0,0.0,0.0,-0.011784467096874189,0.008990696079393299,0.9880705312126522
2011-05-27,1,0.0005648932788917917,0.0006606086938526186,-0.011784467096874189,0.007760437335532104,0.9885656337242275
2011-06-01,1,4.553640442115893e-05,5.293494407333451e-05,-0.010100377704251332,0.008990696079393299,0.9886749917924137
2011-06-03,0,0.0,0.0,-0.010100377704251332,0.008815656989273954,0.9887344216047934
2011-06-07,0,0.0,0.0,-0.005041487325167711,0.008815656989273954,0.9897655105456507
2011-06-09,0,0.0,0.0,-0.009912483604021029,0.008815656989273954,0.9894802154561237
2011-06-13,0,0.0,0.0,-0.009912483604021029,0.008815656989273954,0.9891193879347084
2011-06-15,-1,-0.0005524560517556945,-0.0004774796440194549,-0.004885394484625746,0.010358689636766713,0.9867388749464501
2011-06-17,0,0.0,0.0,-0.009912483604021029,0.008815656989273954,0.986419080895677
2011-06-21,1,0.0013597379501321342,0.0013950252253993264,-0.009912483604021029,0.005727736089462765,0.987406148365022
2011-06-23,-1,-0.001743370299295482,-0.0015277929607808612,-0.005556758971271617,0.005727736089462765,0.9894670186797746
2011-06-27,-1,-0.0022914931337806705,-0.0020166179431200196,-0.005556758971271617,0.005727736089462765,0.9890579899041779
2011-06-29,-1,-0.0004805778417759735,-0.00046927609217221623,-0.00923928169824149,0.002191812653878361,0.9889976129496421
2011-07-01,1,0.0004311946315223905,0.0005768578117034813,-0.00923928169824149,-0.0001614240846556777,0.9888061879223132
2011-07-06,0,0.0,0.0,-0.011902782419104295,0.0002693981078604807,0.9876256950213815
2011-07-08,0,0.0,0.0,-0.01492490089142371,0.0018449672257062708,0.9859852347510618
2011-07-12,-1,-0.00011237290339997516,-8.048301945985324e-05,-0.017332424571170412,0.0018449672257062708,0.9803532192578488
2011-07-14,0,0.0,0.0,-0.017332424571170412,-1.9084036513478705e-05,0.9811773972367295
2011-07-18,1,0.0015932731432093967,0.0017487253708428946,-0.015533533813800647,0.002076380612650217,0.9802883253768787
2011-07-20,1,0.0015754088423848471,0.0017802559347304282,-0.015533533813800647,0.0018449672257062708,0.9799292752256354
2011-07-22,1,0.0005242739852687902,0.0005900661355926606,-0.017473200222594017,0.0038936003897457193,0.9779638698688068
2011-07-26,1,0.0006916244641894317,0.0008482010639099891,-0.01736707151719216,0.015041300124905798,0.9765269436294466
2011-07-28,-1,-0.0005906422038326848,-0.0005318737901840444,-0.01751588034694359,0.015041300124905798,0.9761055828805798
2011-08-01,-1,-0.0008210517693620424,-0.000723156323342121,-0.01751588034694359,0.01990065333882052,0.9744985483253772
2011-08-03,-1,-0.0015089927393802187,-0.0013258256645045444,-0.007719368957814272,0.01990065333882052,0.9744760808516256
2011-08-05,-1,-0.0037153614577822374,-0.003226702058221196,-0.007719368957814272,0.01990065333882052,0.9742878564552949
2011-08-09,0,0.0,0.0,-0.007719368957814272,0.01990065333882052,0.9791975894438408
2011-08-11,0,0.0,0.0,-0.018942211686786507,0.018527023612282527,0.9804839568003553
2011-08-15,-1,-0.0007855878979458564,-0.0005865039324697238,-0.018942211686786507,0.01856013828906708,0.980819925868021
2011-08-17,-1,-0.0036918816106717494,-0.0031729839842917374,-0.018942211686786507,0.01856013828906708,0.9803471520351331
2011-08-19,0,0.0,0.0,-0.018942211686786507,0.01856013828906708,0.9819265554697164
2011-08-23,-1,-0.001826723269288493,-0.001634047024466683,-0.018942211686786507,0.01501850571973783,0.9838356746143918
2011-08-25,0,0.0,0.0,-0.018942211686786507,0.01856013828906708,0.9830031332611399
2011-08-29,0,0.0,0.0,-0.018942211686786507,0.014213951240229082,0.9835373244859956
2011-08-31,0,0.0,0.0,-0.022319021438332077,0.011550184412594915,0.9831783442280848
2011-09-02,1,0.0009457294229042375,0.001018426991896958,-0.022319021438332077,0.011550184412594915,0.9812354470100318
2011-09-07,1,0.0005854112889151868,0.0007282688086526169,-0.018957636058727356,0.01552810988509978,0.9814488634965832
2011-09-09,-1,-0.0006543152171888637,-0.0006534401013113055,-0.01282900219475704,0.023972123039267566,0.98085690157449
2011-09-13,0,0.0,0.0,-0.014652765229553168,0.020119634719816926,0.9805135103535624
2011-09-15,0,0.0,0.0,-0.014652765229553168,0.0216619066332651,0.9798200184157535
2011-09-19,1,0.001335186190599334,0.0015616294803400261,-0.014652765229553168,0.0216619066332651,0.9804478679712386
2011-09-21,0,0.0,0.0,-0.014652765229553168,0.0216619066332651,0.9795881183606759
2011-09-23,0,0.0,0.0,-0.009707315045261775,0.0216619066332651,0.9803387072995002
2011-09-27,0,0.0,0.0,-0.014652765229553168,0.01977949003060494,0.9760144828442925
2011-09-29,0,0.0,0.0,-0.009707315045261775,0.0216619066332651,0.9750238934681827
2011-10-03,0,0.0,0.0,-0.008416895077835048,0.0216619066332651,0.9763982910224945
2011-10-05,0,0.0,0.0,-0.010425806606819606,0.01931846274069287,0.9774959026292933
2011-10-07,1,0.0004009761636810439,0.0004820876740778798,-0.010425806606819606,0.018454574452668477,0.9787804238622417
2011-10-11,1,0.0003710183703497617,0.00044618463846665647,-0.005164449674390557,0.01785700640013088,0.9801560980320584
2011-10-13,1,0.0006621658498880296,0.0007434187568664103,-0.014617316321147268,0.017364302953929163,0.9783671677227392
2011-10-17,1,0.00040898455514458063,0.00048701813987554716,-0.012106597484529247,0.017364302953929163,0.9787419553765481
2011-10-19,1,0.0006191315331901682,0.0007351599152284685,-0.012106597484529247,0.01691207789134183,0.9793795057260953
2011-10-21,0,0.0,0.0,-0.014617316321147268,0.014694096812763338,0.9790469123904899
2011-10-25,0,0.0,0.0,-0.014617316321147268,0.01024792322314436,0.983155376733521
2011-10-27,0,0.0,0.0,-0.014617316321147268,0.006867560857246152,0.9846598852190358
2011-10-31,-1,-0.0004185658720233178,-0.0003806071738150401,-0.014617316321147268,0.006867560857246152,0.9842357073039544
2011-11-02,-1,-0.0004035521184898813,-0.00036183041419074957,-0.01410249288392811,0.006867560857246152,0.9839774905903983
2011-11-04,1,0.0003976062633160958,0.00044346533317412824,-0.01410249288392811,0.005597999775552553,0.9850715254074583
2011-11-08,1,0.0007206248987149369,0.0008327751860840932,-0.015470180384605521,0.0016478776729910354,0.9843129354818937
2011-11-10,-1,-0.0002737598938910299,-0.00025387208841026293,-0.014880743999056506,0.004354039604209857,0.9865212959136906
2011-11-14,-1,-0.0006212219386887828,-0.0005642173470768047,-0.01827971613535065,0.0012954540105828498,0.9856659095276927
2011-11-16,-1,-0.0011774339502171462,-0.0010232399247397167,-0.01968465603439002,0.0012954540105828498,0.9837882331834724
2011-11-18,0,0.0,0.0,-0.01827971613535065,0.0047467355505417565,0.983579998078284
2011-11-22,-1,-0.0005293199707532624,-0.0004885154878947092,-0.017460680336876613,0.009871911193606276,0.9831330364400093
2011-11-25,-1,-0.0009151184231110234,-0.0008305249248922622,-0.017460680336876613,0.009871911193606276,0.9837874799705535
2011-11-29,-1,-0.002471863741961723,-0.0022005064824737737,-0.01615811096633986,0.0047467355505417565,0.9861543979169478
2011-12-01,0,0.0,0.0,-0.01615811096633986,0.0047467355505417565,0.9867022718895403
2011-12-05,0,0.0,0.0,-0.017460680336876613,0.00506815088327232,0.9855002368902231
2011-12-07,1,0.0011043590584788664,0.0012532875637456431,-0.01615811096633986,0.005392229516988324,0.9859447551383974
2011-12-09,-1,-0.0009556537379794162,-0.0009243311611125425,-0.011372853389129335,0.009502136575966314,0.9843492460621702
2011-12-13,-1,-0.0017519331040067305,-0.0016167170123630855,-0.007580313882444335,0.012769565723225084,0.9849300702346185
2011-12-15,-1,-0.0014741753209477563,-0.0013607809913845823,-0.007503317966746503,0.012665919701903566,0.9867311969985135
2011-12-19,-1,-0.0018001401617535398,-0.0016257112113431493,-0.006418338418188224,0.012665919701903566,0.9874851267874023
2011-12-21,0,0.0,0.0,-0.007503317966746503,0.012665919701903566,0.9877471881122474
2011-12-23,0,0.0,0.0,-0.007503317966746503,0.012894341116847898,0.9869912413641534
2011-12-28,-1,-0.0032567102222354175,-0.002481765282355654,-0.006630176483458573,0.013461659762853555,0.9822056362734837
2011-12-30,0,0.0,0.0,-0.00905680027655633,0.013150721698889001,0.9815076029858701
2012-01-04,0,0.0,0.0,-0.007323274971000071,0.013150721698889001,0.9828439446282766
2012-01-06,0,0.0,0.0,-0.008553648698026647,0.01427145678544599,0.9822839844853313
2012-01-10,-1,-0.0022156559654917633,-0.0017931243796263916,-0.008553648698026647,0.013150721698889001,0.9842427222721183
2012-01-12,-1,-0.002511392262912307,-0.002060080267194863,-0.007040301059134099,0.013150721698889001,0.9849657174198113
2012-01-17,-1,-0.0014414084732135347,-0.001182672179027404,-0.007040301059134099,0.011990407006297665,0.9850410756677744
2012-01-19,-1,-0.0014171430697312458,-0.0011504417909780833,-0.007040301059134099,0.007604054000378854,0.9857522274038877
2012-01-23,-1,-0.0007203716979772508,-0.00058437476345828,-0.007040301059134099,0.005809665906969177,0.9870603930844996
2012-01-25,1,0.00040439839473875453,0.0004150817128885454,-0.007040301059134099,0.004103203107957552,0.9881934511660712
2012-01-27,0,-9.003119430558027e-05,1.65687957579752e-05,-0.006874200369028957,0.004103203107957552,0.9925094830366025
2012-01-31,-1,-0.0006972727424101323,-0.0005601794878597984,-0.005026589077097391,0.004103203107957552,0.9937753110715055
2012-02-02,-1,-0.0012874818364806931,-0.001049055778899751,-0.005026589077097391,0.006551938070333914,0.9926452519040048
2012-02-06,-1,-0.0006165081874681788,-0.000488622074752408,-0.005967511342658938,0.005381764207052994,0.9922918646400662
2012-02-08,-1,-0.0004661451461387412,-0.00034801189449192065,-0.005967511342658938,0.006514328797510796,0.9916374027959175
2012-02-10,-1,-0.0007604538454731662,-0.000599196360881693,-0.005026589077097391,0.0057238416963214,0.9916509760306312
2012-02-14,0,0.0,0.0,-0.003518870241691005,0.009066675882099987,0.9907482004106039
2012-02-16,0,0.0,0.0,-0.003518870241691005,0.009066675882099987,0.9905836601814949
2012-02-21,0,0.0,0.0,-0.001726055657669567,0.013533659589524379,0.9905644621634246
2012-02-23,0,0.0,0.0,-0.003769383576760894,0.013533659589524379,0.9901035467244097
2012-02-27,-1,-0.0010037311361871944,-0.0007232775922748865,-0.003769383576760894,0.010108955956016717,0.9900283017863118
2012-02-29,-1,-0.0006753822033318329,-0.00048498021744568557,-0.006704166619740956,0.010108955956016717,0.9888081923693233
2012-03-02,0,-7.052612375354702e-05,2.811146171455937e-05,-0.006704166619740956,0.008729958189521998,0.989965146188339
2012-03-06,-1,-0.0008178366901490732,-0.0006281853087118419,-0.0027962778862121035,0.010108955956016717,0.9904875789795042
2012-03-08,0,-7.851969046808932e-05,5.854217596533174e-06,-0.004333529784635367,0.008729958189521998,0.9907436916877929
2012-03-12,-1,-0.00024502556987813053,-0.00012220598879155467,-0.008188036346952152,0.008729958189521998,0.9898472503138402
2012-03-14,1,0.0005854344841818303,0.0006054893015346528,-0.008188036346952152,0.008729958189521998,0.9902452206520139
2012-03-16,1,0.0008271489137011749,0.0008773466996963779,-0.012856619868530018,0.008729958189521998,0.9890727189749201
2012-03-20,1,0.002365260385322149,0.002709969188541448,-0.012856619868530018,0.008729958189521998,0.9886507122175676
2012-03-22,1,0.0023965200381079743,0.002794195136588481,-0.012856619868530018,0.008985713558928219,0.9888266459487877
2012-03-26,1,0.0023612291471291295,0.002712770917911776,-0.012856619868530018,0.009237969256795556,0.9881262897157328
2012-03-28,1,0.001957173539940427,0.0022666881539737723,-0.007405438873040666,0.011662493393844156,0.9889996750023845
2012-03-30,1,0.002104630554003201,0.002494698877666571,-0.007405438873040666,0.014542579593051552,0.9860501951277937
2012-04-03,1,0.002502023098859377,0.0029255737721058522,-0.007405438873040666,0.015124671048832682,0.9856040332004328
2012-04-05,1,0.0016469143754084922,0.0019231554150338148,-0.010437322224200803,0.015124671048832682,0.9850553294186591
2012-04-10,1,0.001001543907503434,0.0011862010318606062,-0.007405438873040666,0.015124671048832682,0.9858800922427876
2012-04-12,1,0.0014180698973047016,0.0016171015794271934,-0.007405438873040666,0.015124671048832682,0.9863583958043396
2012-04-16,1,0.0006545754044598796,0.0007442969247112438,-0.0075250224898631745,0.015124671048832682,0.9864342332393813
2012-04-18,1,0.0004403571714576466,0.00046431593200039556,-0.0105976319370087,0.015177606639080767,0.9851275354985273
2012-04-20,1,0.0002498283006354353,0.00027900765685110113,-0.014095875987458966,0.015177606639080767,0.9835571303659931
2012-04-24,1,0.0009553782429294869,0.0010262495278563673,-0.014095875987458966,0.015177606639080767,0.9838475683113536
2012-04-26,1,0.0016601246018071998,0.0018374090983673728,-0.014095875987458966,0.013620140955104205,0.984593587461397
2012-04-30,1,0.0018070124217769235,0.002009747210448682,-0.01471885274203433,0.006302740769520785,0.9865662901675143
2012-05-02,1,0.0024046576773476516,0.0026653063559759064,-0.01471885274203433,-0.0007733393817651376,0.9866102999732231
2012-05-04,1,0.0010725747713431573,0.0011270158834912856,-0.013672516374153294,-0.0007733393817651376,0.9881833581779627
2012-05-08,1,0.00018227136316991918,0.0002802488145526628,-0.013672516374153294,0.0068401344345755954,0.9871962191826001
2012-05-10,1,0.0007813745037441233,0.0008141740988642297,-0.013672516374153294,0.0036863169452109224,0.9876368112346181
2012-05-14,0,-0.00016130969045685559,4.651230072039809e-07,-0.012281620341461874,0.008421125968389457,0.9878900143270865
2012-05-16,1,0.00021538762999919023,0.0002921944300696332,-0.009415176655719483,0.0036863169452109224,0.9893046778806022
2012-05-18,-1,-0.0012888856450134622,-0.0010274103911816644,-0.006066596561325982,0.006846207611033695,0.9916201882707246
2012-05-22,-1,-0.0010675810821066645,-0.0008102889187602827,-0.006066596561325982,0.006846207611033695,0.9917900271682831
2012-05-24,-1,-0.0009204017698859501,-0.000691714667414551,-0.0068130576914627525,0.009489071875694904,0.9889924263954397
2012-05-29,-1,-0.002021717336749219,-0.0016403942553929458,-0.0068130576914627525,0.009489071875694904,0.9887610781437465
2012-05-31,-1,-0.00248361637407223,-0.0020434760416077006,-0.007200369535288853,0.009489071875694904,0.9886307775319284
2012-06-04,0,0.0,0.0,-0.005776905572652626,0.012988782118756186,0.9877392918046547
2012-06-06,0,0.0,0.0,-0.006666550188567924,0.006846207611033695,0.9894635439934134
2012-06-08,0,0.0,0.0,-0.006666550188567924,0.005768799199839443,0.9895609387151973
2012-06-12,0,0.0,0.0,-0.005776905572652626,0.005768799199839443,0.9899954336687171
2012-06-14,-1,-0.0010841436064961138,-0.0008220674025340683,-0.0036004060956561015,0.009489071875694904,0.989645096557307
2012-06-18,-1,-0.000438149777930158,-0.00028891452232708196,-0.0053601497477753345,0.012760967044065409,0.9888007666283221
2012-06-20,1,0.0006183844975321433,0.0006804801408541005,-0.0064751494170189414,0.007049052660725037,0.9886807264608335
2012-06-22,-1,-0.0005767038343540835,-0.00042045467078279515,-0.008549208757407695,0.0045729984352687785,0.9897681729355713
2012-06-26,0,0.0,0.0,-0.0064751494170189414,0.005193730676486848,0.9906772935872147
2012-06-28,0,0.0,0.0,-0.006010017069953446,0.008048298912780256,0.98908515182177
2012-07-02,0,0.0,0.0,-0.006010017069953446,0.005193730676486848,0.9902099702464889
2012-07-05,0,0.0,0.0,-0.0053601497477753345,0.006384682942424953,0.990199894658634
2012-07-09,0,0.0,0.0,-0.006010017069953446,0.008623416954428914,0.9851772041395699
2012-07-11,0,0.0,0.0,-0.006010017069953446,0.008691073825739627,0.9851567643941816
2012-07-13,0,0.0,0.0,-0.006010017069953446,0.006384682942424953,0.9856767700995145
2012-07-17,0,0.0,0.0,-0.005521358239070795,0.006384682942424953,0.9862694246196737
2012-07-19,0,0.0,0.0,-0.0051106463622917,0.007551813327021638,0.9863741496259284
2012-07-23,-1,-0.0017645279524275172,-0.0015022553678827673,-0.0006918325302356495,0.007616481100792095,0.9872981792202047
2012-07-25,-1,-0.0011679111477202848,-0.0010090143648201688,-0.004556731891316412,0.009573199958157523,0.986716224558615
2012-07-27,-1,-0.0017982638735009509,-0.0015669183117584381,-0.004556731891316412,0.009573199958157523,0.9877521966179956
2012-07-31,-1,-0.002161194370023241,-0.0019323109604576108,0.0013238180803449482,0.009573199958157523,0.9872805704100639
2012-08-02,-1,-0.0010357032973480592,-0.0009496425580204005,-0.0009208139351521006,0.009573199958157523,0.9876691493472011
2012-08-06,1,0.00013596303141406662,0.00022335240292678554,0.0019703187019023557,0.009573199958157523,0.9913521555293251
2012-08-08,1,0.0004101088191443438,0.0004956130678059072,0.0019703187019023557,0.009573199958157523,0.9901492277524032
2012-08-10,0,0.0,0.0,-0.0014146399612964356,0.009573199958157523,0.9896735923598092
2012-08-14,0,0.0,0.0,-0.0020111672778070334,0.007616481100792095,0.9902738599660291
2012-08-16,0,0.0,0.0,-0.004837962238240536,0.007056662684590741,0.9903063927026131
2012-08-20,0,0.0,0.0,-0.007416270980244755,0.006370985159680492,0.9899113108846466
2012-08-22,1,0.00027783523611613764,0.0003215586205009837,-0.004837962238240536,0.006370985159680492,0.9908883644417027
2012-08-24,0,0.0,0.0,-0.001959058273143443,0.006370985159680492,0.9911653615619435
2012-08-28,1,0.0014572936908085713,0.001584658635902733,-0.001959058273143443,0.007111296488147038,0.9913414963961139
2012-08-30,1,0.0009764365403487007,0.0010003604126450248,-0.0005076364351547572,0.007196644694441863,0.9914981720221542
2012-09-04,1,0.0027799486170421613,0.0030796183281708326,-0.0015094970930166441,0.007196644694441863,0.9929160920383251
2012-09-06,0,0.0,0.0,-0.0015094970930166441,0.007111296488147038,0.9945686714562431
2012-09-10,0,0.0,0.0,-0.0015094970930166441,0.007111296488147038,0.9949260230942376
2012-09-12,0,0.0,0.0,-0.0026734344164302732,0.007111296488147038,0.9939948169978863
2012-09-14,0,0.0,0.0,-0.0020589371222042374,0.007196644694441863,0.9941595068429082
2012-09-18,0,0.0,0.0,-0.0014545183883168985,0.0073915258043822755,0.9939274157315758
2012-09-20,1,0.0034819348131360137,0.0038221065388788344,-0.0020589371222042374,0.0073915258043822755,0.993674383870107
2012-09-24,1,0.0037746237296973437,0.004208417195509593,-0.0028284144880164324,0.0073915258043822755,0.9931952255689559
2012-09-26,1,0.003157859420164894,0.003454587685926649,-0.0028284144880164324,0.0073915258043822755,0.9922075153553211
2012-09-28,1,0.003522269325980546,0.0038624439871169803,-0.006817764402917682,0.0073915258043822755,0.9896844488927063
2012-10-02,1,0.004238209236349572,0.004828560364447803,-0.006817764402917682,0.0073915258043822755,0.9895316590939514
2012-10-04,1,0.0038016740954608533,0.004313381946594298,-0.010006835025281938,0.007791026873500418,0.9891482710470474
2012-10-08,1,0.0034216381785653017,0.003855505617493714,-0.010460454430644726,0.008835716337793785,0.9883402813086735
2012-10-10,1,0.0020029967749413563,0.0021473951509841044,-0.010460454430644726,0.008835716337793785,0.9886279066892077
2012-10-12,1,0.0024923707698315716,0.0027472423450209714,-0.012873715536238266,0.008835716337793785,0.9872199240841701
2012-10-16,1,0.0030560998103806723,0.003379078100102079,-0.013168244106662993,0.007003178542945033,0.9870167049360247
2012-10-18,1,0.00219911231499016,0.0023594755312100735,-0.013168244106662993,0.008835716337793785,0.9857322463484633
2012-10-22,1,0.0018056405265301368,0.0019061264604475902,-0.013044237100824922,0.007860842276530344,0.9857642749372936
2012-10-24,1,0.002353879105222166,0.002489755306450668,-0.013044237100824922,0.00626089389557648,0.9867140989250706
2012-10-26,1,0.0017064668945032683,0.0018574963271487238,-0.01129325236245892,0.011089794426302235,0.9886153364003746
2012-11-01,1,0.002206901663257544,0.002429463668078266,-0.01129325236245892,0.00626089389557648,0.9892230548610476
2012-11-05,1,0.001930964919740899,0.00211440360691808,-0.010958843082902354,0.004490263466194073,0.9896138503828881
2012-11-07,1,0.001688075296809072,0.0018073603990183262,-0.010680674412301985,0.004490263466194073,0.9903308152107493
2012-11-09,1,0.0014617186064710592,0.0015720925506473974,-0.005946533312517949,0.005749891038660801,0.990805537009627
2012-11-13,1,0.00030181038309242005,0.00033868982481064067,-0.0034048770116165356,0.009935183565398199,0.9914554150359984
2012-11-15,-1,-0.0005529872294644283,-0.00037692068414515637,-0.0034048770116165356,0.009935183565398199,0.9908418962553128
2012-11-19,1,0.0003117601011860765,0.000451906322782601,-0.0034048770116165356,0.009935183565398199,0.9923964663167082
2012-11-21,-1,-0.0010808691357261052,-0.0007701087245265259,-0.0007983206456972496,0.009935183565398199,0.9917804891076613
2012-11-26,0,-3.4664728901163174e-05,0.0001548926635198916,-0.004087524729406258,0.009560537828630113,0.9919123686651193
2012-11-28,1,8.610084586306945e-05,0.0002866414814385453,-0.005680919263241418,0.00838631346464394,0.99219643327393
2012-11-30,-1,-0.0003490980257975899,-8.849843303842945e-05,-0.007869399841586284,0.009560537828630113,0.9913410486209807
2012-12-04,-1,-0.0005526693972039842,-0.0002977471576818923,-0.004817018255521214,0.009935183565398199,0.9906121510026216
2012-12-06,0,-0.00014447480129941388,3.967795369412552e-05,-0.0022414434789581397,0.009560537828630113,0.99105863882291
2012-12-10,1,0.00026141546260371497,0.00037819288798175585,-0.0022414434789581397,0.009803649744085085,0.9907442802364119
2012-12-12,1,0.000520252714799583,0.0006407463648710431,-0.007869399841586284,0.008023260124357754,0.9911747094769611
2012-12-14,-1,-0.0010334770662280878,-0.0006398811279343724,-0.0022414434789581397,0.008023260124357754,0.9916884272604007
2012-12-18,-1,-0.0004634106823920909,-0.00014363372598391632,-0.00491047175762615,0.006293203463940509,0.9920125014501747
2012-12-20,-1,-0.0004108037817511027,-0.00015592426267314527,-0.0013713826811158323,0.008338797264514173,0.9921423306707428
2012-12-24,-1,-0.001645437147778065,-0.0012077420726851217,0.002156487325238459,0.008338797264514173,0.9917953385617643
2012-12-27,-1,-0.0020238111276040215,-0.0015681799876711923,0.002682031198445424,0.009570575751134009,0.9887981484940244
2012-12-31,-1,-0.0018770421167821603,-0.0015073050678684012,0.0018565222682757586,0.008338797264514173,0.9886345068011211
2013-01-03,-1,-0.0003684204999219356,-0.00014190816322713813,-7.865650384234315e-05,0.008338797264514173,0.9868860219455765
2013-01-07,-1,-0.0004004260220096382,-0.00019654667556866462,-0.002530718089552357,0.008338797264514173,0.9870748792410993
2013-01-09,1,0.0005421190681374312,0.0006142487487613427,-0.002532432785246566,0.006163293268245999,0.9879866071172111
2013-01-11,1,0.0005905817059856675,0.0006334985900987144,-0.0037219645604901876,0.005602198212415302,0.9879224429052719
2013-01-15,1,0.0008322963705514642,0.0008426907206781739,-0.0037219645604901876,0.005602198212415302,0.9879798046628187
2013-01-17,1,0.0009797666916659849,0.0009823240854087004,-0.008979621997212032,0.003406267666689537,0.9877558519695006
2013-01-22,1,0.0015777159407518236,0.0016634715657893326,-0.008979621997212032,0.001653674392299364,0.9870543562607239
2013-01-24,1,0.0017231196256322447,0.0018261114081250885,-0.011345907638823581,0.0011706263477571852,0.9858290402548425
2013-01-28,1,0.0022247865415132577,0.0023816179551182227,-0.011345907638823581,0.0009639311708482219,0.9877362988492489
2013-01-30,1,0.0019743838950900083,0.0022087924833384194,-0.008137875500712797,0.009379840048283907,0.9883585171980511
2013-02-01,1,0.0028118697365788784,0.0031608540010153703,-0.008137875500712797,0.008884982424199918,0.9904986273211328
2013-02-05,1,0.0023605209869386875,0.002624016525111587,-0.008137875500712797,0.011496451263445857,0.9897451901423541
2013-02-07,1,0.002290847485750043,0.002549692948279921,-0.008979621997212032,0.011496451263445857,0.9884525929623873
2013-02-11,1,0.00177744142686376,0.0019757286446896354,-0.008137875500712797,0.011496451263445857,0.9892134442724055
2013-02-13,1,0.0013108468186670322,0.0014129414730193642,-0.008137875500712797,0.011496451263445857,0.9886817095028884
2013-02-15,1,0.0007059886777327181,0.000746698993912009,-0.007935962918322527,0.011496451263445857,0.9890523836541442
2013-02-20,1,0.000983814641161311,0.0010717792705913524,-0.007291176440389433,0.011496451263445857,0.9890828950487952
2013-02-22,1,0.0011674568905572997,0.0012794040469506645,-0.006812708021088823,0.008884982424199918,0.9899712417168939
2013-02-26,1,0.0013061433445478647,0.0014624382000716853,-0.006812708021088823,0.011496451263445857,0.988165330089737
2013-02-28,1,0.00265800987489551,0.003020275339833481,-0.006812708021088823,0.010762198440527698,0.9886296149628201
2013-03-04,1,0.0021824406079131837,0.00246402697409211,-0.0048928029499214366,0.008720420713300916,0.9899337288404891
2013-03-06,1,0.002440371281875565,0.0027366930982611368,-0.006812708021088823,0.008548207143268816,0.9903598515300508
2013-03-08,1,0.0010766779428244774,0.0011480921213511352,-0.006812708021088823,0.008548207143268816,0.9912000339705652
2013-03-12,1,0.0011299024942774748,0.001214482292091299,-0.006812708021088823,0.008548207143268816,0.9909578821353308
2013-03-14,1,0.0015715471017902706,0.0017617392688918717,-0.007032794033715298,0.008348354633550582,0.9910476539022519
2013-03-18,1,0.0012899793315871496,0.0014218788876655467,-0.007032794033715298,0.010165759330820005,0.9889546056862994
2013-03-20,1,0.0018954116423437297,0.002104822422368261,-0.008425971702925,0.007015467035828003,0.9887838370138945
2013-03-22,1,0.0021644977574763447,0.0024874975558017215,-0.008425971702925,0.010165759330820005,0.98788342512172
2013-03-26,1,0.0015658890449093761,0.0015891079471101659,-0.008425971702925,0.010165759330820005,0.9891848116424866
2013-03-28,0,0.0,0.0,-0.008425971702925,0.007015467035828003,0.9896027550002638
2013-04-02,0,0.0,0.0,-0.008425971702925,0.0145586401606862,0.9877051567024012
2013-04-04,0,0.0,0.0,-0.008898409831662917,0.0145586401606862,0.98772540892954
2013-04-08,0,0.0,0.0,-0.008898409831662917,0.0145586401606862,0.9877419513375343
2013-04-10,0,0.0,0.0,-0.008898409831662917,0.016986749182722246,0.9857666396143371
2013-04-12,0,0.0,0.0,-0.008436292621886702,0.016986749182722246,0.9855072091910099
2013-04-16,0,0.0,0.0,-0.005858590982395107,0.0145586401606862,0.9878627520171874
2013-04-18,0,0.0,0.0,-0.005858590982395107,0.0145586401606862,0.9874760284165128
2013-04-22,1,0.0003254621471257219,0.00044569249410601443,-0.005858590982395107,0.012732190599810041,0.9889232428048134
2013-04-24,1,0.0002505074192016795,0.00035784092214155593,-0.005567611880770331,0.007986451198245531,0.9897697058848256
2013-04-26,1,0.0005712406402010228,0.0006529855202175004,-0.007479489428881305,0.006448280507178801,0.989899078368436
2013-04-30,1,0.0014177025275312186,0.0014214990634418142,-0.007479489428881305,0.006130787264101128,0.9915728019797069
2013-05-02,1,0.000935846516872554,0.0009820916016782383,-0.007479489428881305,0.006130787264101128,0.9904635893690598
2013-05-06,1,0.0006544064918672897,0.0007218102259528164,-0.008340203952901602,0.006448280507178801,0.9899898742442427
2013-05-08,1,0.002331294324832426,0.0025108961203123854,-0.01289436139551282,0.005634972946161248,0.9901274303985265
2013-05-10,1,0.0025262623979518577,0.0027038412256739732,-0.01289436139551282,0.004649244145816989,0.9905929842447261
2013-05-14,1,0.0028267640077961884,0.0030758858863639163,-0.01289436139551282,0.004649244145816989,0.9896998191859784
2013-05-16,1,0.0015373591420262238,0.0015781014026907696,-0.010321774677489178,0.005574715448260719,0.9898476168378049
2013-05-20,1,0.0010576836887445837,0.0011109503513264721,-0.010321774677489178,0.006166571033007191,0.9894650442479205
2013-05-22,1,0.0005343529497690326,0.0006634297338353192,-0.010321774677489178,0.006166571033007191,0.9894625683739069
2013-05-24,1,0.000318172466134711,0.00042665247610599227,-0.007493315694791334,0.00664332645457354,0.9889132343334224
2013-05-29,1,0.0005386935500593173,0.0006114421262486502,-0.011435447112201198,0.004935060878222652,0.9881659459963189
2013-05-31,-1,-0.0007192108462308086,-0.0005020832576688641,-0.011435447112201198,0.004935060878222652,0.9883381139567555
2013-06-04,-1,-0.0005944340941147718,-0.00042070361265615473,-0.009769900730006319,0.0038854044549484048,0.9887947832436335
2013-06-06,-1,-0.001797564491790078,-0.0014737600382775727,-0.0070517790438009,0.00508794266624851,0.9904316843055514
2013-06-10,-1,-0.0014674778454157407,-0.0011941268518604058,-0.008485760041501887,0.003808042031486128,0.9897958700972935
2013-06-12,-1,-0.0005195477309819718,-0.0003677559107357294,-0.009769900730006319,0.003808042031486128,0.9886085877396066
2013-06-14,1,0.0003068935227490119,0.00033231569569407333,-0.008485760041501887,0.006529228562499968,0.9890975762416521
2013-06-18,1,0.000524248920919186,0.0005352085064572139,-0.008485760041501887,0.0035922881843806513,0.9896517226835199
2013-06-20,1,0.0008495904296198697,0.0009808116884242632,-0.008485760041501887,0.006529228562499968,0.9889972332825894
2013-06-24,1,4.049099520698697e-05,7.451330153883653e-05,-0.008485760041501887,0.0035922881843806513,0.9904181510823785
2013-06-26,-1,-0.0003514723051931738,-0.00030386637744589883,-0.008485760041501887,0.006529228562499968,0.9894010267503659
2013-06-28,-1,-0.0017534003327339435,-0.0015337479645142432,-0.005565682728141097,0.007292860452582392,0.9903923938480405
2013-07-02,-1,-0.0018415189369648838,-0.0016155394730929782,-0.004901446464376569,0.010573623421110017,0.9892224873792241
2013-07-05,0,0.0,0.0,-0.005557483712474082,0.014880933473047975,0.9891258651238726
2013-07-09,0,0.0,0.0,-0.0020495704889833552,0.015341322257725831,0.9888064019161266
2013-07-11,0,0.0,0.0,0.00027444889866470184,0.015341322257725831,0.9886852804416658
2013-07-15,0,0.0,0.0,-0.0020495704889833552,0.015341322257725831,0.9885746503148861
2013-07-17,0,0.0,0.0,-0.009395941783917991,0.015341322257725831,0.9877264067103443
2013-07-19,-1,-0.29667248050344686,-0.28802660572185756,-0.009395941783917991,0.015542973439380527,0.7711852872420681
2013-07-23,-1,-0.001071578383145339,-0.0008886697881813798,-0.009395941783917991,0.015542973439380527,0.9878051957740026
2013-07-25,-1,-0.0011411406854149237,-0.0009349935264348378,-0.009131042382392103,0.014880933473047975,0.9891072705364278
2013-07-29,-1,-0.0006211320929507462,-0.0004969272183999395,-0.009131042382392103,0.014880933473047975,0.9897886591878996
2013-07-31,0,-3.781490768813494e-05,5.972159875218091e-05,-0.009989400686430096,0.007189892836374076,0.990425670017317
2013-08-02,-1,-0.00021095806553513555,-9.107043448600892e-05,-0.01012336301992616,0.005897523504085844,0.990648124916439
2013-08-06,-1,-0.0002011991586732637,-8.490642439290693e-05,-0.009349679813136412,0.005897523504085844,0.9914567624662207
2013-08-08,1,0.0008955943832878249,0.0009011879089255655,-0.009349679813136412,0.00535031168866448,0.9919441194783326
2013-08-12,1,0.0008679279566244641,0.0008980561162802606,-0.009131042382392103,0.006512557148222435,0.9898609470920323
2013-08-14,1,3.9501497036282304e-05,0.00013610115785359176,-0.004074129115816241,0.0077044558037902095,0.9903113665463975
2013-08-16,1,0.0011460384217840337,0.0012438332412207961,-0.004074129115816241,0.0077044558037902095,0.990272996040698
2013-08-20,1,0.00100719859518386,0.0011160735541153538,-0.0018057792688328804,0.010038039148661405,0.9898235023536563
2013-08-22,1,0.0009510065789950154,0.0010409993096750724,-0.0060736148745120875,0.010038039148661405,0.9889172018471966
2013-08-26,1,0.0009083051825426922,0.001000953771296314,-0.0063195662861202165,0.010038039148661405,0.9886129306542203
2013-08-28,1,0.0002401088875278374,0.0002457950585902979,-0.0018057792688328804,0.010038039148661405,0.9892613729724334
2013-08-30,-1,-0.0005737313493395216,-0.00045742460627005196,-0.0015550190327310964,0.010038039148661405,0.9897509883929583
2013-09-04,-1,-0.0001124499758121249,-4.002807164895568e-05,-0.0038653249101164434,0.011308839012406698,0.9898886982941266
2013-09-06,1,4.441134973930268e-05,0.00012613352810203688,-0.0038653249101164434,0.011308839012406698,0.9905103327919452
2013-09-10,1,0.0017048129575763333,0.0017928370858625207,-0.004865757398002655,0.006130839331579638,0.99287774398479
2013-09-12,1,0.002029567863053765,0.0022260921697862105,-0.004367253470868205,0.011308839012406698,0.9910351208559649
2013-09-16,1,0.0023115260863344825,0.0025324654370803565,-0.004367253470868205,0.00714482551635498,0.9915503071913708
2013-09-18,1,0.0031222113963043164,0.003474924802163103,-0.005361267381197898,0.005877813131886305,0.9906910230321089
2013-09-20,1,0.00236259280745731,0.00267073640299092,-0.0038653249101164434,0.0074909414094299605,0.9922121235854627
2013-09-24,1,0.0020290595030785143,0.0022682029025434683,-0.002414731767002391,0.010380358920033734,0.9921121085008826
2013-09-26,1,0.0021058406533841934,0.0023455772439725736,-0.0038653249101164434,0.010380358920033734,0.991382465435169
2013-09-30,1,0.0022274253720945157,0.002565412851863227,-0.004616812042455319,0.011303857051300433,0.9862841811042099
2013-10-02,1,0.002616988476491601,0.003023887864590155,-0.0029970343785606654,0.011776975068266912,0.9860995683013689
2013-10-04,1,0.002778018531860037,0.0032058447993471573,-0.008084467602615188,0.011304526248882368,0.9855433309758701
2013-10-08,1,0.0019137831893077046,0.002194366530863317,-0.0036390151098856524,0.011304526248882368,0.98589021266235
2013-10-10,1,0.0032524324462815104,0.003706523864451729,-0.010645087675016391,0.007227722945208538,0.9871108946561886
2013-10-14,1,0.0030946265207789404,0.0035191139914586902,-0.010645087675016391,0.01038058198589438,0.986243487060232
2013-10-16,1,0.0029292783828362475,0.003326150098728613,-0.010645087675016391,0.01038058198589438,0.985662257900742
2013-10-18,1,0.0030057832785184303,0.003413666257893482,-0.010645087675016391,0.01038058198589438,0.9853376229540646
2013-10-22,1,0.0026103084740266205,0.0029185432492501665,-0.010645087675016391,0.007020145175040848,0.9852605664439801
2013-10-24,1,0.00213323187087768,0.002364127167007236,-0.009132776440948065,0.008098296716779002,0.9853320555350995
2013-10-28,0,-5.462673193396472e-05,3.0516169593663593e-05,-0.008623474016309264,0.005995941888586988,0.9901126983633152
2013-10-30,1,0.0005284981157171603,0.0005438323514782683,-0.010645087675016391,0.00498701744772616,0.9892437079287942
2013-11-01,1,0.000224012624258276,0.00026651802975971063,-0.009132776440948065,0.00358497418293793,0.9902390926614061
2013-11-05,1,3.949024308633607e-05,8.774840423065127e-05,-0.010645087675016391,0.00358497418293793,0.9890935598355879
2013-11-07,-1,-0.00045541550502009863,-0.0003519126393810631,-0.008623474016309264,0.00498701744772616,0.9894577701148363
2013-11-11,1,0.0004358177427575449,0.00044876245748474346,-0.010241352673141916,0.004963883256329499,0.9899001225985576
2013-11-13,1,0.0008438744272703746,0.0009118306167678987,-0.010241352673141916,0.00358497418293793,0.9896542685185061
2013-11-15,1,0.00018907516730310163,0.00023972413026875788,-0.010126947797422963,0.003670808658779624,0.9889157534577627
2013-11-19,-1,-0.000561896212501217,-0.00037665532900133555,-0.010126947797422963,0.003462782611166245,0.9891517866516146
2013-11-21,-1,-0.0008311390392574449,-0.0006065052389350625,-0.008826974577024485,0.003462782611166245,0.9893864378119194
2013-11-25,-1,-0.0009321587110927415,-0.000695320949440344,-0.00869220896961482,0.005739683802504942,0.9890214194612355
2013-11-27,-1,-0.002260433383213672,-0.0018366228520382778,-0.006380995952293943,0.007095177511578024,0.9903620632598802
2013-12-02,-1,-0.0020626987713671884,-0.0016728372796284232,-0.006380995952293943,0.007095177511578024,0.9903114419895358
2013-12-04,-1,-0.0026675386171220454,-0.0022228684620817724,-0.006380995952293943,0.007880562321754199,0.9902589536806102
2013-12-06,-1,-0.002250101248463707,-0.0018580458141696727,-0.0066963112728447875,0.007880562321754199,0.989575526287972
2013-12-10,-1,-0.002434117410375586,-0.0020305447344175806,-0.006380995952293943,0.008421037871361742,0.9899156578625812
2013-12-12,-1,-0.0034910848705620905,-0.0029622752858974415,-0.006380995952293943,0.008421037871361742,0.9906209139835039
2013-12-16,-1,-0.0031709679600186625,-0.0026802812744658247,-0.00640495327114664,0.008421037871361742,0.9903568975055251
2013-12-18,-1,-0.003106808640538147,-0.0026358630174281835,-0.007375604294649922,0.008421037871361742,0.989763564977639
2013-12-20,-1,-0.0024676895439555624,-0.0021134450767837814,-0.007375604294649922,0.009408050293425917,0.989236461514542
2013-12-24,-1,-0.0018468031995984959,-0.0015711397386822049,-0.011571303304124383,0.00828907501793095,0.9868876825668552
2013-12-27,-1,-0.0015425192353847106,-0.0013148921817681244,-0.011571303304124383,0.00828907501793095,0.9871625172499172
2013-12-31,-1,-0.0011139116161579736,-0.0009693040371747687,-0.013006199977549825,0.00828907501793095,0.9866418410527424
2014-01-03,-1,-0.0013005133990769016,-0.0011248648323807968,-0.013045212472741988,0.00780776737723385,0.986120393678286
2014-01-07,-1,-0.0009589203010458235,-0.0008137056778555938,-0.013045212472741988,0.008157074551517986,0.9859426117718767
2014-01-09,-1,-0.0007842753536223342,-0.0006751266795775972,-0.013045212472741988,0.007949632704152422,0.9861373689776245
2014-01-13,-1,-0.0014401375960789223,-0.001238023464796233,-0.008410413010060125,0.008714670998686665,0.9848561679095821
2014-01-15,-1,-0.001143939845909242,-0.0009853933412580411,-0.004824508803451592,0.008633365388790854,0.9861753362258007
2014-01-17,-1,-0.0016056563747575809,-0.0013859190583666444,-0.0024472528310984327,0.008633365388790854,0.9863739660936168
2014-01-22,-1,-0.0015835831961621878,-0.0013528164866883406,-0.0024472528310984327,0.008540497792727761,0.986902176270307
2014-01-24,-1,-0.002467186140952188,-0.0021183487465826047,-0.0024472528310984327,0.008540497792727761,0.9897456445911337
2014-01-28,-1,-0.002369951168659492,-0.002050853247041722,-0.00638983832500503,0.008540497792727761,0.987858196167174
2014-01-30,-1,-0.0022220819435583216,-0.0019292692995943835,-0.005256536094452346,0.00860432805725809,0.9881528481523036
2014-02-03,-1,-0.0018572866281730336,-0.0016825589005267628,-0.00447404265405746,0.00869833796374402,0.9888602609442034
2014-02-05,-1,-0.0014343581161736381,-0.001295265393897125,-0.0048125990708958125,0.00856215531771215,0.9904662235807549
2014-02-07,-1,-0.0010950620694197219,-0.0010114446250831294,-0.0048125990708958125,0.00856215531771215,0.9901663068814078
2014-02-11,-1,-0.00012388671255870684,-5.190781980714734e-05,-0.0048125990708958125,0.00856215531771215,0.9918232632462635
2014-02-13,-1,-0.00039758711751218496,-0.00038282064743324566,-0.007522277735545962,0.007560241043679618,0.9903084113960352
2014-02-18,-1,-0.0004793129512302804,-0.00045398723180455243,-0.007522277735545962,0.008726983417817228,0.9898841841035784
2014-02-20,0,-2.496852679864222e-05,1.9015014100494772e-05,-0.012782523068852341,0.0076536389341186235,0.9893061300860091
2014-02-24,-1,-9.474339551474423e-05,-5.505745476970724e-05,-0.013741042548169057,0.0076536389341186235,0.9886078484687714
2014-02-26,-1,-0.0008040872128027004,-0.0007744777213294572,-0.008480692321266569,0.009099395544367261,0.9903891023195938
2014-02-28,-1,-0.0003702187082375227,-0.0003372676038959517,-0.008480692321266569,0.007853002703850748,0.9906324254819168
2014-03-04,-1,-0.0008042189054198756,-0.0007586659372104509,-0.00538535378705109,0.010188745951796028,0.9903116415098356
2014-03-06,0,-9.30284777283476e-05,2.213894704868681e-05,-0.00861292937438961,0.010188745951796028,0.990112104918596
2014-03-10,1,0.00018099048448378058,0.0003292907374856262,-0.00861292937438961,0.010188745951796028,0.9905115781398711
2014-03-12,1,0.000453625751297829,0.0006330869889049096,-0.00861292937438961,0.007510253703872963,0.9908923764245313
2014-03-14,0,-8.423100584183487e-05,3.242659822073039e-05,-0.005784800409137631,0.007510253703872963,0.991577583808237
2014-03-18,1,0.00047374559870348655,0.000675378113432873,-0.005784800409137631,0.008162650107840591,0.9902019547561128
2014-03-20,1,0.00024746118119927697,0.00041125634334300293,-0.005784800409137631,0.013070191649391522,0.9898036277438952
2014-03-24,-1,-0.0007698304879833022,-0.0007492378914338688,-0.0013496264426017225,0.013070191649391522,0.9900616021625542
2014-03-26,-1,-0.0002063820356667077,-0.00012637601160192646,-0.0022689388627271934,0.012759715300803463,0.9895844527935848
2014-03-28,-1,-0.00015052789777278652,-8.125089676934747e-05,-0.0022689388627271934,0.012759715300803463,0.989208626539128
2014-04-01,1,0.00045011668600143033,0.0005862604799201185,-0.0038694209493392276,0.010173610247309547,0.9888675599920311
2014-04-03,0,-2.3839551252200842e-05,2.5865173557323865e-05,-0.0017981980830559568,0.010173610247309547,0.98936810322787
2014-04-07,1,0.0004819763988957647,0.0006340129790183681,-0.0038694209493392276,0.010173610247309547,0.9892341321391928
2014-04-09,1,0.0010609461362515952,0.0013171830092211182,-0.0038694209493392276,0.010173610247309547,0.9895696536430502
2014-04-11,1,0.00034389627499139847,0.0004909407101327028,-0.0001658403882590989,0.014438177346670635,0.989258973259818
2014-04-15,1,0.0016043702446435861,0.0019154982331556145,-0.004194393156641053,0.00994485855669292,0.9911333344510533
2014-04-17,1,0.0017089912417517627,0.0020300555064357902,-0.004194393156641053,0.009039884768606236,0.9915540204567727
2014-04-22,1,0.0016076569470791367,0.0019142595710673763,-0.006896940881694263,0.009039884768606236,0.9911675344383242
2014-04-24,1,0.0012580374832479569,0.0014790936519756236,-0.004194393156641053,0.009039884768606236,0.9919958391003352
2014-04-28,1,0.0015774014274422944,0.0018477174498549023,-0.007972596567740454,0.006153953706021035,0.9911937751716224
2014-04-30,1,0.0016844494805639768,0.001934696200464301,-0.007972596567740454,0.006153953706021035,0.9926375918154667
2014-05-02,1,0.0018281861604415562,0.0021151046055866976,-0.007972596567740454,0.006153953706021035,0.9922405326135142
2014-05-06,1,0.001664085689501633,0.0019158352526172867,-0.007972596567740454,0.009179616569614291,0.9922756068708343
2014-05-08,1,0.001414794822142466,0.0015836681738183535,-0.007972596567740454,0.010210632638350776,0.9913851815070163
2014-05-12,1,0.002130097891725887,0.0024061877505018193,-0.007972596567740454,0.009179616569614291,0.9915064803649476
2014-05-14,1,0.0015678863680529313,0.0017650176038756724,-0.0032393605971695496,0.010210632638350776,0.9916068911090707
2014-05-16,1,0.0017344264611769914,0.001953780738737368,-0.0032393605971695496,0.009807507327866886,0.9917244957826171
2014-05-20,1,0.0014674260053923103,0.0016710786052172941,-0.0032393605971695496,0.009807507327866886,0.991742505653783
2014-05-22,1,0.0019254912356516229,0.002188252218567749,-0.004552440880865573,0.008395992328751567,0.9907765997545018
2014-05-27,1,0.001330928037507378,0.0015136902417765097,-0.0032393605971695496,0.008395992328751567,0.9912224367057495
2014-05-29,1,0.0015700287001479117,0.001776662159998436,-0.0032393605971695496,0.007757775586581932,0.9913899330779326
2014-06-02,1,0.0016302401989350007,0.0018732550024762647,-0.003390471093452272,0.008395992328751567,0.9896289311684501
2014-06-04,1,0.0017746981253637874,0.0020377416367657704,-0.0075047423886279475,0.00912464593820466,0.9888473984411951
2014-06-06,1,0.001730224787445955,0.0019571408402309313,-0.009875422778133741,0.007757775586581932,0.9888080685705508
2014-06-10,1,0.0024088885471737543,0.0027309662487299277,-0.01183433357770776,0.007757775586581932,0.9887904318738823
2014-06-12,1,0.0024416316145266974,0.002739462943066165,-0.01183433357770776,0.006848673669119982,0.9890660199753649
2014-06-16,1,0.0019971831300086527,0.0022469681478184352,-0.010363089415750346,0.006848673669119982,0.989661761856005
2014-06-18,1,0.0021610677038912235,0.0023506760483146985,-0.010363089415750346,0.00533212834998326,0.9895540877704847
2014-06-20,1,0.001342722228383426,0.0014215970886551552,-0.009567584674069131,0.006997403119941038,0.9900291632751248
2014-06-24,1,0.0009507304658804669,0.0009738436883543463,-0.009214395612184265,0.008392461453578259,0.9899030388356058
2014-06-26,1,0.0007719595829653543,0.0008407404915829748,-0.009214395612184265,0.009321594663600784,0.989630824951731
2014-06-30,1,0.00030786360039244444,0.0003890849970579318,-0.008526977767766055,0.008392461453578259,0.9914545530382073
2014-07-02,1,0.00021636631630164444,0.0003074013465430716,-0.007070152123546575,0.007976348010918484,0.9923994745046795
2014-07-07,0,-5.942624529322834e-06,3.4589053376457555e-05,-0.00634362348325056,0.007976348010918484,0.9909791674583502
2014-07-09,1,7.894536331515225e-05,0.000100034366452087,-0.004297221733101383,0.00799291894311141,0.9912075684073117
2014-07-11,-1,-7.665484810040059e-05,-2.8308343642108314e-05,-0.003932201399836429,0.008414298195598522,0.9911156873228396
2014-07-15,-1,-3.250495166605008e-05,-6.394016767673926e-06,-0.00455230119835401,0.010339846282852456,0.9901627228458113
2014-07-17,-1,-0.0002965267045031549,-0.00023031559189386734,-0.0025867982646889482,0.010339846282852456,0.9902210290347613
2014-07-21,-1,-0.0006516316896008511,-0.000509092817895395,-0.0021467692539695934,0.008414298195598522,0.9910651580903256
2014-07-23,1,7.140682779657753e-06,5.7965083184322e-05,-0.0025664370482550683,0.007983626924925238,0.9918006709887387
2014-07-25,0,-4.22216077067874e-06,6.247102780464398e-05,-0.0031563539459457373,0.007797334098589686,0.9922904361048808
2014-07-29,1,0.0004906884044599059,0.0005072204018454246,-0.00455230119835401,0.007937793849418725,0.9917445729458425
2014-07-31,1,0.00027860539525795437,0.0003131762799798979,-0.00455230119835401,0.00824411304686425,0.9914408285409861
2014-08-04,-1,-0.0001276439691146845,-5.6685082440682024e-05,-0.0027912486482301064,0.00824411304686425,0.9933793179198319
2014-08-06,-1,-0.0004136468653468228,-0.00027494425984117554,-0.0027912486482301064,0.00786157189254884,0.9937469088549715
2014-08-08,-1,-0.0003132935334597063,-0.00020544939853294993,-0.0030641957125249076,0.007406149701440199,0.993936072597393
2014-08-12,-1,-0.0007454411857678459,-0.0005693283705402851,-0.0030641957125249076,0.005616471683264138,0.9946902051495758
2014-08-14,-1,-0.0006964872389105933,-0.0005197992045462847,-0.003779913096002961,0.005616471683264138,0.9946986212315507
2014-08-18,-1,-0.0007347253589174677,-0.0005568721168552382,-0.005587642992039811,0.004388778370189665,0.9947676057616751
2014-08-20,-1,-0.0006223598093171016,-0.0004591174563982834,-0.0059389865191042165,0.002739425584986099,0.994871000643576
2014-08-22,-1,-0.0004290222046292723,-0.00031938619779878967,-0.0059761299873241965,0.00255569595407979,0.9941715091471955
2014-08-26,-1,-0.0005152031822449713,-0.0003710988743315566,-0.005684295393985083,0.0021382185640829794,0.9950266250083273
2014-08-28,-1,-0.0003237232285633638,-0.0002088371647860416,-0.005898700935651587,0.0005254478480574525,0.9954332222347152
2014-09-02,-1,-0.00026543473084546774,-0.00017238228445442107,-0.006061854159761403,0.0005254478480574525,0.9947739361194641
2014-09-04,-1,-0.0006495514376329948,-0.00047368725036659994,-0.006061854159761403,0.0008147422774763845,0.9948049646398358
2014-09-08,1,2.561409331607961e-05,4.925162154805987e-05,-0.005898700935651587,0.0035706814829936763,0.9935428444951135
2014-09-10,-1,-5.003397503155238e-05,-1.5582490486711157e-05,-0.006061854159761403,0.0035706814829936763,0.9932131957158074
2014-09-12,-1,-0.00031286584507552383,-0.000219975542910572,-0.008721077132782428,0.0032231450264503477,0.9914898582957856
2014-09-16,-1,-0.0005061693689615453,-0.0003814679158511983,-0.010793160840718947,0.0032231450264503477,0.9911918537311901
2014-09-18,-1,-0.000570905186358524,-0.00044983636657242086,-0.012958367929987969,0.0032231450264503477,0.9901692952989575
2014-09-22,-1,-0.0007711664304076607,-0.0006567485986200649,-0.012260769154501512,0.004944344571557527,0.9903958952906283
2014-09-24,-1,-0.0007822833710573844,-0.0006676500878468178,-0.012260769154501512,0.006046878310797571,0.9890502849180559
2014-09-26,-1,-0.0008934031279668946,-0.0007591221980145116,-0.012260769154501512,0.007107774428011642,0.9846442508957047
2014-09-30,-1,-0.0007747669179669835,-0.0006703511586590549,-0.011141312937230509,0.008679584178885296,0.984332315422485
2014-10-02,1,2.870520766821962e-05,4.833156341846143e-05,-0.011141312937230509,0.008679584178885296,0.9841474809516759
2014-10-06,1,5.636364681391722e-05,5.9947529810317106e-05,-0.011141312937230509,0.005777299092178357,0.9849986696619621
2014-10-08,1,0.0001706497462616285,0.00020049828164494604,-0.010301764114057803,0.005777299092178357,0.9852982330323483
2014-10-10,-1,-0.0006437332249184049,-0.0005508087409489505,-0.00985632909636825,0.005777299092178357,0.9870630089766086
2014-10-14,-1,-0.0007128306639286087,-0.000638090358768808,-0.009217860876907093,0.005777299092178357,0.9874829384311941
2014-10-16,-1,-0.0011253283894059529,-0.0009784219640537296,-0.0072959046277140515,0.007153593092804282,0.9877280507591639
2014-10-20,-1,-0.0007715854341661749,-0.0006788265408039284,-0.0072959046277140515,0.006170041017202765,0.9882178966356762
2014-10-22,-1,-0.0009435153909457345,-0.0008255319729914421,-0.0060375670899451535,0.004605500052452938,0.9894360079045487
2014-10-24,1,0.0005244407625372108,0.0005881149996594681,-0.0060375670899451535,0.006009439208171849,0.9934266319228877
2014-10-28,1,0.0004305536097730835,0.0004853037939946984,-0.004879747188841712,0.004570781775457464,0.9943911554989958
2014-10-30,1,0.0006185410950094337,0.0007289622642008269,-0.004879747188841712,0.004789847906835652,0.9942542436374906
2014-11-03,1,0.00040729620947665333,0.0004994039710848517,-0.0029086140722687894,0.005888829112152853,0.9944916500248269
2014-11-05,1,0.00015208259811971838,0.00018922076150382276,-0.0020187155380123273,0.0068272394113373285,0.9942561375905287
2014-11-07,1,0.00019796964821134163,0.00024706954989217605,-0.0007611397748568959,0.0068272394113373285,0.994370299635822
2014-11-11,1,0.00014156825876803506,0.0001682689682299134,-0.002580850663919312,0.0068272394113373285,0.9932929150804273
2014-11-13,-1,-3.470405441609064e-05,-2.5587113249687762e-05,-0.002038557210943614,0.005888829112152853,0.994157267436716
2014-11-17,1,0.0005903077932240557,0.0007017710696383276,-0.002149679875225739,0.005888829112152853,0.9937228246118
2014-11-19,1,0.00011661101992496508,0.00013318510700322046,-0.0007981806629509375,0.008220963442479821,0.9925603233764935
2014-11-21,1,0.00038635096895779766,0.0004399766364118179,-0.0007981806629509375,0.008220963442479821,0.9927093813502678
2014-11-25,1,0.00019197007543225405,0.0002020471424558971,0.000754392970195804,0.008220963442479821,0.9923287552873371
2014-11-28,1,9.676172128323971e-05,0.00010018689239016809,-0.0009064445715430398,0.007270023822684378,0.9928176147586194
2014-12-02,1,0.0003652423128546268,0.00039558540427377223,-0.0025223712370072925,0.007270023822684378,0.9924990960939369
2014-12-04,1,0.00029212461866090316,0.0003039728710031894,-0.0025223712370072925,0.007467096540188781,0.9919796861562138
2014-12-08,1,0.00024231123717402775,0.00024427053293058914,-0.003478820555283072,0.007467096540188781,0.9917142467781734
2014-12-10,1,1.867574697879095e-05,3.961265068940712e-05,-0.002149679875225739,0.009054011821449152,0.9920204164277449
2014-12-12,1,0.0004741401345477791,0.0005314862068005401,-0.001957428708723837,0.01154295108970384,0.9911171230227765
2014-12-16,1,0.0009358720886479583,0.0010595439625750258,-0.0011026823849572148,0.009279454124439673,0.991984137670941
2014-12-18,1,0.0011629763535067222,0.0013484414183662,-0.0021460095619312493,0.008420569342858161,0.9924843055596736
2014-12-22,1,0.0009923716362263096,0.0011385258593206637,-0.0021975412779891013,0.008420569342858161,0.9915485133209677
2014-12-24,1,0.0016611759173671302,0.0018466292020553918,-0.0021975412779891013,0.01748100957795418,0.9880267915073827
2014-12-29,1,0.001420290392260422,0.00158763886830312,-0.003905315027886884,0.01748100957795418,0.9855772938843368
2014-12-31,1,0.0010907999626093663,0.0012083727925349661,-0.005231298533416054,0.01748100957795418,0.9855823657348037
2015-01-05,1,0.0013751470709856774,0.0015260446148023586,-0.005231298533416054,0.015472087887409605,0.9859996384193669
2015-01-07,1,0.0016548021963121696,0.0018537816848103593,-0.005048354948335719,0.015472087887409605,0.9858432754129504
2015-01-09,1,0.0018680380591030565,0.002092606989938264,-0.006939680969950448,0.013022679706616367,0.9859782007778148
2015-01-13,1,0.002454935581992809,0.0027641588831013517,-0.006939680969950448,0.013022679706616367,0.9859337312242225
2015-01-15,1,0.0022365375535442753,0.0025041212298036754,-0.006939680969950448,0.013022679706616367,0.9857507083574812
2015-01-20,1,0.0023534323614611903,0.0026439753562976787,-0.006533731727282599,0.013022679706616367,0.986080264898187
2015-01-22,1,0.0033325708711453485,0.0037629327949241674,-0.007301656308862758,0.012140703610551275,0.9865228495644378
2015-01-26,1,0.0046604251390363295,0.0052565436358076685,-0.007301656308862758,0.00866331161331837,0.9892904543309102
2015-01-28,1,0.003092287931426466,0.003486550184186701,-0.006707201972634851,0.00866331161331837,0.9916832988339046
2015-01-30,1,0.0026380904755450947,0.002958718691989253,-0.006511465085038667,0.00866331161331837,0.9925260237352261
2015-02-03,1,0.003098042226637329,0.0034710276179365784,-0.006511465085038667,0.00675615487065574,0.9926287578589281
2015-02-05,1,0.0030331264416114927,0.0033885338017075,-0.0047982134136007265,0.00675615487065574,0.9930053471457634
2015-02-09,1,0.00240027083743935,0.002659493186261488,-0.0047982134136007265,0.00866331161331837,0.9919982591546381
2015-02-11,1,0.002955573190863592,0.003271581502622611,-0.0047982134136007265,0.010153336547481207,0.9916372492959483
2015-02-13,1,0.0025700770264764842,0.002805237399622762,-0.006707201972634851,0.01049064496025991,0.9892468675911626
2015-02-18,1,0.0021990595223123363,0.002379496928249388,-0.0047982134136007265,0.014206484379315862,0.9885363134481957
2015-02-20,1,0.002205930936020673,0.0023787308243601,-0.0047982134136007265,0.014206484379315862,0.9889127559573887
2015-02-24,1,0.0016664703502665954,0.001742973068308217,-0.005715328472234207,0.014206484379315862,0.988363737426829
2015-02-26,1,0.0013150859725034158,0.0013599695597983409,-0.005715328472234207,0.014206484379315862,0.9884172442509876
2015-03-02,1,0.001710291171966484,0.0018340787383384328,-0.005715328472234207,0.017056003786716553,0.9878868182026957
2015-03-04,1,0.0015012598091213832,0.0015849756654175793,-0.006663293823115107,0.017056003786716553,0.9879808607995039
2015-03-06,1,0.0008940892838004042,0.0009241865130504763,-0.006663293823115107,0.018601880906720984,0.9869708367333344
2015-03-10,1,0.000576404205029893,0.0006808321837400151,-0.006663293823115107,0.017056003786716553,0.987438182408998
2015-03-12,1,0.00088682075708256,0.0009771188202989294,-0.006663293823115107,0.013911116356078038,0.9879984073461047
2015-03-16,1,0.001849378150703085,0.00187927632948143,-0.006663293823115107,0.012572114812565255,0.9901301713214351
2015-03-18,1,0.0018504749268670262,0.0018656515000264066,-0.010435178100280738,0.008833866969892464,0.9901025922548166
2015-03-20,1,0.0037886976784550787,0.004082668700562042,-0.010394776976129422,0.012572114812565255,0.9895224802026764
2015-03-24,1,0.003360686458906809,0.003591957830566772,-0.006649826781731335,0.012572114812565255,0.9905028008669483
2015-03-26,1,0.002720945389626203,0.0028442194026781706,-0.006649826781731335,0.012572114812565255,0.9865839909367581
2015-03-30,1,0.0019609158481803573,0.0020184720318959094,-0.010394776976129422,0.008574266492194348,0.9865773478360438
2015-04-01,1,0.0018579169033977677,0.0018849035806807433,-0.010394776976129422,0.008574266492194348,0.9861917955904012
2015-04-06,1,0.002303116004816204,0.0023725307375066325,-0.010394776976129422,0.008574266492194348,0.9865289225054192
2015-04-08,1,0.0016870929722589381,0.0017033442943406476,-0.010394776976129422,0.005638504539980895,0.9869946002515864
2015-04-10,1,0.0022180017495125586,0.0022764929096469283,-0.010394776976129422,0.003864905625271395,0.9875946690904621
2015-04-14,1,0.001755039071253003,0.0017626788173398212,-0.009416300733212184,0.003864905625271395,0.988126252246843
2015-04-16,1,0.0008407262074714545,0.0009780927946360274,-0.00612133192218073,0.005659593726654028,0.9836201036084111
2015-04-20,1,0.0012496780218767109,0.0013260381290600926,-0.0057342233031673715,0.005659593726654028,0.983825827276521
2015-04-22,1,0.0011354128958792741,0.0012314481364578403,-0.0057342233031673715,0.007026423642668482,0.9836096392827656
2015-04-24,-1,-0.0016372083512247101,-0.0012093734226113295,-0.004291487357306833,0.007026423642668482,0.9881525551147337
2015-04-28,-1,-0.00202350846535187,-0.0015614127304467255,-0.00367627013292594,0.008256348554243509,0.9879943944189837
2015-04-30,-1,-0.002404146295550099,-0.0019059702248501909,-0.0011051457955274253,0.009813393273810497,0.9873997051226328
2015-05-04,-1,-0.0016779545155062633,-0.0012689811564364644,-0.0011051457955274253,0.007752957309356842,0.9882832646374002
2015-05-06,-1,-0.002684278497548981,-0.0021164874018615113,-0.0006056490282646942,0.007752957309356842,0.988638970068099
2015-05-08,-1,-0.0024614618942693785,-0.0019238552825782671,-0.002007542211761251,0.007752957309356842,0.9889340388261585
2015-05-12,-1,-0.0022248037921393784,-0.001740947092657849,-0.0021067660579422295,0.007752957309356842,0.9888982551023845
2015-05-14,-1,-0.004137821547869463,-0.0034571639309175905,-0.0021067660579422295,0.006314973475588563,0.9931263366461217
2015-05-18,-1,-0.003716819314492569,-0.003100562834926961,-0.0021067660579422295,0.005786393851895132,0.9934344753877802
2015-05-20,-1,-0.0035847607462849893,-0.0029946221830026245,-0.003973941671468876,0.005258944892916981,0.9936530745979653
2015-05-22,-1,-0.004123788760856901,-0.003448448578079688,-0.0021067660579422295,0.006040795114208648,0.9926331889279473
2015-05-27,-1,-0.0039026764752391244,-0.0032301865689122133,-0.008362463938406754,0.005258944892916981,0.9929420760821146
2015-05-29,-1,-0.0034541305821534345,-0.002856224070434221,-0.008362463938406754,0.0025531705989203703,0.9937985043091473
2015-06-02,-1,-0.00281808638297651,-0.002300978118437837,-0.008362463938406754,0.0013069043362470523,0.9936302519371452
2015-06-04,-1,-0.002782514194545516,-0.0022882318406287254,-0.009492976928166492,0.0013069043362470523,0.9928539805562967
2015-06-08,-1,-0.002858696437078043,-0.0023915537841605675,-0.008362463938406754,0.0025531705989203703,0.9920654415447941
2015-06-10,-1,-0.002857347161866538,-0.0023889988055691364,-0.009492976928166492,0.005399950150584434,0.9911365243140571
2015-06-12,-1,-0.003063197484376632,-0.002573986265233817,-0.008718433848433866,0.006174686365095538,0.9909993465128355
2015-06-16,-1,-0.00275758238552587,-0.002350653119366869,-0.008064728374947809,0.006174686365095538,0.991263399423506
2015-06-18,-1,-0.0017090039850602271,-0.0015253498366022984,-0.007853006437059357,0.006674756638230294,0.991056978342938
2015-06-22,-1,-0.002296624030967442,-0.001963992621793746,-0.007853006437059357,0.005232873092957782,0.9916811529204014
2015-06-24,-1,-0.0032900905323201978,-0.0028255217076700377,-0.0055798940900347455,0.005232873092957782,0.9927833274199067
2015-06-26,-1,-0.003134365284284839,-0.0027139250878152246,-0.0066736057103394305,0.005232873092957782,0.9922460932736695
2015-06-30,-1,-0.002747680911415005,-0.002379689339987433,-0.0066736057103394305,0.005232873092957782,0.991364215813323
2015-07-02,-1,-0.0033924822823489416,-0.002934101400723788,-0.006240671418858179,0.006783138764906375,0.9903255068036823
2015-07-07,-1,-0.0020625110620703805,-0.0018027614694563227,-0.0066736057103394305,0.006783138764906375,0.9889815201736305
2015-07-09,-1,-0.0017555601839265912,-0.0015520661143515408,-0.0066736057103394305,0.005232873092957782,0.9893432678195389
2015-07-13,-1,-0.001564436499729744,-0.0013777918620087484,-0.0066736057103394305,0.0048642953737381995,0.989296785520019
2015-07-15,-1,-0.001554889672385845,-0.001372161743097237,-0.0066736057103394305,0.0048642953737381995,0.9894284086480913
2015-07-17,-1,-0.0016419212566696653,-0.0014403675600515998,-0.006271549043231749,0.004938731381251947,0.9895202448807883
2015-07-21,-1,-0.0021437843523825434,-0.0018604556871679818,-0.00802252497746182,0.004938731381251947,0.9892584674873922
2015-07-23,-1,-0.002201191366801231,-0.0019243187071862457,-0.009760866618218298,0.004938731381251947,0.9888250923309734
2015-07-27,-1,-0.002773467120159465,-0.0024320126125804637,-0.010626157327838255,0.004938731381251947,0.9858269777354111
2015-07-29,-1,-0.0017812594522341888,-0.0015732938676731479,-0.009760866618218298,0.009255387080385456,0.9853217771286711
2015-07-31,-1,-0.0006388462218145632,-0.0005712338562976839,-0.009760866618218298,0.009255387080385456,0.9861451002739656
2015-08-04,-1,-0.0010585421929327015,-0.000990256613309998,-0.00991110975099109,0.004117445405476172,0.9872593438561627
2015-08-06,-1,-0.0007486336389864862,-0.0007200947332556171,-0.009760866618218298,0.010010311831638025,0.9866724425883588
2015-08-10,-1,-0.00029115587732674226,-0.00018212514361433656,-0.009760866618218298,0.011074710572738657,0.9860899829263174
2015-08-12,-1,-0.00033227041721578575,-0.0002494225344892715,-0.00991110975099109,0.011074710572738657,0.9846490672063654
2015-08-14,0,-6.152985403590303e-05,5.115339844006687e-05,-0.010149603646411272,0.014592272353120071,0.9839684850013461
2015-08-18,-1,-0.0006950130575737704,-0.0006741683857879107,-0.010149603646411272,0.014592272353120071,0.9848464050529018
2015-08-20,-1,-0.0006357488076276549,-0.0005847973535073463,-0.010149603646411272,0.014592272353120071,0.985070217492226
2015-08-24,-1,-0.0021327808042763277,-0.0020212764930145847,-0.009686586755479827,0.014592272353120071,0.9880104125912333
2015-08-26,-1,-0.0002731954002837819,-0.00010852693827686545,-0.009686586755479827,0.008772556263345237,0.9881957385580029
2015-08-28,-1,-0.00020586288545974433,-5.1347640316520273e-05,-0.011299856634577696,0.006331249997209045,0.9869284159896542
2015-09-01,-1,-0.0004925575798757431,-0.0003298516244845646,-0.009735131098217512,0.008772556263345237,0.9870495609200304
2015-09-03,-1,-0.00034536310060092115,-0.00018277455627300663,-0.009735131098217512,0.0072059198411281705,0.9877104931211096
2015-09-08,-1,-0.00016273364998066475,-5.499117454981026e-06,-0.009735131098217512,0.0072059198411281705,0.9876633121010759
2015-09-10,0,-0.0001820809675866697,5.941329384556281e-07,-0.006045643895219664,0.009892363086468871,0.988180955877283
2015-09-14,0,-0.00013448102802197319,6.684739126953411e-05,-0.003438855384254036,0.007474472595790437,0.98884631034567
2015-09-16,-1,-0.0011011466763800896,-0.0010891674068381448,-0.003438855384254036,0.009493707991534326,0.9878497252421133
2015-09-18,-1,-0.0011300313476310208,-0.001099847715850814,-0.0014929328426358964,0.01483220181047481,0.9872125685106539
2015-09-22,-1,-0.0018045963540746445,-0.001679319754787033,-0.0006634994435608045,0.01925695162841653,0.98552988727868
2015-09-24,1,0.0002782519199823291,0.0004596839432511929,-0.0033263215988640895,0.01483220181047481,0.9877032748611643
2015-09-28,-1,-0.001484626377540658,-0.0014221589142756632,-0.00027079390389721334,0.014925156973484104,0.9882679562663611
2015-09-30,-1,-0.0004082936329011153,-0.0003178487647545793,-0.00027079390389721334,0.014925156973484104,0.9891447809819163
2015-10-02,1,0.00027150778577114535,0.00045525578736502247,-0.0011522299134075435,0.014925156973484104,0.9895555724519182
2015-10-06,-1,-0.00015792830073477226,-0.00014429293020033052,-0.0011522299134075435,0.013420558350504222,0.9897001541394549
2015-10-08,1,0.0002433922217763875,0.0003271279481220219,-0.0006260112888708589,0.011288730816086109,0.9909794120869386
2015-10-12,1,0.0005323145650890301,0.0006524382601788637,-0.002645952411408828,0.011288730816086109,0.9910963354866791
2015-10-14,1,0.0006159954740937165,0.0007330893235066737,-0.002645952411408828,0.008735161637499501,0.9913214593603678
2015-10-16,1,0.0012490567314466963,0.0014794359230929752,-0.004991597436057189,0.006409289752791433,0.9913314431533021
2015-10-20,1,0.0013121174397448363,0.001558039429562323,-0.002645952411408828,0.005385986336706993,0.9936756133448017
2015-10-22,1,0.0012843988537022456,0.0015634850298308417,-0.0009425662759765783,0.006409289752791433,0.9942524445826408
2015-10-26,1,0.0016037375522855153,0.0019176378373722816,-0.0014186282152559156,0.006409289752791433,0.993671354891132
2015-10-28,1,0.002295461916136319,0.002673543589742475,-0.0014186282152559156,0.007740985714958759,0.9940069287867176
2015-10-30,1,0.0018616074876417078,0.0021877859501933613,-0.0014186282152559156,0.008075699245490765,0.9938495166981055
2015-11-03,1,0.0021937444920784727,0.0025519086490589458,-0.0014186282152559156,0.007727085845610593,0.9940716044273915
2015-11-05,1,0.0019986261285924256,0.0023157939067238384,-0.006886364992406928,0.007727085845610593,0.9924282045737898
2015-11-09,1,0.0017464588344005664,0.0020270148800777313,-0.007852218022211995,0.007727085845610593,0.9917160485840135
2015-11-11,1,0.0020496089815066646,0.002385162064374849,-0.009520461596790366,0.007727085845610593,0.9903995527705287
2015-11-13,1,0.0013224929920333391,0.0015145948266548845,-0.007852218022211995,0.007727085845610593,0.9907953639740835
2015-11-17,1,0.0011965819311905337,0.0013638243260264658,-0.007852218022211995,0.007727085845610593,0.9905407650755413
2015-11-19,1,0.0015662336211418092,0.0017999126987546699,-0.012686358848467022,0.007558186563594575,0.9889247434143571
2015-11-23,1,0.0013590723441565455,0.0015404215733155618,-0.017606457659037303,0.007558186563594575,0.9886683353380402
2015-11-25,1,0.0022114826298832713,0.0025480651812127284,-0.017606457659037303,0.006630725709454402,0.9885192168163172
2015-11-30,1,0.0019569806842189698,0.002252717400153801,-0.017606457659037303,0.006501319841986372,0.9890301638284518
2015-12-02,1,0.002297721584801087,0.0026444365647235093,-0.017606457659037303,0.006501319841986372,0.988333414027039
2015-12-04,1,0.001338828964309908,0.0015545868185553888,-0.017606457659037303,0.006501319841986372,0.9888738275385335
2015-12-08,1,0.00114458151054356,0.0013313397218336293,-0.017518194256932306,0.007150859592799813,0.9887864874612092
2015-12-10,1,0.0005934530455305566,0.0006964602928294654,-0.013566897502217724,0.006501319841986372,0.9901380936055234
2015-12-14,1,0.0004925195449037647,0.0005687224163417837,-0.013566897502217724,0.007150859592799813,0.9899810186301393
2015-12-16,1,0.000397381568585955,0.0004367133494062015,-0.01637054821162274,0.0075034398602291785,0.9885612019520882
2015-12-18,-1,-0.0002745186829613619,-0.0002551655709055164,-0.005898355014012798,0.0075034398602291785,0.989934235746455
2015-12-22,1,0.0003319586998481383,0.00045558126659111506,-0.0027128819421429664,0.0075034398602291785,0.9882777190192827
2015-12-24,-1,-0.00025118159225633014,-0.00023457781679896486,-0.0007375285123530563,0.0075034398602291785,0.9874964920422905
2015-12-29,-1,-0.00019575310382938634,-0.00016646969133689288,-0.01344145328106282,0.007444690420914359,0.9857795947685709
2015-12-31,-1,-0.000461239004018862,-0.0004107958225709059,-0.0042024693351294905,0.009048903955152043,0.9855070441714511
2016-01-05,-1,-0.0008725255979872297,-0.000778065078564398,-0.0009274955680539594,0.009304461756223811,0.9862841647325512
2016-01-07,-1,-0.00061692729964921,-0.0005675287972942907,-0.0009274955680539594,0.009304461756223811,0.9872418156159946
2016-01-11,-1,-0.0010287998105077269,-0.0009003082064373178,-0.0040133705784913334,0.009304461756223811,0.9871799544203894
2016-01-13,-1,-0.0009082078990685081,-0.0007809195042751255,-0.0066929036287355645,0.009304461756223811,0.9870578678133856
2016-01-15,-1,-0.0018508109135827796,-0.001513159295686389,-0.0040133705784913334,0.00945898029501364,0.9868735389310359
2016-01-20,-1,-0.0007651346758410806,-0.0006161206420613695,-0.0040133705784913334,0.00945898029501364,0.9874577410133044
2016-01-22,1,0.0007089972213085893,0.0007450069865926417,-0.005455129847943607,0.009304461756223811,0.9906535672805393
2016-01-26,1,0.0009151376826877733,0.0009156027103475503,-0.0066929036287355645,0.008322545672446974,0.9905026388184586
2016-01-28,-1,-0.00037868668696897415,-0.0002412132015152659,-0.005455129847943607,0.008322545672446974,0.9922536718061571
2016-02-01,1,0.0003366468172749821,0.0003815272581025485,-0.006650532097830537,0.0064290269949869375,0.992020001303192
2016-02-03,0,-4.158785064087452e-05,7.552012635133807e-05,-0.006650532097830537,0.0059705105284191835,0.9924461077102141
2016-02-05,-1,-0.00034144146740308406,-0.00018584845341543005,-0.005455129847943607,0.006412304573922662,0.9924122670809251
2016-02-09,-1,-0.00028354871344229906,-0.00013267356903472487,-0.0038535513173059543,0.006412304573922662,0.9927010290329314
2016-02-11,-1,-0.0004779689060253276,-0.00030268182009586064,-0.0027985080882286565,0.007329941413115261,0.9916716533021646
2016-02-16,0,-8.976021767078974e-05,7.051756472358097e-05,-0.005112230407220122,0.0059705105284191835,0.9920831086783916
2016-02-18,1,0.0005023755173274732,0.0005322771043208696,-0.00865512501331198,0.0059705105284191835,0.9898389582802549
2016-02-22,-1,-0.0005166080361066598,-0.00028887650624237493,-0.00865512501331198,0.005960368410502295,0.9901500102512988
2016-02-24,-1,-0.0006640197747054699,-0.0004586511118991315,-0.005621833775660081,0.005960368410502295,0.9911249935173423
2016-02-26,-1,-0.0005958865693517916,-0.00041939713381489223,-0.007528397040054519,0.006381878220171996,0.9905284814522499
2016-03-01,-1,-0.000489756256643795,-0.00035110884229560966,-0.0033083898651086636,0.006381878220171996,0.9907380504436808
2016-03-03,-1,-0.00025108810378834994,-0.00015820333602223368,-0.0033083898651086636,0.009559918024773649,0.9891528200112084
2016-03-07,1,0.0002141200447812739,0.0002386804914752354,-0.006486575299052769,0.009559918024773649,0.9890552674674582
2016-03-09,1,0.00020394667374921323,0.0002162028981598931,-0.009104307033258024,0.01189049217157841,0.98765710204217
2016-03-11,1,0.0014976429331555823,0.0016831276831549573,-0.009104307033258024,0.00680704376689842,0.9891035508813102
2016-03-15,1,0.0007832568226660184,0.0008732798228480714,-0.0075231014656071985,0.011336185813549036,0.9893604009320799
2016-03-17,-1,-0.0006966805043457551,-0.0005802268113697,-0.004449634100690076,0.011336185813549036,0.9906473036717225
2016-03-21,-1,-0.0003821380656046519,-0.00032074896958963844,-0.004659494882715399,0.011336185813549036,0.9908229133995343
2016-03-23,1,0.00021081057780960978,0.0002685152132777612,-0.004659494882715399,0.011336185813549036,0.9905037915427434
2016-03-28,-1,-6.53705009814827e-05,-5.800228669011446e-05,-0.003629928050604743,0.011336185813549036,0.9910109036048501
2016-03-30,1,0.0006197915085560758,0.0007466790215404853,-0.004659494882715399,0.008372429928730142,0.9884073142870444
2016-04-01,1,0.0015052683020355334,0.001740577097909697,-0.0075231014656071985,0.006148633699969875,0.9893855770495817
2016-04-05,1,0.000825606802897807,0.0009560499563078637,-0.007521400845200679,0.006184917763414998,0.9893751913804079
2016-04-07,1,0.0011776514536702637,0.0013649641674925127,-0.004659494882715399,0.006835984400141554,0.9904439991254735
2016-04-11,1,0.0008606345596550178,0.0009869558890547728,-0.003535148544773552,0.006835984400141554,0.9905258372217263
2016-04-13,1,0.0014394932722680805,0.0016416591311991923,-0.003535148544773552,0.006475986461179647,0.9911789968989618
2016-04-15,1,0.001459263064780268,0.0016774618702941513,-0.003535148544773552,0.006475986461179647,0.9914890512658064
2016-04-19,1,0.0013713731473192414,0.0015793841991839754,-0.004175282368412138,0.006835984400141554,0.9905039003171109
2016-04-21,1,0.001967951935036812,0.002284276812725995,-0.005924709971997472,0.006475986461179647,0.9905023477287532
2016-04-25,1,0.0020739045516975215,0.0023965747426880554,-0.005924709971997472,0.006475986461179647,0.9900101245397585
2016-04-27,1,0.0007204672078491368,0.000881730445174063,-0.005924709971997472,0.0068389089046970945,0.9929326708134377
2016-04-29,-1,-0.00022001360452761495,-0.00020184985209185073,-0.004044815714971412,0.007422628296048247,0.9929231526797104
2016-05-03,-1,-0.0004882774185227298,-0.00042719228929392417,-0.0016586368183976645,0.009149186121422976,0.9929301496986253
2016-05-05,-1,-0.0004259910273583887,-0.0003484052911437409,-0.0016586368183976645,0.009149186121422976,0.99333687285486
2016-05-09,-1,-0.00020961181064362044,-0.00015722996390350253,-0.0016586368183976645,0.009149186121422976,0.9935003776023682
2016-05-11,1,9.22932621829832e-05,0.00010343440164462188,-0.0016586368183976645,0.0069822708566186446,0.9936744077110438
2016-05-13,-1,-0.0005802191650207575,-0.00044248374298793715,-0.004044815714971412,0.0069822708566186446,0.9930597481918255
2016-05-17,-1,-0.000749567818900261,-0.000592804169991168,-0.004044815714971412,0.006164826064883732,0.993513321235368
2016-05-19,-1,-0.0008796868193991553,-0.0007018502710301613,-0.004669155913750471,0.006164826064883732,0.9933044369860489
2016-05-23,-1,-0.000681364780484812,-0.000538131456231915,-0.004669155913750471,0.0069822708566186446,0.9912782879327838
2016-05-25,-1,-0.000860675135094517,-0.0006760630231144927,-0.0011432083975832855,0.008722533118242802,0.9902880246253348
2016-05-27,-1,-0.0008171172734212157,-0.0006155542265372435,-0.0072766440845393075,0.007042295495553602,0.9873188610241446
2016-06-01,-1,-0.0005834456879993489,-0.0004082431966544996,-0.0072766440845393075,0.011405083057433194,0.9856946801935943
2016-06-03,-1,-0.0005812623445002712,-0.00040122083198816476,-0.0072766440845393075,0.019020756012129013,0.9848325720336535
2016-06-07,-1,-0.00039085849593909513,-0.0002428124022157941,-0.0072766440845393075,0.019020756012129013,0.9848554880614786
2016-06-09,1,3.011758174951409e-05,0.00011683660498791192,-0.008996498545102833,0.019020756012129013,0.9841240934422436
2016-06-13,-1,-0.000498385933800717,-0.00036411626408854074,-0.004669155913750471,0.019020756012129013,0.9847113836727605
2016-06-15,1,8.662661859352888e-05,9.707591972328058e-05,-0.004050912920413767,0.019020756012129013,0.9847291182250981
2016-06-17,1,0.00030259221493197344,0.0003626629456788029,-0.00368525229304218,0.019020756012129013,0.9843319238880839
2016-06-21,1,0.0012104851819264364,0.0013186145898353243,-0.004185684149918207,0.01707768956234403,0.9866560221273425
2016-06-23,1,0.0021878211978707466,0.0024569262143061873,-0.004185684149918207,0.011965784630004889,0.9881496025423339
2016-06-27,1,0.00043370319799277145,0.00047041523580939313,-0.0037330965952345973,0.011965784630004889,0.9911250924945638
2016-06-29,1,0.001387481878230341,0.0015366508400201427,-0.004185684149918207,0.008929824522104725,0.9924854734001669
2016-07-01,1,0.0016792361782461732,0.0018838893748296115,-0.004185684149918207,0.009697810330653435,0.9906267563745571
2016-07-06,1,0.0016968111719630101,0.0018886304430128869,-0.005804739854993333,0.009697810330653435,0.9898885175811147
2016-07-08,1,0.0022570748527995545,0.0025622940536551824,-0.004860218073188706,0.009697810330653435,0.9907053548312411
2016-07-12,1,0.0017491709968474878,0.001975093179813315,-0.004860218073188706,0.01033057861117155,0.9907831542210398
2016-07-14,1,0.0021510066575284054,0.002429528978314436,-0.005804739854993333,0.009675051854508517,0.990868358701577
2016-07-18,1,0.0021852214631548766,0.0024485024280782065,-0.005804739854993333,0.008929824522104725,0.9917174665654417
2016-07-20,1,0.001907790881100279,0.0021180818427129072,-0.006815326029292088,0.007225270060266676,0.990747571874082
2016-07-22,1,0.0017429917522404298,0.001921264027708767,-0.006815326029292088,0.009140747282277432,0.9901234124516417
2016-07-26,1,0.0018275048962346704,0.0020153634078579298,-0.0073962722645245825,0.009140747282277432,0.9886624007250487
2016-07-28,1,0.0017324174326788578,0.001922850219201722,-0.006815326029292088,0.010152716043765195,0.9890670394769618
2016-08-01,1,0.002702347119247029,0.0030053142323209865,-0.0073962722645245825,0.007545413403487498,0.9907532889078645
2016-08-03,1,0.002478219745295397,0.002816962674596275,-0.008120645502042455,0.007545413403487498,0.990653884489199
2016-08-05,1,0.0023257070839670137,0.0025987325515669023,-0.008120645502042455,0.006649719584963243,0.9907739330915045
2016-08-09,1,0.001838901002586788,0.0019922256283007598,-0.008120645502042455,0.006453466756963829,0.9909969737454548
2016-08-11,1,0.0016706797249746864,0.0018004795823866797,-0.009125404764138464,0.006453466756963829,0.9898292685183631
2016-08-15,1,0.00171949633489884,0.001856580152136951,-0.011015002915570062,0.006453466756963829,0.9891871928289586
2016-08-17,1,0.0009401018636108627,0.0009613918817658597,-0.008494817505549363,0.006453466756963829,0.9906955311721972
2016-08-19,1,0.0016078638452628742,0.0017336626584273272,-0.010342260277728652,0.003705758272550033,0.9906622407600804
2016-08-23,1,0.001166066149615129,0.0012898474354828958,-0.008494817505549363,0.005665593417569255,0.9923050389105363
2016-08-25,1,0.0011496095071905548,0.001228447098449053,-0.010342260277728652,0.002841745276303304,0.9922794904562265
2016-08-29,1,0.0015925041551616713,0.0017387887584368275,-0.008494817505549363,0.0035211367289857904,0.9926650529285772
2016-08-31,1,0.0004201737165865345,0.000438060990986374,-0.008037778037717117,0.004134546955430187,0.9929641393161406
2016-09-02,1,0.0007925033729637375,0.0008542261726444337,-0.008037778037717117,0.004134546955430187,0.9925922848318645
2016-09-07,1,0.0008657355894183695,0.0009341692362969665,-0.008037778037717117,0.0031074868862615147,0.9924999009344456
2016-09-09,1,7.570249988947441e-05,0.00011613941689428653,-0.007819426817242691,0.004134546955430187,0.9932609476719833
2016-09-13,1,0.00014410367146933283,0.00015920940996079944,-0.007819426817242691,0.005410654947070347,0.9923166029208735
2016-09-15,1,0.00021789469333291191,0.0002215238446925485,-0.007819426817242691,0.005410654947070347,0.9922729594862995
2016-09-19,-1,-0.0008821671494962139,-0.0006800229618082073,-0.007142368553159731,0.0063953201457399265,0.9924116552972458
2016-09-21,-1,-0.0011479547083094713,-0.0008921766144429822,-0.00724140904563374,0.00908260081112771,0.9919500396190807
2016-09-23,-1,-0.0017868759180198702,-0.0014440185290347449,-0.00724140904563374,0.00908260081112771,0.9918701858468644
2016-09-27,-1,-0.0008243162073557525,-0.0006091081496880621,-0.00724140904563374,0.0066104684123764875,0.9924564650537024
2016-09-29,-1,-0.0012211458027150159,-0.0009574308717877983,-0.007661751370224734,0.0066104684123764875,0.9898459819352845
2016-10-03,-1,-0.0010660630428874305,-0.0008295469219134597,-0.009030546473018682,0.006525054924772875,0.9897119896680114
2016-10-05,-1,-0.001522644851471351,-0.0012238409607908713,-0.01109410038949767,0.006525054924772875,0.9882746160646882
2016-10-07,-1,-0.001592546116845207,-0.00127672212509159,-0.01109410038949767,0.0031022041500072864,0.9889257599764185
2016-10-11,-1,-0.0016016643695380278,-0.0012849652977237691,-0.009915049557361727,0.0031022041500072864,0.9899072911634913
2016-10-13,-1,-0.0016352710205140356,-0.001313883697891712,-0.009915049557361727,0.008869527954852886,0.9884563055232062
2016-10-17,-1,-0.0017738525238705624,-0.0014370370927343494,-0.01109410038949767,0.008752069592808078,0.9879423214561833
2016-10-19,-1,-0.0014848112927636475,-0.0011988569694616267,-0.01216497971007591,0.006525054924772875,0.9882846978388128
2016-10-21,-1,-0.001450091605286779,-0.0011814546624536939,-0.01109410038949767,0.008752069592808078,0.988008058975908
2016-10-25,-1,-0.0013871313853319183,-0.0011295718457052673,-0.01109410038949767,0.008752069592808078,0.9880707722113149
2016-10-27,-1,-0.002903425669922355,-0.0024711686577034483,-0.00816991183438142,0.00905202987289246,0.9902796780681112
2016-10-31,-1,-0.0026975409161530367,-0.002305428528782005,-0.0067101938631994665,0.013462440963302786,0.9884010706702159
2016-11-02,-1,-0.004152207508499836,-0.003553796262469381,-0.0067101938631994665,0.013462440963302786,0.9880110926033374
2016-11-04,-1,-0.004218553404205445,-0.0036051446648406116,-0.0067101938631994665,0.013462440963302786,0.9875876139405901
2016-11-08,-1,-0.004427149985924368,-0.003781827210161074,-0.005239340758326667,0.013462440963302786,0.9875578052513193
2016-11-10,-1,-0.0024691745497174675,-0.0021379090397909317,-0.005239340758326667,0.013807300223342527,0.9880560604689731
2016-11-14,-1,-0.0025005692948672437,-0.0022063062569517814,-0.0029828484174284826,0.013807300223342527,0.9889503597738888
2016-11-16,-1,-0.00408656645437021,-0.0035109075815001134,-0.0029828484174284826,0.013807300223342527,0.9885407694006453
2016-11-18,-1,-0.0029558642855030213,-0.002574363492146117,-0.0027967659409113476,0.010460430924125875,0.9897074464869142
2016-11-22,-1,-0.0026937124719936876,-0.002358904321150438,-0.003842139343829112,0.010460430924125875,0.9899016511647459
2016-11-25,-1,-0.0022013009837708593,-0.0019315115346913326,-0.003842139343829112,0.00885005230454831,0.9905032006096836
2016-11-29,-1,-0.0004198439167616897,-0.000377047810699397,-0.003842139343829112,0.006712370691850979,0.9930328163774623
2016-12-01,-1,-0.0020293984176758197,-0.001779014525491989,-0.0031019077137999424,0.007335704062335376,0.9941042266102337
2016-12-05,-1,-0.0014763371407530363,-0.0013151741278854688,-0.0031019077137999424,0.007159636510590378,0.9941558191036413
2016-12-07,-1,-0.0006140749722067854,-0.0005747699979005935,-0.003842139343829112,0.006506007619786647,0.9940829570847991
2016-12-09,-1,-5.3387535343840054e-05,-2.60866384997136e-05,-0.003842139343829112,0.006506007619786647,0.9939487480245728
2016-12-13,-1,-0.0001398397716553037,-0.00012434228563202356,-0.003842139343829112,0.004887193110114093,0.9942504357934694
2016-12-15,1,2.3690314180158437e-06,4.655373813402557e-05,-0.003842139343829112,0.006506007619786647,0.9929899971433374
2016-12-19,-1,-0.00020916362936536603,-0.00020044509623035723,-0.006183072518515786,0.006506007619786647,0.9923627129289995
2016-12-21,1,0.00036601492095626124,0.0005433116937701238,-0.003722876210440787,0.007971183157207531,0.9922973336917904
2016-12-23,1,0.00025075690707620536,0.00034377449591615496,-0.003722876210440787,0.01202317430579701,0.9878179495228883
2016-12-28,1,0.00025858052573060256,0.0003747482856915837,-0.006183072518515786,0.01202317430579701,0.986908217519751
2016-12-30,1,0.0005239637916108928,0.0006885456393345296,-0.006235908312341231,0.007823509269058199,0.9873480115534495
2017-01-04,1,0.0007121716715731238,0.0008998323865835895,-0.006767614567928517,0.006253919388768757,0.9872626876758762
2017-01-06,1,0.0006722010302940163,0.0008584177396540145,-0.006235908312341231,0.012855197728839134,0.9867124538959918
2017-01-10,1,0.0011644016255357142,0.0013859894721885277,-0.006235908312341231,0.0064379479706099365,0.9878475274979703
2017-01-12,1,0.001382891404497573,0.001665622263152859,-0.006235908312341231,0.006517096985729217,0.9876149338696374
2017-01-17,1,0.0009013022773700026,0.0010773768792215733,-0.004282154213863348,0.006517096985729217,0.9887455960645413
2017-01-19,1,0.0007334004805829089,0.0009092272699905432,-0.0011800227373150727,0.007493970778752437,0.9892784442217157
2017-01-23,1,0.0013531107623177185,0.0016352493518571466,-0.0012134670250151748,0.006517096985729217,0.9898693349089942
2017-01-25,1,0.002577924834823933,0.002977511087355879,-0.002686358284373128,0.006264600084279982,0.9941993506899658
2017-01-27,1,0.0021702980769394958,0.002524400866729272,0.00035260713839092427,0.006264600084279982,0.995371628621713
2017-01-31,1,0.002126501165287229,0.0024836834127680094,0.0008120398792924626,0.006517096985729217,0.9953869877321168
2017-02-02,1,0.001615323256800107,0.0018656287712118338,0.0006600419745993596,0.006517096985729217,0.9951247115670043
2017-02-06,1,0.0020891200864297855,0.002392490500560395,-0.0009675834725880632,0.006179901186452693,0.9955742306569831
2017-02-08,1,0.0021950477647581772,0.002514619314086533,-0.002079119308674331,0.005189988584847749,0.995113224466372
2017-02-10,1,0.0021106996750184736,0.0024013200942409924,-0.002079119308674331,0.004777043802043661,0.9950909531594161
2017-02-14,1,0.0022439918237501686,0.0025525229062374577,-0.004743534322061536,0.004777043802043661,0.9946317149520404
2017-02-16,1,0.002160664839975613,0.002438358768365979,-0.004743534322061536,0.004777043802043661,0.994596251586631
2017-02-21,1,0.002473792756882991,0.0028235887443161826,-0.006766238696786152,0.003706380847139354,0.9938972186516386
2017-02-23,1,0.0022007598211911355,0.0025004499165295143,-0.005065463427846566,0.0048230479116538215,0.9942544516045386
2017-02-27,1,0.002332026389774698,0.0026508161080430197,-0.005065463427846566,0.0039971903215672575,0.9943109204333745
2017-03-01,1,0.0024419217287278213,0.00275999642184145,-0.005065463427846566,0.004192303140035554,0.99461780793186
2017-03-03,1,0.0022032380056453017,0.002490402051225649,-0.005389020685700612,0.0053608879270574915,0.9943099372891575
2017-03-07,1,0.001870819762588614,0.0021142436806614985,-0.008216857235376058,0.0053608879270574915,0.9939314809414055
2017-03-09,1,0.0017554924223625468,0.001980026258630545,-0.008216857235376058,0.0053608879270574915,0.9933921163897417
2017-03-13,1,0.002008453655442993,0.0022641996674746157,-0.008216857235376058,0.004192303140035554,0.9935252398546823
2017-03-15,1,0.0019497867617103367,0.0022018544173003146,-0.008216857235376058,0.004192303140035554,0.9933032528295034
2017-03-17,1,0.0017893948052889817,0.002008252656507113,-0.008216857235376058,0.004502677367363242,0.9927069015557894
2017-03-21,1,0.0015051276828239096,0.0016888060327040536,-0.008314495876841294,0.006349904326535941,0.9928264361877767
2017-03-23,1,0.0008252123649058985,0.0008476565096242456,-0.008314495876841294,0.006349904326535941,0.9927667168916474
2017-03-27,1,0.0009412230129933382,0.0009719187031008071,-0.008314495876841294,0.0065314252281308705,0.9922523090301275
2017-03-29,1,0.0004948344530910759,0.0005530592075809354,-0.008314495876841294,0.00679755525942852,0.9914983737434216
2017-03-31,1,0.00016096395934132935,0.000205281565176198,-0.008314495876841294,0.00849855695715932,0.9885090445860027
2017-04-04,-1,-0.00022975085253488787,-0.00013099675172435505,-0.005345429083101279,0.011719391642417382,0.988282792211905
2017-04-06,-1,-0.00022572360326896407,-0.00014275634863730074,-0.0016029822128879228,0.011719391642417382,0.9889650263064335
2017-04-10,-1,-0.0003969143894822688,-0.0002840590338588508,-0.00950721967336431,0.011719391642417382,0.9876150319913889
2017-04-12,-1,-0.000610868171888589,-0.00046237585947301674,-0.005345429083101279,0.011719391642417382,0.9878809354670658
2017-04-17,-1,-0.0004168527100219533,-0.000296741612878147,-0.005135230900941948,0.011081590149619815,0.9882103841251156
2017-04-19,-1,-0.0005509204110819567,-0.0004110552108637745,-0.007457168036791669,0.011081590149619815,0.9880902626305484
2017-04-21,-1,-0.00033618149394230536,-0.00022739064226818412,-0.007457168036791669,0.011719391642417382,0.9879197048035452
2017-04-25,1,4.9662756894497544e-05,8.1437482991109e-05,-0.007457168036791669,0.011719391642417382,0.9878612571234774
2017-04-27,1,5.543568750091912e-05,9.912000391576151e-05,-0.007457168036791669,0.008557148501272184,0.9888605265434529
2017-05-01,-1,-0.00038212754204306496,-0.00028921493925716595,-0.004457036271343577,0.006685801085886724,0.9926865282056029
2017-05-03,-1,-0.0004015153968189787,-0.0003118892401804853,-0.0027633380581864667,0.008557148501272184,0.992529651436738
2017-05-05,-1,-0.00021466339366153103,-0.00015929697822724838,-0.0027633380581864667,0.010971657438968732,0.9922959751252965
2017-05-09,-1,-0.00043940944193362997,-0.00035754590683306916,-0.0013404522357042177,0.010971657438968732,0.9929251440069095
2017-05-11,-1,-0.00040051831281324947,-0.00032379403271071226,-0.0007612370094553791,0.010704576067399494,0.9934985428319713
2017-05-15,-1,-0.0003200653115384332,-0.00025227655646453234,-0.0013404522357042177,0.011046700926685835,0.9925233675467355
2017-05-17,-1,-0.0005719593420583067,-0.0004678675085107865,4.360086236489041e-05,0.011046700926685835,0.9925827561378364
2017-05-19,-1,-0.00037174584639415364,-0.00029490096488504866,0.0006972093867352005,0.011491234840933978,0.9916431418323621
2017-05-23,-1,-0.00048102313878157474,-0.000379947477673104,-0.0007612370094553791,0.011046700926685835,0.9922265810275486
2017-05-25,-1,-0.00045910044207228844,-0.00036259349344537373,-0.0010041277900100696,0.011046700926685835,0.9916036591443491
2017-05-30,-1,-0.00038904736614465393,-0.0003047783571862784,-0.0034558250355303877,0.011046700926685835,0.9908227395646636
2017-06-01,-1,-0.00016727140411462613,-0.00010447645428200881,-0.0034558250355303877,0.010680628599171413,0.9920465290059439
2017-06-05,1,1.4581011940744822e-05,3.6830435582835986e-05,-0.0034558250355303877,0.01047896413548045,0.9920720611949815
2017-06-07,1,7.33184409879936e-05,9.228903807499027e-05,-0.006647065902614457,0.010197140024359199,0.9916067836540311
2017-06-09,0,-1.5006302701515626e-07,2.9480172771781916e-05,-0.006647065902614457,0.010301851603707661,0.9912891768281777
2017-06-13,1,0.0001409680445078021,0.00016455544552160256,-0.00633802570517062,0.010153031317884982,0.9923137259114375
2017-06-15,1,0.00021907538691123238,0.00023666627756482926,-0.00633802570517062,0.009104157334924179,0.9926507968302738
2017-06-19,1,0.0013145473480442463,0.001479493663175359,-0.00633802570517062,0.002984253246942451,0.9939263796937772
2017-06-21,1,0.0008577604574592882,0.00094307663867159,-0.0059636194677703935,0.006312225363291125,0.9941426601471759
2017-06-23,1,0.0008501396700481506,0.0009266230672023938,-0.0059636194677703935,0.0033742518863183555,0.994362576967737
2017-06-27,1,0.00047192261242866697,0.0004936022949830273,-0.0010996236101577408,0.006157722432104587,0.9950782526486749
2017-06-29,1,0.0006647161798439491,0.0007316664787900735,-0.0016101515480836214,0.006157722432104587,0.9949628764491194
2017-07-03,1,0.0007481301135315646,0.0008292790762126304,-0.002803735257133071,0.00502462191118107,0.9950906755476739
2017-07-06,1,0.001071603101589816,0.0011829446049129778,-0.0016101515480836214,0.006157722432104587,0.9924282884828362
2017-07-10,1,0.0014106788667648754,0.0015795641938369217,-0.0016101515480836214,0.006157722432104587,0.991764267596319
2017-07-12,1,0.0015659792826839838,0.0017699273382462634,-0.002803735257133071,0.00502462191118107,0.9916481365870204
2017-07-14,1,0.0017369940858175288,0.0019665733191649333,-0.0035574407159359865,0.0030176875157280477,0.9906677527544528
2017-07-18,1,0.0015338047435872319,0.001724215217223303,-0.004987796461171246,0.005088029320333665,0.9894473341939206
2017-07-20,1,0.001711347212027091,0.0019297938689152535,-0.004987796461171246,0.0038588403591277064,0.9896489708189835
2017-07-24,1,0.001539279333438294,0.0017485458047204509,-0.0035574407159359865,0.004766961959765442,0.9901941745891262
2017-07-26,1,0.0015796218170388537,0.001783559192096768,-0.004968776744070147,0.004766961959765442,0.9893468588016872
2017-07-28,1,0.0012948671435965811,0.0014443931979229506,-0.004968776744070147,0.004766961959765442,0.9894823809230412
2017-08-01,1,0.0011566381821001212,0.0012704421986051142,-0.008004071450104368,0.007038670715540408,0.9886112789381879
2017-08-03,1,8.10446579922482e-05,9.312120320332615e-05,-0.004775189277741853,0.009956419861837006,0.9906357812789065
2017-08-07,1,0.0005717321972363817,0.0006177025334153153,-0.008004071450104368,0.005899173719386612,0.9911470423411818
2017-08-09,1,0.0002739992758081398,0.00028208162917523784,-0.0025723385570718873,0.014030809023880856,0.9903793844839507
2017-08-11,-1,-0.0004327334629725502,-0.00034525784398547067,6.278914719462443e-05,0.014690716994148246,0.9895745072885754
2017-08-15,-1,-0.00037475379131110624,-0.00030267060371772376,-0.0016375004229382255,0.014112854247715101,0.9900668914801183
2017-08-17,-1,-0.00022867620579157665,-0.00017425858564877486,-0.006560632947975019,0.014112854247715101,0.9890054423540529
2017-08-21,1,0.000123165770618717,0.00012566979864921305,-0.006560632947975019,0.014112854247715101,0.9892745463921825
2017-08-23,1,0.0001505453091797345,0.00015357373498262804,-0.006560632947975019,0.013165173584595416,0.9889437892938392
2017-08-25,-1,-6.390547305952334e-05,-1.3209526124613414e-05,-0.006560632947975019,0.013165173584595416,0.9889857176853146
2017-08-29,-1,-0.00016958295856265182,-7.27238738306236e-05,-0.007522500073992213,0.012090903182979314,0.98961140952006
2017-08-31,1,0.0005640255619543424,0.0005787914382360568,-0.007522500073992213,0.0113279176933755,0.9906675079441437
2017-09-05,1,4.284900564177716e-05,0.00012786824701183197,-0.007450037663118922,0.0113279176933755,0.9905349868530581
2017-09-07,1,0.0008374593919907859,0.0008562254489055674,-0.007450037663118922,0.006802785405414035,0.9913673776938653
2017-09-11,1,0.0014952375020338498,0.001589067427861192,-0.011440565255224976,0.002362596002594879,0.9918051069152977
2017-09-13,1,0.0010061219790320171,0.001044729624089277,-0.004586665587976426,0.003955142165751482,0.9929883574148122
2017-09-15,1,0.0010114304760950343,0.001070429329160452,-0.001957687360055188,0.003955142165751482,0.9937396344959575
2017-09-19,1,0.0014365853334901808,0.0015855142149719878,-0.001957687360055188,0.004807869890519692,0.993504880847896
2017-09-21,-1,-0.0003396775448447182,-0.00013263678014017565,-0.0012194764943523413,0.005765606148471168,0.9947298837948416
2017-09-25,-1,-0.0005386796153419716,-0.0003079740687992388,-0.000746002121602935,0.006604643269574606,0.9941651818912209
2017-09-27,-1,-0.0011078981832724738,-0.0008186864648094988,-0.000746002121602935,0.006604643269574606,0.993719527494459
2017-09-29,-1,-0.00152935564278187,-0.0011290416407549106,-0.0007387401269359289,0.006604643269574606,0.9902891284298865
2017-10-03,-1,-0.00155158873073667,-0.0011804241059654246,-0.0007387401269359289,0.009074956521698714,0.9895688124772755
2017-10-05,-1,-0.0009326011821959555,-0.0006696374027009577,-0.0028164286365941604,0.00925254653250908,0.9878591114326932
2017-10-09,-1,-0.002099867025935777,-0.0016512566332774882,0.00013306899306479172,0.00925254653250908,0.9876526888193569
2017-10-11,-1,-0.0018397871154764939,-0.0014345049850592255,-0.004783227516954954,0.00925254653250908,0.9877846286671444
2017-10-13,-1,-0.000994297105654705,-0.0007253876235062045,-0.004783227516954954,0.007055547101333747,0.9881967691898833
2017-10-17,-1,-0.0006730799462312702,-0.0004400349114998933,-0.004783227516954954,0.0074312792479835415,0.9880847251785891
2017-10-19,-1,-0.0006183552481328505,-0.00039537633450122014,-0.004783227516954954,0.009093481947271238,0.9879263690544274
2017-10-23,1,0.0002566663867377124,0.0003443442974614153,-0.0051446815743152,0.007002525572921132,0.9885468719241441
2017-10-25,-1,-0.00023836549565879974,-0.00011140339084914156,-0.003757233747881735,0.009302242898478905,0.9885069156203171
