JNU-Tangyin/eata/results/Batch4_SP500/Batch4_SP500-TSN.csv
Date,Action,Predicted_Q25,Predicted_Q75,Actual_Q25,Actual_Q75,RL_Reward
2010-12-14,0,0.0,0.003302567880063859,-0.010237046437913582,0.007013987257274481,0.9901078706101827
2010-12-16,1,0.004969776642038613,0.005960859707701538,-0.004765857677034766,0.007013987257274481,0.9896494106540242
2010-12-20,0,0.0,0.0,-0.004765857677034766,0.008970978594379623,0.9893038903159302
2010-12-22,0,0.0,0.0,-0.004765857677034766,0.007989569631297934,0.9888983401725279
2010-12-27,0,0.0,0.0,-0.01124318182941903,0.007989569631297934,0.9888277213244767
2010-12-29,0,0.0,0.0,-0.013962106106588287,0.01200022910179061,0.9868886717417296
2010-12-31,0,0.0,0.0,-0.013962106106588287,0.01200022910179061,0.9868968274073641
2011-01-04,0,0.0,0.0,-0.008009910667131859,0.012611162161488684,0.9874210584786959
2011-01-06,0,0.0,0.0,-0.008009910667131859,0.01900254289743486,0.9842404316583722
2011-01-10,0,0.0,0.0,-0.013962106106588287,0.020093321988423566,0.9817698540131564
2011-01-12,0,0.0,0.0,-0.013962106106588287,0.020093321988423566,0.9811758681274895
2011-01-14,1,0.0016235077558146628,0.0016824149743493236,-0.013962106106588287,0.020093321988423566,0.9807870383594882
2011-01-19,1,0.0010390680526972567,0.0010964291452595877,-0.012807606325425906,0.020093321988423566,0.9818209628916947
2011-01-21,1,0.001531432718464244,0.0015463666774123428,-0.012807606325425906,0.016396640318412543,0.9823070550208299
2011-01-25,1,0.00024257537658353354,0.0004145998711961203,-0.010001342152404825,0.016396640318412543,0.9833070542571759
2011-01-27,1,0.001458929050829995,0.001611335867926869,-0.009762668007832525,0.018799735504937718,0.9827519027521394
2011-01-31,1,0.00125570341995789,0.001467036614680188,-0.009762668007832525,0.018799735504937718,0.9828081070059015
2011-02-02,1,0.0030372231146381006,0.0034972602572438984,-0.009762668007832525,0.014115409974991418,0.9842979434371157
2011-02-04,0,0.0,0.0,-0.010519985368349095,0.00524874526362833,0.9875764541137237
2011-02-08,1,0.0037749048123599444,0.0043394278108916245,-0.009762668007832525,0.011879898354787775,0.9873721015911229
2011-02-10,1,0.0021171211764449546,0.00240969901760107,-0.010519985368349095,0.011879898354787775,0.9879729499643521
2011-02-14,1,0.00186045941553514,0.0020967407550353057,-0.010519985368349095,0.011879898354787775,0.9870390354881777
2011-02-16,0,0.0,0.0,-0.01160667818584796,0.007869355286548075,0.9867658871915755
2011-02-18,0,0.0,0.0,-0.01160667818584796,0.008416329912736008,0.9860009819685525
2011-02-23,0,0.0,0.0,-0.010890655752131058,0.008416329912736008,0.9864491000713348
2011-02-25,0,0.0,0.0,-0.00962089031415729,0.011411786815472351,0.9864091349250911
2011-03-01,1,0.0014409221804200841,0.0016392344520673927,-0.004505722640206582,0.011411786815472351,0.9870125905079621
2011-03-03,-1,-0.0013117221618356182,-0.001077767399969229,-0.009636317461470971,0.007713318106776267,0.9861666551524053
2011-03-07,0,0.0,0.0,-0.009636317461470971,0.007757932046361695,0.9858574485565734
2011-03-09,0,0.0,0.0,-0.009636317461470971,0.006729703785725962,0.9876759010226887
2011-03-11,0,0.0,0.0,-0.006881616893354471,0.005902713392886016,0.9886008260493059
2011-03-15,1,0.6899181800093815,0.7083669383136173,-0.0064149491279634875,0.007757932046361695,0.5891132608373645
2011-03-17,-1,-7.850210248781863e-05,-7.781307235026558e-05,-0.003933297983722557,0.007757932046361695,0.989955134846589
2011-03-21,-1,-9.996023102069347e-05,-9.542809697355696e-05,-0.0064149491279634875,0.007757932046361695,0.990625156854349
2011-03-23,1,0.0010248493616059231,0.0010780213139075883,-0.006959501388669432,0.00813455048238948,0.9897804881569383
2011-03-25,1,0.0035928394502639637,0.0037572043056204874,-0.007880732328914054,0.005950569180361896,0.9901481818803656
2011-03-29,1,0.0025374253911053237,0.0025487715630510364,-0.006959501388669432,0.007504437588704718,0.9902878286708643
2011-03-31,1,0.0005903424581892906,0.0008835403555295693,-0.0064149491279634875,0.007504437588704718,0.9917570897889504
2011-04-04,0,-0.0003264488905030554,9.381432358153831e-05,-0.0064149491279634875,0.007504437588704718,0.9924425353641338
2011-04-06,0,-3.374640469329545e-05,0.0003678809734250902,-0.007181397874794604,0.006750801677702745,0.9924153141310489
2011-04-08,0,-0.0004102245243308069,4.641979240509273e-05,-0.008888088539217374,0.006750801677702745,0.9886816210924976
2011-04-12,1,0.0003476126397477194,0.000673635254631116,-0.008888088539217374,0.006750801677702745,0.9890295011637097
2011-04-14,1,0.00024436546567890014,0.0005513383563803691,-0.012447010553132657,0.007504437588704718,0.9862571906712247
2011-04-18,1,0.0011966288764773054,0.0013162510122544623,-0.012447010553132657,0.006750801677702745,0.9869868211450378
2011-04-20,1,0.0006416851283525993,0.0008360828387736242,-0.009014782010319352,0.006831783053645941,0.9872151955985909
2011-04-25,-1,-0.0006466359139793362,-0.00024199267862226159,-0.007593306174572808,0.007747381716534306,0.9872714876349173
2011-04-27,0,0.0,0.0,-0.00917728164448064,0.004308857153613298,0.9873761476768378
2011-04-29,0,0.0,0.0,-0.00917728164448064,0.004407041653308678,0.9872319837437895
2011-05-03,1,0.0013360787434747196,0.0014124905954409769,-0.00917728164448064,0.008295936677224374,0.9859608434508468
2011-05-05,1,0.0015413872208690804,0.001642959496684665,-0.01422139811764789,0.008295936677224374,0.9843678431329614
2011-05-09,-1,-0.0032632399346769272,-0.0027091866202619535,-0.00889490921214552,0.008295936677224374,0.9877212758905761
2011-05-11,-1,-0.002062051221775626,-0.0016924107280411424,-0.009622460783827995,0.008295936677224374,0.9875735290748857
2011-05-13,-1,-0.0010778505841630608,-0.0007924955578519581,-0.009622460783827995,0.008295936677224374,0.988040676158047
2011-05-17,-1,-0.0004997954624256837,-0.00032813118465800813,-0.013082090757198772,0.010480883329572921,0.9853978451645413
2011-05-19,-1,-0.000968421230975211,-0.000709594918726884,-0.013082090757198772,0.010807121686714063,0.9845605981299915
2011-05-23,-1,-0.0008057658046556981,-0.0005686049548015938,-0.013082090757198772,0.01051210153059679,0.9846640652236839
2011-05-25,-1,-0.0022456413580759643,-0.0018023508104090997,-0.009622460783827995,0.01432646839920916,0.9839238519940235
2011-05-27,-1,-0.003437402223830691,-0.0027167063157537193,-0.009622460783827995,0.01432646839920916,0.9840539859136446
2011-06-01,-1,-0.002172713733015642,-0.0016367105745166927,-0.009622460783827995,0.010946018576415183,0.984449435237176
2011-06-03,-1,-0.004679338701658455,-0.003897164674341125,-0.006042771212096072,0.010946018576415183,0.985717583458546
2011-06-07,-1,-0.005832739261610549,-0.0049008961923093135,-0.0017643751388186346,0.010946018576415183,0.9849837838574668
2011-06-09,-1,-0.005493832676320085,-0.004623922808340213,-0.008021803781461568,0.009816377379794156,0.9850838699382228
2011-06-13,-1,-0.005328727214511111,-0.004455376571714532,-0.008021803781461568,0.009816377379794156,0.9864178203097491
2011-06-15,-1,-0.004802760274704072,-0.004043747613000363,-0.00620704929710988,0.008752056133091173,0.9890946619989262
2011-06-17,-1,-0.004094096196806566,-0.003348957680889163,-0.008021803781461568,0.007878426945723207,0.9907530278424675
2011-06-21,-1,-0.003522013523449437,-0.0028454022336107413,-0.008021803781461568,0.008752056133091173,0.9911005655950434
2011-06-23,-1,-0.003476499366745348,-0.002749264695956759,-0.011269138941408074,0.008752056133091173,0.9905969755682208
2011-06-27,-1,-0.0019960488760487386,-0.0015269152167418823,-0.012536979636682344,0.008178715907624227,0.9902957672365993
2011-06-29,1,0.0011847474309761093,0.0012918708132571162,-0.013525517223791953,0.00451844927016334,0.9887241688378996
2011-07-01,1,0.001803830106915051,0.0020222947616576658,-0.013525517223791953,0.000713866881881528,0.9884560137522406
2011-07-06,1,0.0006860260297576782,0.000707458050981394,-0.013525517223791953,0.004084956945883968,0.9882498681078181
2011-07-08,-1,-0.0011504285846399083,-0.0009303139722732301,-0.013525517223791953,0.004712562420657053,0.9872590789546818
2011-07-12,-1,-0.0008083249038880719,-0.0006614901952367696,-0.016133345184055407,0.004712562420657053,0.9831941794983673
2011-07-14,-1,-0.0011103486971824504,-0.0009406330932391347,-0.016133345184055407,0.008457043710910231,0.9818315375047586
2011-07-18,-1,-0.0021369608353854447,-0.001828741225259326,-0.015008810682788712,0.011621073136493767,0.9805489492357068
2011-07-20,-1,-0.0011458793609792667,-0.001003135613815447,-0.015008810682788712,0.010829049043427179,0.980740526564169
2011-07-22,-1,-0.0018780331279692499,-0.0015999492325876911,-0.015008810682788712,0.008457043710910231,0.9804576000308777
2011-07-26,-1,-0.0017032286537491817,-0.0014801073989341078,-0.01449858206952784,0.010829049043427179,0.9797104965339939
2011-07-28,0,0.0,0.0,-0.01449858206952784,0.012047625329189656,0.9793862757403311
2011-08-01,0,0.0,0.0,-0.01449858206952784,0.016113057254204706,0.9777276077647068
2011-08-03,0,0.0,0.0,-0.011640257914846498,0.016113057254204706,0.9785849777153666
2011-08-05,0,0.0,0.0,-0.011640257914846498,0.016113057254204706,0.9806550738303397
2011-08-09,0,0.0,0.0,-0.011640257914846498,0.01465726262967676,0.9840390763309216
2011-08-11,0,0.0,0.0,-0.013009885067327823,0.012047625329189656,0.9845244166242682
2011-08-15,-1,-0.000908996684700148,-0.0008412860316010938,-0.013009885067327823,0.0070870327162016675,0.9857870729078758
2011-08-17,0,0.0,0.0,-0.013009885067327823,0.013356756801437202,0.9845645458775218
2011-08-19,-1,-0.0015894104492971749,-0.0014870906363339776,-0.008718400122921917,0.013356756801437202,0.9865454761389021
2011-08-23,-1,-0.0015177488086305097,-0.0014091012888988188,-0.015988535313722855,0.0070870327162016675,0.9860680136321043
2011-08-25,-1,-0.0023415100388491355,-0.0021202052756757856,-0.011832691605400658,0.005876440213486562,0.9874103376582107
2011-08-29,0,-7.779872567091064e-05,1.5159820035606634e-05,-0.011832691605400658,0.009724979293291885,0.9865388431430175
2011-08-31,0,0.0,0.0,-0.015988535313722855,0.016288515146346425,0.9836425761479325
2011-09-02,-1,-0.0006932466765495901,-0.0006464054064055707,-0.016916801668467173,0.016288515146346425,0.9821209024812743
2011-09-07,-1,-0.00040571800859355437,-0.000329209763590526,-0.014121055721622214,0.01716169290234134,0.9821701368418676
2011-09-09,-1,-0.0013559652428276644,-0.0013276213549238368,-0.008296586676729343,0.017231600893473482,0.9822857713599581
2011-09-13,-1,-0.0007233286689311324,-0.0006794276312370728,-0.008296586676729343,0.02405702279838281,0.9814945057769969
2011-09-15,1,0.0006531686820341376,0.0008650147128263711,-0.009236310923886833,0.02405702279838281,0.9816414246378076
2011-09-19,1,0.0007215016474895066,0.0010096713876506375,-0.012456590355723376,0.02405702279838281,0.9804483774719365
2011-09-21,-1,-0.0009446631159675863,-0.0008431483902247927,-0.007087783967208495,0.025570125280415083,0.9803935661924608
2011-09-23,-1,-0.0008075431406793308,-0.0006957706885753975,-0.007087783967208495,0.025570125280415083,0.9803165761167735
2011-09-27,1,0.0009397620283641974,0.0012134276400562207,-0.007741764888096396,0.01778916753170395,0.9822823137822095
2011-09-29,0,0.0,0.0,-0.007087783967208495,0.01778916753170395,0.9832799102192757
2011-10-03,-1,-0.002019150203033158,-0.0017763606102764607,-0.007087783967208495,0.01778916753170395,0.9842361968421564
2011-10-05,1,0.00019381852551913055,0.00031673853396008763,-0.007741764888096396,0.015142315804580527,0.9852276869889
2011-10-07,1,0.0006179719003767223,0.0008034543300940525,-0.007401025382927659,0.016087383517741267,0.985415095499793
2011-10-11,1,0.00208005018092989,0.0024599076634723967,-0.007401025382927659,0.015762178742175077,0.9865297285023161
2011-10-13,1,0.0029626373071106205,0.003470734411932243,-0.008805738489008643,0.013939217952181036,0.9870107662451909
2011-10-17,1,0.0020666812591455756,0.0024073849150534643,-0.004449724855228411,0.015584349546230628,0.9875645284132473
2011-10-19,1,0.003400588121993999,0.003950915365386545,-0.004219782976232139,0.013879941553532886,0.9889670608629852
2011-10-21,1,0.004519212121065903,0.005268657092553233,-0.008115912852019824,0.010155097321374545,0.9884514180035768
2011-10-25,1,0.002716267226676196,0.003063196238268766,-0.005367610136532347,0.009724490361053406,0.9889233449584128
2011-10-27,1,0.00397445572989801,0.004433286456156123,-0.0069943466778740315,0.006996942890898323,0.9897938667238402
2011-10-31,1,0.003533993641077787,0.003934289678908997,-0.005367610136532347,0.009724490361053406,0.9900575397832733
2011-11-02,1,0.003055974483111918,0.003412833360623471,-0.003990840816353869,0.015584349546230628,0.9902533977591108
2011-11-04,1,0.0035280024581620705,0.003938030846457847,-0.005367610136532347,0.010847616226703948,0.990486013815737
2011-11-08,1,0.004909879859524487,0.0055855656487163174,-0.005367610136532347,0.008682904914917456,0.9906146505932668
2011-11-10,0,0.0,0.0,-0.0042388740033834985,0.010782871325911377,0.9910687076310173
2011-11-14,0,0.0,0.0,-0.005367610136532347,0.006373929942301637,0.9913682722862492
2011-11-16,0,0.0,0.0,-0.005944508568962694,0.008682904914917456,0.9895830691080268
2011-11-18,0,0.0,0.0,-0.00793150137630257,0.008682904914917456,0.9899662505391316
2011-11-22,1,0.0044854205651824125,0.005227686838232063,-0.00793150137630257,0.011133079328781896,0.9894081413342078
2011-11-25,0,0.0,0.0,-0.0049025733275439125,0.011133079328781896,0.9890329188903755
2011-11-29,0,0.0,0.0,-0.0049025733275439125,0.009550725068268658,0.9898896374834183
2011-12-01,0,0.0,0.0,-0.00793150137630257,0.006212565021327436,0.9908635495031286
2011-12-05,0,0.0,0.0,-0.00793150137630257,0.0038873259029169943,0.99075811071264
2011-12-07,0,0.0,0.0,-0.00793150137630257,0.0038873259029169943,0.990733743055983
2011-12-09,0,0.0,0.0,-0.008895846936403728,0.0038873259029169943,0.9905131073578203
2011-12-13,0,0.0,0.0,-0.008895846936403728,0.004994416124491478,0.9898391242985684
2011-12-15,0,0.0,0.0,-0.008895846936403728,0.003055435701205403,0.9910338555434878
2011-12-19,0,0.0,0.0,-0.0068522993070659535,0.003055435701205403,0.9914496086592909
2011-12-21,0,0.0,0.0,-0.010739637837246269,0.0021423457184893946,0.9922603981736376
2011-12-23,0,0.0,0.0,-0.010739637837246269,0.001993139611389246,0.9916694447525498
2011-12-28,0,0.0,0.0,-0.010739637837246269,0.0021423457184893946,0.9914880573721719
2011-12-30,1,0.0026462524021831028,0.0026810962170307796,-0.010654474772417365,0.001993139611389246,0.9905426375980377
2012-01-04,1,0.001315424063004995,0.0013351420762681833,-0.0077479132442339034,0.001993139611389246,0.9915420401819226
2012-01-06,1,0.002652560807564589,0.002841777950160453,-0.010654474772417365,0.002337830452030515,0.9887121443999145
2012-01-10,1,0.002356857349297776,0.002485412156333516,-0.0077479132442339034,0.0001222325199686428,0.9894865319245023
2012-01-12,0,-0.00020350710359913493,0.00011466587767493665,-0.0077479132442339034,0.0001222325199686428,0.9920397796300428
2012-01-17,-1,-0.0005064682841699784,-0.0002202090561307322,-0.00654150378164919,0.002337830452030515,0.9925044235118459
2012-01-19,0,0.0,0.0,-0.00654150378164919,0.0034383815594647028,0.9916751122649967
2012-01-23,0,0.0,0.0,-0.006812634478967403,0.0034383815594647028,0.9916562356149904
2012-01-25,0,0.0,0.0,-0.0063363513742548455,0.004499500546356327,0.9917972782121748
2012-01-27,0,0.0,0.0,-0.0063363513742548455,0.006480116858162438,0.9914867343859879
2012-01-31,0,0.0,0.0,-0.006528088047927756,0.006480116858162438,0.9913139399257871
2012-02-02,-1,-0.002568703314356,-0.0020842753627854285,-0.006426728273360916,0.00714435626160847,0.9908517916913723
2012-02-06,-1,-0.0016912717048444355,-0.0013281959982602463,-0.006426728273360916,0.006480116858162438,0.992893146992615
2012-02-08,-1,-0.0012346829916285934,-0.0009855734288586305,-0.006426728273360916,0.00714435626160847,0.9916915430734395
2012-02-10,-1,-0.0020112167366569894,-0.0016197707654701486,-0.006426728273360916,0.00819809986229193,0.9915155931666745
2012-02-14,-1,-0.00279646675424426,-0.002255246525092732,-0.007326878379868831,0.009493601117811664,0.9906293710664396
2012-02-16,-1,-0.0019856973563107047,-0.0015652231143314145,-0.007326878379868831,0.008749315178365868,0.9908524771494112
2012-02-21,-1,-0.0023884519551987584,-0.001959392427943059,-0.005888308349981979,0.008749315178365868,0.9910556852145712
2012-02-23,-1,-0.0016795291022521919,-0.0013512079647480801,-0.007729183713222032,0.008082612600786406,0.9914440877505
2012-02-27,-1,-0.002195679473934609,-0.001762253662980537,-0.007729183713222032,0.005994788898866572,0.992074001667568
2012-02-29,-1,-0.0018583240496617417,-0.00153271343023034,-0.005295605684514327,0.005994788898866572,0.9922152078770815
2012-03-02,-1,-0.000849203992323692,-0.0006244053409331726,-0.007729183713222032,0.0035959554363136493,0.9929898709700196
2012-03-06,-1,-0.0013606470388802683,-0.001105464548193527,-0.007729183713222032,0.005994788898866572,0.9918352655440806
2012-03-08,-1,-0.0007195095842175899,-0.0005606717961043712,-0.008508023612102763,0.002299145240603749,0.9924618313609701
2012-03-12,-1,-0.0011669862561790871,-0.0009314084101277835,-0.00855844091919202,0.001663974774748961,0.9922310270813396
2012-03-14,-1,-0.0008809545951170905,-0.000703813948825703,-0.008445042935870737,0.0012146840984644505,0.993155058540928
2012-03-16,-1,-0.00031823571614578107,-0.0002249658939855911,-0.009334371807869987,-0.0015415856909248233,0.9929601680938928
2012-03-20,-1,-0.0008704912597564151,-0.0006961355875895142,-0.009334371807869987,0.00027655500343021737,0.9930030078607509
2012-03-22,-1,-0.00030283366875380783,-0.0002529675443264948,-0.009334371807869987,0.0012146840984644505,0.9928436695661019
2012-03-26,-1,-0.0006663814812891749,-0.0005501026281084414,-0.009486368059649178,0.0012146840984644505,0.9913644673155233
2012-03-28,-1,-0.0007453650563006378,-0.0006075651588747007,-0.009486368059649178,0.0019426300459459728,0.9903360987213887
2012-03-30,-1,-0.0008716068406314704,-0.000749349528143773,-0.009334371807869987,0.0023479000429053815,0.9908781018335554
2012-04-03,-1,-0.0007494576462636538,-0.000657329388614658,-0.00525680889482392,0.0023479000429053815,0.9922400602445428
2012-04-05,-1,-0.0015128745646763064,-0.0012996680615774694,-0.006011262152145518,0.0023479000429053815,0.992345252670414
2012-04-10,-1,-0.0017140077414630568,-0.0015209330603735429,-0.004155538720992081,0.007044219013432497,0.9902880913992737
2012-04-12,-1,-0.002038250007306498,-0.001796896800780569,-0.0038765533551229302,0.012182224279100012,0.9898716816979802
2012-04-16,-1,-0.002859466097828052,-0.0025047248963491874,-0.0038765533551229302,0.012182224279100012,0.9895729473395865
2012-04-18,-1,-0.0024236246591302756,-0.002121535575451713,-0.004155538720992081,0.011158419585083,0.989596825293027
2012-04-20,-1,-0.002577577657961189,-0.0022482899343016986,-0.005356877829543662,0.011158419585083,0.9892860900418226
2012-04-24,-1,-0.0017977995845166554,-0.0015957124603923208,-0.004741224550869732,0.01104886650088287,0.9903156709311361
2012-04-26,-1,-0.0006007315295383736,-0.0005928081555860996,-0.005592819477075187,0.006702950782093493,0.9908970995642641
2012-04-30,-1,-0.0007798912704993261,-0.0007532013378370387,-0.005592819477075187,0.01104886650088287,0.9899429811329098
2012-05-02,-1,-0.0006796555746115204,-0.0006630471398227943,-0.0071937347467759625,0.01104886650088287,0.9896378949041655
2012-05-04,-1,-0.0009264735008371802,-0.0009083234580474535,-0.0071937347467759625,0.01104886650088287,0.9884131608508857
2012-05-08,1,0.001310914371244888,0.001556403526702574,-0.0071937347467759625,0.008028105064929968,0.9908661291977937
2012-05-10,1,0.0017790294911004302,0.002139742533979908,-0.0071937347467759625,0.0076858194331142675,0.9910489300217928
2012-05-14,1,0.0012503290475257244,0.001489157858655632,-0.007207095228884009,0.0076858194331142675,0.9909080940595643
2012-05-16,1,0.0021421339690643583,0.0025869623578919252,-0.007736537191384062,0.00492200312632573,0.990941263579645
2012-05-18,1,0.0014347888131484628,0.0017739015364102778,-0.005769300131241871,0.0076858194331142675,0.9915385322139747
2012-05-22,1,0.001973333724449005,0.002379657745783295,-0.005769300131241871,0.0076858194331142675,0.9913714234707539
2012-05-24,1,0.0012306932643568352,0.0015251143851464127,-0.005464360931354443,0.0076858194331142675,0.9908231952455129
2012-05-29,1,0.001887615662383672,0.0022478349997592335,-0.007736537191384062,0.0048173384644223955,0.9906372749976075
2012-05-31,1,0.0016203367067094531,0.0019408566757468813,-0.006718317178593027,0.004493533704221888,0.9905669451587791
2012-06-04,1,0.0005427435133571438,0.0007092629150628932,-0.006718317178593027,0.007371825447404265,0.9908173399851244
2012-06-06,1,0.0007856067711878134,0.0009507604701029815,-0.008308487107313398,0.004493533704221888,0.9894774964272052
2012-06-08,0,0.0,0.0,-0.011852392171840934,0.0033135870238526297,0.988058345817405
2012-06-12,0,0.0,0.0,-0.011599356740002315,0.0019962143400803177,0.9886924873119863
2012-06-14,-1,-0.0015586007694213958,-0.0013278419584789045,-0.015376431669569403,0.0019962143400803177,0.9869691918094968
2012-06-18,1,0.00018750684111039538,0.00018980921429853398,-0.020822057885110087,-0.0004393773752468827,0.9851102464348348
2012-06-20,0,0.0,0.0,-0.021792453701252382,-0.0010241854673188942,0.9845076344707084
2012-06-22,0,0.0,0.0,-0.018812655754206806,-0.003925520265393201,0.9846442772648771
2012-06-26,0,0.0,0.0,-0.018129332722876083,-0.006060076514575041,0.984725464172965
2012-06-28,0,0.0,0.0,-0.018129332722876083,-0.0010241854673188942,0.9839883178613164
2012-07-02,0,0.0,0.0,-0.018129332722876083,-0.0010241854673188942,0.9849922530712315
2012-07-05,-1,-0.0023037548472994223,-0.002027849658209931,-0.013031773941726535,0.0010068894769799381,0.9873218022709431
2012-07-09,-1,-0.003673627698898641,-0.0032411779088145883,-0.013031773941726535,0.0033201881830938317,0.9845373388642422
2012-07-11,-1,-0.0032893945369545617,-0.0029308679685215036,-0.013031773941726535,0.009096818530792842,0.9784295423417022
2012-07-13,-1,-0.0057860893937378335,-0.0051010592310843424,-0.011339605107901463,0.013989768638749938,0.9797530872405169
2012-07-17,-1,-0.006932160464949886,-0.006135333623387565,-0.01077245246897398,0.013989768638749938,0.9797732732709074
2012-07-19,-1,-0.006757786448982065,-0.0060112094576075335,-0.01077245246897398,0.009013574857090808,0.9802925690682048
2012-07-23,-1,-0.007720897609774798,-0.0068432403785231325,-0.00979351609526409,0.013306241640936502,0.979747866603723
2012-07-25,-1,-0.007268919138682521,-0.006514557019069419,-0.011067266794428984,0.013306241640936502,0.9792075706188178
2012-07-27,-1,-0.006113900963983087,-0.0054701592063858715,-0.011067266794428984,0.00881348041572034,0.9806848056947999
2012-07-31,-1,-0.005582656423807412,-0.00505260854429263,-0.011347608350900856,0.013306241640936502,0.9788150851482156
2012-08-02,-1,-0.004992008810964528,-0.004540333511832121,-0.01173224340733868,0.013306241640936502,0.9792392778466155
2012-08-06,-1,-0.0070611019366343414,-0.006376176281564878,-0.011124335610089655,0.013306241640936502,0.981618221664441
2012-08-08,-1,-0.0010620443791882616,-0.0010096249337914049,-0.01173224340733868,0.011904684661037232,0.9873244259361065
2012-08-10,-1,-0.0013850559025666714,-0.0013771373103240688,-0.01173224340733868,0.011904684661037232,0.9875350576748178
2012-08-14,-1,-0.002420414475158992,-0.002283857974839137,-0.011124335610089655,0.01265029135627789,0.9879172915861114
2012-08-16,-1,-0.003208326061650459,-0.002989895929694994,-0.005129992444717513,0.01265029135627789,0.9879033290228846
2012-08-20,-1,-0.002913838813560289,-0.002736029082201001,-0.005258204130196787,0.012386591771565095,0.9878584933496115
2012-08-22,-1,-0.0035339915390387635,-0.003261133320585719,-0.0012462894156065542,0.012386591771565095,0.9875792989496626
2012-08-24,-1,-0.003262266709715387,-0.0030214472720307946,-0.006829853993061722,0.012386591771565095,0.9877407933758353
2012-08-28,-1,-0.0016906839254489632,-0.0016168192328149325,-0.006829853993061722,0.012386591771565095,0.9887961132507456
2012-08-30,-1,-0.0029802103058773786,-0.0027068021962858724,-0.006829853993061722,0.012386591771565095,0.9877896338019546
2012-09-04,-1,-0.0017518694247361933,-0.0016150669964560354,-0.007978094347232578,0.011753161047797644,0.9869838445801332
2012-09-06,-1,-0.0023881468774914166,-0.002158273763398628,-0.007978094347232578,0.009934009221425823,0.9875720293039283
2012-09-10,-1,-0.0014411638261882605,-0.0013442679671333956,-0.007978094347232578,0.008294941478870756,0.9882094472546744
2012-09-12,-1,-0.0008688695908888429,-0.0008409115064597187,-0.010653065785572048,0.007545626441615459,0.9883576037463809
2012-09-14,0,-4.9514220315783155e-05,3.531429212031486e-05,-0.010653065785572048,0.006437284332414294,0.9886227386435804
2012-09-18,1,0.00023439512815306816,0.0003924203394587312,-0.007978094347232578,0.006997055451756927,0.9890940551664396
2012-09-20,0,0.0,0.0,-0.007978094347232578,0.007512818427086246,0.9885650063146564
2012-09-24,0,0.0,0.0,-0.010337665495361378,0.008547566239353365,0.9881819747907169
2012-09-26,0,0.0,0.0,-0.010337665495361378,0.008547566239353365,0.9881926005299381
2012-09-28,0,0.0,0.0,-0.006733311017106608,0.010423484077194903,0.9889723633656136
2012-10-02,0,0.0,0.0,-0.0055200535961187095,0.010641760516382985,0.9896729045193419
2012-10-04,0,0.0,0.0,-0.0045678843764204655,0.010641760516382985,0.9902226257698329
2012-10-08,0,0.0,0.0,-0.00402359733349751,0.010994359995730566,0.9894740647794543
2012-10-10,1,0.0005740321112147448,0.0007635080683481057,-0.00402359733349751,0.010994359995730566,0.9893547354052513
2012-10-12,0,0.0,0.0,-0.003493509873770739,0.011262121281273898,0.988686356843584
2012-10-16,0,0.0,0.0,-0.005334532655018853,0.011262121281273898,0.9884218235324836
2012-10-18,0,0.0,0.0,-0.005334532655018853,0.01130484410839533,0.9841601513294722
2012-10-22,0,0.0,0.0,-0.003675713688367957,0.012897789911865482,0.9841062821988896
2012-10-24,0,0.0,0.0,-0.003493509873770739,0.012293381940305177,0.985346717323792
2012-10-26,0,0.0,0.0,-0.003675713688367957,0.012293381940305177,0.9852365767587832
2012-11-01,0,0.0,0.0,-0.003675713688367957,0.008152548038221717,0.9867980827335059
2012-11-05,0,0.0,0.0,-0.002226187659897658,0.008152548038221717,0.9868595828562998
2012-11-07,1,0.003727159721914813,0.004463721047845429,-0.0011741486304846416,0.008326722114137368,0.988521534527221
2012-11-09,1,0.0039498522937954205,0.00476495169243109,-0.0018125980748368634,0.008326722114137368,0.9890185686715968
2012-11-13,1,0.004874093864338885,0.005840171811588815,-0.0018125980748368634,0.00728705362092231,0.9889531385337625
2012-11-15,1,0.0037159592788965326,0.004476920635594716,-0.0018125980748368634,0.00728705362092231,0.9899502743553447
2012-11-19,1,0.007385800336577585,0.008606882415540355,-0.0018125980748368634,0.005727045859033758,0.9926955986517328
2012-11-21,1,0.007192157994329092,0.008370637800128207,-0.0018125980748368634,0.005255124490040754,0.9928803961470501
2012-11-26,1,0.008303081148355162,0.009650373672211252,-0.002797020153344899,0.004701916660514541,0.9910649832036581
2012-11-28,1,0.006772327937740654,0.007823031658756233,-0.002797020153344899,0.004701916660514541,0.9927104091619413
2012-11-30,0,0.0,0.0,-0.004069680755673341,0.004701916660514541,0.9936557679462428
2012-12-04,0,0.0,0.0,-0.004069680755673341,0.006154484887081583,0.9915529500495969
2012-12-06,0,0.0,0.0,-0.005660579940954862,0.00523898240024606,0.9922558280356404
2012-12-10,0,0.0,0.0,-0.005660579940954862,0.00523898240024606,0.9922160820265934
2012-12-12,1,0.002326299018578741,0.002552123454663259,-0.00590410990937331,0.00523898240024606,0.9922676101881502
2012-12-14,0,0.0,0.0,-0.00590410990937331,0.005836734410282409,0.9919008051476111
2012-12-18,0,0.0,0.0,-0.00590410990937331,0.006782392948997594,0.990281496210937
2012-12-20,1,0.002284045402032403,0.0024146833057525517,-0.002951277925035246,0.012035169660483895,0.9894235051923899
2012-12-24,1,0.0019475741201651884,0.00203769181817296,-0.00195913997622004,0.012035169660483895,0.989982706720248
2012-12-27,1,0.0030112541682376665,0.0030860008294906873,-0.00195913997622004,0.012035169660483895,0.9903529766760061
2012-12-31,1,0.0009344643090504045,0.0012702545141429432,-0.00195913997622004,0.01151873106444114,0.9900083243511913
2013-01-03,1,0.005821509002824425,0.0063972133812686596,-0.002489378838637938,0.008647790512292565,0.990669933753001
2013-01-07,1,0.005319925587547663,0.005828134410488471,-0.00195913997622004,0.010251247747502057,0.9911805557641876
2013-01-09,1,0.00464871012618456,0.005002346388615827,0.0004978559962747232,0.01387507931626155,0.9904128070804454
2013-01-11,1,0.0037042223470533614,0.0038415383492039165,-0.00017347774388756852,0.01387507931626155,0.9901425445000681
2013-01-15,0,0.0,0.0,-0.0006975064861399624,0.01445469306123684,0.9885726970760186
2013-01-17,1,0.0032173588306985755,0.003361602043851807,-0.004413892068291167,0.01445469306123684,0.9900689696729484
2013-01-22,0,0.0,0.0,-0.005596177619249126,0.011663868420840301,0.9900721432174655
2013-01-24,0,0.0,0.0,-0.00611330725648216,0.01445469306123684,0.9892337427640615
2013-01-28,1,0.0032752325756262436,0.0033576047239211857,-0.007260994534980983,0.01445469306123684,0.986907053732013
2013-01-30,1,0.0032237237998910227,0.003369032773139957,-0.00611330725648216,0.01445469306123684,0.9878311125799546
2013-02-01,1,0.0030826854609409078,0.00317340499171909,-0.00611330725648216,0.01445469306123684,0.9884665943755854
2013-02-05,1,0.0032310627966478937,0.0033576525709774147,-0.00611330725648216,0.01445469306123684,0.9884790130274762
2013-02-07,1,0.004071130044368227,0.004321929520137083,-0.00611330725648216,0.009828825640837272,0.9892365501594823
2013-02-11,1,0.003814740860590436,0.004056192681744899,-0.007260994534980983,0.009828825640837272,0.9891895579182461
2013-02-13,1,0.0038114128311974413,0.004032770727109537,-0.007260994534980983,0.009828825640837272,0.9895350808090265
2013-02-15,1,0.0037550118653124484,0.003966482203417142,-0.005692030173678425,0.008783057125903302,0.9901467259468651
2013-02-20,1,0.0026368502186988386,0.002652909281314994,-0.004729290038728306,0.008783057125903302,0.990637794524528
2013-02-22,1,0.002654934333900282,0.0026788511122421213,-0.004729290038728306,0.007758041670097445,0.9911825960607751
2013-02-26,1,0.00044356203252172847,0.0007115735184641328,-0.0037251540572450664,0.007758041670097445,0.9933277337049421
2013-02-28,1,0.0016641376912663456,0.0017032438992330852,-0.0037251540572450664,0.008783057125903302,0.9926886774100817
2013-03-04,1,0.0022565020097581163,0.0022723009697008995,-0.0039299189487505826,0.007758041670097445,0.99327855860022
2013-03-06,1,0.0023387303018659123,0.0023480053961761286,-0.004729290038728306,0.007758041670097445,0.9927526017386208
2013-03-08,1,0.0023732841927847997,0.002411934525654482,-0.005761306752823384,0.006414755340692876,0.9913225809059646
2013-03-12,1,0.0017070130830587468,0.001839736814161035,-0.005343897950455677,0.006414755340692876,0.9914910446006883
2013-03-14,1,0.0026997443342074334,0.002707037034766018,-0.005343897950455677,0.005800868770848648,0.991604863023552
2013-03-18,1,0.0026800382651699355,0.0027147436553429808,-0.005761306752823384,0.006854764091348285,0.9899064487713812
2013-03-20,1,0.001937646207111357,0.0020042731140656597,-0.0058314411012500055,0.006854764091348285,0.9902485374027511
2013-03-22,1,0.0016834232419963573,0.0017932159083118347,-0.0058314411012500055,0.007062720637544449,0.9897756737998472
2013-03-26,1,0.0017373749383326163,0.001836427735751695,-0.0058314411012500055,0.008238645454817586,0.989328528770867
2013-03-28,1,0.0030992827635294164,0.003237325865864546,-0.006535476245027187,0.0072234008058299605,0.990314985178062
2013-04-02,1,0.002592667477682149,0.0026408613007440577,-0.007048058899799281,0.0072234008058299605,0.9901266461269743
2013-04-04,1,0.002272191435774747,0.0022861734921050016,-0.007048058899799281,0.0072234008058299605,0.9901505127763077
2013-04-08,1,0.0007817701430158817,0.0009856684217332305,-0.005726827107392726,0.008247684806678715,0.9897849851375078
2013-04-10,1,0.0005648178785484979,0.0007655127980696675,-0.005726827107392726,0.013669640858239051,0.9883994143115078
2013-04-12,1,5.171554637647133e-05,0.0003739342720398787,-0.005726827107392726,0.013669640858239051,0.9883429841624229
2013-04-16,1,0.0017501484161846989,0.0017530526205998098,-0.005634259206522203,0.013105781446169442,0.9896655637274347
2013-04-18,1,0.0016221956050386835,0.001622777045113042,-0.006009799732355315,0.013105781446169442,0.9895637984692288
2013-04-22,1,0.0023358934953449442,0.0024578924185916498,-0.006153158548558339,0.010636831102296485,0.9903530602305389
2013-04-24,1,0.0020651377653069674,0.0021042153916414697,-0.006153158548558339,0.010636831102296485,0.9903293246478752
2013-04-26,1,0.001712006781783788,0.001722116992371373,-0.006449255894058825,0.010636831102296485,0.9897005354679465
2013-04-30,1,0.001552300048382354,0.0015780406664919653,-0.006009799732355315,0.013105781446169442,0.9893996996846149
2013-05-02,-1,-0.0022386634903614876,-0.0017653464872279664,-0.006009799732355315,0.013105781446169442,0.9892712812702961
2013-05-06,0,0.0,0.0,-0.006009799732355315,0.01368416765407685,0.990437811957801
2013-05-08,0,0.0,0.0,-0.0061454414598869555,0.004289972462720625,0.9912394260583289
2013-05-10,0,0.0,0.0,-0.0061454414598869555,0.010608790003200965,0.990492332320267
2013-05-14,0,0.0,0.0,-0.006094650544554455,0.0062629897431667825,0.991197901971702
2013-05-16,0,0.0,0.0,-0.005975716790099112,0.01010720750352802,0.9908424490329061
2013-05-20,0,0.0,0.0,-0.003811511704523693,0.01010720750352802,0.9907413786047525
2013-05-22,0,0.0,0.0,-0.007835653128525995,0.009143510345266365,0.99056996338097
2013-05-24,0,0.0,0.0,-0.0069834136045669746,0.009143510345266365,0.9909376749737551
2013-05-29,0,0.0,0.0,-0.0069834136045669746,0.006086323283159835,0.9916116455522545
2013-05-31,0,0.0,0.0,-0.005975716790099112,0.009143510345266365,0.9917558895118495
2013-06-04,-1,-0.0014891481358643907,-0.0011143043223307563,-0.003811511704523693,0.009942279077516514,0.9913142471527606
2013-06-06,-1,-0.0023394944114089526,-0.0018649667762416775,-0.003811511704523693,0.010846678542439973,0.990971698151372
2013-06-10,-1,-0.001786857965976807,-0.0013769647716418902,-0.006559136498181711,0.00981100704852184,0.9916493137591404
2013-06-12,-1,-0.0010878508038507997,-0.0008271076216773569,-0.006559136498181711,0.010846678542439973,0.9906167832531699
2013-06-14,1,0.0007196397251707514,0.0007727653050241214,-0.0030755309928785085,0.01041054069116112,0.9911060721140617
2013-06-18,1,0.0012996612411478802,0.0013265529886761199,-0.0089025315777687,0.01041054069116112,0.9908667593574908
2013-06-20,1,7.657057103374886e-05,0.0002048506488150361,-0.003597411200824479,0.01041054069116112,0.9916121304541451
2013-06-24,-1,-0.0015527028852562333,-0.0012795639720255166,-0.0012017971990911848,0.01041054069116112,0.9912625499515835
2013-06-26,-1,-0.0011056979537156196,-0.0008521974192032671,-0.0026796442358873653,0.01041054069116112,0.9917126380619697
2013-06-28,1,1.4178999304510938e-05,0.00011984725151413024,-0.0033149052307650815,0.009698324900840735,0.9927266398604748
2013-07-02,1,0.001061986391616078,0.0011299994718525644,-0.0033149052307650815,0.009698324900840735,0.9930806628056033
2013-07-05,1,0.0013178219146419464,0.0013995050842872242,-0.0026796442358873653,0.009698324900840735,0.9927735806423155
2013-07-09,1,0.0014576190177274175,0.0015264596278808035,-0.0012017971990911848,0.01060691230858935,0.9901448310527369
2013-07-11,1,0.0024050618138064593,0.0024560875833455993,-0.0026796442358873653,0.01031309768289711,0.9908833359915328
2013-07-15,1,0.002536672801239266,0.002558321841722189,-0.003007139577953085,0.01060691230858935,0.9903530407446338
2013-07-17,1,0.0017057769988574484,0.001770200228092925,-0.0013545620417024123,0.013071941740976423,0.9904775403277423
2013-07-19,-1,-0.00033564737518411203,-0.00020111637169696096,-0.0014515851167108474,0.013071941740976423,0.989800059980431
2013-07-23,-1,-0.0002021450050997554,-8.740825521939372e-05,-0.0014515851167108474,0.013071941740976423,0.989408978545397
2013-07-25,1,0.0001926672576442769,0.00021848969119625094,-0.003287053964575355,0.013071941740976423,0.9889862405992575
2013-07-29,1,0.0003358577273147716,0.0003548018613490147,-0.003287053964575355,0.013071941740976423,0.9856148720470562
2013-07-31,1,0.0012174834169653313,0.0013811755663367883,-0.003717162563931304,0.009806613926796546,0.9854758806298352
2013-08-02,1,0.0005542787268018259,0.0006164401226500828,-0.003717162563931304,0.009290246242413149,0.9861342103491774
2013-08-06,1,0.002317291724761174,0.0026533304321839472,-0.0038805294677604395,0.005916026862674666,0.9882724840254532
2013-08-08,1,0.0023063390028068404,0.002632028609029607,-0.005276460084887451,0.007280593489327075,0.9878950623428018
2013-08-12,1,0.0028196805261900626,0.00318872786717058,-0.005276460084887451,0.007280593489327075,0.9882711407607959
2013-08-14,1,0.003577025715837869,0.004051486445560814,-0.005276460084887451,0.007174369432974405,0.98883352928522
2013-08-16,1,0.003313048679553949,0.0037565817111189634,-0.0038805294677604395,0.007174369432974405,0.9895891721643882
2013-08-20,1,0.00419789805999904,0.0048119970557686294,-0.0038805294677604395,0.0058906115683576895,0.9892522918879191
2013-08-22,1,0.004247877882917682,0.004772436087867959,-0.0021073786220338403,0.0058906115683576895,0.9896977047605887
2013-08-26,1,0.00215096436890859,0.00239657623013236,-0.0034154115235218267,0.0058906115683576895,0.9922227052957351
2013-08-28,1,3.017741031046819e-05,4.1075472926200584e-05,-0.003983338466240423,0.0058906115683576895,0.9921426975917274
2013-08-30,1,0.0005182458705179857,0.0005491206206126315,-0.005584887080327403,0.0043134812990154765,0.9923101086868537
2013-09-04,1,0.0011936937066880384,0.0012144984371985077,-0.0058683361553113385,0.0043134812990154765,0.9929624293883604
2013-09-06,1,0.0006000658609000128,0.000637838167836489,-0.004666033756176193,0.0043134812990154765,0.9925692577402591
2013-09-10,1,0.0013425559098951354,0.0014015121847548878,-0.00648139455670565,0.002574067725892287,0.9920294296966189
2013-09-12,1,0.0022653238318830118,0.002378436525103395,-0.00648139455670565,0.0028981594126149353,0.9905575224604815
2013-09-16,1,0.0010906948537119884,0.0012063052698529154,-0.011835819398616991,0.005909148492980685,0.9895553838152246
2013-09-18,1,0.0011071449943662213,0.0012122135427162675,-0.011835819398616991,0.00848406175575699,0.9891688565782127
2013-09-20,1,0.000850037325673251,0.0009109061277871954,-0.014043070130236838,0.00848406175575699,0.9869827731298835
2013-09-24,1,0.00011443923769213928,0.00015098064566664612,-0.009651335994982526,0.011482286734283989,0.9870135917373841
2013-09-26,-1,-0.0022711400815451036,-0.0018641135643428792,-0.009560136885153997,0.011482286734283989,0.9878497795093599
2013-09-30,-1,-0.002348127309060228,-0.001988286896399731,-0.008774847099493143,0.011482286734283989,0.9876540725180796
2013-10-02,-1,-0.002410972462899599,-0.0020041140609011903,-0.009560136885153997,0.011482286734283989,0.9867799062723074
2013-10-04,-1,-0.001501532788802412,-0.0012125897369252008,-0.009560136885153997,0.010378803741091923,0.9876850810729324
2013-10-08,-1,-0.0024684227852758613,-0.0020777159760090665,-0.008774847099493143,0.010378803741091923,0.9877807063477385
2013-10-10,-1,-0.0012595306181450705,-0.0009787701969433359,-0.009560136885153997,0.007867169316400087,0.988547334667185
2013-10-14,-1,-0.0008789821411787874,-0.0007042305278311476,-0.008774847099493143,0.007867169316400087,0.9889821192080981
2013-10-16,-1,-0.001119536988489564,-0.0008769224787559159,-0.008774847099493143,0.007867169316400087,0.9885612715521672
2013-10-18,-1,-0.0021676938394805147,-0.0017408492678012498,-0.007193396059163307,0.006309178910223339,0.9905704212684701
2013-10-22,-1,-0.0022857568208250216,-0.001875059134853588,-0.0054659019256661934,0.01019340562163015,0.9886333058378447
2013-10-24,-1,-0.0032948464808983157,-0.0027927068766164216,-0.0029533751987455546,0.011692352556284643,0.9877851138678414
2013-10-28,-1,-0.0036488088363983984,-0.003054040120466954,-0.0029533751987455546,0.013994965978109938,0.9874450158898448
2013-10-30,-1,-0.004173262204789082,-0.0035580290137843576,-0.0016609775588050405,0.013994965978109938,0.988146197474088
2013-11-01,-1,-0.004282702066077942,-0.00365346936043343,0.0006323248297251199,0.013994965978109938,0.9875148803541487
2013-11-05,-1,-0.003892618029383006,-0.003313605292952159,0.0029283904229017257,0.015880647349494605,0.9859842191120994
2013-11-07,-1,-0.00403823352857765,-0.0034671482465541345,0.0029283904229017257,0.016161356355080717,0.9848590495244669
2013-11-11,-1,-0.004127162328220783,-0.003474300085778552,0.0029283904229017257,0.016076817108641117,0.9852573388683594
2013-11-13,-1,-0.0033887387704227855,-0.0027948080160848147,-0.0009596438669517302,0.015838888566146448,0.98677218182823
2013-11-15,-1,-0.0030516625167475633,-0.0025114518463317604,-0.0011987165322428664,0.015838888566146448,0.9862838581981374
2013-11-19,1,0.00024870014444569887,0.0003575087637021066,-0.002832297282314349,0.014831428067889327,0.989166764968457
2013-11-21,1,0.0012842832244888338,0.0013407362961183032,-0.008161973049121116,0.01365612824879424,0.9890624723520594
2013-11-25,1,0.0015729435255198315,0.0016611001650131763,-0.003832622730436331,0.01001427315629657,0.9898931625843673
2013-11-27,1,0.0015053901490565712,0.0015769075502428574,-0.005645097372277743,0.01001427315629657,0.9896618940527518
2013-12-02,1,0.0021879966533161674,0.0024047320501582874,-0.005645097372277743,0.007619550707523952,0.9897561521635446
2013-12-04,1,0.0037975083556555135,0.004263952974265742,-0.009005478342884184,0.005160630772076923,0.9905975105738307
2013-12-06,1,0.0033648647354083835,0.0037249548189709253,-0.007103878620064825,0.004212178092468905,0.9922186881934805
2013-12-10,1,0.00343294724201887,0.003800165290970026,-0.007103878620064825,0.005713106437628923,0.9909821112997007
2013-12-12,1,0.0030176368460626216,0.003326126585573121,-0.007103878620064825,0.007086581595547312,0.9902711626249548
2013-12-16,1,0.002824185024969599,0.0030961929506795475,-0.004785640403691004,0.007901012629754466,0.9906794309384511
2013-12-18,1,0.0029866096617451898,0.0032680784305775647,-0.0037268741615845693,0.007490949607437403,0.9920671262948493
2013-12-20,1,0.0024618929814672038,0.002723699608196113,-0.0019635984427615136,0.007901012629754466,0.9923120615960305
2013-12-24,1,0.0026535515144406226,0.00298525582090856,-0.0037268741615845693,0.007901012629754466,0.9910883072204683
2013-12-27,1,0.0037041114985657186,0.004215629735140719,-0.0034818245565337485,0.007901012629754466,0.9910668325740138
2013-12-31,1,0.0036816302053933186,0.004191634479385323,-0.004234117045959785,0.007901012629754466,0.9908450328026654
2014-01-03,1,0.0044860559406240605,0.005124345011678138,-0.004234117045959785,0.010948479672531332,0.9856083589806961
2014-01-07,1,0.0045228755528733166,0.005216898328892527,-0.004535908447515843,0.010948479672531332,0.9852047923280698
2014-01-09,1,0.005718347832506016,0.0065377477602826944,-0.004535908447515843,0.007855030859424805,0.9858882629252878
2014-01-13,1,0.005019825484719803,0.005774737975727574,-0.0033923738053537227,0.009476030393726008,0.987367490490305
2014-01-15,1,0.005715122553822946,0.006519971571471689,-0.0033923738053537227,0.00833780486743414,0.9872985839731803
2014-01-17,1,0.00364868295242755,0.004072974658504529,-0.0033923738053537227,0.011033385161740534,0.9874062675748926
2014-01-22,1,0.0035640838885864297,0.003906559936351848,-0.0033923738053537227,0.011033385161740534,0.9870981564065272
2014-01-24,1,0.0028106561965281275,0.0030898159193090777,-0.001840880916857412,0.011033385161740534,0.9878379825777607
2014-01-28,1,0.0029734275683352953,0.003320002612348102,-0.0012897731063264222,0.011033385161740534,0.9882099510513775
2014-01-30,1,0.0025317827745782485,0.0028075298674847954,-0.0012897731063264222,0.011989913545307145,0.987646930870404
2014-02-03,1,0.00311427156966364,0.0034882810277651662,-0.0012897731063264222,0.011989913545307145,0.9920166188018692
2014-02-05,1,0.0027826717864240244,0.0031372894777308494,-0.0012897731063264222,0.014339269973875794,0.9915125694220517
2014-02-07,1,0.0033524893897145325,0.003787315710575257,-0.001474734828673878,0.014339269973875794,0.9917589604486635
2014-02-11,1,0.004044235061391263,0.004576917075078242,-0.002768427237983718,0.01583373150543948,0.9908387082869694
2014-02-13,1,0.0046179515149160485,0.005212238920508708,-0.002768427237983718,0.016717988955396494,0.9901466451521209
2014-02-18,1,0.0044046499378643566,0.004879616228019416,-0.002768427237983718,0.016471463313805973,0.9902544928195411
2014-02-20,1,0.004343615013486933,0.004725809368405105,-0.005381615097612737,0.014368358370333298,0.9905023160438893
2014-02-24,1,0.0035175695338080953,0.003756077182713732,-0.002768427237983718,0.014368358370333298,0.9910012130830632
2014-02-26,1,0.0035752617976490386,0.0038179165176730106,-0.002768427237983718,0.014368358370333298,0.9906964772784961
2014-02-28,1,0.0040075372186783855,0.0043408209403243475,-0.0004966589902240181,0.011737196948324235,0.9913078174468187
2014-03-04,1,0.0030864431752346427,0.0032454522389785733,-0.0004966589902240181,0.011737196948324235,0.9915104979492058
2014-03-06,1,0.004008313384395835,0.004350521132099421,-0.0004966589902240181,0.011095560291796787,0.9899028962694353
2014-03-10,1,0.003781157941455834,0.0040776657164727,-0.006119545847631204,0.011095560291796787,0.9887445905261881
2014-03-12,1,0.00399194989596971,0.004324630638961956,-0.0012130079877278176,0.013428119405776106,0.9890922694117421
2014-03-14,1,0.003938769493442691,0.004150153859780067,-0.006119545847631204,0.011095560291796787,0.9887144257743533
2014-03-18,1,0.004635611332467972,0.004958723909492466,-0.006119545847631204,0.011095560291796787,0.9885357630258036
2014-03-20,1,0.003813532945108728,0.003967411116216846,-0.0029673671828347255,0.011095560291796787,0.9889950342013584
2014-03-24,1,0.003544163849490615,0.003655590215228709,-0.0029673671828347255,0.011095560291796787,0.9889845787193002
2014-03-26,1,0.0030906110516059505,0.0031138769525781785,-0.006820105421665096,0.010000317948579047,0.9882346677174833
2014-03-28,1,0.002801714041549738,0.002878114627963808,-0.006820105421665096,0.010000317948579047,0.9883263293368365
2014-04-01,1,0.002626325496688434,0.002728869738378809,-0.00787233307037833,0.008580244522212418,0.9889250499684472
2014-04-03,1,0.0002653882817598961,0.0006819648654620243,-0.0029673671828347255,0.008580244522212418,0.9911362990483397
2014-04-07,0,-0.00035957429759906766,0.00020547548903148034,-0.002990042295372174,0.008580244522212418,0.9871081210167157
2014-04-09,1,0.0010941363474367724,0.0014556448901185428,-0.002990042295372174,0.0075959561536938745,0.9874494175704318
2014-04-11,-1,-0.0006342070185217218,-0.000247504158661393,-0.0019230421141673104,0.007705763195120568,0.9877808110695632
2014-04-15,1,0.002362535725493625,0.0024380596622346792,-0.0019230421141673104,0.00699721733381992,0.9887191465689024
2014-04-17,1,0.0026260094045471734,0.002648205289024478,-0.0016813739707915425,0.007769344915925503,0.9885117998548769
2014-04-22,1,0.0029801341026248684,0.003004874054636108,-0.002573938816063607,0.007018411240754897,0.9882814645952465
2014-04-24,1,0.0019835992328372304,0.0020862509345492943,-0.0057207289518957935,0.007018411240754897,0.9873665510512536
2014-04-28,1,0.001873230561149992,0.001978378360167443,-0.0057207289518957935,0.0102293603978421,0.9847770419225292
2014-04-30,-1,-0.000655176371695279,-0.00040266914203706617,-0.0057207289518957935,0.010664707763685511,0.981346956264972
2014-05-02,1,0.0026696165118338835,0.002795593538277884,-0.01012599201468578,0.012175407457522956,0.9805644357089166
2014-05-06,0,-3.151241488436778e-05,0.00016799112308771595,-0.015670055798938622,0.012175407457522956,0.9831112242200675
2014-05-08,1,0.0005709690886055287,0.0007317760293264353,-0.016821338464662258,0.010410422369019505,0.9829291279644689
2014-05-12,1,0.0005134362147061981,0.000692703722833253,-0.019031118670862462,0.00834390192360681,0.978662157246346
2014-05-14,1,0.0009391651215695413,0.0010544138791187467,-0.019593583682404075,0.00834390192360681,0.9775882055964399
2014-05-16,1,0.0009231923967417091,0.001095138784166529,-0.019593583682404075,0.0031317942697520395,0.977665877495312
2014-05-20,1,0.0004952646145816187,0.0007106083852011033,-0.019593583682404075,0.01059736090372504,0.9771686477556164
2014-05-22,-1,-0.0013967191354352017,-0.0009548197373290622,-0.019031118670862462,0.013569265974749181,0.9785980133872618
2014-05-27,1,0.0009835048251521442,0.0011566657365074382,-0.019031118670862462,0.007820501896970736,0.98036035636773
2014-05-29,1,0.0012643275605888757,0.001417219566197351,-0.018467179680720952,0.009256421446805468,0.9829253189316925
2014-06-02,1,0.001003818734735938,0.0012051324660993276,-0.016352844576759146,0.009256421446805468,0.9844182379828723
2014-06-04,-1,-0.0017074412279285515,-0.0013438104511542222,-0.00912531265500316,0.01005366821408054,0.9849176177426989
2014-06-06,-1,-0.0036227350715362394,-0.002989786594216562,-0.006938531956149103,0.011570667883077337,0.984745059748642
2014-06-10,-1,-0.007722590919919779,-0.006660078423011804,-0.005153136017804221,0.011570667883077337,0.9868836253757753
2014-06-12,-1,-0.008436343145150944,-0.0073100496773052725,-0.0026229966238179706,0.01311062114373875,0.9857656897701772
2014-06-16,-1,-0.006173624487045061,-0.005258630531267671,-0.0026229966238179706,0.01311062114373875,0.9870519814675153
2014-06-18,-1,-0.005681212785876919,-0.004771707002218989,-0.004416317008738719,0.011570667883077337,0.9888141818293513
2014-06-20,-1,-0.005314926206616117,-0.004438327314222885,-0.005153136017804221,0.010832505673007345,0.9886616226170246
2014-06-24,-1,-0.006096079607036009,-0.005114427501466238,-0.0048307065165583436,0.011614917326630054,0.9871512493466877
2014-06-26,-1,-0.006496663355349859,-0.005549088344696465,-0.005918109357025966,0.011358284241891095,0.987941429976731
2014-06-30,-1,-0.0063029144079069215,-0.005357182849577086,-0.007481586579306834,0.012473470220180029,0.9864135514990944
2014-07-02,-1,-0.00428195751230526,-0.0035916766322282405,-0.01236412717135426,0.011118689970857337,0.9870076511516241
2014-07-07,-1,-0.003805897004930099,-0.003206782145029603,-0.011920041190223796,0.008872127315465852,0.9877098487734425
2014-07-09,-1,-0.003662539256191486,-0.0031217355958137365,-0.013771198221432298,0.010649497432958958,0.9873169007751783
2014-07-11,-1,-0.0023584415377742906,-0.002005656063873514,-0.015663422123416475,0.010649497432958958,0.9869041679022087
2014-07-15,-1,-0.002389067681918171,-0.0020784797273910513,-0.014629095246245963,0.011047952711359815,0.9869419907350288
2014-07-17,-1,-0.002820060182578302,-0.002442063100488603,-0.014629095246245963,0.011047952711359815,0.9866048586247113
2014-07-21,-1,-0.002901986862233457,-0.0025301614570046854,-0.008098638923043001,0.01094480922832268,0.9878380751385138
2014-07-23,-1,-0.0019388960758337079,-0.0016984302881984292,-0.007694037247914563,0.008473974220840456,0.9886451092008326
2014-07-25,-1,-0.0010527880879979577,-0.0008374194071878072,-0.011968093561124583,0.006763249947039611,0.9888263392410039
2014-07-29,-1,-0.001818610307665147,-0.001543297625596404,-0.0076755787851033415,0.006763249947039611,0.9909758123055478
2014-07-31,-1,-0.0037813313766618334,-0.003278906398732651,-0.004555082599820447,0.009217061467877393,0.9916453675894178
2014-08-04,-1,-0.003471424874403534,-0.0030240371164894702,-0.004125737102505523,0.009217061467877393,0.9914044759940541
2014-08-06,-1,-0.0027897724126321436,-0.0024827593578239473,-0.005592132462350742,0.008296488087305993,0.9917727037132028
2014-08-08,-1,-0.0024414159590251602,-0.00222039776353717,-0.004125737102505523,0.009400444659737984,0.991998148949284
2014-08-12,-1,-0.0017781930517329378,-0.0016365775343352242,-0.004125737102505523,0.009400444659737984,0.9921483716695512
2014-08-14,-1,-0.0013319443650643143,-0.0012494770918740554,-0.005592132462350742,0.009400444659737984,0.9919476928751011
2014-08-18,-1,-0.001203649071885941,-0.0011675441497086532,-0.004397285310331222,0.011482844297560791,0.9910008432110153
2014-08-20,-1,-0.0007860586424922895,-0.000750666477922835,-0.0074512955438508065,0.011482844297560791,0.990358728487675
2014-08-22,-1,-0.0013114297724879835,-0.0012409682741462307,-0.00786798554270823,0.011482844297560791,0.9897990388334699
2014-08-26,-1,-0.0014723502295848855,-0.0014711174281872208,-0.011481559035489298,0.011802713591061638,0.9884675494334871
2014-08-28,-1,-0.0010690669511483413,-0.001068952265657462,-0.0125649438395775,0.009667733519443923,0.9891853812019891
2014-09-02,0,-0.00014050447321101622,4.224457393663952e-05,-0.0125649438395775,0.013375626217978569,0.9875921008096222
2014-09-04,-1,-0.0012242528332902754,-0.0012155563141023878,-0.008229113810737631,0.015511708124755452,0.9867316801352053
2014-09-08,1,0.00012582585323100493,0.0003645062123278079,-0.008229113810737631,0.016902477110484468,0.9870342284940908
2014-09-10,1,0.0009374933127169545,0.0013013834854265246,-0.011497247347243746,0.016902477110484468,0.986846432487005
2014-09-12,1,0.0008072540802666899,0.001194572333763306,-0.012317927091632628,0.016902477110484468,0.9862717434666762
2014-09-16,0,-3.690178629830402e-05,0.00017093573255135463,-0.013259589507796378,0.013975644691683881,0.9856918996545391
2014-09-18,1,0.0014545656582413203,0.00190573311062252,-0.014270392846345747,0.013975644691683881,0.9837555945936646
2014-09-22,1,0.00040425314484838647,0.0006780952135756812,-0.013259589507796378,0.01706238982668708,0.983549450327445
2014-09-24,1,0.0014365184909065159,0.001883689562355745,-0.012317927091632628,0.0161135526252914,0.9843652032564
2014-09-26,-1,-0.0003645027431038565,-0.0002379327247312674,-0.012139773060874258,0.0161135526252914,0.9839860388402923
2014-09-30,1,0.0016183186879383355,0.002072254494309598,-0.012139773060874258,0.014761794448125367,0.9856335183579072
2014-10-02,1,0.0034088250334636124,0.004148215609676854,-0.012139773060874258,0.012498392132844576,0.9858774274364683
2014-10-06,1,0.003821724304654979,0.0046381028594867976,-0.012139773060874258,0.012530252161587659,0.9860596363731725
2014-10-08,1,0.004337401418630359,0.005261857230206241,-0.012139773060874258,0.012530252161587659,0.9869198915557685
2014-10-10,1,0.003204503673799065,0.003972003698754879,-0.010125505615572312,0.012530252161587659,0.9876284527110569
2014-10-14,1,0.001588740738293998,0.002074242224406668,-0.009278444702950174,0.012530252161587659,0.9881174446336563
2014-10-16,0,-0.0002301480428434136,0.00014087082794877808,-0.006724753637433978,0.015059881083201438,0.9881731044350825
2014-10-20,1,0.0021763273601171805,0.0026897977744863646,-0.009278444702950174,0.015059881083201438,0.9867379861237329
2014-10-22,1,0.002417689772724666,0.0029654352942641944,-0.00887329267884791,0.012928281435975625,0.9871327084227219
2014-10-24,1,0.0018977962803994285,0.002292790411918859,-0.009278444702950174,0.012928281435975625,0.9866301170894873
2014-10-28,1,0.001890199060360961,0.0022226072550834103,-0.010125505615572312,0.012028670850705478,0.9858778070045531
2014-10-30,1,0.00018722609011217898,0.00026643719689510754,-0.009278444702950174,0.012028670850705478,0.9860381173200409
2014-11-03,1,0.0005910614374181441,0.0006704369244005823,-0.010741720580391492,0.0074334504821741065,0.9861167762317186
2014-11-05,1,0.0009319319487334861,0.0009772938283629106,-0.01306024368806626,0.0066337981097000735,0.9854314039478673
2014-11-07,1,0.0009634215878113902,0.0009675462861666685,-0.01306024368806626,0.008567826090226821,0.9844533614161742
2014-11-11,1,0.000661353349777086,0.0006869991346680353,-0.014329912457793232,0.008567826090226821,0.9842406240248386
2014-11-13,1,0.0007604009151400362,0.0007949721962735812,-0.014329912457793232,0.008567826090226821,0.9843305162084545
2014-11-17,1,0.0024225537552297997,0.002649847570584038,-0.015588128362972919,0.008034692673514757,0.985105819103659
2014-11-19,1,0.0026304315492520205,0.002903797473829647,-0.015588128362972919,0.0067621375306453,0.9856362965954953
2014-11-21,1,0.0024376451339647334,0.0027489806578401507,-0.015559566353352837,0.010867653951398187,0.9856973979665797
2014-11-25,1,0.0018058709211177127,0.0020338814236350302,-0.015559566353352837,0.010867653951398187,0.9856593887261109
2014-11-28,1,0.002295156893753428,0.002575426215148723,-0.015559566353352837,0.008034692673514757,0.986173204628431
2014-12-02,1,0.0017778406626016274,0.0020265724832106524,-0.0098872983554913,0.008034692673514757,0.9871128520989166
2014-12-04,1,0.0012296573939834514,0.001385775031913208,-0.0098872983554913,0.007515295458888778,0.9869957817467325
2014-12-08,1,0.0015393605854082007,0.0017250322577984484,-0.0098872983554913,0.007515295458888778,0.9877615496399381
2014-12-10,1,0.0008901833542829028,0.000974464969701984,-0.01146498119175204,0.01077719245356025,0.9858722179903889
2014-12-12,1,0.0012273562045367874,0.0013783868230555622,-0.01146498119175204,0.007515295458888778,0.986417132693747
2014-12-16,1,0.00044933038699306895,0.0005077204625369125,-0.00689779674274831,0.007998321454203833,0.987302598773847
2014-12-18,1,0.0004117836901173615,0.00044869436099722216,-0.00689779674274831,0.008107711100821991,0.9873795425651467
2014-12-22,1,0.00043224617053080384,0.0004847280859910059,-0.00689779674274831,0.007446128742843993,0.9879867349669903
2014-12-24,-1,-0.0002379885084553559,-0.0001049797008923768,-0.004387980519444259,0.007446128742843993,0.9890505031428768
2014-12-29,-1,-0.00048699168665672604,-0.0003183739097623753,-0.00689779674274831,0.007446128742843993,0.9879645759875557
2014-12-31,-1,-0.0008794042308950009,-0.0006478559161639812,-0.009953177389818574,0.007446128742843993,0.9871585644425355
2015-01-05,-1,-0.0017133291136461177,-0.001398904232834358,-0.00921794379092251,0.0096657154775657,0.9866969777756858
2015-01-07,-1,-0.0009809256206053049,-0.000759696412938953,-0.00921794379092251,0.009812913282920558,0.986274951029746
2015-01-09,-1,-0.0006534055682672187,-0.0004531430424453471,-0.00641959783881467,0.009629006942711711,0.98879482174024
2015-01-13,-1,-0.0020854502687053834,-0.0017207712695252086,-0.006163053659417504,0.009812913282920558,0.9884338305911324
2015-01-15,-1,-0.0012150781701100299,-0.0009293330697676587,-0.006163053659417504,0.009812913282920558,0.989595756917986
2015-01-20,-1,-0.0009939409765235415,-0.000740551365711129,-0.006163053659417504,0.010457279478730647,0.9893356582087289
2015-01-22,1,0.0001309457710626297,0.0002163451793983093,-0.006163053659417504,0.010347153874168683,0.989758488085245
2015-01-26,1,0.0004086458092386498,0.0004493840273992405,-0.006163053659417504,0.010347153874168683,0.9897074037428883
2015-01-28,-1,-0.0013238065416667922,-0.0010312396756063428,-0.00523867285162451,0.010347153874168683,0.9902961917597292
2015-01-30,-1,-0.0019226273109250978,-0.0016027817686746113,-0.004804481127096356,0.012438947960794982,0.9899772434538557
2015-02-03,-1,-0.0018479859786984232,-0.0015584891944237563,-0.004804481127096356,0.011089427513488372,0.9901125363088109
2015-02-05,-1,-0.0010982216992895517,-0.0008677179809221381,-0.00523867285162451,0.008678377314359725,0.9906560049474011
2015-02-09,-1,-0.0009125350380981769,-0.0007413115696642677,-0.006660972298306676,0.008678377314359725,0.9899882864400428
2015-02-11,-1,-0.0007021503611016654,-0.0005388309219355092,-0.006660972298306676,0.006008302143699309,0.9889611886597989
2015-02-13,-1,-0.0008704076769761317,-0.0006417567280043157,-0.006660972298306676,0.006008302143699309,0.9887256216614321
2015-02-18,-1,-0.0003543781338473096,-0.00020076640549989902,-0.006660972298306676,0.008678377314359725,0.9874149636535859
2015-02-20,-1,-0.0002649086144851816,-9.248647147056752e-05,-0.006660972298306676,0.010035174673692887,0.9873236531917812
2015-02-24,1,0.0004496471832176759,0.0004600491897236754,-0.01191207905748212,0.010035174673692887,0.9856563435735864
2015-02-26,1,0.0005658490179417028,0.0006436599370207832,-0.01191207905748212,0.010035174673692887,0.9857361258507508
2015-03-02,1,0.0019185029704059434,0.002209420665519062,-0.01191207905748212,0.006583588673134374,0.9865995721879343
2015-03-04,1,0.0012762845073747524,0.0014812491673014904,-0.010362621125589808,0.006583588673134374,0.987702565153536
2015-03-06,1,0.00018657206264266783,0.00019241539923186052,-0.0066420539682275695,0.0076636299607533214,0.9883121824133589
2015-03-10,-1,-0.0011683777354489868,-0.0009739995891854341,-0.0064801078928837545,0.0076636299607533214,0.9885563082438636
2015-03-12,-1,-0.004845787534764572,-0.004104227931639828,-0.004094297291727854,0.009130292609548653,0.9893209657199373
2015-03-16,-1,-0.003529838661462596,-0.003003544683566883,-0.004345935361647147,0.009130292609548653,0.9898009145993011
2015-03-18,-1,-0.001903901952479042,-0.0015753874987946286,-0.006867818837763863,0.006304233594073126,0.9917364233110418
2015-03-20,-1,-0.0012225268947801237,-0.0009813733755963208,-0.008411082394393733,0.004388709803375421,0.9916827878920718
2015-03-24,-1,-0.002417669426411395,-0.0020659641113802197,-0.007663246147537104,0.004388709803375421,0.9929311783547633
2015-03-26,-1,-0.0028042324468338107,-0.0024207822032076276,-0.006832414993578119,0.006304233594073126,0.992508939630089
2015-03-30,-1,-0.0016906007591791633,-0.0014965554156686747,-0.006832414993578119,0.006663283999757122,0.9922166282715881
2015-04-01,-1,-0.0013608024629250264,-0.0012369183831870243,-0.006832414993578119,0.007285189627951233,0.9921347097630935
2015-04-06,-1,-0.0009685647594684793,-0.0008766019514753599,-0.006832414993578119,0.009686421606773417,0.9908831658647164
2015-04-08,-1,-0.0014619624858072393,-0.0012919070036929623,-0.007663246147537104,0.009686421606773417,0.9907870205109489
2015-04-10,-1,-0.00033938870870913504,-0.0003282493802578843,-0.007663246147537104,0.009686421606773417,0.9906288411114568
2015-04-14,1,0.0012004705081804534,0.001508789059080241,-0.00779414335369831,0.007897559048125205,0.9912984376257721
2015-04-16,1,0.0007841695788070835,0.0010497061246658788,-0.007687931821141077,0.009686421606773417,0.9911841985031329
2015-04-20,-1,-0.0004463897833071893,-0.00039243675143205316,0.00010752644418501531,0.009686421606773417,0.9911057144186352
2015-04-22,-1,-0.0011930684011751895,-0.0011130835622797815,0.0016726415116045774,0.011678584377174393,0.9897922306933898
2015-04-24,0,-3.9292761056742165e-05,8.184442219157052e-05,0.00010752644418501531,0.011678584377174393,0.9904157696905705
2015-04-28,1,0.00012790103823887103,0.00020671724174499043,-0.0038750051685090625,0.011678584377174393,0.9906093811162735
2015-04-30,1,0.00010974055991182582,0.00015868503155683203,-0.008124418898868675,0.011678584377174393,0.9905189488178958
2015-05-04,1,0.0020856346471144465,0.002434530959240109,-0.008124418898868675,0.006002708200232041,0.9925966061367995
2015-05-06,1,0.0009773692592998035,0.001137468407061789,-0.009045790167894339,0.006002708200232041,0.9922905459005605
2015-05-08,1,0.002088780586587532,0.002410632456074071,-0.009522575351164924,0.004539688468072772,0.9924413621208829
2015-05-12,1,0.0010646948440074958,0.001173749199696078,-0.009045790167894339,0.006710213346233086,0.9923964553074205
2015-05-14,1,0.001922106200854215,0.0021503080864640886,-0.009045790167894339,0.006006802705898871,0.9928391994749568
2015-05-18,1,0.0030631183424786788,0.003523135581676832,-0.009045790167894339,0.005933822560780331,0.9927336231624623
2015-05-20,1,0.003876486587263528,0.004398853463323466,-0.009045790167894339,0.004775523516739787,0.9932778852100591
2015-05-22,1,0.003240595698289145,0.0036679514829736958,-0.006286864697537673,0.005933822560780331,0.9936789080854765
2015-05-27,1,0.0028358542450750666,0.0031967231041787926,-0.005201608690846552,0.006690327277540765,0.992711862223164
2015-05-29,1,0.0018485840306732527,0.0020046014481942863,-0.006063134010449963,0.006690327277540765,0.9914418887369333
2015-06-02,1,0.0019731289813703936,0.002189357118220883,-0.008393236202050831,0.006690327277540765,0.9905829858902776
2015-06-04,1,0.001375485114668791,0.001553331187745907,-0.00570970582113914,0.007303878647275303,0.9913537676136919
2015-06-08,-1,-0.0003709948862609494,-0.00023430850148567012,-0.003311937636992092,0.008445069630325479,0.9906803805408405
2015-06-10,1,0.0011129513291605834,0.0012371819416742025,-0.00758742540132773,0.007303878647275303,0.9911978985671301
2015-06-12,1,0.0013760062208967726,0.001547244195160506,-0.00758742540132773,0.008918248947816707,0.9906064042216276
2015-06-16,1,0.002074805326262868,0.0023861193542015825,-0.008095053390833901,0.008918248947816707,0.9899847921588584
2015-06-18,1,0.0025293788966037154,0.002911960124532682,-0.00907353897556469,0.008918248947816707,0.9894392101390107
2015-06-22,1,0.0027360610660776856,0.003074142800163111,-0.00907353897556469,0.007384062614830888,0.9894191530395448
2015-06-24,1,0.0034494410878939275,0.0038107011852306595,-0.00907353897556469,0.0071341627448399045,0.9901655623355784
2015-06-26,1,0.001969990298936555,0.002120644480442517,-0.007684327068568453,0.0071341627448399045,0.9917188480280061
2015-06-30,1,0.0015791977016925748,0.0017434099159507725,-0.005750195282117359,0.008341458314675317,0.9919953428820021
2015-07-02,1,0.0016304092670599484,0.0017828777145804397,-0.005750195282117359,0.010719681732154943,0.9917338314377372
2015-07-07,1,0.0012548207237627971,0.001395805765692618,-0.005750195282117359,0.010802064360265613,0.9859996817504781
2015-07-09,1,0.0011751529964248463,0.0013209774425233518,-0.005238224745769838,0.01305201380083584,0.9856280191326386
2015-07-13,1,0.001896162348206362,0.002151507459929536,-0.005313209245055412,0.01305201380083584,0.985182302139922
2015-07-15,1,0.0018711908974288183,0.002142163460114928,-0.005313209245055412,0.01305201380083584,0.9847868082045415
2015-07-17,1,0.0014849126702647507,0.0016969153026965692,-0.005154424160068383,0.01305201380083584,0.9853480750911565
2015-07-21,1,0.000998940702667094,0.001121219002754881,-0.004529115940132989,0.01305201380083584,0.9855338229515931
2015-07-23,1,0.0017395647502415823,0.0020078458321471284,-0.004529115940132989,0.010802064360265613,0.9858078595846592
2015-07-27,1,0.0013357133486850475,0.0015224855094843445,-0.004554110773228181,0.010802064360265613,0.9825143141731176
2015-07-29,1,0.001579147591033472,0.0017670422715800635,-0.006535936181408293,0.009371339696965802,0.9818792135998959
2015-07-31,1,0.001493030675528263,0.0016332294879685412,-0.006535936181408293,0.010222326174554588,0.9805294787865981
2015-08-04,-1,-0.0010041127809381294,-0.0007633871373946216,-0.00859698904474273,0.007958659792434071,0.9855140575203549
2015-08-06,-1,-0.0005332350981353909,-0.0003661858320498167,-0.00859698904474273,0.009799622718973418,0.9850090582272388
2015-08-10,1,0.0004729114055357309,0.0004733883313234489,-0.011121081416079377,0.009799622718973418,0.985239274221712
2015-08-12,1,0.0003205697694845475,0.0003211091604667516,-0.00859698904474273,0.009799622718973418,0.9858910973846495
2015-08-14,-1,-0.0001836660184329091,-7.617083978872714e-05,-0.00859698904474273,0.012724704313802675,0.9854096288801775
2015-08-18,-1,-0.0002672092517945073,-0.00013110340134159454,-0.00859698904474273,0.012724704313802675,0.9852498860475628
2015-08-20,1,9.874655730210196e-05,0.00018466067182697503,-0.011121081416079377,0.012724704313802675,0.9849542340287527
2015-08-24,-1,-0.0019456660531771038,-0.001616308326868282,-0.00859698904474273,0.012724704313802675,0.987677146490036
2015-08-26,-1,-0.001369509954425714,-0.0011229273066170925,-0.006729004837514382,0.012724704313802675,0.9880891288185687
2015-08-28,-1,-0.0004546306424568194,-0.0003025470510978688,-0.009262551713250805,0.010481884120619046,0.9882068280384614
2015-09-01,-1,-0.00099756283104114,-0.0008012759206698571,-0.00560012026702161,0.012724704313802675,0.9879728911282907
2015-09-03,0,-5.942945261720975e-05,1.2432538581993421e-05,-0.00560012026702161,0.01240778810384096,0.9881216054319282
2015-09-08,-1,-0.00029489142038106246,-0.00017495979673273423,-0.00560012026702161,0.01181961216610339,0.9885755919104292
2015-09-10,-1,-0.000653464701592377,-0.0004637177438258607,-0.003227223402879284,0.01240778810384096,0.9876549181965385
2015-09-14,-1,-0.0006446252758350431,-0.0004370894279188708,-0.003227223402879284,0.013803945988305338,0.9871605089549323
2015-09-16,-1,-0.00037573017821114897,-0.00021076951482831965,-0.009964800024993316,0.013803945988305338,0.9849839192092087
2015-09-18,-1,-0.0006687895857572461,-0.0004873955448004327,-0.007543053752454954,0.015777302255125653,0.9839467017193009
2015-09-22,-1,-0.0013261273432745475,-0.0010701705297164227,-0.003298670499798296,0.017222007885764563,0.9837633591011492
2015-09-24,0,-1.4644367532684832e-05,3.608025302524612e-05,-0.003298670499798296,0.017222007885764563,0.9842215847357397
2015-09-28,-1,-0.0010841794649850555,-0.0008832786899036837,-0.003298670499798296,0.017222007885764563,0.983360933381601
2015-09-30,1,6.119370350239473e-05,0.00010143313044559952,-0.006825897318775897,0.015777302255125653,0.9846627090215636
2015-10-02,1,0.0006746508249097223,0.000694806042401497,-0.007543053752454954,0.012670927858324807,0.9844322725057073
2015-10-06,1,0.0009712649773143924,0.0010571760374970247,-0.007020965823432245,0.013264367837574417,0.98447421865024
2015-10-08,1,0.0018599210713538157,0.00207761403165411,-0.007020965823432245,0.01184935934778182,0.9854831710874192
2015-10-12,1,0.0027264173713478397,0.0031000175636504796,-0.008568726114320488,0.01038268407130495,0.9857118483208338
2015-10-14,1,0.0010493903304194412,0.001183008422606368,-0.007020965823432245,0.01038268407130495,0.9879272033490172
2015-10-16,1,0.0015295939688804324,0.0017173506144262762,-0.009601183674153909,0.009592638199078022,0.9878877448036837
2015-10-20,1,0.001844108096454271,0.0020598960013519197,-0.009601183674153909,0.009592638199078022,0.9874352521499206
2015-10-22,1,0.0023273179495258665,0.0025964296638365733,-0.010341248565467167,0.009592638199078022,0.9863933592550852
2015-10-26,1,0.0007765319334507211,0.0008040288252751655,-0.010341248565467167,0.01038268407130495,0.9833594088527693
2015-10-28,1,0.0003746736007395634,0.0004239666070409701,-0.010341248565467167,0.0132496438787097,0.9821995792822928
2015-10-30,1,0.00018280052203659274,0.0002343596058457684,-0.010137670390943463,0.014402040070533343,0.9827612478204482
2015-11-03,1,0.0007976981710292486,0.0008246129772368399,-0.010137670390943463,0.014402040070533343,0.9830369191559325
2015-11-05,1,0.0009764331286829867,0.001035953920137148,-0.010137670390943463,0.0160596875584728,0.9824310950148272
2015-11-09,1,0.0007156999952076246,0.0007532683329042088,-0.009848727407087414,0.016176206386703394,0.9820966830514825
2015-11-11,1,0.0008309699006301171,0.0009161898407253273,-0.006963116941381025,0.016176206386703394,0.9821482211964769
2015-11-13,1,0.0003777726849448275,0.00046791668306864524,-0.004873249096829583,0.016176206386703394,0.9829803395598865
2015-11-17,1,0.000438028540518791,0.0004860091520294869,-0.002543175193088678,0.016176206386703394,0.9832412959237379
2015-11-19,1,0.00040189944980203887,0.0004079883386577578,-0.005019046697989185,0.015520573550556478,0.9839565617567199
2015-11-23,1,0.0025361004793684238,0.0028332395125995782,-0.002543175193088678,0.014402040070533343,0.9895940978245786
2015-11-25,1,0.0034206959030580473,0.003835867429670018,-0.002543175193088678,0.012098708022631388,0.991296783279003
2015-11-30,1,0.003228905150362872,0.0035969543837877874,-0.002543175193088678,0.011108095035953457,0.9917427104968524
2015-12-02,1,0.003720908385650334,0.004187053359312441,-0.005019046697989185,0.008643931052379986,0.9916659814175824
2015-12-04,1,0.004245719305405186,0.0047652547880717095,-0.007103747552017753,0.007560099753101334,0.9911875559327106
2015-12-08,1,0.004207617745871138,0.004697218450256276,-0.007103747552017753,0.007070491344385775,0.9916066528748853
2015-12-10,1,0.0042719009422565535,0.004747785262455269,-0.007103747552017753,0.004666984187577585,0.991584966357465
2015-12-14,1,0.003955041405227346,0.004403653346901201,-0.007103747552017753,0.007158854780274294,0.9915860126824291
2015-12-16,1,0.004191498576526681,0.004646035932990685,-0.007792618236060473,0.004666984187577585,0.990773350007831
2015-12-18,1,0.0038590733762862237,0.004303504012795894,-0.007792618236060473,0.005955050541327996,0.9905448599089494
2015-12-22,1,0.004432325823583782,0.004965148177680607,-0.007792618236060473,0.00449668416646777,0.9899926328023778
2015-12-24,1,0.004254305577186904,0.004625544878267567,-0.007792618236060473,0.005955050541327996,0.9891014840679345
2015-12-29,1,0.00417368270759965,0.004546800110557906,-0.008421861417746326,0.0062346923805241695,0.9885588310332706
2015-12-31,1,0.003919335106753697,0.004284938191727823,-0.00734982537209542,0.014217656702416006,0.9884131120748528
2016-01-05,1,0.0027791825378907682,0.0029597147653054245,-0.005111308781960738,0.014217656702416006,0.9881392781730568
2016-01-07,1,0.0024484429783441885,0.0025948890956421326,-0.00948662626785832,0.015059333134826599,0.9828184229795447
2016-01-11,1,0.0023792653135892095,0.0025456061626786004,-0.00948662626785832,0.01668535760394627,0.9801978969523691
2016-01-13,1,0.0026067201586605954,0.0028176996563685493,-0.013725224838742733,0.01543208469858483,0.9796707149773761
2016-01-15,1,0.00020518061313243925,0.0004184447454206447,-0.004179717524032387,0.018606908862638702,0.9794577279667462
2016-01-20,-1,-0.0006448737332649342,-0.0003485466318533028,0.0006476186175409248,0.018606908862638702,0.9801902895269703
2016-01-22,1,0.0007390215447997759,0.0008158928156742771,-0.0002582184255526726,0.017838961530104145,0.9810015930002186
2016-01-26,1,0.0007812401083695167,0.0009049247604071764,-0.0002582184255526726,0.01543208469858483,0.9812916461562962
2016-01-28,1,0.0011914026307122288,0.001228953806970029,-0.0002582184255526726,0.01718416236925665,0.9808879434228885
2016-02-01,1,0.0019754840103755095,0.002029824367323336,-0.0027432651880734907,0.013858340588177738,0.9816440453587595
2016-02-03,1,0.0010030932593413614,0.001072514893565983,0.0015384539535386675,0.013858340588177738,0.9824793439483525
2016-02-05,1,0.003282725385189306,0.0035165013828757953,0.0015384539535386675,0.012202216797422338,0.9879284834049005
2016-02-09,1,0.004931683536371277,0.005384585824287473,-0.0008322898377010569,0.011427494597644096,0.9904169403462221
2016-02-11,1,0.004046718654093019,0.004339454035069246,0.0015384539535386675,0.011632942697626547,0.9912664721200685
2016-02-16,1,0.004178682920778393,0.004437012483544866,-0.004465479424518644,0.01088278583179119,0.9913431627926416
2016-02-18,1,0.004689570650590736,0.005047975939908607,-0.004465479424518644,0.01088278583179119,0.9917128380048849
2016-02-22,1,0.0044233005538183035,0.0046890445796963255,-0.006300038846576525,0.01002607328660014,0.9917606512656296
2016-02-24,1,0.005029308105558832,0.005412205307944731,-0.006300038846576525,0.010144390197462688,0.9916084852252182
2016-02-26,1,0.004975629371303405,0.005389624625839792,-0.006300038846576525,0.009060368511063855,0.992608567106808
2016-03-01,1,0.004892069700152696,0.005288527644514971,-0.004417273966411966,0.008561032037251547,0.9931141824007814
2016-03-03,1,0.00512491559589278,0.005594951007633004,-0.0064247341185845325,0.009060368511063855,0.9915672902874177
2016-03-07,1,0.0050716153735206266,0.00555895674242119,-0.0052149527916300785,0.008561032037251547,0.9919209210761813
2016-03-09,1,0.004000725584806808,0.004237054718435497,-0.0052149527916300785,0.008561032037251547,0.9922419434207878
2016-03-11,1,0.004595341283549199,0.004936530794441368,-0.0064247341185845325,0.004447655912872309,0.9920380714622578
2016-03-15,1,0.004099910833473112,0.004391773464361263,-0.0052149527916300785,0.006593059405324269,0.9908088208355686
2016-03-17,1,0.004416553066875524,0.004772455122162948,-0.006727735627974066,0.00883957671024774,0.9896370599881676
2016-03-21,1,0.0032703479888085054,0.0033900914674609445,-0.007396831564307877,0.00883957671024774,0.9899334749400431
2016-03-23,1,0.0031973256020986903,0.003284881313608286,-0.010244091384787712,0.007485998738856136,0.9884203614179397
2016-03-28,1,0.0026153255239827152,0.0026364041252864763,-0.010244091384787712,0.007505064570515615,0.9886560960532815
2016-03-30,1,0.0026294173093677725,0.0026301718654803377,-0.010244091384787712,0.009534828320123093,0.9882141984629628
2016-04-01,1,0.0025811945143717546,0.0025896229281151635,-0.00781722131883024,0.00901339860404616,0.9898098865828973
2016-04-05,1,0.0016610868387188045,0.0018080115506393041,-0.00781722131883024,0.009534828320123093,0.9896241905813249
2016-04-07,1,0.0013261907246287724,0.0015315669914902073,-0.00781722131883024,0.009534828320123093,0.9897017088816044
2016-04-11,0,-2.707973062696621e-06,0.00043440047282228365,-0.005273288590943341,0.010999894249602548,0.9889031073737792
2016-04-13,-1,-0.0008850561361682318,-0.00037153902992458554,-0.005273288590943341,0.010999894249602548,0.9900307171868167
2016-04-15,-1,-0.0011686062805924006,-0.0006329719622816118,-0.0046487707739040224,0.01076561960363244,0.9908931838934817
2016-04-19,0,-9.985945753969753e-05,0.00020642736923680294,-0.004941849268243965,0.01076561960363244,0.990256564135104
2016-04-21,-1,-0.0008402513126950547,-0.0004898805432684624,-0.004941849268243965,0.01076561960363244,0.990769845452437
2016-04-25,-1,-0.00046339317928575637,-0.00015710170838329092,-0.005030345850151089,0.009534828320123093,0.9913408708156008
2016-04-27,1,7.959166645890017e-05,0.0003129114720279543,-0.0051411835184574485,0.004677326736400115,0.9920105993477748
2016-04-29,1,0.0005717525117455229,0.0007140671204287007,-0.0051411835184574485,0.005118997152089803,0.9919874373216132
2016-05-03,1,0.0007704357671064125,0.0008806562943272936,-0.006536239252343109,0.005118997152089803,0.9914509966994443
2016-05-05,1,0.0008322051108982659,0.0009232542243101474,-0.009368896754889696,0.006245409219108939,0.9901299298661543
2016-05-09,1,0.0011494086024499627,0.0012210603333900132,-0.011974480478781142,0.002904969290519802,0.9894115552900512
2016-05-11,1,0.0013972922267636192,0.0014181776903439561,-0.014701076532134923,0.002904969290519802,0.9885268376112569
2016-05-13,1,0.0008397893777734089,0.0009692425646951184,-0.014701076532134923,0.002428117081263714,0.9876049940365668
2016-05-17,0,-4.040719535925786e-05,0.00017066755737327882,-0.01211067677687629,0.004518715949459548,0.9892502728532343
2016-05-19,-1,-0.000797209547948232,-0.0005001256134848096,-0.010821244480534066,0.005669714799417414,0.9893375456015715
2016-05-23,-1,-0.001022652058201834,-0.0006918191215436598,-0.010821244480534066,0.0065827127497159865,0.9889427476238565
2016-05-25,-1,-0.0014963187210361444,-0.0010893665039711617,-0.010821244480534066,0.008668451739901117,0.9881819247904141
2016-05-27,-1,-0.0018980014542575464,-0.0014125311795355061,-0.010821244480534066,0.010020504299896685,0.9868885637691444
2016-06-01,-1,-0.002510765653992551,-0.0019419012635154425,-0.010821244480534066,0.010020504299896685,0.9873318362883704
2016-06-03,-1,-0.0030861418459750016,-0.0024536266070392283,-0.010806891629733088,0.011766850020726988,0.9864697388963828
2016-06-07,-1,-0.004226687113248829,-0.0034689859403277414,-0.0059347931322879886,0.014527070925788919,0.9863718613000471
2016-06-09,-1,-0.0047601005738878086,-0.003886584503376553,-0.0010977413009984655,0.014527070925788919,0.9869283856373705
2016-06-13,-1,-0.0058179768562217175,-0.004793091818906522,0.0003505421742729674,0.014527070925788919,0.9864449248228963
2016-06-15,-1,-0.0052645699597761685,-0.004339003880793465,0.0003505421742729674,0.014527070925788919,0.9862712479888527
2016-06-17,-1,-0.004572422118929863,-0.0037584372841616724,0.0003505421742729674,0.011766850020726988,0.9873447995504874
2016-06-21,-1,-0.004276398509799498,-0.003493374681543322,-0.0010021431117160742,0.011772802063273028,0.9876116008012757
2016-06-23,-1,-0.0033470968433355203,-0.0027121308231175738,-0.0010021431117160742,0.015165393143119994,0.9877437761388353
2016-06-27,-1,-0.003144046374948369,-0.0024896679671709467,-0.004448479319487999,0.013167916146927182,0.988644792962052
2016-06-29,-1,-0.0033277644854242863,-0.0026871137409190766,-0.004448479319487999,0.013167916146927182,0.9883339550109901
2016-07-01,-1,-0.0008049305267535333,-0.000579328926342586,-0.0010021431117160742,0.012427498476537882,0.9906775713730713
2016-07-06,-1,-0.0002581870150605751,-6.590015373293602e-05,-0.005958466262499995,0.010018830884698102,0.9913155581679947
2016-07-08,1,0.0010069548175254807,0.0010152474486166132,-0.005958466262499995,0.009241153557933413,0.9920396438014235
2016-07-12,1,0.0011155191871937639,0.0011732932139312533,-0.004448479319487999,0.009241153557933413,0.992114131978744
2016-07-14,1,0.001958899516036719,0.002162940624440285,-0.004448479319487999,0.008373881898138882,0.9929476763973445
2016-07-18,1,0.002249426495157851,0.002531320036945516,-0.004228368133015687,0.00961140503902783,0.9927575879440935
2016-07-20,1,0.002528227222061641,0.002837183973781561,-0.004521491369045479,0.008373881898138882,0.9931960176060788
2016-07-22,1,0.0034195939617901318,0.0038556401210208067,-0.004521491369045479,0.00824883049145958,0.9935661531860355
2016-07-26,1,0.003621605183940421,0.004094075633978677,-0.004042922848039915,0.00824883049145958,0.993811176279649
2016-07-28,1,0.0035369140621335725,0.003982842447089097,-0.0031223503930351494,0.0076681360825533226,0.9943968468873289
2016-08-01,1,0.004144291334361962,0.004677993898121154,-0.004042922848039915,0.006721378275349303,0.9938945791468684
2016-08-03,1,0.0038951158136359813,0.0044447206820137745,-0.0031223503930351494,0.006721378275349303,0.9945272251159885
2016-08-05,1,0.00383132972222668,0.004334414507389199,-0.0031223503930351494,0.006884744493536668,0.9941795099792561
2016-08-09,1,0.004294876608015244,0.004872684650423998,-0.004788792678696371,0.006884744493536668,0.9929801180290414
2016-08-11,1,0.004105275004368344,0.004637989141848516,-0.005702531944243691,0.006884744493536668,0.9909916295887503
2016-08-15,1,0.004419558497676545,0.005011048276886206,-0.00659903629375826,0.006884744493536668,0.9902191524668205
2016-08-17,1,0.003968733642912153,0.004497166986168256,-0.005334012690499502,0.007314691353915765,0.9907622878858271
2016-08-19,1,0.004096313042042395,0.004639344405948289,-0.005334012690499502,0.007533809384960471,0.9903665830080323
2016-08-23,1,0.004235082055594319,0.004808957931724363,-0.005334012690499502,0.00825954518823135,0.990528546243499
2016-08-25,1,0.004064982264555925,0.004590335475620111,-0.006301340053606835,0.01256840542717287,0.9900010884850801
2016-08-29,1,0.0043309877798122995,0.0048996103687757005,-0.006301340053606835,0.008309606132120204,0.9899766363142282
2016-08-31,1,0.003880753874658098,0.00437171538575079,-0.006301340053606835,0.008309606132120204,0.9898439897307845
2016-09-02,1,0.0035855328589578877,0.003975160783072302,-0.006301340053606835,0.00602899314286885,0.99018503500219
2016-09-07,1,0.0027887082051571807,0.003056066331042392,-0.006301340053606835,0.00602899314286885,0.990172153894416
2016-09-09,1,0.0011536321150843753,0.0012030960069635305,-0.005294891968182386,0.007197197233703852,0.9877152244566275
2016-09-13,1,0.000605273175527059,0.0006620523322798036,-0.0048123148479204915,0.009322272135114447,0.9865567806276903
2016-09-15,1,0.0008680210339266328,0.000871784709235248,-0.0048123148479204915,0.009322272135114447,0.9867071264328041
2016-09-19,1,0.0012676072463634366,0.001342893075809149,-0.005299101372167321,0.006993187405443687,0.9872597180500627
2016-09-21,1,0.0017744288285294544,0.0019245789968425568,-0.006313968265561639,0.005960989866782129,0.9871597245363779
2016-09-23,1,0.001995171546691952,0.002182213346720279,-0.007026950824789919,0.004411097391055991,0.987284342699403
2016-09-27,1,0.0016825507883237124,0.0018248794220123198,-0.009852604995438646,0.004567375051857684,0.9871270452799129
2016-09-29,1,0.0016393870431365301,0.0018177496769256423,-0.007026950824789919,0.004567375051857684,0.9876742915298502
2016-10-03,1,0.0017203400257295963,0.0019122131869838345,-0.007026950824789919,0.006993187405443687,0.9868660130537155
2016-10-05,1,0.0012463753559102647,0.0013792560999312728,-0.007026950824789919,0.006993187405443687,0.9871756305327671
2016-10-07,-1,-0.0016257105175458122,-0.0013606597199633164,-0.007026950824789919,0.004769689202552611,0.9896978523165773
2016-10-11,-1,-0.0005487388696992294,-0.0003734879384569735,-0.007026950824789919,0.004769689202552611,0.9900991187204651
2016-10-13,-1,-0.00038291567360955285,-0.00022630065562278444,-0.011002842159615833,0.0036638607517764576,0.987745760897732
2016-10-17,-1,-0.0007710726116786658,-0.0005551841008643844,-0.011002842159615833,0.006407926592524896,0.9864038073498725
2016-10-19,-1,-0.0012745802469996343,-0.0010013528805685665,-0.0097673021756347,0.0065158221822059735,0.9866860562707018
2016-10-21,-1,-0.0020015507810109837,-0.0016229529629955568,-0.011002842159615833,0.010432483672142914,0.985020705751681
2016-10-25,-1,-0.0030166530413511237,-0.0024666768154324235,-0.011002842159615833,0.012312042019351207,0.9797075532163579
2016-10-27,-1,-0.004110629288253887,-0.00335849316047071,-0.011002842159615833,0.013814818274683973,0.9789863174240206
2016-10-31,-1,-0.0031022166963974715,-0.002475952208366213,-0.013811913435448192,0.011249087524906517,0.9791616406559451
2016-11-02,-1,-0.004132690604740679,-0.003335463608661613,-0.024874458801013452,0.011249087524906517,0.9779202858144371
2016-11-04,-1,-0.005771399568847951,-0.004792789567771082,-0.013939624837460392,0.013752437250106466,0.9781428201744546
2016-11-08,-1,-0.003919622648510867,-0.0031775228929495384,-0.013939624837460392,0.011887190287136782,0.9793136445346499
2016-11-10,-1,-0.005961106449229734,-0.005000214909374865,-0.006632556489791567,0.015969295774836332,0.9781390689965376
2016-11-14,-1,-0.004398442938415707,-0.00364963577702228,-0.006632556489791567,0.011887190287136782,0.9796698666597671
2016-11-16,-1,-0.003548315454584717,-0.00294878245248301,-0.00998890452653478,0.011887190287136782,0.9799552800504339
2016-11-18,-1,-0.004877405550081297,-0.00409187139269391,-0.006206965204676227,0.011887190287136782,0.9813712041605467
2016-11-22,-1,-0.00703202132906683,-0.006048453489726882,-0.005540829227643032,0.009776707580038218,0.9860465403183103
2016-11-25,-1,-0.005953003835381912,-0.0051420832637146,-0.0045082917084918695,0.009776707580038218,0.9865994243491052
2016-11-29,-1,-0.005874962402018314,-0.005109151737318872,-0.0045082917084918695,0.006391776314834282,0.9876661357246194
2016-12-01,-1,-0.0076068930474859344,-0.006636315222559937,-0.0022490964160318135,0.0084560158921843,0.9876460244645825
2016-12-05,-1,-0.006283152850915848,-0.005502836642903831,-0.0022490964160318135,0.010399746352646346,0.9879678370084863
2016-12-07,-1,-0.005128307065100013,-0.004487974678166199,-0.0045082917084918695,0.0084560158921843,0.9897633093134502
2016-12-09,-1,-0.002852242030739198,-0.0025000823618390546,-0.007533220067792613,0.005927031524495367,0.9920876419893264
2016-12-13,-1,-0.0017599131970432941,-0.0015803375952769265,-0.007533220067792613,0.004437919979375714,0.9924508056604785
2016-12-15,-1,-0.001724363545204898,-0.0015619051836656256,-0.007054952971658982,0.0052303083346190585,0.9924546182279472
2016-12-19,-1,-0.001594717659250506,-0.00145631687413093,-0.007054952971658982,0.00567741568122483,0.9919265715793305
2016-12-21,-1,-0.0013226891316515106,-0.0012487985137410267,-0.007533220067792613,0.00567741568122483,0.9914860775829003
2016-12-23,-1,-0.0012467517290922557,-0.0011541476293775816,-0.007533220067792613,0.00567741568122483,0.9915135131986821
2016-12-28,-1,-0.0014707308567222309,-0.0013714376603569498,-0.007533220067792613,0.007082155991826011,0.9904742250237768
2016-12-30,-1,-0.0010843191175775814,-0.001053904107687143,-0.006662532592403709,0.00567741568122483,0.990985727922449
2017-01-04,1,1.1904422648253607e-05,0.00012982767806895575,-0.006662532592403709,0.00567741568122483,0.9909247020096853
2017-01-06,1,0.00015479510594848257,0.0003104443071662711,-0.007426943150141266,0.00567741568122483,0.9897610575693437
2017-01-10,-1,-0.001058171071105027,-0.001043865532223716,0.0016198129498528517,0.007524219120323425,0.9892723480761081
2017-01-12,-1,-0.0005268763893566145,-0.00045342766663449647,-0.0036513535122617265,0.007524219120323425,0.9895013423929733
2017-01-17,1,3.10016159150573e-05,0.0001928655086466951,-0.004707338234812219,0.007524219120323425,0.989863606201701
2017-01-19,1,0.0002204133286426332,0.0004185609701626373,-0.004707338234812219,0.007110026920375993,0.9900130009306198
2017-01-23,1,0.00016039267080677686,0.00037106774470979404,-0.004707338234812219,0.007110026920375993,0.9890908135696331
2017-01-25,1,0.0006634291364368263,0.0009340872172817426,-0.005366787371928935,0.005707049762613464,0.9894463175943043
2017-01-27,1,0.0010894425055878161,0.0014455925789094452,-0.005061326413018731,0.005306770247522374,0.9906158281075546
2017-01-31,1,0.0009465069474497774,0.0012568242896266325,-0.005061326413018731,0.005707049762613464,0.9895849749272572
2017-02-02,1,0.001585346644848913,0.0018996957285846614,-0.00541075281063655,0.005306770247522374,0.9901017240224558
2017-02-06,1,0.0008285057913222941,0.0010745188644255001,-0.00541075281063655,0.005306770247522374,0.990504193668057
2017-02-08,1,0.0019604427789138967,0.002364730934743919,-0.00541075281063655,0.005114386463455566,0.9914640539368152
2017-02-10,1,0.0021814254225421686,0.002635395620642072,-0.00541075281063655,0.005194464598141252,0.9909900294120114
2017-02-14,1,0.002564372055399884,0.0031114465133495646,-0.006390845004174648,0.005654127671192215,0.9903041454618833
2017-02-16,1,0.00273853261131486,0.0033277211647697947,-0.008401013430180099,0.005654127671192215,0.9895607436211667
2017-02-21,1,0.001883229447773847,0.002348502975480357,-0.00541075281063655,0.006196958105761582,0.9910228181677581
2017-02-23,1,0.0015206118736435003,0.0019181103174353634,-0.005383494486921276,0.006993111202386777,0.9909992448787509
2017-02-27,1,0.0014430478590320855,0.00184146299454281,-0.007580308238349469,0.006993111202386777,0.9907805113564352
2017-03-01,1,0.0021972718085712887,0.002662211243777712,-0.007580308238349469,0.006196958105761582,0.9917177354746814
2017-03-03,1,0.0005924107923596083,0.00068570880378145,-0.004463401741356684,0.004381703358496335,0.9930150987139165
2017-03-07,1,0.0007184212699839674,0.000959121628625118,-0.0029051074062232066,0.004775357675086506,0.9942746008928476
2017-03-09,1,0.0012580503463077656,0.001595633634298671,-0.0029051074062232066,0.004996819050817523,0.9938792208108022
2017-03-13,1,0.0020153887930365096,0.002439658830627701,-0.004463401741356684,0.004996819050817523,0.9938910080351547
2017-03-15,1,0.0014507032921236285,0.0017661021988353079,-0.0029051074062232066,0.005128588020249666,0.9939855992456189
2017-03-17,1,0.00044417309384519075,0.0005974537870318871,-0.0024195883157644587,0.007512041059161188,0.9935848078907626
2017-03-21,1,0.0006146935058938861,0.0007753996211296508,-0.004463401741356684,0.007512041059161188,0.993058596905183
2017-03-23,1,0.0006549663439936609,0.000817800876834507,-0.0024195883157644587,0.006728622565890087,0.9934186328687385
2017-03-27,1,0.0009966400375187208,0.0012748972449614653,-0.0024195883157644587,0.006728622565890087,0.993962766923557
2017-03-29,1,0.0009442909179206995,0.0012006562754066316,-0.0039029201050642926,0.006728622565890087,0.993490566332702
2017-03-31,-1,-5.7653557041043255e-05,-3.9801552655520625e-05,-0.005580106810918129,0.006728622565890087,0.9927322637361328
2017-04-04,1,0.0012319741058956805,0.0015370634742163567,-0.007763443322001077,0.006728622565890087,0.9922170430823899
2017-04-06,1,0.0003700413749792503,0.000418279375364562,-0.007763443322001077,0.005873728290666283,0.9922330338291466
2017-04-10,1,0.0010870518254200287,0.0013107726569880455,-0.009246766533919593,0.005260056739050896,0.9887306933765552
2017-04-12,1,0.002279510858620484,0.002680666317374465,-0.009246766533919593,0.004155349853224708,0.9894738900606218
2017-04-17,1,0.0018908670258942699,0.0021832183869145184,-0.009065177225598416,0.0034142838523892865,0.9906165790196569
2017-04-19,1,0.00017522744039024458,0.0002766011877272583,-0.006805890259332605,0.0030222722202543845,0.9915593136901838
2017-04-21,1,0.0006634180010783792,0.0006884682237501579,-0.006805890259332605,0.0030222722202543845,0.9910153291612881
2017-04-25,1,0.0002218874839296981,0.00032515988133261094,-0.006805890259332605,0.0028079201864549957,0.991370063576386
2017-04-27,-1,-0.0014541612917741227,-0.0010575174048936535,-0.005753147227626244,0.0028079201864549957,0.9919733887850914
2017-05-01,-1,-0.0016388448514558448,-0.0012522569541903994,-0.005949957588195222,0.0030222722202543845,0.991871221346983
2017-05-03,-1,-0.0018913728795611384,-0.001526570604275993,-0.004253367838453295,0.0034875214236985857,0.9911471967482347
2017-05-05,-1,-0.00020203357525779776,-0.0001375073831497342,-0.005949957588195222,0.0030222722202543845,0.9908582400973199
2017-05-09,-1,-0.0034063845441745016,-0.0029950950231215977,-0.003403169897806424,0.0047391764489740995,0.9927116541319291
2017-05-11,-1,-0.003350676139152519,-0.0029378166610158343,-0.003403169897806424,0.0047391764489740995,0.9926568005673616
2017-05-15,-1,-0.0032973134066502574,-0.0028908301684390124,-0.003403169897806424,0.009575558146099795,0.9913838266710069
2017-05-17,-1,-0.0033765774943725216,-0.0029520346228696787,-0.00386798561193896,0.009575558146099795,0.9911521717474211
2017-05-19,-1,-0.002701743238834385,-0.002376520617166045,-0.005648056520066468,0.007063063543538913,0.9919074748675696
2017-05-23,-1,-0.0030858845556205883,-0.0026896630369410363,-0.005648056520066468,0.007063063543538913,0.9918273742668267
2017-05-25,-1,-0.003252197886931883,-0.00283943939495827,-0.003483369502875474,0.010753846852136456,0.9906160546180676
2017-05-30,-1,-0.0026346811239184404,-0.002354118853496729,-0.003483369502875474,0.010753846852136456,0.9905560674119306
2017-06-01,-1,-0.0021565289909447824,-0.0019304566670850223,-0.002270631274557464,0.007063063543538913,0.9920875450560762
2017-06-05,-1,-0.0030633072448076654,-0.0026664148196597153,-0.0011354047533646367,0.010723808512652502,0.9914202455795306
2017-06-07,-1,-0.0012620827558608954,-0.001092074934123249,-0.003483369502875474,0.004235108226235074,0.992501831128634
2017-06-09,-1,-0.0007853968359061941,-0.0006923142645653482,-0.006436230917389299,0.002947784411032562,0.9921102121409309
2017-06-13,1,0.00032394676123076774,0.00036639819459610625,-0.009551014150885502,0.0006455799417829101,0.9914682716569091
2017-06-15,-1,-0.00016744334473592563,-0.00012804834004914367,-0.00718866481185708,0.0062073317622584005,0.9909895884461405
2017-06-19,-1,-8.296448801570102e-05,-8.24287336608146e-05,-0.012220911924366858,0.0062073317622584005,0.9903821902009041
2017-06-21,-1,-0.00013800071059896752,-0.00013619275926198733,-0.012220911924366858,0.0062073317622584005,0.9901240048522497
2017-06-23,1,0.0007345921781390268,0.0008488747474974716,-0.012220911924366858,0.005627844234707909,0.9901033282730294
2017-06-27,1,0.0008476948387886109,0.0010626462072197414,-0.006224547281574484,0.010056565553525732,0.9900246047345507
2017-06-29,1,0.00018568662138285894,0.00024224396807635826,-0.007213449778691174,0.010056565553525732,0.9896060225329689
2017-07-03,1,0.0013432667415192354,0.0016179931178264824,-0.008397143826487114,0.006338603819056408,0.9899653999447889
2017-07-06,1,7.842480107955372e-05,0.00018933538917081873,-0.005793664483099368,0.009060075754567926,0.9908936427810054
2017-07-10,-1,-0.00039825030782951655,-0.0003484888002733386,-0.004692925263041927,0.012602205610204404,0.9886666196132813
2017-07-12,1,5.196731798515729e-05,0.0001510049015552256,-0.005572944630863999,0.009060075754567926,0.9888726570584842
2017-07-14,1,0.0004521279507144228,0.0005585359022892841,-0.005572944630863999,0.006906348484071596,0.9894773209796577
2017-07-18,1,6.975132429944188e-05,0.00011184501615286096,-0.004656630886610388,0.006906348484071596,0.989948672472061
2017-07-20,1,1.2365677160325346e-05,3.37556208193113e-05,-0.005572944630863999,0.006906348484071596,0.9895213197860427
2017-07-24,1,0.0008437342599185243,0.0010297110956733893,-0.005572944630863999,0.005355297285225805,0.9905561075030719
2017-07-26,1,0.0014063775227861838,0.001650270789665466,-0.00576252327575042,0.004741349555210106,0.9910593896805558
2017-07-28,1,0.0009677880245155391,0.001102979748020043,-0.006411902611579517,0.00391762018464093,0.9904832900248474
2017-08-01,1,0.0010122089933004724,0.001164950947631227,-0.006984919685000524,0.0033602983472174543,0.9901743014630167
2017-08-03,1,0.001529189751014728,0.001790573210238395,-0.006891496062953679,0.00391762018464093,0.9902106339339138
2017-08-07,1,0.003244703471138557,0.0037172214800519194,-0.006891496062953679,0.00391762018464093,0.9914785941469755
2017-08-09,1,0.001760717407472246,0.0019955626586147584,-0.005937590541935339,0.004678828732127749,0.9931339571928393
2017-08-11,1,0.002277340530210666,0.002591810803860542,-0.005937590541935339,0.004678828732127749,0.9930112001203505
2017-08-15,1,0.00244682883622862,0.002783673920260717,-0.005937590541935339,0.004910505631484504,0.9929681077036944
2017-08-17,1,0.0017416743046604836,0.001967544587314041,-0.004942963231912062,0.006069078809375399,0.993614983554028
2017-08-21,1,0.0018036075877951373,0.002036565922425209,-0.005937590541935339,0.007602788616201511,0.9925477136537997
2017-08-23,1,0.0014334504735706705,0.001609574818056921,-0.006581103661294237,0.007602788616201511,0.992261531072173
2017-08-25,1,0.0008258576666649534,0.0009318635696043609,-0.004942963231912062,0.007602788616201511,0.9930947534314956
2017-08-29,1,0.00040637553143703625,0.0004741788619741419,0.0006859946306712232,0.007602788616201511,0.9934683528783012
2017-08-31,1,0.000953712393742904,0.00109382905233366,-0.0018520385531716243,0.007602788616201511,0.990271672175098
2017-09-05,1,0.0016803142572686157,0.0019563596385611852,-0.0002362816455948732,0.007500198739377367,0.9911405201724278
2017-09-07,1,0.0017780995257922502,0.002071540812969783,-0.0007051877842500546,0.006124020554017013,0.9911752947583575
2017-09-11,1,0.0021576256584588086,0.002505171182125467,-0.005950301271139784,0.005390114364771098,0.9912532503305219
2017-09-13,1,0.0024440040338394916,0.0028418548272811208,-0.006581103661294237,0.005390114364771098,0.9907775413215775
2017-09-15,1,0.0027903577553186737,0.0032327105772916144,-0.007006407636874516,0.00502686328514379,0.9902104215718778
2017-09-19,1,0.002386066840205792,0.0027606461939739283,-0.006581103661294237,0.00502686328514379,0.991267646873525
2017-09-21,1,0.0018380071185422175,0.002120213511910116,-0.0029097248763471618,0.005369522537825628,0.991549545377699
2017-09-25,1,0.0016450477309741854,0.001868312490393104,-0.0029097248763471618,0.005369522537825628,0.9915144178399768
2017-09-27,1,0.0019956771825701456,0.0022816445375599555,-0.005217320452354681,0.005079684252470824,0.9912282826963189
2017-09-29,1,0.002325302171723524,0.0025081461945434896,-0.003993310000520925,0.004864566316768583,0.9951081931467812
2017-10-03,1,0.002549753379947681,0.002759205551678608,-0.003993310000520925,0.005014000045880551,0.9944012608909905
2017-10-05,1,0.0022802326598095166,0.0024475348279050253,-0.0025484923353136313,0.005496595280472461,0.9946598863265202
2017-10-09,1,0.0019358318188828355,0.0020493218509976064,-0.0039311122239125045,0.005496595280472461,0.9943479567549495
2017-10-11,1,0.0016884422554455931,0.0017772787579223878,-0.0025484923353136313,0.0066894051614642056,0.9939040951956326
2017-10-13,1,0.0015514388028736459,0.0016125758942815715,-0.002244953069435207,0.005659222116292816,0.9944885861159969
2017-10-17,1,0.0015962268771735903,0.0016468229880248026,-0.002244953069435207,0.006912274317017168,0.9937193480135632
2017-10-19,1,0.0015671046970120257,0.0016014735888561582,-0.002244953069435207,0.00787518184984472,0.9936132783179986
2017-10-23,1,0.0015537748094624627,0.0015957279936404463,-0.002244953069435207,0.012489669616349173,0.9927934901966163
2017-10-25,1,0.001143025541455098,0.001165148558480988,0.0004042188983560055,0.012489669616349173,0.9927642301818606
