JNU-Tangyin/eata/results/Batch4_SP500/Batch4_SP500-DTE.csv
Date,Action,Predicted_Q25,Predicted_Q75,Actual_Q25,Actual_Q75,RL_Reward
2010-12-14,0,0.0,0.0,-0.0032333155542056827,0.004875403541173247,0.9950288558252068
2010-12-16,0,0.0,0.0,-0.002084213017386203,0.004875403541173247,0.9958610568461344
2010-12-20,0,0.0,0.0,-0.002084213017386203,0.0038379949145576774,0.9959508152828662
2010-12-22,0,0.0,0.0,-0.0019187775536011432,0.00424493894282473,0.9957439534147292
2010-12-27,0,0.0,0.0,-0.0004904539905894921,0.004932025515791156,0.9958518486507577
2010-12-29,0,0.0,0.0,-0.0019187775536011432,0.005563591381279765,0.9951030471924481
2010-12-31,1,4.425457986440998e-05,6.345151783752396e-05,-0.0038604461859374707,0.005563591381279765,0.9944942821357213
2011-01-04,-1,-2.7913489942963806e-05,-7.555004052998142e-06,-0.004466889269881671,0.005178429673454362,0.9942111677552209
2011-01-06,0,0.0,0.0,-0.004466889269881671,0.005178429673454362,0.9941956447306357
2011-01-10,0,0.0,0.0,-0.002200622246790732,0.00424493894282473,0.9949745568204155
2011-01-12,0,0.0,0.0,-0.0026667368023374533,0.0031292153284604193,0.9948712802481073
2011-01-14,0,0.0,0.0,-0.005287665505259019,0.0031292153284604193,0.9947035963712042
2011-01-19,0,0.0,0.0,-0.0026667368023374533,0.0031292153284604193,0.9949877424508724
2011-01-21,0,0.0,0.0,-0.0014495832902735196,0.0039031013290156927,0.9949784475870843
2011-01-25,0,0.0,0.0,-0.0030345486357073823,0.0029120012867428326,0.9945621108315809
2011-01-27,0,0.0,0.0,-0.0014495832902735196,0.0029120012867428326,0.995006580172131
2011-01-31,1,0.0002939376264503435,0.00034236251797999866,-0.0014495832902735196,0.0029120012867428326,0.9954414574978909
2011-02-02,1,0.00026173038301402127,0.0003085342871774311,-0.0009653977735714131,0.0039031013290156927,0.9952952765075989
2011-02-04,1,0.0004858761525207521,0.0005908334519884457,0.00027201007054580736,0.006090072651111251,0.9951431153759757
2011-02-08,1,0.00036457063616618835,0.00042343215249916646,0.0005857912181087537,0.007729875369880552,0.9941090774516201
2011-02-10,1,0.0005649832712932576,0.0006487413331785795,0.0005857912181087537,0.007729875369880552,0.9937507074161295
2011-02-14,1,0.0002833302810157768,0.00031448922092313297,-0.002137629953215563,0.007729875369880552,0.9930991979508945
2011-02-16,0,0.0,0.0,-0.008891296585342531,0.007729875369880552,0.9921600570296042
2011-02-18,1,0.00043638268761967314,0.0004840173393790881,-0.008891296585342531,0.008227949211057864,0.9917963788210581
2011-02-23,1,0.00010534561772688854,0.00010736938904576267,-0.006690009412728471,0.008227949211057864,0.9922826540225669
2011-02-25,1,0.00044038228001178195,0.0004998425146791438,-0.006690009412728471,0.008227949211057864,0.9924705123636076
2011-03-01,1,0.0004183298114413704,0.0004920778098444307,-0.005733935838466208,0.00965991174875444,0.9921412252634819
2011-03-03,1,0.0010580513157930648,0.0012291939822833616,-0.005733935838466208,0.00965991174875444,0.9921833710067876
2011-03-07,1,0.0012671063244070432,0.001457565139746505,-0.005733935838466208,0.00965991174875444,0.9921925867230542
2011-03-09,1,0.0018183651426253496,0.00207724692771112,-0.005733935838466208,0.005518354436663723,0.992991271191874
2011-03-11,1,0.0018318628408316253,0.002105194270788782,-0.005702788825150881,0.003431793359315396,0.9934948754719419
2011-03-15,1,0.0013889892440891788,0.001603829666835478,-0.005702788825150881,0.003431793359315396,0.993526924244862
2011-03-17,1,0.000723264532037755,0.0008369125225716598,-0.003994186995163354,0.003431793359315396,0.9944100219628447
2011-03-21,1,0.0009803553874734162,0.0011311771601079889,-0.004242889361777887,0.003431793359315396,0.9938042306975298
2011-03-23,1,0.0008955244588802359,0.001041377263872531,-0.0035279345260669265,0.005518354436663723,0.993334232145453
2011-03-25,1,0.0005636393100829197,0.0006112499969115008,-0.0035279345260669265,0.0043156684860842665,0.9934170135379893
2011-03-29,1,0.0009260303051779927,0.0010434420597326198,-0.003579855730041046,0.0043156684860842665,0.9930089208872673
2011-03-31,1,0.0015152583613591904,0.0017262660412271729,-0.003579855730041046,0.007181590289186535,0.9931761749518018
2011-04-04,0,0.0,0.0,-0.003579855730041046,0.008202263889878094,0.9925773619475246
2011-04-06,1,0.001484281470638128,0.0016619125914331474,-0.006343420960836945,0.008202263889878094,0.9921712419862336
2011-04-08,0,0.0,0.0,-0.00365122955149965,0.008202263889878094,0.9923225171001813
2011-04-12,0,0.0,0.0,-0.001421929179617061,0.011164178713506098,0.9923699037002804
2011-04-14,0,0.0,0.0,-0.0010245007903499305,0.011164178713506098,0.9920461444494738
2011-04-18,0,0.0,0.0,-0.0010245007903499305,0.010134926995322754,0.9930474017661901
2011-04-20,0,0.0,0.0,-0.0010245007903499305,0.007886389214737988,0.9932215044103191
2011-04-25,0,0.0,0.0,-0.002792567589787118,0.007886389214737988,0.9929331431603691
2011-04-27,0,0.0,0.0,-0.0026141356779881943,0.006949637379841393,0.9938176710592901
2011-04-29,1,0.0013161575482607923,0.001382753296639095,-0.003066549456859475,0.004911384295655041,0.9946188068057792
2011-05-03,1,0.002311047799680324,0.0025130060279496347,-0.007749820815698324,0.0023995423043603496,0.9937486515850938
2011-05-05,1,0.002101781064199899,0.0023119276848439516,-0.007749820815698324,0.0023995423043603496,0.9938738373915541
2011-05-09,1,0.0022574923001810994,0.002486310899042249,-0.007749820815698324,0.0016045194037836504,0.9935392365629311
2011-05-11,1,0.0024162565679148136,0.0026337547765371556,-0.007749820815698324,0.0014005516794671634,0.99361362789922
2011-05-13,1,0.0026743230954796643,0.0029195052089628776,-0.007749820815698324,0.000919095249564114,0.9932739717288706
2011-05-17,1,0.0021321655320983546,0.002288616010655608,-0.007586183712752279,0.0009747077470984143,0.9937726119644467
2011-05-19,0,0.0,0.0,-0.007586183712752279,0.0009747077470984143,0.99481522984103
2011-05-23,1,0.0008328953917312695,0.0008672820479902687,-0.005772649991854185,0.001829879221491798,0.9945582044461329
2011-05-25,1,0.0011051262570172843,0.0011297417147305973,-0.007746386820911672,0.001829879221491798,0.9937844239217187
2011-05-27,0,0.0,0.0,-0.007746386820911672,0.005038015454407273,0.9935517670748741
2011-06-01,1,0.0004245682581956457,0.0004640661806956465,-0.005787444800707065,0.005096461461304939,0.9942158124282298
2011-06-03,1,0.00017275496802857872,0.00023010480005393886,-0.0047731751401246195,0.00559328144693098,0.9940876148213201
2011-06-07,1,0.00011742394099894691,0.000168518838508102,-0.004323872489628044,0.00559328144693098,0.9940815507227715
2011-06-09,-1,-0.00011011583162346075,-3.746169076723348e-05,-0.004812860399425244,0.00559328144693098,0.994048840277888
2011-06-13,0,0.0,0.0,-0.005906500578608939,0.005429984400675215,0.9936414507662475
2011-06-15,0,0.0,0.0,-0.004782310420708052,0.005429984400675215,0.9938410102241448
2011-06-17,0,0.0,0.0,-0.004782310420708052,0.006323390524973931,0.993467116961084
2011-06-21,0,0.0,0.0,-0.004782310420708052,0.006323390524973931,0.9931969851973365
2011-06-23,-1,-0.00013999326206141205,-1.1207364526313651e-05,-0.003954954055187618,0.007634343010411836,0.9926713967890756
2011-06-27,-1,-0.0007357386806749245,-0.0005651263997565872,-0.004074886243210436,0.005429984400675215,0.9931459344152148
2011-06-29,0,0.0,0.0,-0.004782310420708052,0.005425191247376343,0.9931736801014659
2011-07-01,0,-2.1498854637145914e-05,5.902440024560564e-05,-0.00760949047990229,0.0038197580444644026,0.9924995674173159
2011-07-06,-1,-0.00010663408791083278,-2.345257885630312e-05,-0.009088794376040446,0.0038197580444644026,0.9917850397249773
2011-07-08,0,0.0,0.0,-0.010356863417322913,0.0038197580444644026,0.9906898632239923
2011-07-12,-1,-0.0005827287169865375,-0.00043575252101151743,-0.010356863417322913,0.0038197580444644026,0.9864777916881216
2011-07-14,0,0.0,0.0,-0.011700861984346075,0.0062640878023982735,0.9836103047024615
2011-07-18,-1,-0.0006175752911161327,-0.00048356100033810956,-0.011328599191276078,0.0062640878023982735,0.9827523815436146
2011-07-20,-1,-0.0003976255360109069,-0.0002708518651057215,-0.011328599191276078,0.0036028103725693986,0.9831460647261102
2011-07-22,0,0.0,0.0,-0.014182515176005996,0.002077756482712035,0.9836492588644047
2011-07-26,0,0.0,0.0,-0.014182515176005996,0.0036028103725693986,0.9819138949292884
2011-07-28,0,0.0,0.0,-0.014182515176005996,0.008322790136342326,0.9809002196716246
2011-08-01,0,0.0,0.0,-0.012071504201349,0.018577553881532954,0.9814992096417784
2011-08-03,0,0.0,0.0,-0.00981752680830002,0.018577553881532954,0.9820072210394301
2011-08-05,0,0.0,0.0,-0.00981752680830002,0.018577553881532954,0.9825498087480498
2011-08-09,0,0.0,0.0,-0.00981752680830002,0.014328772025520641,0.9863428056889004
2011-08-11,0,0.0,0.0,-0.00981752680830002,0.009254823575620037,0.9884250570903592
2011-08-15,0,0.0,0.0,-0.007956080432992542,0.009254823575620037,0.98927316571477
2011-08-17,0,0.0,0.0,-0.007956080432992542,0.010378014183411777,0.9890752904574593
2011-08-19,0,0.0,0.0,-0.00564727854782174,0.010378014183411777,0.9893462561852923
2011-08-23,0,0.0,0.0,-0.007956080432992542,0.010332070777004109,0.9892814924019384
2011-08-25,-1,-0.0002744079700266593,-0.00024779998884764747,-0.007969942268770692,0.009405298380595055,0.9891180245891416
2011-08-29,1,0.0004168482230616512,0.00046351478356962536,-0.007969942268770692,0.009405298380595055,0.9891836473909641
2011-08-31,0,0.0,0.0,-0.01248151197082767,0.010332070777004109,0.9879065587743099
2011-09-02,0,0.0,0.0,-0.01573544505562446,0.010332070777004109,0.9874185621099126
2011-09-07,0,0.0,0.0,-0.010623382307946407,0.010332070777004109,0.9879639968755899
2011-09-09,0,0.0,0.0,-0.0054373314804669,0.013036752516590162,0.9879845041281828
2011-09-13,0,0.0,0.0,-0.008873707273257847,0.013036752516590162,0.9875123772347434
2011-09-15,1,0.0008786757199071723,0.0009226456209155643,-0.009326705219797112,0.013036752516590162,0.9875533979715012
2011-09-19,1,0.0012476381947603434,0.0013533897171818258,-0.009326705219797112,0.013036752516590162,0.9879930314118691
2011-09-21,0,0.0,0.0,-0.00884660183312537,0.008650783717164594,0.9893301050053376
2011-09-23,0,0.0,0.0,-0.0035084125153473644,0.01168263084579074,0.9901029034412848
2011-09-27,0,0.0,0.0,-0.00884660183312537,0.008668306207299418,0.9901418740302488
2011-09-29,0,0.0,0.0,-0.004080793733809002,0.008668306207299418,0.9905955474746038
2011-10-03,-1,-0.00019516307244601565,-0.00014924666081658089,-0.001970142920746271,0.008668306207299418,0.9916359653932985
2011-10-05,1,0.0006481796797305373,0.0008179751757487947,-0.0028151311123860846,0.008668306207299418,0.990353996232222
2011-10-07,1,0.0010665685516502254,0.0012808866890024742,-0.0028151311123860846,0.007014351563005992,0.9910577513859385
2011-10-11,1,0.0013633497638693847,0.0016105396283101997,-0.0025063677944568083,0.006019627620514166,0.9922854604722615
2011-10-13,0,0.0,0.0,-0.0025063677944568083,0.006019627620514166,0.9909763793954026
2011-10-17,0,0.0,0.0,-0.0028151311123860846,0.007014351563005992,0.9897097948130821
2011-10-19,1,0.0015336827922330437,0.001763013252817706,-0.005642820495930609,0.008668306207299418,0.9889740631824608
2011-10-21,1,0.0019450498931803109,0.002219825212814131,-0.008473630475941187,0.0057731739231290866,0.9890789354417402
2011-10-25,0,0.0,0.0,-0.010973128014192049,0.0057731739231290866,0.9887339381846795
2011-10-27,0,0.0,0.0,-0.011813937046382492,0.005716498139266867,0.9891871601238735
2011-10-31,0,0.0,0.0,-0.011813937046382492,0.00714349847951504,0.9880047825429951
2011-11-02,0,0.0,0.0,-0.010973128014192049,0.00714349847951504,0.9888147103018304
2011-11-04,0,0.0,0.0,-0.011813937046382492,0.011420738773851944,0.9877046245017775
2011-11-08,0,0.0,0.0,-0.011813937046382492,0.011420738773851944,0.9875498939266601
2011-11-10,1,0.0005080573493954263,0.000565961121218733,-0.011813937046382492,0.012378365319613812,0.9877068060895539
2011-11-14,1,0.0013362357177811738,0.0014198937661753638,-0.011114639172613945,0.011420738773851944,0.9890082080843822
2011-11-16,0,0.0,0.0,-0.008240531184685004,0.007270031977454592,0.989955723698955
2011-11-18,0,0.0,0.0,-0.007105134035773541,0.012378365319613812,0.9897786618623287
2011-11-22,1,0.000552874142139836,0.0006198415701775443,-0.004891693736073283,0.013645107435477793,0.9891175738314149
2011-11-25,1,1.228168805879817e-05,3.276746725615299e-05,-0.004243017708686988,0.013645107435477793,0.9893537792737533
2011-11-29,0,0.0,0.0,-0.004891693736073283,0.012074865737001172,0.99014805954858
2011-12-01,0,0.0,0.0,-0.005368333259219236,0.009777865656991788,0.9909641428233285
2011-12-05,0,0.0,0.0,-0.005368333259219236,0.007475667508569816,0.9916614184726106
2011-12-07,0,0.0,0.0,-0.0057568907162346816,0.007716859694770896,0.9914380338519286
2011-12-09,0,0.0,0.0,-0.005057409600034616,0.007034969465842863,0.9926869730420168
2011-12-13,0,0.0,0.0,-0.005057409600034616,0.007034969465842863,0.9928150104986035
2011-12-15,0,0.0,0.0,-0.0037642389282583,0.007034969465842863,0.9930962242037454
2011-12-19,0,0.0,0.0,-0.00562102346177235,0.006537518598994425,0.9933863731440048
2011-12-21,1,0.0011633006348813679,0.0014904414888001073,-0.006896400081036308,0.004962897551960756,0.9941140163771707
2011-12-23,0,0.0,0.0,-0.006896400081036308,0.004962897551960756,0.9935220998698052
2011-12-28,0,0.0,0.0,-0.007210804243676571,0.004658122515970059,0.9932778001866385
2011-12-30,1,0.0006983250624957436,0.0007410459407097704,-0.007086694141668065,0.0023832376690511737,0.9934877947111105
2012-01-04,1,0.0006992067615829183,0.0007094242714108444,-0.006042751715292522,0.004490873491630208,0.994074901581827
2012-01-06,1,0.0006801029051767184,0.0006963537178391536,-0.006042751715292522,0.003361974389930577,0.9942248702429192
2012-01-10,1,0.0005312450584237649,0.0005543420732286812,-0.006042751715292522,0.003368484737339245,0.9932671087068039
2012-01-12,0,0.0,0.0,-0.006042751715292522,0.003368484737339245,0.992903342357975
2012-01-17,1,0.0005819155936641431,0.0005857940213757567,-0.006285414357981551,0.003368484737339245,0.9925099310437345
2012-01-19,0,0.0,0.0,-0.005900348943208889,0.004677653558196063,0.9922018696788476
2012-01-23,0,0.0,0.0,-0.005739765363161105,0.004677653558196063,0.992817449947744
2012-01-25,0,0.0,0.0,-0.005005010193493529,0.004677653558196063,0.9937027171537041
2012-01-27,0,0.0,0.0,-0.005005010193493529,0.003368484737339245,0.9941178561169265
2012-01-31,0,0.0,0.0,-0.005005010193493529,0.003368484737339245,0.9941428793525258
2012-02-02,0,0.0,0.0,-0.005005010193493529,0.0036297645381195938,0.9940193248174495
2012-02-06,0,0.0,0.0,-0.005005010193493529,0.003319788704256008,0.994209262102392
2012-02-08,-1,-0.003769249274806694,-0.0037613162284953687,-0.005005010193493529,0.006111436255548373,0.9937319324633345
2012-02-10,0,0.0,0.0,-0.003594344524594375,0.007783505978969826,0.9941597499153875
2012-02-14,0,0.0,0.0,-0.0016698988046844523,0.007824215941753249,0.9931118549451279
2012-02-16,0,0.0,0.0,-0.002665632412709733,0.007783505978969826,0.9932400068394619
2012-02-21,0,0.0,0.0,-0.006880342313123704,0.007783505978969826,0.9931375958446998
2012-02-23,0,0.0,0.0,-0.006880342313123704,0.006714952730172133,0.9932021456549684
2012-02-27,0,0.0,0.0,-0.006490074306895322,0.00806222432501637,0.9925743271694412
2012-02-29,-1,-0.0003288396212981478,-0.00019596702151939062,-0.006490074306895322,0.00806222432501637,0.9925172625355368
2012-03-02,1,6.326570572464876e-05,0.00013034044575030448,-0.006490074306895322,0.00806222432501637,0.9927412934612896
2012-03-06,0,-3.486160293437356e-05,3.1272682334195976e-05,-0.0029559687396178143,0.00806222432501637,0.9930131217200713
2012-03-08,1,0.0004501222044936606,0.00046294305106858545,-0.006490074306895322,0.005975992856061882,0.9936416008498108
2012-03-12,1,0.0007089362870817908,0.0007247765474619761,-0.006898989155195551,0.003091599638276028,0.9933756537837057
2012-03-14,1,0.00020706566679780765,0.0002469316412556323,-0.006490074306895322,0.0036709092941955078,0.9944742409879268
2012-03-16,1,0.0006139532727710089,0.0006529504450823786,-0.005710538939083943,0.0036709092941955078,0.9942409898301268
2012-03-20,1,8.981215754272419e-05,0.00019759349723589577,-0.005083399022612954,0.005631105834412705,0.9942608023487167
2012-03-22,1,0.00022520898427257096,0.00032376435918489346,-0.005083399022612954,0.0066196494517226185,0.9936095644874924
2012-03-26,1,0.000663488645551909,0.0007174546944762926,-0.005083399022612954,0.005631105834412705,0.9938657162117278
2012-03-28,1,0.00024708890276192854,0.00027052685699947073,-0.004354102217997964,0.005631105834412705,0.9940022968658303
2012-03-30,1,0.00045169837373850667,0.00045674306174117485,-0.004354102217997964,0.005631105834412705,0.9939909851331036
2012-04-03,1,0.0006134631555955456,0.0006479244235384465,-0.005083399022612954,0.0066196494517226185,0.9933296576951722
2012-04-05,0,-7.046671838343497e-05,1.679257512811203e-05,-0.005083399022612954,0.0066196494517226185,0.9933321418762607
2012-04-10,-1,-0.0005819046736898364,-0.00044466462226728755,-0.004354102217997964,0.0066196494517226185,0.9937640454517651
2012-04-12,-1,-0.00028112345556585445,-0.00016417267289255328,-0.004354102217997964,0.006634265310379988,0.9936495178059672
2012-04-16,0,-3.1966827654657996e-05,5.468331510582536e-05,-0.0036080749975357816,0.005457963189338475,0.9944925697344389
2012-04-18,-1,-0.0005670000404767302,-0.0003753253065963561,-0.003824777693485348,0.004772537841065682,0.994675589241614
2012-04-20,-1,-0.0006910132401751724,-0.0004645748296127876,-0.003824777693485348,0.003999986957653591,0.9950138824580451
2012-04-24,1,0.00014836293910238535,0.00022858235279242642,-0.003386421024919635,0.004772537841065682,0.9946757803738326
2012-04-26,1,0.0009815604980689789,0.001050700642876804,-0.004594683526480184,0.004701216321516743,0.9941677929463166
2012-04-30,1,0.0007025495560007804,0.0007205634306366288,-0.004594683526480184,0.005575281292907421,0.9941799790300527
2012-05-02,1,0.0005836512093264244,0.0005842890409144394,-0.004594683526480184,0.005597002862540052,0.9939556290700826
2012-05-04,1,6.433283829910044e-05,0.00012968315349066496,-0.004594683526480184,0.007604027501807297,0.9937363079620004
2012-05-08,0,-9.700641294930405e-05,1.9225164766780074e-06,-0.0025945100070288944,0.00831499818016946,0.9933460305067019
2012-05-10,1,9.187785161120769e-05,0.0001838464827298293,-0.003320500793037099,0.007604027501807297,0.9936512718452465
2012-05-14,1,0.00026348814170440535,0.0003147324635075073,-0.003320500793037099,0.008005232393048262,0.9932007420325878
2012-05-16,1,0.0006941669644465378,0.0007671635347624032,-0.0008719886260471181,0.008909725019593862,0.9931440730352077
2012-05-18,1,0.00027517390228387406,0.00030602799929466324,0.0008374016527787861,0.00995702977399957,0.9930745613354929
2012-05-22,1,0.0008770382829968158,0.0009813551532393617,-0.003320500793037099,0.008909725019593862,0.9935052642031795
2012-05-24,1,0.0009841474686655468,0.0010918781740082628,-0.0038051197365431364,0.008005232393048262,0.9935929251542762
2012-05-29,1,0.000887647587950112,0.0009550940304772736,-0.005064038709464059,0.008005232393048262,0.9934986838998336
2012-05-31,1,0.000707042553876065,0.0007468205597290795,-0.0033628360525797514,0.007918169116166046,0.9938585523496462
2012-06-04,1,0.0008375166918758169,0.0009019705868874141,-0.0026079800579896987,0.007272134243665271,0.9944619542552826
2012-06-06,1,0.0012437397660690684,0.0013536320396309123,-0.0033628360525797514,0.00646783325154141,0.9947920289475727
2012-06-08,1,0.0012538334566578697,0.001358266801240145,-0.004573774294020479,0.005516520676686509,0.994965003604487
2012-06-12,1,0.0013390389017174536,0.0014300788597802895,-0.004573774294020479,0.0034603009927031488,0.995298533528139
2012-06-14,1,0.001757236040701935,0.0019095189058413705,-0.004573774294020479,0.0034603009927031488,0.9951694921701688
2012-06-18,1,0.0021321685446894236,0.002366328877336705,-0.004573774294020479,0.004438628643873921,0.9954512852115485
2012-06-20,1,0.0013074866478542417,0.0014074092166878741,-0.0015089054912924666,0.004530984634853107,0.9960185553935654
2012-06-22,1,0.0008334228562214145,0.0008576658621806562,-0.00048505089361992556,0.005381378152801238,0.9956318520984353
2012-06-26,1,0.0007293077846947291,0.0007529342862338797,-0.001244718881268645,0.005381378152801238,0.9951204135818259
2012-06-28,1,0.0010147734207412362,0.001054100536650616,-0.001244718881268645,0.005381378152801238,0.9943927624785742
2012-07-02,1,0.001348345494103972,0.0014825422617971127,-0.0033576933911682533,0.005820018453704958,0.9940525770182405
2012-07-05,1,0.0010112370759545078,0.0010765535266833136,-0.0032803336478150254,0.005820018453704958,0.9939709622764908
2012-07-09,1,0.000663176315179245,0.0006635136517011489,-0.003029291738022362,0.006567089232628303,0.9934506062040434
2012-07-11,1,0.0008485183698542352,0.0008895372831137136,-0.0034952160140695114,0.006567089232628303,0.9928703873277812
2012-07-13,1,0.0012746494451679764,0.001379239325285767,-0.0043620705180363786,0.005820018453704958,0.992894121540786
2012-07-17,1,0.0015891512486119364,0.0017477776526394321,-0.004766900113053177,0.005053737227943686,0.9926445918507335
2012-07-19,1,0.0013784696880201639,0.0014868690514191249,-0.004766900113053177,0.005053737227943686,0.9928802142362343
2012-07-23,1,0.0009205191765767468,0.0009536216800983544,-0.0043620705180363786,0.004078472678583181,0.9937406370945275
2012-07-25,1,0.0006040195549973644,0.0006059208395418029,-0.004766900113053177,0.004078472678583181,0.9936933024180712
2012-07-27,1,0.0011764431331314459,0.0012313614342133058,-0.005263635953274583,0.0027644899387471024,0.9940106645155063
2012-07-31,1,0.0015730215866186386,0.0017175374971733558,-0.005263635953274583,0.0027644899387471024,0.9943565104837103
2012-08-02,1,0.0015124160784113004,0.0016714583043264996,-0.005263635953274583,0.0027644899387471024,0.9943987930830457
2012-08-06,1,0.0012622705013108097,0.001357209172509887,-0.005263635953274583,0.0027644899387471024,0.9941731782554983
2012-08-08,1,0.0010044478390977838,0.0010708166172334697,-0.005064731615929681,0.00364909914545587,0.9941891449385096
2012-08-10,1,0.0007306868141424424,0.0007426437380769445,-0.004807225076264351,0.0027644899387471024,0.9946034139019734
2012-08-14,1,0.0001914327306927518,0.00025372603017763124,-0.004914126765390357,0.0027644899387471024,0.994797918378256
2012-08-16,1,0.000756806619284788,0.0007923086650753616,-0.0055843410206526025,0.002218759908986302,0.9944737414249862
2012-08-20,1,0.00043729091956580486,0.00046655378833311155,-0.0055843410206526025,0.0009262077771404003,0.9944340159342777
2012-08-22,0,-6.569664704470323e-05,1.5467743241896406e-05,-0.004800544087930457,0.002536167825887406,0.9951639193390411
2012-08-24,-1,-0.0003247668113386932,-0.00021613385555194214,-0.0037022252725588895,0.002578399326574019,0.9955095514717698
2012-08-28,-1,-0.0004248673714514396,-0.0002911361011377411,-0.0037022252725588895,0.0029543040814292796,0.995334119919688
2012-08-30,-1,-0.0010829147694111669,-0.0008395423946093596,-0.003512982331580466,0.003198281779326486,0.9952126276515583
2012-09-04,-1,-0.0004064828378531769,-0.0002619595098387133,-0.004232815264995186,0.003198281779326486,0.9957081275561571
2012-09-06,-1,-0.00020393754920694962,-9.295990846943124e-05,-0.003512982331580466,0.004031820591825928,0.9958278892509715
2012-09-10,-1,-0.0003966236779214344,-0.0002612926607272191,-0.0017689763807441018,0.004031820591825928,0.9958241538735801
2012-09-12,-1,-0.0005458985344458963,-0.0003982945195760552,-0.0013042225714427645,0.004031820591825928,0.9960500908517369
2012-09-14,-1,-0.0006884688855392681,-0.0005396404613725887,-0.0013042225714427645,0.004031820591825928,0.9959550002066206
2012-09-18,-1,-0.0006255401340282711,-0.0004966440326342981,0.00042396889020939474,0.0048609171154225216,0.9956788720509425
2012-09-20,-1,-0.0005926530940075542,-0.0004587009222185418,0.00042396889020939474,0.005107583081686465,0.9953635427914875
2012-09-24,-1,-0.00022515002580622816,-0.000131752785909054,-0.00041169565522635636,0.0048609171154225216,0.9958905594291448
2012-09-26,-1,-0.0004422473300036795,-0.0003066578851604978,-0.002605790267600205,0.0046756150034381674,0.9953465721229009
2012-09-28,-1,-0.00035180308876291497,-0.0002287614806003807,-0.00041169565522635636,0.005107583081686465,0.9951681922643707
2012-10-02,-1,-0.00028646028975826414,-0.00018458718092845684,-0.00041169565522635636,0.0060144548691592695,0.9950474895955567
2012-10-04,0,-2.3476954409671334e-05,5.2511315710418e-05,-0.00478358483867709,0.0032567421001214393,0.9948161743032019
2012-10-08,-1,-0.00014763691278816692,-4.5506056938292305e-05,-0.005701817327275403,0.004989041129896673,0.9935292467597061
2012-10-10,-1,-0.0006379352285314829,-0.0004509054980817934,-0.005701817327275403,0.004989041129896673,0.9934536795716833
2012-10-12,-1,-0.0004665548189044294,-0.00032794291097467315,-0.006070653702561467,0.0062512920167198905,0.9930366749130644
2012-10-16,-1,-9.587161714832992e-05,-6.612038062616776e-06,-0.006070653702561467,0.004989041129896673,0.9932524166238273
2012-10-18,1,0.00035612865554598933,0.000386665533908321,-0.006070653702561467,0.004989041129896673,0.9930946628849662
2012-10-22,1,0.00015731002638073974,0.00022107016603524154,-0.006070653702561467,0.004989041129896673,0.9931671816609315
2012-10-24,-1,-0.0002549648955443079,-0.00014376855582935347,-0.004794885352784767,0.006251025285873275,0.9937004911678678
2012-10-26,0,0.0,0.0,-0.004794885352784767,0.0055816278889774685,0.9938481041001868
2012-11-01,0,0.0,0.0,-0.0035557732903292805,0.0055816278889774685,0.9937563076726218
2012-11-05,0,0.0,0.0,-0.0024097202847319366,0.0055816278889774685,0.9946733832693215
2012-11-07,0,0.0,0.0,-0.0024097202847319366,0.005705845997935225,0.9948544084867456
2012-11-09,0,0.0,0.0,-0.0023917894107899304,0.005705845997935225,0.9948770238185981
2012-11-13,0,0.0,0.0,-0.002124661361543173,0.005252325689997224,0.9954103996694178
2012-11-15,0,0.0,0.0,-0.0023917894107899304,0.005252325689997224,0.9948634986838568
2012-11-19,-1,-0.00101480982543738,-0.0008456823820028835,-0.0023917894107899304,0.005252325689997224,0.9947210450079609
2012-11-21,-1,-0.0007330568907342977,-0.0006247600914047124,-0.0023917894107899304,0.005252325689997224,0.9945258167374471
2012-11-26,-1,-0.0005465368363265043,-0.00046600510705257516,-0.0025743566860866748,0.004749039507771701,0.9948750233948052
2012-11-28,-1,-0.0004992262504623455,-0.0004125035866608078,-0.003990737880194172,0.004331051081612401,0.9945309419996506
2012-11-30,1,7.777948430090976e-05,0.00010161459843922974,-0.006107037378692032,0.0027776234388463567,0.9942228845266052
2012-12-04,0,0.0,0.0,-0.006107037378692032,0.004331051081612401,0.9930862908723387
2012-12-06,0,0.0,0.0,-0.00647165285388894,0.003624478126108341,0.9935426806304654
2012-12-10,1,0.0007402262859369055,0.000853548129432332,-0.00647165285388894,0.003624478126108341,0.9934647336158031
2012-12-12,1,0.0009563821366326303,0.0011014801704058346,-0.00647165285388894,0.0037133526838277744,0.9932136222625896
2012-12-14,1,0.00020626400621967213,0.00023141396557847078,-0.003472799469509826,0.0037133526838277744,0.993945603749667
2012-12-18,1,0.0004215196448294385,0.0004483268411188796,-0.004257689858319513,0.003670303658995728,0.9940349977295823
2012-12-20,1,0.0008909070308055888,0.001039336414073674,-0.003472799469509826,0.005848486215070557,0.993530714874259
2012-12-24,1,0.0008078006531598049,0.0009505098790023747,-0.00419030262093094,0.005848486215070557,0.9934486228140503
2012-12-27,1,0.0003203541743362724,0.00039060082780481564,-0.004108650459570283,0.005848486215070557,0.9937336703796232
2012-12-31,1,0.0005327949380348756,0.0006468713952180659,-0.002814874614350291,0.0067513931269029765,0.9942017651477374
2013-01-03,1,0.0009677758195322854,0.0011146989687791133,-0.002814874614350291,0.0067513931269029765,0.9949428952805373
2013-01-07,1,0.0006116896266507319,0.0007055702768124159,-0.002814874614350291,0.0067513931269029765,0.9951498807468897
2013-01-09,1,0.0003803450825227776,0.00042262407465552864,-0.001320260602155775,0.0067513931269029765,0.9951474415439031
2013-01-11,1,0.0008449746347043506,0.0009634168063817903,-0.001320260602155775,0.004880099069304691,0.9956934993982386
2013-01-15,0,0.0,0.0,-0.0011363991968285656,0.004880099069304691,0.9953041010435247
2013-01-17,0,0.0,0.0,-0.0007025395600072,0.004560972865809107,0.9957049604046535
2013-01-22,0,0.0,0.0,-0.0007025395600072,0.003710591019388992,0.9964695578279891
2013-01-24,0,0.0,0.0,-0.0005021776446866968,0.004280651056736353,0.9962147523925962
2013-01-28,0,0.0,0.0,-0.0005021776446866968,0.005402994883672966,0.9960890992808331
2013-01-30,1,0.0007166422395477047,0.0008118252568396936,-0.0005021776446866968,0.005563757969983511,0.9963957568220193
2013-02-01,1,0.0018020102477065984,0.0020049416289235787,-0.0005021776446866968,0.005563757969983511,0.9965660303662298
2013-02-05,1,0.0016123962019412381,0.0017783499489765096,-0.0005021776446866968,0.006641223999682545,0.9961186989239053
2013-02-07,0,0.0,0.0,-0.0008921239194706297,0.006641223999682545,0.9953113140252526
2013-02-11,0,0.0,0.0,-0.0014375182519701423,0.006641223999682545,0.9953553234747959
2013-02-13,0,0.0,0.0,-0.002077972005141608,0.006641223999682545,0.9949981361146587
2013-02-15,0,0.0,0.0,-0.0040052927886394035,0.006641223999682545,0.994843835671775
2013-02-20,0,0.0,0.0,-0.0040052927886394035,0.0068338621756487295,0.9947842128763152
2013-02-22,0,0.0,0.0,-0.0041132114971690215,0.006623507172854321,0.9951494005972963
2013-02-26,0,0.0,0.0,-0.0039540408583941715,0.006623507172854321,0.9949677088737648
2013-02-28,1,0.001167726427896387,0.0012035470328582638,-0.0039540408583941715,0.004227618028089003,0.9946200711312939
2013-03-04,1,0.002713144972285502,0.0030309344906763284,-0.003468992143435935,0.0027707489128323574,0.9949581457920472
2013-03-06,0,0.0,0.0,-0.0019242300307399573,0.0027707489128323574,0.9956991391023206
2013-03-08,0,0.0,0.0,-0.0013760318429067262,0.0040856833020380895,0.9956021414326578
2013-03-12,0,0.0,0.0,-0.0019242300307399573,0.006197702994701579,0.9946464172221487
2013-03-14,0,0.0,0.0,-0.0012725120717750993,0.007364037419558014,0.9943816814138566
2013-03-18,1,0.002007983673499251,0.002275599674991552,-0.00041151779897259926,0.009161753478667604,0.994492958731422
2013-03-20,1,0.0020909464025624823,0.0023598496386698625,0.0003901208998924356,0.009161753478667604,0.9945504174198929
2013-03-22,0,0.0,0.0,0.0006908694180572097,0.009161753478667604,0.9935019150727982
2013-03-26,0,0.0,0.0,0.0003901208998924356,0.008894616236180784,0.9940848101761599
2013-03-28,0,0.0,0.0,-0.0004181392393719951,0.00841519385591343,0.9949077577895147
2013-04-02,0,0.0,0.0,-0.001035730470579958,0.008894616236180784,0.9945244343488683
2013-04-04,0,0.0,0.0,-0.001035730470579958,0.008894616236180784,0.9945533729827263
2013-04-08,1,0.002210406864962316,0.002389920281725582,-0.0013733883705578684,0.00841519385591343,0.9941516971168144
2013-04-10,1,0.0017915267452533756,0.0018917560711457508,-0.0013733883705578684,0.007524602741572711,0.9946511786590537
2013-04-12,1,0.002085813577791018,0.002206559208237096,-0.0025530649642902907,0.004098873565259612,0.9940755121924043
2013-04-16,1,0.002551437236300424,0.0027484130987532125,-0.0051259654977277615,0.004098873565259612,0.9937543033924704
2013-04-18,1,0.0025982991555020276,0.0027874058805675973,-0.005261114034948224,0.004098873565259612,0.9933326607711347
2013-04-22,1,0.002888505896920846,0.0031174908375852994,-0.005261114034948224,0.004098873565259612,0.9928568635482617
2013-04-24,0,0.0,0.0,-0.005930886253424968,0.004098873565259612,0.9931025056356333
2013-04-26,0,0.0,0.0,-0.00815528790667166,0.004098873565259612,0.9919679847574938
2013-04-30,0,0.0,0.0,-0.014526593669886394,0.0017212855577932418,0.9910294192991357
2013-05-02,0,0.0,0.0,-0.014526593669886394,0.004098873565259612,0.9898744140677999
2013-05-06,1,0.0021540412105999123,0.0022749032804479366,-0.012967571086076345,0.004071106096042106,0.9897209187279897
2013-05-08,1,0.0018772971938822414,0.001985223063334358,-0.012967571086076345,0.0047632213865476496,0.9894513910156739
2013-05-10,1,0.0006818799199545624,0.0007624962021505557,-0.00948513896241183,0.010138494535161701,0.99007682558702
2013-05-14,0,0.0,0.0,-0.010389543881881663,0.0047632213865476496,0.9905423795792411
2013-05-16,0,0.0,0.0,-0.010389543881881663,0.00485175249066824,0.9906480004110064
2013-05-20,0,0.0,0.0,-0.010389543881881663,0.004265312490093619,0.9907892109689779
2013-05-22,0,0.0,0.0,-0.012967571086076345,0.004265312490093619,0.9890020084194582
2013-05-24,-1,-0.001560744950790328,-0.001183938089438386,-0.008797098701200145,0.008640084974506934,0.99009624168622
2013-05-29,0,0.0,0.0,-0.006250254170390175,0.010584425272263673,0.9895200649048231
2013-05-31,0,0.0,0.0,-0.005619292726100617,0.010416743710771698,0.9905539465850295
2013-06-04,0,0.0,0.0,-0.006250254170390175,0.010416743710771698,0.9899237841650594
2013-06-06,0,0.0,0.0,-0.005619292726100617,0.008640084974506934,0.9907160282034662
2013-06-10,0,0.0,0.0,-0.003293579013936512,0.008472956926775422,0.9907480809667986
2013-06-12,0,0.0,0.0,-0.0021134689131867396,0.010416743710771698,0.9899193896389922
2013-06-14,0,0.0,0.0,-0.001742972160289116,0.010619788788047773,0.989792631347867
2013-06-18,-1,-0.0015527131529238247,-0.0011568542322670271,-0.0023747880548894516,0.010619788788047773,0.9899029825515242
2013-06-20,-1,-0.004355166056559242,-0.003703053027452969,-0.001742972160289116,0.011276100947412574,0.9899482787589976
2013-06-24,-1,-0.0037937594759145906,-0.0032352870874061274,1.4678704123932294e-05,0.011276100947412574,0.9903301012993878
2013-06-26,-1,-0.002072243242728291,-0.0017117736971256853,-0.001742972160289116,0.007175957541320936,0.9921630610417826
2013-06-28,0,0.0,0.0,-0.001742972160289116,0.00724381456017878,0.9928547508880552
2013-07-02,0,0.0,0.0,-0.001742972160289116,0.009125367132088794,0.9930657939816799
2013-07-05,-1,-0.002664698536573972,-0.0022409781677305302,0.0006675731157866896,0.010066388441230544,0.9912826692524167
2013-07-09,-1,-0.002028576566006194,-0.001677935497403173,-0.003607434653267689,0.009460862788014585,0.9921761809477292
2013-07-11,-1,-0.0009175657341761918,-0.000694943650901147,-0.003607434653267689,0.006275953625635768,0.9936434202832664
2013-07-15,-1,-0.00019311857791215963,-6.500817870788088e-05,-0.0039753113880470975,0.0055416027631747244,0.9941651027104554
2013-07-17,-1,-0.00013791293004626935,-3.750367565493433e-05,-0.005567782349195125,0.0055416027631747244,0.9936093111902093
2013-07-19,1,0.0002308845270645865,0.0002862120503961767,-0.007608836873249452,0.0051589610868637515,0.9931270068074424
2013-07-23,1,0.0008012864914633998,0.0008463368664693667,-0.007608836873249452,0.0055416027631747244,0.9927404243128322
2013-07-25,1,0.00036256558103422455,0.00036540836259301346,-0.007608836873249452,0.0032420453422054357,0.9932121169865011
2013-07-29,1,0.000544541473454475,0.0005540318933059789,-0.007608836873249452,0.0032420453422054357,0.9929519746602967
2013-07-31,0,0.0,0.0,-0.007608836873249452,0.0022812817878943258,0.9937262722916207
2013-08-02,0,0.0,0.0,-0.007608836873249452,0.0016776071956613797,0.9940664923338498
2013-08-06,1,0.00026639985203503655,0.00031640634636891476,-0.007608836873249452,0.0016776071956613797,0.9937664037913924
2013-08-08,0,0.0,0.0,-0.00871368302636131,0.0016776071956613797,0.9932561251564771
2013-08-12,0,0.0,0.0,-0.00871368302636131,0.0033906118060878674,0.9928260463983043
2013-08-14,-1,-0.0009449357377441201,-0.0007418061379845794,-0.011438356249399505,0.0033906118060878674,0.9927986936524282
2013-08-16,0,0.0,0.0,-0.005374947029862478,0.0033906118060878674,0.9937199645394691
2013-08-20,0,0.0,0.0,-0.004381833452086039,0.005208436179451911,0.9926428411815393
2013-08-22,0,0.0,0.0,-0.004450626037448035,0.005208436179451911,0.9926048325206348
2013-08-26,-1,-0.0013648626608511012,-0.0011917894399465867,-0.00474237690578992,0.005090524604588069,0.992533484601487
2013-08-28,0,0.0,0.0,-0.007004187722330399,0.005090524604588069,0.9922921728887671
2013-08-30,0,0.0,0.0,-0.007978483660093813,0.005090524604588069,0.9921777501261537
2013-09-04,0,0.0,0.0,-0.006537747635604678,0.005090524604588069,0.99275787940397
2013-09-06,0,0.0,0.0,-0.006537747635604678,0.003330741215454238,0.9928067892661093
2013-09-10,0,0.0,0.0,-0.0077087268359239,0.002423347437078464,0.992846125778051
2013-09-12,0,0.0,0.0,-0.006537747635604678,0.005090524604588069,0.9927268635932622
2013-09-16,0,-4.229117382665884e-05,1.719414101425222e-05,-0.006537747635604678,0.005090524604588069,0.992442368648587
2013-09-18,1,0.0013371824521170648,0.0015670294025740905,-0.0077087268359239,0.0050581255980375215,0.9929691572886623
2013-09-20,1,0.0009963275828292811,0.0012041659060466703,-0.006537747635604678,0.006780924258481113,0.9931573028650665
2013-09-24,1,0.0009102420594545088,0.0010924877886166248,-0.006006887104216618,0.00836868275908626,0.9930691913453699
2013-09-26,1,0.0003963167647802761,0.00048471048969219035,-0.006006887104216618,0.008390661449970376,0.9924844024194946
2013-09-30,1,0.00022246131003619908,0.00029896214670023817,-0.005191921970992128,0.008508706361696407,0.9914762375402416
2013-10-02,1,0.00011427611127532012,0.00013991904618418258,-0.005740845790273445,0.008508706361696407,0.9912428385944402
2013-10-04,-1,-0.0004517656137907346,-0.00042106039454063563,-0.005191921970992128,0.008508706361696407,0.9916904850742362
2013-10-08,-1,-0.000236235518309603,-0.00022813724756150697,-0.004909516417550892,0.008884230615961122,0.9918538171970527
2013-10-10,1,0.0008419783959590112,0.00101131782763958,-0.005191921970992128,0.008446911415116484,0.9922875884200982
2013-10-14,1,0.00045349139904018505,0.0005271718445432317,-0.005013931854275558,0.008446911415116484,0.9924997988578159
2013-10-16,-1,-0.0001703749459005647,-0.00011370719500412193,-0.005013931854275558,0.006792378936538044,0.9927673909833539
2013-10-18,-1,-0.00028421729028561577,-0.00015964648463056625,-0.005013931854275558,0.006792378936538044,0.9925522018557746
2013-10-22,0,-1.2644596428982289e-05,7.062449130400996e-05,-0.005249609363382877,0.005228668112185145,0.9927292315727212
2013-10-24,1,4.0290834182358343e-05,0.00011815039775086377,-0.0033758361639220002,0.004483517813087806,0.9936910057384701
2013-10-28,1,0.0014033205588752907,0.0015070896337087583,-0.005249609363382877,0.002720643946057398,0.9942253928110164
2013-10-30,1,0.001205569578576566,0.0012893143570182842,-0.005727884655317021,0.002720643946057398,0.9936674927247995
2013-11-01,1,0.0009858883806817603,0.0010081560399681582,-0.005727884655317021,0.0009947957641450432,0.9938935371621113
2013-11-05,1,0.0012039484962637545,0.001273027396942427,-0.005104118958860325,0.0007115559901135948,0.9944125007245496
2013-11-07,1,0.0011198617462628087,0.0012005601715505572,-0.004697240220189358,0.0007115559901135948,0.9941032641680332
2013-11-11,-1,-0.00019272044605329365,-9.121612138333034e-06,-0.007140343269319079,0.0007115559901135948,0.9941311750747854
2013-11-13,-1,-0.0006767178772097671,-0.00044389625183182345,-0.008465026115397779,0.0007115559901135948,0.9940797582361911
2013-11-15,1,0.0009153637640320503,0.0009398107114460812,-0.008465026115397779,0.00014983432594933306,0.9937509530887738
2013-11-19,1,0.0006055989960206565,0.0006075695607719253,-0.00894667789570619,0.0007115559901135948,0.9932583585384116
2013-11-21,1,0.00022720834687640023,0.00030050893280364976,-0.00894667789570619,0.0007115559901135948,0.9923786352074376
2013-11-25,-1,-0.0004377034308111799,-0.0002757708258417342,-0.008430083672896724,0.0012745108615956234,0.992994468222369
2013-11-27,-1,-0.0007545203657094286,-0.0005871668179049626,-0.007927444621141845,0.0022208117625137536,0.9933364183554886
2013-12-02,-1,-0.00010951988900517375,-7.722311575133884e-05,-0.007927444621141845,0.0022208117625137536,0.9933262646963766
2013-12-04,1,0.0002579235817184454,0.0003055547441990642,-0.008430083672896724,0.0022208117625137536,0.9923689674736165
2013-12-06,1,0.0006789482802635155,0.0007742245521132126,-0.008430083672896724,0.0022208117625137536,0.9931026315100159
2013-12-10,1,0.0003520345974282937,0.00042736979246908453,-0.008599595563007736,0.004453191664533139,0.9929817728920145
2013-12-12,-1,-0.0001006424241265877,-6.655104776895278e-05,-0.007927444621141845,0.008785115434841435,0.9927334578966086
2013-12-16,1,0.00014971345610263363,0.00019434847871505707,-0.007927444621141845,0.004453191664533139,0.9928056776120859
2013-12-18,1,0.00045247811172318867,0.0005538846250932858,-0.007616854711827651,0.003180922831119052,0.9938425773587816
2013-12-20,1,0.0007649711187834617,0.0009141773217897168,-0.0033830950434782844,0.0037167857738331987,0.9943580719998137
2013-12-24,1,0.0011653678199267017,0.0014003972734643205,-0.007616854711827651,0.0037167857738331987,0.9933599271524383
2013-12-27,1,0.0007902730020808183,0.0009490137517579474,-0.006487528108520569,0.006533015900871988,0.9933262732841863
2013-12-31,1,0.0009299588668778542,0.001120427653558657,-0.006487528108520569,0.007799148499720399,0.9926945537601856
2014-01-03,1,0.00013564252777320426,0.00020545273453905608,-0.004281261302044351,0.008785115434841435,0.9926411899378675
2014-01-07,1,0.0002630766249924969,0.0003178742350732506,-0.006474281747622436,0.0078405727338362,0.9924083662901679
2014-01-09,-1,-0.00025456778035970646,-0.0001969199107766714,-0.006091046849078319,0.007589351549624234,0.992705229351049
2014-01-13,1,7.69755733552222e-06,3.379591043424077e-05,-0.004267855383991707,0.007589351549624234,0.9930409430763405
2014-01-15,-1,-0.000458237701152208,-0.0003601212664305198,-0.003086902996817663,0.008359439403099644,0.9928320581328557
2014-01-17,-1,-0.0003435392207021072,-0.00026009562673367435,-0.003086902996817663,0.010178531560112681,0.9912433471827661
2014-01-22,1,0.0003791197736663665,0.0003883729374941557,-0.004267855383991707,0.010301439280941353,0.9910978995930589
2014-01-24,-1,-0.0006921783379380616,-0.000561396385187325,-0.003086902996817663,0.010301439280941353,0.9916557117848281
2014-01-28,-1,-0.0004927560108089592,-0.0003536068741275417,-0.0038621951344649987,0.010301439280941353,0.9922368829705883
2014-01-30,0,-3.611964949458088e-05,5.707304536452126e-05,-0.003945505611232568,0.008359439403099644,0.9924039075056533
2014-02-03,1,0.0006954978726269109,0.0007252363189581328,-0.004828307451147313,0.007938239048139045,0.992253459259493
2014-02-05,-1,-0.00020038138084173143,-8.985611785667822e-05,-0.004828307451147313,0.007938239048139045,0.9921893980934336
2014-02-07,1,0.00031844990189727144,0.00036374529583772005,-0.004828307451147313,0.007484282708504982,0.9926949227485554
2014-02-11,1,0.001768639171983537,0.0019947550401159214,-0.005988819290093214,0.007484282708504982,0.9920196326871471
2014-02-13,1,0.0016638140718044795,0.0018412127003204644,-0.005988819290093214,0.00590257534632709,0.9925016986710173
2014-02-18,1,0.003097829757237748,0.0034612656376239483,-0.005988819290093214,0.0038828990401117438,0.9933769743658868
2014-02-20,1,0.0029278990579281604,0.0032434441001264773,-0.005988819290093214,0.0032288657574785578,0.9934453055738611
2014-02-24,1,0.0023626867688580355,0.002579968037224124,-0.00486889673540781,0.0049224470500597445,0.9936686308453602
2014-02-26,1,0.0021593732254213535,0.0023555329250756355,-0.004359402413721534,0.0049224470500597445,0.9940569694794319
2014-02-28,1,0.0018062311632552476,0.0019105917592337495,-0.0034031570190295713,0.0049224470500597445,0.9941600913803903
2014-03-04,1,0.0015473103721084839,0.0016135589727161736,-0.0008383884713211826,0.0049224470500597445,0.9943639766230206
2014-03-06,1,0.0013037043156358152,0.001384492259074011,0.0003554852559487901,0.0049224470500597445,0.9949878120277006
2014-03-10,1,0.0012264711368476827,0.001291775544677512,0.0004682545449103374,0.0049224470500597445,0.9947083480601332
2014-03-12,1,0.0015608206767631434,0.0016586987799948258,0.0012035793913605457,0.0049224470500597445,0.9954819150265038
2014-03-14,1,0.0019372219920667686,0.0021137885230052386,-0.0013328906726930803,0.0049224470500597445,0.9952873596631843
2014-03-18,1,0.001950486285672127,0.002133284298443691,0.0005989975897388513,0.008825966933337596,0.994542061218722
2014-03-20,1,0.0014494123544539837,0.0015703217712318737,0.0005989975897388513,0.008825966933337596,0.9947354871860954
2014-03-24,1,0.0024833488249234505,0.0028098867334641815,-0.0013328906726930803,0.005522681878095843,0.9951295574414069
2014-03-26,1,0.0024591308257780687,0.0027694908884799492,-0.0013328906726930803,0.006027668179172758,0.9950625347355854
2014-03-28,1,0.0027603101608755457,0.003112083239368725,-0.0023390204795398486,0.006027668179172758,0.9944608069394603
2014-04-01,1,0.0033875226183564507,0.0038245245941344094,-0.0041826139393965015,0.005336367794180768,0.994542507513267
2014-04-03,1,0.0031886475428480466,0.0035839575990039836,-0.004448948641506154,0.005336367794180768,0.9937714354964523
2014-04-07,1,0.002893792384544027,0.003245104794728091,-0.0041826139393965015,0.006742565958093435,0.9936377690485257
2014-04-09,1,0.003037561251329068,0.0033769348518736687,-0.004448948641506154,0.006742565958093435,0.9923410536737368
2014-04-11,1,0.003149438662112275,0.0035398877920130565,-0.00612087587955462,0.006742565958093435,0.991366585474324
2014-04-15,1,0.0037586678801096573,0.004237753507202834,-0.00612087587955462,0.004593082233463627,0.9919460499241745
2014-04-17,1,0.003575124044056448,0.004028801521592431,-0.00497611489002547,0.005336367794180768,0.9919901571123917
2014-04-22,1,0.003191271015583163,0.003565943671947967,-0.005661019386882339,0.005336367794180768,0.990944108962436
2014-04-24,1,0.002990173031861207,0.0032929497173758244,-0.005661019386882339,0.006483080360866504,0.9905029247774718
2014-04-28,1,0.003177568965170339,0.003493484593641978,-0.0053893458496075955,0.005519203626853304,0.9910081213526332
2014-04-30,1,0.0030712308884960028,0.003367965202634404,-0.0050752305644509435,0.0029148162706988216,0.9912852788075953
2014-05-02,1,0.002632053229214693,0.0028891595735891827,-0.0036794879533827715,0.005951018414618364,0.9920453809722879
2014-05-06,1,0.0025545614623958715,0.00276354594279231,-0.0036794879533827715,0.0029148162706988216,0.9925017602316035
2014-05-08,1,0.0020974161879855186,0.0021973512144887403,-0.0036744695273875304,0.0026289410932134024,0.9941211805002582
2014-05-12,1,0.001224871934364889,0.0012251781532237806,-0.0036744695273875304,0.0026289410932134024,0.99497869460624
2014-05-14,1,0.001172116654868414,0.0011825883376844152,-0.0039245151375533124,0.0018466071200262085,0.9943764595846984
2014-05-16,1,0.0012890772321572535,0.0013027258261516087,-0.0036744695273875304,0.003981627561078442,0.9943160957291894
2014-05-20,1,0.00012780101795972348,0.0002534848469661215,-0.003624837424191167,0.004484224112314332,0.9945202532548195
2014-05-22,1,0.00023588320948175865,0.00036719717375909055,-0.003624837424191167,0.004484224112314332,0.994555346314724
2014-05-27,1,0.00014605996321490658,0.00029232388136322555,-0.002476027390448617,0.003981627561078442,0.9947498992392922
2014-05-29,-1,-0.0004668740100017511,-0.00020275622642267055,-0.003751766321894478,0.004210409487384749,0.9944225882717521
2014-06-02,1,1.3307092768634083e-05,0.0002082290321035069,-0.003751766321894478,0.003981627561078442,0.9948575855230456
2014-06-04,0,-0.00020678123567659267,2.3340151140116864e-05,-0.004329974781165767,0.003981627561078442,0.9935233363932422
2014-06-06,-1,-0.0002542692393195516,-1.935952152434697e-05,-0.006053974155018657,0.0038730830820579132,0.9933686482275813
2014-06-10,-1,-0.0012389615753415335,-0.0008722281719612869,-0.004693049655665974,0.003993688113634279,0.9933097579249187
2014-06-12,-1,-0.0018753740475181506,-0.0014343560243114354,-0.004356410935258322,0.0050748678593015035,0.9928878145622625
2014-06-16,-1,-0.0010349246249254788,-0.0007171806816878163,-0.006099497670422983,0.0050748678593015035,0.9930176428849009
2014-06-18,-1,-0.0008273210271747763,-0.0004831593849781372,-0.006099497670422983,0.003957384092530573,0.9941568034400533
2014-06-20,0,-0.0002541926988295476,4.693968030870365e-07,-0.006848806597170373,0.003957384092530573,0.993790101960533
2014-06-24,0,-7.835159426284862e-05,0.0001374062496064377,-0.006848806597170373,0.004762014121268623,0.9936025863604635
2014-06-26,1,7.94420599969307e-06,0.00019321827871952174,-0.007312705499189807,0.0066211367879505986,0.9927370337780556
2014-06-30,-1,-0.00047224397321945816,-0.00019725369051989071,-0.007312705499189807,0.0078581196487708,0.9919556687925578
2014-07-02,-1,-0.0015623697262164787,-0.0011793089476458153,-0.007312705499189807,0.0078581196487708,0.9915705648246801
2014-07-07,-1,-0.0014204051188033983,-0.00108511701406017,-0.007419539513908483,0.0078581196487708,0.9915082003895048
2014-07-09,-1,-0.0013695390834170301,-0.0010498197410496336,-0.008091497952353428,0.006919558434672158,0.9912990938076739
2014-07-11,-1,-0.0002587447576965246,-0.00015004187570809974,-0.008091497952353428,0.008817880822229836,0.990247258782773
2014-07-15,-1,-0.0001706351437733257,-7.623332854007447e-05,-0.008091497952353428,0.006984054667966518,0.990793647765762
2014-07-17,-1,-0.0005344403858219279,-0.000382121539093435,-0.008091497952353428,0.009706043164014824,0.9901173948622392
2014-07-21,-1,-0.0006940297006246332,-0.0005108201504371452,-0.005689674594996722,0.0092454213694293,0.9906933583805597
2014-07-23,-1,-0.00033443730576890833,-0.00019698279044309195,-0.005689674594996722,0.010089444414440294,0.9904140760683967
2014-07-25,-1,-0.0008725545781409178,-0.0006587339433181395,-0.005122390111812566,0.010089444414440294,0.9914131624559913
2014-07-29,-1,-0.0010140683553239022,-0.000747690500563797,-0.006257152259430296,0.007949211513733631,0.9912438235607359
2014-07-31,-1,-0.0027366552135293302,-0.0022668896793192014,-0.0017073290890882943,0.010089444414440294,0.9911618250355341
2014-08-04,-1,-0.0027141115306601304,-0.0022670306901888104,-0.0017073290890882943,0.010089444414440294,0.9910203970137703
2014-08-06,-1,-0.003427442989774078,-0.00291137133908464,-0.0008904328677581512,0.010089444414440294,0.9910614095009608
2014-08-08,-1,-0.0018042983655244523,-0.0014808377410521158,-0.0017073290890882943,0.008580513334682389,0.9929825211093073
2014-08-12,-1,-0.0024367253840387646,-0.002007706481813063,-0.005037821038779053,0.008580513334682389,0.992363823803273
2014-08-14,-1,-0.0011967843404330008,-0.0009438598140238434,-0.006033168612064253,0.006167517068208444,0.9928496367083725
2014-08-18,-1,-0.0009202629390321023,-0.0007087971561003841,-0.006033168612064253,0.007493523654834946,0.992272784953528
2014-08-20,0,-7.775366030874547e-05,1.1574262443397345e-05,-0.007145632267455041,0.006485339500861526,0.9922834895484118
2014-08-22,1,6.68814355825376e-05,0.00010349818316462255,-0.007145632267455041,0.007266330106351499,0.9918726800667954
2014-08-26,-1,-0.00027275530567646815,-0.0001979618059343725,-0.006680637563793153,0.006479752964805795,0.9928719785972908
2014-08-28,1,0.00046809437652182463,0.0004685649450237295,-0.006680637563793153,0.004191039646415159,0.9934698521593915
2014-09-02,1,0.0004417701219589735,0.00046730016252033847,-0.005400148181287078,0.00465489911236792,0.9938775148296227
2014-09-04,1,0.0004524981728317991,0.0004649615933083197,-0.005400148181287078,0.0035264531400924846,0.9939318615884533
2014-09-08,1,0.0012967313420821419,0.0014809925874793954,-0.005400148181287078,0.0035264531400924846,0.9943785879640614
2014-09-10,1,0.0006656446660476246,0.0007591187925734043,-0.0019964688749795696,0.006254412819931157,0.9938829137877728
2014-09-12,-1,-0.00023202190770873988,-0.00020001744254234671,-0.0019964688749795696,0.006584723135671853,0.9935341146759137
2014-09-16,1,0.0006643640275224657,0.000766799604318254,-0.0019964688749795696,0.006584723135671853,0.9941397485875197
2014-09-18,1,0.00034580530245001043,0.0004354093972990572,-0.00224261047032852,0.006584723135671853,0.9931635815385238
2014-09-22,1,0.00042539854407098,0.0005298422525583448,-0.0005246860895313944,0.006702366827667087,0.9927863099984298
2014-09-24,1,0.00011679296276708484,0.00014619023068606645,-0.0001634099815304964,0.007765204186430764,0.9920014451139662
2014-09-26,1,0.00021675879065082308,0.00028617852837807653,0.0009427522400245243,0.007765204186430764,0.9921904338754776
2014-09-30,1,0.0006406175888288089,0.00077499941409413,0.0009427522400245243,0.007765204186430764,0.992219178374679
2014-10-02,1,0.00018062527451110426,0.0001909685250551597,0.0009104962265538059,0.008661171287900834,0.9901640308576563
2014-10-06,1,0.0005166218827685043,0.0005759226600188882,0.001359699283288853,0.008603332682038823,0.9903248015330246
2014-10-08,1,0.0017572597583996993,0.001988652225717942,-0.00026238840328424466,0.008603332682038823,0.9910375608692842
2014-10-10,1,0.0009481526836516008,0.0010083594894894597,-0.00026238840328424466,0.007753701662234028,0.9906796642536074
2014-10-14,1,0.0014512690762481868,0.0015973376569640458,-0.00687420154306454,0.007753701662234028,0.9903579844252239
2014-10-16,1,0.00010863863586618147,0.00013438849690666066,-0.00687420154306454,0.007753701662234028,0.9896197908367135
2014-10-20,1,0.0010232709126637052,0.0011158622836753792,-0.00687420154306454,0.007753701662234028,0.9903309186011016
2014-10-22,1,0.0018133917010207056,0.002033354078451002,-0.00687420154306454,0.007424825561262072,0.9907863996327068
2014-10-24,1,0.0019099522219709962,0.0021411631152903716,-0.008424555639265764,0.007424825561262072,0.9903030194104103
2014-10-28,1,0.0023281214652111073,0.0026121465247318154,-0.008424555639265764,0.0067967551166249465,0.9902450560023175
2014-10-30,1,0.0023371607457686626,0.0025825525205156173,-0.005468501240028595,0.0067967551166249465,0.9917113280542251
2014-11-03,1,0.0023031822965299776,0.0025106374150384095,-0.005468501240028595,0.0067967551166249465,0.991592055727253
2014-11-05,1,0.0031359795204423486,0.003481905448480823,-0.004515177878407007,0.005412079345538957,0.9926767756752083
2014-11-07,1,0.003020752676630713,0.0033984037233841594,-0.004515177878407007,0.005412079345538957,0.9931730311984028
2014-11-11,1,0.0028952817347912283,0.003276640614238947,-0.004515177878407007,0.00566612229677899,0.9929973938418675
2014-11-13,1,0.0014811996015384596,0.0016755300982647947,-0.0022240091213008924,0.007727122291846472,0.9942340578909912
2014-11-17,1,0.002086476388573435,0.002359796945557162,-0.003828978120393447,0.0067494087284673335,0.9944431875054671
2014-11-19,1,0.002110663996300999,0.0023884073422790093,-0.002372368515894936,0.008549146994118663,0.9930670704137965
2014-11-21,1,0.0011822419097265596,0.0012681955741636903,-0.0015505448025751418,0.008549146994118663,0.9930184403326527
2014-11-25,1,0.0008938355614107584,0.000928849136245597,0.0018110892595991925,0.009001642663706896,0.992253132988739
2014-11-28,1,0.0013272878959756144,0.001416834612660742,0.0018110892595991925,0.009268518611471734,0.9919172546032423
2014-12-02,1,0.0017348250358085117,0.0018909151956899117,-0.005171666792378086,0.009268518611471734,0.9902833115879187
2014-12-04,1,0.0018337682335816611,0.002003554520645926,-0.008340620623793657,0.009268518611471734,0.989533179031252
2014-12-08,1,0.0016930838787450578,0.0018331880469480927,-0.005647789159186128,0.010185352525457159,0.9896162413217245
2014-12-10,1,0.0012929562981956002,0.0013783990860970169,-0.005063749158391671,0.010185352525457159,0.9900251025482586
2014-12-12,1,0.0013267208492776688,0.001432672713577891,-0.0022001622162402877,0.010185352525457159,0.9906776488493502
2014-12-16,1,0.001197026445698386,0.0012642910978933595,-0.0009820125914600682,0.011047053475101506,0.990283058901109
2014-12-18,1,0.00287405340983506,0.003179158070533401,-0.0009820125914600682,0.009915581664670731,0.9922609818783337
2014-12-22,1,0.002260639361550025,0.0023915574661114267,-0.0015993342670913326,0.009915581664670731,0.9917169341886383
2014-12-24,1,0.0027284139002059405,0.0029057120583788378,-0.0022524494130019596,0.009297966114206819,0.9920973434180598
2014-12-29,1,0.003030292954762712,0.0031917123206664268,-0.004406380027211416,0.007749923688890914,0.9922819107263078
2014-12-31,1,0.001948443955198094,0.002043858910077711,-0.0022524494130019596,0.00887437109758239,0.9928201106672818
2015-01-05,1,0.0015692137632836826,0.001598028534746311,-0.0022524494130019596,0.009156241640547428,0.992896045088674
2015-01-07,1,0.0021899360908748462,0.002342440596817084,-0.0037915470368957583,0.009156241640547428,0.99238554360893
2015-01-09,1,0.0020545818340548206,0.002191533390490107,-0.0042345591434188486,0.009156241640547428,0.9901809446678511
2015-01-13,1,0.0023601131835827203,0.002564426340099623,-0.006660018831715571,0.009570858247878553,0.9883711999070555
2015-01-15,1,0.0028138760482959847,0.00305807005201524,-0.012705042611247785,0.008863838706427311,0.9869676480751857
2015-01-20,1,0.0029257945399404593,0.003165602448317297,-0.012705042611247785,0.008863838706427311,0.9859733983647616
2015-01-22,1,0.003572938038732592,0.003928915440529495,-0.013678688819735406,0.006751671836196181,0.985361845639266
2015-01-26,1,0.003342092734313483,0.003644632255594335,-0.013678688819735406,0.008596568242007382,0.9856014612076746
2015-01-28,1,0.002934686602262873,0.0031852138336489434,-0.016021591204379633,0.008596568242007382,0.9847835167788974
2015-01-30,1,0.002712866626349356,0.0029488510459760656,-0.016021591204379633,0.005321892587765146,0.9853419658034529
2015-02-03,1,0.002380812106439627,0.0025306132025063955,-0.016021591204379633,0.003754585957522279,0.9858436573459972
2015-02-05,1,0.001502528710739779,0.001527370590934162,-0.01767241073821921,0.003754585957522279,0.9853692989689631
2015-02-09,-1,-0.0004845718052852449,-0.00026234000883239154,-0.014038873721714858,0.004035693255691153,0.9881436136550692
2015-02-11,-1,-0.0011182960406961686,-0.0007844397575327622,-0.01050436453534975,0.0038667669890324083,0.9897812668678462
2015-02-13,-1,-0.002870046125149052,-0.0023289205255254443,-0.009395609669180292,0.004035693255691153,0.9900881467361193
2015-02-18,-1,-0.0014037073185355629,-0.0010302124200222724,-0.009395609669180292,0.0038667669890324083,0.9909448020720046
2015-02-20,-1,-0.0023221294762832837,-0.0018299015291267722,-0.00832404706133974,0.0047002776069531085,0.9899092268548229
2015-02-24,-1,-0.0017422779699945183,-0.0013312513976858967,-0.009395609669180292,0.0038667669890324083,0.9901342231025025
2015-02-26,-1,-0.0029595837654206435,-0.0024074906291503594,-0.00832404706133974,0.0038667669890324083,0.9907630533781061
2015-03-02,-1,-0.003670511816872163,-0.003047420714322692,-0.0077972131696931474,0.006989963782519371,0.9905255581250182
2015-03-04,-1,-0.0028818531809353754,-0.0024112499729669196,-0.0077972131696931474,0.007470908385108124,0.9903541085779863
2015-03-06,-1,-0.004178632199226312,-0.0035452884431687584,-0.005256727931902412,0.008685290438491157,0.9904635411859214
2015-03-10,-1,-0.0037482339954622835,-0.00318471487793584,-0.0077972131696931474,0.008685290438491157,0.9906082342568439
2015-03-12,-1,-0.00475035325401998,-0.004003089902859111,-0.005783102382808934,0.008685290438491157,0.9905803207621499
2015-03-16,-1,-0.003864976965543541,-0.003268600891147836,-0.005783102382808934,0.008563832284846359,0.9913427232424782
2015-03-18,-1,-0.0028309480368951118,-0.002385851494503332,-0.006903173793693594,0.007470908385108124,0.9923003315721527
2015-03-20,-1,-0.002160061495117661,-0.001810718787770013,-0.005507283898404024,0.007470908385108124,0.9930138848319617
2015-03-24,-1,-0.0024878272471540942,-0.002124457451702142,-0.005507283898404024,0.008563832284846359,0.9925048331269964
2015-03-26,-1,-0.0026877066422648054,-0.002321985052336787,-0.0043875418133324795,0.008685290438491157,0.9921345836980628
2015-03-30,-1,-0.0017757581677207198,-0.0015363610894243347,-0.005507283898404024,0.008563832284846359,0.9922466385544274
2015-04-01,-1,-0.001013344343514742,-0.0008967349716755051,-0.007393388174683326,0.005832791902888355,0.9915571002302607
2015-04-06,-1,-0.00022392630318642358,-0.00017944018695634255,-0.007393388174683326,0.005095188882532109,0.9921183765029988
2015-04-08,-1,-0.001169748061864877,-0.0010026623962724728,-0.00859111760103979,0.005095188882532109,0.9914769580844772
2015-04-10,-1,-0.002165366669727337,-0.001806475392527111,-0.00859111760103979,0.0058929704518805815,0.9910453826992399
2015-04-14,-1,-0.001909621385346096,-0.0016144803006210183,-0.007664365695078469,0.0058929704518805815,0.9912514143960425
2015-04-16,-1,-0.0021280925089582014,-0.001810080863835831,-0.009674042224805859,0.007273767257094865,0.9903812788037645
2015-04-20,-1,-0.0017432458111316196,-0.001456092063908144,-0.009674042224805859,0.007901335301909123,0.9901356526625035
2015-04-22,-1,-0.0019019379823306806,-0.0015890287224349653,-0.007664365695078469,0.006827589153487487,0.9908618109611436
2015-04-24,-1,-0.0011658605935683684,-0.0009638274326441737,-0.007664365695078469,0.0058929704518805815,0.9914734496658781
2015-04-28,-1,-0.001402394102864106,-0.0011924039987250188,-0.006721584601326332,0.0058929704518805815,0.9921891884781169
2015-04-30,-1,-0.0024276409045435573,-0.0021075982114973045,-0.005484591736291383,0.0058929704518805815,0.9928855067593263
2015-05-04,-1,-0.0018834600488872024,-0.0016286229714177125,-0.005889506451416779,0.004536121233110085,0.9928340042734594
2015-05-06,-1,-0.0034251258977736404,-0.002975150610386731,-0.005484591736291383,0.004536121233110085,0.9932799359462061
2015-05-08,-1,-0.002689555885674747,-0.00232559952758348,-0.005889506451416779,0.0009762466797600844,0.993359394229597
2015-05-12,-1,-0.003090042104687953,-0.002684959374779942,-0.005516420865282244,0.0028334552632532733,0.9930189404178766
2015-05-14,-1,-0.002058433553832264,-0.0018570410572231835,-0.005516420865282244,0.0009762466797600844,0.9939690905503781
2015-05-18,-1,-0.0008955444648332254,-0.0008496333585195043,-0.005516420865282244,0.00041034984454893617,0.9947014334325405
2015-05-20,-1,-0.0003868221850922005,-0.0003246110096922136,-0.005516420865282244,0.001420623598602381,0.9935583237249854
2015-05-22,1,0.00016813678842613963,0.00036434953947095904,-0.005516420865282244,0.001420623598602381,0.9931437954142683
2015-05-27,-1,-0.0007512423437807586,-0.0007382937861096617,-0.007583409867830143,0.0013256706516081968,0.9925756040777972
2015-05-29,-1,-0.0006908109407639034,-0.0006837295963414809,-0.007583409867830143,0.0014905402100728223,0.9921449839649561
2015-06-02,-1,-0.001056743979289896,-0.0010308511721466422,-0.005817940697186565,0.0014905402100728223,0.9928805709101007
2015-06-04,-1,-0.001595783938949848,-0.0015064991514577224,-0.004918043535523674,0.007142515873603553,0.9925199041653006
2015-06-08,-1,-0.002476910853438004,-0.0023002186314168296,-0.004104529622147428,0.008997908475922266,0.9919706866614962
2015-06-10,-1,-0.0014649260939247639,-0.0014490095646150013,-0.005264912333978072,0.008997908475922266,0.9916214218341277
2015-06-12,-1,-0.0014510039549737515,-0.0014347649345739203,-0.004385159231958044,0.00931166742860139,0.9915291830482703
2015-06-16,-1,-0.0010925094793568595,-0.0010059982878711255,-0.004385159231958044,0.00931166742860139,0.9916593460958327
2015-06-18,1,8.500355836648559e-05,0.00034045169112289315,-0.005264912333978072,0.008143185718878891,0.9918091449313964
2015-06-22,0,-0.00017742490313444605,3.402287526784126e-05,-0.007053268060878035,0.008143185718878891,0.9916964064780329
2015-06-24,-1,-0.0008138516690982054,-0.0006906910292820646,-0.0051110917864768835,0.008143185718878891,0.9916589442403347
2015-06-26,1,2.9959376895636854e-06,0.0002500098205650012,-0.0051110917864768835,0.009598966344959003,0.9909297024609325
2015-06-30,0,-5.808189811283917e-05,0.00018021706939415935,-0.004328429967819447,0.00983855765482763,0.9906712892272144
2015-07-02,-1,-0.000161037782443058,-4.861452961611674e-05,-0.004328429967819447,0.009442134205655196,0.9909144816782626
2015-07-07,1,0.0009753046715577927,0.001238306354736363,-0.008150241493914648,0.008536808441514223,0.9915594983515649
2015-07-09,-1,-0.00039329866089906886,-0.00038994106445442616,-0.0023595455752219285,0.008632644126649467,0.992069539580537
2015-07-13,1,0.0004742199736139837,0.0006646077790843204,-0.0033384800762891052,0.009442134205655196,0.9916644284665417
2015-07-15,1,0.0003760166268311427,0.0005245364436837159,-0.0027529034519119906,0.011934351789002108,0.9905873949013513
2015-07-17,1,0.000663685767457963,0.0008774989113777774,-0.0012546720779455084,0.009442134205655196,0.9916838815562079
2015-07-21,-1,-9.387477906046192e-05,-3.1177938354214714e-05,-0.0008826453340266874,0.009442134205655196,0.9913182239888421
2015-07-23,-1,-0.0005913481830112214,-0.0005578563272246802,-0.0008826453340266874,0.00985748270188963,0.9915072941885874
2015-07-27,1,0.000558450014332765,0.0006778013929897573,-0.0025231831356186014,0.008632644126649467,0.9905306149735237
2015-07-29,1,0.00042254701676841994,0.00046483147971493224,-0.0064215791075703365,0.008771093625394279,0.9884439087933959
2015-07-31,1,0.0009488797710597869,0.0010691028349431033,-0.0064215791075703365,0.008771093625394279,0.9884260903979969
2015-08-04,1,0.0002963333867281847,0.0003207939655036297,-0.00779783964009547,0.008771093625394279,0.9874514042601876
2015-08-06,1,0.0007117736084051452,0.0008040683037801898,-0.00779783964009547,0.007168914916311757,0.9876410176138509
2015-08-10,1,0.0012213733194092998,0.0014100287612524467,-0.010648526197575798,0.007168914916311757,0.9871504085696441
2015-08-12,1,0.002437473295224509,0.0028199952263444736,-0.01367137238506427,0.005747565445479986,0.9872617299985091
2015-08-14,1,0.002417030109163409,0.0027678806336914026,-0.01367137238506427,0.006546552313601879,0.9868829131318776
2015-08-18,1,0.0021326013034725865,0.002421169269616053,-0.01367137238506427,0.009894927559802607,0.986632712088243
2015-08-20,1,0.0025982724767322084,0.002977020425941138,-0.01367137238506427,0.009025430100020082,0.9865512040987484
2015-08-24,1,0.0008479827148638618,0.0010095626132130065,-0.009270641788282895,0.009025430100020082,0.9892979182031351
2015-08-26,1,0.0008091953701571377,0.0010133963570062635,-0.005635089014816692,0.009025430100020082,0.9909548883036301
2015-08-28,1,0.0009113237737856081,0.001094618428748802,-0.007006866281984526,0.007066519226201603,0.9910971002007765
2015-09-01,-1,-0.00012599251339070824,-8.021005332395858e-05,-0.004935743163148118,0.009025430100020082,0.9910357709320983
2015-09-03,0,-3.38882866365689e-05,1.873511387723997e-05,-0.006444509375152142,0.01212137986602116,0.9899877353074936
2015-09-08,-1,-9.59921818732504e-05,-6.0917735921264614e-05,-0.00527516659000111,0.009025430100020082,0.9911239839167643
2015-09-10,-1,-0.0002984999518721327,-0.0002627661704675881,-0.004591625216376504,0.011833944320789967,0.9910198735947616
2015-09-14,1,6.871076094775981e-05,0.0001539075392510273,-0.004591625216376504,0.009270257420685915,0.9913121951601593
2015-09-16,1,0.0010205930242141732,0.0012548862795124418,-0.004591625216376504,0.0065311419582805294,0.9922096828796797
2015-09-18,1,0.0009321883248279367,0.0011345797018302984,-0.004577639152160569,0.007998647770242312,0.991875623285134
2015-09-22,1,0.0002998259197875856,0.0003684092611775105,-0.0034127811854934497,0.007998647770242312,0.9919873052315683
2015-09-24,1,0.001105280870354166,0.0013037862153053022,-0.0034127811854934497,0.007998647770242312,0.9924647133026938
2015-09-28,1,0.0005392195525546529,0.00060095533012237,-0.0034127811854934497,0.007980872218182944,0.9919164774522111
2015-09-30,1,0.0014106246087272171,0.001616323577944053,-0.0034127811854934497,0.005864807733450904,0.9928867538494448
2015-10-02,1,0.001302881167796212,0.0014712122571903597,-0.0034127811854934497,0.005483898438153218,0.9933656363149985
2015-10-06,1,0.0012633991082372194,0.001421089546822584,-0.0028858333136353954,0.005483898438153218,0.9935285334265255
2015-10-08,1,0.0018259199211273305,0.002095531691321431,-0.0010644584269541557,0.0051355173792080044,0.9943549241705594
2015-10-12,1,0.0018964894578947168,0.0021741208928513665,-0.001616126563816164,0.003998619536040723,0.9923943923429679
2015-10-14,1,0.0019022059133817107,0.0021765802292765314,-0.0006412228436810787,0.0058131169116449,0.9919389009895997
2015-10-16,1,0.0023567993282682877,0.002679259649784074,-0.007679623591702324,0.004094159589416441,0.9916841570317042
2015-10-20,1,0.002494147572752726,0.0028330338690838877,-0.012084803175592886,0.0058131169116449,0.9898848309351841
2015-10-22,1,0.002542381068486572,0.002851613040159892,-0.012084803175592886,0.0058131169116449,0.9899458309677626
2015-10-26,1,0.0016930187701346571,0.0018584266794728918,-0.010827440255843035,0.005916802110011169,0.9900497345332185
2015-10-28,1,0.000606272804266431,0.0006382758330001106,-0.0072970053234554435,0.005916802110011169,0.9902529223201286
2015-10-30,1,0.0003882359894273374,0.0004382289243052499,-0.00464760759465927,0.005916802110011169,0.9907824138347675
2015-11-03,1,0.00037764977348195565,0.0004542257432390112,-0.0072970053234554435,0.004501371456531135,0.9899587388156327
2015-11-05,1,0.0004726830339557048,0.0005423464980912384,-0.0072970053234554435,0.006664067667160902,0.9885669115158056
2015-11-09,-1,-0.0006095701144266396,-0.0004563518601800858,-0.006410380230835222,0.00854743095831704,0.9900082859120284
2015-11-11,-1,-0.0001173818639441718,-4.46926417572432e-06,-0.007784946709735489,0.004501371456531135,0.9900535568133444
2015-11-13,-1,-0.0012931659187971692,-0.0010046241801290818,-0.007042697645994976,0.004501371456531135,0.9905781794581543
2015-11-17,-1,-0.0010439621861867824,-0.0008073702263681685,-0.00563283675818623,0.0061881722342088975,0.9908131845876379
2015-11-19,-1,-0.0006083773661204029,-0.0004139286094054749,-0.008218074796374614,0.00438371739635237,0.9905542484187617
2015-11-23,-1,-0.0004404483036276453,-0.0002979922027383253,-0.007042697645994976,0.004328501050087359,0.9909002891887555
2015-11-25,-1,-0.00014830501667341612,-8.976148956346778e-05,-0.007042697645994976,0.006022523195413864,0.9905614625578751
2015-11-30,-1,-0.00038512481087887493,-0.00026027250927444583,-0.007042697645994976,0.008630027827591893,0.9900164586699762
2015-12-02,-1,-0.0011189064520816076,-0.0009153989615914073,-0.007042697645994976,0.008630027827591893,0.9905042425277187
2015-12-04,-1,-0.0002415962268275406,-0.0001437007274356442,-0.008512032592277315,0.008630027827591893,0.9909775860334189
2015-12-08,-1,-0.0002493990434986349,-0.0001494655693331447,-0.011103425012508689,0.008630027827591893,0.9909749217163274
2015-12-10,-1,-0.0012884376123728193,-0.0010472996297080093,-0.008339623206044559,0.009693799421373016,0.9913739520732103
2015-12-14,-1,-0.0016903716611482516,-0.0013889842097921786,-0.006109929194628353,0.009693799421373016,0.991026890623551
2015-12-16,1,8.400655845666398e-05,0.00012203715232811145,-0.009926597610083078,0.009693799421373016,0.9914232538458143
2015-12-18,-1,-0.0006472595474745382,-0.0005375064680900052,-0.005775123189230735,0.009779511401850263,0.9903810262942498
2015-12-22,-1,-0.0003217828962696561,-0.00028349717134582605,-0.009926597610083078,0.009926736382692699,0.9889116846741326
2015-12-24,-1,-0.0003247271737298163,-0.000258060181001596,-0.009926597610083078,0.009926736382692699,0.9886699750513137
2015-12-29,1,0.00046892718189766523,0.000516133107557934,-0.009926597610083078,0.0105861934274382,0.9887620602390054
2015-12-31,1,0.00014687705951312328,0.00016855576172441296,-0.007654239694765859,0.012062846825846704,0.9883949411498129
2016-01-05,1,0.000548103114251631,0.0006773144483820655,-0.005129272552590868,0.012062846825846704,0.9887191777687434
2016-01-07,1,0.00024091675339731077,0.0003446082629970943,-0.004617187898707106,0.012062846825846704,0.9890081781126667
2016-01-11,1,0.00044793775840717775,0.0005800171436565514,-0.003373277525395924,0.012062846825846704,0.9892906860627436
2016-01-13,1,0.0010187783539469452,0.0012413510515248845,-0.007654239694765859,0.012062846825846704,0.9884079310928077
2016-01-15,1,0.00018615533523001516,0.00018932042330513604,-0.005885728489412339,0.010910067596276971,0.9886364764145739
2016-01-20,-1,-0.0003275363254353727,-0.00024258004910080586,-0.004589165953367322,0.010731155099616765,0.990153270916543
2016-01-22,1,0.00036291704753512995,0.0003795291546754518,-0.004444544727547561,0.010234588075788663,0.9914160278526567
2016-01-26,-1,-0.00020833762571189393,-9.782802775020193e-05,-0.003909306202127323,0.009868568707213655,0.9919276671814922
2016-01-28,1,0.00041560747653100023,0.0004506742867669499,-0.004444544727547561,0.009868568707213655,0.9908590022125976
2016-02-01,1,0.0011180963932374164,0.0011602781241914347,-0.004444544727547561,0.008379960096485358,0.9916517200535252
2016-02-03,1,0.0013565922086287566,0.001395276973353493,-0.004444544727547561,0.0050765407214328866,0.9923476919468273
2016-02-05,1,0.001165574068543506,0.0011947561228021996,-0.003909306202127323,0.008379960096485358,0.991719022930246
2016-02-09,1,0.0016212283086789194,0.0017469255837950746,-0.003909306202127323,0.009875413250520437,0.9914245795136342
2016-02-11,1,0.0005033175075746484,0.0005219768338830291,-0.002374458826524878,0.009875413250520437,0.9927570934336565
2016-02-16,1,0.0004614513119371716,0.0004999763581063202,-0.002050839695977558,0.008460768581772958,0.9931712852284369
2016-02-18,1,0.0009782257792434314,0.001037115927160036,-0.0009503428312628675,0.008460768581772958,0.9934124714629576
2016-02-22,1,0.0010025131528979736,0.0010614177282257673,-0.0009503428312628675,0.008288117375162747,0.993646681702514
2016-02-24,1,0.0015208421436188348,0.0016852689556041225,-0.002050839695977558,0.010231881437275393,0.9931171753136447
2016-02-26,1,0.0008445295176219282,0.0009222248377555514,-0.00201324119366438,0.008288117375162747,0.9949685342334831
2016-03-01,1,0.0006550889169479822,0.0007085506314408485,-0.000858810122962906,0.010473982510507636,0.994328985271643
2016-03-03,1,0.0008169857600796846,0.0009063934179960914,-0.0009086916819699922,0.010473982510507636,0.9942897902230826
2016-03-07,1,0.0016598762838954304,0.0018642145366328771,-0.002047298941068761,0.005145911315231441,0.9941710636029125
2016-03-09,1,0.0022995112961281157,0.0025892690876612307,-0.0022328031575300483,0.00301079733471788,0.994426723241618
2016-03-11,1,0.002672356337505469,0.003047770660139717,-0.002760233001833266,0.0028233403147875525,0.9940009615136258
2016-03-15,1,0.0027534616337151633,0.003148442494086256,-0.003840761972349318,0.003018703760843996,0.9937434070639157
2016-03-17,1,0.003336584926980301,0.0038314790900505825,-0.0045190535271903975,0.003018703760843996,0.9934030351301847
2016-03-21,1,0.0028058443018722993,0.0031954930119708095,-0.003840761972349318,0.003680809599805754,0.9941631906954164
2016-03-23,1,0.0026493229922672835,0.002982712511125266,-0.0045190535271903975,0.0028117030723159306,0.99228807381642
2016-03-28,1,0.0023731357745730695,0.0026516752493030826,-0.0045190535271903975,0.00463734515085233,0.99230196671545
2016-03-30,1,0.002998283453211522,0.0033769636150843886,-0.0045190535271903975,0.00463734515085233,0.9922048095223297
2016-04-01,1,0.0031109492903079678,0.0035138795607167197,-0.0045190535271903975,0.006087493316201247,0.9918021300551676
2016-04-05,1,0.0014719019494009778,0.001561190223561494,-0.0045190535271903975,0.007202962813808983,0.9923591192418151
2016-04-07,1,0.0016458603749677572,0.0017971392099710812,-0.0045190535271903975,0.00855015942882844,0.9918269145019962
2016-04-11,1,0.0011333809572382208,0.0011747684101963507,-0.004523079093189929,0.00855015942882844,0.9913132996607638
2016-04-13,1,0.0010603408558272245,0.0010901105065054823,-0.002894512096280016,0.00855015942882844,0.9915342337880467
2016-04-15,1,0.0014159641067227398,0.0015241707675603647,-0.0029315223944240557,0.007349917202653166,0.9917408980435649
2016-04-19,1,0.0013799313453277053,0.0014695708595585198,-0.00483736905880186,0.007349917202653166,0.9907459073565574
2016-04-21,-1,-0.0007277259125025489,-0.000541687397416555,-0.0029315223944240557,0.008821829227520762,0.9918509611387413
2016-04-25,-1,-0.00010989193944796412,-6.580043449032466e-06,-0.00483736905880186,0.00794327599623737,0.9920805395971014
2016-04-27,-1,-0.00019109175135559943,-3.525170268727022e-05,-0.00526265913656014,0.00794327599623737,0.9918885013463417
2016-04-29,1,0.0009358469554853596,0.0009509174571132954,-0.00526265913656014,0.00794327599623737,0.9919075823332412
2016-05-03,1,0.0010465017969269875,0.0010743775516572924,-0.00526265913656014,0.005860357354997187,0.9922821430813098
2016-05-05,1,0.0010224061552384606,0.001042918356702146,-0.00526265913656014,0.005860357354997187,0.9922316600310932
2016-05-09,1,0.0003980610816762409,0.0005056405102057237,-0.0031982045412289285,0.005860357354997187,0.9928276866935262
2016-05-11,1,0.0010567409561391254,0.001077326451402585,-0.0031982045412289285,0.007215129377105804,0.992429679208479
2016-05-13,1,0.0004287382534681276,0.0005354181068348786,-0.0017628315450140093,0.007215129377105804,0.9928498077340889
2016-05-17,-1,-0.0004283001959098198,-0.00022084738834238292,-0.0017628315450140093,0.008152135663723017,0.992599272069278
2016-05-19,-1,-0.0005361818782543499,-0.0003281015997406877,-0.001011070125980864,0.007215129377105804,0.9936027594568402
2016-05-23,-1,-0.000601774695091818,-0.0004195562578927413,-0.001011070125980864,0.007215129377105804,0.9938038626334965
2016-05-25,-1,-0.0006399271691709488,-0.0004235991608384001,-0.001011070125980864,0.005889838475792259,0.9946246853232554
2016-05-27,-1,-0.0002054426872895469,-2.7370767251042407e-05,-0.001011070125980864,0.007215129377105804,0.9943042572773695
2016-06-01,-1,-0.00034343410439382474,-0.00011306183742518466,-0.001011070125980864,0.007215129377105804,0.9944812688092969
2016-06-03,1,0.0003304077923518639,0.0004793223542751566,-0.001011070125980864,0.007215129377105804,0.9944500921649589
2016-06-07,1,0.0004034951367391871,0.0005244806592152718,-0.001011070125980864,0.007566537132002412,0.9941585661943394
2016-06-09,1,0.0009146800195406531,0.0009807734920664409,-0.0014911269036138267,0.008574836780989595,0.9935532037080139
2016-06-13,1,0.0005433020048112438,0.0006723515679480407,-0.0021061657581069215,0.008574836780989595,0.9929054146137007
2016-06-15,1,0.0007623689735802459,0.0008435136555025328,-0.0021061657581069215,0.005577738318706357,0.9933134886681171
2016-06-17,1,0.0008497040026692623,0.0009183542862481473,-0.0021061657581069215,0.006468018607515563,0.9932199869050178
2016-06-21,1,0.0009618305776812552,0.00098145092744113,-0.0021061657581069215,0.006468018607515563,0.9932097201556367
2016-06-23,1,0.0014069191611153723,0.001491965229768333,-0.0015778042507119294,0.008762852463565021,0.9928412032006968
2016-06-27,1,0.002679220796112473,0.002976793884782472,-0.005461296664571868,0.006468018607515563,0.9932503157756978
2016-06-29,1,0.002645155847793298,0.0029153092568812247,-0.0064155566044952,0.006468018607515563,0.992540235580261
2016-07-01,1,0.003463835766558925,0.0038461130619199366,-0.0064155566044952,0.0060951146988229106,0.9931456423675097
2016-07-06,1,0.002882524212153801,0.0031037575835249484,-0.007967324480474202,0.004711773279743755,0.9925954932043706
2016-07-08,1,0.0024868757871414626,0.0026611652480161233,-0.007967324480474202,0.0043062194400226884,0.9929431122407744
2016-07-12,1,0.0018734878213910152,0.0019761141023488713,-0.0064155566044952,0.0043062194400226884,0.9938440223834414
2016-07-14,1,0.001544851462277475,0.0016029353419718005,-0.005461296664571868,0.0035389137242347935,0.9944325730720242
2016-07-18,1,0.0018976502446271092,0.0020152691921232002,-0.0064155566044952,0.0035141463933107456,0.99363347602488
2016-07-20,1,0.0011289717441275403,0.0011677210906434498,-0.007967324480474202,0.004547788614083432,0.9927185494893572
2016-07-22,1,0.0016230727859536409,0.0016233747351344116,-0.009072711695350687,0.0035141463933107456,0.9916415501022228
2016-07-26,1,0.0008295097522427221,0.0009287509383227074,-0.008742168197479847,0.0043528415883433026,0.9920706766634407
2016-07-28,1,0.0008858551931962103,0.0009282249887665112,-0.006870559268590566,0.0043528415883433026,0.9923857581579658
2016-08-01,1,0.0016425232707508145,0.0017385231636936301,-0.012292595338881102,0.0036454970783648885,0.9911251573965395
2016-08-03,1,0.0009408631318230001,0.0009541771860405895,-0.011109564333641143,0.0044334101171403,0.9910997507239037
2016-08-05,1,0.00014143558435716154,0.00022380233512128586,-0.008323928266030196,0.004630074576362086,0.991140959105312
2016-08-09,1,0.00045902407031938415,0.00048111759758750003,-0.008323928266030196,0.006422254686913545,0.9906228769829686
2016-08-11,1,0.0004588146798678799,0.0004964997140341022,-0.011109564333641143,0.006422254686913545,0.9890030262712798
2016-08-15,0,-2.1074372144050868e-05,6.4146212541217e-05,-0.011109564333641143,0.01010832056915445,0.9885821742499847
2016-08-17,1,1.7046581476024285e-05,0.00010184713455758333,-0.008323928266030196,0.01010832056915445,0.9893173897310453
2016-08-19,1,0.0001915372916789556,0.00022538716170152968,-0.005878085354336587,0.01010832056915445,0.9900607466083869
2016-08-23,1,0.00017777092846464572,0.00020795260048124987,-0.00590875610129467,0.010409437736665104,0.989248771172178
2016-08-25,-1,-0.00016468705428157062,-3.9081952886150574e-05,-0.00590875610129467,0.010409437736665104,0.9890130183330509
2016-08-29,-1,-0.001054593200956064,-0.0008159849304743299,-0.00590875610129467,0.010409437736665104,0.9897934001584552
2016-08-31,-1,-0.0014783328836938275,-0.0011830675835608883,-0.00590875610129467,0.010409437736665104,0.9895557616433517
2016-09-02,-1,-0.0013480907644439141,-0.001070296098106179,-0.0062671423101388,0.009308724875168026,0.9897001805976876
2016-09-07,-1,-0.0006904432190345187,-0.0004968154072486503,-0.009913812838956324,0.007626195978165303,0.9893550910955808
2016-09-09,-1,-0.0022407550349055737,-0.0018738039886031146,-0.0062671423101388,0.007626195978165303,0.9906516289836237
2016-09-13,-1,-0.0034117488546233452,-0.002802452056209506,-0.006082239345278073,0.006809792039893087,0.9912639217592505
2016-09-15,-1,-0.002713288307133436,-0.0022104594194862492,-0.006082239345278073,0.006809792039893087,0.9913206567962694
2016-09-19,-1,-0.0015205854808611455,-0.0011794555781605165,-0.007934560442918726,0.006077020518376015,0.9920731936630711
2016-09-21,-1,-0.0004186753756059232,-0.0002456034621960026,-0.007934560442918726,0.005123428057706984,0.9929980662344563
2016-09-23,1,8.479082654768263e-05,0.00018888540445632219,-0.007934560442918726,0.004484912680430426,0.9930848168575953
2016-09-27,-1,-0.0003979733847722455,-0.0002682208046090115,-0.00530251515991759,0.005123428057706984,0.9933294412474988
2016-09-29,-1,-0.0016099454988943024,-0.0013184594386367102,-0.004011257670528945,0.005123428057706984,0.9940725598909559
2016-10-03,-1,-0.0016639301023965106,-0.0013724081894590482,-0.0026439355964043543,0.005123428057706984,0.9934427754367184
2016-10-05,-1,-0.0021021286831352784,-0.0017629874460512673,-0.004011257670528945,0.004484912680430426,0.9932345228938018
2016-10-07,-1,-0.002625065658028133,-0.00218463573507872,-0.0026439355964043543,0.00439696247410513,0.9933338998259726
2016-10-11,-1,-0.0028910949194427276,-0.0024086549034774037,-0.0020065166278894738,0.005909289408883894,0.9920217236678909
2016-10-13,-1,-0.002603471312974751,-0.0021368505898951974,-0.004867859462377479,0.00439696247410513,0.9907890812044021
2016-10-17,-1,-0.0025748847740788387,-0.0021300867266295983,-0.0035136495725455004,0.004597848268304451,0.9909931540668934
2016-10-19,-1,-0.002037837466374851,-0.0016885277345086123,-0.005842822327681684,0.005636459811914915,0.9896774059373976
2016-10-21,-1,-0.0018527867842674508,-0.0015431790124736194,-0.006706183630460055,0.005636459811914915,0.9898205499996885
2016-10-25,-1,-0.0008643588476273822,-0.0007064108908706293,-0.006706183630460055,0.009673915718516196,0.9889863449337369
2016-10-27,-1,-0.001035379543989685,-0.000855611694719886,-0.01177921640103713,0.012411542334431876,0.9877464486163261
2016-10-31,1,0.00032428628609693685,0.00033240324179464994,-0.01177921640103713,0.012411542334431876,0.9879130995635433
2016-11-02,-1,-0.0009590125397176111,-0.0008112984068140772,-0.006713228034817171,0.012411542334431876,0.9877254582762912
2016-11-04,-1,-0.0009282796992825882,-0.0007889238560192092,-0.006713228034817171,0.015148368979213345,0.9870132194307472
2016-11-08,1,0.0004437659920114507,0.0004751156149640233,-0.006713228034817171,0.015148368979213345,0.9877367109261251
2016-11-10,-1,-0.0016168354280615878,-0.0013972429765375795,-0.003801436673471624,0.015148368979213345,0.9889318340912695
2016-11-14,-1,-0.0015505491069385871,-0.0013397960225413133,-0.00353796864219829,0.015148368979213345,0.9884534089240958
2016-11-16,-1,-0.0007553857964011502,-0.0006948128750914797,-0.00353796864219829,0.013520643917646189,0.9894678879055524
2016-11-18,-1,-0.0008743388512879706,-0.0008142051872790884,-0.0009616934898803195,0.014993215324381838,0.9888530894052373
2016-11-22,1,0.0006990594894248455,0.0008897862840728524,-0.002741949326525062,0.013520643917646189,0.9904604150936928
2016-11-25,1,0.0009772296937146613,0.0012220581368526141,-0.0009616934898803195,0.010740131646215567,0.9917010865049459
2016-11-29,1,0.0015181659981972685,0.0018178071653354047,-0.002741949326525062,0.006677922842847517,0.9921541289090254
2016-12-01,1,0.0004865658107569845,0.0006205546460260752,-0.002741949326525062,0.010018210577383146,0.992936739077895
2016-12-05,1,0.0009679352407473906,0.0011539104078673215,-0.003323367430293557,0.006222462694772326,0.9935874500721535
2016-12-07,1,0.0018480350154782903,0.0021710112810526417,-0.003323367430293557,0.0038392826462216633,0.9944344209318807
2016-12-09,1,0.001966737890211413,0.002295279941369241,-0.004179418090202917,0.0031558668869767076,0.9945173860295071
2016-12-13,1,0.002864770898246254,0.0033538136751744066,-0.004179418090202917,0.0027491951905309056,0.9941533683378281
2016-12-15,1,0.0017894259466174332,0.002105374034347937,-0.003323367430293557,0.0031558668869767076,0.9953750022352275
2016-12-19,1,0.0021841810795398984,0.0025314198493822417,-0.004179418090202917,0.0027491951905309056,0.9953029038839645
2016-12-21,1,0.0023400603906797808,0.0027309988089923394,-0.0038815129901415488,0.0026478451843105475,0.9953079787735445
2016-12-23,1,0.002221670725939271,0.0025627829638553267,-0.0038815129901415488,0.0026395195854877337,0.9950903582462033
2016-12-28,1,0.0015910195444700105,0.0018122851941951377,-0.0038815129901415488,0.0026478451843105475,0.9951883629586197
2016-12-30,1,0.001795870123018977,0.002046905714305911,-0.0032837494113555884,0.0026478451843105475,0.9951191171985377
2017-01-04,1,0.001842585205753536,0.0021112596806917468,-0.003969511316656968,0.0027016881001636116,0.9945211087677508
2017-01-06,1,0.0017139229624556717,0.0019389652447986878,-0.005247588051331729,0.0027016881001636116,0.9940020777734493
2017-01-10,1,0.0012028450534029014,0.0013657413723890577,-0.0032837494113555884,0.003055342213004607,0.9948590268211557
2017-01-12,1,0.001438917285686718,0.0016241281501631639,-0.004619613816529015,0.002883200047830954,0.9944973289967711
2017-01-17,1,0.0016613370866573208,0.0018720889271506272,-0.004619613816529015,0.002883200047830954,0.9946375763548235
2017-01-19,1,0.001344904608480279,0.0015241529120775786,-0.0028491757399558178,0.003055342213004607,0.9949052675747107
2017-01-23,1,0.0009290003269094237,0.0010152680346427391,-0.0033026438295503486,0.0043272058113304574,0.9944813260118788
2017-01-25,1,0.0007121787776403381,0.0007534682193112519,-0.0033026438295503486,0.007258958295333972,0.9940842148429694
2017-01-27,1,0.0004128015087805834,0.0004191651578985239,-0.003120924723635653,0.007458517906202627,0.9939417260589793
2017-01-31,1,0.0011671149534229952,0.0013013630490747187,-0.0046148804606065096,0.007407776257038154,0.9943213919864292
2017-02-02,1,0.000501505603055831,0.0005308429861196037,-0.00416274054662664,0.007258958295333972,0.9944847444713625
2017-02-06,1,0.0001745932055772625,0.00023778285837064227,-0.0029185887421233495,0.007258958295333972,0.9945756356621064
2017-02-08,1,0.0005696518092054377,0.0005699888948912346,-0.00416274054662664,0.007258958295333972,0.9939594836572649
2017-02-10,1,0.00044732342547522006,0.0004758741047909007,-0.00393119548643689,0.007258958295333972,0.9944054588222471
2017-02-14,1,0.0009468634154586787,0.0010711973295270745,-0.00393119548643689,0.007374207548724988,0.9938178014838803
2017-02-16,1,0.0012031470052023259,0.001380196131725942,-0.00416274054662664,0.007102540489542711,0.9928857661821227
2017-02-21,1,0.0009547963099230765,0.001063043278227737,-0.00416274054662664,0.007102540489542711,0.9925772485552931
2017-02-23,1,0.0009155638262978652,0.0009751975326515727,-0.00416274054662664,0.006329036910040766,0.9926799892603045
2017-02-27,1,0.0009689890242832985,0.0010279868362890049,-0.00393119548643689,0.005743569592809865,0.9930043770636978
2017-03-01,1,0.0007930854303769525,0.0008032575575634211,-0.00303514868563636,0.0054639105147867755,0.9934533069603706
2017-03-03,1,0.0007531789758860754,0.000754828027176041,-0.00303514868563636,0.0054639105147867755,0.9932959283564043
2017-03-07,1,0.0007395266460285232,0.000747059347639794,-0.004023493491353127,0.005634000983331117,0.9931120785852551
2017-03-09,1,0.00024845702181661134,0.0002954071832939881,-0.002742464966644706,0.006000331081604521,0.9935449085794998
2017-03-13,1,0.00039032857748831206,0.0004299064351396978,-0.002742464966644706,0.006000331081604521,0.9938438951911983
2017-03-15,1,0.0010243069336280705,0.0010671920774047586,-0.002742464966644706,0.006000331081604521,0.9944654311333816
2017-03-17,1,0.0003951575447611458,0.00043482207625855326,-0.002742464966644706,0.006290967655978126,0.9953055053794024
2017-03-21,1,0.0007594744103839913,0.0007861789118161697,-0.002742464966644706,0.005634000983331117,0.9958794474721844
2017-03-23,1,0.000663541385158321,0.0006679020359324785,-0.003018400597524583,0.005634000983331117,0.9957796766659402
2017-03-27,1,0.0010891963642166885,0.0011948159355728285,-0.002361606559571962,0.0051241220341177165,0.9958427350679302
2017-03-29,1,0.0004286061584624636,0.0004639994492605182,-0.0021836551430482933,0.0057869895386543115,0.9957130836859526
2017-03-31,1,0.00042027524298765074,0.00046101343277553104,-0.0039711736731988185,0.0051241220341177165,0.9957970172582145
2017-04-04,1,0.0009764057581575858,0.001062193191065081,-0.0038961569655912762,0.004840085309515142,0.9959119195884628
2017-04-06,1,0.00013592849310608114,0.0002479753970235051,-0.0038961569655912762,0.0037304398574209722,0.996202147875686
2017-04-10,1,9.510581127032935e-05,0.00021333553085798153,-0.004103470045320252,0.0037304398574209722,0.9960296475643219
2017-04-12,1,0.00035194992279989753,0.00042893491993048727,-0.004103470045320252,0.0037304398574209722,0.996080403656775
2017-04-17,1,0.00021059083228668665,0.00032207288132008605,-0.0038961569655912762,0.004840085309515142,0.9962227817001453
2017-04-19,1,0.0004665159057219459,0.0005090632972456239,-0.0038961569655912762,0.004840085309515142,0.9958283366577801
2017-04-21,1,0.00043416632694510894,0.0004810649354928466,-0.002227753933755438,0.004864363640330105,0.9958992309143841
2017-04-25,1,0.0008248899576662256,0.0008543648516062927,-0.00136585779826406,0.005278687116517513,0.9957808037302232
2017-04-27,1,0.0005072926302421491,0.0005596600171577778,-0.00136585779826406,0.005404817271365725,0.9953038400350314
2017-05-01,1,0.00034722356481428575,0.0003971856838438559,0.0008840449428934034,0.005404817271365725,0.9956393553186015
2017-05-03,1,0.0006230690094583527,0.000635918200088468,0.0015468261097046632,0.006263877608843473,0.9955954926889082
2017-05-05,1,0.0008913166912349311,0.000946529286669657,0.0008840449428934034,0.006263877608843473,0.9954723135612414
2017-05-09,1,0.0008873916819970074,0.00097137684404803,0.0015468261097046632,0.006263877608843473,0.9956124499208684
2017-05-11,1,0.0006232451485932312,0.0006293963931506175,-0.00011342935201866017,0.00541688421070984,0.994920150811201
2017-05-15,1,0.00114372866982276,0.0012458146961253646,-0.0001822797696741776,0.004812890057384532,0.9954291808073504
2017-05-17,1,0.0008383064131282847,0.0008971718815509115,-2.295013921850581e-05,0.005479420489813945,0.9955664829326126
2017-05-19,1,0.0010941958367022809,0.001193896833084448,-0.0001822797696741776,0.00526641211413826,0.9955503127921322
2017-05-23,1,0.0012403716241858335,0.0013446612425014122,-0.0005696866250366546,0.004812890057384532,0.9956091965008916
2017-05-25,1,0.0016897931454226654,0.0018604911722180234,-0.003204597289914504,0.00409497356581261,0.9954694671390836
2017-05-30,1,0.001624819571162381,0.0017828493638348604,-0.00531977602563881,0.0043708133667235876,0.9946307003742823
2017-06-01,1,0.0019948241038060077,0.002202922760511464,-0.006345216413030226,0.00409497356581261,0.99391350488931
2017-06-05,1,0.0015869369792350686,0.0017103423084636345,-0.00531977602563881,0.0018209836432828107,0.9942617733684247
2017-06-07,1,0.0017360953325022527,0.0018929486538572342,-0.00531977602563881,0.0007456962542503926,0.9940644318036151
2017-06-09,1,0.001333322858858291,0.001448300543201868,-0.0035998026667762037,0.000912294775725858,0.9949267409487628
2017-06-13,1,0.001196150364407909,0.001269126682551688,-0.0035998026667762037,0.000912294775725858,0.9946629578469945
2017-06-15,1,0.0013388847594391138,0.0014274079090229193,-0.00531977602563881,0.000912294775725858,0.9944720390810171
2017-06-19,1,0.0013011864967335707,0.0013785953638706515,-0.00531977602563881,0.000912294775725858,0.9944271650478932
2017-06-21,1,0.0008499129824253998,0.0008511316191983791,-0.0035998026667762037,0.0025184518196536224,0.9947267636969471
2017-06-23,1,0.0006756818120253192,0.0006776490688779232,-0.0031169214744237107,0.004704469289010972,0.9941429311599199
2017-06-27,1,0.0002628349587962723,0.00031239930038790063,-0.0030367442089857424,0.005211996689648757,0.9947222457566826
2017-06-29,-1,-0.0005385062716211193,-0.0003797668292523432,-0.002698201724293144,0.005211996689648757,0.9954117023912991
2017-07-03,-1,-0.0006208108831386007,-0.00045916603971417314,-0.002698201724293144,0.005211996689648757,0.99535621398761
2017-07-06,-1,-0.001100381619695065,-0.0008580702469467008,-0.0025646483153980984,0.006868991903299385,0.9944275046107227
2017-07-10,-1,-0.0011037167143337066,-0.0008707378241886474,-0.0010891682324420402,0.006868991903299385,0.9944817910214989
2017-07-12,-1,-0.0008700990050155708,-0.0006693040624200619,-0.0012712468291837923,0.005912886365867904,0.9945178767166493
2017-07-14,-1,-0.0009621420266547259,-0.0007520191224040256,-0.0012712468291837923,0.005912886365867904,0.9942608518201489
2017-07-18,-1,-0.0006689295532025178,-0.0005109511082776739,-0.0006548536351902673,0.006234762598126635,0.9941874774079396
2017-07-20,-1,-0.00029116713286791106,-0.00018290887352101932,-0.0006548536351902673,0.005902012985995216,0.9944540726186195
2017-07-24,-1,-0.0004323659410326437,-0.00030893068765320143,-0.0003730146708167225,0.005902012985995216,0.9951826025054231
2017-07-26,-1,-0.00010182374776522156,-1.94633833955927e-05,-0.0001387311396545309,0.005087960873166639,0.995382559979896
2017-07-28,-1,-0.00029882001100294594,-0.00019898488292499953,-0.00023232404238863796,0.005087960873166639,0.9954278899295249
2017-08-01,-1,-0.0006846711230877581,-0.0005038429008387006,-0.00013576599011976218,0.00571109693507567,0.9951384035542074
2017-08-03,1,6.753710774785602e-05,0.00014806252592341036,-0.0005128624740602572,0.004722684465034609,0.9961168916942741
2017-08-07,1,0.00044882888325846633,0.00045683787450586863,-0.0012717334791248138,0.005097581210765322,0.9958190623899266
2017-08-09,-1,-0.00017921934185161895,-5.8221821398244625e-05,-0.0012717334791248138,0.005097581210765322,0.9957784146053664
2017-08-11,-1,-0.00038307484238793833,-0.0002494683859680956,-0.0005128624740602572,0.0058323690989187625,0.995732647192573
2017-08-15,1,5.1485967577046085e-05,0.00013501639741678731,-0.0014506302050152787,0.005754290115924499,0.9950265686050966
2017-08-17,1,0.0002951021717747333,0.0003466292578347506,-0.0014506302050152787,0.005754290115924499,0.9946917927556341
2017-08-21,1,0.0005272749887188392,0.0005572536224699307,-0.0024025191200989426,0.004936810044070075,0.9944751741477943
2017-08-23,1,0.000851179652907685,0.0008619759047166241,-0.004438651608629115,0.003779384048358558,0.9941473387965044
2017-08-25,1,0.0006332950955719294,0.0006512832008252369,-0.006466612126523616,0.005754290115924499,0.9935196311918217
2017-08-29,1,0.0009063647293968318,0.0009332878999504645,-0.00857231455942936,0.003793716216411337,0.992576691783174
2017-08-31,1,0.0009161866495121518,0.0009461904457103424,-0.00857231455942936,0.004386704467749401,0.992461300967783
2017-09-05,1,0.001112417880106042,0.0011813375721833265,-0.00857231455942936,0.002187931603287798,0.9923480418123379
2017-09-07,1,0.0008217864999090589,0.0008591444116603855,-0.007442311859625426,0.004421786946585327,0.9925323606666242
2017-09-11,1,0.0011572142397605232,0.001222515930992511,-0.007442311859625426,0.001975101912593579,0.9929363275615711
2017-09-13,0,-6.718567918521262e-05,1.8827518823778767e-05,-0.0038425704003473807,0.0037927574763271066,0.9939214022237177
2017-09-15,1,0.0003906778059123568,0.00042040670035427594,-0.006164883247135598,0.0037927574763271066,0.9937387483433295
2017-09-19,1,1.7725212259714156e-05,7.865799383728687e-05,-0.0035575334102026955,0.004145976405639186,0.9939989044684343
2017-09-21,-1,-0.0007670687186798806,-0.0005904676145651451,-0.002471125129191715,0.005836352641929481,0.993670418306623
2017-09-25,-1,-0.0005697447298906219,-0.00041229490197189215,-0.0020267301136795935,0.005429950023847711,0.9941621005052267
2017-09-27,-1,-0.0014175044394529387,-0.001174213327771498,-0.002471125129191715,0.005429950023847711,0.9940198711730387
2017-09-29,-1,-0.001546167067342091,-0.001275728990685679,-0.0025484908394442242,0.006639806070907528,0.9937090620436363
2017-10-03,-1,-0.0017006745813536728,-0.001425966457958429,-0.0025484908394442242,0.006639806070907528,0.9937374285127171
2017-10-05,-1,-0.0009937628993104176,-0.0008234063651948037,-0.0025484908394442242,0.005237659720661918,0.9942652559947601
2017-10-09,-1,-0.0011362739069847084,-0.0009337474333081442,-0.0025484908394442242,0.006210590150093273,0.9939780374234035
2017-10-11,-1,-0.00029096860079230014,-0.00020224734948907192,-0.0025484908394442242,0.006210590150093273,0.9942547792154498
2017-10-13,1,5.241974351885854e-05,7.700483356908719e-05,-0.0025484908394442242,0.005158684514785764,0.9947531492205021
2017-10-17,1,0.00043706870112089494,0.0004930629367410661,-0.0019962149641056413,0.006639806070907528,0.9939021580267853
2017-10-19,1,0.0011253247823958974,0.001274874191985968,-0.004250269642757428,0.006210590150093273,0.9940638853236112
2017-10-23,1,0.0016037433662528058,0.0018411800072061749,-0.005928647714868056,0.005069397245461518,0.9933754361868292
2017-10-25,1,0.0008122983434627403,0.0009405723460939702,-0.004782906070630569,0.005069397245461518,0.9944532310789831
2017-10-27,1,0.000906098299301838,0.0010552760547630654,-0.004250269642757428,0.005069397245461518,0.994643219124383
2017-10-31,1,0.00046554498520930994,0.0005220604887179723,-0.0022705388386562633,0.0061386530617254815,0.9945246776286469
2017-11-02,1,0.000641156036450234,0.0007290866599030945,-0.0033845562562241052,0.006816913474205633,0.9942835814580478
2017-11-06,1,0.001120603697014237,0.0012957022162085876,-0.004672600807380255,0.006816913474205633,0.9939672989792856
2017-11-08,1,0.0016974229949187516,0.0019549007198014566,-0.004672600807380255,0.005803173955941048,0.9942886989126591
2017-11-10,1,0.001283664846260503,0.001469487917288786,-0.0033845562562241052,0.005803173955941048,0.9944971077480907
2017-11-14,1,0.002054059932813423,0.0023137297011490443,-0.004672600807380255,0.0038222814430161982,0.9945939392223684
2017-11-16,1,0.001274398727038124,0.0014020398801703414,-0.003194341943802464,0.0038222814430161982,0.9950652505877873
2017-11-20,1,0.0002188909740288221,0.00026461073217027377,-0.003194341943802464,0.0038222814430161982,0.9939985380804556
2017-11-22,1,0.00019143786823024676,0.0002515077298641471,-0.004317275897608324,0.0038198064996761956,0.9938272107663773
2017-11-27,1,0.0003952330998141805,0.0004415153319545387,-0.005812983622888744,0.0038198064996761956,0.9937432389287024
2017-11-29,1,0.0005675038629923056,0.0006015714318741543,-0.005812983622888744,0.00433250781404412,0.9934461916994525
