JNU-Tangyin/eata/results/Batch4_SP500/Batch4_SP500-BMY.csv
Date,Action,Predicted_Q25,Predicted_Q75,Actual_Q25,Actual_Q75,RL_Reward
2010-12-14,0,-0.000957369385106076,0.0,-0.004087433857103053,0.0028190307213173966,0.9957478353912793
2010-12-16,-1,-0.0005447818777225457,-0.0003970818835266762,-0.004087433857103053,0.000849806710208613,0.9956995077072379
2010-12-20,-1,-0.000683038156518957,-0.0005196151862822023,-0.004087433857103053,-0.0002855146880562658,0.9958320710362923
2010-12-22,-1,-0.0005568919721734931,-0.0004276097232579338,-0.003263584440793595,0.003491286508985353,0.9951290039821448
2010-12-27,-1,-0.0003276926829845168,-0.000249802477234101,-0.003263584440793595,0.0017144624657485586,0.9952492735636842
2010-12-29,1,9.814690473456238e-05,0.00010792433228781462,-0.0037852496454896445,0.0018095168016059636,0.9943515946719613
2010-12-31,-1,-0.00018949524200776021,-0.00016827089991862707,-0.005243595994901773,0.0018095168016059636,0.9924833827079248
2011-01-04,-1,-0.00019829699233007771,-0.00016856877325702519,-0.005243595994901773,0.0017589722490860074,0.9926106074721496
2011-01-06,-1,-0.0007146165468702568,-0.0006281321741291665,-0.003282413107200569,0.008029967220784452,0.9930718715647572
2011-01-10,0,0.0,0.0,-0.0032833120744281217,0.008029967220784452,0.9927501850389453
2011-01-12,0,0.0,0.0,-0.0032833120744281217,0.005754541508720438,0.9932512506859181
2011-01-14,0,0.0,0.0,-0.004337043360061547,0.008029967220784452,0.9921786813376683
2011-01-19,0,0.0,0.0,-0.0032833120744281217,0.008029967220784452,0.9925022781454627
2011-01-21,0,0.0,0.0,-0.004630897404533634,0.005257446179059987,0.9925404292825167
2011-01-25,1,4.198288150581568e-05,5.1168562706850254e-05,-0.006477723705952941,0.005257446179059987,0.992192468603604
2011-01-27,1,0.00020008121976473962,0.000234553016505078,-0.006477723705952941,0.005257446179059987,0.9926876876743664
2011-01-31,-1,-0.0010649023444559175,-0.0009518787877554559,-0.004812624024118374,0.006175390641358026,0.9936619741196779
2011-02-02,-1,-0.0008660077170746319,-0.0007811097469862295,-0.006477723705952941,0.0073136955428257395,0.9921404175445717
2011-02-04,-1,-0.0007328112904429005,-0.0006685395865006329,-0.006477723705952941,0.006175390641358026,0.9922560979895496
2011-02-08,-1,-0.00023855042166429755,-0.00023618978516256453,-0.006477723705952941,0.006175390641358026,0.9921774298064088
2011-02-10,1,8.783141385642828e-06,1.9601484937908688e-05,-0.00498128779318122,0.006175390641358026,0.9921356958471279
2011-02-14,1,0.00017335505548309724,0.0002013402709242073,-0.006585052728309333,0.005747767785918294,0.9918486939695592
2011-02-16,1,7.712481245005867e-05,8.713517984134848e-05,-0.007558648802581324,0.006175390641358026,0.9898902071457159
2011-02-18,0,0.0,0.0,-0.006585052728309333,0.01064373990467987,0.9896202954621205
2011-02-23,0,0.0,0.0,-0.005565589497124379,0.011109078288204377,0.9893520681047077
2011-02-25,0,0.0,0.0,-0.005565589497124379,0.011314676001826535,0.987779682839078
2011-03-01,0,0.0,0.0,-0.005748679475337534,0.011109078288204377,0.9880196024645498
2011-03-03,0,0.0,0.0,-0.0058796295044904546,0.01064373990467987,0.9890784473054398
2011-03-07,0,0.0,0.0,-0.0058796295044904546,0.010364240164677,0.9893070881443584
2011-03-09,0,0.0,0.0,-0.0058796295044904546,0.010658674264090512,0.9888951632685563
2011-03-11,0,0.0,0.0,-0.0058796295044904546,0.011314676001826535,0.9883675253329467
2011-03-15,1,9.803083207375146e-05,0.00014927563795523563,-0.004270442128774183,0.011314676001826535,0.9897150644473118
2011-03-17,-1,-0.00010600726934077022,-7.478112813569653e-05,-0.004017983233103427,0.010658674264090512,0.9910183234824645
2011-03-21,0,0.0,0.0,-0.004270442128774183,0.010264162369531777,0.9911065896126467
2011-03-23,1,0.0005323002406410109,0.0006449661225487856,-0.004212603061294819,0.009930915505200899,0.9913339998692557
2011-03-25,0,0.0,0.0,-0.004212603061294819,0.009275354112450361,0.9929730138715469
2011-03-29,0,0.0,0.0,-0.004001118232608116,0.009790800046555356,0.9928330205412262
2011-03-31,-1,-0.0003026436955197352,-0.00025671205395256836,-0.004001118232608116,0.009790800046555356,0.9931775820363509
2011-04-04,1,7.257533077422953e-05,7.284168298248509e-05,-0.004001118232608116,0.010661177920080284,0.9925282549708351
2011-04-06,0,0.0,0.0,-0.004074810534030371,0.009895553878364263,0.9927873596740507
2011-04-08,0,0.0,0.0,-0.004047166397109233,0.009275354112450361,0.9933724880475531
2011-04-12,1,2.8797754786531083e-05,4.437164099927128e-05,-0.004047166397109233,0.009275354112450361,0.9934165491599896
2011-04-14,1,0.00020776817011862648,0.00023641396939711134,-0.003634857958713566,0.006544288090645641,0.9937350905533142
2011-04-18,1,0.000993943552971768,0.001142148362938477,-0.003634857958713566,0.005371217645931046,0.9945292790758924
2011-04-20,1,0.000984267108904388,0.0011309120425438816,-0.003634857958713566,0.005371217645931046,0.9944039617227779
2011-04-25,1,0.0009504017804082591,0.0010892999876673678,-0.005145195319499,0.005371217645931046,0.993961043453897
2011-04-27,0,0.0,0.0,-0.005145195319499,0.0036541735637190377,0.9947737390042702
2011-04-29,0,0.0,0.0,-0.004337481139238861,0.0047515348258683225,0.9947916019193469
2011-05-03,0,0.0,0.0,-0.005145195319499,0.0034994972106296885,0.9947217664824998
2011-05-05,0,0.0,0.0,-0.005145195319499,0.0034994972106296885,0.9947980596471336
2011-05-09,1,1.38182987442144e-05,2.2317147007336215e-05,-0.005145195319499,0.0023673627542707748,0.9951464419979346
2011-05-11,1,0.0012838292339691975,0.001479128268838053,-0.005145195319499,0.0018577453149430606,0.9948690328752291
2011-05-13,0,0.0,0.0,-0.006085981974741776,0.0018577453149430606,0.9945852783023436
2011-05-17,0,0.0,0.0,-0.0067858737629585865,0.002399153985632727,0.9942167052073053
2011-05-19,1,0.0012208780385456898,0.0014048641867463454,-0.006085981974741776,0.0018955724155173147,0.9948525499592475
2011-05-23,0,0.0,0.0,-0.0028546632309716085,0.003594870904715545,0.9947150804195667
2011-05-25,0,0.0,0.0,-0.0045288006259863465,0.0048137605609705324,0.9916050479162425
2011-05-27,1,0.0011896866545484772,0.0013247382452211734,-0.008870867745482748,0.0038117729929071052,0.9903743500384073
2011-06-01,1,0.0006176371954669548,0.0006413727071071729,-0.006919775119928252,0.003587218204773624,0.9914437342213158
2011-06-03,1,0.000347235547441496,0.00036305178007005475,-0.004020048559379224,0.005626578090739209,0.9909963472675729
2011-06-07,1,0.0004247317855479337,0.00043745679916070454,-0.004020048559379224,0.005626578090739209,0.9909706975504937
2011-06-09,1,0.00010120889396761102,0.0001438549230233246,-0.008528452029620291,0.005626578090739209,0.990502838672173
2011-06-13,-1,-0.00022073585615884213,-0.00012536262383300274,-0.008051822630454175,0.0053783698967296845,0.9908394869812113
2011-06-15,-1,-0.000167998864413215,-0.00010457877963775605,-0.0035480128475388647,0.0053783698967296845,0.9913063465769725
2011-06-17,-1,-0.00017427003102596538,-0.000106262324390977,-0.008051822630454175,0.0053783698967296845,0.9907726061756199
2011-06-21,1,0.0005067101430638014,0.0005470792261430328,-0.008051822630454175,0.004708066396474928,0.9912968051173214
2011-06-23,1,0.001049202689479837,0.0010821274372502922,-0.005325143248844826,0.004708066396474928,0.9932950047936031
2011-06-27,1,2.2078872357422276e-05,0.00011032056214128384,-0.004805508493702426,0.004708066396474928,0.9939351854725809
2011-06-29,1,0.0005374240130613873,0.0005435833721938959,-0.0063394969349970885,0.005158582428716047,0.9928079089915675
2011-07-01,1,0.0006425867124659603,0.0006467692275142783,-0.008051822630454175,0.003121037140689301,0.9928878885339957
2011-07-06,1,0.0004681665939471936,0.0004986979466033646,-0.008757757025086474,0.004398667291992297,0.9916833131484981
2011-07-08,1,0.0005020147427468312,0.000516588417811899,-0.00979625218068381,0.0044237271538424975,0.989964945707311
2011-07-12,0,0.0,0.0,-0.011381807137439578,0.00615428006845061,0.9873915309959369
2011-07-14,0,0.0,0.0,-0.013770624466593157,0.008986360562812316,0.9839349255362424
2011-07-18,0,0.0,0.0,-0.013770624466593157,0.008986360562812316,0.9840270244515409
2011-07-20,-1,-8.91020031440739e-05,-1.741123262421663e-05,-0.013770624466593157,0.008986360562812316,0.9838686655610127
2011-07-22,1,0.00027117975704316126,0.00029265029167169123,-0.015571214241092323,0.008086235255265606,0.9839075766107032
2011-07-26,0,0.0,0.0,-0.015571214241092323,0.008986360562812316,0.9831182174331644
2011-07-28,0,0.0,0.0,-0.015621152366157829,0.008086235255265606,0.9836064100938315
2011-08-01,0,0.0,0.0,-0.015621152366157829,0.008986360562812316,0.9830740717114472
2011-08-03,0,0.0,0.0,-0.008071462512362012,0.01186016789814345,0.9830422072888075
2011-08-05,0,0.0,0.0,-0.008071462512362012,0.011281932022713059,0.9841797003062459
2011-08-09,0,0.0,0.0,-0.002963599353901728,0.011281932022713059,0.9858646018355132
2011-08-11,0,0.0,0.0,-0.0032062659295174884,0.008052953155704921,0.9882579519598246
2011-08-15,0,0.0,0.0,-0.0032062659295174884,0.008720773389536012,0.9882543905746601
2011-08-17,0,0.0,0.0,-0.0032062659295174884,0.009986003419743638,0.9881661066929633
2011-08-19,0,0.0,0.0,-0.0020976776297111184,0.013109374196329748,0.9881162192415291
2011-08-23,0,0.0,0.0,-0.0032062659295174884,0.013109374196329748,0.9875890710647255
2011-08-25,0,0.0,0.0,-0.0032062659295174884,0.013109374196329748,0.98761878282619
2011-08-29,0,0.0,0.0,-0.0032062659295174884,0.010056460636437198,0.9884465570709484
2011-08-31,0,0.0,0.0,-0.004420847132761901,0.009625704124038115,0.9887180198711983
2011-09-02,0,0.0,0.0,0.0006289268670190986,0.009625704124038115,0.9893567808552752
2011-09-07,0,0.0,0.0,0.0006289268670190986,0.010056460636437198,0.9889578024389243
2011-09-09,-1,-0.0005190566214895917,-0.00045256400527589975,0.0006747240648959664,0.010056460636437198,0.9894511473553941
2011-09-13,-1,-9.231117920080802e-05,-8.407416978158829e-05,0.0006747240648959664,0.011827391561715132,0.9894020841413217
2011-09-15,1,0.00027440100533628357,0.0003170556626867708,-0.0026797551642570748,0.010746493674598567,0.989929449764794
2011-09-19,1,0.0012786943867428252,0.0014873197546903614,-0.005324367180551329,0.009233395521470393,0.9908238788402238
2011-09-21,1,0.0014041465158980582,0.0016182189175696334,-0.004798095866288883,0.00888307399943054,0.9924157366102885
2011-09-23,1,0.0018825138705977993,0.0022044290234403434,-0.0026797551642570748,0.008535811279680783,0.9933238740419105
2011-09-27,1,0.0017851653661914123,0.0020738334582484884,-0.004798095866288883,0.005058457148951624,0.992822980423929
2011-09-29,1,0.0018755330527502835,0.0021914332215727185,-0.0026797551642570748,0.009380302950521939,0.9927727958668074
2011-10-03,1,0.0014545103611475457,0.0017438676242893857,-0.0069759915327077485,0.006084058476026954,0.9908769775972535
2011-10-05,1,0.0024610546160386097,0.0028777051924053906,-0.008632000634739644,0.003699221691188014,0.9915518972249673
2011-10-07,1,0.0018918684451865093,0.0022292166805366193,-0.009089689822598909,0.0037643435160876677,0.9909179785692303
2011-10-11,1,0.0023003022798637482,0.00268660783935891,-0.009089689822598909,0.003699221691188014,0.9910257041940972
2011-10-13,1,0.001956139477132704,0.0022689173907359545,-0.010476596346542818,0.005482286284310872,0.9898874107639031
2011-10-17,1,0.0016508398829697105,0.0019370274350303212,-0.009798285216166026,0.010948928010543712,0.9894289267044184
2011-10-19,1,0.0016046604921611915,0.0018938478966425108,-0.012041951192652226,0.010948928010543712,0.9887100910950354
2011-10-21,1,0.0016665562392191992,0.0019515936650161456,-0.012041951192652226,0.010948928010543712,0.9882091532238794
2011-10-25,1,0.0012366615614440466,0.0014444680924756291,-0.012041951192652226,0.010948928010543712,0.9883377595183167
2011-10-27,1,0.0018970831282745047,0.002191006719055981,-0.012041951192652226,0.0036880890930053156,0.9886165724869704
2011-10-31,1,0.0006247123669890435,0.0007493783314601506,-0.01009047496260675,0.010948928010543712,0.9890719952222391
2011-11-02,1,0.00043764430537414584,0.0005238521191225207,-0.01009047496260675,0.011609989423525858,0.9876574158796269
2011-11-04,1,0.0005242435570931367,0.0006080231316024107,-0.008986072731201347,0.010948928010543712,0.9888905915837651
2011-11-08,1,0.0008918888587560161,0.0010282602985571872,-0.008986072731201347,0.01157075959966387,0.9885264703179001
2011-11-10,1,0.0008365788668830236,0.000988180880707304,-0.007308983621225985,0.009719777185325301,0.98959523165588
2011-11-14,1,0.000661498088183755,0.0007392553737232245,-0.007487233811323153,0.009262090754468561,0.989660787985488
2011-11-16,-1,-0.0003324449632020682,-0.00023797919523830163,-0.004603852866034943,0.011006163552675727,0.9894200862045761
2011-11-18,-1,-0.0003183768948733791,-0.00022832015448947092,-0.0020820848362326514,0.011006163552675727,0.9899010737216373
2011-11-22,-1,-0.00025099310570930223,-0.00019888551515010974,-0.0001159830244966823,0.012418452669107937,0.9891945882516417
2011-11-25,-1,-0.0005467000150226136,-0.00046171881681748253,6.273705638218971e-05,0.012418452669107937,0.9893590346516261
2011-11-29,1,0.000604469032818705,0.0006531573091987538,-0.0020820848362326514,0.009262090754468561,0.9915929673309722
2011-12-01,1,0.0010579542583768484,0.0011615014573291137,-0.0020820848362326514,0.007775026906833515,0.9934961271113423
2011-12-05,1,0.0009523691640029947,0.001044911649386328,-0.005035873050339256,0.007775026906833515,0.9923916144477198
2011-12-07,1,0.0012386265790164444,0.0013492486847273112,-0.005348119459944978,0.006423555871297412,0.993003434962646
2011-12-09,1,0.0012446012092248494,0.0013644687740391125,-0.005348119459944978,0.006552918726309151,0.9921938796625963
2011-12-13,1,0.0013803268422396713,0.0015602674429808093,-0.005348119459944978,0.006058062832731693,0.9924127637871378
2011-12-15,1,0.0016710324289287294,0.0018632708296373074,-0.005882204290806567,0.0021718101671463104,0.9924939224928624
2011-12-19,1,0.0016158895786236235,0.0018006995219925583,-0.007159844290408507,0.0021718101671463104,0.9910472385531995
2011-12-21,1,0.0020143846510398433,0.002255742418187922,-0.007159844290408507,0.0005741129250920744,0.9915032037873712
2011-12-23,1,0.0017422648489561706,0.001910742064724286,-0.0073464092062105755,0.0008790129083981317,0.9911189926466039
2011-12-28,1,0.0013541496061207506,0.0014063823551399425,-0.0073464092062105755,0.000369013516910941,0.990958133471942
2011-12-30,1,0.0012132645293535843,0.0012685368923008467,-0.0073464092062105755,-0.00015839157598047335,0.9911755389615307
2012-01-04,1,0.0005489560476388167,0.0005894794836292656,-0.006739780040485274,0.000369013516910941,0.9924833463828718
2012-01-06,1,0.000219319084871646,0.00023661293174301928,-0.006739780040485274,-0.00015839157598047335,0.9926838060664717
2012-01-10,1,0.0007148076171219437,0.0007341416057859662,-0.0060692501018178345,-0.00015839157598047335,0.9937113270327611
2012-01-12,-1,-0.0002356293165810099,-0.00013531777262768994,-0.005597197324898823,-0.001006607817681319,0.9947688668949833
2012-01-17,0,-8.751587304368995e-06,2.5152578594671624e-05,-0.004660517908698581,-0.00015839157598047335,0.9948595185317682
2012-01-19,-1,-0.0012793469842604533,-0.0010735433175073418,-0.004116342105611046,0.0006238535404489288,0.9965468719105082
2012-01-23,-1,-0.0015143527046813424,-0.001295839698418223,-0.004116342105611046,0.0011762987454076671,0.9939724463090067
2012-01-25,-1,-0.0008080108865112528,-0.0007046577503962072,-0.0037826017337862557,0.0011762987454076671,0.9945025825554843
2012-01-27,-1,-0.0017052314177343044,-0.0014353186562948853,-0.0028075087452262334,0.003046792606257247,0.9945651561767102
2012-01-31,-1,-0.0016395138009660712,-0.0014235895485284937,-0.0037826017337862557,0.003046792606257247,0.9940445596114248
2012-02-02,-1,-0.002115246826385892,-0.001793971963363825,-0.0031174562995474144,0.003046792606257247,0.9937351834820026
2012-02-06,-1,-0.002074666019985203,-0.001790085249184413,-0.0032041251199246864,0.004125947677781835,0.9924578187571943
2012-02-08,-1,-0.0018223055160461314,-0.0015842164136100605,-0.0032041251199246864,0.005932623148251872,0.991740085719301
2012-02-10,-1,-0.0015791602238674467,-0.0014171472917110207,-0.0031825808012858284,0.005932623148251872,0.9913101397907202
2012-02-14,-1,-0.0014813408657159172,-0.0013276556540275427,-0.0018450441027291608,0.008105089186900866,0.9908055149880298
2012-02-16,-1,-0.0013778356996432108,-0.00125276193571759,-0.0036198929979809197,0.008105089186900866,0.9908447494078507
2012-02-21,-1,-0.0014470151779996617,-0.00130604254672712,-0.0022798679831132927,0.005411680794449343,0.9936295308516828
2012-02-23,-1,-0.0013644804390454516,-0.001238690294655399,-0.003115102768294062,0.005411680794449343,0.9935704286470949
2012-02-27,-1,-0.0008502640106599594,-0.0008005919671271078,-0.003115102768294062,0.005788794346359327,0.9930434444425104
2012-02-29,-1,-0.000749675213771096,-0.0007354446456658399,-0.0015114409907394546,0.005788794346359327,0.9934966279520167
2012-03-02,-1,-0.0005942154914630577,-0.0005922645122002255,-0.001656382284200832,0.0048950520446270655,0.9938911886088861
2012-03-06,-1,-0.0004317324987203261,-0.0003797966433624267,-0.0010542521303204763,0.0043504013327045725,0.9951232032129593
2012-03-08,-1,-0.00016642460438236862,-8.926309219704393e-05,-0.001656382284200832,0.0040114316836167355,0.9956557039147672
2012-03-12,1,3.485609985839959e-05,0.00013142968771117633,-0.003704965487010517,0.002758681224766987,0.9942727699329638
2012-03-14,1,0.0003095133590748628,0.0004370728855307469,-0.003704965487010517,0.0019631259722526287,0.9946931308428067
2012-03-16,1,0.00017248297590671357,0.0002939932065711833,-0.0024004304987889948,0.002710123130227438,0.9946962500273081
2012-03-20,0,-8.270504398029095e-06,6.154811108874893e-05,-0.0017372759030286455,0.0044588087521911825,0.9939100785160466
2012-03-22,1,0.00032430115249689666,0.000495876588987509,-0.0007519636464928731,0.006456523080388697,0.9934242502572291
2012-03-26,1,0.00022731655088806314,0.0002962386285544362,-0.0017372759030286455,0.005458498772269822,0.993903071570335
2012-03-28,1,1.6295197210840342e-06,3.8122775964852525e-05,-0.003704965487010517,0.006456523080388697,0.9927764159619054
2012-03-30,1,0.00017773413326620127,0.0002487452948827164,-0.0058823846802207105,0.0062535612169567515,0.9925181562173301
2012-04-03,1,0.0005399033944415296,0.0006795242855909579,-0.0058823846802207105,0.0062535612169567515,0.9925216258673408
2012-04-05,1,0.0001345645709898952,0.0002093094536429308,-0.00502850351329248,0.0062535612169567515,0.9925751466268541
2012-04-10,-1,-0.0011174300638009897,-0.0010283569861473212,-0.001890706058893461,0.0062535612169567515,0.9935401768130824
2012-04-12,-1,-0.0014225282693954722,-0.00126064862534114,-0.004778373697835394,0.0089862996148194,0.9925437416977915
2012-04-16,-1,-0.0011106143946666475,-0.0009836757618559536,-0.006398272589589902,0.0062535612169567515,0.9930179589879288
2012-04-18,-1,-0.0008009016633918652,-0.000698020245078661,-0.006398272589589902,0.0031465537689998966,0.9938424720789422
2012-04-20,-1,-0.000672665573584734,-0.0005651509415832373,-0.007647925135200628,0.0016571839680624616,0.9944976524151654
2012-04-24,-1,-0.0005250422483287489,-0.0005156187060558945,-0.006398272589589902,0.0022695123326548217,0.9946823418109482
2012-04-26,-1,-0.0006064561711082084,-0.0006033971018719487,-0.006398272589589902,0.0022695123326548217,0.9947275711526229
2012-04-30,-1,-0.0010813212899412473,-0.0010233257937988086,-0.004420595196213723,0.003190553117499675,0.9948155770473671
2012-05-02,-1,-0.0004351179157677482,-0.00038015715219439007,-0.004646310608968182,0.003190553117499675,0.9947613129956482
2012-05-04,-1,-0.00019432835100474238,-0.00013198942083238204,-0.004646310608968182,0.003801300668524681,0.9944776752167213
2012-05-08,-1,-0.000656126467273861,-0.0006143044571544182,-0.002853124371482871,0.004931900050104436,0.9942825357563203
2012-05-10,-1,-0.0003968112393673786,-0.00028238162859996186,-0.0012895711710046826,0.004691652788745648,0.9950571689221018
2012-05-14,-1,-0.000589137177864295,-0.0004990663057374265,-0.00045826487676487175,0.004691652788745648,0.9949507320169035
2012-05-16,1,0.00010061532543964894,0.00033919708822553296,-0.000978972431331011,0.006409432890753561,0.9949033509159412
2012-05-18,0,-0.00014801614799962812,5.167271066619766e-05,-0.0005212440471226004,0.007236419150933376,0.9943067974334838
2012-05-22,1,8.98001682942181e-05,0.00032361076560076996,-0.0015219283501169247,0.0073109972272759035,0.9941099422962263
2012-05-24,1,0.0005232314738563928,0.0008273764492282079,-0.0005168947356185267,0.0073109972272759035,0.994638142326803
2012-05-29,-1,-0.00025639037398175133,-0.0001122953016434929,-0.0015219283501169247,0.007897441592428047,0.9924938513574983
2012-05-31,0,-0.00010722796141947007,9.555901175315102e-06,-0.0005168947356185267,0.009910352321521565,0.9921066369382119
2012-06-04,-1,-0.0002041113024504926,-4.033133710905465e-05,-0.0005056777169288999,0.010010218344360916,0.9912345257998337
2012-06-06,0,-2.117793837218122e-05,0.00011050697432093124,-0.0029405613712930913,0.010010218344360916,0.9900895090322566
2012-06-08,1,7.143992433537643e-05,0.00019935775736981942,-0.004158136987958324,0.010525481637685744,0.9897621716202051
2012-06-12,-1,-0.0002692478043578099,-0.00024983267673266265,-0.004158136987958324,0.010525481637685744,0.9894617988455499
2012-06-14,-1,-0.00021321237375568862,-0.000197642092977394,-0.004158136987958324,0.011531729833516958,0.9888857585740265
2012-06-18,1,4.0279186075272e-05,0.00010533361484883522,-0.0038107763888875898,0.012178890442227773,0.9890551698823473
2012-06-20,-1,-7.459037966037368e-05,-5.570972183664876e-05,-0.0038107763888875898,0.012178890442227773,0.9892476797486136
2012-06-22,1,0.00037024550243022053,0.00045309282008509206,-0.005592875619629662,0.011531729833516958,0.9886032762669692
2012-06-26,1,0.0006459673693446628,0.0007538183629050325,-0.005167016043746741,0.009899985507139674,0.9902602521272986
2012-06-28,1,0.0009925359542927604,0.0011341370360640813,-0.005167016043746741,0.009899985507139674,0.989704261029566
2012-07-02,1,0.0012661052358524264,0.001438501480789647,-0.007288932784033392,0.007550235233048354,0.9902540721527192
2012-07-05,-1,-7.746087957102254e-05,-6.925823240843232e-05,-0.007288932784033392,0.007550235233048354,0.9877150975908391
2012-07-09,1,0.0005429978786286014,0.0005511982961638323,-0.007288932784033392,0.006496772307357412,0.9883153803924357
2012-07-11,1,7.602487580491775e-05,0.00011609714548333652,-0.008059913628955357,0.006496772307357412,0.9881977032985885
2012-07-13,1,0.0008391226636403184,0.0008935378562857578,-0.010622843116392361,0.00283805404148728,0.9885665456810859
2012-07-17,1,0.001214797758018492,0.00132021941767009,-0.010622843116392361,0.00283805404148728,0.988734151199806
2012-07-19,1,0.0012586301671219783,0.0013810790474632463,-0.010622843116392361,0.00325558012745917,0.9886543013176623
2012-07-23,1,0.00017526980761475982,0.00022026483609403078,-0.007717383037296139,0.004270244288484223,0.9898504596206681
2012-07-25,1,0.000512333946959599,0.0005225801363579228,-0.006351984443515507,0.004270244288484223,0.989999182692675
2012-07-27,1,0.0009429706138105883,0.0009891758505571867,-0.006351984443515507,0.004270244288484223,0.990299199916764
2012-07-31,1,0.0007664607352020504,0.0008086401671644338,-0.0031533780663239785,0.004812555993514124,0.9905140468790665
2012-08-02,1,0.0006627666702420975,0.0007021613768762525,-0.00199614995584093,0.004812555993514124,0.9945981690490346
2012-08-06,1,0.0007523472771742762,0.0008210406903935764,-0.00199614995584093,0.004812555993514124,0.9944979690187354
2012-08-08,1,0.00021693351500708807,0.00023523520761166986,-0.0018128990339139283,0.0053032762746617005,0.994465789824291
2012-08-10,-1,-0.00015614647888878623,-8.907417780782927e-05,-0.00199614995584093,0.0053032762746617005,0.9944589897397201
2012-08-14,-1,-0.00023939975335992097,-0.00015938144778072794,-0.0018128990339139283,0.006962854434906817,0.9942428560076191
2012-08-16,1,0.00022238736106514924,0.00023238195351258848,-0.00199614995584093,0.006962854434906817,0.9937590285510353
2012-08-20,1,4.785648756347943e-05,6.33901581262156e-05,-0.003093942712047181,0.006962854434906817,0.9939610469259973
2012-08-22,1,0.00011579633964595116,0.00012195037682724878,-0.0025664358293815705,0.006559595993239913,0.994113714374534
2012-08-24,1,0.0007734820624776563,0.0008603250864492903,-0.0025664358293815705,0.006037285941326916,0.9942240012324912
2012-08-28,1,0.0008819307719708871,0.0009642028584318253,-0.004882195128098864,0.004562171778304234,0.9941351559245712
2012-08-30,1,0.00018863259923669525,0.00024814034186501735,-0.004882195128098864,0.005514510567119165,0.9938547702295406
2012-09-04,1,0.0004308334600795783,0.0004588060925423093,-0.004882195128098864,0.005514510567119165,0.9939733782083499
2012-09-06,1,0.0007765561691464533,0.000821356160535098,-0.005120923511766959,0.0049233355752568075,0.9939748332951865
2012-09-10,1,0.00040781093702699174,0.00044300500411674265,-0.003494218481893746,0.0049233355752568075,0.9942745606481339
2012-09-12,1,0.00146933756281891,0.0016094718595430217,-0.005120923511766959,0.004090366893814379,0.9943405572319427
2012-09-14,1,0.0010013001366985532,0.001060661960305413,-0.005120923511766959,0.004371816522434726,0.994567314008999
2012-09-18,1,0.000632717582152154,0.0006337340691061342,-0.0025220879715108224,0.005514510567119165,0.9936362013858371
2012-09-20,1,0.0005786422968359024,0.0005904215079682435,-0.0027018952541480483,0.005707108777913657,0.9934112624115109
2012-09-24,1,0.0011770924647982613,0.001238583529176144,-0.004497058414536018,0.004966712500202908,0.993553848324169
2012-09-26,1,0.0007742470857684761,0.0007759994501628468,-0.006617166523993954,0.004966712500202908,0.9925917679228935
2012-09-28,1,0.0007883766897315077,0.0008011789657457634,-0.006617166523993954,0.005029179936159099,0.991847437727756
2012-10-02,1,0.0008448633858488739,0.0008554645502067163,-0.009448621344043116,0.006121560132543057,0.9911726993852652
2012-10-04,1,0.000162409614671792,0.0002724058477397839,-0.009050521152957094,0.006121560132543057,0.9914439111286965
2012-10-08,0,-2.299515306359174e-05,0.00010759204318016956,-0.009448621344043116,0.006121560132543057,0.990457981183224
2012-10-10,-1,-0.0005070708074118958,-0.0003074383338374906,-0.009741654767290565,0.006121560132543057,0.9901442507822812
2012-10-12,-1,-0.0007583960351970866,-0.0005315182254166051,-0.009499678732611367,0.006121560132543057,0.9903578972728987
2012-10-16,1,7.176585418847261e-05,0.0001898377159931279,-0.012677499664917158,0.003928437257682263,0.9900090640278544
2012-10-18,1,0.0002583535914023111,0.00033910921614913606,-0.012677499664917158,0.0057804661279467736,0.9885226756788946
2012-10-22,1,5.414938393302819e-05,0.00017325285650306692,-0.011313305415245764,0.005809109176178947,0.9890474506433957
2012-10-24,-1,-0.000769643239665633,-0.0005541663877321072,-0.009499678732611367,0.006588909934195632,0.9900700365833417
2012-10-26,-1,-0.00014390400723623763,-1.4370602489820769e-05,-0.009499678732611367,0.005699652665659414,0.9908344915735157
2012-11-01,-1,-0.00020388082356315895,-8.127161433725804e-05,-0.008969862474730694,0.004169859940585145,0.9912917492058327
2012-11-05,-1,-0.0006790176058471299,-0.0004917846564498353,-0.006591282740927635,0.004169859940585145,0.991674579583445
2012-11-07,-1,-0.0009279598892537524,-0.0007239728123297758,-0.004197024206843516,0.00369650837731639,0.9926243319172001
2012-11-09,-1,-0.001302372790450616,-0.001055842465799186,-0.003972239091347252,0.004429793526590706,0.9928806724363574
2012-11-13,-1,-0.0017250067082182066,-0.0014257874466953317,-0.002517673009191727,0.006779123156329631,0.9924519967257458
2012-11-15,-1,-0.002410113811211568,-0.0020593884296665707,-0.001906097954535883,0.006779123156329631,0.9930668222793451
2012-11-19,-1,-0.00171317902803725,-0.0014878208429118423,-0.001906097954535883,0.004794932699894906,0.9948535523358684
2012-11-21,-1,-0.0008635846649784268,-0.0007563469937793344,-0.002517673009191727,0.003818221435084457,0.9951101709865792
2012-11-26,1,0.00010091205869994905,0.00014320041857528073,-0.0032200745662666038,0.0029841786307446033,0.9956427639310792
2012-11-28,-1,-0.0009194479769128396,-0.0007854915712341365,-0.003764096498938091,0.002750406209695765,0.995510230171772
2012-11-30,-1,-0.0010541054280628066,-0.0009262716213652468,-0.003764096498938091,0.003122580083039065,0.9944757783099938
2012-12-04,-1,-0.0012761135021566257,-0.001095948292444154,-0.003764096498938091,0.004851907955412088,0.9936068589743313
2012-12-06,-1,-0.0007289120104659041,-0.000658383846541088,-0.003764096498938091,0.004851907955412088,0.9935333751168454
2012-12-10,-1,-0.0001460650281884465,-0.00010987299027613551,-0.003150693702130217,0.004593392852385471,0.9938050016873924
2012-12-12,1,0.00022904041120646012,0.0003225130308420635,-0.003150693702130217,0.004179882222499612,0.9938288434287865
2012-12-14,-1,-0.0012646325154546854,-0.0011133302055170693,-0.0009980654184338917,0.004179882222499612,0.9937248929196272
2012-12-18,-1,-0.0007909337432871045,-0.0006990576722889357,-0.00207866761580562,0.0034023966043048104,0.994306434413428
2012-12-20,-1,-0.0007675259774300216,-0.000719773296201275,-0.0006671802113300037,0.005576449219769362,0.9940521503725581
2012-12-24,-1,-0.0011849706645646195,-0.0010635361108164154,0.001098721409147237,0.007084333554899943,0.9925544926595634
2012-12-27,-1,-0.0017296801931841067,-0.0015461713016185824,0.0013694537640602368,0.011531437097453873,0.9909970236068457
2012-12-31,-1,-0.0011168211608246128,-0.0010109644134312368,0.0014832084279828338,0.007084333554899943,0.9924099004923093
2013-01-03,-1,-0.0006178589007617776,-0.0005394639304453141,0.0013694537640602368,0.007084333554899943,0.9921348153216153
2013-01-07,-1,-0.0009184127469177544,-0.0007864944142048499,0.000587563147376474,0.007084333554899943,0.991783328769213
2013-01-09,-1,-0.0005880232273373846,-0.0004964071080772311,-0.0006157908170746264,0.006987488741030944,0.9922888121191467
2013-01-11,-1,-0.00011580319728978255,-8.833506136905456e-05,-0.0016680856810973985,0.006987488741030944,0.9922715626690229
2013-01-15,-1,-6.490237168778706e-05,-3.130168225782976e-05,-0.00393322254436004,0.006987488741030944,0.9914610582740602
2013-01-17,-1,-0.00012762743830307981,-9.126005239421805e-05,-0.00393322254436004,0.01167194092160491,0.9909483408555079
2013-01-22,1,0.0008076179354949821,0.0009330280686713536,-0.0069836673404080635,0.010564868323178394,0.9910290126618249
2013-01-24,1,0.0017885291215466869,0.0020619161930100854,-0.0069836673404080635,0.006753121067118154,0.9918998769892833
2013-01-28,1,0.0019483893331972836,0.002233823065461242,-0.0077173552105743014,0.004108785184761065,0.9925652736329353
2013-01-30,1,0.0022193612421069547,0.002556126120911834,-0.0077173552105743014,0.006753121067118154,0.9914064303327207
2013-02-01,1,0.002653948294601443,0.0030689735384577446,-0.005931560596136618,0.00508254289578863,0.9924294026888768
2013-02-05,1,0.0020301262225867894,0.002321376974580785,-0.004041186152247701,0.006753121067118154,0.9925372801370594
2013-02-07,1,0.002345884057386945,0.002700741677901924,-0.005762400129805684,0.006753121067118154,0.992056942108894
2013-02-11,1,0.0024672259794834834,0.0028145598475560734,-0.005762400129805684,0.006753121067118154,0.9920805050139194
2013-02-13,1,0.0014369989993358945,0.001619510227249169,-0.0034738591691724084,0.007758620799194216,0.9929825859534231
2013-02-15,1,0.0018781732345630672,0.002131052970461633,-0.0034738591691724084,0.007758620799194216,0.9929307632729116
2013-02-20,1,0.0022730917841717133,0.0026206103882504108,-0.002405958537625307,0.01199193906728089,0.9927907290369046
2013-02-22,1,0.002274783060443512,0.0026021167315313748,-0.0034738591691724084,0.012723565982170428,0.992020530238418
2013-02-26,1,0.0018716517330751696,0.002154024002914774,-0.003279939342511448,0.012723565982170428,0.992156658766029
2013-02-28,1,0.0024746598192478845,0.0028460670140604332,-0.0023446641587122584,0.01199193906728089,0.9930882024290675
2013-03-04,1,0.0025060980052276187,0.00286366193999508,-0.0014237355937659275,0.012636984037273626,0.9928978991963782
2013-03-06,1,0.002933987350356833,0.0033357650153829225,-0.003279939342511448,0.01199193906728089,0.9924195937993042
2013-03-08,1,0.002374186112023535,0.0026732790004400054,-0.0023446641587122584,0.01199193906728089,0.9927332064221422
2013-03-12,1,0.0029453162096716723,0.0033041933534394188,-0.0023446641587122584,0.010781993311248605,0.9932626832913992
2013-03-14,1,0.003522391828812258,0.003998222706505546,-0.0023446641587122584,0.010781993311248605,0.993518130088215
2013-03-18,1,0.0038317741781424006,0.004350976465271978,-0.003417243389732265,0.010148518546161651,0.9930178462168534
2013-03-20,1,0.004329492914078024,0.004896413965142487,-0.00464866166985164,0.007909788601164872,0.9926271061491082
2013-03-22,1,0.004027251117772952,0.00450443884626283,-0.00464866166985164,0.00912621170367037,0.992541013345184
2013-03-26,1,0.004445006500616149,0.004996550173181205,-0.006159247822122005,0.008818776891173118,0.9916903282296098
2013-03-28,1,0.004419220098162828,0.004957774364507729,-0.006543564104216056,0.007909788601164872,0.9902030610709253
2013-04-02,1,0.004329130549920292,0.004831337482802763,-0.007592271600280986,0.004118032061941686,0.9897768206869167
2013-04-04,1,0.003166278631231772,0.003475544937260963,-0.006159247822122005,0.007377624820685878,0.9913664281850749
2013-04-08,1,0.0026918565470003485,0.0029046555235105525,-0.006159247822122005,0.007377624820685878,0.9914139132858311
2013-04-10,1,0.0025982150367728214,0.0027660137793689282,-0.006902218685711955,0.0053869141468722405,0.9910416929235714
2013-04-12,1,0.0019185828878604937,0.0019249552244379226,-0.006902218685711955,0.007377624820685878,0.9903925480676045
2013-04-16,1,0.002004582398909235,0.0020857799460753234,-0.006159247822122005,0.009396598852607846,0.9897077220449518
2013-04-18,1,0.0017001303684577923,0.0017416761896039664,-0.0056944468670928955,0.011841478890016743,0.9863044135055201
2013-04-22,0,0.0,0.0,-0.0056944468670928955,0.01074609657940022,0.9866603642231685
2013-04-24,1,0.0018523533962728357,0.0019122291605502485,-0.004548383887469392,0.011433293276646647,0.9855093639159838
2013-04-26,1,0.000853641653793278,0.0009162963954015807,-0.0011194048616892333,0.012526626379517802,0.9859107573591628
2013-04-30,1,0.00015020658027540873,0.000281154195920479,0.0,0.012526626379517802,0.9851661954784778
2013-05-02,1,0.0004141899672863734,0.0005621876623818722,-0.0011194048616892333,0.012526626379517802,0.9842699721424166
2013-05-06,1,0.00022952706215272002,0.00038279071119730904,-0.00212393895988782,0.013204395188007523,0.9822159194243963
2013-05-08,1,1.913160182203527e-07,0.00016672787035333913,0.0009069584298903258,0.01501270336177321,0.9810003948533198
2013-05-10,1,0.00016323827004922334,0.00033786697071076603,-0.006523380175859789,0.014192521314342359,0.9813414714177412
2013-05-14,1,0.001380669439294659,0.001407497754896314,-0.014376513501467202,0.012526626379517802,0.9827295104484768
2013-05-16,1,0.0013488221978710084,0.0014135399916288286,-0.009406361572897905,0.012514825614345434,0.9859013013332067
2013-05-20,1,0.0017194083029824423,0.001755331226546882,-0.009406361572897905,0.011199672932132261,0.9861037542153387
2013-05-22,1,0.00298818758382634,0.003087284087325462,-0.015411350325237369,0.009281019228038867,0.9862046823043654
2013-05-24,1,0.0034040353093328013,0.0035736619927044496,-0.015411350325237369,0.009281019228038867,0.9853670816362166
2013-05-29,1,0.0029492595410528775,0.003082705829701834,-0.014376513501467202,0.011199672932132261,0.9850199275961722
2013-05-31,1,0.0023608820345477352,0.0024101762344958567,-0.014376513501467202,0.011199672932132261,0.9843683352368205
2013-06-04,1,0.0026716237925421813,0.0027662610860227587,-0.014376513501467202,0.009281019228038867,0.9856935774715604
2013-06-06,1,0.0026854878890200467,0.0027947212065814286,-0.01522661846220233,0.009281019228038867,0.9855478833514344
2013-06-10,1,0.0026368634775738357,0.002738980428983104,-0.01522661846220233,0.009842394287830705,0.9854102958503592
2013-06-12,1,0.0019476194116156567,0.001949509045032105,-0.009690654405915756,0.012903692789906608,0.9851022959032013
2013-06-14,1,0.0020157047832137093,0.0020455372356955616,-0.014449500625510654,0.009862288966229541,0.9849963198250129
2013-06-18,1,0.0021579646144806045,0.002244486591726523,-0.014449500625510654,0.008629253864671102,0.9848765078734356
2013-06-20,1,0.0009097919857501725,0.0009656618744179281,-0.011147180834779412,0.008629253864671102,0.9868274904691973
2013-06-24,1,0.0013998363953986685,0.0014020080326427509,-0.011147180834779412,0.008629253864671102,0.9872823186710566
2013-06-26,1,0.00198634442638886,0.0020646930143841183,-0.013505198922432845,0.005891663167189892,0.9873954212526346
2013-06-28,1,0.00043913430825254885,0.0005735747837116211,-0.012755351089845324,0.006747210651012871,0.9888172930271042
2013-07-02,-1,-0.000263438004299234,-3.966277481880448e-05,-0.011147180834779412,0.006747210651012871,0.9894044586763429
2013-07-05,0,-7.692607012727297e-05,0.00011191869959477558,-0.010469226494622404,0.006747210651012871,0.9900558177283829
2013-07-09,-1,-0.0004221459784699967,-0.00015576417329790627,-0.010469226494622404,0.006747210651012871,0.9901924069457285
2013-07-11,1,0.0006067297932030175,0.0007382997715971386,-0.010469226494622404,0.0055815709191245275,0.9907632277265273
2013-07-15,0,-0.00013539988652707616,8.425866934764993e-05,-0.010469226494622404,0.0055815709191245275,0.990943878617638
2013-07-17,-1,-0.0006745010562814893,-0.0003942582034164668,-0.009970333708156875,0.0055815709191245275,0.9910818951635696
2013-07-19,-1,-0.0013403119137882391,-0.0009550721266085669,-0.009970333708156875,0.005313483719979193,0.9908056514536107
2013-07-23,-1,-0.0005647262358982169,-0.000287790702178823,-0.009970333708156875,0.005313483719979193,0.9909184716164591
2013-07-25,-1,-0.0016445420344565493,-0.001231743296508103,-0.009104396157629039,0.006077617413879904,0.9919289444541456
2013-07-29,-1,-0.001526660107070119,-0.0011554086887428721,-0.009059326989802812,0.006077617413879904,0.9917003912578567
2013-07-31,-1,-0.0022027696593217684,-0.0017355957006610313,-0.009059326989802812,0.006915569635894751,0.990976827570441
2013-08-02,-1,-0.0015304711175458954,-0.0011701429586134428,-0.009059326989802812,0.006077617413879904,0.991610028393031
2013-08-06,-1,-0.0013339152240206525,-0.001002708306021059,-0.009059326989802812,0.006076064660745338,0.9919293931797368
2013-08-08,-1,-0.0013822860407449278,-0.0010553514212560285,-0.007624288560293209,0.0054453711617922255,0.9921536722428946
2013-08-12,-1,-0.0016561769852077419,-0.0013308202759791925,-0.006609145294504274,0.006473279739318999,0.9921483173906518
2013-08-14,-1,-0.0016378785777886912,-0.001330785550001014,-0.00611799257274395,0.008331179381104403,0.9913607095519524
2013-08-16,-1,-0.0024555039728771056,-0.0020618461669992738,-0.0034879602897838766,0.008906688935323648,0.9905401499424672
2013-08-20,-1,-0.002299997879073896,-0.001943344633284541,-0.0024815358308774692,0.009728471894079226,0.9896133106854795
2013-08-22,-1,-0.0020963148848732595,-0.0017779775210353828,-0.0024815358308774692,0.010821219359009548,0.988531803408674
2013-08-26,-1,-0.001978784800604155,-0.0016404666135705762,-0.0032895765515899293,0.009728471894079226,0.9891444973371749
2013-08-28,-1,-0.002331421875132196,-0.0019485231729284994,-0.0031817320019749346,0.009728471894079226,0.9898011456165582
2013-08-30,-1,-0.0024191591085088284,-0.002041420221098924,-0.0031817320019749346,0.009728471894079226,0.9890906955653214
2013-09-04,-1,-0.002107013472583805,-0.0017736520361830467,-0.004593087732900853,0.011691532559164712,0.9884033951720109
2013-09-06,-1,-0.002382025636940773,-0.0020023545448491654,-0.004593087732900853,0.01820727737765008,0.9874729884146629
2013-09-10,-1,-0.0021873972268761552,-0.0018105738155628564,-0.006892713139640162,0.01820727737765008,0.987715820940341
2013-09-12,-1,-0.0007636317831666914,-0.0006027748493861416,-0.006892713139640162,0.020649743530482084,0.9874226019645482
2013-09-16,1,4.149301220284884e-06,9.226757069548451e-05,-0.006892713139640162,0.010303738762499893,0.9891119199903995
2013-09-18,1,0.0002953486495849791,0.00039378690916752005,-0.006892713139640162,0.010303738762499893,0.9887988170315316
2013-09-20,1,5.642975572968373e-05,0.0002092899568040072,-0.006045833365070307,0.009606066466018612,0.9897954742755891
2013-09-24,1,4.778337341444799e-05,0.0001957952413016002,-0.006892713139640162,0.011459180405354862,0.9894185074029254
2013-09-26,0,-3.545095331712513e-05,0.00012758100548443613,-0.008146147725188796,0.011459180405354862,0.9888217521744516
2013-09-30,-1,-0.0007501564774552131,-0.0004910416455228367,-0.008146147725188796,0.018525519540053693,0.9858987967774921
2013-10-02,0,-0.00013224989491478402,2.9532899561441044e-05,-0.008146147725188796,0.018525519540053693,0.9857721365129002
2013-10-04,1,0.0008205457457052818,0.0008279849131939963,-0.008961983216620117,0.011459180405354862,0.9863190049795767
2013-10-08,1,0.00043562050970005913,0.0004554224152292589,-0.006667942045287885,0.012460030287108341,0.9863927900019279
2013-10-10,1,0.0013827229128533713,0.0015185518675795181,-0.009305507517756629,0.009669908086533506,0.9867249619892203
2013-10-14,1,0.0020784507322150567,0.002397971722726656,-0.009305507517756629,0.012460030287108341,0.9859927990281231
2013-10-16,1,0.002941418684061515,0.003407215947763113,-0.01022326842443078,0.009669908086533506,0.9867263657189598
2013-10-18,1,0.0032105832064023244,0.003688090557746302,-0.01022326842443078,0.009669908086533506,0.986376132018265
2013-10-22,1,0.003053985193758377,0.0034860804754222904,-0.01088249533189041,0.008948324526981369,0.9865468549347101
2013-10-24,1,0.0032382132379436086,0.003725684654855144,-0.010023672332424436,0.010706281204030851,0.9869679112824075
2013-10-28,1,0.004777618887230812,0.005472774829676853,-0.009974185937033553,0.010706281204030851,0.9888326296538256
2013-10-30,1,0.005359742993468937,0.0061387885133553964,-0.010534440053711416,0.005962866621551058,0.9883276016382887
2013-11-01,1,0.004616521868173831,0.005265790010138848,-0.009974185937033553,0.005962866621551058,0.9890917118782987
2013-11-05,1,0.004579293489996254,0.0052275738970537396,-0.010197002726753085,0.002864523882644303,0.9892159928158805
2013-11-07,1,0.0038492626709367267,0.004398958897587867,-0.00707593024480387,0.002864523882644303,0.990401608520414
2013-11-11,1,0.003698298387023766,0.004140666959494573,-0.00707593024480387,0.002324136607996296,0.9907813383680476
2013-11-13,1,0.003571657592043384,0.004025623149049269,-0.00707593024480387,0.002324136607996296,0.9908763558401374
2013-11-15,1,0.004053991253233382,0.00460468656143043,-0.006734618682668078,0.0025053466019152914,0.9915850142695473
2013-11-19,1,0.0031363150108024767,0.0034949661781872405,-0.005514357364429715,0.003751589787965838,0.9916865647446846
2013-11-21,1,0.0030864033496147748,0.003402184859786225,-0.006391761847359321,0.003751589787965838,0.9908101793342079
2013-11-25,1,0.003316933827975658,0.0036626711064959953,-0.005514357364429715,0.0031078545251383895,0.9917083498943475
2013-11-27,1,0.002641016445138862,0.00290541671414393,-0.005514357364429715,0.003751589787965838,0.9926383127726698
2013-12-02,1,0.002991563237333204,0.0033577039075344596,-0.005161080107770701,0.00451286098958115,0.9925403753272786
2013-12-04,1,0.0023108880031265655,0.002547475190790233,-0.005161080107770701,0.005689612764334328,0.9919165366262584
2013-12-06,1,0.0017159533433277877,0.0018418751956751675,-0.0042436755732333424,0.005689612764334328,0.9920394361044561
2013-12-10,1,0.001797882960271199,0.0019146610118105356,-0.0042436755732333424,0.008413113661467034,0.9904202805208608
2013-12-12,1,0.0016563945441134228,0.001790786772388751,-0.0042436755732333424,0.012412692613113193,0.9895621485032167
2013-12-16,1,0.00124755029312912,0.001270401019782429,-0.005889534510441384,0.012412692613113193,0.9883897577939832
2013-12-18,1,0.0021029819061072117,0.002222351255899114,-0.008120745521835998,0.008413113661467034,0.9892025705180736
2013-12-20,1,0.002163235783261477,0.0022594963915119042,-0.0057979611206264905,0.006008118333244035,0.9905906851164903
2013-12-24,1,0.002065710983858822,0.002170587069085741,-0.009678595228330818,0.006008118333244035,0.9872555649763012
2013-12-27,1,0.0021188876071854754,0.002222450543361788,-0.014068632418946049,0.0069024781329576936,0.9855430510337515
2013-12-31,1,0.0018382373155350776,0.0018916660947381754,-0.01590716712153951,0.0069024781329576936,0.9849405488484457
2014-01-03,1,0.0009899644116169778,0.0010834871608949256,-0.015928881724527673,0.005408408092147011,0.9844109990742562
2014-01-07,1,0.00044841082414437774,0.0006205142610868975,-0.015928881724527673,0.005670366755269888,0.9841234015721186
2014-01-09,1,0.0012345444244139026,0.0013742167156763985,-0.015928881724527673,0.005670366755269888,0.9845852226873205
2014-01-13,1,0.0011004587354918442,0.0012709425802650812,-0.015928881724527673,0.006891975775752911,0.9841949500514523
2014-01-15,1,0.00018442170632526405,0.00046937439714999317,-0.011646952924317472,0.009196806977872084,0.9846524745460151
2014-01-17,1,0.00017217647119362016,0.00043773215454288373,-0.011646952924317472,0.010222386298538012,0.9842883718373389
2014-01-22,0,-4.450700002885317e-05,0.0002719620546382497,-0.015928881724527673,0.010222386298538012,0.9832638692473498
2014-01-24,-1,-0.0032072475829837146,-0.002497855613741878,-0.008704689604782758,0.010222386298538012,0.9853351044950511
2014-01-28,-1,-0.0031720945896235343,-0.0024718317664866223,-0.008704689604782758,0.009196806977872084,0.9873642890091388
2014-01-30,-1,-0.0038917189595504454,-0.0030956954673209947,-0.004545627881616186,0.009196806977872084,0.9876565623222765
2014-02-03,-1,-0.005133137153864642,-0.004214396755448254,-0.0023710008205508467,0.010222386298538012,0.9854908147138216
2014-02-05,-1,-0.00475463977828409,-0.003924559388755189,-0.0023710008205508467,0.010222386298538012,0.9852979823612948
2014-02-07,-1,-0.0028592538253421193,-0.0023007758550032485,-0.0023710008205508467,0.007869683640138922,0.9874693152737326
2014-02-11,-1,-0.0006191310786622733,-0.0003729677966754889,-0.0052859729871863005,0.005937780411738145,0.9897595009693857
2014-02-13,0,-1.655734213075954e-05,0.00015169184995236172,-0.006783348932793781,0.005427141677837479,0.989526267000477
2014-02-18,1,0.0006044566856629724,0.0007034330512224529,-0.006783348932793781,0.005427141677837479,0.9898218456510198
2014-02-20,0,-5.535482363807102e-05,0.00012218863621423507,-0.006783348932793781,0.004991051205890758,0.9904478903822852
2014-02-24,-1,-0.00024209794709113353,-1.0645899683971627e-05,-0.013084445315540625,0.0037406374798335277,0.9883884787868409
2014-02-26,-1,-0.0006253089307949423,-0.0003680394267244725,-0.01231022365587947,0.0050328461103812,0.9874989823342524
2014-02-28,-1,-0.0003796679935369336,-0.0001680898770715022,-0.01231022365587947,0.0037406374798335277,0.9872290375308859
2014-03-04,1,0.0008868099030417645,0.0009923465951361368,-0.01231022365587947,0.002723439280243527,0.9895408819143484
2014-03-06,1,0.0006712361156812107,0.0007609182237718283,-0.011414902279303718,0.000764241768742743,0.9896726981136829
2014-03-10,1,0.0007872402196741957,0.0008773915998090147,-0.014851538057590973,0.00018272694034537532,0.9887138861650674
2014-03-12,1,0.0005181160785545863,0.0006055762597412419,-0.017950381080581387,0.000764241768742743,0.987030448293943
2014-03-14,0,-6.955146179251303e-05,5.2919649451158663e-05,-0.01796932264409265,0.000764241768742743,0.9867035778275296
2014-03-18,1,0.00032710386405694527,0.0004066343395925261,-0.018178924561225045,0.000764241768742743,0.986091676537478
2014-03-20,-1,-0.0006563983824747676,-0.00044418141559826845,-0.018178924561225045,0.00506567912981537,0.9859993160025433
2014-03-24,-1,-0.001608703632710306,-0.0013819427965179663,-0.010798467294444832,0.008238673141653155,0.9869181068392697
2014-03-26,1,0.0002454099901955921,0.00028320324858744977,-0.010798467294444832,0.007299416610108658,0.9880483961037397
2014-03-28,-1,-0.0006946943523781976,-0.0005937452685782134,-0.010488431466792066,0.007299416610108658,0.988701508761521
2014-04-01,-1,-0.000611948459224493,-0.0005229922629826357,-0.014921405363301773,0.008238673141653155,0.987108594151241
2014-04-03,-1,-0.0019560196046225398,-0.0016649778678541145,-0.012988875909355737,0.008238673141653155,0.9872929964334793
2014-04-07,-1,-0.0017866864670066872,-0.001564625307072107,-0.009844254982143388,0.011030435865431523,0.9873111986940623
2014-04-09,-1,-0.0018151424301812147,-0.0015644710286941957,-0.005866025788176322,0.00772090405483505,0.9898894820746944
2014-04-11,-1,-0.002921532762761644,-0.002564706614228936,-0.003391467143998682,0.011030435865431523,0.9897560933275773
2014-04-15,-1,-0.0035771819216767475,-0.0031300600096440248,-0.002864589816568311,0.011030435865431523,0.9901440610039869
2014-04-17,-1,-0.002045018853043485,-0.001793771603312665,-0.003391467143998682,0.008879507935088422,0.9892935980874585
2014-04-22,-1,-0.0006477363812665506,-0.0005781344941887292,-0.004283516129253323,0.0064086003187199675,0.989799622470069
2014-04-24,-1,-0.0013275288002699563,-0.0011394296598013914,-0.003391467143998682,0.0064086003187199675,0.9899081265899287
2014-04-28,-1,-0.0016528346077237053,-0.0014205913031310373,-0.0030846172777446237,0.0064086003187199675,0.989811018146245
2014-04-30,-1,-0.0019791723560823294,-0.001696008476162977,-0.0030846172777446237,0.0064086003187199675,0.9903348321505848
2014-05-02,-1,-0.0023383110264239403,-0.00200010227548781,-0.0030846172777446237,0.005631756602765497,0.9902052359828749
2014-05-06,-1,-0.0012811409268953702,-0.0010851071314440556,-0.00368567955322425,0.0037063276773397135,0.99029918489473
2014-05-08,-1,-0.0017232192710938175,-0.0014517771966503206,-0.005619419481029279,0.0037063276773397135,0.9900334227299659
2014-05-12,-1,-0.000698466741242726,-0.0005570023731918205,-0.007831499718740132,0.002402396483388637,0.9903106690967479
2014-05-14,1,6.7483605054774e-05,7.417083812803285e-05,-0.007831499718740132,0.0018981470414797276,0.9902458264747268
2014-05-16,-1,-0.0018584488124143302,-0.0016675728466957565,-0.005619419481029279,0.003977524073686274,0.9928661169190108
2014-05-20,-1,-0.0018585847184611664,-0.0016645731375526055,-0.0030101026693095,0.004125243688793378,0.9930113516553138
2014-05-22,-1,-0.001760772932346733,-0.001579310070481402,-0.00476273411297376,0.004125243688793378,0.9930796364182453
2014-05-27,-1,-0.0016052381322737778,-0.0014444176911935793,-0.00476273411297376,0.004451881171427872,0.9926656647807779
2014-05-29,-1,-0.0011839333500349189,-0.0010648585971557508,-0.0038590729339262504,0.004451881171427872,0.9922506545448142
2014-06-02,-1,-0.0015559163200080618,-0.00138560306363127,-0.005064126905946811,0.004415529757063455,0.9921787017756188
2014-06-04,-1,-0.0015858501845852039,-0.0014924279008272775,-0.005064126905946811,0.004415529757063455,0.9930393199248433
2014-06-06,-1,-0.0014872688791915108,-0.0014242875455415984,-0.005443119232047025,0.004415529757063455,0.9927619941043357
2014-06-10,-1,-0.0018993283894168712,-0.0017647085316345186,-0.0038590729339262504,0.004207956554577767,0.9935189963362479
2014-06-12,-1,-0.0018201812406199265,-0.0016951928803782515,-0.0038590729339262504,0.004415529757063455,0.9927859531177599
2014-06-16,-1,-0.0012069634823142115,-0.0011721967346617881,-0.005317919437588344,0.004858150145152385,0.9926008822152381
2014-06-18,-1,-0.0018802691178259885,-0.0016502307933991141,-0.007600802803698285,0.004207956554577767,0.9931085913227299
2014-06-20,-1,-0.0019452777242940226,-0.0017140123945258102,-0.007600802803698285,0.004858150145152385,0.9923639270147475
2014-06-24,-1,-0.0017932555912714748,-0.0015629447829588461,-0.007600802803698285,0.004102710785931203,0.9925006997777992
2014-06-26,-1,-0.001641206324677832,-0.0013704264109397012,-0.007600802803698285,0.004075838441208754,0.9939544081247521
2014-06-30,-1,-0.0024218138551587486,-0.002055350866260604,-0.003361145361656909,0.00518472332539372,0.9928254909824115
2014-07-02,-1,-0.0018367434197701631,-0.0015978021811288903,-0.003361145361656909,0.00518472332539372,0.9929062731999684
2014-07-07,-1,-0.0010734170074801965,-0.0009967397023003131,-0.003361145361656909,0.005141560535796953,0.9927548320312065
2014-07-09,-1,-0.0007148200886241998,-0.0007086790491224891,-0.004938449640487658,0.005141560535796953,0.9923019845985503
2014-07-11,1,0.00014368859577658578,0.00029213434851158574,-0.007600802803698285,0.005141560535796953,0.9919716973662493
2014-07-15,1,5.6791556950712104e-05,0.0001732312467672629,-0.0050004844576713794,0.004075838441208754,0.9925525022493644
2014-07-17,1,0.00010273731347213008,0.00024349996123154455,-0.002698515211915115,0.005141560535796953,0.9922180284415731
2014-07-21,1,0.00027101606417364395,0.000412385814145294,-0.0023831220435921773,0.004626233190090323,0.9927183520117548
2014-07-23,1,0.0006422768944490091,0.000841820540177888,-0.00339981633708504,0.006210884199500252,0.9925980395822679
2014-07-25,1,0.001526943342854656,0.0019335492653717672,-0.00339981633708504,0.006210884199500252,0.9927748327432562
2014-07-29,1,0.0023455108454688046,0.002837705930605893,-0.00339981633708504,0.004459627554743704,0.9936879001156304
2014-07-31,1,0.0023782246968026433,0.0028979129873406197,-0.00339981633708504,0.005878669674028824,0.9935468801238415
2014-08-04,1,0.0018510424854798924,0.002276474167393127,-0.0023831220435921773,0.005878669674028824,0.9943042149615935
2014-08-06,1,0.0012625801701643068,0.001571139684352431,-0.0020848755855586037,0.005878669674028824,0.9948060463797563
2014-08-08,1,0.0014056607603358806,0.0017619219250936088,-0.0015447462625680546,0.005878669674028824,0.9957039960193704
2014-08-12,1,0.0011071149129207297,0.001398074668189263,-0.0010948959051740117,0.006210884199500252,0.9947517253512841
2014-08-14,1,0.0007992049399395989,0.0009545535354250313,-0.00339981633708504,0.005878669674028824,0.9945196457525418
2014-08-18,1,0.0013923336607220647,0.0016814479691954847,-0.005418684197381611,0.005878669674028824,0.993457811436401
2014-08-20,1,0.0012229080914517316,0.0014640454958412081,-0.005500920478298064,0.0049804949100580274,0.9935399055564245
2014-08-22,1,0.0013400913607891111,0.0015992183146310436,-0.005500920478298064,0.006235645923802574,0.9933801581123606
2014-08-26,1,0.0013885105661383765,0.0016204886934865232,-0.0064644866431315525,0.006235645923802574,0.9928575336478639
2014-08-28,1,0.0010336648201886077,0.0011972180611173988,-0.0067462013708061,0.005444978335804009,0.9926960290031778
2014-09-02,1,0.0011306579736683464,0.0013171749542810077,-0.007473454292886232,0.008540811781972737,0.9917801176952395
2014-09-04,1,0.0005811426434214214,0.0006355527295498439,-0.00794499534307559,0.008540811781972737,0.9908668768034128
2014-09-08,1,0.000668727120592941,0.0007104970315908528,-0.00794499534307559,0.008693307364029753,0.9905965313411704
2014-09-10,1,0.000949426745400438,0.001071411407904639,-0.00794499534307559,0.007931981999394318,0.9901498339512764
2014-09-12,1,0.0009339550708481774,0.001103102138421008,-0.00803413949280788,0.00961482704372134,0.989598677459576
2014-09-16,1,0.0013367110727445604,0.0015505335512258577,-0.010117579156442694,0.007931981999394318,0.9896291313523568
2014-09-18,1,0.0012085553467665992,0.0013936830543372367,-0.010117579156442694,0.007931981999394318,0.9898979764154872
2014-09-22,1,0.0014919542411528839,0.0017062810440563016,-0.010117579156442694,0.00961482704372134,0.9890797801511818
2014-09-24,1,0.0015397557845200339,0.0017490193755018467,-0.010117579156442694,0.00961482704372134,0.9886233517831603
2014-09-26,1,0.0013714343830037556,0.0015964828315490928,-0.007312010446887148,0.012735222106446422,0.9880754941909552
2014-09-30,1,0.0013638902626190675,0.001581302098325841,-0.004180517036694476,0.012735222106446422,0.988451679836397
2014-10-02,1,0.0011986211400347752,0.001437628406990958,-0.0019278610642568833,0.013499227467288169,0.9851300344716402
2014-10-06,1,0.0016602143944355393,0.001959874183109618,-0.004272843661662854,0.013487996649652603,0.9848016165647991
2014-10-08,1,0.00028573022914984774,0.0002937638129456501,-0.0024538411084965186,0.013487996649652603,0.9862533790745457
2014-10-10,1,0.00031191674362883687,0.0003219712231976752,-0.0021867716008833636,0.012570157112364456,0.9870569928376755
2014-10-14,-1,-0.0006256844472382098,-0.0005259405044466725,-0.0016139335667388402,0.012570157112364456,0.9877712523061067
2014-10-16,-1,-0.00038464337733394664,-0.00031576824285813585,-0.001934338597153445,0.012570157112364456,0.9874275115661183
2014-10-20,1,0.0007172974408009736,0.0008081919378356691,-0.001934338597153445,0.011430713690882891,0.9882264863850898
2014-10-22,1,0.0013126015209574255,0.0014640148566992933,-0.0018668298251553858,0.009068667901349674,0.9894627718629796
2014-10-24,1,0.001742703462009598,0.0018877630025998363,-0.0020036778835788712,0.005536439938284225,0.9906341129857926
2014-10-28,1,0.0018476084452122208,0.0019910466704208263,-0.0026462908634804355,0.003586538544851574,0.990896742123437
2014-10-30,1,0.004233371154409752,0.004673217232204843,-0.0026462908634804355,0.003586538544851574,0.9942332052334576
2014-11-03,1,0.003407365927464576,0.0037282880114654117,-0.0016160927443710275,0.003586538544851574,0.9957877768634373
2014-11-05,1,0.0033508362907326734,0.0036718298440480057,-0.0023774462115189504,0.003586538544851574,0.9955053827394535
2014-11-07,1,0.0037494850925105594,0.004144631987473473,-0.0019978968006986405,0.003586538544851574,0.9945220244569514
2014-11-11,1,0.0036215521374422426,0.003982597771040635,-0.003436834038116513,0.0032314174948379903,0.9935362599697529
2014-11-13,1,0.003104642634954582,0.0034102792031120805,-0.003436834038116513,0.003586538544851574,0.993851922004114
2014-11-17,1,0.0037835833726420466,0.004219364369182845,-0.004145032548820109,0.0032314174948379903,0.9925042510614891
2014-11-19,1,0.0035336341199758096,0.00388659390538871,-0.004145032548820109,0.0038838036278130497,0.9905616510113278
2014-11-21,1,0.0031700194559135474,0.003458823436281852,-0.004422671716232518,0.006044402593576185,0.9904737070406595
2014-11-25,1,0.002829286063521309,0.003051829192679407,-0.005812800704689228,0.006044402593576185,0.9892501953921186
2014-11-28,1,0.0028727879871256736,0.0030892091557676842,-0.005812800704689228,0.006878162753128947,0.9891369004523971
2014-12-02,1,0.00299759791726557,0.0032520337474761605,-0.008143150904620996,0.006878162753128947,0.9883332708474573
2014-12-04,1,0.002636034547604725,0.0028394875028781284,-0.011513789424313511,0.0074851065449330085,0.9878243339948083
2014-12-08,1,0.0032777564618563047,0.0035458023783632086,-0.011513789424313511,0.0074851065449330085,0.9884497362007936
2014-12-10,1,0.002529787622949755,0.002710157822134099,-0.0066962977325907445,0.008195965749246272,0.9884033764396958
2014-12-12,1,0.00195974496596903,0.0020885745805546392,-0.006193137726965924,0.013526294231273751,0.9874807479178901
2014-12-16,1,0.0012861587668619157,0.0013252272703772612,-0.006193137726965924,0.013526294231273751,0.9871632274262786
2014-12-18,1,0.0031114264436428447,0.0034404872247546636,-0.006193137726965924,0.009050530586513245,0.9891508910564473
2014-12-22,1,0.0029703704788780283,0.0032607908623762576,-0.0066962977325907445,0.00885698632009284,0.9891583918860989
2014-12-24,1,0.001728815416260029,0.0018283459875325977,-0.006193137726965924,0.00885698632009284,0.9906178785866019
2014-12-29,1,0.0017046782180782341,0.0017791628996518243,-0.007147896181941288,0.00885698632009284,0.9899145899547197
2014-12-31,1,0.0010646834395900812,0.001087757793353495,-0.00764518210305335,0.00885698632009284,0.9897456739622783
2015-01-05,1,0.0005548540084751427,0.0006483924189378287,-0.006821923825935516,0.007470812182616351,0.990598801749296
2015-01-07,1,0.0010318931421628647,0.0010497900230832216,-0.00764518210305335,0.007470812182616351,0.9898689030609347
2015-01-09,1,0.001435525033454709,0.001467287929455737,-0.00956265701009646,0.003265712546737415,0.9900702581993164
2015-01-13,1,0.0025034957009133323,0.002671597049722244,-0.00956265701009646,0.002250084670912224,0.9904678343952463
2015-01-15,1,0.0016985234454140238,0.0017579137367627197,-0.008842903297153957,0.003720503299090856,0.9917434864827834
2015-01-20,1,0.0020428456095696085,0.0021602813555839286,-0.008842903297153957,0.0024114740429440943,0.9919068224024047
2015-01-22,1,0.0016296509699306625,0.0016792327164496792,-0.008842903297153957,0.003720503299090856,0.991380188405813
2015-01-26,1,0.001644109630438895,0.001687513739004198,-0.008842903297153957,0.004503436733665649,0.9911094791458829
2015-01-28,1,0.0009116611418296132,0.0009660296672941006,-0.007921855389742773,0.005293927523635654,0.9919342111902146
2015-01-30,1,0.00042274995964699163,0.0005206339335141312,-0.007921855389742773,0.010241982967176924,0.9913555154633371
2015-02-03,1,4.401511190010854e-06,0.00015976197779479025,-0.007921855389742773,0.013614519072048232,0.9884597718479518
2015-02-05,-1,-0.0002889885484920777,-5.179960070348592e-05,-0.007921855389742773,0.010241982967176924,0.9888287511299569
2015-02-09,-1,-0.0008974036152793495,-0.0006137133040067599,-0.00649099527384628,0.013614519072048232,0.9883012367066015
2015-02-11,-1,-0.0008088638474746103,-0.0005311300138994853,-0.004332038590660446,0.013543841780293919,0.988646409687269
2015-02-13,-1,-0.00035837855825611865,-0.00014465485756206327,-0.004332038590660446,0.016076821745736793,0.988330367319722
2015-02-18,-1,-0.00043488545179905464,-0.00021659880390135372,-0.006044904940546091,0.016076821745736793,0.9875250805093879
2015-02-20,-1,-0.0006429180053321359,-0.00036928195667282717,-0.006044904940546091,0.013543841780293919,0.9882165483554568
2015-02-24,-1,-0.00029502975012578867,-5.9251125599593625e-05,-0.006623823162159024,0.013429202923566015,0.98755543397196
2015-02-26,-1,-0.0008773340224166011,-0.0005363835706893668,-0.00834406856873105,0.013429202923566015,0.9870223731513452
2015-03-02,-1,-0.00028078985143997065,-3.057632770462465e-05,-0.006623823162159024,0.00888880120134477,0.9879235811443045
2015-03-04,1,0.0009479061676525798,0.0010922242936782997,-0.012900733155491185,0.00625535230997402,0.9894950016311292
2015-03-06,1,0.0003943833480118808,0.0006107864712037027,-0.009274404744200137,0.0053930396109402486,0.9900224395320786
2015-03-10,0,-0.00024618410239732867,9.609252708568249e-05,-0.006569192424233032,0.0053930396109402486,0.9912809871416621
2015-03-12,1,0.00011871864458854961,0.00041753443504002874,-0.006569192424233032,0.0053930396109402486,0.9910785827331764
2015-03-16,1,0.001017263637898351,0.0011766071433505377,-0.00881613516143164,0.004159232786016742,0.9911630657010718
2015-03-18,1,0.0014352552738648447,0.0015157428580649178,-0.009696558858276806,0.003956022706226827,0.9912490251557086
2015-03-20,1,0.0014268213239185248,0.001455657143608932,-0.009696558858276806,0.0053930396109402486,0.9903643774708291
2015-03-24,1,0.0003983671225266871,0.0005373941474934227,-0.006236625955443741,0.007697286715580469,0.991222882743554
2015-03-26,1,0.001525048700954187,0.0016601456148099033,-0.006146226562603738,0.007697286715580469,0.9914047668854911
2015-03-30,1,0.0014551064401065754,0.0015380128522301838,-0.00940670828635168,0.00490705560754829,0.9907263522418545
2015-04-01,1,0.0002469158440140624,0.00031784433320335907,-0.008785160310520838,0.00490705560754829,0.9921453691823482
2015-04-06,1,1.899169113908411e-05,0.00010437468794762846,-0.008785160310520838,0.008742275621388629,0.9914474968309633
2015-04-08,1,0.0003469987941535715,0.0003846790030220048,-0.008785160310520838,0.008404917334122406,0.9912720367398649
2015-04-10,1,0.0005293525806138661,0.0005746589207116169,-0.008785160310520838,0.008404917334122406,0.990546061320008
2015-04-14,1,0.00030833709794504313,0.00036484813197989996,-0.008771941061137297,0.011261504550465727,0.9898541520268935
2015-04-16,1,0.0001570086244022497,0.0002233748755498647,-0.006329574907204622,0.011261504550465727,0.9904170898606962
2015-04-20,1,0.001139971705971468,0.00118958606644326,-0.006329574907204622,0.006958840064210501,0.9915417386416486
2015-04-22,1,0.0012823750951961974,0.0013368855500210935,-0.006329574907204622,0.006958840064210501,0.9917304908489326
2015-04-24,1,0.0009494931956898103,0.000972075982933735,-0.006293018223471024,0.006958840064210501,0.9917840675810999
2015-04-28,1,0.00026640012014583856,0.0003244470654664564,-0.0047137507019072,0.01062156484947417,0.9915673969433475
2015-04-30,-1,-0.0003833002277613185,-0.00023638289430184887,-0.0047137507019072,0.011189866932510388,0.9883758773002823
2015-05-04,1,0.0008470571997913758,0.0009016462158872075,-0.006293018223471024,0.011189866932510388,0.9877550680096756
2015-05-06,1,7.758022520431177e-05,0.00015696973792163335,-0.004203933388683161,0.011189866932510388,0.9880773118943361
2015-05-08,1,0.0009015090374174133,0.0009017686087431339,-0.008662271009936502,0.007644683160953247,0.9888179404324288
2015-05-12,1,0.000681309626811413,0.0007387099935414183,-0.004896721133871951,0.006632085051980775,0.9896267053209509
2015-05-14,1,0.0013509369301158022,0.00146196853504538,-0.008587251686399767,0.006632085051980775,0.9891355741027692
2015-05-18,1,0.0015617835083289865,0.001703663665147328,-0.008587251686399767,0.007287705150902436,0.9890334458352664
2015-05-20,1,0.001347424452607801,0.0014094349556352868,-0.008587251686399767,0.006632085051980775,0.9892861612021336
2015-05-22,1,0.0010910402265562169,0.001131569926045659,-0.004919647909285015,0.006632085051980775,0.9897229858062615
2015-05-27,1,0.0008180850896671755,0.0008369371313826135,-0.0046864443704030985,0.005386211118723717,0.9902844344196976
2015-05-29,-1,-0.0010854056215940785,-0.0008290030110607618,-0.0020584337806343507,0.005386211118723717,0.9930037061899716
2015-06-02,-1,-0.0004357725135608829,-0.00026934267759369816,-0.0020584337806343507,0.005386211118723717,0.9935703583677196
2015-06-04,-1,-0.0002283272617221868,-0.00010615375251618885,-0.0030242967885379815,0.006632085051980775,0.9927756525344439
2015-06-08,1,0.0003553081637431443,0.00036294478970502894,-0.0004796659537357286,0.007287705150902436,0.9933925606489871
2015-06-10,0,-5.836931343691071e-05,2.1721371853768173e-05,-0.0004796659537357286,0.005853541518829406,0.993299240752652
2015-06-12,1,9.67309582882426e-06,6.229616072299726e-05,0.00041084582860022247,0.008465517916127947,0.992703633777681
2015-06-16,1,0.00018082825068739598,0.00022475300971029963,-0.0004796659537357286,0.006466637837096397,0.9924703722831505
2015-06-18,1,0.0005396108216749201,0.0005454734901572621,-0.0016747800225641114,0.006466637837096397,0.9928859062416007
2015-06-22,1,0.00031410529652219977,0.0003658218027096199,-0.003901168111010124,0.008933672247535593,0.9918919223748862
2015-06-24,-1,-0.0002595310748362672,-0.00010796991493529064,-0.003901168111010124,0.008933672247535593,0.99120734570541
2015-06-26,0,-0.00015871730362660032,1.1070614517531656e-07,-0.012280223253186524,0.0076051127290438815,0.9889277426437052
2015-06-30,-1,-0.0006704552166772688,-0.0004573456182461775,-0.008169578190119552,0.006121579994935974,0.989962124639197
2015-07-02,-1,-0.0007958253882442127,-0.0005255891715022956,-0.008169578190119552,0.006121579994935974,0.989719500962816
2015-07-07,-1,-0.0004052788468852053,-0.00018678962986991396,-0.008522534922908076,0.005658205481536468,0.989773398210208
2015-07-09,-1,-0.0004824976013731078,-0.00027097288342877736,-0.012280223253186524,0.005658205481536468,0.9889202088193096
2015-07-13,1,0.00025914733813357213,0.00039150829365979564,-0.012280223253186524,0.0056345958849926304,0.9896465648767879
2015-07-15,1,6.379144723094423e-05,0.00020832218849215303,-0.01586313392200648,0.00406744236090849,0.9893284691067525
2015-07-17,1,0.00023573130221342793,0.00033854016574195176,-0.01586313392200648,0.006014087515641791,0.98890127036376
2015-07-21,0,-0.00012017331900126768,2.8549854070220634e-05,-0.009811593617977784,0.006451975258591473,0.9892758952897118
2015-07-23,-1,-0.0002879787115465615,-0.00014006538935777007,-0.010552168635703813,0.005744727639544463,0.9892501772362585
2015-07-27,-1,-0.0012591798867006808,-0.0010869757291128027,-0.010552168635703813,0.005744727639544463,0.9890042677098808
2015-07-29,-1,-0.0009207378373560652,-0.0007810380543053289,-0.014659510941532266,0.006529405723084867,0.9870302326521618
2015-07-31,-1,-0.0004680900697826573,-0.00039037098556348414,-0.014659510941532266,0.006529405723084867,0.98732291317404
2015-08-04,-1,-0.0005455236058875638,-0.0004821818189758185,-0.01977770220185531,0.006529405723084867,0.9859723085816947
2015-08-06,-1,-0.0007406518543770071,-0.0006842100241317339,-0.018919533406808957,0.008320730834316446,0.985429503836642
2015-08-10,-1,-0.0004072573798363326,-0.00039998852942519617,-0.01977770220185531,0.011120668842363946,0.9831870163659198
2015-08-12,-1,-0.0012091784802620094,-0.0010962156932829905,-0.01944540349116992,0.012496021609460619,0.9830262904430552
2015-08-14,-1,-0.0013589455430730564,-0.0011875656685958003,-0.01944540349116992,0.012496021609460619,0.9832557844272626
2015-08-18,-1,-0.0009693358199400804,-0.0008293557574059504,-0.01944540349116992,0.013757190059834805,0.9821464651717113
2015-08-20,-1,-0.0014874516508210384,-0.0013034882987279016,-0.016907686857589796,0.017718040655802254,0.9810077308562968
2015-08-24,-1,-0.004201899459906604,-0.0036517533288226204,-0.014888838082590554,0.017718040655802254,0.9823659302346793
2015-08-26,-1,-0.0035356123518274843,-0.0030522871909431522,-0.014888838082590554,0.013757190059834805,0.9845593884726465
2015-08-28,-1,-0.003158550682149777,-0.002730385637593682,-0.01944540349116992,0.01319266104735686,0.9822036641027303
2015-09-01,-1,-0.00410329499586173,-0.0035935240280703753,-0.014888838082590554,0.017718040655802254,0.9819742492470562
2015-09-03,-1,-0.0038628759998070115,-0.003369039493610223,-0.011601993123695677,0.017985189810141466,0.9810720228249858
2015-09-08,-1,-0.003926184314358425,-0.0034164438445819043,-0.011601993123695677,0.014655675064304373,0.9822140070660355
2015-09-10,-1,-0.003364727167989105,-0.0029791983315477456,-0.006738880415650275,0.014655675064304373,0.9828100200587353
2015-09-14,-1,-0.0027975155332612715,-0.002501043701536987,-0.006738880415650275,0.016828985567035236,0.9815269687285191
2015-09-16,-1,-0.0015215907818895255,-0.001356444826340582,-0.006936283770994808,0.014610903087568027,0.9835867722716735
2015-09-18,-1,-0.00032204273510255156,-0.00026467242951471847,-0.006936283770994808,0.014610903087568027,0.9838743594200074
2015-09-22,-1,-0.001862143047122305,-0.0016034678329361056,-0.005702755108800293,0.014610903087568027,0.9840771722131251
2015-09-24,-1,-0.0014754005433390562,-0.0013059279499154021,-0.00899642496337062,0.014610903087568027,0.9828564569953073
2015-09-28,-1,-0.004203536471272344,-0.0037007516310047766,-0.004608556289414199,0.0166946696368262,0.9836114688116815
2015-09-30,-1,-0.002208779379313556,-0.0020016861088771026,-0.004608556289414199,0.0166946696368262,0.9832131527955047
2015-10-02,-1,-0.00015667286579117804,-9.891078551031355e-05,-0.006765513937382834,0.014098537796345232,0.9849683403630716
2015-10-06,-1,-0.0013874949010214059,-0.0012961270706713071,-0.004603027114794777,0.014098537796345232,0.9862370878643452
2015-10-08,-1,-0.0007258849507813088,-0.0007223626696149253,-0.006165430106152793,0.014098537796345232,0.9865767336468712
2015-10-12,1,0.000774818937856333,0.0010109171649751243,-0.006977996821959792,0.010995299386071905,0.9878565410445157
2015-10-14,1,0.0003425561495489135,0.0005025022340515137,-0.007611584232756031,0.010995299386071905,0.9877932535225057
2015-10-16,1,0.0016497603671907586,0.001988375912969116,-0.008411339909771443,0.0073484005297302,0.9886229704618077
2015-10-20,1,0.0004696644408353897,0.0005472998773708299,-0.007294837416980892,0.010768693029649917,0.9890418844537636
2015-10-22,1,0.0004897646408640436,0.000610970275105132,-0.007294837416980892,0.011146427188847407,0.9887571463963383
2015-10-26,1,0.0012264532381557878,0.0014439857387429414,-0.006977996821959792,0.011146427188847407,0.9900458250883953
2015-10-28,1,0.002655635417076982,0.003047060693234137,-0.006977996821959792,0.005451349031056533,0.9916366284926471
2015-10-30,1,0.0018505190606669746,0.0021405912834867253,-0.006977996821959792,0.005451349031056533,0.992221249865703
2015-11-03,1,0.0018261963870095797,0.002104417523813875,-0.007029185561265481,0.007791163976210601,0.9913540170480531
2015-11-05,1,0.001726678115413256,0.0020127362350091747,-0.00729763752685007,0.011476380493317784,0.9890335506238065
2015-11-09,1,0.0016173468337845535,0.0019092657024654199,-0.00729763752685007,0.011476380493317784,0.9890503443280144
2015-11-11,1,0.0013647764980341962,0.0016375940031692206,-0.00729763752685007,0.011476380493317784,0.9888867572043486
2015-11-13,1,0.0012893484998704298,0.0015460863307954777,-0.007751426625399807,0.013250016534095539,0.9879233457675829
2015-11-17,1,0.002340287230642683,0.0027595846605979035,-0.007751426625399807,0.013630605689650296,0.9878453191597826
2015-11-19,1,0.002740021910818487,0.00318252877759419,-0.012172901687172492,0.009387675725104606,0.9873035987928552
2015-11-23,1,0.0034687292370425967,0.004034976076913622,-0.012172901687172492,0.007267249072588274,0.987695085454185
2015-11-25,1,0.003703940142754037,0.004323862015710859,-0.012172901687172492,0.008589816724496538,0.9875242942589015
2015-11-30,1,0.003078254117154281,0.003605239732049041,-0.008299940077616908,0.008669077762779177,0.9883160250220494
2015-12-02,1,0.003959260184664764,0.0046573099595469646,-0.01090133664261235,0.00816130148756873,0.9886311247645123
2015-12-04,1,0.0045257877913984276,0.0052862281874028775,-0.01090133664261235,0.00816130148756873,0.9893074241930421
2015-12-08,1,0.004643699920767199,0.005418984681018003,-0.017954256753387778,0.007293669418682488,0.9871775303078255
2015-12-10,1,0.004270971798748054,0.0049832434927217575,-0.019416172603226894,0.007293669418682488,0.9858810384018564
2015-12-14,1,0.003937060316723169,0.004585519531918466,-0.021085601106197574,0.007059501666769126,0.9856120322951172
2015-12-16,1,0.003712914885644293,0.004209597684315467,-0.021085601106197574,0.006261235255602838,0.9843590234913928
2015-12-18,1,0.0023163534934568554,0.002642859994798132,-0.013009846785285783,0.006962962926579911,0.986722489482587
2015-12-22,1,0.0027678660012200847,0.003174199433653117,-0.013009846785285783,0.007538059270111287,0.985640053377089
2015-12-24,1,0.002764144130682802,0.0031435229508897985,-0.018912841434618955,0.006962962926579911,0.9845384885516425
2015-12-29,1,0.0026287577756538344,0.00294955793858897,-0.018912841434618955,0.005746503692853115,0.983348054744855
2015-12-31,1,0.0022324470686781854,0.002507120296795977,-0.021913310059064453,0.006962962926579911,0.9825575309487792
2016-01-05,1,0.001575670435501124,0.0017158688485589707,-0.021913310059064453,0.006962962926579911,0.9823181031471944
2016-01-07,1,0.0002739171833503694,0.0002860642027255826,-0.017113671248382714,0.006962962926579911,0.9844487570724098
2016-01-11,-1,-0.0005994033709959153,-0.000515792116623023,-0.012528802054578642,0.009565557628571992,0.985223241397223
2016-01-13,-1,-0.002035128302238034,-0.0017432358370543938,-0.012528802054578642,0.009224629036953978,0.9861102219228962
2016-01-15,-1,-0.002681140277638435,-0.0021959043276888945,-0.010592600382684588,0.012656191156581209,0.9861431176982989
2016-01-20,-1,-0.0017873929797164617,-0.0014478822974990833,-0.01094814993785587,0.016832764919893876,0.9850867989710922
2016-01-22,-1,-0.0011926267492717811,-0.0009351891534991015,-0.01094814993785587,0.012656191156581209,0.9858865687327251
2016-01-26,-1,-0.0031174201874230555,-0.002562223380678074,-0.01094814993785587,0.012656191156581209,0.9855654721329535
2016-01-28,-1,-0.003794665982619683,-0.003178661795661428,-0.010133792452506198,0.013729281802216803,0.9850821821492891
2016-02-01,-1,-0.004075087294332616,-0.003427257248757531,-0.00758617566216356,0.01421149076241649,0.9848157778992134
2016-02-03,-1,-0.0045914284571331055,-0.0038755368882865387,-0.005601917412821077,0.011782433104088746,0.9862692835785086
2016-02-05,-1,-0.004758133749854269,-0.004034639849729095,-0.004631303746574338,0.01421149076241649,0.9849119384263016
2016-02-09,-1,-0.0030542399811505664,-0.0026000476300671515,-0.006202095463421714,0.011782433104088746,0.986442377434942
2016-02-11,-1,-0.0029453112895582584,-0.0025813024284490824,-0.006144090827063867,0.011782433104088746,0.9872411836109345
2016-02-16,-1,-0.0020425686959875244,-0.001725232806244424,-0.009212695904891927,0.008332553617696508,0.9889613612315589
2016-02-18,-1,-0.0015224044366954656,-0.0012566142134684878,-0.011243486897309023,0.0038284332972722125,0.9891633166588004
2016-02-22,-1,-0.0028400223882357363,-0.002300606345221547,-0.011243486897309023,0.004580450835535301,0.9887530478879286
2016-02-24,-1,-0.0030862423245207275,-0.0025668548664281917,-0.009582594053159536,0.003843305540230332,0.9897096326127645
2016-02-26,-1,-0.00199384047240264,-0.0016875689207338151,-0.007782292523276695,0.003165227553363391,0.9902003084694249
2016-03-01,-1,-0.0017075120386632607,-0.0013743604696964062,-0.009582594053159536,0.003165227553363391,0.9905677368602656
2016-03-03,-1,-0.001190327962212306,-0.0009315322310271324,-0.009582594053159536,0.0047329717594930135,0.989946755596895
2016-03-07,1,0.00019090739596999522,0.00023358788684953104,-0.009582594053159536,0.0047329717594930135,0.9903220816429861
2016-03-09,-1,-0.0005439066340391325,-0.00039774144389897786,-0.007782292523276695,0.008167118153122712,0.9903257571955336
2016-03-11,-1,-0.00013023010967110112,-9.13923366414369e-05,-0.006977835029710185,0.008167118153122712,0.9905229207693357
2016-03-15,-1,-0.0009460941851648225,-0.0007977024094245558,-0.003364302426877517,0.012154507630058004,0.990278364331558
2016-03-17,-1,-0.002262042188063955,-0.0019437026443724016,-0.0023439098740979563,0.012154507630058004,0.991086202886248
2016-03-21,-1,-0.0012102584972156515,-0.0010483031324776332,-0.0018136928525239759,0.011871715210310078,0.9918537107708236
2016-03-23,-1,-0.0004596867211012706,-0.00045889019272716625,0.0002040823978273008,0.012185768500111625,0.9915516908678248
2016-03-28,-1,-0.0006491511300417945,-0.0005904926986194288,-0.0008711267005666947,0.012185768500111625,0.9914982956884438
2016-03-30,-1,-0.00023001094139052608,-0.00022402653616381292,-0.0008711267005666947,0.011871715210310078,0.9927205713604593
2016-04-01,1,0.0003177073553853907,0.0003692708023057132,-0.0011708879304352352,0.011871715210310078,0.9925907837643847
2016-04-05,1,0.0005422882152715685,0.0006083304166512511,-0.001783590298972215,0.011156564718963173,0.9928541632672606
2016-04-07,1,0.0005612649213670301,0.0006089498844297645,-0.001783590298972215,0.008289100406738827,0.993124058069048
2016-04-11,1,0.00037573710315109206,0.0003950562207601158,-0.0008073772795361715,0.008289100406738827,0.9932371749305992
2016-04-13,1,0.0013624653076454332,0.00155245424591794,-0.0015923420358806455,0.004789676220483534,0.9940412238169881
2016-04-15,1,0.0018065623386404935,0.002085805424675342,-0.0018141606689114353,0.005580002722719151,0.9938705143439819
2016-04-19,1,0.0023552779254232196,0.0027322641505485024,-0.0035161011395207662,0.005580002722719151,0.9921732495343244
2016-04-21,1,0.002859177359679335,0.0033042421654987577,-0.005913092958163935,0.00374921678095125,0.9917499640939176
2016-04-25,1,0.00276432529635181,0.0031684184523470002,-0.006143784394350888,0.00374921678095125,0.9916155942561649
2016-04-27,1,0.002703616562436998,0.003116854185705513,-0.005816373441659083,0.0054846648964442055,0.9912866046248382
2016-04-29,1,0.003656664924817017,0.004226407262981769,-0.005816373441659083,0.0054846648964442055,0.992049300236519
2016-05-03,1,0.0032707672855461214,0.0037944971456329037,-0.004997443857553375,0.005665839410209579,0.9931231840115392
2016-05-05,1,0.0031538356183574263,0.00365006024758988,-0.002570930201663633,0.006351484570997992,0.9927997374189943
2016-05-09,1,0.003068636674002652,0.003543908709540868,-0.005143323183392664,0.00702815242939636,0.9918271266296019
2016-05-11,1,0.003271077111466564,0.0038205413830909524,-0.0056123474966409525,0.00702815242939636,0.9913928044601937
2016-05-13,1,0.002734126060539849,0.00314011201391068,-0.006130340618329033,0.006742138950571527,0.9911922717651351
2016-05-17,1,0.002864898051421316,0.0033022782193228013,-0.006130340618329033,0.006742138950571527,0.9924421100349013
2016-05-19,1,0.0026521218221158844,0.00307596452003318,-0.006886319441387399,0.006742138950571527,0.991812673819063
2016-05-23,1,0.0028135753841071085,0.0032758535710053537,-0.006886319441387399,0.006151831616058058,0.9922511390954543
2016-05-25,1,0.002704674847986242,0.003129371780738769,-0.006130340618329033,0.006151831616058058,0.9925480328635676
2016-05-27,1,0.002843626680809258,0.0032760439443975413,-0.006886319441387399,0.004790049785261496,0.9910292744658675
2016-06-01,1,0.002361192690688463,0.002652818305989985,-0.006886319441387399,0.012575729170348781,0.989617577594805
2016-06-03,1,0.002076276546977508,0.0022680069464894198,-0.006886319441387399,0.00869695430285041,0.9901350134055797
2016-06-07,1,0.001853745442775283,0.0019720239147091156,-0.006886319441387399,0.0053063543056462254,0.9911554022817081
2016-06-09,1,0.001796789142831079,0.0019334607206504515,-0.004560008135943711,0.00869695430285041,0.9913813265463904
2016-06-13,1,0.0016718514465664893,0.001807133312622079,-0.001026769979537534,0.011104311686105796,0.991425871447745
2016-06-15,1,0.0019639532040836823,0.002153366758074708,0.0008132471439922602,0.008336740841329135,0.9923018735149595
2016-06-17,1,0.0006263749521607643,0.0006610718741589299,0.0008132471439922602,0.008336740841329135,0.992461915086905
2016-06-21,1,0.0002693813606024646,0.000390761583109866,-0.0001315819589715255,0.008336740841329135,0.9922368870487056
2016-06-23,1,0.0006271318161832373,0.0007175053329197204,-0.0011211101702202565,0.005623777784346788,0.9929924552014274
2016-06-27,-1,-0.0008495378285293516,-0.0005576781865416855,-0.0007911608679892536,0.005623777784346788,0.9937459283810904
2016-06-29,1,6.0075026469580254e-05,0.00026277458114048753,-0.001915609266529711,0.0037311660892722968,0.9938298749259479
2016-07-01,1,0.0006433388051236986,0.0007424087209857819,-0.001915609266529711,0.0037311660892722968,0.993399628579392
2016-07-06,0,-5.069736380348424e-06,0.00022660229209091722,-0.004111018220719481,0.0037311660892722968,0.9924952123574751
2016-07-08,1,0.001269793882307023,0.001280238218508803,-0.006492366141358454,0.0037311660892722968,0.9880675476660833
2016-07-12,1,0.0009490873646504854,0.0009921536334929757,-0.007470422599397238,0.0037311660892722968,0.9852340418684808
2016-07-14,1,0.0010556031614312074,0.0011124503484533576,-0.011263083504761571,0.004093870352166982,0.9843632781823383
2016-07-18,1,0.0005353352661742255,0.0005667830317637717,-0.011162742721676853,0.004093870352166982,0.9842159586244823
2016-07-20,1,0.0003699963424459926,0.0004226114585608846,-0.01540145008691304,0.0033975219944027846,0.9832851645884148
2016-07-22,1,0.0005629715114352063,0.0005671502672533171,-0.01540145008691304,0.006626478147265704,0.9827069406540394
2016-07-26,1,0.00046469206763179454,0.0004737772322655874,-0.01540145008691304,0.007745097958798014,0.9826560597865758
2016-07-28,1,1.2449152909236443e-05,2.3765091869978808e-05,-0.01540145008691304,0.006626478147265704,0.9835869340672443
2016-08-01,-1,-0.00011881021251814102,-8.538874948106682e-05,-0.01540145008691304,0.006457825652447094,0.9845931278110883
2016-08-03,-1,-5.191417696677096e-05,-4.3617957727644484e-05,-0.01720946735271232,0.006457825652447094,0.9840719105958917
2016-08-05,1,3.562623645837866e-05,3.726157399896134e-05,-0.012412667026046363,0.003785555320902653,0.9883728634912109
2016-08-09,-1,-4.533813608136503e-05,-2.114686658876722e-05,-0.010490498985451013,0.003785555320902653,0.9909021920564426
2016-08-11,1,5.0587638889667606e-05,5.959773599881648e-05,-0.010490498985451013,0.0032367560958857945,0.9908120409416873
2016-08-15,-1,-0.00014280550637442373,-0.00012066228613921885,-0.011429183871707565,0.004811427977396519,0.9903927526378162
2016-08-17,-1,-0.0003204275127981888,-0.0002859613679725481,-0.008161930948860443,0.007419749610727951,0.9908126298289047
2016-08-19,1,7.181327159716059e-05,7.646446475252735e-05,-0.009758728635502527,0.0032367560958857945,0.9908424497500118
2016-08-23,1,0.00017839030316013388,0.00020925892201271746,-0.009758728635502527,0.004846782766289521,0.9906158866943974
2016-08-25,1,0.0001622651061067366,0.00018993807890654133,-0.007755660179133407,0.007173232977435752,0.9913373293855121
2016-08-29,1,5.499692350219938e-05,6.426934859678893e-05,-0.009758728635502527,0.007173232977435752,0.9902461858870233
2016-08-31,1,4.766866747572156e-05,5.6424743873553616e-05,-0.011148483598294668,0.007173232977435752,0.9899800780176778
2016-09-02,-1,-0.0005511266743976341,-0.00048668754163690424,-0.009929671289113562,0.00872616949859176,0.9901366810359018
2016-09-07,1,2.5809756036385897e-05,3.3574768813336874e-05,-0.009929671289113562,0.00872616949859176,0.9901616434595369
2016-09-09,-1,-0.00017123436578428582,-0.00015037488311419066,-0.008043577823308428,0.00872616949859176,0.9907632304938493
2016-09-13,-1,-9.7111017352222e-05,-9.384939102065688e-05,-0.008043577823308428,0.007355773427674842,0.9868375479527719
2016-09-15,1,0.0001920384393615948,0.0002187120044024547,-0.008043577823308428,0.007355773427674842,0.9871989067277527
2016-09-19,-1,-0.0005237533562131955,-0.00043469435465715543,-0.00881859153348385,0.007355773427674842,0.9869972306084962
2016-09-21,-1,-4.5274971178139076e-05,-3.9524605335640856e-05,-0.00881859153348385,0.0073673545769666685,0.986918317680764
2016-09-23,1,0.00010037940195444111,0.00010290610906873384,-0.00881859153348385,0.007498009748803089,0.9865920788220008
2016-09-27,1,0.00016142799384850294,0.00018500076107350174,-0.00881859153348385,0.007498009748803089,0.9866076303057539
2016-09-29,-1,-0.00032974564597332637,-0.00030173943245383124,-0.006965365824085423,0.009419045297355124,0.9853342648678025
2016-10-03,1,3.90749929083748e-05,4.300080390910865e-05,-0.007865400574168242,0.007498009748803089,0.9850775445814145
2016-10-05,1,0.00010284409343995816,0.00012347835577450957,-0.007223481922434258,0.0066007803492775935,0.9856007720233737
2016-10-07,1,1.7337348577298618e-05,2.6168147629552067e-05,-0.007499080175441892,0.007195954977614204,0.9850568151235022
2016-10-11,1,9.85264747576821e-05,0.00010317812864478012,-0.006843259024509972,0.009934754041949032,0.9881369430292319
2016-10-13,-1,-0.00012032823753937115,-9.478378814236324e-05,-0.006843259024509972,0.011294188653997481,0.9856560610903559
2016-10-17,-1,-4.119786341201073e-05,-3.448422030921758e-05,-0.005150496841332919,0.011294188653997481,0.9860980730157047
2016-10-19,1,0.0002445489280360696,0.0002845038400869376,-0.005623241658905667,0.009934754041949032,0.9864577154005781
2016-10-21,1,0.00019396604644926203,0.00022567500269847284,-0.005150496841332919,0.008971256580234873,0.9867961858561879
2016-10-25,1,0.00019564137962520842,0.00022560839565525452,-0.004675228928474014,0.008971256580234873,0.9876810471395929
2016-10-27,-1,-0.0005609865029587948,-0.0004976329930132397,-0.0035115848657656804,0.006930974569763925,0.9901793669053419
2016-10-31,1,4.8852011098446956e-05,5.468694971697049e-05,-0.0035115848657656804,0.006930974569763925,0.9906660046777999
2016-11-02,1,5.7267370108127264e-05,6.516227755920999e-05,-0.0036592636822205074,0.006930974569763925,0.9903760633188575
2016-11-04,1,0.00019270286428029355,0.0002168302321387104,-0.0036592636822205074,0.0046382233001323134,0.9910432968587339
2016-11-08,-1,-0.0001244138747990697,-9.054568054061007e-05,-0.005670363857002291,0.003665743890696756,0.9919358798168002
2016-11-10,-1,-0.0001308619385195737,-0.00011317746869548581,-0.005670363857002291,0.003412149607262652,0.9935401380884534
2016-11-14,-1,-4.7433666275830275e-05,-4.127021394480426e-05,-0.007557126905404317,0.003665743890696756,0.9929883177827653
2016-11-16,1,0.000292736453347726,0.00041560258230580047,-0.004211362161384303,0.005174870778776401,0.9923496658471808
2016-11-18,1,0.00016568832140276024,0.00019669301706783446,-0.004211362161384303,0.005199855518481,0.9920607819634659
2016-11-22,1,0.00011535504301577251,0.0001368249362154472,-0.007286675559557474,0.005199855518481,0.9916318110395719
2016-11-25,1,8.67684850613485e-05,9.03471622113256e-05,-0.007286675559557474,0.00922157451206599,0.9912260014409652
2016-11-29,1,9.320839865676415e-05,0.00011258233282476036,-0.007286675559557474,0.00922157451206599,0.9909429391217235
2016-12-01,1,0.00012947262196748028,0.00015869087365926956,-0.007286675559557474,0.00922157451206599,0.9909480762017413
2016-12-05,1,7.71664562467788e-06,1.250580637040224e-05,-0.005729203640060561,0.011634599269218834,0.9903317619368464
2016-12-07,-1,-0.00026823025163801007,-0.00023790202941239622,-0.005090216566640183,0.013851820519008858,0.9904852030035309
2016-12-09,1,0.00027356189207602835,0.0003189348266521073,-0.005090216566640183,0.011634599269218834,0.9917328891276449
2016-12-13,1,0.00013690898728867116,0.0001586909181710853,-0.005090216566640183,0.00712278415412568,0.9898475495291671
2016-12-15,1,9.820047603853548e-05,0.00010777941988289528,-0.00536974391999042,0.004376120258343089,0.9907634717640955
2016-12-19,1,0.00017131966600200159,0.00019013825228428942,-0.0061949684877016485,0.001940902069300888,0.9907386526118828
2016-12-21,1,0.00011056538314310475,0.00013590875264481573,-0.006329105630277845,0.004376120258343089,0.9857261963057227
2016-12-23,1,0.003621214424841464,0.00434800118105017,-0.008443466481097166,0.004376120258343089,0.983759688142194
2016-12-28,1,0.003253563079063171,0.0038747242043489947,-0.008443466481097166,0.006723646735120801,0.9814612429699223
2016-12-30,1,0.0027568378022599614,0.0032680629476920862,-0.006962675893158151,0.01294821241064397,0.9810643743806183
2017-01-04,1,0.002926357119293843,0.003444270309243725,-0.006962675893158151,0.01294821241064397,0.9810628929834455
2017-01-06,1,0.003079579918001546,0.0035945317649508524,-0.006962675893158151,0.010252362847227036,0.9817982342901695
2017-01-10,1,0.0026532000683075177,0.0030655331449443834,-0.006962675893158151,0.012074821272092157,0.9815464512727081
2017-01-12,1,0.0014461624171535252,0.0017249463592509404,-0.006732408876044769,0.012074821272092157,0.9837096920903784
2017-01-17,1,0.0014868203317309845,0.0017869927576680987,-0.0051542726231823596,0.013020705416834871,0.9823429049540611
2017-01-19,1,0.0009281811412166309,0.0011286202529682857,-0.0003724412264997628,0.016643100333462193,0.9809931461089278
2017-01-23,-1,-0.0011909324448810348,-0.001123953189607006,0.0026995978852324054,0.014022926917806752,0.9849132212591026
2017-01-25,-1,-0.0017106027528444962,-0.0015538177416170905,0.003289844611539609,0.014022926917806752,0.985218210496095
2017-01-27,-1,-0.0029015061786668243,-0.0025847220864678756,0.003289844611539609,0.012047024420107588,0.9871597328360276
2017-01-31,-1,-0.0018872535745522723,-0.0016973858430429753,0.002701488457600433,0.01080733765745251,0.9887870848217659
2017-02-02,-1,-0.001286124571254304,-0.0011470370529393567,0.002701488457600433,0.008817164207648233,0.9900712014989735
2017-02-06,-1,-0.0009493211257113713,-0.0008498841044340891,0.0003285085230186448,0.008817164207648233,0.9901908354262106
2017-02-08,-1,-0.00027787774321139943,-0.0002667883921870283,0.0003285085230186448,0.01080733765745251,0.9899481500735778
2017-02-10,-1,-0.0007003610522750127,-0.0006194651128085571,0.0003285085230186448,0.01080733765745251,0.9889344892511507
2017-02-14,1,0.0005892504536979241,0.0006922035210680847,-0.004427941479645194,0.01080733765745251,0.9904278285272301
2017-02-16,1,0.0009903674737820093,0.0011611724181981328,-0.005197514537497828,0.008817164207648233,0.9912409335994865
2017-02-21,1,0.001037379325965061,0.00119393444664355,-0.0056716829414755875,0.008817164207648233,0.9908777443819952
2017-02-23,1,0.0009914983992933188,0.001088823749141901,-0.007040350557893841,0.009132749132368324,0.9905296698148851
2017-02-27,1,0.0014695050614311114,0.0016501150655951786,-0.007040350557893841,0.00734803692927149,0.9910799810712136
2017-03-01,1,0.0017224865389883315,0.0019380484155109593,-0.007040350557893841,0.006026646969360303,0.9911243615555538
2017-03-03,1,0.0018987819284679577,0.0021531750702726846,-0.010717342083477691,0.0035639760323306026,0.9901779937990772
2017-03-07,-1,-0.00026910421958883577,-6.72687722488675e-05,-0.010487597974294768,0.0035639760323306026,0.9909493135102728
2017-03-09,1,0.000820430932022966,0.0008788213766832092,-0.011011139340747303,0.002726678127751012,0.9909725046540544
2017-03-13,-1,-0.00035400819774006917,-0.0001238044775930178,-0.010487597974294768,0.0025005405213246734,0.9925396006679789
2017-03-15,1,0.0001133172237963915,0.00027713942789093745,-0.010487597974294768,0.0022236140914315915,0.9931073356072894
2017-03-17,-1,-0.0008055051856094594,-0.0005338310543183509,-0.007818589642301817,0.0023134199145041735,0.994183514933464
2017-03-21,-1,-0.0015053415350912377,-0.0011327733199175947,-0.0050701271085884445,0.0025005405213246734,0.9946452664764601
2017-03-23,-1,-0.0007195674745136194,-0.0004988351584281471,-0.0034567389307518896,0.0025005405213246734,0.9953514575950831
2017-03-27,-1,-0.0011245852531513848,-0.0008167001498393295,-0.0034567389307518896,0.0025433480547473472,0.9951745996297161
2017-03-29,-1,-0.0014832318685493342,-0.001117504637778368,-0.0031325433306114065,0.0028186416238187963,0.9936149024968235
2017-03-31,-1,-0.0024085513835473125,-0.001952092667519147,-0.0017376323985224085,0.004543116884247332,0.9937571911792353
2017-04-04,-1,-0.0017449289488710737,-0.0014362534646565,-0.003052480019795592,0.004543116884247332,0.9931521346286694
2017-04-06,-1,-0.0009319522581867229,-0.000831582480929343,-0.0017376323985224085,0.004543116884247332,0.9942930149172614
2017-04-10,-1,-0.0008972660471959315,-0.0007988414746591388,-0.003052480019795592,0.00475433658481892,0.9939608412956444
2017-04-12,-1,-0.0012524795859666506,-0.0011024896342710934,-0.003052480019795592,0.00475433658481892,0.9940443703842283
2017-04-17,-1,-0.0010180074671572031,-0.000914636256993897,-0.0022841038598094086,0.00475433658481892,0.9942074862653023
2017-04-19,-1,-0.0008758538603780837,-0.0007837940246715836,-0.0031771624941583612,0.004543116884247332,0.9939203972776338
2017-04-21,-1,-0.000469589139950949,-0.0004396706319363382,-0.003392313567700028,0.004506681019063019,0.9934893028268176
2017-04-25,-1,-0.0003590947180006962,-0.00032342511570028726,-0.003392313567700028,0.0028864222447057618,0.9937541067204547
2017-04-27,1,0.0005761878300977633,0.0006394543142100215,-0.004454184858357335,0.0028864222447057618,0.9948016191415522
2017-05-01,1,0.0008460965572450573,0.0009345420774964082,-0.006593451834624292,0.0016189929556089968,0.9947552673102226
2017-05-03,-1,-6.675606236050448e-05,-2.7290026867220313e-05,-0.003392313567700028,0.0021152149734192487,0.9955106209045465
2017-05-05,1,0.0005843930739940586,0.0006912829924298263,-0.004654445402414225,0.002640626499352638,0.9929023624511205
2017-05-09,1,0.0007208548350075695,0.0008501631060335771,-0.007326168635941191,0.002640626499352638,0.9918867980065207
2017-05-11,1,0.001086311553842833,0.0013159929936185386,-0.007326168635941191,0.006011905831705633,0.9911568975444167
2017-05-15,1,0.0013385631634225746,0.0016299718997316078,-0.007326168635941191,0.008699461568482142,0.9906366562677312
2017-05-17,1,0.0007646496885114879,0.000957590553003874,-0.0051001221476737295,0.008699461568482142,0.9907705792900273
2017-05-19,1,0.0008638679386755926,0.0011032456117008942,-0.0034460232158135566,0.010630804146982437,0.9908388249140553
2017-05-23,1,0.0007489269953850108,0.0009423912397501391,-0.0034460232158135566,0.010630804146982437,0.9902091489110225
2017-05-25,1,0.0008675364833619358,0.0010734711117262271,-0.0034460232158135566,0.010900205767055058,0.9894206060044433
2017-05-30,1,0.0008654266648305914,0.0010979765643954007,-0.0034460232158135566,0.010900205767055058,0.9888215846260093
2017-06-01,1,0.0015451571755738572,0.0018979366351912776,-0.0034460232158135566,0.008888960507978608,0.989373426125651
2017-06-05,1,0.0003338151540040734,0.0005312964126444755,-0.002125417933583663,0.010240288572585198,0.9911955925298973
2017-06-07,-1,-0.0005061577938682821,-0.000483635766964199,-0.002125417933583663,0.008443768977139395,0.9914459991540476
2017-06-09,1,0.00022073733492081773,0.0002825439402504555,-0.002125417933583663,0.008443768977139395,0.9921337860668541
2017-06-13,1,0.00024694324951992535,0.00028329739645079234,-0.0046118877730689884,0.007516637296380419,0.9920247921736192
2017-06-15,-1,-0.0014023207033644729,-0.0011082369830728834,-0.005611580353950331,0.008171080368226792,0.9916425567287223
2017-06-19,-1,-0.001151911978765025,-0.0008661909580425589,-0.006576355436478026,0.007516637296380419,0.9923915544506532
2017-06-21,-1,-0.0015764532206276338,-0.001170128990640665,-0.006576355436478026,0.006201022017277273,0.9925072304057698
2017-06-23,-1,-0.0007960191669548023,-0.0005224225214319572,-0.0055628876625518995,0.00521472647799645,0.99401041954809
2017-06-27,-1,-0.0008254424408467143,-0.0005924610268508033,-0.0026539079405148098,0.006095097791945657,0.9947105640773403
2017-06-29,-1,-0.0006757733929708879,-0.000489368501162149,-0.0055628876625518995,0.006400929592665833,0.9922457082718197
2017-07-03,-1,-0.0001908850922303371,-8.051263189004162e-05,-0.006576355436478026,0.006400929592665833,0.9906919624860868
2017-07-06,-1,-0.0009933257335610708,-0.0007741449829296902,-0.006576355436478026,0.006400929592665833,0.9906614629860124
2017-07-10,1,8.681024628498957e-05,0.00011938916734945522,-0.006576355436478026,0.006400929592665833,0.9905396365037922
2017-07-12,-1,-0.0002366703193927429,-0.00018333152586230364,-0.0023163366968339434,0.008233620295398925,0.9903056458409618
2017-07-14,0,-1.3071511256155687e-05,7.212900376497898e-07,-0.0023163366968339434,0.007066057165186742,0.9902939337696807
2017-07-18,1,6.464857697927007e-05,9.009945108221575e-05,0.00017749655073074895,0.008233620295398925,0.9897202100369702
2017-07-20,1,0.0006406678859334155,0.0007665379836947997,-0.007969127988321842,0.008233620295398925,0.9896145250637711
2017-07-24,1,0.0009077061459098102,0.001088679796024037,-0.007969127988321842,0.008233620295398925,0.9894361728560196
2017-07-26,1,0.00114213178324512,0.0013575297161551314,-0.007969127988321842,0.009166292834724714,0.9888416271456286
2017-07-28,1,0.0005827179388469231,0.0006972870598673821,-0.006222356930879361,0.008233620295398925,0.9907039745433998
2017-08-01,1,0.0014547207317637837,0.0017341831123398911,0.00031412630378740806,0.006718698953617259,0.9930166488320344
2017-08-03,1,0.0009019769153449113,0.0010780007990359533,0.0031971398389920402,0.008666219283360949,0.9924316456791206
2017-08-07,1,0.0015074831130617024,0.0017859205311709144,-0.0026681971073237395,0.008666219283360949,0.9927193817762047
2017-08-09,1,0.001679853259938174,0.001940326351962981,-0.0026681971073237395,0.006096647637747581,0.9911726310939842
2017-08-11,1,0.001212368948634337,0.0013934894487320666,-0.0020021235677764888,0.006096647637747581,0.9915502427001206
2017-08-15,1,0.0017749381667208635,0.0020314761098223864,-0.004167047762477211,0.004883368278453867,0.9918844600730145
2017-08-17,1,0.0012852280239302972,0.0014843936482534922,-0.0019643305187950844,0.004883368278453867,0.9925204896255874
2017-08-21,1,0.001185694547605058,0.0013684760427722074,0.0003767252422448395,0.004883368278453867,0.9927417626347218
2017-08-23,1,0.0013201933690569693,0.0014702955727961806,-0.0017568998702194585,0.004883368278453867,0.9931465189139007
2017-08-25,1,0.001427389418322647,0.0015814946949455836,-0.002560837596957501,0.004780613254025264,0.9932066076621378
2017-08-29,1,0.0013307343697127637,0.0014423231228963016,-0.002849784574044452,0.003946978415129969,0.9931255184056165
2017-08-31,1,0.0020126029107953294,0.0022122061125124486,-0.002849784574044452,0.0035579232972741456,0.9936568516675808
2017-09-05,1,0.0014938346376084494,0.0016088465926823849,-0.002849784574044452,0.003946978415129969,0.9936425342844799
