JNU-Tangyin/eata/results/Batch4_SP500/Batch4_SP500-HST.csv
Date,Action,Predicted_Q25,Predicted_Q75,Actual_Q25,Actual_Q75,RL_Reward
2010-12-14,0,0.0,0.0016716060605877895,-0.00361135648121511,0.013237050953426895,0.9909413049992697
2010-12-16,1,0.0014682371302572588,0.001603180246028016,-0.002872451577648004,0.012793765358339993,0.9912912448585375
2010-12-20,1,0.0018841257147581081,0.002060474523204927,-0.00361135648121511,0.004893976789600324,0.9918074269168679
2010-12-22,1,0.002658085660990715,0.00296352975464856,-0.005036638116915022,0.004893976789600324,0.9916089449832256
2010-12-27,1,0.005724505548977632,0.006378567871157729,-0.003985846073770575,0.0045122987739146195,0.9912012237434793
2010-12-29,1,0.004444330965125194,0.004825317263725988,-0.003985846073770575,0.004893976789600324,0.9916265433557676
2010-12-31,1,0.004305730534465538,0.004648583476583076,-0.005036638116915022,0.005901168738748593,0.9884548167921738
2011-01-04,1,0.0032714627844615783,0.0033149682651362595,-0.003985846073770575,0.005901168738748593,0.9890380775477361
2011-01-06,1,0.0031879488463062806,0.0031901704385984496,-0.003726406972778559,0.004893976789600324,0.9901831703034186
2011-01-10,1,0.004031099870824297,0.004261153207161945,-0.0029531308594502176,0.00878333677813483,0.9895868968835991
2011-01-12,1,0.0023901518158300676,0.002535581901093794,-0.003726406972778559,0.00878333677813483,0.9889879461539619
2011-01-14,1,0.0013062428424364544,0.0016526925886016309,-0.004285148185172622,0.010787182574638943,0.9883868287322707
2011-01-19,1,0.00010322029386212518,0.0005805893395906343,-0.004285148185172622,0.010787182574638943,0.9875548286372067
2011-01-21,0,-0.00037959673789989814,0.00018106710537218996,-0.003726406972778559,0.010671751194506494,0.9882384546531212
2011-01-25,1,0.00042746632434890824,0.0008007986117077499,-0.005702854805625519,0.010671751194506494,0.9862973722486017
2011-01-27,1,0.0021045623884141393,0.002209095356361481,-0.006100425790402752,0.010671751194506494,0.9856094301971187
2011-01-31,0,0.0,0.0,-0.006100425790402752,0.0057463477029571055,0.9868668205227245
2011-02-02,1,0.00182466569153506,0.0018819905639178036,-0.006100425790402752,0.00603237544706145,0.9872074677218937
2011-02-04,1,0.002188950575844431,0.0022056354456156083,-0.009560931419712343,0.00603237544706145,0.9857219879569331
2011-02-08,1,0.0028275965042678097,0.0029148640269808894,-0.009560931419712343,0.006669435142881245,0.9857335658671497
2011-02-10,1,0.002856807333842117,0.003010880653685516,-0.012950189352281299,0.006669435142881245,0.9850859062716845
2011-02-14,1,0.00202515992732118,0.002077271635595398,-0.015282419270680438,0.003666769857742754,0.9849368016307241
2011-02-16,1,0.0007169413405518076,0.0009071703477899555,-0.01266201613661214,0.006669435142881245,0.9859114337697026
2011-02-18,0,0.0,0.0,-0.01266201613661214,0.012699431755590452,0.984565385497885
2011-02-23,0,0.0,0.0,-0.011799668498287301,0.012699431755590452,0.9857241900310322
2011-02-25,-1,-0.0011904490757132888,-0.0006728566571623897,-0.011799668498287301,0.012699431755590452,0.9866886396384816
2011-03-01,-1,-0.002332591184643497,-0.001782792230512282,-0.011799668498287301,0.014318442904291294,0.9866462127277542
2011-03-03,-1,-0.0011463145884819212,-0.0007510312752284701,-0.011799668498287301,0.012699431755590452,0.9875035472174407
2011-03-07,-1,-0.0023414794955275995,-0.0018318960909200178,-0.011285953808947972,0.012699431755590452,0.9873956872211702
2011-03-09,-1,-0.0009586210891081289,-0.0006275590547953245,-0.011285953808947972,0.007031668022061205,0.9879578679867262
2011-03-11,-1,-0.0016252283731843342,-0.0012580288333166167,-0.011285953808947972,0.007031668022061205,0.9883134715241437
2011-03-15,0,0.0,0.0,-0.011285953808947972,0.012699431755590452,0.9878064272537308
2011-03-17,-1,-0.0020635571378124,-0.001673105303463687,-0.011276195556789154,0.007031668022061205,0.9894365318134094
2011-03-21,-1,-0.0010761382295401741,-0.0007871379883937961,-0.011276195556789154,0.0047532764308612935,0.9901015566695491
2011-03-23,0,0.0,0.0,-0.010869801174109801,0.01385356232054349,0.988760761366047
2011-03-25,0,0.0,0.0,-0.010869801174109801,0.014100488826695776,0.9884396496950912
2011-03-29,0,0.0,0.0,-0.0084259401050278,0.01405759026395383,0.9898789270384686
2011-03-31,-1,-0.0006803255242505685,-0.0005345725748612751,-0.010852931666437946,0.01405759026395383,0.9894513024443449
2011-04-04,0,0.0,0.0,-0.011060533571665889,0.01405759026395383,0.9887172138186487
2011-04-06,0,0.0,0.0,-0.008489517570879831,0.014819542290784981,0.9886006904624043
2011-04-08,0,0.0,0.0,-0.0069346147941363595,0.014819542290784981,0.9890984011756346
2011-04-12,0,0.0,0.0,-0.0069346147941363595,0.013952586134904606,0.9888326276339872
2011-04-14,0,0.0,0.0,-0.008352512767411235,0.013952586134904606,0.9880635041006736
2011-04-18,0,0.0,0.0,-0.009253240526006888,0.009851447052102573,0.9886739338229317
2011-04-20,0,0.0,0.0,-0.009253240526006888,0.008402295586160465,0.9898104517274157
2011-04-25,0,0.0,0.0,-0.010486475468905562,0.0076771643106864195,0.9900607847977324
2011-04-27,-1,-0.00039909065615994935,-0.0002878813958851092,-0.010486475468905562,0.007093640925668845,0.990542658344518
2011-04-29,-1,-0.001000931288113332,-0.0008263031269911304,-0.009250184065602192,0.0076771643106864195,0.9892913216558478
2011-05-03,0,0.0,0.0,-0.00620386613986958,0.0076771643106864195,0.989453552192084
2011-05-05,0,0.0,0.0,-0.00620386613986958,0.007093640925668845,0.9902307160954423
2011-05-09,0,0.0,0.0,-0.009250184065602192,0.007321079959122899,0.9891712025360757
2011-05-11,-1,-0.003125285259265166,-0.002645265213356212,-0.009250184065602192,0.0049390918861644895,0.9903353513503823
2011-05-13,-1,-0.002294680469045139,-0.0019858493913026557,-0.009250184065602192,0.0049390918861644895,0.9891585792300728
2011-05-17,0,0.0,0.0,-0.01071711103639507,0.007504857057005297,0.9877457041443497
2011-05-19,-1,-0.0011044307875446402,-0.0009749152836059787,-0.01071711103639507,0.0049390918861644895,0.988085492615792
2011-05-23,-1,-0.0019118416099416931,-0.0016681100797921954,-0.006957897011649221,0.008778254689160634,0.9874207289859398
2011-05-25,-1,-0.0017069890888342016,-0.0014986951546080867,-0.012829342491933429,0.008778254689160634,0.9870604908333777
2011-05-27,0,0.0,0.0,-0.012829342491933429,0.007633211198404126,0.9885930635648822
2011-06-01,0,0.0,0.0,-0.006957897011649221,0.008778254689160634,0.9895319748403542
2011-06-03,-1,-0.0016702890212198253,-0.001534324733184027,-0.006957897011649221,0.012208292989399488,0.9861339631619513
2011-06-07,-1,-0.002053310710530817,-0.0018923903034295665,-0.006850455264203758,0.012208292989399488,0.9868772869918206
2011-06-09,0,0.0,0.0,-0.005706109409771274,0.012208292989399488,0.9871661091038089
2011-06-13,-1,-0.003978983419798767,-0.003566746657139469,-0.005706109409771274,0.013171169078795075,0.9861246755871396
2011-06-15,-1,-0.00419507559413943,-0.0037628737037161695,-0.005706109409771274,0.013171169078795075,0.9860185978842108
2011-06-17,-1,-0.0031349189809513254,-0.0028306131638552163,-0.006850455264203758,0.011908365433770612,0.9861210392143462
2011-06-21,0,0.0,0.0,-0.006850455264203758,0.01202800670143137,0.9861428949670936
2011-06-23,0,0.0,0.0,-0.005706109409771274,0.01202800670143137,0.9870644428481498
2011-06-27,-1,-0.000788521661450052,-0.0007625695873281803,-0.006850455264203758,0.01202800670143137,0.9860776824294095
2011-06-29,-1,-0.000171136352559005,-4.691340157411824e-05,-0.011634920710246676,0.01009335967559254,0.9850860335821745
2011-07-01,1,0.002701811210978583,0.0032634536021963574,-0.01738913409015095,0.0037233703373016,0.985482861005031
2011-07-06,1,0.001819115163091423,0.0022533174447272246,-0.01848321364869209,0.0037233703373016,0.9842529889712146
2011-07-08,1,0.0024720245015667558,0.0030243908002062945,-0.020665394992827033,0.0013523840901284857,0.9802773719667366
2011-07-12,1,0.0019405717193334015,0.00239204966624293,-0.02263255514629334,0.0013523840901284857,0.9755511938163565
2011-07-14,0,0.0,0.0,-0.022967994330073203,0.0037233703373016,0.97442440382607
2011-07-18,0,0.0,0.0,-0.03303611799854652,0.0037233703373016,0.9725151012035684
2011-07-20,0,0.0,0.0,-0.03303611799854652,0.002139192389808325,0.9728588829701909
2011-07-22,-1,-0.001546876218699231,-0.0015256580471126198,-0.041817988279204826,0.0008110292396701549,0.9672958123266914
2011-07-26,-1,-0.001132645646007355,-0.0010338985529551176,-0.041817988279204826,0.0008110292396701549,0.9662027917775327
2011-07-28,-1,-0.0025138819380396337,-0.0023997924068490805,-0.03753845510103262,0.004495419383690529,0.9666903941446399
2011-08-01,-1,-0.0027923519131913366,-0.002665374763133234,-0.03753845510103262,0.013498302889941381,0.9649262102690204
2011-08-03,-1,-0.004478536524549031,-0.004084039841006529,-0.034945239598611,0.025878928756830438,0.9647515392285069
2011-08-05,-1,-0.00810275442444003,-0.00725212319140861,-0.034945239598611,0.025878928756830438,0.9660226656972914
2011-08-09,-1,-0.010102831957285988,-0.009044882989065476,-0.03263634334910989,0.025878928756830438,0.9688603371615209
2011-08-11,-1,-0.00931760520006912,-0.00840834998232131,-0.032567647133801926,0.02171982179133425,0.9703790762104016
2011-08-15,-1,-0.009216789570584492,-0.008301725901944331,-0.031602911347253654,0.02171982179133425,0.9712808335488418
2011-08-17,-1,-0.008853482450235501,-0.008007645942641271,-0.031602911347253654,0.026846172986914545,0.9681210183503229
2011-08-19,-1,-0.013564203158723219,-0.012147486525202256,-0.02815158463378674,0.026997979462025742,0.9697129025404778
2011-08-23,-1,-0.012524213607900321,-0.01125382755447359,-0.031602911347253654,0.026097088946388205,0.9698671452671251
2011-08-25,-1,-0.01408317318939811,-0.012619399989856075,-0.030883813693298644,0.026097088946388205,0.9698088091154776
2011-08-29,-1,-0.01202964904184296,-0.010804928106930914,-0.030883813693298644,0.026097088946388205,0.9693308965236801
2011-08-31,-1,-0.010780537662320582,-0.00969258891788887,-0.03211338712607749,0.026097088946388205,0.969537597830391
2011-09-02,-1,-0.012730754142530477,-0.011439577949980462,-0.03211338712607749,0.026097088946388205,0.9680716711104957
2011-09-07,-1,-0.011429763331607841,-0.010305656276135429,-0.03211338712607749,0.026097088946388205,0.9694886448879857
2011-09-09,-1,-0.012892172068366885,-0.011620013534465274,-0.028515267009143905,0.027546947032248498,0.9689069606731895
2011-09-13,-1,-0.010371660630857009,-0.00948186330708492,-0.028515267009143905,0.031637701906451994,0.9681396114310057
2011-09-15,-1,-0.00740979254411067,-0.0069014123866764,-0.028515267009143905,0.027743547074204705,0.9693728065611852
2011-09-19,-1,-0.006296450821618272,-0.00594501258702191,-0.028346567679845797,0.0347340180387047,0.9688042929568612
2011-09-21,-1,-0.008870525866826701,-0.00820324028595698,-0.023749361610721914,0.04288104713927163,0.9668621645339587
2011-09-23,-1,-0.010162237377878228,-0.009287492010682588,-0.014105801791425237,0.045126213252310574,0.9644579641952505
2011-09-27,-1,-0.006710944822288069,-0.0062739196950546685,-0.023749361610721914,0.04288104713927163,0.9666489772207449
2011-09-29,-1,-0.006599070831196422,-0.006201281166295356,-0.014105801791425237,0.045126213252310574,0.964696490837419
2011-10-03,-1,-0.011050057745398249,-0.010139534070948999,-0.011093003776346984,0.045126213252310574,0.9665217915574243
2011-10-05,-1,-0.00811606497325797,-0.007524896349928244,-0.013968849715703696,0.045102634652173346,0.9657913392942541
2011-10-07,-1,-0.0070189258898625045,-0.006558393306823948,-0.013968849715703696,0.045102634652173346,0.9665684141693336
2011-10-11,-1,-0.004208861159440064,-0.004125122400104634,-0.014252119690842745,0.04288104713927163,0.9699352679512423
2011-10-13,-1,-0.0026625446808451153,-0.0025851355359315245,-0.022069761635525355,0.032539139444660345,0.9690445061793913
2011-10-17,-1,-0.0021903830364145152,-0.0020349972763655053,-0.014252119690842745,0.03287828371331808,0.9696255656386943
2011-10-19,1,0.000311673227051418,0.000880265976597953,-0.012988339246842066,0.027748053120935652,0.9728589429451839
2011-10-21,1,0.0018756540119427424,0.0025928659268472675,-0.01814146822780178,0.02419712149123377,0.9734838272870143
2011-10-25,1,0.0017227174134173467,0.0024254272522772425,-0.020583845967221046,0.020837866506968658,0.9739401889462861
2011-10-27,1,0.0041533722383428895,0.005161706807684959,-0.023338659299876496,0.015304806875387007,0.9750038190590234
2011-10-31,1,0.0032541936982601175,0.004132125756137973,-0.02198969570729373,0.018869391505848536,0.975253059384359
2011-11-02,1,0.0022478409998975893,0.002974578952539558,-0.017691813696940856,0.018869391505848536,0.9762580399516659
2011-11-04,1,0.003048727361627312,0.003861071752677532,-0.017691813696940856,0.018739537565399728,0.9764379618733584
2011-11-08,1,0.003464144672883116,0.004371708367539733,-0.017691813696940856,0.018739537565399728,0.9767748517124543
2011-11-10,1,0.0017222571274762687,0.0024493954876911414,-0.017691813696940856,0.019314780743905746,0.9783879685669207
2011-11-14,1,0.002719396133063308,0.0035537711568646223,-0.017691813696940856,0.018655558708763835,0.9798469307943093
2011-11-16,1,0.0031890784715955574,0.004109380660915568,-0.01656395983905181,0.015304806875387007,0.9807128209715384
2011-11-18,1,0.0032888807315547336,0.004264591851059692,-0.016033293787215817,0.010972990679806338,0.9819865031974604
2011-11-22,1,0.003148295151398473,0.004227386984479034,-0.012911930487534888,0.01549655460155568,0.9826145786852619
2011-11-25,0,0.0,0.0,-0.010772751131744014,0.017919588408817872,0.9832775916844857
2011-11-29,0,0.0,0.0,-0.012423792570820975,0.01211854324835208,0.9836239723107196
2011-12-01,0,0.0,0.0,-0.012423792570820975,0.01211854324835208,0.9862131059197822
2011-12-05,0,0.0,0.0,-0.012423792570820975,0.007660469293643141,0.9867929517953656
2011-12-07,0,0.0,0.0,-0.012423792570820975,0.011486871557675428,0.9865720384174702
2011-12-09,0,0.0,0.0,-0.011131892844570095,0.011486871557675428,0.9874078895290299
2011-12-13,0,0.0,0.0,-0.0023425593587353966,0.01341636774738924,0.9881001252922079
2011-12-15,1,0.00040128143586945324,0.0014099826914427496,-0.0023425593587353966,0.01341636774738924,0.9894345219476407
2011-12-19,0,0.0,0.0,-0.0005154593226447964,0.015546563394905061,0.9889612038650074
2011-12-21,0,0.0,0.0,-0.0005154593226447964,0.015546563394905061,0.9900986494934448
2011-12-23,-1,-0.002030378480790679,-0.0016955969242606749,0.0010169724286612817,0.01341636774738924,0.9890237172516906
2011-12-28,1,0.004953647838191664,0.0056263729005461265,0.0010169724286612817,0.01341636774738924,0.9919048307861896
2011-12-30,1,0.004560926255065329,0.005085963986352005,-0.0007961813908010072,0.011984190961136372,0.9917968971072324
2012-01-04,1,0.004411801787412196,0.004916427187885212,-0.0007961813908010072,0.011984190961136372,0.9915004748074653
2012-01-06,1,0.004868153883517641,0.005431158480525493,-0.0007961813908010072,0.014007100655667029,0.9897259601830599
2012-01-10,1,0.005442744511490089,0.006047426267894418,-0.003826231091050124,0.011984190961136372,0.9899816899458105
2012-01-12,1,0.0033209241920182956,0.0033887224092553816,-0.008527448090384943,0.010209943861874467,0.988951716092199
2012-01-17,1,0.002965218095295935,0.002999861184679314,-0.011694327443335742,0.013088078115826839,0.9865335999922565
2012-01-19,1,0.0025853338726774125,0.002650189046338387,-0.011694327443335742,0.010799564804010387,0.9864335823863339
2012-01-23,1,0.004032278680913654,0.004247402777268398,-0.012459614124060462,0.009917182091703603,0.9858765095299744
2012-01-25,1,0.0049807412242449355,0.005389887777271951,-0.012459614124060462,0.008575499093864649,0.9847445552537986
2012-01-27,0,0.0,0.0,-0.011694327443335742,0.008107859650473864,0.9857071089187828
2012-01-31,0,0.0,0.0,-0.011072165363091174,0.008107859650473864,0.9857731911351231
2012-02-02,0,0.0,0.0,-0.01015392428349704,0.004973437891196788,0.9860882939892557
2012-02-06,0,0.0,0.0,-0.011072165363091174,0.001247726693323874,0.9874464211700027
2012-02-08,0,0.0,0.0,-0.011072165363091174,0.0033284194080191224,0.9869389437033761
2012-02-10,0,0.0,0.0,-0.009469897809988633,0.005571747584306527,0.9871281672737976
2012-02-14,0,0.0,0.0,-0.009469897809988633,0.005571747584306527,0.9866462941002154
2012-02-16,0,0.0,0.0,-0.009469897809988633,0.0043601435986007145,0.9872683701988973
2012-02-21,-1,-0.00048089832097867485,-9.327784199793373e-05,-0.009029806393751064,0.007667715938504868,0.9873108475641644
2012-02-23,0,-0.00023780410420775559,0.00015231042942136664,-0.009029806393751064,0.0043601435986007145,0.9879370599692413
2012-02-27,-1,-0.0022075150469998707,-0.0014914270397935773,-0.008022759652113957,0.00808082837336411,0.9869908262974775
2012-02-29,-1,-0.0025410675964172894,-0.0018210309274095276,-0.008083776341515879,0.00808082837336411,0.9862863138939805
2012-03-02,-1,-0.002882054319074843,-0.002146355454723863,-0.008167896002457745,0.013919323793408147,0.9851862956013396
2012-03-06,-1,-0.003767703532740607,-0.002951812720571439,-0.007737373242909514,0.013919323793408147,0.9854586280263514
2012-03-08,-1,-0.0023845505284760403,-0.0018226341297640299,-0.008167896002457745,0.01022410081193465,0.9855213906026821
2012-03-12,-1,-0.002465252242589773,-0.0018780418192125214,-0.015193006379222997,0.007748383955911311,0.9848750175869652
2012-03-14,-1,-0.0009596761481094624,-0.0006281999997620596,-0.010478430428669574,0.012891609358977062,0.9853633176845947
2012-03-16,0,0.0,0.0,-0.010478430428669574,0.012891609358977062,0.9850551858745783
2012-03-20,1,0.00042534792938165575,0.0005319377999310931,-0.013072321439135866,0.007748383955911311,0.9858139993485261
2012-03-22,1,0.0010048802829797337,0.0010764537350982277,-0.01014104454971877,0.013046543742043299,0.9855008628620489
2012-03-26,1,0.0013281706082101737,0.0014132630288854725,-0.014180848742370585,0.013046543742043299,0.9847154081935445
2012-03-28,0,0.0,0.0,-0.010782068335999588,0.013046543742043299,0.985527371208707
2012-03-30,0,0.0,0.0,-0.010782068335999588,0.009512523098911197,0.9863489054486495
2012-04-03,0,0.0,0.0,-0.012415815852822108,0.013046543742043299,0.9853200495342375
2012-04-05,0,0.0,0.0,-0.013036043219174072,0.013046543742043299,0.9850642516855703
2012-04-10,0,0.0,0.0,-0.010675695100211938,0.013046543742043299,0.986403382213543
2012-04-12,0,0.0,0.0,-0.010675695100211938,0.00713877986587909,0.9883601943265982
2012-04-16,0,0.0,0.0,-0.012415815852822108,0.00713877986587909,0.9872333473609238
2012-04-18,0,0.0,0.0,-0.012716923511811118,0.006328758948210258,0.9870245952242763
2012-04-20,0,0.0,0.0,-0.01725076154610868,0.0028957550749723875,0.9846596725535808
2012-04-24,0,0.0,0.0,-0.01447381720230716,0.004677856247563756,0.9838271219371875
2012-04-26,1,0.0004549202999986336,0.0006189311276726617,-0.01447381720230716,0.0048949195896024165,0.9840012291038477
2012-04-30,1,0.0008447016444528674,0.0009212316733092402,-0.01447381720230716,0.0048949195896024165,0.9833807652800493
2012-05-02,1,0.0009632799736151115,0.0010366053335159387,-0.01725076154610868,0.0048949195896024165,0.9837013637321202
2012-05-04,-1,-0.00038113280896552007,-0.0001073350646847239,-0.018014089705542885,0.0048949195896024165,0.9826866923375173
2012-05-08,-1,-0.001740554528602035,-0.0012546142546783832,-0.018014089705542885,0.00797144712583859,0.9797791591075811
2012-05-10,-1,-0.0020413285299594117,-0.0014829817745940646,-0.018014089705542885,0.008937464919840443,0.9795368752512779
2012-05-14,0,0.0,0.0,-0.01694705934341926,0.015056632818769964,0.9787462521834112
2012-05-16,0,0.0,0.0,-0.020623757073384617,0.020012079345342562,0.9776510646851739
2012-05-18,0,0.0,0.0,-0.008837777891449825,0.02221354130610164,0.9799147234691151
2012-05-22,0,0.0,0.0,-0.008837777891449825,0.01943787729865446,0.9824529025885264
2012-05-24,0,0.0,0.0,-0.012691514881077656,0.01943787729865446,0.9815230558910825
2012-05-29,0,0.0,0.0,-0.020623757073384617,0.012378189138591159,0.9811304386232351
2012-05-31,0,0.0,0.0,-0.012691514881077656,0.012378189138591159,0.9822460157476612
2012-06-04,0,0.0,0.0,-0.005430941290169702,0.01943787729865446,0.9830955763098557
2012-06-06,-1,-0.0013720832679711837,-0.001161735515834742,-0.005430941290169702,0.011944796918762896,0.9856008198019671
2012-06-08,-1,-0.0017099656770148616,-0.0014532187459398802,-0.009465924337485741,0.011944796918762896,0.9856714453351711
2012-06-12,-1,-0.0011427173341711297,-0.0009803373820968446,-0.009465924337485741,0.010191272682236924,0.9865588688650904
2012-06-14,-1,-0.0009214538409748735,-0.0008266718453846516,-0.009465924337485741,0.010191272682236924,0.9865601751511984
2012-06-18,1,0.0005374605890819445,0.0006675381383461799,-0.009465924337485741,0.008970939200916845,0.9874163758341011
2012-06-20,1,0.0005371424818460521,0.0006552088005477298,-0.010586421207076363,0.00802131129119019,0.9870839436899168
2012-06-22,-1,-0.00033740686579534547,-0.0003283234562647941,-0.010981157771797038,0.00802131129119019,0.986482322913747
2012-06-26,-1,-0.0010884302573318314,-0.0009797462105964252,-0.010981157771797038,0.006217341565229503,0.9865349373840386
2012-06-28,1,0.0003681571921237349,0.0005573898639873987,-0.010981157771797038,0.011050977462484561,0.984395184571587
2012-07-02,1,0.001532770970594553,0.001854157496337447,-0.010981157771797038,0.008314004937133503,0.9857026461483102
2012-07-05,1,0.0015403925438278487,0.0018157095599844128,-0.010981157771797038,0.005028580227270587,0.9858969221928413
2012-07-09,1,0.0006214456757033726,0.0007405801406028833,-0.010981157771797038,0.009880109833294255,0.9849652937913261
2012-07-11,1,7.171634687140846e-05,0.00012443602033520662,-0.00974541494388079,0.009880109833294255,0.9860466117146585
2012-07-13,-1,-0.0008397276759756381,-0.0007380682825734938,-0.0092422712780958,0.008314004937133503,0.9878961422199024
2012-07-17,1,9.386673996923615e-05,0.0001359247581202922,-0.0092422712780958,0.004607534874021319,0.9883719672094172
2012-07-19,-1,-0.0006943217739541507,-0.0006256089482136365,-0.008437865572369578,0.010938532770132918,0.9879328296861262
2012-07-23,-1,-0.0023103755920830817,-0.0020253533184506293,-0.00483239033628131,0.010938532770132918,0.9893663924059607
2012-07-25,-1,-0.003848962998607185,-0.0033597805943129063,-0.004037945157879612,0.010938532770132918,0.9905845076019646
2012-07-27,-1,-0.0026238856709746273,-0.0022330200753064,-0.0048095898963012975,0.0054374304961458415,0.9926988927285023
2012-07-31,-1,-0.002467915133661942,-0.002128069632380843,-0.0048095898963012975,0.005911987801184498,0.9926657216285898
2012-08-02,-1,-0.002722672835785059,-0.0023590023382186595,-0.0048095898963012975,0.005911987801184498,0.9926997785580947
2012-08-06,-1,-0.0005837607244464635,-0.0005179055304443313,-0.0048095898963012975,0.004781679377122189,0.9941967436900574
2012-08-08,-1,-0.0005240745452252259,-0.0004814484448579053,-0.005825518122749562,0.005911987801184498,0.991803436197466
2012-08-10,1,0.0002747306455548445,0.0003809119441287029,-0.005825518122749562,0.010464095112646832,0.9901867427516898
2012-08-14,-1,-0.00022389425695191302,-0.0002148829347603771,-0.0048095898963012975,0.010464095112646832,0.9901971092644948
2012-08-16,1,0.0013940686239349647,0.0016840180167518775,-0.0048095898963012975,0.010464095112646832,0.9898224121654962
2012-08-20,1,0.0005858574226308914,0.0007109423285493229,-0.00436898775336903,0.010464095112646832,0.9898582905950905
2012-08-22,1,0.0006730099069941597,0.0008492748149520641,-0.006718101695759782,0.010464095112646832,0.9886926285557084
2012-08-24,1,0.0009644159183224502,0.0012039088426188038,-0.0040892659231759,0.010464095112646832,0.9892298573294801
2012-08-28,1,0.00033267020147591497,0.0004314414452054392,-0.0062850456310935485,0.010464095112646832,0.9881332549775724
2012-08-30,-1,-0.0006774821440921533,-0.0005871317715666056,-0.004805821334318046,0.010464095112646832,0.9882229407275366
2012-09-04,1,0.0006817789701564461,0.0008685271353885728,-0.0071356462320750075,0.00634800785356768,0.9875239763973244
2012-09-06,1,0.0019696812735951995,0.0023123532885009324,-0.00686758701586581,0.005016967561116066,0.9897543150782915
2012-09-10,1,0.0027922484657946127,0.003228142966606125,-0.006991828081858615,0.003926209300051963,0.990638175097288
2012-09-12,1,0.0033601200512753393,0.003931720021467306,-0.006991828081858615,0.00396097077662777,0.989845333103731
2012-09-14,1,0.004714400196052869,0.005474283217974971,-0.009186124670481698,0.0033054738362653,0.9894512397891593
2012-09-18,1,0.004250677428663978,0.004922300187261925,-0.009186124670481698,0.00396097077662777,0.9901147343858646
2012-09-20,1,0.0032397210172082315,0.0037768282675301264,-0.0062371062476880845,0.00396097077662777,0.9922034421559393
2012-09-24,1,0.0034044128005701994,0.00398278232982357,-0.006843716351184736,0.003647658954360244,0.9914077455447389
2012-09-26,1,0.0017255609492533893,0.002017865578732285,-0.007997651004536059,0.003647658954360244,0.9924647788292992
2012-09-28,1,0.001658426788921918,0.0019285659516459662,-0.008438935194370159,0.00032254119452527824,0.991837331926466
2012-10-02,1,0.0008893245694129965,0.0010551075205410257,-0.00804483035111721,0.0036754886950535665,0.9920901922697105
2012-10-04,1,0.0007105831685515999,0.0008030584028164652,-0.008741789478460063,0.00037903651271911317,0.991632325911164
2012-10-08,0,-3.517962277312445e-05,1.0930644276446272e-05,-0.010246598408843106,0.0038449746496350707,0.9904786856223594
2012-10-10,-1,-0.0015708328969314725,-0.0012251334235279581,-0.010246598408843106,0.0024401323382588005,0.9911677879628572
2012-10-12,-1,-0.0002022538017383715,-0.00012371262737178703,-0.009992673686697184,0.0024401323382588005,0.9912588145401582
2012-10-16,-1,-0.00019275161860594236,-0.00011779999656322517,-0.011442061795031846,0.001054490083103076,0.9899831385855575
2012-10-18,1,0.0003944904718431785,0.0004403851136069939,-0.011442061795031846,0.0024401323382588005,0.9881495809398996
2012-10-22,-1,-0.00029791594158064337,-0.000233720540251011,-0.011442061795031846,0.0048178448785988716,0.9878551597138302
2012-10-24,-1,-0.0027197875581868314,-0.0022594758990227126,-0.009992673686697184,0.009023448269277189,0.9882693212722724
2012-10-26,-1,-0.0014501874658144015,-0.0012834191955424707,-0.009403322151688388,0.009023448269277189,0.9884219872931754
2012-11-01,-1,-0.0021222974744767196,-0.001855216862092108,-0.008452214831524793,0.010997248609195452,0.9888864495069458
2012-11-05,-1,-0.002269576083628052,-0.002002335550570944,-0.008452214831524793,0.010997248609195452,0.9888454981704062
2012-11-07,-1,-0.0027127768004660403,-0.002378889448633757,-0.006910221631255689,0.010997248609195452,0.9893275209167715
2012-11-09,-1,-0.0021420646335571676,-0.0019302596120218695,-0.006280602028814859,0.010997248609195452,0.9892214274156791
2012-11-13,-1,-0.0014786588275475967,-0.001345336412091495,-0.006280602028814859,0.010595037165613668,0.9893792860198665
2012-11-15,-1,-0.003306242720322104,-0.002919948607741735,-0.0046490630476133995,0.010595037165613668,0.9900576239451967
2012-11-19,-1,-0.002887595258218384,-0.002525100862099212,-0.003113724407103129,0.010595037165613668,0.9903174677887845
2012-11-21,-1,-0.002100775237851178,-0.0018481018662595931,-0.0046490630476133995,0.010595037165613668,0.990431957982684
2012-11-26,-1,-0.0009517651863682928,-0.0008948886435366165,-0.003986344371104998,0.007654007131711656,0.9916814549122855
2012-11-28,-1,-0.0009996152421155881,-0.0009606224090259522,-0.003956237586971034,0.007654007131711656,0.9914801160299428
2012-11-30,-1,-0.0008570541678754833,-0.0007999409375135007,-0.004505851474793068,0.007654007131711656,0.991079724434491
2012-12-04,-1,-0.0013073354871663766,-0.0011646667744807252,-0.003956237586971034,0.01447232428874458,0.9896798901202711
2012-12-06,-1,-0.00040701533630282125,-0.0003524462149098269,-0.003956237586971034,0.01447232428874458,0.9897503620889706
2012-12-10,1,9.828569672122872e-05,0.00014040275972475072,-0.003956237586971034,0.01447232428874458,0.990146531064422
2012-12-12,-1,-0.00011162652820902974,-8.889393318001483e-05,-0.004505851474793068,0.01447232428874458,0.9894518847642663
2012-12-14,-1,-0.00074905066110971,-0.0005862327514759458,-0.003956237586971034,0.01447232428874458,0.9895157380699623
2012-12-18,-1,-0.0005455137369967666,-0.0003403905911370155,-0.00581143768115427,0.011780655675499864,0.9902843652408344
2012-12-20,1,0.0008266592315995668,0.0008730210847926936,-0.004708974321616273,0.010093366068275699,0.9906280206530197
2012-12-24,1,0.0002475114729713404,0.0002923668868016524,-0.004708974321616273,0.010093366068275699,0.9906019046483974
2012-12-27,-1,-0.0004244931677947919,-0.00028044658129939556,-0.0023838472325825397,0.011780655675499864,0.990249321073366
2012-12-31,1,0.0007529393766871892,0.000829929979057445,-0.0030954358073867244,0.010093366068275699,0.9906601376943934
2013-01-03,1,0.0017062942226037693,0.0018973003583271119,-0.005265215916138929,0.007049455466740938,0.9924122231354595
2013-01-07,1,0.002795662102313504,0.0031482977717199037,-0.00554548454631689,0.006142889324872509,0.9921542023067825
2013-01-09,1,0.00224065864472444,0.0024984541949933025,-0.00554548454631689,0.006142889324872509,0.9924308832286102
2013-01-11,1,0.002669129666226462,0.0030493708878778026,-0.005265215916138929,0.006142889324872509,0.9928456639800474
2013-01-15,1,0.002759564777865762,0.003127876331672549,-0.005265215916138929,0.006172340924049825,0.9924321012589359
2013-01-17,1,0.001947906079764881,0.0021852349212656114,-0.0017628461373699366,0.006172340924049825,0.9931865103340413
2013-01-22,1,0.0024056155275969182,0.002701611197581392,-0.002663811397617018,0.005617113550500758,0.9926253628194597
2013-01-24,1,0.0023747669822701666,0.002654104165897857,-0.005402037247968039,0.006937755440327289,0.9896656626136405
2013-01-28,1,0.002781105287387769,0.003086487524559415,-0.008083859410778698,0.005692555657805308,0.9888857137488362
2013-01-30,1,0.001863059879032695,0.002062497284392284,-0.0028484484955624114,0.006462553150931702,0.9902457153111627
2013-02-01,1,0.0024642492234225556,0.0028310913672450104,-0.0022592733827235642,0.006462553150931702,0.9903101882749574
2013-02-05,1,0.0026671697889542956,0.003121208257680177,-0.0022592733827235642,0.005692555657805308,0.9908965792131982
2013-02-07,1,0.0027893965187941556,0.0032624229268305195,-0.0022471481876538205,0.006462553150931702,0.9901675530592091
2013-02-11,1,0.0040957971445878625,0.004823133782233451,-0.0035055461728989057,0.006462553150931702,0.9894648293239096
2013-02-13,1,0.004419332779159425,0.00517798049775704,-0.0035055461728989057,0.006462553150931702,0.9898877925778966
2013-02-15,1,0.003915027435258483,0.004543448024614043,-0.004355074332578899,0.007859749864032985,0.988638536606973
2013-02-20,1,0.003545550910275313,0.004124018068921255,-0.004355074332578899,0.007859749864032985,0.988415489851407
2013-02-22,1,0.0029309789728136386,0.0033562045212832967,-0.004355074332578899,0.007859749864032985,0.9900924333320621
2013-02-26,1,0.002270108481829295,0.002611346226274157,-0.0035055461728989057,0.00994981867283708,0.9910983571405655
2013-02-28,1,0.0018702096991513849,0.002105687436712505,-0.0035055461728989057,0.011552369569667197,0.9907370634217584
2013-03-04,1,0.0019252447171290554,0.002181992212534432,-0.004657340483450063,0.011552369569667197,0.9902200467596041
2013-03-06,1,0.0014419315792228203,0.0016152997134732034,-0.0040161905494935654,0.01167204709027682,0.9893120535432699
2013-03-08,1,0.0025139415569281403,0.002832618214041671,-0.0050332232134202345,0.01167204709027682,0.9895042955362059
2013-03-12,1,0.002892210331949107,0.0032617746462345765,-0.005385340706658746,0.011660122221731512,0.9898778078028897
2013-03-14,1,0.0034351716117426148,0.003873458480342879,-0.006163317400616374,0.011660122221731512,0.9896912963286651
2013-03-18,1,0.0029157173641574047,0.003279568506625558,-0.006163317400616374,0.011660122221731512,0.9881434191055188
2013-03-20,1,0.0019147473871609358,0.00211610811601468,-0.00799121853909533,0.011660122221731512,0.9876488678285708
2013-03-22,1,0.0014071876772320136,0.00148387077611953,-0.006163317400616374,0.011660122221731512,0.9878403802363543
2013-03-26,1,0.0012612534093791746,0.001277035264551107,-0.00799121853909533,0.012105764483834639,0.9868988044027174
2013-03-28,1,0.0014213076581047767,0.0014325261778272381,-0.008163141828653981,0.012105764483834639,0.9872006453585038
2013-04-02,1,0.0005296250249772997,0.0006482439503663006,-0.00799121853909533,0.014265972734838282,0.9866461588525658
2013-04-04,1,0.0009971723209556812,0.001076656705509456,-0.00799121853909533,0.012105764483834639,0.9874425041750845
2013-04-08,1,0.0007646302305195439,0.0008896049999347622,-0.006195503055460115,0.010390025827027905,0.9880501928780941
2013-04-10,1,0.0010487985480459293,0.001135545232383595,-0.006868427472708126,0.009631387701773936,0.9882008453043668
2013-04-12,1,7.40581788305682e-05,0.000346925034898839,-0.006868427472708126,0.010402654282641019,0.9880974590817366
2013-04-16,1,3.848319906068641e-05,0.00029918157312558695,-0.0056805505214760155,0.0077558472000966135,0.9910650803923966
2013-04-18,-1,-0.0008930458119741044,-0.0005542708221715329,-0.0036559357386417193,0.01011102658923259,0.9916905065241992
2013-04-22,1,0.00013757044489300357,0.0003515087699379202,-0.004989919877404663,0.0077558472000966135,0.9925176124632568
2013-04-24,0,-1.0347051820130504e-05,0.0002526529628584023,-0.004989919877404663,0.00683863921970138,0.993161595617127
2013-04-26,0,-3.791484653240158e-05,0.0002069940927766626,-0.004989919877404663,0.0077558472000966135,0.9923171850716603
2013-04-30,1,0.0006946098909714741,0.0008552583625122528,-0.0056805505214760155,0.007631566444446609,0.9923654802566005
2013-05-02,1,0.0012041860927867929,0.0012640794769901947,-0.007350635025641301,0.005440941730628609,0.9922018612854694
2013-05-06,1,0.001225289712774985,0.0012763644295541192,-0.010575847155820028,0.004569935732898949,0.9911376500122044
2013-05-08,1,0.001158311356211305,0.0012180386805987161,-0.012701796998864177,0.005151656352964987,0.9898826190628354
2013-05-10,1,0.00126010733561433,0.0013131415353714224,-0.012701796998864177,0.0030946863584522416,0.9901312302316488
2013-05-14,1,0.001441501711773088,0.0014580557449510702,-0.01711128479246363,0.0030946863584522416,0.9878513152917474
2013-05-16,1,0.0017959635566482577,0.001874502469992201,-0.01711128479246363,0.005151656352964987,0.9860324167704644
2013-05-20,1,0.0012381633466909995,0.0012553796070318235,-0.01711128479246363,0.004528190674226617,0.986670859202986
2013-05-22,0,-6.124217414661898e-05,0.00013878705432031476,-0.019078042028599806,0.004528190674226617,0.9844232992427857
2013-05-24,-1,-0.0002770420488966696,-6.124532971481982e-05,-0.019078042028599806,0.004528190674226617,0.9849843078884598
2013-05-29,1,0.00013013625619358982,0.00022669598166768346,-0.019078042028599806,0.004680885046882415,0.9847724707576652
2013-05-31,1,0.00022905723121097779,0.000267495060448301,-0.019078042028599806,0.010428332786693664,0.9841458766771344
2013-06-04,-1,-0.0009669396320605159,-0.0007768805081220446,-0.010935250937924416,0.011915933658874592,0.9847252997311088
2013-06-06,-1,-0.0008468647468613275,-0.0006660086051864563,-0.008282263339473564,0.011915933658874592,0.9846724086498287
2013-06-10,-1,-0.0010202778338999387,-0.0008294604214641485,-0.007605651799062995,0.011915933658874592,0.9845002805501458
2013-06-12,-1,-0.003212584271832138,-0.002740156470255209,-0.0011804449269972785,0.01422694185408394,0.9847927487083228
2013-06-14,-1,-0.0010803691712426848,-0.0008835108320245197,-0.004031821053075306,0.011208648205133806,0.9876062029226804
2013-06-18,-1,-0.0008212461247963013,-0.0006472222640866917,-0.003929385082558332,0.011208648205133806,0.9877605997435112
2013-06-20,-1,-0.002898136630448112,-0.002521127495522891,-0.00015151861942175663,0.013886715232572408,0.988526568007291
2013-06-24,-1,-0.0033405556161733713,-0.002863818630329359,-0.00015151861942175663,0.013886715232572408,0.9879293628803113
2013-06-26,-1,-0.0024827970868902764,-0.0020992856722857603,-0.0006917437452263507,0.012911550784094571,0.9884635184460536
2013-06-28,-1,-0.0018740155562551924,-0.001544737342981921,-0.008196820273308437,0.01127716331497759,0.9893024893583455
2013-07-02,-1,-0.0013621398329219667,-0.0010903877911688916,-0.008409278120895453,0.010830604859264443,0.9896989527751183
2013-07-05,0,-5.752380441608111e-05,1.7265556958664848e-05,-0.008409278120895453,0.011777420746486482,0.990108952343271
2013-07-09,1,0.000734881372882497,0.0007758683883711363,-0.009118255568991492,0.011777420746486482,0.9887286571850613
2013-07-11,1,0.0014009893199661493,0.0015294830731322718,-0.009118255568991492,0.007980888083733553,0.989385760158324
2013-07-15,1,0.000993201987679746,0.001047856998518,-0.009118255568991492,0.007980888083733553,0.9897332499676259
2013-07-17,1,0.0005742390175044377,0.0005794185041921889,-0.010482564354807246,0.007980888083733553,0.9890238876124807
2013-07-19,1,0.0011247229089045067,0.0011513854627229036,-0.017086764765637044,0.003354514279332073,0.9876534306099926
2013-07-23,1,0.0007237351841151691,0.0007433097024243581,-0.013540167467967674,0.003354514279332073,0.9871416294669584
2013-07-25,1,0.00043089105374933574,0.0004929255220721999,-0.010482564354807246,0.003354514279332073,0.9877464664026722
2013-07-29,-1,-0.0005192820741994213,-0.0003253827166933347,-0.009764841490388658,0.00501043584658018,0.9881806441130719
2013-07-31,-1,-0.00019407731528678227,-7.672742874959167e-05,-0.012925286687473109,0.005099949670467172,0.9878072486419492
2013-08-02,1,0.0013051753172921082,0.00140531200926803,-0.012925286687473109,0.0034253934412007284,0.9881177885592444
2013-08-06,1,0.00011466744506259894,0.00013347696608476047,-0.00803920468622897,0.004241560129795293,0.989713849919991
2013-08-08,-1,-0.00013348120425667805,-6.589006749019245e-05,-0.012241271680879962,0.007279908264589888,0.9888713623539604
2013-08-12,-1,-0.0006220499708245831,-0.00045730864837345835,-0.012241271680879962,0.011563714147460949,0.9869520752177604
2013-08-14,-1,-0.0014665996297140824,-0.001201364975809438,-0.01127337879071298,0.011563714147460949,0.9866623446355426
2013-08-16,-1,-0.0032551932962105283,-0.0027937556875367205,-0.005970070602206906,0.011563714147460949,0.98803747874012
2013-08-20,-1,-0.0017643417070024908,-0.0015178323609828781,-0.0023211589447771786,0.011563714147460949,0.9886336208753381
2013-08-22,-1,-0.0013206234970478334,-0.0010970459031741328,-0.007048128637034909,0.011097205156539088,0.9887571576340463
2013-08-26,-1,-0.0007418419707826485,-0.0006223674702644838,-0.00896848900770195,0.011097205156539088,0.9888868185094001
2013-08-28,-1,-0.001077418836002496,-0.0009301348394824082,-0.008249775633748405,0.011097205156539088,0.9894224894423364
2013-08-30,-1,-0.0011331192467288645,-0.0009959062032075018,-0.008330144660742046,0.011097205156539088,0.989543680194527
2013-09-04,-1,-0.0002484291397981542,-0.00022255457928414628,-0.008330144660742046,0.011266331379623518,0.9892991134360221
2013-09-06,-1,-0.0006354780751744898,-0.0005504159808201357,-0.008330144660742046,0.011252394441481154,0.9889071153197264
2013-09-10,1,0.0004154455459918553,0.00043753417059485904,-0.009758822440240556,0.00800754631539423,0.9896701066996934
2013-09-12,1,0.0009787509155101551,0.0010891705211739564,-0.009758822440240556,0.00800754631539423,0.9885961970414944
2013-09-16,1,0.0011879890506428952,0.0013668628041551588,-0.009758822440240556,0.010383239274277471,0.9879740082851536
2013-09-18,1,0.0021548255456204876,0.0024479644031444475,-0.011191989702024696,0.008457099635451645,0.9872271795213072
2013-09-20,1,0.0017480217013990554,0.002053561114328425,-0.009758822440240556,0.012053020934655292,0.9876747297512166
2013-09-24,1,0.0012801050189252825,0.0015447670293333108,-0.009758822440240556,0.012053020934655292,0.9882544978405411
2013-09-26,1,0.0014715978875548485,0.0017665663483957023,-0.010353433956302012,0.013847246322307933,0.9872182168082894
2013-09-30,1,0.0008844285938905831,0.0011061746177866033,-0.010353433956302012,0.013847246322307933,0.9874034360460465
2013-10-02,1,0.0019152248667468712,0.002286818989558905,-0.010353433956302012,0.00960908162269313,0.9881382610373184
2013-10-04,1,0.001220366313297715,0.0014915742459211383,-0.008950398528055337,0.014597095862242193,0.9891310218630257
2013-10-08,1,0.0004909833133654401,0.0007161895389541003,-0.006558212713771813,0.014597095862242193,0.9892495325003732
2013-10-10,1,0.0011217315943586113,0.0013515233040271172,-0.006558212713771813,0.013472148711844524,0.9902655243718387
2013-10-14,1,0.0014452935865405454,0.001685039137303204,-0.006558212713771813,0.008198141407814075,0.9905522258154618
2013-10-16,1,0.0016139377129864667,0.0018662079269973206,-0.0050973473500668595,0.008198141407814075,0.9915965503269776
2013-10-18,1,0.0024115938852927715,0.0027471798054315546,-0.0050973473500668595,0.007528334819011155,0.9921796432073999
2013-10-22,1,0.0021204225824239522,0.0023926822401586475,-0.00844238437000537,0.007528334819011155,0.9911754917448603
2013-10-24,1,0.0017686215822829763,0.0019331098978468098,-0.007758410216266667,0.007528334819011155,0.991296042994078
2013-10-28,1,0.0016377409914326644,0.0017898853963913043,-0.007656387109314651,0.007528334819011155,0.9912090712047545
2013-10-30,1,0.0012507558672252839,0.0013389999659180894,-0.007656387109314651,0.007948424103253651,0.9911410494288289
2013-11-01,1,0.0007376232153238801,0.0008143785683691898,-0.00816556084872265,0.006633581828833574,0.9907652851799101
2013-11-05,1,0.0015659570467045606,0.0016958572198169837,-0.00816556084872265,0.006633581828833574,0.9908149782871919
2013-11-07,1,0.0008359328242272284,0.0008644007693329591,-0.008026860763408774,0.007513708719016991,0.9913850782680035
2013-11-11,-1,-0.00043988995161271056,-0.00017897425339064325,-0.008026860763408774,0.007513708719016991,0.9918830498656618
2013-11-13,-1,-0.00036820960372758505,-0.00012071961821567812,-0.009061234488146499,0.005771984842525975,0.9909493121990156
2013-11-15,1,0.0005214323839810532,0.000612750670202963,-0.009061234488146499,0.007503864985530241,0.990457276070638
2013-11-19,1,2.089219910691569e-05,0.00013439696490765503,-0.008026860763408774,0.009138828984440999,0.9900402295543165
2013-11-21,1,0.0005775358358529772,0.0006056828531695694,-0.008026860763408774,0.009138828984440999,0.9906703827877188
2013-11-25,1,0.0004939721541124848,0.0004984729483299157,-0.004049658923771416,0.01005508174789747,0.9905123323808325
2013-11-27,1,0.0007953443550847109,0.0008624778918838487,-0.004723855819422341,0.01005508174789747,0.9908338590953286
2013-12-02,1,0.0005118866277008037,0.000577777310985588,-0.0007918505855232231,0.01005508174789747,0.9914602433350613
2013-12-04,1,0.00032995741068603463,0.00036013167742532354,-0.0020639462094788614,0.01005508174789747,0.9915420738107793
2013-12-06,1,0.0008757185354795827,0.0009741494257403216,-0.0037488641168288922,0.00910929778398075,0.9921303161217379
2013-12-10,1,0.0014930213709034223,0.0017318982211580215,-0.0037488641168288922,0.009898833924134461,0.9918900366077448
2013-12-12,1,9.907111801538864e-05,0.00013174969753498638,-0.0037488641168288922,0.009898833924134461,0.9930284160412242
2013-12-16,1,0.0008173485420469014,0.0009342138411340506,-0.0037488641168288922,0.009898833924134461,0.9932051590984093
2013-12-18,1,0.0015613060775091126,0.0017387134843214712,-0.0037488641168288922,0.0063432175719795,0.9945257203941548
2013-12-20,1,0.0017710127013912036,0.0019622884228257128,-0.0037488641168288922,0.005818599974834349,0.9947941365410483
2013-12-24,1,0.0030118397090627847,0.0034188656249089623,-0.005464728478704596,0.0034938893346735493,0.9929829196582063
2013-12-27,1,0.00187299447459681,0.002065015506647415,-0.006350620055523074,0.004410591211947494,0.992524293760814
2013-12-31,1,0.0019199648591070513,0.0021087953130224752,-0.007377165504870286,0.004410591211947494,0.9917737469486435
2014-01-03,1,0.001270447055176484,0.001371428943508223,-0.007218087549773669,0.004410591211947494,0.9915814103923943
2014-01-07,1,0.0007144817770603322,0.0007219509979571785,-0.010268923331027968,0.004887029711883135,0.9907021991846452
2014-01-09,1,2.4913532036956263e-05,0.00020474928203591247,-0.010268923331027968,0.005104425336937263,0.9903913829053468
2014-01-13,0,-4.0183907441526765e-05,0.00011060418017115614,-0.010268923331027968,0.005913252122023678,0.9897289311786897
2014-01-15,1,0.000848631831680097,0.0008647473503114468,-0.010268923331027968,0.005283358987724753,0.9903651004637244
2014-01-17,1,0.0007363940062308535,0.0007614064115149886,-0.010268923331027968,0.006450053074386146,0.9898451301927707
2014-01-22,1,0.0006293601994957999,0.0006874457699672686,-0.010268923331027968,0.007767050226791881,0.9887101208459804
2014-01-24,-1,-0.0010457166680034116,-0.0007797216383316922,-0.004561566468065446,0.007767050226791881,0.9898601589603075
2014-01-28,-1,-0.0012887019306501908,-0.001024091946473992,-0.000950050142973486,0.007767050226791881,0.990665560920542
2014-01-30,-1,-0.001770668286261755,-0.0014397137282294865,-0.000950050142973486,0.007767050226791881,0.9911398690176757
2014-02-03,-1,-0.001544943493797322,-0.00131624288621081,-0.00025420002142974876,0.011125567671540496,0.9912349655632228
2014-02-05,-1,-0.0014779381426069183,-0.001273685839953866,-0.00025420002142974876,0.008230920181090513,0.9918124872982295
2014-02-07,-1,-0.0007096573827062938,-0.000600537444556229,-0.0017126502072627324,0.007047473612879141,0.9929590916549031
2014-02-11,1,0.000347819810464306,0.0004239206315018888,-0.00025420002142974876,0.006525807585662504,0.9939752877799942
2014-02-13,1,0.0002076069822200447,0.00020860077075930325,-0.0018731646197080757,0.007047473612879141,0.9934364431418566
2014-02-18,-1,-0.00014508772185770684,-7.59017873689786e-05,-0.00025420002142974876,0.006373300270201866,0.9938314643206757
2014-02-20,1,0.0007771966281314171,0.0008295639827152661,-0.0018731646197080757,0.00496002621743017,0.994462467199191
2014-02-24,1,0.0006666564389795151,0.0006706684530666965,-0.004475569520842292,0.005967238481277693,0.9933438315202389
2014-02-26,1,0.0010157700119230407,0.001106940743165327,-0.004677272593531859,0.005967238481277693,0.9924808609216028
2014-02-28,1,0.0006673336413000907,0.0006766188965132887,-0.004577338696030939,0.006373300270201866,0.9923659396198382
2014-03-04,1,0.0006767574576064159,0.0007119646028156781,-0.004577338696030939,0.008294442757664207,0.9920308976486105
2014-03-06,1,0.0010739224705934964,0.001089903252608543,-0.0018590846471086147,0.007156399460688299,0.9924347913819785
2014-03-10,1,0.0010859836176654624,0.0011323548796417311,-0.0018590846471086147,0.007156399460688299,0.9921845914515595
2014-03-12,1,0.0015874836999694773,0.0017021453445358735,-0.004779557274623263,0.007046860857420223,0.9922763547321913
2014-03-14,1,0.0020382004212128645,0.002274546099643622,-0.006037678321257468,0.005221316246984833,0.991571295331483
2014-03-18,1,0.0020171899388102296,0.002245120023508155,-0.006037678321257468,0.009394113836337915,0.9907307213409918
2014-03-20,1,0.0013569241678834981,0.00150667676219231,-0.004799408617629007,0.011195858073895414,0.9904999761173698
2014-03-24,1,0.0011518362230251622,0.0012671647875328212,-0.0029003893294047307,0.009394113836337915,0.9917340523978374
2014-03-26,1,0.0006445394109738773,0.0006800899366147738,-0.0029003893294047307,0.009394113836337915,0.9921041938600719
2014-03-28,1,0.0011693897449906543,0.0013018387137469006,-0.004536383630847615,0.00663031869315836,0.9921115823931186
2014-04-01,1,0.0018861248943082324,0.0021711462787593772,-0.004536383630847615,0.0057477195167154405,0.9923397802202439
2014-04-03,1,0.0015713151988958813,0.0017541224545028202,-0.004536383630847615,0.0057477195167154405,0.9923178455769345
2014-04-07,1,0.001560993890163643,0.0017458363594552635,-0.004536383630847615,0.00433555547728494,0.9922490398269056
2014-04-09,1,0.001564841791612923,0.001770098670503494,-0.0035808030885189695,0.005933571367058213,0.9922978552809174
2014-04-11,1,0.0007751944452568147,0.000905641386911287,-0.00259715759946715,0.007187874244186678,0.9927748185767042
2014-04-15,1,0.000965717413840116,0.0010705347763820452,-0.0032630569590377887,0.005638152652273171,0.9929323253216759
2014-04-17,1,0.001736622104463714,0.001955319002476466,-0.0032630569590377887,0.005638152652273171,0.993776530693295
2014-04-22,1,0.0016303945833027321,0.0018027848274463079,-0.0036484600403502744,0.005638152652273171,0.9933992821448011
2014-04-24,1,0.0016514531364060733,0.001832910046168752,-0.004084735229082031,0.003915141227994895,0.9934618264973911
2014-04-28,1,0.0009516465049985484,0.000990929693337943,-0.0032630569590377887,0.005857398341550506,0.9934766981111147
2014-04-30,1,0.0015521775019931912,0.0016629457268845093,-0.003953753972064618,0.005554444914942276,0.9943299056247545
2014-05-02,1,0.0017882128604254724,0.001950997911396416,-0.003953753972064618,0.005857398341550506,0.9940024394157811
2014-05-06,1,0.0013882689341313537,0.00150212730054719,-0.0018623695778646377,0.005857398341550506,0.9945202521729922
2014-05-08,1,0.0009548451659990749,0.0009990928368089757,-0.0018623695778646377,0.006591969081383496,0.9936626061167821
2014-05-12,1,0.0015044829856496285,0.0015649625629908471,-0.006091511470216318,0.004491491675128627,0.9935107953166555
2014-05-14,1,0.0015761740882453852,0.0017125234345581005,-0.006091511470216318,0.004491491675128627,0.9937513089277004
2014-05-16,1,0.00200510074962945,0.002215343284080676,-0.006702420136837733,0.0034093206754568844,0.9938074424867687
2014-05-20,1,0.002033074170702127,0.0022800727596785043,-0.006091511470216318,0.0047758299056960595,0.9938910190332628
2014-05-22,1,0.001772337208821058,0.0019730004593548657,-0.0014901325532997263,0.005952264874961345,0.9939144181721171
2014-05-27,1,0.002226447129805637,0.002492701305232402,-0.0062601050948122945,0.0047758299056960595,0.9938388199389744
2014-05-29,1,0.0017988167340896107,0.00197157816101594,-0.0058456167300442365,0.003504100085646029,0.9936906490751951
2014-06-02,1,0.0021248924929858836,0.0023236057001954614,-0.007620347696849324,0.003504100085646029,0.9931739876788672
2014-06-04,1,0.0023226008928335356,0.0025704654041678546,-0.007620347696849324,0.004527930067582026,0.9927997121605319
2014-06-06,1,0.002763046316225466,0.003042679416624783,-0.007620347696849324,0.004527930067582026,0.9934580178507836
2014-06-10,1,0.0022862647337375183,0.002535195282391721,-0.005090096584457284,0.004769940654850152,0.9942792320609759
2014-06-12,1,0.0018510357229753604,0.0020307323328212197,-0.004298964596862844,0.005888167366539599,0.994290716253372
2014-06-16,1,0.0016167062817189536,0.0017745144474827117,-0.0036725054545214777,0.0074550181474372645,0.9944855274852022
2014-06-18,1,0.0010753247396670122,0.0010799315565778625,-0.004298964596862844,0.007052646412788614,0.993916572608916
2014-06-20,1,0.0007544364759223948,0.0008288278044204768,-0.00482517589495389,0.00782203762438904,0.993339628441203
2014-06-24,0,-0.00016547424809870183,3.1671335442641914e-05,-0.004245966864330328,0.00782203762438904,0.9935393200204756
2014-06-26,-1,-0.0013236692848391245,-0.0009501669427084234,-0.0036725054545214777,0.00782203762438904,0.9934907699037685
2014-06-30,-1,-0.0014020486713778577,-0.0010119694598240512,-0.0036725054545214777,0.006654630407373325,0.9939826426869162
2014-07-02,-1,-0.001115665339602652,-0.0007983441036682079,-0.004878406450317425,0.006654630407373325,0.9923776735299733
2014-07-07,-1,-0.0005346098764542666,-0.00029294327404131117,-0.005094142130812734,0.00782203762438904,0.9917955410683045
2014-07-09,0,-0.0001018731430901665,7.680829645788866e-05,-0.005656058566955935,0.006654630407373325,0.9913282891833165
2014-07-11,0,-3.6931122627141e-05,0.0001388463863204022,-0.005656058566955935,0.006654630407373325,0.9912600461684022
2014-07-15,1,0.0010178812759325973,0.001017899607447551,-0.005656058566955935,0.005799396379201695,0.9912801520157681
2014-07-17,1,0.0007711571302313964,0.0007887727745153515,-0.005134719452667262,0.005799396379201695,0.9915626305860743
2014-07-21,1,0.0010552558550627979,0.0010725047640036914,-0.005134719452667262,0.005799396379201695,0.9916966240988435
2014-07-23,1,0.0011268785699405088,0.0011473427882282856,-0.005134719452667262,0.004698043433668371,0.9917114510575133
2014-07-25,1,0.0011594827668449108,0.0011996810118790812,-0.0050733515103666285,0.004698043433668371,0.9916523422997089
2014-07-29,1,0.0007239904176347147,0.0007395152633203964,-0.003910456521061384,0.004698043433668371,0.991871334408054
2014-07-31,-1,-0.0015766283017496735,-0.001280062466631011,-0.003311531333379222,0.005609136478798037,0.9936672962733969
2014-08-04,-1,-0.0009734650558753656,-0.0007682633388771564,-0.002805595663074165,0.005609136478798037,0.9941856145362271
2014-08-06,-1,-0.0016970556095105614,-0.0014206557770724915,-0.001992351703025987,0.005609136478798037,0.994324702754907
2014-08-08,-1,-0.0014776846340719273,-0.0012327968425959047,-0.0014280558918736853,0.005609136478798037,0.9944578623084738
2014-08-12,-1,-0.001778144118124353,-0.0014501676426405966,-0.002873396918988669,0.0047542447669075664,0.9939830037173919
2014-08-14,-1,-0.0013030375087996933,-0.0010158405079356636,-0.003518034688161252,0.004135620005825386,0.9935236742288558
2014-08-18,-1,-0.0009311877070306707,-0.0006603407563820485,-0.004026067671088575,0.004135620005825386,0.9932876025006242
2014-08-20,-1,-0.0005058083158915393,-0.00029421500360748466,-0.004026067671088575,0.0023312361716581196,0.9935570226308931
2014-08-22,-1,-0.00023488093995141285,-0.00010970686474037121,-0.007331787782104229,0.0023312361716581196,0.9930520541770195
2014-08-26,-1,-0.00038118096429904004,-0.0002440506611734278,-0.007551477901476696,0.004476785243028072,0.9918464333036766
2014-08-28,-1,-0.00028654945510155885,-0.00015473690189319586,-0.00783460891778556,0.0052427706381050175,0.9911389841755582
2014-09-02,0,-6.357985600229359e-05,5.0649163418519e-05,-0.00902810886171985,0.004428358040005475,0.9906312329799463
2014-09-04,-1,-0.0013687118856174506,-0.0010378724171258014,-0.009197195649497707,0.004428358040005475,0.9909460574738977
2014-09-08,-1,-0.0005825253516334494,-0.00038327575434752,-0.009197195649497707,0.004428358040005475,0.9903472016691772
2014-09-10,-1,-0.0009331450131534427,-0.0007229223831364439,-0.009197195649497707,0.006546500735589249,0.9893085497173775
2014-09-12,-1,-0.001826825576006759,-0.0015180696942324475,-0.013351120801807547,0.006546500735589249,0.9895943033947259
2014-09-16,-1,-0.0011952229781613303,-0.000956998504862046,-0.014849937722570906,0.006546500735589249,0.9881141441960566
2014-09-18,-1,-0.001643712275923815,-0.0013345722434888133,-0.014849937722570906,0.010137138852836056,0.9866692917397303
2014-09-22,-1,-0.0016571489464897145,-0.0013685352350948157,-0.014849937722570906,0.015753604669545142,0.9853859178073398
2014-09-24,-1,-0.0020736931804508293,-0.0017372461166976325,-0.013351120801807547,0.0171590976650942,0.9851953469765027
2014-09-26,-1,-0.0022448910381009206,-0.0018660800548212636,-0.013351120801807547,0.0171590976650942,0.9850653127682854
2014-09-30,-1,-0.0023030931680142128,-0.001943738355135263,-0.010308903398509546,0.0171590976650942,0.9852576499707805
2014-10-02,-1,-0.0027572021049498277,-0.0023661975453279334,-0.007292722119101199,0.0171590976650942,0.9853462697248079
2014-10-06,-1,-0.002439887775810189,-0.0020710421739539597,-0.007292722119101199,0.016706784317176464,0.9854989748180429
2014-10-08,-1,-0.0015546243495848685,-0.0013141430970073451,-0.007292722119101199,0.014670941099871047,0.9872136930664155
2014-10-10,-1,-0.0032465925783382627,-0.0027969606516963148,-0.004376193135643881,0.014670941099871047,0.9882971004226517
2014-10-14,-1,-0.0033312788170287736,-0.002865176565073636,-0.0038791303425576833,0.013019762355229461,0.990239479320782
2014-10-16,-1,-0.0019033683779205767,-0.0016351127938234187,-0.0036014539497148117,0.007799590846959229,0.991916654738467
2014-10-20,-1,-0.00021821822369415587,-0.00014515583578903428,-0.0036014539497148117,0.00535512386485656,0.9936429173170365
2014-10-22,1,0.0008295005413928683,0.0009211906859068511,-0.0036014539497148117,0.00535512386485656,0.9942453303551996
2014-10-24,1,0.0015872622613792627,0.0017844250836290573,-0.0036014539497148117,0.004619290660293089,0.9943567640384887
2014-10-28,1,0.002516190579107835,0.0029014156034063198,-0.0036014539497148117,0.005243664893964542,0.9940445777795475
2014-10-30,1,0.0021774089219307553,0.0024673583232167635,-0.0036014539497148117,0.004625031502199917,0.994437828698971
2014-11-03,1,0.002347853861040517,0.0026357082217876035,-0.003491971805421445,0.004625031502199917,0.9945195532510187
2014-11-05,1,0.0015122782865457352,0.0016658374970660431,-0.003176410188139473,0.005438833082454512,0.9951197168626084
2014-11-07,1,0.0013343611864276173,0.0014933590067920481,-0.001614479427606824,0.005438833082454512,0.9955729507004092
2014-11-11,1,0.00159834064155225,0.0018095796200812933,-0.0027516867807413775,0.0060698293026015555,0.9953512759582884
2014-11-13,1,0.0012684491064219225,0.001417569351382955,-0.0027516867807413775,0.0060698293026015555,0.9945923042350434
2014-11-17,1,0.0007711752015660395,0.0008264110691622937,-0.001815148864434893,0.0060698293026015555,0.9943534280144435
2014-11-19,1,0.0005904242495355494,0.0006200326276755935,-0.0006362615983273642,0.0060698293026015555,0.9942014844170673
2014-11-21,1,0.0011763563412534313,0.0012820586154542592,-0.0006362615983273642,0.0060698293026015555,0.9942711154083503
2014-11-25,1,0.0017945760874224395,0.0019888167081266203,-0.0016747259707383829,0.004667111181083651,0.9945226470567932
2014-11-28,1,0.0021596482794379018,0.002425890591105844,-0.003021068861679111,0.004667111181083651,0.9941178120059991
2014-12-02,1,0.0025750745995835713,0.0029101140413335825,-0.0032140072677988387,0.003638623921326168,0.9937546527478468
2014-12-04,1,0.0030377217558444766,0.003467263520378844,-0.004550636440373301,0.0027174585923930637,0.9932524220978957
2014-12-08,1,0.00289005511615909,0.0032810350146121395,-0.004565355255347792,0.003638623921326168,0.9931458779871489
2014-12-10,1,0.0031830683168319043,0.003635063017787616,-0.005714065045215497,0.003638623921326168,0.9926971354769868
2014-12-12,1,0.00285576691174496,0.003278583122022497,-0.004565355255347792,0.0027174585923930637,0.9934719478427447
2014-12-16,1,0.002597303019771363,0.0029690855250642505,-0.0032189135394570024,0.0021987300910958477,0.9937614342782689
2014-12-18,1,0.0033054687994491863,0.003744792333775707,-0.0032189135394570024,0.0017913340112084154,0.9939012675746571
2014-12-22,1,0.0030952862178264488,0.0033909560788307467,-0.0035911408164008107,0.0017913340112084154,0.9936927105912369
2014-12-24,1,0.002995530993210193,0.0032963843727908376,-0.0035911408164008107,0.0017913340112084154,0.9940258678473195
2014-12-29,1,0.002213267751111486,0.002353999596761468,-0.0048322864805667555,0.0016836585809304348,0.9934465636749197
2014-12-31,1,0.0015243955945729946,0.0015829790552236453,-0.0048322864805667555,0.0017913340112084154,0.9929119161446535
2015-01-05,1,0.001320832008859354,0.0013577667364966246,-0.0035911408164008107,0.004330684828414832,0.9926727693214259
2015-01-07,1,0.0016254271785796689,0.001748597123609369,-0.004189711043087359,0.00443824626366885,0.9918707186800182
2015-01-09,1,0.002101070629462862,0.0023289059097186078,-0.007345774584674689,0.0025626123229785867,0.991352920405692
2015-01-13,1,0.0021995081774275537,0.002455875618679485,-0.007345774584674689,0.00443824626366885,0.9912106667712545
2015-01-15,1,0.0019406910905248112,0.0021462187001427854,-0.007345774584674689,0.006647652058363051,0.9902322333755509
2015-01-20,1,0.0016292628815253605,0.0017788037922192637,-0.007345774584674689,0.006647652058363051,0.9902494452967049
2015-01-22,1,0.002342340363702439,0.0025036205869804398,-0.009698330320830256,0.00443824626366885,0.9873822208892767
2015-01-26,1,0.0024052950304574404,0.0025900526222662587,-0.010497408605044388,0.00443824626366885,0.9862994657419016
2015-01-28,1,0.001155795209082805,0.0011683890251248722,-0.009698330320830256,0.00443824626366885,0.9874490866778474
2015-01-30,1,0.0004746787304399716,0.0005508220440789173,-0.007886944056226695,0.005128477485928026,0.9882312145333493
2015-02-03,1,0.0006912621070811902,0.0007831457469630473,-0.009698330320830256,1.1616835306077879e-05,0.987702879847726
2015-02-05,1,0.00033542419949075537,0.0005094693544852589,-0.01119703492289951,-0.0021174173840108365,0.9876219542048535
2015-02-09,-1,-0.00028063487589502175,-5.8831197859092574e-05,-0.009111635739406501,1.1616835306077879e-05,0.9882186951317512
2015-02-11,0,-0.00013031780406881372,8.789595791164773e-05,-0.009111635739406501,0.0009675095319007257,0.9872830981411448
2015-02-13,1,9.966251814705123e-05,0.00031412206032634604,-0.009111635739406501,0.0009675095319007257,0.9877297585559299
2015-02-18,-1,-0.0003887508705635195,-0.00010294418084157327,-0.009111635739406501,0.006661514841221502,0.9873083092267965
2015-02-20,-1,-0.0019226200409518475,-0.0014618187397165798,-0.007592442351255085,0.008311763583893895,0.9898802032886894
2015-02-24,-1,-0.0029431500552469093,-0.0023432289230999087,-0.008542837710866082,0.008311763583893895,0.9898447814904225
2015-02-26,-1,-0.003885056035719287,-0.003149015229041306,-0.011281325326637658,0.008311763583893895,0.9884306641721328
2015-03-02,-1,-0.003007211998036422,-0.0024024690329774714,-0.011571009095082883,0.008311763583893895,0.9882285685397817
2015-03-04,-1,-0.0036447955302617613,-0.0029895348074065044,-0.011281325326637658,0.008311763583893895,0.9886040130159701
2015-03-06,-1,-0.005309615706905741,-0.004397382671062818,-0.008567371642891761,0.011131420762662452,0.9888046601360818
2015-03-10,-1,-0.005174414463581656,-0.004286320230523728,-0.009709542921142403,0.011131420762662452,0.988291438874715
2015-03-12,-1,-0.0033179553527923848,-0.0027302400051586696,-0.011369091574893886,0.009889460628378963,0.9893422362479539
2015-03-16,-1,-0.002052040210132889,-0.0016790905282610031,-0.012212365381535141,0.009963118986168138,0.9884470368404992
2015-03-18,-1,-0.001156865932782851,-0.00092362343397135,-0.012212365381535141,0.009963118986168138,0.9883720107926982
2015-03-20,-1,-0.00027831978061919755,-0.00017338373831891137,-0.012212365381535141,0.009963118986168138,0.988730514868984
2015-03-24,-1,-0.000955420582326061,-0.0007843707719613676,-0.011369091574893886,0.009963118986168138,0.98974938098241
2015-03-26,-1,-0.0018877227810118686,-0.0016149655233587035,-0.007578922247403564,0.009963118986168138,0.9912892969497729
2015-03-30,-1,-0.00129586568868665,-0.0011075798607005066,-0.007578922247403564,0.0053482446277610205,0.9921598412915127
2015-04-01,-1,-0.001760200430873974,-0.001497918832997533,-0.006640259966627016,0.0049298097695790345,0.9922806631838088
2015-04-06,-1,-0.0017638970548731316,-0.0014841055024006533,-0.0063827488486925986,0.0047891664333668425,0.9926052905215902
2015-04-08,-1,-0.0018590335439351063,-0.0015770819332299596,-0.007597301214707188,0.003033928753173024,0.9919214762553717
2015-04-10,-1,-0.0023498591885353923,-0.002004615831670377,-0.0063827488486925986,0.01046625148950806,0.9901974865384824
2015-04-14,-1,-0.002483721936920271,-0.002130806334107829,-0.0063827488486925986,0.0047891664333668425,0.9912078258876093
2015-04-16,-1,-0.0020565320930551268,-0.0017449277470714562,-0.0063827488486925986,0.0047891664333668425,0.990848488350231
2015-04-20,-1,-0.0010338213445991997,-0.0008680224967173155,-0.0063827488486925986,0.0047891664333668425,0.9911804524401097
2015-04-22,-1,-0.0007064219764425093,-0.0006037447479444577,-0.007024674263367508,0.0044241945628154524,0.9905952022358224
2015-04-24,-1,-0.00046910732355159846,-0.00040348507198554315,-0.007036498208901063,0.0044241945628154524,0.9902234149800037
2015-04-28,-1,-0.0007431494174188548,-0.0006599135552717656,-0.006417412710312365,0.008228363480129727,0.9903692127068412
2015-04-30,-1,-0.0009632025168044693,-0.0008669425000598046,-0.006937408763695764,0.008228363480129727,0.990410897930784
2015-05-04,-1,-0.0005834948624934431,-0.0005333375417818646,-0.006937408763695764,0.008444989928358997,0.9898516848180816
2015-05-06,-1,-0.0016912144316524936,-0.0015136975039973493,-0.0064268530483491855,0.008444989928358997,0.9914592108705669
2015-05-08,1,0.00012631777142791363,0.0001516967911701695,-0.00851813618826143,-0.0003871905764003163,0.9918574847256829
2015-05-12,-1,-0.00022648577910747,-0.00020553293076207692,-0.006937408763695764,0.003862491525993739,0.9920935107219887
2015-05-14,1,0.000731711785032873,0.0008877358195396548,-0.006937408763695764,0.0069351539988794396,0.9923393999230665
2015-05-18,1,0.0012493901361735143,0.0015153416032442318,-0.00851813618826143,0.0069351539988794396,0.9917652665843855
2015-05-20,1,0.0009115707565880433,0.0011264521214646246,-0.006937408763695764,0.00799901068314425,0.9913297615267158
2015-05-22,1,0.0005717963582437448,0.000739290888373454,-0.0069350251561990294,0.00799901068314425,0.9915804940274299
2015-05-27,1,0.0005529616860712721,0.0006954234309802867,-0.00851813618826143,0.008678666858108135,0.9906342522536603
2015-05-29,1,0.00015540262139893547,0.0002359105504127039,-0.008713396657625144,0.008678666858108135,0.9898323969130861
2015-06-02,1,0.0006869246193606024,0.0008409766028326302,-0.009230513223565122,0.008678666858108135,0.9887419291336885
2015-06-04,1,0.00013006801428259936,0.0002480945069520373,-0.008713396657625144,0.011035067152997045,0.9879633741701422
2015-06-08,-1,-0.0004103487838637413,-0.00035768316082430946,-0.005990931599386656,0.01258341057451065,0.9878808618707241
2015-06-10,0,-7.499557325706113e-05,2.7554844199347743e-05,-0.008109644173086718,0.01258341057451065,0.9875675697645774
2015-06-12,1,0.0005200050745054687,0.0006996408669516989,-0.008109644173086718,0.01258341057451065,0.988149772041839
2015-06-16,1,0.0009256263155580702,0.0011933077695928966,-0.005990931599386656,0.009907178216542835,0.9887140596142909
2015-06-18,1,0.0018802657201367856,0.0022791555370488266,-0.005990931599386656,0.008827052897335144,0.9896008212568879
2015-06-22,1,0.0014858691829890947,0.0017887207389344576,-0.008109644173086718,0.008827052897335144,0.9890925333412028
2015-06-24,1,0.0016085410220001602,0.001889480456836303,-0.008277615021240445,0.007571145312061513,0.9886117025222497
2015-06-26,1,0.0011548667691328608,0.0014307899508675171,-0.005635061122785974,0.007571145312061513,0.9889161818989423
2015-06-30,1,0.0009541821250431264,0.0012148874442132179,-0.0042600980675319405,0.008827052897335144,0.989326180560975
2015-07-02,1,0.0018150521446195886,0.002163157670799174,-0.008888032699120207,0.007571145312061513,0.988208245680158
2015-07-07,1,0.0026783848269232285,0.0031621012331395975,-0.008888032699120207,0.005801533394304212,0.9881382467339513
2015-07-09,1,0.0025103069395514335,0.003011544482903756,-0.008888032699120207,0.006585994223952119,0.9881374773019117
2015-07-13,1,0.0027884292321294826,0.0033212952799713527,-0.008888032699120207,0.007571145312061513,0.9877172545599521
2015-07-15,1,0.001660016577262827,0.002068903344188985,-0.008888032699120207,0.0023847128103198136,0.9882049417797161
2015-07-17,1,0.001511089826753252,0.0018605828135270991,-0.008888032699120207,0.002607006160306247,0.9887343688249363
2015-07-21,1,0.0010267003134748751,0.0012956318544907705,-0.008375458455020338,0.005905835617275933,0.9888684152191646
2015-07-23,-1,-0.00015132601115882497,-7.757613306905154e-06,-0.011211692811208165,0.005905835617275933,0.9885674876885664
2015-07-27,-1,-0.0016240234861759058,-0.0015598312682927257,-0.01968343261749323,0.005905835617275933,0.9866906915482693
2015-07-29,1,0.0005312434974686616,0.0005557437860200143,-0.0225832435396354,0.002607006160306247,0.9845936609844712
2015-07-31,-1,-0.0012800614292522439,-0.0010960694341901381,-0.01968343261749323,0.0061336899530438265,0.9857430019326223
2015-08-04,-1,-0.0010646410135474868,-0.0009588536210344068,-0.022662958255122653,0.0061336899530438265,0.9836266127316502
2015-08-06,-1,-0.0010638291701017496,-0.000967245517698818,-0.022662958255122653,0.0064158250155314685,0.9840992678175815
2015-08-10,-1,-0.00013579282911433386,-9.302184232964483e-05,-0.022662958255122653,0.0064158250155314685,0.9827482261794975
2015-08-12,1,7.624754381902642e-05,0.00018029579320927097,-0.022662958255122653,0.0064158250155314685,0.9822531219267066
2015-08-14,-1,-4.47166451457893e-05,-5.450670550635495e-06,-0.022662958255122653,0.009907310769047285,0.9812859617530991
2015-08-18,-1,-0.00018249024811478484,-0.00013950387712614122,-0.02302500959935923,0.007652672539082776,0.9806458131919235
2015-08-20,-1,-0.0016242165597485621,-0.0014185688515164717,-0.02302500959935923,0.007652672539082776,0.9804362863119601
2015-08-24,-1,-0.0034175766275237607,-0.002992058490129049,-0.022717967128018594,0.007652672539082776,0.9813214509332501
2015-08-26,-1,-0.0028205106673518006,-0.002477282419064079,-0.02101595197726006,0.007652216986317402,0.9841406777828725
2015-08-28,-1,-0.0016459222694053025,-0.0014355952323134974,-0.022717967128018594,0.007652216986317402,0.9834911633771982
2015-09-01,-1,-0.003266455961479061,-0.0028439556610200404,-0.017585295895710607,0.008105140923497324,0.9837244669826785
2015-09-03,-1,-0.0026991290033021695,-0.0023500498534242006,-0.017585295895710607,0.011516037964764365,0.9830416696613908
2015-09-08,-1,-0.0022329387333566786,-0.0019644106958066664,-0.01481887221219652,0.013457140866188537,0.9824855336832121
2015-09-10,-1,-0.002211509026653859,-0.001976604025945387,-0.009719244763612082,0.01810093827092743,0.9807922460302835
2015-09-14,-1,-0.0014668183556270126,-0.001322733883301449,-0.013397091727163263,0.013457140866188537,0.981577657680799
2015-09-16,-1,-0.0016969840533336493,-0.001534977743584484,-0.01306811774428522,0.013457140866188537,0.9821757299720572
2015-09-18,-1,-0.00330415265297142,-0.002934854791084697,-0.008647151131771584,0.01826564165377822,0.9830077534020852
2015-09-22,-1,-0.004298499980780542,-0.0037963542400357465,-0.006942956087588417,0.01826564165377822,0.9841098070624926
2015-09-24,-1,-0.004087480755136583,-0.0036332440813147283,-0.00816890507543881,0.023948971844116713,0.9820649137472917
2015-09-28,-1,-0.005404705674564008,-0.0047404170410864435,-0.012871343268924786,0.023948971844116713,0.9811728778162063
2015-09-30,-1,-0.003864740222985413,-0.003459706662324294,-0.00816890507543881,0.019299826685295937,0.9823007233564054
2015-10-02,-1,-0.0030890521158981193,-0.0027672463380968753,-0.00816890507543881,0.023948971844116713,0.9815761353925317
2015-10-06,-1,-0.0009020181093016002,-0.0008626551319607216,-0.00816890507543881,0.01614099799563159,0.9834391088002143
2015-10-08,1,0.0007472439134849318,0.0009370509309979275,-0.00816890507543881,0.013264633176266702,0.9849141826334639
2015-10-12,1,0.0002715688993399094,0.00038222436961163586,-0.014707153265091286,0.013264633176266702,0.9836005494027463
2015-10-14,-1,-0.0004351706313042424,-0.0004338531098633059,-0.008715250249040834,0.013264633176266702,0.9841874848110053
2015-10-16,1,0.00016303391485879536,0.00025058748096345936,-0.015745486630795922,0.0082456191688839,0.9841695128173555
2015-10-20,1,0.000133673939662066,0.00020070571727214987,-0.018784919265830313,0.007641305004301912,0.9833037834498097
2015-10-22,1,0.00035301058443156413,0.00047908812365344996,-0.015563058893240962,0.005789312794919856,0.9851719614485477
2015-10-26,-1,-0.0019622518790377306,-0.001777801829270358,-0.00964442923623789,0.00684583015360699,0.9879555343875481
2015-10-28,-1,-0.0018095501510942452,-0.0016118835318220484,-0.00964442923623789,0.00684583015360699,0.9879764569885893
2015-10-30,1,5.7755039818400305e-05,9.526867565986173e-05,-0.00964442923623789,0.0060314123426050414,0.9898426586469099
2015-11-03,1,0.0007064425032759802,0.0008640045893362218,-0.015563058893240962,0.0060314123426050414,0.9888032492740906
2015-11-05,1,0.0012647776881184443,0.0015042237954468007,-0.018784919265830313,0.0060314123426050414,0.987247458351575
2015-11-09,1,0.0006432602493291909,0.0008567895874241148,-0.015563058893240962,0.0060314123426050414,0.9877814460765618
2015-11-11,1,0.0006974702492679755,0.0009159971188480286,-0.015563058893240962,0.006867709499788239,0.9869528302222144
2015-11-13,1,5.136669297855492e-05,0.00021405138036210015,-0.015563058893240962,0.006867709499788239,0.9872859690757206
2015-11-17,-1,-0.0006879935854995884,-0.000668516992448915,-0.009734528692461403,0.00963502048916526,0.9874675829651646
2015-11-19,-1,-0.0011102996993058042,-0.0010583534432757257,-0.017600153672788655,0.00963502048916526,0.9864466743764009
2015-11-23,0,-9.169819356631725e-05,2.9031161508108103e-05,-0.017600153672788655,0.011403499700444844,0.9860729073069037
2015-11-25,1,0.000958273465367058,0.0012555130598420486,-0.017600153672788655,0.011403499700444844,0.9852499838172879
2015-11-30,1,0.0009214477865474045,0.0011839317621399363,-0.017600153672788655,0.011403499700444844,0.9846116099252785
2015-12-02,1,0.0008942106002562925,0.0011741430062510096,-0.017600153672788655,0.009675451398551572,0.9847331552976635
2015-12-04,1,0.001216648434739246,0.0015840703042399832,-0.013014026514732338,0.009675451398551572,0.9856747837084608
2015-12-08,1,0.0008252401547186548,0.001159659415490906,-0.017600153672788655,0.009675451398551572,0.9845011598253874
2015-12-10,1,0.0010359086533928267,0.0013811575421868005,-0.017600153672788655,0.009675451398551572,0.984696300802951
2015-12-14,0,-6.926494828426717e-05,6.712550557463486e-05,-0.02225701082739898,0.009675451398551572,0.9819036930226559
2015-12-16,1,0.0001246888959111516,0.0002967493173610769,-0.026653980862816548,0.010912207823953742,0.9794701065116088
2015-12-18,-1,-0.00031700789514655324,-0.00014797255892411165,-0.026039346278550406,0.010912207823953742,0.9804344077426517
2015-12-22,-1,-0.0005344345162702315,-0.0005317195835333189,-0.026039346278550406,0.015513727863643556,0.9779565113299292
2015-12-24,1,0.0004119197809639607,0.0005464503600339239,-0.026039346278550406,0.015513727863643556,0.9776450115175986
2015-12-29,1,0.00026430864583661817,0.0003547714206336793,-0.026588670426511973,0.015513727863643556,0.976217760357771
2015-12-31,-1,-0.0005526352110185694,-0.0005336324778366364,-0.02601898620510555,0.017932126947185965,0.9752909141787378
2016-01-05,-1,-0.00033687926633092,-0.0002992153757606468,-0.027044878125714635,0.02213626270678179,0.9734013575396476
2016-01-07,-1,-0.0018038212974322856,-0.001678147429942171,-0.02601898620510555,0.022610207982165863,0.9740584435507625
2016-01-11,-1,-0.0008481779147456722,-0.0008139252204909907,-0.02681668153092094,0.022610207982165863,0.9732249038556087
2016-01-13,-1,-0.004111425162130665,-0.003694581508661419,-0.023762485984396464,0.022610207982165863,0.9760717016515201
2016-01-15,-1,-0.0061271907022535585,-0.005439420470938811,-0.01826786559404798,0.02959222291431547,0.9755011050081623
2016-01-20,-1,-0.006438819008583123,-0.005702223408545404,-0.014820074581719073,0.02959222291431547,0.9746117668655194
2016-01-22,-1,-0.002037844626370109,-0.0018813818844853683,-0.016742834879203562,0.024816595842176343,0.977481405691094
2016-01-26,-1,-0.002818991612203764,-0.0025001600814270773,-0.018496263116067026,0.024816595842176343,0.9779379373915045
2016-01-28,-1,-0.004092307488343037,-0.003651979339617323,-0.0111323788157493,0.02948586059684951,0.9780030621168634
2016-02-01,-1,-0.002469475327575393,-0.0022381579866347975,-0.009353835307094256,0.02948586059684951,0.9791796202370372
2016-02-03,-1,-0.002587085859645128,-0.002322651117338338,-0.005832865776197386,0.024816595842176343,0.9813196259128459
2016-02-05,-1,-0.0005059077952992575,-0.0004879134152930222,-0.005832865776197386,0.023431986323957925,0.9817119142326917
2016-02-09,-1,-0.0011652007804985585,-0.0010791894069004065,-0.006543962683339585,0.023431986323957925,0.981327291276645
2016-02-11,-1,-0.0020390545792735052,-0.001787963187594188,-0.006465029115705475,0.024972390174317908,0.9805616339882727
2016-02-16,1,7.334576193318484e-05,0.0001209085565157093,-0.0075001357115553,0.02176376992045125,0.9827379254838559
2016-02-18,1,0.0011539039586646609,0.0012415909369633863,-0.0081681642986592,0.021157719130103003,0.9829303054583819
2016-02-22,1,0.0005025040526012922,0.0005283610804028365,-0.00801247874866888,0.021157719130103003,0.9834258580075453
2016-02-24,1,5.832806986441776e-06,7.083221567080229e-05,-0.008994791301292954,0.021157719130103003,0.9829657564559438
2016-02-26,1,0.0012817550922660328,0.0014344378925605235,-0.008994791301292954,0.016107710985446395,0.9843850550250721
2016-03-01,1,0.0032317249859743213,0.003749987704475902,-0.008994791301292954,0.013458678400342216,0.9861797162310681
2016-03-03,1,0.004715327179013729,0.005522007488121691,-0.011647345389928555,0.014469114812915948,0.9840519952393868
2016-03-07,1,0.005975133791261229,0.006928986984115198,-0.018246852166065308,0.010700128287077747,0.9829928241002124
2016-03-09,1,0.004253896601841903,0.004935942223062949,-0.01603058570779791,0.010700128287077747,0.9848734175024809
2016-03-11,1,0.0055466076279415966,0.006432257154054277,-0.01603058570779791,0.010700128287077747,0.9857222064137743
2016-03-15,1,0.005580556684503566,0.006480789494416868,-0.013031948392310944,0.013495941705231187,0.9861525187318727
2016-03-17,1,0.00597715807739759,0.006912940876976567,-0.013031948392310944,0.010700128287077747,0.9871854068426617
2016-03-21,1,0.004808224999116889,0.005449590865219911,-0.01603058570779791,0.00806567199908472,0.9867994395157225
2016-03-23,1,0.0036872088141151832,0.004214813028676557,-0.013031948392310944,0.00806567199908472,0.9881370982539089
2016-03-28,1,0.005102578244076908,0.005910877760278006,-0.01548860635753783,0.007372402364519644,0.9867250273829113
2016-03-30,1,0.005505472907129453,0.006387648486497578,-0.01548860635753783,0.01471879219618835,0.9854405654329762
2016-04-01,1,0.0051042248039516605,0.005968021809003734,-0.013031948392310944,0.009376600167597284,0.9871893955877448
2016-04-05,1,0.0030339236706295406,0.0035552323854153804,-0.005304466049073742,0.012790724478068602,0.9896049451505716
2016-04-07,1,0.0027240602053187953,0.003205583670424007,-0.002612340297484899,0.012790724478068602,0.9903086556492126
2016-04-11,1,0.002771344311956865,0.0031869413762660717,-0.0016066525197972275,0.011346185047315828,0.9908333618206795
2016-04-13,1,0.003740488157822029,0.0042542121774659354,-0.005304466049073742,0.0083747025520272,0.9895561344864061
2016-04-15,1,0.0036645354306540944,0.004153633223971397,-0.012409696702841191,0.007465805980594917,0.988156465276818
2016-04-19,1,0.002925682783264742,0.003316125429602579,-0.009518105588481138,0.007465805980594917,0.9891020292163913
2016-04-21,1,0.0024353852601200774,0.0028309424154321803,-0.012409696702841191,0.007465805980594917,0.987408467484912
2016-04-25,1,0.001869467929980231,0.002192082983841448,-0.009518105588481138,0.011346185047315828,0.9877625391981885
2016-04-27,1,0.003204219110854444,0.003677806277717347,-0.009518105588481138,0.011346185047315828,0.9878674123806561
2016-04-29,1,0.0028429962714010834,0.0032592125485439664,-0.010129256879295606,0.011346185047315828,0.9878326914416138
2016-05-03,1,0.003045482183319961,0.0034412503002725497,-0.010129256879295606,0.0077154454456827325,0.988157111729116
2016-05-05,1,0.0032943194860849036,0.003734671461552038,-0.010129256879295606,0.011773000133457459,0.986827859384236
2016-05-09,1,0.0031997221416480742,0.0035724640314091223,-0.010129256879295606,0.008363581439415707,0.9871195854604877
2016-05-11,1,0.0028339060368947444,0.00319613380181611,-0.009160872714192718,0.006546675810877127,0.9889472498007293
2016-05-13,1,0.0009253809673917428,0.0009480593843389868,-0.007946367332503684,0.006546675810877127,0.9898578359812257
2016-05-17,1,0.0006860003154195072,0.000687390043765245,-0.006682446974620528,0.011231685231926506,0.9885207448292527
2016-05-19,-1,-0.0005704865219561204,-0.000493838416966381,-0.0037467293735683085,0.014933057617440126,0.9895850992985915
2016-05-23,-1,-0.000253290343069927,-0.00020240301779424257,-0.0017681599067291068,0.012447334734710248,0.9899537947675764
2016-05-25,1,0.0004186638020986232,0.0004795919672227491,-0.0017681599067291068,0.008948743571211053,0.9912180523656297
2016-05-27,1,0.0002693491665378934,0.00032155705552460215,-0.003975836679725701,0.008948743571211053,0.9854929934744572
2016-06-01,-1,-0.0007654004124892514,-0.0004854397588339894,-0.003975836679725701,0.013145611803471069,0.9817219031928164
2016-06-03,0,-6.919120899111057e-05,0.00010349014748304799,-0.0017681599067291068,0.011503778175839417,0.982056582565035
2016-06-07,-1,-0.0019688035059926517,-0.0013901818036712798,-0.003975836679725701,0.011625624960850785,0.9804153026444367
2016-06-09,-1,-0.003201159123085323,-0.002442897067091171,0.002491417277064213,0.016436455343145324,0.9784277138133483
2016-06-13,-1,-0.004593995789972147,-0.0036189634503741865,0.006528768692736731,0.016436455343145324,0.976691318616857
2016-06-15,-1,-0.0013128831635582823,-0.0008910358928879236,0.005470434403532094,0.01416865744034131,0.977981225647138
2016-06-17,0,-0.00030066587714177207,1.7809370626688335e-06,0.006369264183938536,0.01416865744034131,0.9787796481601235
2016-06-21,-1,-0.0012256979820283683,-0.0007153100866733263,0.0029746385255811428,0.01416865744034131,0.9782968089040295
2016-06-23,1,0.00010921633391147159,0.00041608943886530404,0.0029746385255811428,0.017450633556328962,0.9774858009260625
2016-06-27,-1,-0.0051398352988777495,-0.0042101306897468025,0.005556607805128962,0.017450633556328962,0.9800717586277553
2016-06-29,-1,-0.0009090355966757137,-0.0005508317153948381,0.00020972460579699124,0.01416865744034131,0.9846463225931777
2016-07-01,-1,-0.0005353580762370354,-0.0001727878557796767,0.00020972460579699124,0.014506716844735857,0.9843309358818981
2016-07-06,-1,-0.0011191079442815623,-0.0006736164100918779,0.00020972460579699124,0.014506716844735857,0.9841478919096665
2016-07-08,1,0.0008541208092733179,0.0008904939382438684,-0.008073791038370543,0.014506716844735857,0.9844940915623411
2016-07-12,1,0.0023622330828502553,0.002570604435749923,-0.008073791038370543,0.017723888903182373,0.9848582918952461
2016-07-14,1,0.0014768001902074192,0.001555967739236563,-0.008073791038370543,0.017723888903182373,0.9864718178521764
2016-07-18,1,0.0018036821049792282,0.0018804701231979507,-0.008073791038370543,0.012627019100978316,0.9871068850037026
2016-07-20,1,0.0021229481066939895,0.0022878213884891018,-0.010149589728818346,0.012264636732906679,0.9871253080017558
2016-07-22,1,0.00428859687965603,0.004794076892887767,-0.010149589728818346,0.008561338509757072,0.9886209143730614
2016-07-26,1,0.003840573613835693,0.004316457751936835,-0.004888736948245434,0.008994426745907995,0.9892796219511347
2016-07-28,1,0.004036980539147519,0.004633223156166402,-0.004245970374164795,0.008994426745907995,0.9901385858781361
2016-08-01,1,0.004435819047780691,0.004990864863290119,-0.007758314732700855,0.006950202319020242,0.9905029477475463
2016-08-03,1,0.0041984843744273985,0.004782881109403892,-0.007758314732700855,0.00636341578181225,0.9911500413377956
2016-08-05,1,0.00487311129137709,0.005525497710517824,-0.009310527080333,0.004712699999651066,0.9909943378560011
2016-08-09,1,0.005607868676889803,0.006382725737870552,-0.010326758624334206,0.003198514267039536,0.9902003976656085
2016-08-11,1,0.005208460967557003,0.005935228879945324,-0.012598176142222466,0.003198514267039536,0.9884956328345004
2016-08-15,1,0.004671466920346536,0.005238030976566343,-0.012598176142222466,0.0002566296815186193,0.9881451314119934
2016-08-17,1,0.004205971403755109,0.004725657397861962,-0.011382530133014771,0.003198514267039536,0.9888816989880502
2016-08-19,1,0.0047194403376814124,0.0053181043537499865,-0.011382530133014771,-0.00012687022268950964,0.9880073627383328
2016-08-23,1,0.004369835174650919,0.004862291186053491,-0.011382530133014771,-0.0002833188765564287,0.9883022239700837
2016-08-25,1,0.002958459931985762,0.0031761848382901242,-0.011382530133014771,0.000780682648628735,0.9891046426556783
2016-08-29,1,0.002319036769568076,0.0024193808153292126,-0.014682925851565984,-0.0002833188765564287,0.9883542745357201
2016-08-31,1,0.002026438467254507,0.002114476561006608,-0.01418542626225014,-0.0002833188765564287,0.9889106193553281
2016-09-02,1,0.0017632441576279712,0.001891680510777519,-0.011538775459161306,0.0006287443637310096,0.9900014893708291
2016-09-07,1,0.0010527068608972194,0.0010976815457041926,-0.0093645043591138,0.0006287443637310096,0.9909325570798331
2016-09-09,-1,-0.0016556547694963862,-0.0013312921472450297,-0.0068820271445481414,0.000794213755536316,0.9938156214610945
2016-09-13,-1,-0.002630485809421096,-0.002158938541096949,-0.0068820271445481414,0.0017387912627667124,0.9931253683354921
2016-09-15,-1,-0.002997745460900791,-0.0024387549593411287,-0.0068820271445481414,0.0017387912627667124,0.9934816657555248
2016-09-19,-1,-0.002216861046443035,-0.0018278893442244786,-0.006057486643314281,0.0032133980178377123,0.9933790251535225
2016-09-21,-1,-0.0025852128387929794,-0.0021412682451600606,-0.006057486643314281,0.003723262970989915,0.9926255746286435
2016-09-23,-1,-0.0014644195411177166,-0.0011765462247084982,-0.008917348527430364,0.0032133980178377123,0.9931293828157269
2016-09-27,-1,-0.0027233442141739715,-0.002298755894868055,-0.006057486643314281,0.003559982575857481,0.9939078411824586
2016-09-29,-1,-0.002599972486874632,-0.0022196768132460936,-0.008242472208375914,0.003559982575857481,0.9930876540532736
2016-10-03,-1,-0.0032542810138446324,-0.0027563293297606295,-0.008242472208375914,0.005730362781806957,0.9911452576132878
2016-10-05,-1,-0.004405421240458357,-0.0037219146584964117,-0.008248254636216994,0.005730362781806957,0.9907040446360184
2016-10-07,-1,-0.004431962743651874,-0.0037280772892736014,-0.010096468549395731,0.005730362781806957,0.988974682877559
2016-10-11,-1,-0.005776312226276406,-0.004828820727544272,-0.008248254636216994,0.008929897949869927,0.9870014162801786
2016-10-13,-1,-0.005497250253462883,-0.004599618877207586,-0.008248254636216994,0.009964127890081057,0.9869623976427918
2016-10-17,-1,-0.004764529100899981,-0.004017337527399618,-0.008248254636216994,0.017975533645004083,0.9832036066337194
2016-10-19,-1,-0.004337998299800835,-0.0036262207540692605,-0.010096468549395731,0.017975533645004083,0.9837587395716731
2016-10-21,-1,-0.004833079204519556,-0.004079951521746084,-0.0143987887682277,0.017975533645004083,0.9830138937298482
2016-10-25,-1,-0.004691056441034951,-0.0039813046057839314,-0.0143987887682277,0.017975533645004083,0.9817103551161391
2016-10-27,-1,-0.0058526269141942824,-0.00502325840194706,-0.009686194680876187,0.017975533645004083,0.9820344736407529
2016-10-31,-1,-0.004434722786430327,-0.0037527586343486874,-0.009686194680876187,0.01727400642934871,0.983368143199915
2016-11-02,-1,-0.005497165033088404,-0.004659314498329006,-0.003906651307625502,0.020147604826652222,0.9808325808993626
2016-11-04,-1,-0.004757209760487454,-0.00407898001027978,-0.003906651307625502,0.020962900697329343,0.9809561997087906
2016-11-08,-1,-0.0017389324690815122,-0.0014805588169715662,-0.003906651307625502,0.020536946532879206,0.9828592943531799
2016-11-10,-1,-0.0011831330113812317,-0.0010132138854061353,-0.003816454251582632,0.020536946532879206,0.9827361664674901
2016-11-14,1,0.0022660156094098617,0.0025626872046396864,-0.008609779071020777,0.01654408274643799,0.9871277148722678
2016-11-16,-1,-0.0017892007036541756,-0.0013657617729677198,-0.0041342266817656894,0.01654408274643799,0.9864444365312227
2016-11-18,-1,-0.0013016146309241397,-0.0010954734873119278,0.0024299720372025356,0.01654408274643799,0.9872253532666971
2016-11-22,1,0.0005480362428566486,0.0006097679680143143,0.0007374821872572243,0.01282467700301935,0.9894215662127996
2016-11-25,1,0.00030119601623920225,0.0003024736729319507,0.0005461054730302119,0.01282467700301935,0.9882413376518305
2016-11-29,1,0.0016353085217687478,0.0018801387247844898,-0.0047083568244467265,0.009580549865644652,0.9888323129322477
2016-12-01,1,0.003855853369925071,0.004435595986141062,-0.0047083568244467265,0.008942665662657969,0.9909683211653125
2016-12-05,1,0.003187657924687803,0.003664038782364173,0.0004064834803110735,0.00913026672321684,0.9925060868475207
2016-12-07,1,0.004921029124484423,0.005667713395154721,-0.00956309636156995,0.00742187944987685,0.9905111878074166
2016-12-09,1,0.005381326275113526,0.0061904383020100736,-0.00956309636156995,0.0053287437815864105,0.9893541930297546
2016-12-13,1,0.005850781227293999,0.006824114480083871,-0.009367681148929921,0.007266074554148064,0.9893054580045945
2016-12-15,1,0.00511191104588786,0.005940343642167861,-0.008935819445594788,0.008475250975471612,0.9895173206324479
2016-12-19,1,0.005097252619106308,0.005880727991335028,-0.008935819445594788,0.008443439253676558,0.9890400804790754
2016-12-21,1,0.005624933996404761,0.006552891122784035,-0.008935819445594788,0.008443439253676558,0.9890119590442732
2016-12-23,1,0.004647801870098615,0.005399090009088503,-0.006718315188503703,0.009034831557831677,0.9899633683694581
2016-12-28,1,0.004157353704178669,0.004878232699274098,-0.005192548895391341,0.009034831557831677,0.9910114138623703
2016-12-30,1,0.0050229514519864035,0.005895119130517266,-0.006718315188503703,0.008443439253676558,0.9891912113068994
2017-01-04,1,0.005733821412583585,0.006673244236591975,-0.008935819445594788,0.0070875999594640264,0.9887082016791211
2017-01-06,1,0.003577338679659793,0.00425595977125739,-0.006718315188503703,0.007514608881835536,0.9914394563095326
2017-01-10,1,0.0028827675939841002,0.003436252876775095,-0.005192548895391341,0.008443439253676558,0.9915218747218691
2017-01-12,1,0.003196330860356829,0.0038255829743168695,-0.004911332804229213,0.007656919887539472,0.9921350205940257
2017-01-17,1,0.003536142432303554,0.004226563801396576,-0.0020335346861843034,0.009124131176936768,0.9924276704084528
2017-01-19,1,0.003535677274156884,0.0042070907780216845,-0.0028387055828346637,0.007965632288998489,0.9922620201262937
2017-01-23,1,0.0034472014189367997,0.0040910128836419285,-0.003344529731810931,0.010096975794670943,0.9914909474113209
2017-01-25,1,0.004210384314324282,0.004932105650312622,-0.01043656009519842,0.007965632288998489,0.9897273655776828
2017-01-27,1,0.003896119804636515,0.004520032564119579,-0.01043656009519842,0.010096975794670943,0.9895490948873971
2017-01-31,1,0.0021555963526741044,0.002494670580881153,-0.01043656009519842,0.010401119399452057,0.9901638781245669
2017-02-02,1,0.000516516084784227,0.0005204768311096913,-0.010571728295473417,0.0109461071239216,0.989585164013276
2017-02-06,0,-8.985658999681088e-06,8.374726803445028e-05,-0.010689867957360889,0.0109461071239216,0.9894772422443667
2017-02-08,1,0.0010990826316967142,0.0011477043035950706,-0.012150683766764021,0.010401119399452057,0.9895873615007754
2017-02-10,1,0.000920108607900182,0.0009289129605100323,-0.012150683766764021,0.010401119399452057,0.9893363544173074
2017-02-14,1,0.0015716170880078117,0.0016551558413015355,-0.012150683766764021,0.007672880740650246,0.9881585453635361
2017-02-16,1,0.0014728406506433023,0.0015705655450239816,-0.012150683766764021,0.010999935188321657,0.9879850035536647
2017-02-21,1,0.0007528409239299533,0.0008294595611765833,-0.01326815158231599,0.00763789979844328,0.9880857945863051
2017-02-23,-1,-0.0012993573585915361,-0.0009668920019104938,-0.008056718028172859,0.007749621024746934,0.9898946936620415
2017-02-27,-1,-0.0011515074986761867,-0.0008241430168208458,-0.008056718028172859,0.00656612205798736,0.9902992940433574
2017-03-01,-1,-0.0012241776724729403,-0.0008601383090057419,-0.005768240526493971,0.00656612205798736,0.9913181936339647
2017-03-03,-1,-0.0012949416489056744,-0.000926766404154115,-0.004265289075101044,0.00656612205798736,0.9912887027734181
2017-03-07,-1,-0.002103439021121878,-0.0016274591700735465,-0.004265289075101044,0.006523786304854119,0.9917278018834547
2017-03-09,-1,-0.0030609521778565555,-0.0024754944002571173,-0.0038253668747522465,0.007089398205724085,0.9914892517694026
2017-03-13,-1,-0.003145746111886517,-0.00254744692267069,-0.004265289075101044,0.007408928592303676,0.9909178522019721
2017-03-15,-1,-0.0017215502715766653,-0.0013165240385312048,-0.004265289075101044,0.007226982129915021,0.9920992892562255
2017-03-17,-1,-0.0020783688266034824,-0.001583959065754426,-0.0038253668747522465,0.006784353413150878,0.9925058101896547
2017-03-21,-1,-0.0036173969009254195,-0.0029246663351232254,-0.0025919656171030448,0.007584016581218754,0.9913488658800605
2017-03-23,-1,-0.004671638166172833,-0.0037764183953202177,-0.0025919656171030448,0.007584016581218754,0.9906637409691174
2017-03-27,-1,-0.003850542790381935,-0.003128721509873447,-0.0025919656171030448,0.007778223582857331,0.9904405936871127
2017-03-29,-1,-0.003905216676238633,-0.00313600721709313,-0.0025919656171030448,0.008088285259248651,0.9905451900486527
2017-03-31,-1,-0.0032486205310247713,-0.0025252229832997673,-0.005415882104849789,0.007584016581218754,0.9887355831357202
2017-04-04,-1,-0.003138436988889017,-0.0025000612548161175,-0.0041971999824412,0.008088285259248651,0.9876748699903241
2017-04-06,-1,-0.002551426166439561,-0.0019945742926517768,-0.010420952012673897,0.007584016581218754,0.9878570416037684
2017-04-10,-1,-0.0007913107378210392,-0.0006092352756356765,-0.010420952012673897,0.007584016581218754,0.988188198383604
2017-04-12,-1,-0.001596679377550972,-0.0012713088314337236,-0.01126015615297545,0.008076024719998728,0.9875236207301067
2017-04-17,-1,-0.002416473201369031,-0.0019191061644632183,-0.011502561930892614,0.009697072777527047,0.9864760237939133
2017-04-19,-1,-0.0004973757129255673,-0.0002806450997909867,-0.011502561930892614,0.007807709117505541,0.9879252194075996
2017-04-21,-1,-0.001063178273709058,-0.000773006146181389,-0.011069854374075216,0.009697072777527047,0.9873484824479062
2017-04-25,0,-9.394870253053326e-05,4.554592747381712e-05,-0.011069854374075216,0.007940472219444016,0.9877652605353834
2017-04-27,1,0.001354672468087452,0.001510640172672762,-0.011069854374075216,0.005983752947062583,0.9880683117195586
2017-05-01,-1,-0.0014894558438003501,-0.001309406899331832,-0.011069854374075216,0.00430136185533452,0.9908474668561602
2017-05-03,-1,-0.0001927674892014611,-0.00014058814262004203,-0.007689558742908794,0.00430136185533452,0.9918265229811705
2017-05-05,0,-1.5679365548375746e-05,9.66444341222605e-05,-0.007770360668881182,0.004456593679279216,0.9911440133026713
2017-05-09,-1,-0.0007341256795252463,-0.0007299244622834037,-0.00623333842578274,0.007422925218792117,0.9916525055386004
2017-05-11,-1,-0.0011897726235432025,-0.001129683224209798,-0.004486369100395823,0.008107019210009307,0.9918645656847531
2017-05-15,-1,-0.000564011175459402,-0.0005123452287249183,-0.002682782582018605,0.008107019210009307,0.992342024960867
2017-05-17,-1,-0.0006936597675969112,-0.0006570065177086246,-0.002368050324236353,0.008107019210009307,0.992150376713728
2017-05-19,1,0.00011793619483489086,0.0002325357288229714,-0.002368050324236353,0.008276317266801912,0.9923476635099895
2017-05-23,-1,-8.98575596666237e-05,-4.810154825374559e-05,-0.006680277754029261,0.008276317266801912,0.9911515032271297
2017-05-25,1,0.00011917045701506103,0.00022721048475539803,-0.006323888671967886,0.008276317266801912,0.9913671270761061
2017-05-30,1,0.0002518455577475726,0.0004433321951009527,-0.006323888671967886,0.009745676786720864,0.9911578993834643
2017-06-01,-1,-0.0010587671789412405,-0.0009448977342334773,-0.00706092910506552,0.009745676786720864,0.9906456168522718
2017-06-05,-1,-0.0013903122934650913,-0.0012116386140961723,-0.00706092910506552,0.009745676786720864,0.9901949050010562
2017-06-07,-1,-0.0011027570919730284,-0.0009581673874460686,-0.007896973096681676,0.009745676786720864,0.9894343430911888
2017-06-09,1,0.00015367969456454462,0.00016752864923872562,-0.009859131161095262,0.004839776690876198,0.9895176008807106
2017-06-13,1,0.0009706263624000757,0.0010987900397202647,-0.009859131161095262,0.004217662883415824,0.9899857141745493
2017-06-15,1,0.0007339799167230489,0.0008319254922606518,-0.009859131161095262,0.004217662883415824,0.9901945593432754
2017-06-19,1,0.0021575083625421693,0.0024757725103224594,-0.009859131161095262,0.004217662883415824,0.9903017812398285
2017-06-21,1,0.0011405104557530308,0.0013387310169492585,-0.008332004698574187,0.004217662883415824,0.9901105343580034
2017-06-23,1,0.0007075134542779118,0.0007731187229585482,-0.008332004698574187,0.003888226561195152,0.9899942472030363
2017-06-27,1,0.0006193117995628363,0.0006507301046380336,-0.011214066250979128,0.003888226561195152,0.9885662967703651
2017-06-29,-1,-0.00027925687101832,-0.0001933576073567561,-0.006828152928569362,0.006079240791664157,0.987634647506051
2017-07-03,1,0.001119422721510875,0.0012714728180115552,-0.005068704070872617,0.006079240791664157,0.98896016007949
2017-07-06,-1,-5.4403806538460226e-05,-5.201383607352487e-05,-0.007092623088286222,0.006079240791664157,0.9888009554474292
2017-07-10,-1,-0.0004400624220553881,-0.0004326364370594061,-0.0032507848658162083,0.009031281491570946,0.988770468494037
2017-07-12,-1,-0.0002760401124066095,-0.00026989359958056835,-0.013237674219775737,0.009031281491570946,0.9872013073546191
2017-07-14,0,-2.7548610299104454e-05,4.244120205417536e-05,-0.013237674219775737,0.009031281491570946,0.9870960167631385
2017-07-18,1,0.0001595184392854268,0.00017248123236417203,-0.013237674219775737,0.00572014410785819,0.9877611193190388
2017-07-20,-1,-0.000978159861192457,-0.0008754130564796384,-0.013237674219775737,0.009651915376714065,0.9877271292753738
2017-07-24,-1,-0.0008830183243138342,-0.0008063231667773175,-0.013628559211551922,0.009651915376714065,0.9865936851120732
2017-07-26,-1,-0.0007272428805676824,-0.0006720238964835998,-0.013237674219775737,0.009651915376714065,0.9879753540121377
2017-07-28,1,0.0005134456184585643,0.000592149346367228,-0.013237674219775737,0.00636221474833749,0.989372285236884
2017-08-01,1,0.0005045893613037736,0.0005352591458455353,-0.013237674219775737,0.00636221474833749,0.9892486655958197
2017-08-03,-1,-0.0006238528102020201,-0.0005177833668792138,-0.008244177453408533,0.00844168928160945,0.9894245521197027
2017-08-07,1,0.000710082917014876,0.0008256943131129699,-0.010498282692187893,0.00636221474833749,0.988957201384139
2017-08-09,-1,-0.0008717943744092204,-0.0008013815402014844,-0.005347112437883553,0.00844168928160945,0.9897720430887209
2017-08-11,-1,-0.001772882390060071,-0.001541871294133233,-0.0032846556200069772,0.009343961867488242,0.9893091498553723
2017-08-15,-1,-0.0014275944387408285,-0.0012450158336760383,-0.0032846556200069772,0.00992805950010922,0.9891431458786054
2017-08-17,-1,-0.001496809720092538,-0.0013067091285423585,-0.0032846556200069772,0.008751436955016722,0.9903264070779811
2017-08-21,-1,-0.0024910592748121256,-0.0022120848949408493,-0.001377196583119216,0.008751436955016722,0.990816321472793
2017-08-23,-1,-0.0013601443811473374,-0.001262419869097431,-0.001377196583119216,0.007046447149491892,0.9914973423674079
2017-08-25,-1,-0.0014569166618599852,-0.001309459792563639,-0.001377196583119216,0.007046447149491892,0.9916565887035164
2017-08-29,-1,-0.0011107918118411254,-0.0010303766311631668,0.0005540755873419936,0.006813572421985057,0.9920863309006349
2017-08-31,-1,-0.00015086097724468996,-0.0001261171244882831,-0.001377196583119216,0.004115071064406518,0.9936295463025836
2017-09-05,-1,-0.0014023131445966071,-0.0012746220844454276,-0.0023427125545999274,0.004115071064406518,0.9941093647761234
2017-09-07,-1,-0.00042380115585687197,-0.0004225510443086334,-0.0023189293861745194,0.004115071064406518,0.9950358149769886
2017-09-11,1,0.0007699210767356229,0.0009953366778660596,-0.0023189293861745194,0.0032702800257137046,0.996003529937492
2017-09-13,1,0.0011452872523987716,0.0013977554044266541,-0.0023189293861745194,0.0040829935278778985,0.9959529239412784
2017-09-15,1,0.0010578419654605604,0.0013297182101299604,-0.0005482320268727021,0.0064875403901997275,0.9944740088279522
2017-09-19,1,0.001530188258319255,0.0018917191992105335,-0.002795888925975671,0.0064875403901997275,0.994153051653588
2017-09-21,1,0.0002474740140407537,0.00025174263194611187,-0.0023189293861745194,0.006500123059722236,0.9931732554163328
2017-09-25,1,0.0005467994310317407,0.0006022408147258337,-0.0031308091410222876,0.006500123059722236,0.9920907204976523
2017-09-27,1,0.0007898541037319371,0.0008689472771568191,-0.0038432677163090833,0.006500123059722236,0.9908879262285372
